shamilmamedov/beam_handling/log/param_estimation_ICRA/impulse_Xup_2.csv
duration, success rate, q[0], q[1], q[2], q[3], q[4], q[5], q[6],q_d[0], q_d[1], q_d[2], q_d[3], q_d[4], q_d[5], q_d[6],dq[0], dq[1], dq[2], dq[3], dq[4], dq[5], dq[6],dq_d[0], dq_d[1], dq_d[2], dq_d[3], dq_d[4], dq_d[5], dq_d[6],tau_J[0], tau_J[1], tau_J[2], tau_J[3], tau_J[4], tau_J[5], tau_J[6],tau_ext_hat_filtered[0], tau_ext_hat_filtered[1], tau_ext_hat_filtered[2], tau_ext_hat_filtered[3], tau_ext_hat_filtered[4], tau_ext_hat_filtered[5], tau_ext_hat_filtered[6]
5554806,0,-1.5706,-0.522749,-3.32764e-05,-2.09645,1.57033,1.57169,0.78507,-1.57079,-0.523598,-3.43841e-07,-2.0944,1.5708,1.5708,0.785397,-0.000727163,-0.000777461,0.000283892,-0.000855918,-0.000531172,-0.000123082,0.00156902,0,0,0,0,0,0,0,-0.303639,-10.34,-0.254453,21.416,0.971697,-0.624181,0.0651953,-0.329343,-1.14334,0.11348,2.76256,0.381407,-0.593667,0.142109
5566709,0,-1.5706,-0.522826,-2.47908e-05,-2.0964,1.57033,1.57168,0.785078,-1.57079,-0.523598,-3.43841e-07,-2.0944,1.5708,1.5708,0.785397,-0.000671252,-0.000269196,0.000120555,0.00098072,0.000417131,-5.88871e-05,0.0011003,0,0,0,0,0,0,0,-0.327442,-10.1892,-0.329831,21.2931,0.96071,-0.611364,0.0780126,-0.343535,-1.06511,0.0612536,2.79123,0.405906,-0.610684,0.147632
5566710,0,-1.5706,-0.522826,-2.47908e-05,-2.09641,1.57033,1.57168,0.785073,-1.57079,-0.523598,-3.43841e-07,-2.0944,1.5708,1.5708,0.785397,0.000202112,-0.000179464,8.03697e-05,-0.00110942,-0.000332264,-3.92581e-05,-0.000927977,0,0,0,0,0,0,0,-0.355213,-10.1892,-0.329831,21.3684,0.97719,-0.611364,0.122873,-0.343436,-1.06307,0.061542,2.79015,0.40586,-0.610693,0.147744
5566711,0,-1.5706,-0.522825,-2.47908e-05,-2.09641,1.57033,1.57168,0.785074,-1.57079,-0.523598,-3.43841e-07,-2.0944,1.5708,1.5708,0.785397,-0.00107168,0.000437169,5.35798e-05,-0.000182804,-0.00022151,0.000211187,0.000805502,0,0,0,0,0,0,0,-0.303639,-10.213,-0.329831,21.3446,0.97719,-0.617772,0.0844213,-0.343346,-1.06244,0.061753,2.79012,0.405859,-0.610716,0.147837
5566712,0,-1.5706,-0.522826,-2.47908e-05,-2.0964,1.57033,1.57168,0.785072,-1.57079,-0.523598,-3.43841e-07,-2.0944,1.5708,1.5708,0.785397,0.00049197,-0.000265366,3.57199e-05,0.00164137,5.57775e-05,-9.65677e-05,6.22837e-05,0,0,0,0,0,0,0,-0.355213,-10.1892,-0.329831,21.2693,0.971697,-0.611364,0.0972387,-0.34319,-1.06258,0.0620204,2.79038,0.405872,-0.610762,0.147915
5566713,0,-1.5706,-0.522825,-2.11716e-05,-2.09641,1.57033,1.57168,0.785073,-1.57079,-0.523598,-3.43841e-07,-2.0944,1.5708,1.5708,0.785397,0.00032798,0.000379901,0.00123024,-0.000668992,3.7185e-05,-6.43785e-05,0.000753599,0,0,0,0,0,0,0,-0.355213,-10.213,-0.381406,21.3446,0.971697,-0.611364,0.0780126,-0.343702,-1.06218,0.0612991,2.78994,0.405888,-0.610708,0.147975
5566714,0,-1.57059,-0.522826,-2.47908e-05,-2.09641,1.57033,1.57168,0.785077,-1.57079,-0.523598,-3.43841e-07,-2.0944,1.5708,1.5708,0.785397,0.000775465,-0.000303544,-0.000386266,-0.00211643,-0.000178661,-4.2919e-05,0.000739758,0,0,0,0,0,0,0,-0.379017,-10.1892,-0.329831,21.416,0.97719,-0.611364,0.071604,-0.345142,-1.06292,0.0592118,2.79054,0.405984,-0.610524,0.147996
5566715,0,-1.5706,-0.522823,-2.2842e-05,-2.09641,1.57033,1.57168,0.78507,-1.57079,-0.523598,-3.43841e-07,-2.0944,1.5708,1.5708,0.785397,-3.98352e-05,0.00100406,0.000392103,-0.000854142,0.000287794,0.000446105,-0.00215168,0,0,0,0,0,0,0,-0.355213,-10.2408,-0.357602,21.3922,0.966203,-0.624181,0.143015,-0.34661,-1.0661,0.0571255,2.79326,0.406166,-0.61036,0.147953
5566716,0,-1.5706,-0.522825,-2.64613e-05,-2.09641,1.57033,1.57168,0.785076,-1.57079,-0.523598,-3.43841e-07,-2.0944,1.5708,1.5708,0.785397,-0.000676171,1.97614e-05,-0.000945024,0.00119381,-1.15878e-05,-0.000177314,0.000498324,0,0,0,0,0,0,0,-0.327442,-10.213,-0.306028,21.3169,0.971697,-0.611364,0.09083,-0.347196,-1.07009,0.056395,2.79629,0.406328,-0.610348,0.147864
5566717,0,-1.5706,-0.522825,-2.47908e-05,-2.09641,1.57033,1.57168,0.785067,-1.57079,-0.523598,-3.43841e-07,-2.0944,1.5708,1.5708,0.785397,-0.00045078,1.31743e-05,-7.3204e-05,0.000795873,-0.000448535,-0.000355569,-0.00160056,0,0,0,0,0,0,0,-0.327442,-10.213,-0.329831,21.3169,0.983598,-0.604955,0.143015,-0.346598,-1.07199,0.0574528,2.7974,0.406368,-0.610507,0.147781
5566718,0,-1.5706,-0.522828,-2.47908e-05,-2.09641,1.57033,1.57168,0.785075,-1.57079,-0.523598,-3.43841e-07,-2.0944,1.5708,1.5708,0.785397,-0.00030052,-0.00110484,-4.88027e-05,0.000530582,-6.16642e-05,-0.000237046,0.000628378,0,0,0,0,0,0,0,-0.327442,-10.1654,-0.329831,21.3169,0.97719,-0.604955,0.0972387,-0.345535,-1.07058,0.0591897,2.7963,0.406314,-0.610699,0.147737
5566719,0,-1.5706,-0.522825,-2.64613e-05,-2.09641,1.57033,1.57168,0.785078,-1.57079,-0.523598,-3.43841e-07,-2.0944,1.5708,1.5708,0.785397,0.000449267,0.000377063,-0.000589347,-0.000295892,-4.11095e-05,7.93285e-05,0.001131,0,0,0,0,0,0,0,-0.355213,-10.213,-0.306028,21.3446,0.97719,-0.611364,0.0780126,-0.344648,-1.06745,0.0606651,2.79437,0.406249,-0.610827,0.147744
5566720,0,-1.5706,-0.522826,-2.47908e-05,-2.0964,1.57033,1.57168,0.785074,-1.57079,-0.523598,-3.43841e-07,-2.0944,1.5708,1.5708,0.785397,0.000299511,-0.000305436,0.000163914,0.00100916,0.000582945,0.000290245,-0.000670157,0,0,0,0,0,0,0,-0.355213,-10.1892,-0.329831,21.2931,0.96071,-0.617772,0.116465,-0.344113,-1.06471,0.0616935,2.79273,0.406217,-0.610892,0.147779
5566721,0,-1.5706,-0.522825,-2.47908e-05,-2.09641,1.57033,1.57168,0.785076,-1.57079,-0.523598,-3.43841e-07,-2.0944,1.5708,1.5708,0.785397,-0.00044994,0.000353188,0.000109276,0.000115964,0.00018518,-0.000281221,0.000265306,0,0,0,0,0,0,0,-0.327442,-10.213,-0.329831,21.3169,0.966203,-0.604955,0.0972387,-0.343996,-1.06267,0.0621144,2.79129,0.406214,-0.610895,0.147814
5566722,0,-1.5706,-0.522823,-2.64613e-05,-2.0964,1.57033,1.57168,0.785071,-1.57079,-0.523598,-3.43841e-07,-2.0944,1.5708,1.5708,0.785397,-0.00029996,0.000885072,-0.000483961,0.00119093,-0.000283448,0.000287237,-0.00124728,0,0,0,0,0,0,0,-0.327442,-10.2408,-0.306028,21.2693,0.97719,-0.617772,0.135691,-0.343804,-1.0619,0.0625809,2.79026,0.406221,-0.61092,0.147849
5566723,0,-1.5706,-0.522823,-2.64613e-05,-2.0964,1.57033,1.57168,0.785078,-1.57079,-0.523598,-3.43841e-07,-2.0944,1.5708,1.5708,0.785397,-0.000199973,0.000590048,-0.000322641,0.000793956,1.44852e-05,-4.58677e-05,0.00130471,0,0,0,0,0,0,0,-0.327442,-10.2408,-0.306028,21.2693,0.971697,-0.611364,0.0780126,-0.343173,-1.06277,0.0636815,2.78969,0.40622,-0.611029,0.147898
5566724,0,-1.5706,-0.522825,-2.47908e-05,-2.09641,1.57033,1.57168,0.785073,-1.57079,-0.523598,-3.43841e-07,-2.0944,1.5708,1.5708,0.785397,0.000516298,-0.000256248,0.000341718,-0.00058432,0.000213107,0.000444139,-0.000791707,0,0,0,0,0,0,0,-0.355213,-10.213,-0.329831,21.3169,0.966203,-0.624181,0.122873,-0.342664,-1.06419,0.0646088,2.7894,0.406231,-0.611123,0.147967
5566725,0,-1.5706,-0.522825,-2.47908e-05,-2.09641,1.57033,1.57168,0.785077,-1.57079,-0.523598,-3.43841e-07,-2.0944,1.5708,1.5708,0.785397,-0.000305415,-0.000170832,0.000227812,-0.00103916,-0.000264829,5.8734e-05,0.000896349,0,0,0,0,0,0,0,-0.327442,-10.213,-0.329831,21.3446,0.97719,-0.617772,0.0844213,-0.342794,-1.06559,0.064538,2.78977,0.406299,-0.611117,0.148044
5566726,0,-1.5706,-0.522826,-2.2842e-05,-2.09641,1.57033,1.57168,0.785074,-1.57079,-0.523598,-3.43841e-07,-2.0944,1.5708,1.5708,0.785397,0.000446004,-0.0006707,0.000801489,-0.0018064,-0.000176553,3.9156e-05,-0.00035187,0,0,0,0,0,0,0,-0.355213,-10.1892,-0.357602,21.3922,0.97719,-0.617772,0.110056,-0.343526,-1.06705,0.0634667,2.79113,0.406433,-0.611022,0.148117
5566727,0,-1.5706,-0.522828,-2.47908e-05,-2.0964,1.57033,1.57168,0.785072,-1.57079,-0.523598,-3.43841e-07,-2.0944,1.5708,1.5708,0.785397,-0.000352278,-0.00100395,-0.000115288,0.00111578,8.57485e-05,-0.000211255,-0.000946657,0,0,0,0,0,0,0,-0.327442,-10.1654,-0.329831,21.2931,0.971697,-0.611364,0.129282,-0.34457,-1.0671,0.061862,2.79218,0.406575,-0.610872,0.148185
5566728,0,-1.5706,-0.522826,-2.2842e-05,-2.09641,1.57033,1.57168,0.785075,-1.57079,-0.523598,-3.43841e-07,-2.0944,1.5708,1.5708,0.785397,-0.000234852,-0.000112485,0.000572755,0.000187044,0.000464067,9.65223e-05,0.00126777,0,0,0,0,0,0,0,-0.327442,-10.1892,-0.357602,21.3169,0.96071,-0.617772,0.0780126,-0.345386,-1.06468,0.0605661,2.7915,0.406644,-0.610742,0.14826
5566729,0,-1.5706,-0.522825,-2.47908e-05,-2.09641,1.57033,1.57168,0.78507,-1.57079,-0.523598,-3.43841e-07,-2.0944,1.5708,1.5708,0.785397,0.000493046,0.000481822,-0.000267777,-0.000524918,-0.000300974,6.43482e-05,-0.000341617,0,0,0,0,0,0,0,-0.355213,-10.213,-0.329831,21.3446,0.97719,-0.617772,0.110056,-0.345904,-1.06253,0.0596931,2.79049,0.406679,-0.610675,0.148348
5566730,0,-1.5706,-0.522825,-2.47908e-05,-2.09641,1.57033,1.57168,0.785076,-1.57079,-0.523598,-3.43841e-07,-2.0944,1.5708,1.5708,0.785397,0.000328697,0.000321215,-0.000178518,-0.000349945,0.000206252,-0.00019446,0.00095905,0,0,0,0,0,0,0,-0.355213,-10.213,-0.329831,21.3446,0.966203,-0.611364,0.0780126,-0.346254,-1.06299,0.0591303,2.79079,0.406736,-0.610674,0.148429
5566731,0,-1.5706,-0.522825,-2.47908e-05,-2.09641,1.57033,1.57168,0.78507,-1.57079,-0.523598,-3.43841e-07,-2.0944,1.5708,1.5708,0.785397,-0.000430482,0.000214143,-0.000119012,0.000416317,-6.59493e-05,-0.000366999,-0.000784787,0,0,0,0,0,0,0,-0.327442,-10.213,-0.329831,21.3169,0.971697,-0.604955,0.116465,-0.34626,-1.06485,0.0591411,2.79171,0.406786,-0.610747,0.148486
5566732,0,-1.5706,-0.522828,-2.47908e-05,-2.09641,1.57033,1.57168,0.785076,-1.57079,-0.523598,-3.43841e-07,-2.0944,1.5708,1.5708,0.785397,-0.0008438,-0.000970862,-7.93414e-05,-0.000372069,-0.000247417,-7.30708e-06,0.000663604,0,0,0,0,0,0,0,-0.303639,-10.1654,-0.329831,21.3446,0.97719,-0.611364,0.0844213,-0.345694,-1.0658,0.0599365,2.79205,0.40679,-0.610889,0.148517
5566733,0,-1.57059,-0.522826,-2.2842e-05,-2.09641,1.57033,1.57168,0.785071,-1.57079,-0.523598,-3.43841e-07,-2.0944,1.5708,1.5708,0.785397,0.0012007,-9.04293e-05,0.00059672,0.000401568,0.000648858,-4.87139e-06,-0.00145647,0,0,0,0,0,0,0,-0.379017,-10.1892,-0.357602,21.3169,0.955217,-0.611364,0.135691,-0.345153,-1.06491,0.0606161,2.79151,0.406764,-0.610992,0.148529
5566734,0,-1.5706,-0.522826,-2.64613e-05,-2.09641,1.57033,1.57168,0.785073,-1.57079,-0.523598,-3.43841e-07,-2.0944,1.5708,1.5708,0.785397,0.000243658,-6.02862e-05,-0.000808613,0.000267712,2.56707e-05,-3.24759e-06,-0.000496262,0,0,0,0,0,0,0,-0.355213,-10.1892,-0.306028,21.3169,0.966203,-0.611364,0.122873,-0.345232,-1.06328,0.0604541,2.7905,0.406731,-0.61098,0.148536
5566735,0,-1.5706,-0.522826,-2.2842e-05,-2.0964,1.57033,1.57168,0.78508,-1.57079,-0.523598,-3.43841e-07,-2.0944,1.5708,1.5708,0.785397,-0.00104399,-4.01908e-05,0.000667351,0.0012921,-0.000627146,-2.16506e-06,0.00204275,0,0,0,0,0,0,0,-0.303639,-10.1892,-0.357602,21.2693,0.983598,-0.611364,0.0587866,-0.345211,-1.06159,0.0604859,2.78912,0.406662,-0.610981,0.148569
5566736,0,-1.5706,-0.522825,-2.64613e-05,-2.0964,1.57033,1.57168,0.785074,-1.57079,-0.523598,-3.43841e-07,-2.0944,1.5708,1.5708,0.785397,-0.00013918,0.000530018,-0.000761525,0.000861399,-0.000180739,-1.44337e-06,-0.000537039,0,0,0,0,0,0,0,-0.327442,-10.213,-0.306028,21.2693,0.97719,-0.611364,0.110056,-0.344581,-1.06,0.0613171,2.78733,0.40655,-0.611073,0.148629
5566737,0,-1.5706,-0.522825,-2.47908e-05,-2.09641,1.57033,1.57168,0.785076,-1.57079,-0.523598,-3.43841e-07,-2.0944,1.5708,1.5708,0.785397,-9.27865e-05,0.000353345,4.91283e-05,-0.00174578,-0.000561302,-9.62249e-07,0.000354051,0,0,0,0,0,0,0,-0.327442,-10.213,-0.329831,21.3684,0.989092,-0.611364,0.09083,-0.343583,-1.06023,0.0626376,2.78657,0.406476,-0.61123,0.14867
5566738,0,-1.5706,-0.522825,-2.47908e-05,-2.09641,1.57033,1.57168,0.785067,-1.57079,-0.523598,-3.43841e-07,-2.0944,1.5708,1.5708,0.785397,0.000587756,0.000235564,3.27522e-05,-0.00116386,6.66083e-05,-0.000475359,-0.00193411,0,0,0,0,0,0,0,-0.355213,-10.213,-0.329831,21.3684,0.97719,-0.598546,0.149424,-0.342856,-1.06329,0.0635479,2.78814,0.406527,-0.611354,0.148678
5566739,0,-1.5706,-0.522826,-2.47908e-05,-2.09641,1.57033,1.57168,0.785072,-1.57079,-0.523598,-3.43841e-07,-2.0944,1.5708,1.5708,0.785397,-0.000257776,-0.00039977,2.18348e-05,-0.000219092,0.000247856,-7.95473e-05,0.000643377,0,0,0,0,0,0,0,-0.327442,-10.1892,-0.329831,21.3446,0.971697,-0.604955,0.0972387,-0.342681,-1.06701,0.0636412,2.7907,0.406668,-0.611375,0.148681
5566740,0,-1.57059,-0.52283,-2.47908e-05,-2.09641,1.57033,1.57168,0.785072,-1.57079,-0.523598,-3.43841e-07,-2.0944,1.5708,1.5708,0.785397,0.00103457,-0.00147294,1.45565e-05,0.000503553,0.000165237,0.000421686,-0.000283159,0,0,0,0,0,0,0,-0.379017,-10.1377,-0.329831,21.3169,0.971697,-0.617772,0.116465,-0.342859,-1.06774,0.0632721,2.7917,0.406786,-0.611288,0.148717
5566741,0,-1.5706,-0.522826,-2.2842e-05,-2.09641,1.57033,1.57168,0.785078,-1.57079,-0.523598,-3.43841e-07,-2.0944,1.5708,1.5708,0.785397,0.000132905,0.000224467,0.000659318,-0.00142754,-0.000330651,0.000281124,0.00147274,0,0,0,0,0,0,0,-0.355213,-10.1892,-0.357602,21.3922,0.983598,-0.617772,0.071604,-0.34356,-1.06572,0.0621954,2.79126,0.40688,-0.611087,0.148793
5566742,0,-1.5706,-0.522828,-2.2842e-05,-2.0964,1.57033,1.57168,0.785078,-1.57079,-0.523598,-3.43841e-07,-2.0944,1.5708,1.5708,0.785397,8.86031e-05,-0.000407168,0.000439546,0.00192517,1.69248e-05,0.000187416,0.000744468,0,0,0,0,0,0,0,-0.355213,-10.1654,-0.357602,21.2693,0.97719,-0.617772,0.0780126,-0.344689,-1.06355,0.0604726,2.79063,0.406988,-0.610836,0.14888
5566743,0,-1.5706,-0.522826,-2.47908e-05,-2.09641,1.57033,1.57168,0.785073,-1.57079,-0.523598,-3.43841e-07,-2.0944,1.5708,1.5708,0.785397,5.90687e-05,0.000285367,-0.000356584,-0.00159341,1.12832e-05,-0.000112415,-0.0011652,0,0,0,0,0,0,0,-0.355213,-10.1892,-0.329831,21.3922,0.97719,-0.611364,0.122873,-0.345614,-1.06187,0.0590562,2.78991,0.407092,-0.610647,0.148938
5566744,0,-1.5706,-0.522826,-2.2842e-05,-2.09641,1.57033,1.57168,0.785076,-1.57079,-0.523598,-3.43841e-07,-2.0944,1.5708,1.5708,0.785397,3.93792e-05,0.000190245,-0.00589643,5.13476e-05,-0.000229837,0.000162416,0.000172635,0,0,0,0,0,0,0,-0.355213,-10.1892,-0.357602,21.3446,0.983598,-0.617772,0.0972387,-0.34427,-1.06184,0.0613833,2.79009,0.407139,-0.610834,0.148944
5566745,0,-1.5706,-0.522826,-2.2842e-05,-2.09641,1.57033,1.57168,0.785074,-1.57079,-0.523598,-3.43841e-07,-2.0944,1.5708,1.5708,0.785397,2.62528e-05,0.00012683,-0.00445664,3.42318e-05,0.000287585,-0.000129082,-0.000596987,0,0,0,0,0,0,0,-0.355213,-10.1892,-0.357602,21.3446,0.971697,-0.611364,0.116465,-0.338815,-1.06321,0.0705512,2.79099,0.407038,-0.61167,0.148919
5566746,0,-1.5706,-0.522825,-2.2842e-05,-2.09641,1.57033,1.57168,0.785074,-1.57079,-0.523598,-3.43841e-07,-2.0944,1.5708,1.5708,0.785397,-0.000632112,0.000641365,-0.00336537,0.000672435,0.000395174,0.000151304,0.000788804,0,0,0,0,0,0,0,-0.327442,-10.213,-0.357602,21.3169,0.966203,-0.617772,0.0844213,-0.330915,-1.06469,0.0837404,2.79156,0.406819,-0.612893,0.148888
5566747,0,-1.5706,-0.522824,-2.2842e-05,-2.09641,1.57033,1.57168,0.785074,-1.57079,-0.523598,-3.43841e-07,-2.0944,1.5708,1.5708,0.785397,0.000228206,-0.000129235,-0.00253928,0.00044829,-0.000143452,-0.000136489,-0.000186208,0,0,0,0,0,0,0,-0.355213,-10.1892,-0.357602,21.3169,0.97719,-0.611364,0.103647,-0.323427,-1.06586,0.0961481,2.79165,0.406596,-0.614066,0.148862
5566748,0,-1.5706,-0.522824,-2.47908e-05,-2.09641,1.57033,1.57168,0.785075,-1.57079,-0.523598,-3.43841e-07,-2.0944,1.5708,1.5708,0.785397,0.000152137,0.000470655,-0.00256424,0.00663728,0.000107816,-9.09929e-05,-0.000124139,0,0,0,0,0,0,0,-0.355213,-10.213,-0.329831,21.3169,0.971697,-0.611364,0.103647,-0.317757,-1.06417,0.105579,2.78912,0.406336,-0.614957,0.148844
5566749,0,-1.5706,-0.522824,-2.64613e-05,-2.0964,1.57033,1.57168,0.78507,-1.57079,-0.523598,-3.43841e-07,-2.0944,1.5708,1.5708,0.785397,-0.001105,0.00031377,-0.00243264,0.00550987,7.18773e-05,0.000176697,-0.000794836,0,0,0,0,0,0,0,-0.303639,-10.213,-0.306028,21.2931,0.971697,-0.617772,0.122873,-0.31369,-1.05737,0.11238,2.78161,0.405943,-0.615581,0.148842
5566750,0,-1.5706,-0.522823,-2.47908e-05,-2.09641,1.57033,1.57168,0.785072,-1.57079,-0.523598,-3.43841e-07,-2.0944,1.5708,1.5708,0.785397,0.000469759,0.000858794,-0.0011897,0.00286297,-0.000392891,-0.00035692,-0.000529891,0,0,0,0,0,0,0,-0.355213,-10.2408,-0.329831,21.3446,0.983598,-0.604955,0.122873,-0.31103,-1.0485,0.116769,2.77174,0.405516,-0.615984,0.14886
5566751,0,-1.5706,-0.522826,-2.81317e-05,-2.09641,1.57033,1.57168,0.785078,-1.57079,-0.523598,-3.43841e-07,-2.0944,1.5708,1.5708,0.785397,-0.000336442,-0.000633897,-0.00200032,0.00285537,0.000178882,-5.87641e-07,0.00154561,0,0,0,0,0,0,0,-0.327442,-10.1892,-0.282224,21.3169,0.971697,-0.611364,0.071604,-0.310135,-1.04097,0.118234,2.76333,0.40522,-0.616123,0.148909
5566752,0,-1.5706,-0.522826,-2.2842e-05,-2.09641,1.57033,1.57168,0.785074,-1.57079,-0.523598,-3.43841e-07,-2.0944,1.5708,1.5708,0.785397,-0.000224294,-0.000422598,0.000359521,0.00212642,-0.000321555,0.000236967,-0.000631105,0,0,0,0,0,0,0,-0.327442,-10.1892,-0.357602,21.3169,0.983598,-0.617772,0.116465,-0.31089,-1.03419,0.11696,2.75677,0.405073,-0.615994,0.14898
5566753,0,-1.5706,-0.522826,-2.64613e-05,-2.0964,1.57033,1.57168,0.785079,-1.57079,-0.523598,-3.43841e-07,-2.0944,1.5708,1.5708,0.785397,0.000500084,-0.000281732,-0.00101937,0.00214155,2.29891e-05,0.000395337,0.00147813,0,0,0,0,0,0,0,-0.355213,-10.1892,-0.306028,21.2931,0.97719,-0.624181,0.0651953,-0.313257,-1.02812,0.11301,2.75194,0.405077,-0.615611,0.149047
5566754,0,-1.5706,-0.522826,-2.07115e-05,-2.0964,1.57033,1.57168,0.785073,-1.57079,-0.523598,-3.43841e-07,-2.0944,1.5708,1.5708,0.785397,0.00033339,-0.000187821,0.0066521,0.00155305,0.000218777,-0.00021116,-0.00115081,0,0,0,0,0,0,0,-0.355213,-10.1892,-0.357602,21.2931,0.971697,-0.611364,0.122873,-0.31875,-1.02377,0.103966,2.74912,0.405303,-0.614772,0.149092
5566755,0,-1.5706,-0.522824,-2.40807e-05,-2.09641,1.57033,1.57168,0.78507,-1.57079,-0.523598,-3.43841e-07,-2.0944,1.5708,1.5708,0.785397,-0.000427354,-0.000125214,0.00426924,-0.000633866,0.000145851,9.65857e-05,-0.000529846,0,0,0,0,0,0,0,-0.327442,-10.1892,-0.329831,21.3684,0.971697,-0.617772,0.116465,-0.328829,-1.0221,0.0872957,2.74896,0.405842,-0.613273,0.149109
5566756,0,-1.5706,-0.522827,-2.62246e-05,-2.09641,1.57033,1.57168,0.785069,-1.57079,-0.523598,-3.43841e-07,-2.0944,1.5708,1.5708,0.785397,-0.000284903,-0.000640288,0.00265244,0.000854355,9.7234e-05,6.43905e-05,-0.00059059,0,0,0,0,0,0,0,-0.327442,-10.1654,-0.306028,21.3169,0.971697,-0.617772,0.122873,-0.340743,-1.02306,0.0674031,2.75142,0.406573,-0.611522,0.149113
5566757,0,-1.5706,-0.522826,-2.47119e-05,-2.09641,1.57033,1.57168,0.785076,-1.57079,-0.523598,-3.43841e-07,-2.0944,1.5708,1.5708,0.785397,-0.000189935,0.000129953,0.00259743,-2.71641e-05,6.48227e-05,-0.000194432,0.00103043,0,0,0,0,0,0,0,-0.327442,-10.1892,-0.329831,21.3446,0.971697,-0.611364,0.0844213,-0.3511,-1.02536,0.0499643,2.75516,0.40728,-0.610017,0.149133
5566758,0,-1.5706,-0.522826,-2.28157e-05,-2.0964,1.57033,1.57168,0.78508,-1.57079,-0.523598,-3.43841e-07,-2.0944,1.5708,1.5708,0.785397,0.00052299,-0.000470176,0.00258547,0.00122798,4.32151e-05,-0.000129621,0.00163639,0,0,0,0,0,0,0,-0.355213,-10.1654,-0.357602,21.2931,0.971697,-0.611364,0.0587866,-0.359576,-1.02826,0.0356944,2.75922,0.407895,-0.608803,0.149175
5566759,0,-1.5706,-0.522826,-2.28332e-05,-2.0964,1.57033,1.57168,0.785073,-1.57079,-0.523598,-3.43841e-07,-2.0944,1.5708,1.5708,0.785397,0.00034866,0.000243361,0.00187683,0.000848396,-0.00017464,-8.64142e-05,-0.00104531,0,0,0,0,0,0,0,-0.355213,-10.1892,-0.357602,21.2931,0.97719,-0.611364,0.116465,-0.366454,-1.03109,0.0242364,2.76286,0.408398,-0.607829,0.149202
5566760,0,-1.5706,-0.522826,-2.47879e-05,-2.0964,1.57033,1.57168,0.785076,-1.57079,-0.523598,-3.43841e-07,-2.0944,1.5708,1.5708,0.785397,-0.000417174,0.000162241,0.000716489,0.000587906,-0.000116427,-5.76095e-05,0.000252565,0,0,0,0,0,0,0,-0.327442,-10.1892,-0.329831,21.2931,0.97719,-0.611364,0.09083,-0.371096,-1.03423,0.0165337,2.7662,0.408778,-0.607194,0.149179
5566761,0,-1.5706,-0.522826,-2.11706e-05,-2.09641,1.57033,1.57168,0.785071,-1.57079,-0.523598,-3.43841e-07,-2.0944,1.5708,1.5708,0.785397,-0.000278116,0.00010816,0.00177025,-0.000797757,-0.000314977,-3.84063e-05,-0.0017644,0,0,0,0,0,0,0,-0.327442,-10.1892,-0.381406,21.3446,0.983598,-0.611364,0.143015,-0.373212,-1.03856,0.0128716,2.77006,0.409072,-0.606942,0.149114
5566762,0,-1.5706,-0.522825,-2.28417e-05,-2.0964,1.57033,1.57168,0.785072,-1.57079,-0.523598,-3.43841e-07,-2.0944,1.5708,1.5708,0.785397,-0.000185411,0.000628919,0.000687976,0.00124395,2.73743e-05,-2.56042e-05,0.000281793,0,0,0,0,0,0,0,-0.327442,-10.213,-0.357602,21.2693,0.97719,-0.611364,0.103647,-0.373589,-1.04389,0.0119276,2.77439,0.409321,-0.60695,0.149043
5566763,0,-1.5706,-0.522826,-2.64612e-05,-2.09641,1.57033,1.57168,0.785075,-1.57079,-0.523598,-3.43841e-07,-2.0944,1.5708,1.5708,0.785397,0.000526007,-0.000137533,-0.000699308,-0.000924527,1.82496e-05,-0.000254428,0.00066258,0,0,0,0,0,0,0,-0.355213,-10.1892,-0.306028,21.3446,0.97719,-0.604955,0.09083,-0.372434,-1.0494,0.0134765,2.77854,0.409503,-0.607177,0.149001
5566764,0,-1.5706,-0.522826,-2.81317e-05,-2.09641,1.57033,1.57168,0.785075,-1.57079,-0.523598,-3.43841e-07,-2.0944,1.5708,1.5708,0.785397,-0.000298943,-9.16885e-05,-0.000986667,-0.000609293,0.000215617,-0.000169619,0.000204361,0,0,0,0,0,0,0,-0.327442,-10.1892,-0.282224,21.3446,0.971697,-0.604955,0.0972387,-0.369452,-1.05457,0.0180814,2.7826,0.409605,-0.607655,0.148985
5566765,0,-1.5706,-0.522826,-2.11716e-05,-2.09641,1.57033,1.57168,0.785076,-1.57079,-0.523598,-3.43841e-07,-2.0944,1.5708,1.5708,0.785397,-0.000199295,-0.000617938,0.00168953,-0.000400901,0.000347195,-0.000113079,0.0003736,0,0,0,0,0,0,0,-0.327442,-10.1654,-0.381406,21.3446,0.966203,-0.604955,0.09083,-0.365647,-1.0587,0.0240354,2.78636,0.409666,-0.608218,0.148971
5566766,0,-1.5706,-0.522826,-2.2842e-05,-2.09641,1.57033,1.57168,0.785071,-1.57079,-0.523598,-3.43841e-07,-2.0944,1.5708,1.5708,0.785397,-0.000132863,0.000144854,0.000589991,0.000386317,0.000231463,0.000399332,-0.00141245,0,0,0,0,0,0,0,-0.327442,-10.1892,-0.357602,21.3169,0.966203,-0.617772,0.135691,-0.362589,-1.06119,0.0287238,2.78911,0.409721,-0.60863,0.148951
5566767,0,-1.57059,-0.522824,-2.47908e-05,-2.09641,1.57033,1.57168,0.785073,-1.57079,-0.523598,-3.43841e-07,-2.0944,1.5708,1.5708,0.785397,0.00111785,9.6569e-05,-0.000240951,-0.000389092,-4.91416e-05,2.88622e-05,0.000719882,0,0,0,0,0,0,0,-0.379017,-10.1892,-0.329831,21.3446,0.971697,-0.611364,0.09083,-0.360315,-1.06296,0.0321955,2.79112,0.40976,-0.60891,0.148932
5566768,0,-1.5706,-0.522824,-2.64613e-05,-2.09641,1.57033,1.57168,0.785069,-1.57079,-0.523598,-3.43841e-07,-2.0944,1.5708,1.5708,0.785397,-0.000461192,0.000621191,-0.000705945,-0.000813973,-0.000236212,1.92415e-05,-0.000706873,0,0,0,0,0,0,0,-0.327442,-10.213,-0.306028,21.3684,0.97719,-0.611364,0.122873,-0.357912,-1.0656,0.0359959,2.79341,0.409772,-0.609222,0.14893
5566772,0,-1.5706,-0.522826,-2.2842e-05,-2.09641,1.57033,1.57168,0.785072,-1.57079,-0.523598,-3.43841e-07,-2.0944,1.5708,1.5708,0.785397,0.000744118,-0.000310372,0.000326558,0.000883049,-0.000167222,0.000364235,0.000320018,0,0,0,0,0,0,0,-0.355213,-10.1892,-0.357602,21.3169,0.97719,-0.617772,0.103647,-0.348512,-1.07511,0.0502394,2.80063,0.409641,-0.610383,0.148959
5566773,0,-1.5706,-0.522826,-2.2842e-05,-2.09641,1.57033,1.57168,0.785072,-1.57079,-0.523598,-3.43841e-07,-2.0944,1.5708,1.5708,0.785397,0.000496079,-0.000206914,0.000220435,-0.00117401,0.000295419,0.000242823,-0.000498731,0,0,0,0,0,0,0,-0.355213,-10.1892,-0.357602,21.3922,0.966203,-0.617772,0.122873,-0.34767,-1.07509,0.0513053,2.80113,0.409609,-0.610402,0.148971
5566774,0,-1.5706,-0.522828,-2.64613e-05,-2.09641,1.57033,1.57168,0.785078,-1.57079,-0.523598,-3.43841e-07,-2.0944,1.5708,1.5708,0.785397,0.000330719,-0.000694755,-0.00105742,0.000980963,-6.5042e-06,-7.54768e-05,0.00156638,0,0,0,0,0,0,0,-0.355213,-10.1654,-0.306028,21.3169,0.971697,-0.611364,0.071604,-0.346976,-1.07363,0.052268,2.80091,0.409545,-0.610394,0.149025
5566775,0,-1.5706,-0.522825,-2.64613e-05,-2.09641,1.57033,1.57168,0.785074,-1.57079,-0.523598,-3.43841e-07,-2.0944,1.5708,1.5708,0.785397,-0.000985946,0.000650454,-0.000703413,4.65958e-06,-0.000207787,-5.03179e-05,-0.000379898,0,0,0,0,0,0,0,-0.303639,-10.213,-0.306028,21.3446,0.97719,-0.611364,0.110056,-0.345363,-1.07138,0.0547126,2.80004,0.409409,-0.610535,0.149102
5566776,0,-1.5706,-0.522826,-1.92227e-05,-2.09641,1.57033,1.57168,0.785073,-1.57079,-0.523598,-3.43841e-07,-2.0944,1.5708,1.5708,0.785397,0.000549128,-0.000123176,0.00194506,-0.00111029,-0.000138524,0.000203814,-0.000727983,0,0,0,0,0,0,0,-0.355213,-10.1892,-0.409177,21.3922,0.97719,-0.617772,0.122873,-0.343653,-1.07029,0.0572066,2.79973,0.409291,-0.610722,0.149171
5566777,0,-1.5706,-0.522823,-2.64613e-05,-2.09641,1.57033,1.57168,0.785072,-1.57079,-0.523598,-3.43841e-07,-2.0944,1.5708,1.5708,0.785397,0.000366086,0.00112431,-0.00111528,0.000373596,0.000111101,-0.000338842,-0.000722681,0,0,0,0,0,0,0,-0.355213,-10.2408,-0.306028,21.3446,0.971697,-0.604955,0.129282,-0.343072,-1.07129,0.0578914,2.80073,0.409274,-0.610774,0.149233
5566778,0,-1.5706,-0.522823,-2.64613e-05,-2.09641,1.57033,1.57168,0.785069,-1.57079,-0.523598,-3.43841e-07,-2.0944,1.5708,1.5708,0.785397,0.000244057,0.000749539,-0.000742873,0.00024919,7.40673e-05,-0.000225895,-0.000481787,0,0,0,0,0,0,0,-0.355213,-10.2408,-0.306028,21.3446,0.971697,-0.604955,0.129282,-0.342525,-1.07385,0.0586707,2.80228,0.409272,-0.610852,0.149318
5566779,0,-1.5706,-0.522825,-2.2842e-05,-2.09641,1.57033,1.57168,0.785076,-1.57079,-0.523598,-3.43841e-07,-2.0944,1.5708,1.5708,0.785397,0.000162705,-0.000149921,0.000711663,0.000166221,0.000252829,-0.000150596,0.00228976,0,0,0,0,0,0,0,-0.355213,-10.213,-0.357602,21.3446,0.966203,-0.604955,0.0587866,-0.341707,-1.07639,0.0600093,2.8035,0.409239,-0.610976,0.149451
5566780,0,-1.5706,-0.522826,-2.2842e-05,-2.09641,1.57033,1.57168,0.785072,-1.57079,-0.523598,-3.43841e-07,-2.0944,1.5708,1.5708,0.785397,-0.000541144,-0.000656759,0.000474806,-0.000445927,0.000372003,0.00037432,-0.000847085,0,0,0,0,0,0,0,-0.327442,-10.1892,-0.357602,21.3684,0.96071,-0.617772,0.122873,-0.341448,-1.07692,0.0604441,2.80384,0.409198,-0.610989,0.149615
5566781,0,-1.5706,-0.522825,-2.47908e-05,-2.0964,1.57033,1.57168,0.785078,-1.57079,-0.523598,-3.43841e-07,-2.0944,1.5708,1.5708,0.785397,-0.000360763,0.000118972,-0.000332803,0.00202282,4.45515e-05,1.21879e-05,0.00133415,0,0,0,0,0,0,0,-0.327442,-10.213,-0.329831,21.2693,0.966203,-0.611364,0.071604,-0.34126,-1.07502,0.0606579,2.80289,0.409109,-0.61096,0.149769
5566782,0,-1.5706,-0.522826,-2.2842e-05,-2.09641,1.57033,1.57168,0.785073,-1.57079,-0.523598,-3.43841e-07,-2.0944,1.5708,1.5708,0.785397,0.000409105,-0.000477497,0.00042795,0.000234961,2.9701e-05,8.12525e-06,-0.00077208,0,0,0,0,0,0,0,-0.355213,-10.1892,-0.357602,21.3169,0.966203,-0.611364,0.116465,-0.340912,-1.07137,0.0611077,2.80057,0.408944,-0.610942,0.149894
5566783,0,-1.57059,-0.522828,-2.11716e-05,-2.09641,1.57033,1.57168,0.78507,-1.57079,-0.523598,-3.43841e-07,-2.0944,1.5708,1.5708,0.785397,0.000829549,-0.000875143,0.000842266,-0.000492943,-0.000624459,5.41683e-06,-0.00051472,0,0,0,0,0,0,0,-0.379017,-10.1654,-0.381406,21.3446,0.983598,-0.611364,0.116465,-0.341319,-1.06699,0.0604557,2.79797,0.408782,-0.610805,0.149982
5566784,0,-1.57059,-0.522826,-2.2842e-05,-2.09641,1.57033,1.57168,0.785078,-1.57079,-0.523598,-3.43841e-07,-2.0944,1.5708,1.5708,0.785397,0.000553033,-2.66169e-05,4.81382e-06,-0.000885418,2.45032e-05,3.61122e-06,0.00155572,0,0,0,0,0,0,0,-0.379017,-10.1892,-0.357602,21.3684,0.971697,-0.611364,0.0651953,-0.342652,-1.06334,0.0584481,2.79644,0.408691,-0.610539,0.150043
5566785,0,-1.5706,-0.522826,-2.2842e-05,-2.09641,1.57033,1.57168,0.785076,-1.57079,-0.523598,-3.43841e-07,-2.0944,1.5708,1.5708,0.785397,-0.000837737,-1.77446e-05,3.29567e-06,0.000616164,-0.000187115,2.40748e-06,8.7714e-05,0,0,0,0,0,0,0,-0.327442,-10.1892,-0.357602,21.3169,0.97719,-0.611364,0.09083,-0.343733,-1.06137,0.0568378,2.79608,0.408637,-0.61034,0.150081
5566786,0,-1.5706,-0.522828,-2.47908e-05,-2.0964,1.57033,1.57168,0.785079,-1.57079,-0.523598,-3.43841e-07,-2.0944,1.5708,1.5708,0.785397,9.11223e-05,-0.000568642,-0.000647352,0.0009676,7.87072e-05,-0.000235754,0.00100791,0,0,0,0,0,0,0,-0.355213,-10.1654,-0.329831,21.2931,0.971697,-0.604955,0.0651953,-0.343733,-1.05969,0.0568467,2.79549,0.408542,-0.610319,0.150072
5566787,0,-1.5706,-0.522825,-2.11716e-05,-2.09641,1.57033,1.57168,0.785072,-1.57079,-0.523598,-3.43841e-07,-2.0944,1.5708,1.5708,0.785397,6.07482e-05,0.000734529,0.000774907,8.82644e-05,0.000255922,8.01896e-05,-0.00170165,0,0,0,0,0,0,0,-0.355213,-10.213,-0.381406,21.3169,0.966203,-0.611364,0.129282,-0.343285,-1.05794,0.057553,2.7944,0.408422,-0.610371,0.149998
5566788,0,-1.5706,-0.522828,-2.47908e-05,-2.0964,1.57033,1.57168,0.785076,-1.57079,-0.523598,-3.43841e-07,-2.0944,1.5708,1.5708,0.785397,-0.000609115,-0.000623938,-0.000689785,0.00117247,-3.28359e-05,0.000290819,0.000289721,0,0,0,0,0,0,0,-0.327442,-10.1654,-0.329831,21.2693,0.971697,-0.617772,0.09083,-0.342858,-1.05692,0.0582061,2.79342,0.408318,-0.610431,0.149867
5566789,0,-1.5706,-0.522823,-2.64613e-05,-2.09641,1.57033,1.57168,0.785067,-1.57079,-0.523598,-3.43841e-07,-2.0944,1.5708,1.5708,0.785397,0.000243537,0.00134728,-0.00101664,-0.000981583,-2.18906e-05,-0.000280839,-0.00173963,0,0,0,0,0,0,0,-0.355213,-10.2408,-0.306028,21.3446,0.971697,-0.604955,0.143015,-0.341836,-1.05716,0.0597732,2.79301,0.408217,-0.610595,0.149712
5566790,0,-1.5706,-0.522825,-2.2842e-05,-2.09641,1.57033,1.57168,0.785072,-1.57079,-0.523598,-3.43841e-07,-2.0944,1.5708,1.5708,0.785397,-0.000487256,0.000248572,0.000528686,-0.000654385,-1.45937e-05,0.000287492,0.000773025,0,0,0,0,0,0,0,-0.327442,-10.213,-0.357602,21.3446,0.971697,-0.617772,0.09083,-0.340466,-1.06027,0.0618957,2.79441,0.408172,-0.610842,0.149567
5566791,0,-1.5706,-0.522826,-2.47908e-05,-2.09641,1.57033,1.57168,0.785073,-1.57079,-0.523598,-3.43841e-07,-2.0944,1.5708,1.5708,0.785397,-0.000324837,-0.000391097,-0.000297142,-0.000993066,-0.000450539,0.000191661,-0.000196727,0,0,0,0,0,0,0,-0.327442,-10.1892,-0.329831,21.3684,0.983598,-0.617772,0.110056,-0.339442,-1.06472,0.0633981,2.79704,0.408197,-0.611048,0.14946
5566792,0,-1.5706,-0.522825,-2.64613e-05,-2.0964,1.57033,1.57168,0.785077,-1.57079,-0.523598,-3.43841e-07,-2.0944,1.5708,1.5708,0.785397,-0.00077337,0.000296081,-0.000754895,0.0011012,0.000343901,-0.000109585,0.00105564,0,0,0,0,0,0,0,-0.303639,-10.213,-0.306028,21.2931,0.966203,-0.611364,0.0780126,-0.33833,-1.06765,0.0649543,2.79899,0.408207,-0.611251,0.149394
5566793,0,-1.5706,-0.522828,-2.64613e-05,-2.09641,1.57033,1.57168,0.78507,-1.57079,-0.523598,-3.43841e-07,-2.0944,1.5708,1.5708,0.785397,4.12319e-05,-0.000916237,-0.000503255,-0.00102911,-0.000177634,-7.30565e-05,-0.000720391,0,0,0,0,0,0,0,-0.327442,-10.1654,-0.306028,21.3684,0.97719,-0.611364,0.116465,-0.336839,-1.06855,0.067099,2.79965,0.408162,-0.611487,0.149346
5566794,0,-1.5706,-0.522825,-2.2842e-05,-2.09641,1.57033,1.57168,0.785069,-1.57079,-0.523598,-3.43841e-07,-2.0944,1.5708,1.5708,0.785397,0.000677102,0.000502799,0.000870929,0.000520357,-0.000118423,0.000188655,-0.00170096,0,0,0,0,0,0,0,-0.355213,-10.213,-0.357602,21.3169,0.97719,-0.617772,0.149424,-0.336033,-1.06818,0.0682477,2.79965,0.408127,-0.611604,0.149301
5566795,0,-1.5706,-0.522821,-2.47908e-05,-2.0964,1.57033,1.57168,0.785074,-1.57079,-0.523598,-3.43841e-07,-2.0944,1.5708,1.5708,0.785397,0.000451401,0.00154163,-6.89895e-05,0.000903718,-0.000316307,0.00012577,0.00127352,0,0,0,0,0,0,0,-0.355213,-10.2646,-0.329831,21.2931,0.983598,-0.617772,0.0844213,-0.336626,-1.06875,0.0673228,2.79977,0.408156,-0.61153,0.149287
5566796,0,-1.5706,-0.522825,-2.47908e-05,-2.09641,1.57033,1.57168,0.785069,-1.57079,-0.523598,-3.43841e-07,-2.0944,1.5708,1.5708,0.785397,-0.000905492,-0.000178676,-4.59893e-05,-0.000603947,0.000636839,8.38465e-05,-0.000575139,0,0,0,0,0,0,0,-0.303639,-10.213,-0.329831,21.3446,0.96071,-0.617772,0.122873,-0.337544,-1.07097,0.0659082,2.80025,0.40822,-0.611443,0.149323
5566797,0,-1.5706,-0.522825,-2.2842e-05,-2.09641,1.57033,1.57168,0.785077,-1.57079,-0.523598,-3.43841e-07,-2.0944,1.5708,1.5708,0.785397,0.000602765,-0.000119117,0.000618957,-0.000402631,1.76583e-05,-0.00041882,0.00151545,0,0,0,0,0,0,0,-0.355213,-10.213,-0.357602,21.3446,0.971697,-0.604955,0.071604,-0.338216,-1.07295,0.0647898,2.80087,0.408294,-0.611392,0.149395
5566798,0,-1.5706,-0.522825,-2.47908e-05,-2.09641,1.57033,1.57168,0.785072,-1.57079,-0.523598,-3.43841e-07,-2.0944,1.5708,1.5708,0.785397,0.000401843,-7.94114e-05,-0.000236974,-0.00026842,0.000418673,-4.18545e-05,-0.00112593,0,0,0,0,0,0,0,-0.355213,-10.213,-0.329831,21.3446,0.96071,-0.611364,0.129282,-0.339194,-1.07376,0.0632146,2.80128,0.40837,-0.611276,0.149477
5566799,0,-1.5706,-0.522826,-2.11716e-05,-2.09641,1.57033,1.57168,0.78507,-1.57079,-0.523598,-3.43841e-07,-2.0944,1.5708,1.5708,0.785397,0.000267895,-0.000609753,0.00104844,0.000470668,7.5665e-05,0.000209456,-0.000513263,0,0,0,0,0,0,0,-0.355213,-10.1892,-0.381406,21.3169,0.966203,-0.617772,0.122873,-0.340553,-1.07312,0.0611183,2.801,0.408422,-0.611083,0.149555
5566800,0,-1.5706,-0.522826,-2.2842e-05,-2.09641,1.57033,1.57168,0.78507,-1.57079,-0.523598,-3.43841e-07,-2.0944,1.5708,1.5708,0.785397,-0.000471017,-0.000406502,0.000142152,-0.000892647,-0.000153007,-0.000335081,-0.000816893,0,0,0,0,0,0,0,-0.327442,-10.1892,-0.357602,21.3684,0.971697,-0.604955,0.135691,-0.342002,-1.07101,0.0588261,2.79999,0.408436,-0.61086,0.149645
5566801,0,-1.5706,-0.522825,-2.07115e-05,-2.09641,1.57033,1.57168,0.785077,-1.57079,-0.523598,-3.43841e-07,-2.0944,1.5708,1.5708,0.785397,-0.000314011,0.000285811,9.47692e-05,-3.82861e-05,0.000101446,-0.000223387,0.00135428,0,0,0,0,0,0,0,-0.327442,-10.213,-0.357602,21.3446,0.966203,-0.604955,0.0844213,-0.342931,-1.06908,0.0571992,2.79926,0.408424,-0.610712,0.149774
5566802,0,-1.5706,-0.522826,-2.57511e-05,-2.09641,1.57033,1.57168,0.785075,-1.57079,-0.523598,-3.43841e-07,-2.0944,1.5708,1.5708,0.785397,0.000440273,-0.000366272,-0.00114325,0.00062409,-0.000339271,-0.000148925,0.00114021,0,0,0,0,0,0,0,-0.355213,-10.1892,-0.306028,21.3169,0.97719,-0.604955,0.0780126,-0.342937,-1.06778,0.0569852,2.79873,0.40836,-0.610701,0.149939
5566803,0,-1.5706,-0.522823,-2.26053e-05,-2.09641,1.57033,1.57168,0.785075,-1.57079,-0.523598,-3.43841e-07,-2.0944,1.5708,1.5708,0.785397,-0.000912911,0.000962245,0.000444263,-0.000233554,0.000384171,0.000375435,0.000285422,0,0,0,0,0,0,0,-0.303639,-10.2408,-0.357602,21.3446,0.96071,-0.617772,0.09083,-0.342197,-1.06704,0.0579575,2.79814,0.408246,-0.610798,0.1501
5566804,0,-1.5706,-0.522828,-2.63824e-05,-2.0964,1.57033,1.57168,0.785074,-1.57079,-0.523598,-3.43841e-07,-2.0944,1.5708,1.5708,0.785397,0.000597819,-0.00112174,-0.000910251,0.00105072,5.26636e-05,1.29309e-05,0.000664999,0,0,0,0,0,0,0,-0.355213,-10.1654,-0.306028,21.2931,0.966203,-0.611364,0.0780126,-0.341128,-1.06653,0.0594145,2.79744,0.408108,-0.610937,0.150212
5566805,0,-1.5706,-0.52283,-2.81054e-05,-2.09641,1.57033,1.57168,0.785075,-1.57079,-0.523598,-3.43841e-07,-2.0944,1.5708,1.5708,0.785397,-0.00080788,-0.00139744,-0.00116365,-0.000505944,-0.000609151,8.62059e-06,-0.000268744,0,0,0,0,0,0,0,-0.303639,-10.1377,-0.282224,21.3446,0.983598,-0.611364,0.0972387,-0.339635,-1.06365,0.061579,2.79556,0.407906,-0.611101,0.150258
5566806,0,-1.57059,-0.522821,-2.64525e-05,-2.0964,1.57033,1.57168,0.785075,-1.57079,-0.523598,-3.43841e-07,-2.0944,1.5708,1.5708,0.785397,0.00122465,0.00203804,-0.000218951,0.00086913,0.000238159,5.74706e-06,-0.000179163,0,0,0,0,0,0,0,-0.379017,-10.2646,-0.306028,21.2931,0.966203,-0.611364,0.0972387,-0.337919,-1.06044,0.0642191,2.79359,0.407688,-0.61129,0.150235
5566807,0,-1.5706,-0.522825,-2.47879e-05,-2.09641,1.57033,1.57168,0.785072,-1.57079,-0.523598,-3.43841e-07,-2.0944,1.5708,1.5708,0.785397,-0.000389992,0.000152265,0.000410844,-0.000627006,-0.000248128,3.83137e-06,-0.000356801,0,0,0,0,0,0,0,-0.327442,-10.213,-0.329831,21.3446,0.97719,-0.611364,0.103647,-0.337046,-1.0611,0.0656705,2.79344,0.407573,-0.611401,0.150154
5566808,0,-1.5706,-0.522826,-2.64603e-05,-2.09641,1.57033,1.57168,0.785075,-1.57079,-0.523598,-3.43841e-07,-2.0944,1.5708,1.5708,0.785397,-0.000259995,-0.000455302,-0.000282916,0.00023161,0.000444933,0.000239913,-5.08235e-07,0,0,0,0,0,0,0,-0.327442,-10.1892,-0.306028,21.3169,0.96071,-0.617772,0.0972387,-0.336897,-1.06336,0.0660028,2.79422,0.407536,-0.611423,0.15004
5566809,0,-1.5706,-0.522826,-2.28417e-05,-2.09641,1.57033,1.57168,0.785075,-1.57079,-0.523598,-3.43841e-07,-2.0944,1.5708,1.5708,0.785397,-0.00017333,-0.000303535,0.00101782,-0.00105202,-0.000110279,0.000159942,-0.000237698,0,0,0,0,0,0,0,-0.327442,-10.1892,-0.357602,21.3684,0.971697,-0.617772,0.103647,-0.337029,-1.0644,0.0658157,2.79476,0.40752,-0.611387,0.149909
5566810,0,-1.5706,-0.522826,-2.28419e-05,-2.09641,1.57033,1.57168,0.785072,-1.57079,-0.523598,-3.43841e-07,-2.0944,1.5708,1.5708,0.785397,-0.000115553,-0.000202356,0.000678544,0.00050508,0.000129931,-0.000130731,-0.0011079,0,0,0,0,0,0,0,-0.327442,-10.1892,-0.357602,21.3169,0.966203,-0.611364,0.129282,-0.337826,-1.06456,0.0645098,2.79514,0.407532,-0.611245,0.149776
5566811,0,-1.5706,-0.522823,-2.2842e-05,-2.09641,1.57033,1.57168,0.785078,-1.57079,-0.523598,-3.43841e-07,-2.0944,1.5708,1.5708,0.785397,-7.70354e-05,0.00107152,0.000452363,-0.000312894,-0.00011683,0.000150205,0.00116027,0,0,0,0,0,0,0,-0.327442,-10.2408,-0.357602,21.3446,0.971697,-0.617772,0.0780126,-0.339085,-1.06514,0.0624071,2.79563,0.407564,-0.61105,0.14966
5566812,0,-1.5706,-0.522825,-2.64613e-05,-2.0964,1.57033,1.57168,0.785071,-1.57079,-0.523598,-3.43841e-07,-2.0944,1.5708,1.5708,0.785397,-5.13569e-05,6.47338e-05,-0.000904851,0.00099783,-7.78865e-05,-0.000137222,-0.00136272,0,0,0,0,0,0,0,-0.327442,-10.213,-0.306028,21.2931,0.971697,-0.611364,0.135691,-0.339907,-1.06682,0.0609697,2.79631,0.407573,-0.610945,0.149573
5566813,0,-1.5706,-0.522825,-2.47908e-05,-2.09641,1.57033,1.57168,0.785071,-1.57079,-0.523598,-3.43841e-07,-2.0944,1.5708,1.5708,0.785397,-3.4238e-05,4.31559e-05,-4.64219e-05,-0.00165483,-5.19244e-05,0.000145877,4.09581e-05,0,0,0,0,0,0,0,-0.327442,-10.213,-0.329831,21.3922,0.971697,-0.617772,0.110056,-0.339847,-1.0687,0.0609301,2.79703,0.407545,-0.610979,0.14951
5566814,0,-1.5706,-0.522825,-2.47908e-05,-2.0964,1.57033,1.57168,0.785077,-1.57079,-0.523598,-3.43841e-07,-2.0944,1.5708,1.5708,0.785397,0.000626789,2.87706e-05,-3.09479e-05,0.00121683,0.000168834,-0.000377466,0.0012141,0,0,0,0,0,0,0,-0.355213,-10.213,-0.329831,21.2931,0.966203,-0.604955,0.0780126,-0.339568,-1.07013,0.0612793,2.79773,0.407507,-0.61104,0.149485
5566815,0,-1.5706,-0.52283,-2.47908e-05,-2.09641,1.57033,1.57168,0.785073,-1.57079,-0.523598,-3.43841e-07,-2.0944,1.5708,1.5708,0.785397,0.000417859,-0.00174406,-2.06319e-05,-0.000952018,-9.08943e-05,-1.42852e-05,-0.000614754,0,0,0,0,0,0,0,-0.355213,-10.1377,-0.329831,21.3684,0.971697,-0.611364,0.116465,-0.339719,-1.0694,0.0610683,2.79742,0.407444,-0.611011,0.149492
5566816,0,-1.5706,-0.522825,-2.81317e-05,-2.09641,1.57033,1.57168,0.785072,-1.57079,-0.523598,-3.43841e-07,-2.0944,1.5708,1.5708,0.785397,-0.000927853,0.000600533,-0.00112738,0.000571747,-0.000264047,-9.52349e-06,0.000302241,0,0,0,0,0,0,0,-0.303639,-10.213,-0.282224,21.3169,0.97719,-0.611364,0.0972387,-0.339557,-1.06656,0.0613892,2.79613,0.407336,-0.611001,0.149506
5566817,0,-1.5706,-0.522825,-2.47908e-05,-2.09641,1.57033,1.57168,0.785066,-1.57079,-0.523598,-3.43841e-07,-2.0944,1.5708,1.5708,0.785397,-6.17568e-05,0.000400355,0.000362038,-0.000268449,0.00023087,-6.34899e-06,-0.00173129,0,0,0,0,0,0,0,-0.327442,-10.213,-0.329831,21.3446,0.966203,-0.611364,0.149424,-0.338546,-1.06489,0.0629611,2.79535,0.407224,-0.611128,0.149519
5566818,0,-1.5706,-0.522823,-2.2842e-05,-2.09641,1.57033,1.57168,0.785073,-1.57079,-0.523598,-3.43841e-07,-2.0944,1.5708,1.5708,0.785397,0.000608443,0.000916517,0.000890973,-0.000178966,0.000153913,-4.23266e-06,0.00149067,0,0,0,0,0,0,0,-0.355213,-10.2408,-0.357602,21.3446,0.966203,-0.611364,0.0780126,-0.338016,-1.06594,0.0637482,2.79579,0.407181,-0.611212,0.14955
5566819,0,-1.5706,-0.522825,-2.64613e-05,-2.0964,1.57033,1.57168,0.78507,-1.57079,-0.523598,-3.43841e-07,-2.0944,1.5708,1.5708,0.785397,0.000405628,-3.86023e-05,-0.000612444,0.00108712,-0.000100842,-0.000240181,-0.000193017,0,0,0,0,0,0,0,-0.355213,-10.213,-0.306028,21.2931,0.971697,-0.604955,0.110056,-0.338532,-1.06809,0.0629962,2.79662,0.407187,-0.61115,0.149616
5566820,0,-1.5706,-0.522825,-2.47908e-05,-2.09641,1.57033,1.57168,0.785078,-1.57079,-0.523598,-3.43841e-07,-2.0944,1.5708,1.5708,0.785397,0.000270419,-2.57349e-05,0.000148516,-0.000481682,-0.000508037,7.72385e-05,0.00177019,0,0,0,0,0,0,0,-0.355213,-10.213,-0.329831,21.3446,0.983598,-0.611364,0.0587866,-0.339165,-1.06928,0.0622013,2.79676,0.407163,-0.611058,0.149699
5566821,0,-1.5706,-0.522828,-2.11716e-05,-2.09641,1.57033,1.57168,0.785067,-1.57079,-0.523598,-3.43841e-07,-2.0944,1.5708,1.5708,0.785397,-0.00102615,-0.00113078,0.00130544,-0.000321122,0.000509019,0.000288851,-0.00288888,0,0,0,0,0,0,0,-0.303639,-10.1654,-0.381406,21.3446,0.96071,-0.617772,0.16865,-0.339764,-1.06887,0.061403,2.79637,0.407135,-0.610944,0.149762
5566822,0,-1.5706,-0.522825,-2.47908e-05,-2.09641,1.57033,1.57168,0.785073,-1.57079,-0.523598,-3.43841e-07,-2.0944,1.5708,1.5708,0.785397,0.000522328,0.00035977,-0.000336135,-0.000214081,-6.7555e-05,-4.47914e-05,-0.0002305,0,0,0,0,0,0,0,-0.355213,-10.213,-0.329831,21.3446,0.971697,-0.611364,0.122873,-0.340431,-1.06741,0.0603324,2.79585,0.407131,-0.610801,0.149803
5566823,0,-1.5706,-0.522826,-2.2842e-05,-2.09641,1.57033,1.57168,0.785076,-1.57079,-0.523598,-3.43841e-07,-2.0944,1.5708,1.5708,0.785397,-0.000301395,-0.000316965,0.000425524,-0.000142721,-4.50367e-05,0.000444857,0.00103313,0,0,0,0,0,0,0,-0.327442,-10.1892,-0.357602,21.3446,0.971697,-0.624181,0.09083,-0.340894,-1.06628,0.0595412,2.79557,0.40713,-0.610695,0.149872
5566824,0,-1.5706,-0.522826,-2.47908e-05,-2.09641,1.57033,1.57168,0.785076,-1.57079,-0.523598,-3.43841e-07,-2.0944,1.5708,1.5708,0.785397,0.000448684,-0.00021131,-0.000365931,0.000554467,0.000376877,-0.000178147,0.000451393,0,0,0,0,0,0,0,-0.355213,-10.1892,-0.329831,21.3169,0.96071,-0.611364,0.0972387,-0.341091,-1.06526,0.0591963,2.79522,0.407106,-0.610646,0.149989
5566825,0,-1.5706,-0.522826,-2.2842e-05,-2.0964,1.57033,1.57168,0.785075,-1.57079,-0.523598,-3.43841e-07,-2.0944,1.5708,1.5708,0.785397,-0.00146412,-0.000140873,0.00040566,0.000926456,0.000251251,-0.000118764,6.35698e-05,0,0,0,0,0,0,0,-0.279835,-10.1892,-0.357602,21.2931,0.96071,-0.611364,0.103647,-0.340857,-1.06339,0.0594726,2.79407,0.407025,-0.610666,0.15012
5566826,0,-1.5706,-0.522826,-2.47908e-05,-2.09641,1.57033,1.57168,0.78507,-1.57079,-0.523598,-3.43841e-07,-2.0944,1.5708,1.5708,0.785397,-0.000419265,-9.39156e-05,-0.000379174,-0.000588788,-0.0002394,0.000395542,-0.000432338,0,0,0,0,0,0,0,-0.303639,-10.1892,-0.329831,21.3446,0.971697,-0.624181,0.116465,-0.339912,-1.06145,0.0606499,2.79269,0.406901,-0.610799,0.15024
5566827,0,-1.5706,-0.522825,-2.47908e-05,-2.09641,1.57033,1.57168,0.785076,-1.57079,-0.523598,-3.43841e-07,-2.0944,1.5708,1.5708,0.785397,0.000277302,0.000494202,-0.000252783,0.000257088,4.38503e-05,0.000263694,0.000898569,0,0,0,0,0,0,0,-0.327442,-10.213,-0.329831,21.3169,0.966203,-0.624181,0.0844213,-0.338558,-1.06085,0.0623234,2.79214,0.406781,-0.611012,0.150344
5566828,0,-1.5706,-0.522825,-2.81317e-05,-2.09641,1.57033,1.57168,0.785073,-1.57079,-0.523598,-3.43841e-07,-2.0944,1.5708,1.5708,0.785397,0.000184868,0.000329468,-0.00128215,-0.00103503,-0.000174217,-6.15627e-05,-0.000825107,0,0,0,0,0,0,0,-0.327442,-10.213,-0.282224,21.3684,0.971697,-0.617772,0.122873,-0.337104,-1.06227,0.0642191,2.79282,0.406687,-0.611273,0.150431
5566829,0,-1.5706,-0.522826,-2.2842e-05,-2.09641,1.57033,1.57168,0.785073,-1.57079,-0.523598,-3.43841e-07,-2.0944,1.5708,1.5708,0.785397,0.000772859,-0.000337167,0.000908474,-0.00013321,-0.000116145,-4.10418e-05,-0.000550072,0,0,0,0,0,0,0,-0.355213,-10.1892,-0.357602,21.3446,0.971697,-0.617772,0.122873,-0.336025,-1.06466,0.0656505,2.79429,0.406625,-0.6115,0.150502
5566830,0,-1.5706,-0.522825,-2.47908e-05,-2.09641,1.57033,1.57168,0.785077,-1.57079,-0.523598,-3.43841e-07,-2.0944,1.5708,1.5708,0.785397,-0.000134374,0.000332034,-4.39646e-05,-8.8807e-05,0.000126021,-0.00026472,0.00200688,0,0,0,0,0,0,0,-0.327442,-10.213,-0.329831,21.3446,0.966203,-0.611364,0.0587866,-0.33597,-1.06653,0.0655478,2.79563,0.406599,-0.61158,0.150575
5566831,0,-1.5706,-0.522825,-2.2842e-05,-2.09641,1.57033,1.57168,0.785073,-1.57079,-0.523598,-3.43841e-07,-2.0944,1.5708,1.5708,0.785397,0.000560031,0.000221356,0.000620304,0.000590409,8.40138e-05,6.08789e-05,-0.000798314,0,0,0,0,0,0,0,-0.355213,-10.213,-0.357602,21.3169,0.966203,-0.617772,0.116465,-0.336636,-1.06782,0.0643293,2.79646,0.40658,-0.611559,0.15065
5566832,0,-1.5706,-0.522825,-2.47908e-05,-2.09641,1.57033,1.57168,0.785078,-1.57079,-0.523598,-3.43841e-07,-2.0944,1.5708,1.5708,0.785397,0.000373354,0.000147571,-0.000236078,0.000393606,-0.000350892,4.05859e-05,0.000891944,0,0,0,0,0,0,0,-0.355213,-10.213,-0.329831,21.3169,0.97719,-0.617772,0.0780126,-0.337577,-1.06861,0.0627345,2.79666,0.406547,-0.611503,0.150698
5566833,0,-1.5706,-0.522826,-2.47908e-05,-2.09641,1.57033,1.57168,0.785069,-1.57079,-0.523598,-3.43841e-07,-2.0944,1.5708,1.5708,0.785397,-0.00151434,-0.000458431,-0.000157385,-0.000944022,0.000172973,-0.000210302,-0.00228759,0,0,0,0,0,0,0,-0.279835,-10.1892,-0.329831,21.3684,0.966203,-0.611364,0.155832,-0.337992,-1.06876,0.0619202,2.79655,0.406491,-0.611523,0.150706
5566834,0,-1.5706,-0.522825,-2.47908e-05,-2.09641,1.57033,1.57168,0.785075,-1.57079,-0.523598,-3.43841e-07,-2.0944,1.5708,1.5708,0.785397,0.000104067,0.000251191,-0.000104923,0.000577078,-8.81351e-05,-0.000140201,0.000407723,0,0,0,0,0,0,0,-0.327442,-10.213,-0.329831,21.3169,0.971697,-0.611364,0.103647,-0.337385,-1.06858,0.0625355,2.79651,0.406418,-0.611684,0.150695
5566835,0,-1.5706,-0.522825,-2.2842e-05,-2.09641,1.57033,1.57168,0.785075,-1.57079,-0.523598,-3.43841e-07,-2.0944,1.5708,1.5708,0.785397,0.000718992,0.000167461,0.000579665,0.000384719,0.000144694,0.000143892,0.000271815,0,0,0,0,0,0,0,-0.355213,-10.213,-0.357602,21.3169,0.966203,-0.617772,0.103647,-0.336897,-1.06826,0.062957,2.79628,0.406348,-0.611818,0.150708
5566836,0,-1.5706,-0.522828,-2.2842e-05,-2.09641,1.57033,1.57168,0.785074,-1.57079,-0.523598,-3.43841e-07,-2.0944,1.5708,1.5708,0.785397,-0.000170286,-0.00100198,0.000386443,-0.000393135,-0.000106988,-0.000141431,0.000893287,0,0,0,0,0,0,0,-0.327442,-10.1654,-0.357602,21.3446,0.971697,-0.611364,0.0844213,-0.337275,-1.06725,0.0621142,2.7956,0.406292,-0.611807,0.150756
5566837,0,-1.57059,-0.522823,-2.2842e-05,-2.0964,1.57033,1.57168,0.785069,-1.57079,-0.523598,-3.43841e-07,-2.0944,1.5708,1.5708,0.785397,0.0010929,0.00109525,0.000257629,0.000944336,0.000132125,0.000143071,-0.00181197,0,0,0,0,0,0,0,-0.379017,-10.2408,-0.357602,21.2931,0.966203,-0.617772,0.149424,-0.338179,-1.0658,0.0604986,2.79473,0.406252,-0.611708,0.15081
5566838,0,-1.57059,-0.522826,-2.47908e-05,-2.09641,1.57033,1.57168,0.785071,-1.57079,-0.523598,-3.43841e-07,-2.0944,1.5708,1.5708,0.785397,0.000728601,-0.00047626,-0.000477861,7.27454e-05,-0.000115367,-0.000616696,-0.000699356,0,0,0,0,0,0,0,-0.379017,-10.1892,-0.329831,21.3169,0.971697,-0.598546,0.135691,-0.339285,-1.06501,0.0587356,2.79396,0.406216,-0.611586,0.150868
5566839,0,-1.57059,-0.522828,-2.47908e-05,-2.09641,1.57033,1.57168,0.785076,-1.57079,-0.523598,-3.43841e-07,-2.0944,1.5708,1.5708,0.785397,0.000485734,-0.000874319,-0.000318574,-0.000601117,-0.000280362,6.35873e-05,0.00119528,0,0,0,0,0,0,0,-0.379017,-10.1654,-0.329831,21.3446,0.97719,-0.611364,0.09083,-0.340154,-1.06388,0.0575538,2.79312,0.406164,-0.61149,0.150966
5566840,0,-1.57059,-0.522826,-2.64613e-05,-2.0964,1.57033,1.57168,0.785067,-1.57079,-0.523598,-3.43841e-07,-2.0944,1.5708,1.5708,0.785397,0.000323823,-2.60671e-05,-0.000769195,0.00136249,1.65426e-05,0.00027975,-0.00113593,0,0,0,0,0,0,0,-0.379017,-10.1892,-0.306028,21.2693,0.971697,-0.617772,0.143015,-0.340403,-1.06154,0.0574992,2.79184,0.406077,-0.611469,0.151116
5566841,0,-1.5706,-0.522826,-2.64613e-05,-2.0964,1.57033,1.57168,0.785074,-1.57079,-0.523598,-3.43841e-07,-2.0944,1.5708,1.5708,0.785397,-0.00154736,-1.73781e-05,-0.000512797,0.000908329,0.000214479,0.0001865,0.000700776,0,0,0,0,0,0,0,-0.303639,-10.1892,-0.306028,21.2693,0.966203,-0.617772,0.103647,-0.339624,-1.05875,0.059092,2.78988,0.405939,-0.611605,0.151304
5566842,0,-1.5706,-0.522826,-2.47908e-05,-2.09641,1.57033,1.57168,0.785075,-1.57079,-0.523598,-3.43841e-07,-2.0944,1.5708,1.5708,0.785397,-0.000474759,-1.15854e-05,0.000214948,-0.000508071,-6.04646e-05,-0.000113025,0.000704543,0,0,0,0,0,0,0,-0.327442,-10.1892,-0.329831,21.3169,0.971697,-0.611364,0.0972387,-0.337952,-1.05673,0.0619491,2.78805,0.405793,-0.611891,0.151522
5566843,0,-1.5706,-0.522825,-2.47908e-05,-2.09641,1.57033,1.57168,0.785076,-1.57079,-0.523598,-3.43841e-07,-2.0944,1.5708,1.5708,0.785397,-0.000316506,0.000549088,0.000143298,-0.000988328,0.000366591,-7.53503e-05,0.000469695,0,0,0,0,0,0,0,-0.327442,-10.213,-0.329831,21.3446,0.96071,-0.611364,0.0972387,-0.336468,-1.05703,0.0643962,2.78786,0.405729,-0.612168,0.151748
5566844,0,-1.5706,-0.522826,-2.64613e-05,-2.0964,1.57033,1.57168,0.785074,-1.57079,-0.523598,-3.43841e-07,-2.0944,1.5708,1.5708,0.785397,0.00043861,-0.000190753,-0.00046128,0.00054754,4.09437e-05,-0.000524951,-0.000161588,0,0,0,0,0,0,0,-0.355213,-10.1892,-0.306028,21.2931,0.966203,-0.598546,0.110056,-0.335669,-1.05916,0.0658328,2.78898,0.405738,-0.61235,0.151951
5566845,0,-1.5706,-0.522825,-2.47908e-05,-2.0964,1.57033,1.57168,0.785067,-1.57079,-0.523598,-3.43841e-07,-2.0944,1.5708,1.5708,0.785397,0.000292407,0.000429643,0.000249292,0.000365027,-0.000616964,0.000362109,-0.00156579,0,0,0,0,0,0,0,-0.355213,-10.213,-0.329831,21.2931,0.983598,-0.617772,0.149424,-0.335497,-1.06108,0.0664605,2.78979,0.405746,-0.612422,0.152123
5566846,0,-1.5706,-0.522824,-2.64613e-05,-2.0964,1.57033,1.57168,0.785073,-1.57079,-0.523598,-3.43841e-07,-2.0944,1.5708,1.5708,0.785397,0.000194938,-0.000270383,-0.000390617,0.000243351,0.000436401,0.000241406,0.00136364,0,0,0,0,0,0,0,-0.355213,-10.1892,-0.306028,21.2931,0.96071,-0.617772,0.0844213,-0.335804,-1.06224,0.0664817,2.78992,0.405742,-0.612406,0.152288
5566847,0,-1.5706,-0.522827,-2.81317e-05,-2.09641,1.57033,1.57168,0.785069,-1.57079,-0.523598,-3.43841e-07,-2.0944,1.5708,1.5708,0.785397,0.000129959,-0.000737067,-0.000817223,-0.00104419,-0.000115967,-7.64215e-05,-0.000277702,0,0,0,0,0,0,0,-0.355213,-10.1654,-0.282224,21.3446,0.971697,-0.611364,0.116465,-0.335999,-1.0625,0.0667873,2.78974,0.405726,-0.612391,0.152461
5566848,0,-1.5706,-0.522821,-2.11716e-05,-2.09641,1.57033,1.57168,0.785078,-1.57079,-0.523598,-3.43841e-07,-2.0944,1.5708,1.5708,0.785397,-0.000562975,0.00182867,0.00177523,-4.65139e-05,-7.73113e-05,-0.000525666,0.00171374,0,0,0,0,0,0,0,-0.327442,-10.2646,-0.381406,21.3169,0.971697,-0.598546,0.0651953,-0.336282,-1.06357,0.0669592,2.7903,0.405744,-0.612369,0.152629
5566849,0,-1.57059,-0.522828,-2.47908e-05,-2.09641,1.57033,1.57168,0.785068,-1.57079,-0.523598,-3.43841e-07,-2.0944,1.5708,1.5708,0.785397,0.000831109,-0.00110094,-2.29364e-05,-3.10092e-05,-5.15409e-05,0.000361633,-0.0024518,0,0,0,0,0,0,0,-0.379017,-10.1654,-0.329831,21.3169,0.971697,-0.617772,0.162241,-0.337445,-1.06611,0.0656869,2.79158,0.405827,-0.612227,0.152766
5566850,0,-1.5706,-0.522825,-2.2842e-05,-2.0964,1.57033,1.57168,0.785074,-1.57079,-0.523598,-3.43841e-07,-2.0944,1.5708,1.5708,0.785397,-0.00120916,0.000379667,0.000634323,0.000536139,-3.43606e-05,-0.000233629,0.000298246,0,0,0,0,0,0,0,-0.303639,-10.213,-0.357602,21.2931,0.971697,-0.604955,0.110056,-0.338929,-1.06728,0.0638659,2.79197,0.405899,-0.612015,0.152875
5566851,0,-1.57059,-0.522825,-2.47908e-05,-2.09641,1.57033,1.57168,0.785074,-1.57079,-0.523598,-3.43841e-07,-2.0944,1.5708,1.5708,0.785397,0.000957128,0.000253111,-0.000226732,-0.00140581,0.000180543,8.16062e-05,-3.85284e-05,0,0,0,0,0,0,0,-0.379017,-10.213,-0.329831,21.3684,0.966203,-0.611364,0.116465,-0.339993,-1.06784,0.062633,2.79203,0.405948,-0.611848,0.152989
5566852,0,-1.5706,-0.522828,-2.64613e-05,-2.09641,1.57033,1.57168,0.785073,-1.57079,-0.523598,-3.43841e-07,-2.0944,1.5708,1.5708,0.785397,8.12733e-05,-0.000944883,-0.000707967,-0.000937208,0.000120362,-0.000182955,0.000686391,0,0,0,0,0,0,0,-0.355213,-10.1654,-0.306028,21.3684,0.966203,-0.604955,0.0972387,-0.340637,-1.06903,0.062111,2.79288,0.406004,-0.611737,0.153123
5566853,0,-1.5706,-0.522825,-2.11716e-05,-2.09641,1.57033,1.57168,0.78507,-1.57079,-0.523598,-3.43841e-07,-2.0944,1.5708,1.5708,0.785397,-0.00115224,0.000483702,0.00129126,-6.79933e-05,-0.000123209,-0.00012197,-0.000966559,0,0,0,0,0,0,0,-0.303639,-10.213,-0.381406,21.3446,0.971697,-0.604955,0.135691,-0.340903,-1.06966,0.0621562,2.79379,0.406043,-0.611663,0.153264
5566854,0,-1.5706,-0.522826,-2.47908e-05,-2.09641,1.57033,1.57168,0.785072,-1.57079,-0.523598,-3.43841e-07,-2.0944,1.5708,1.5708,0.785397,0.000438263,-0.000234344,-0.000345586,-4.53289e-05,-8.21393e-05,0.000156046,-0.000407014,0,0,0,0,0,0,0,-0.355213,-10.1892,-0.329831,21.3446,0.971697,-0.611364,0.129282,-0.341085,-1.06986,0.0621409,2.79429,0.406063,-0.611587,0.153412
5566855,0,-1.57059,-0.522826,-2.47908e-05,-2.0964,1.57033,1.57168,0.785078,-1.57079,-0.523598,-3.43841e-07,-2.0944,1.5708,1.5708,0.785397,0.000848988,-0.000156229,-0.000230391,0.00117621,-5.47595e-05,-0.000370687,0.00162753,0,0,0,0,0,0,0,-0.379017,-10.1892,-0.329831,21.2931,0.971697,-0.598546,0.0780126,-0.341397,-1.06912,0.0619639,2.79385,0.40604,-0.611475,0.153584
5566856,0,-1.5706,-0.522823,-2.47908e-05,-2.09641,1.57033,1.57168,0.785073,-1.57079,-0.523598,-3.43841e-07,-2.0944,1.5708,1.5708,0.785397,-0.000640434,0.00110227,-0.000153594,-0.000422288,-0.000239957,0.000464952,-0.000576493,0,0,0,0,0,0,0,-0.327442,-10.2408,-0.329831,21.3446,0.97719,-0.617772,0.122873,-0.341597,-1.06814,0.0620802,2.79286,0.405979,-0.611375,0.153776
5566857,0,-1.5706,-0.522825,-2.47908e-05,-2.09641,1.57033,1.57168,0.78507,-1.57079,-0.523598,-3.43841e-07,-2.0944,1.5708,1.5708,0.785397,-0.000426956,8.52347e-05,-0.000102396,-0.000838337,4.34793e-05,0.000547327,-0.00014697,0,0,0,0,0,0,0,-0.327442,-10.213,-0.329831,21.3684,0.971697,-0.624181,0.116465,-0.341254,-1.06923,0.0629272,2.793,0.40595,-0.611379,0.153951
5566858,0,-1.5706,-0.522828,-2.2842e-05,-2.09641,1.57033,1.57168,0.785074,-1.57079,-0.523598,-3.43841e-07,-2.0944,1.5708,1.5708,0.785397,0.000364977,-0.0010568,0.00058135,-2.07963e-06,0.000435887,0.000127526,0.000376738,0,0,0,0,0,0,0,-0.355213,-10.1654,-0.357602,21.3446,0.96071,-0.617772,0.103647,-0.340806,-1.07042,0.0638017,2.79364,0.405955,-0.611402,0.154108
5566859,0,-1.5706,-0.522825,-2.64613e-05,-2.09641,1.57033,1.57168,0.785077,-1.57079,-0.523598,-3.43841e-07,-2.0944,1.5708,1.5708,0.785397,0.000243318,0.00040909,-0.000818859,0.000648228,8.7141e-05,-0.000389701,0.000963235,0,0,0,0,0,0,0,-0.355213,-10.213,-0.306028,21.3169,0.966203,-0.604955,0.0844213,-0.340761,-1.06941,0.0640907,2.79324,0.405935,-0.611355,0.154259
5566860,0,-1.5706,-0.522825,-2.11716e-05,-2.09641,1.57033,1.57168,0.785076,-1.57079,-0.523598,-3.43841e-07,-2.0944,1.5708,1.5708,0.785397,-0.000487402,0.000272727,0.00121733,0.000432152,5.8094e-05,0.000214917,0.000404798,0,0,0,0,0,0,0,-0.327442,-10.213,-0.381406,21.3169,0.966203,-0.617772,0.09083,-0.34091,-1.06788,0.0641038,2.79222,0.405883,-0.611293,0.154387
5566861,0,-1.5706,-0.522826,-2.11716e-05,-2.09641,1.57033,1.57168,0.785074,-1.57079,-0.523598,-3.43841e-07,-2.0944,1.5708,1.5708,0.785397,-0.000324935,-0.000374994,0.000811554,-0.00147514,-0.000368172,0.000143278,-0.000442211,0,0,0,0,0,0,0,-0.327442,-10.1892,-0.381406,21.3922,0.97719,-0.617772,0.110056,-0.341466,-1.06721,0.0632987,2.79173,0.405864,-0.611193,0.154464
5566862,0,-1.5706,-0.522826,-2.11716e-05,-2.09641,1.57033,1.57168,0.785076,-1.57079,-0.523598,-3.43841e-07,-2.0944,1.5708,1.5708,0.785397,0.000432991,-0.000249996,0.000541036,-0.000426613,0.000161453,0.000332878,0.00017991,0,0,0,0,0,0,0,-0.355213,-10.1892,-0.381406,21.3684,0.966203,-0.624181,0.0972387,-0.342528,-1.06706,0.0615003,2.79216,0.405904,-0.611031,0.154482
5566863,0,-1.5706,-0.522825,-2.2842e-05,-2.09641,1.57033,1.57168,0.78507,-1.57079,-0.523598,-3.43841e-07,-2.0944,1.5708,1.5708,0.785397,0.000288661,0.000390148,-0.000196121,0.000272404,-9.5815e-05,0.000221919,-0.00181284,0,0,0,0,0,0,0,-0.355213,-10.213,-0.357602,21.3446,0.971697,-0.624181,0.149424,-0.343642,-1.06708,0.0595906,2.79288,0.405952,-0.610882,0.154458
5566864,0,-1.5706,-0.522825,-2.47908e-05,-2.09641,1.57033,1.57168,0.785078,-1.57079,-0.523598,-3.43841e-07,-2.0944,1.5708,1.5708,0.785397,0.00019244,0.000260099,-0.000780361,0.000181602,0.000139574,-0.000326772,0.0014363,0,0,0,0,0,0,0,-0.355213,-10.213,-0.329831,21.3446,0.966203,-0.611364,0.0780126,-0.344149,-1.06738,0.0586917,2.79339,0.405955,-0.610857,0.154422
5566865,0,-1.5706,-0.522825,-2.11716e-05,-2.09641,1.57033,1.57168,0.785068,-1.57079,-0.523598,-3.43841e-07,-2.0944,1.5708,1.5708,0.785397,-0.00052132,0.000173399,0.000686185,-0.000435744,-0.000313852,-0.000692566,-0.00144997,0,0,0,0,0,0,0,-0.327442,-10.213,-0.381406,21.3684,0.97719,-0.598546,0.143015,-0.343992,-1.06807,0.0588219,2.79392,0.405922,-0.610958,0.154399
5566866,0,-1.57059,-0.522825,-2.47908e-05,-2.09641,1.57033,1.57168,0.785076,-1.57079,-0.523598,-3.43841e-07,-2.0944,1.5708,1.5708,0.785397,0.000858879,0.000115599,-0.000748969,0.00091593,0.000197666,1.30072e-05,0.00120349,0,0,0,0,0,0,0,-0.379017,-10.213,-0.329831,21.3169,0.966203,-0.611364,0.0844213,-0.343737,-1.06864,0.0590684,2.79432,0.405878,-0.611075,0.154393
5566867,0,-1.57059,-0.522826,-2.64613e-05,-2.09641,1.57033,1.57168,0.785074,-1.57079,-0.523598,-3.43841e-07,-2.0944,1.5708,1.5708,0.785397,0.000572586,-0.000479746,-0.00105612,-0.000595806,-7.16729e-05,0.00024603,-0.000147106,0,0,0,0,0,0,0,-0.379017,-10.1892,-0.306028,21.3684,0.971697,-0.617772,0.110056,-0.343331,-1.06829,0.0596983,2.79415,0.405802,-0.611199,0.154404
5566868,0,-1.5706,-0.522826,-2.47908e-05,-2.09641,1.57033,1.57168,0.785074,-1.57079,-0.523598,-3.43841e-07,-2.0944,1.5708,1.5708,0.785397,-0.00138151,-0.00031983,-0.000147271,0.000159608,-4.77819e-05,0.00016402,-9.80707e-05,0,0,0,0,0,0,0,-0.303639,-10.1892,-0.329831,21.3446,0.971697,-0.617772,0.110056,-0.342295,-1.06694,0.0613943,2.79364,0.405694,-0.611401,0.154416
5566869,0,-1.57059,-0.522826,-2.64613e-05,-2.09641,1.57033,1.57168,0.785069,-1.57079,-0.523598,-3.43841e-07,-2.0944,1.5708,1.5708,0.785397,0.000842229,-0.00021322,-0.000654993,0.000756019,-3.18546e-05,0.000109347,-0.0017608,0,0,0,0,0,0,0,-0.379017,-10.1892,-0.306028,21.3169,0.971697,-0.617772,0.155832,-0.340858,-1.06479,0.0636665,2.79275,0.405572,-0.611656,0.154424
5566870,0,-1.5706,-0.522825,-2.2842e-05,-2.0964,1.57033,1.57168,0.785068,-1.57079,-0.523598,-3.43841e-07,-2.0944,1.5708,1.5708,0.785397,-0.00064494,0.000414665,0.000769764,0.00106082,-2.12364e-05,-0.000164461,-0.000427882,0,0,0,0,0,0,0,-0.327442,-10.213,-0.357602,21.2931,0.971697,-0.611364,0.135691,-0.33992,-1.06231,0.0652083,2.79131,0.405456,-0.611841,0.154457
5566871,0,-1.5706,-0.522828,-2.64613e-05,-2.09641,1.57033,1.57168,0.785079,-1.57079,-0.523598,-3.43841e-07,-2.0944,1.5708,1.5708,0.785397,-0.00042996,-0.000837181,-0.00069325,-0.000499209,0.000392743,-0.000109641,0.00256305,0,0,0,0,0,0,0,-0.327442,-10.1654,-0.306028,21.3446,0.96071,-0.611364,0.0587866,-0.339477,-1.06003,0.0659718,2.78981,0.405365,-0.611958,0.154552
5566872,0,-1.5706,-0.522825,-2.47908e-05,-2.09641,1.57033,1.57168,0.785072,-1.57079,-0.523598,-3.43841e-07,-2.0944,1.5708,1.5708,0.785397,-0.00028664,0.000555504,9.46454e-05,-0.000332806,-0.000585882,-7.30938e-05,-0.000902247,0,0,0,0,0,0,0,-0.327442,-10.213,-0.329831,21.3446,0.983598,-0.611364,0.129282,-0.33893,-1.05858,0.0668292,2.78911,0.405307,-0.61209,0.154691
5566873,0,-1.5706,-0.522826,-2.47908e-05,-2.09641,1.57033,1.57168,0.785071,-1.57079,-0.523598,-3.43841e-07,-2.0944,1.5708,1.5708,0.785397,0.000458521,-0.000186476,6.30969e-05,-0.000221871,5.02218e-05,-4.87292e-05,0.000110579,0,0,0,0,0,0,0,-0.355213,-10.1892,-0.329831,21.3446,0.971697,-0.611364,0.110056,-0.338648,-1.0587,0.0672885,2.78958,0.405307,-0.612185,0.154823
5566874,0,-1.5706,-0.52283,-2.47908e-05,-2.09641,1.57033,1.57168,0.785075,-1.57079,-0.523598,-3.43841e-07,-2.0944,1.5708,1.5708,0.785397,-0.000900746,-0.00133074,4.20646e-05,-0.000704726,0.000236932,0.000442232,0.000548437,0,0,0,0,0,0,0,-0.303639,-10.1377,-0.329831,21.3684,0.966203,-0.624181,0.0972387,-0.338773,-1.05871,0.0671163,2.79028,0.405344,-0.612204,0.154941
5566875,0,-1.5706,-0.522825,-2.47908e-05,-2.09641,1.57033,1.57168,0.78507,-1.57079,-0.523598,-3.43841e-07,-2.0944,1.5708,1.5708,0.785397,-4.36851e-05,0.000876076,2.80431e-05,8.69947e-05,0.000361405,-0.000179897,-0.000346452,0,0,0,0,0,0,0,-0.327442,-10.213,-0.329831,21.3446,0.96071,-0.611364,0.116465,-0.338813,-1.05801,0.0669944,2.79081,0.405384,-0.612216,0.155046
5566876,0,-1.5706,-0.52283,-2.2842e-05,-2.09641,1.57033,1.57168,0.785078,-1.57079,-0.523598,-3.43841e-07,-2.0944,1.5708,1.5708,0.785397,-2.91234e-05,-0.00117919,0.000668309,5.79965e-05,-0.000369415,0.000117428,0.0016679,0,0,0,0,0,0,0,-0.327442,-10.1377,-0.357602,21.3446,0.97719,-0.617772,0.0651953,-0.339038,-1.05751,0.0665184,2.79132,0.405426,-0.612202,0.155132
5566877,0,-1.5706,-0.522825,-2.47908e-05,-2.0964,1.57033,1.57168,0.785069,-1.57079,-0.523598,-3.43841e-07,-2.0944,1.5708,1.5708,0.785397,-1.94156e-05,0.000977113,-0.000204074,0.00124509,0.000364075,-0.000396433,-0.002245,0,0,0,0,0,0,0,-0.327442,-10.213,-0.329831,21.2931,0.96071,-0.604955,0.155832,-0.339658,-1.05663,0.0654126,2.79125,0.405448,-0.612124,0.155189
5566878,0,-1.57059,-0.522825,-2.2842e-05,-2.09641,1.57033,1.57168,0.785078,-1.57079,-0.523598,-3.43841e-07,-2.0944,1.5708,1.5708,0.785397,0.00119348,0.000651409,0.000513564,-0.000376366,0.000242717,-0.000264288,0.00138555,0,0,0,0,0,0,0,-0.379017,-10.213,-0.357602,21.3446,0.96071,-0.604955,0.0780126,-0.340608,-1.05686,0.0638516,2.79127,0.405469,-0.612006,0.155213
5566881,0,-1.5706,-0.522825,-2.2842e-05,-2.09641,1.57033,1.57168,0.785065,-1.57079,-0.523598,-3.43841e-07,-2.0944,1.5708,1.5708,0.785397,0.000250511,0.000636397,0.000698668,0.000177202,-0.000334985,-0.00034204,-0.00220041,0,0,0,0,0,0,0,-0.355213,-10.213,-0.357602,21.3169,0.971697,-0.604955,0.16865,-0.342318,-1.06169,0.0612187,2.79315,0.405434,-0.611816,0.155262
5566882,0,-1.5706,-0.522828,-2.47908e-05,-2.09641,1.57033,1.57168,0.78507,-1.57079,-0.523598,-3.43841e-07,-2.0944,1.5708,1.5708,0.785397,0.000167007,-0.000689359,-0.000183835,-0.00108829,-0.000223323,9.33238e-06,0.000703196,0,0,0,0,0,0,0,-0.355213,-10.1654,-0.329831,21.3684,0.971697,-0.611364,0.110056,-0.342696,-1.06079,0.060689,2.79288,0.405355,-0.611743,0.155325
5566883,0,-1.5706,-0.522826,-2.2842e-05,-2.09641,1.57033,1.57168,0.785076,-1.57079,-0.523598,-3.43841e-07,-2.0944,1.5708,1.5708,0.785397,-0.00109509,9.72392e-05,0.000527057,0.000480898,-0.000352333,-0.000231137,0.00165559,0,0,0,0,0,0,0,-0.303639,-10.1892,-0.357602,21.3169,0.97719,-0.604955,0.0780126,-0.343008,-1.06038,0.060169,2.79319,0.405297,-0.611679,0.155443
5566884,0,-1.5706,-0.522826,-2.47908e-05,-2.09641,1.57033,1.57168,0.785072,-1.57079,-0.523598,-3.43841e-07,-2.0944,1.5708,1.5708,0.785397,0.000476367,6.48262e-05,-0.000298243,-0.000885827,-3.1438e-05,0.000320626,-0.000557785,0,0,0,0,0,0,0,-0.355213,-10.1892,-0.329831,21.3684,0.971697,-0.617772,0.122873,-0.342928,-1.06025,0.0601373,2.79372,0.405244,-0.61167,0.155594
5566885,0,-1.5706,-0.522826,-2.47908e-05,-2.0964,1.57033,1.57168,0.78507,-1.57079,-0.523598,-3.43841e-07,-2.0944,1.5708,1.5708,0.785397,0.000317578,4.32174e-05,-0.000198828,0.00117269,0.000589393,-0.000260967,-0.000371856,0,0,0,0,0,0,0,-0.355213,-10.1892,-0.329831,21.2931,0.955217,-0.604955,0.122873,-0.342751,-1.0605,0.0603094,2.79425,0.405198,-0.611673,0.155733
5566886,0,-1.5706,-0.522823,-2.64613e-05,-2.09641,1.57033,1.57168,0.785068,-1.57079,-0.523598,-3.43841e-07,-2.0944,1.5708,1.5708,0.785397,0.000211719,0.00123524,-0.000689364,-0.000424635,-1.39724e-05,-0.000173978,-0.000485263,0,0,0,0,0,0,0,-0.355213,-10.2408,-0.306028,21.3446,0.966203,-0.604955,0.129282,-0.342486,-1.06139,0.0607893,2.79472,0.405144,-0.611693,0.155861
5566887,0,-1.57059,-0.522826,-2.2842e-05,-2.09641,1.57033,1.57168,0.785075,-1.57079,-0.523598,-3.43841e-07,-2.0944,1.5708,1.5708,0.785397,0.000697958,-0.000382934,0.00074685,-0.00028309,-0.000416216,0.000358733,0.00110064,0,0,0,0,0,0,0,-0.379017,-10.1892,-0.357602,21.3446,0.97719,-0.617772,0.09083,-0.34239,-1.06353,0.0611253,2.79574,0.405108,-0.611699,0.155998
5566888,0,-1.5706,-0.522826,-2.47908e-05,-2.09641,1.57033,1.57168,0.785076,-1.57079,-0.523598,-3.43841e-07,-2.0944,1.5708,1.5708,0.785397,-9.15067e-05,-0.000255289,-0.000151714,-0.000745539,-7.40268e-05,1.79609e-06,0.000733763,0,0,0,0,0,0,0,-0.355213,-10.1892,-0.329831,21.3684,0.971697,-0.611364,0.09083,-0.342854,-1.06533,0.0606519,2.79695,0.405105,-0.611617,0.156144
5566889,0,-1.5706,-0.52283,-2.2842e-05,-2.09641,1.57033,1.57168,0.785071,-1.57079,-0.523598,-3.43841e-07,-2.0944,1.5708,1.5708,0.785397,-6.10045e-05,-0.00137662,0.000548471,-0.000497026,0.000154099,1.19739e-06,-0.000222901,0,0,0,0,0,0,0,-0.355213,-10.1377,-0.357602,21.3684,0.966203,-0.611364,0.110056,-0.343506,-1.06501,0.0598843,2.7975,0.405099,-0.611482,0.156267
5566890,0,-1.5706,-0.522826,-2.64613e-05,-2.09641,1.57033,1.57168,0.785076,-1.57079,-0.523598,-3.43841e-07,-2.0944,1.5708,1.5708,0.785397,-4.06696e-05,0.00028868,-0.000840778,0.000875075,0.000102733,-0.000236561,0.000800835,0,0,0,0,0,0,0,-0.355213,-10.1892,-0.306028,21.3169,0.966203,-0.604955,0.0844213,-0.343851,-1.06265,0.059609,2.79704,0.405055,-0.611375,0.156348
5566891,0,-1.5706,-0.522825,-2.26603e-05,-2.0964,1.57033,1.57168,0.785069,-1.57079,-0.523598,-3.43841e-07,-2.0944,1.5708,1.5708,0.785397,-2.71131e-05,0.000749265,-3.707e-06,0.0011402,-0.000134962,7.96518e-05,-0.00211097,0,0,0,0,0,0,0,-0.355213,-10.213,-0.329831,21.2931,0.971697,-0.611364,0.155832,-0.343683,-1.06027,0.0602164,2.7959,0.404961,-0.611357,0.156384
5566892,0,-1.5706,-0.522828,-2.57511e-05,-2.09641,1.57033,1.57168,0.785078,-1.57079,-0.523598,-3.43841e-07,-2.0944,1.5708,1.5708,0.785397,-0.000667689,-0.000614114,-0.000559283,-0.000446296,-8.99746e-05,5.31012e-05,0.0014749,0,0,0,0,0,0,0,-0.327442,-10.1654,-0.306028,21.3446,0.971697,-0.611364,0.0780126,-0.343038,-1.05892,0.0616029,2.79477,0.40485,-0.611428,0.156391
5566893,0,-1.5706,-0.522825,-2.09348e-05,-2.09641,1.57033,1.57168,0.785069,-1.57079,-0.523598,-3.43841e-07,-2.0944,1.5708,1.5708,0.785397,0.000204488,0.000704215,0.00139038,0.000352084,-0.000500793,-0.000439317,-0.00189895,0,0,0,0,0,0,0,-0.355213,-10.213,-0.381406,21.3169,0.983598,-0.598546,0.155832,-0.342584,-1.0582,0.0626328,2.7941,0.404776,-0.611474,0.156394
5566894,0,-1.5706,-0.522823,-2.47119e-05,-2.0964,1.57033,1.57168,0.785079,-1.57079,-0.523598,-3.43841e-07,-2.0944,1.5708,1.5708,0.785397,0.000136325,0.00111909,-0.000279504,0.000791534,0.000106948,-5.55191e-05,0.00185361,0,0,0,0,0,0,0,-0.355213,-10.2408,-0.329831,21.2931,0.971697,-0.604955,0.071604,-0.342988,-1.05904,0.0623014,2.79417,0.404779,-0.611401,0.156408
5566895,0,-1.57059,-0.522822,-2.6435e-05,-2.09641,1.57033,1.57168,0.785075,-1.57079,-0.523598,-3.43841e-07,-2.0944,1.5708,1.5708,0.785397,0.000647695,9.64464e-05,-0.000743148,-0.000678736,0.000274749,0.000675064,4.89457e-05,0,0,0,0,0,0,0,-0.379017,-10.213,-0.306028,21.3446,0.966203,-0.624181,0.103647,-0.343555,-1.06152,0.0618139,2.79492,0.404825,-0.611315,0.156433
5566896,0,-1.5706,-0.522827,-2.47821e-05,-2.09641,1.57033,1.57168,0.785071,-1.57079,-0.523598,-3.43841e-07,-2.0944,1.5708,1.5708,0.785397,-0.000774629,-0.00104933,6.13798e-05,-0.000452491,-0.000223735,-2.46752e-05,-0.000204728,0,0,0,0,0,0,0,-0.327442,-10.1654,-0.329831,21.3446,0.97719,-0.611364,0.110056,-0.343559,-1.06339,0.0622771,2.79575,0.40487,-0.611297,0.156442
5566897,0,-1.5706,-0.522826,-2.64584e-05,-2.09641,1.57033,1.57168,0.785073,-1.57079,-0.523598,-3.43841e-07,-2.0944,1.5708,1.5708,0.785397,0.000133195,-0.000142739,-0.000515892,-0.00141528,0.000257744,0.000220909,-0.000373845,0,0,0,0,0,0,0,-0.355213,-10.1892,-0.306028,21.3922,0.966203,-0.617772,0.116465,-0.343149,-1.06357,0.0633411,2.79641,0.404915,-0.61132,0.156422
5566898,0,-1.5706,-0.522823,-2.47899e-05,-2.09641,1.57033,1.57168,0.785069,-1.57079,-0.523598,-3.43841e-07,-2.0944,1.5708,1.5708,0.785397,8.87964e-05,0.00111127,0.000212884,-0.000386711,-0.000235071,-0.000327445,-0.000723948,0,0,0,0,0,0,0,-0.355213,-10.2408,-0.329831,21.3684,0.97719,-0.604955,0.129282,-0.342746,-1.06454,0.0643873,2.79786,0.404998,-0.611356,0.156385
5566899,0,-1.5706,-0.522826,-2.47905e-05,-2.09641,1.57033,1.57168,0.785078,-1.57079,-0.523598,-3.43841e-07,-2.0944,1.5708,1.5708,0.785397,-0.000590416,-0.000465581,0.000141923,-0.000257807,0.000250187,0.000731139,0.00189096,0,0,0,0,0,0,0,-0.327442,-10.1892,-0.329831,21.3684,0.966203,-0.63059,0.0651953,-0.342629,-1.0669,0.0649825,2.79994,0.405115,-0.611381,0.156357
5566900,0,-1.5706,-0.522825,-2.47907e-05,-2.09641,1.57033,1.57168,0.785072,-1.57079,-0.523598,-3.43841e-07,-2.0944,1.5708,1.5708,0.785397,-0.00215685,0.000246424,9.46151e-05,0.00103455,0.000166791,-0.00046201,-0.00111295,0,0,0,0,0,0,0,-0.252064,-10.213,-0.329831,21.3169,0.966203,-0.604955,0.129282,-0.342161,-1.06803,0.065915,2.80098,0.405184,-0.61146,0.156337
5566901,0,-1.5706,-0.522825,-2.64612e-05,-2.0964,1.57033,1.57168,0.785074,-1.57079,-0.523598,-3.43841e-07,-2.0944,1.5708,1.5708,0.785397,0.000325339,0.000164283,-0.000493735,0.00124651,-9.22564e-05,-7.06476e-05,-0.000267249,0,0,0,0,0,0,0,-0.327442,-10.213,-0.306028,21.2931,0.971697,-0.611364,0.116465,-0.341008,-1.0672,0.0676752,2.80028,0.405162,-0.611627,0.156306
5566902,0,-1.5706,-0.522823,-2.47908e-05,-2.09641,1.57033,1.57168,0.785076,-1.57079,-0.523598,-3.43841e-07,-2.0944,1.5708,1.5708,0.785397,0.000216892,0.000759136,0.000227655,-0.000932228,-6.15043e-05,0.000190261,0.000533911,0,0,0,0,0,0,0,-0.327442,-10.2408,-0.329831,21.3684,0.971697,-0.617772,0.0972387,-0.340083,-1.06642,0.0690714,2.79922,0.405122,-0.611756,0.156273
5566903,0,-1.5706,-0.522828,-2.47908e-05,-2.09641,1.57033,1.57168,0.785073,-1.57079,-0.523598,-3.43841e-07,-2.0944,1.5708,1.5708,0.785397,0.000794209,-0.00125715,0.00015177,-0.0011783,-0.000244453,0.00012684,-0.000593495,0,0,0,0,0,0,0,-0.355213,-10.1654,-0.329831,21.3922,0.97719,-0.617772,0.122873,-0.340138,-1.06656,0.0690139,2.79922,0.405151,-0.611738,0.156244
5566904,0,-1.5706,-0.522825,-2.47908e-05,-2.0964,1.57033,1.57168,0.785075,-1.57079,-0.523598,-3.43841e-07,-2.0944,1.5708,1.5708,0.785397,-0.000120141,0.000275526,0.00010118,0.00153452,0.000243932,-0.000152799,0.00150321,0,0,0,0,0,0,0,-0.327442,-10.213,-0.329831,21.2931,0.966203,-0.611364,0.071604,-0.34091,-1.06567,0.0678693,2.79914,0.405205,-0.611595,0.156219
5566905,0,-1.5706,-0.522821,-2.64613e-05,-2.0964,1.57033,1.57168,0.78507,-1.57079,-0.523598,-3.43841e-07,-2.0944,1.5708,1.5708,0.785397,-8.00942e-05,0.00139011,-0.000489359,0.00102301,-0.00024428,-0.000101866,-0.00137145,0,0,0,0,0,0,0,-0.327442,-10.2646,-0.306028,21.2931,0.97719,-0.611364,0.135691,-0.341537,-1.06435,0.0669383,2.7982,0.405219,-0.61148,0.156191
5566906,0,-1.5706,-0.522826,-2.64613e-05,-2.09641,1.57033,1.57168,0.785077,-1.57079,-0.523598,-3.43841e-07,-2.0944,1.5708,1.5708,0.785397,0.000596218,-0.000836498,-0.000326239,-0.000524418,0.000447498,-6.79105e-05,0.000984571,0,0,0,0,0,0,0,-0.355213,-10.1892,-0.306028,21.3446,0.96071,-0.611364,0.0844213,-0.341683,-1.06411,0.0667632,2.7973,0.405213,-0.611455,0.156147
5566907,0,-1.5706,-0.522826,-2.64613e-05,-2.09641,1.57033,1.57168,0.785074,-1.57079,-0.523598,-3.43841e-07,-2.0944,1.5708,1.5708,0.785397,-0.000252135,-0.000557665,-0.000217493,0.000300002,-0.000312019,0.000429444,-0.000530414,0,0,0,0,0,0,0,-0.327442,-10.1892,-0.306028,21.3169,0.97719,-0.624181,0.116465,-0.341615,-1.06306,0.0669573,2.79633,0.4052,-0.611446,0.15609
5566908,0,-1.5706,-0.522825,-2.47908e-05,-2.0964,1.57033,1.57168,0.785073,-1.57079,-0.523598,-3.43841e-07,-2.0944,1.5708,1.5708,0.785397,-0.00016809,0.000185035,0.000411817,0.000756813,-4.56231e-06,-0.000425781,0.000595826,0,0,0,0,0,0,0,-0.327442,-10.213,-0.329831,21.2931,0.971697,-0.604955,0.09083,-0.341512,-1.06073,0.067166,2.79487,0.405176,-0.611428,0.156025
5566909,0,-1.57059,-0.522826,-2.2842e-05,-2.09641,1.57033,1.57168,0.785074,-1.57079,-0.523598,-3.43841e-07,-2.0944,1.5708,1.5708,0.785397,0.00109437,-0.000433455,0.000924158,-5.22697e-05,0.000200409,0.000190864,-7.75003e-05,0,0,0,0,0,0,0,-0.379017,-10.1892,-0.357602,21.3169,0.966203,-0.617772,0.103647,-0.342065,-1.05841,0.0663335,2.7933,0.405177,-0.611319,0.155949
5566910,0,-1.5706,-0.522826,-2.2842e-05,-2.0964,1.57033,1.57168,0.785073,-1.57079,-0.523598,-3.43841e-07,-2.0944,1.5708,1.5708,0.785397,-0.00103366,-0.00028897,0.000616106,0.00163559,-0.000273295,-0.000110116,-0.000526385,0,0,0,0,0,0,0,-0.303639,-10.1892,-0.357602,21.2455,0.97719,-0.611364,0.116465,-0.343425,-1.05581,0.064223,2.79143,0.405203,-0.61109,0.155859
5566911,0,-1.5706,-0.522825,-2.47908e-05,-2.0964,1.57033,1.57168,0.785079,-1.57079,-0.523598,-3.43841e-07,-2.0944,1.5708,1.5708,0.785397,0.000517319,0.000364165,-0.000238877,-2.3231e-05,0.000428155,-0.00031077,0.00154795,0,0,0,0,0,0,0,-0.355213,-10.213,-0.329831,21.2931,0.96071,-0.604955,0.0651953,-0.344541,-1.05319,0.0623966,2.78928,0.405213,-0.610901,0.155758
5566912,0,-1.5706,-0.522825,-2.47908e-05,-2.0964,1.57033,1.57168,0.785072,-1.57079,-0.523598,-3.43841e-07,-2.0944,1.5708,1.5708,0.785397,-0.00141836,0.000242777,-0.000159251,-1.54873e-05,8.19861e-05,3.01791e-05,-0.00134162,0,0,0,0,0,0,0,-0.279835,-10.213,-0.329831,21.2931,0.966203,-0.611364,0.129282,-0.344656,-1.05241,0.0620184,2.78804,0.405218,-0.610876,0.155638
5566913,0,-1.5706,-0.522826,-2.47908e-05,-2.09641,1.57033,1.57168,0.785074,-1.57079,-0.523598,-3.43841e-07,-2.0944,1.5708,1.5708,0.785397,0.000168051,-0.000394961,-0.000106167,-0.000567137,0.000258108,2.01194e-05,-0.000419698,0,0,0,0,0,0,0,-0.327442,-10.1892,-0.329831,21.3169,0.96071,-0.611364,0.116465,-0.343809,-1.05333,0.0629814,2.78799,0.40523,-0.610994,0.155487
5566914,0,-1.5706,-0.522828,-2.47908e-05,-2.09641,1.57033,1.57168,0.785074,-1.57079,-0.523598,-3.43841e-07,-2.0944,1.5708,1.5708,0.785397,0.000112034,-0.000820119,-7.07783e-05,-0.00102771,-0.000234829,0.000488131,-0.000279799,0,0,0,0,0,0,0,-0.327442,-10.1654,-0.329831,21.3446,0.971697,-0.624181,0.116465,-0.342758,-1.05423,0.0641841,2.78845,0.405247,-0.611121,0.155333
5566915,0,-1.5706,-0.522826,-2.47908e-05,-2.0964,1.57033,1.57168,0.785074,-1.57079,-0.523598,-3.43841e-07,-2.0944,1.5708,1.5708,0.785397,7.46895e-05,1.00659e-05,-4.71855e-05,0.0010781,4.68978e-05,8.80616e-05,0.00100026,0,0,0,0,0,0,0,-0.327442,-10.1892,-0.329831,21.2693,0.966203,-0.617772,0.0844213,-0.341984,-1.05431,0.0649758,2.78871,0.405252,-0.611193,0.155208
5566916,0,-1.5706,-0.522826,-2.47908e-05,-2.09641,1.57033,1.57168,0.785072,-1.57079,-0.523598,-3.43841e-07,-2.0944,1.5708,1.5708,0.785397,4.9793e-05,6.71058e-06,-3.1457e-05,-0.00039489,3.12652e-05,-0.000653369,0.000429483,0,0,0,0,0,0,0,-0.327442,-10.1892,-0.329831,21.3169,0.966203,-0.598546,0.09083,-0.341415,-1.05409,0.0654654,2.78846,0.405226,-0.61124,0.155107
5566917,0,-1.5706,-0.522826,-2.47908e-05,-2.09641,1.57033,1.57168,0.785068,-1.57079,-0.523598,-3.43841e-07,-2.0944,1.5708,1.5708,0.785397,3.31953e-05,4.47372e-06,-2.09714e-05,-0.000912874,0.000224294,0.000276497,-0.00212118,0,0,0,0,0,0,0,-0.327442,-10.1892,-0.329831,21.3446,0.96071,-0.617772,0.155832,-0.340993,-1.05481,0.0657206,2.78866,0.405209,-0.611275,0.155002
5566918,0,-1.5706,-0.522825,-2.47908e-05,-2.09641,1.57033,1.57168,0.785075,-1.57079,-0.523598,-3.43841e-07,-2.0944,1.5708,1.5708,0.785397,2.21302e-05,0.000559794,-1.39809e-05,-0.00116539,-5.39212e-05,0.000421691,0.000756021,0,0,0,0,0,0,0,-0.327442,-10.213,-0.329831,21.3684,0.966203,-0.624181,0.0972387,-0.340607,-1.05743,0.0658759,2.79021,0.405235,-0.61132,0.154894
5566919,0,-1.5706,-0.522823,-2.64613e-05,-2.09641,1.57033,1.57168,0.785067,-1.57079,-0.523598,-3.43841e-07,-2.0944,1.5708,1.5708,0.785397,0.000664367,0.00102281,-0.000566133,-0.000220118,0.000167503,0.000281127,-0.00119141,0,0,0,0,0,0,0,-0.355213,-10.2408,-0.306028,21.3446,0.96071,-0.624181,0.143015,-0.340188,-1.06219,0.0661047,2.79299,0.405289,-0.611404,0.154818
5566920,0,-1.5706,-0.522826,-2.64613e-05,-2.09641,1.57033,1.57168,0.785074,-1.57079,-0.523598,-3.43841e-07,-2.0944,1.5708,1.5708,0.785397,-0.000206702,-0.000524552,-0.000377422,0.000502869,-0.000498683,-0.0002873,0.00161323,0,0,0,0,0,0,0,-0.327442,-10.1892,-0.306028,21.3169,0.97719,-0.611364,0.0780126,-0.339635,-1.06694,0.0666629,2.79546,0.405301,-0.611533,0.154792
5566921,0,-1.5706,-0.522823,-2.47908e-05,-2.0964,1.57033,1.57168,0.785065,-1.57079,-0.523598,-3.43841e-07,-2.0944,1.5708,1.5708,0.785397,0.000511812,0.000856724,0.000305197,0.000892058,-0.000129005,-0.000428892,-0.00156937,0,0,0,0,0,0,0,-0.355213,-10.2408,-0.329831,21.2931,0.971697,-0.604955,0.149424,-0.339171,-1.06937,0.0671961,2.79619,0.405237,-0.611647,0.154814
5566922,0,-1.5706,-0.522826,-2.47908e-05,-2.09641,1.57033,1.57168,0.785072,-1.57079,-0.523598,-3.43841e-07,-2.0944,1.5708,1.5708,0.785397,0.000341208,-0.000635276,0.000203465,3.78933e-05,0.000117447,-0.000285928,0.00112389,0,0,0,0,0,0,0,-0.355213,-10.1892,-0.329831,21.3169,0.966203,-0.604955,0.09083,-0.339319,-1.06991,0.0668835,2.79558,0.405147,-0.611656,0.154868
5566923,0,-1.57059,-0.522825,-2.2842e-05,-2.09641,1.57033,1.57168,0.785075,-1.57079,-0.523598,-3.43841e-07,-2.0944,1.5708,1.5708,0.785397,0.000784284,0.000133294,0.000785257,-0.000624352,-0.000328603,4.67402e-05,0.00074926,0,0,0,0,0,0,0,-0.379017,-10.213,-0.357602,21.3446,0.97719,-0.611364,0.09083,-0.34028,-1.06939,0.0654168,2.79461,0.405085,-0.611527,0.15495
5566924,0,-1.5706,-0.522825,-2.47908e-05,-2.0964,1.57033,1.57168,0.785074,-1.57079,-0.523598,-3.43841e-07,-2.0944,1.5708,1.5708,0.785397,-0.00068357,8.88629e-05,-0.000126109,0.000790191,0.000187833,0.000268519,-0.00021257,0,0,0,0,0,0,0,-0.327442,-10.213,-0.329831,21.2931,0.966203,-0.617772,0.110056,-0.34149,-1.06862,0.0635965,2.79376,0.405053,-0.611351,0.155032
5566925,0,-1.5706,-0.522825,-2.64613e-05,-2.09641,1.57033,1.57168,0.785073,-1.57079,-0.523598,-3.43841e-07,-2.0944,1.5708,1.5708,0.785397,-0.000455713,5.92419e-05,-0.000640885,-3.00177e-05,0.000125222,-5.83462e-05,-0.000616431,0,0,0,0,0,0,0,-0.327442,-10.213,-0.306028,21.3169,0.966203,-0.611364,0.122873,-0.341748,-1.06785,0.0632071,2.79278,0.404997,-0.611319,0.155088
5566926,0,-1.5706,-0.522828,-2.47908e-05,-2.0964,1.57033,1.57168,0.785068,-1.57079,-0.523598,-3.43841e-07,-2.0944,1.5708,1.5708,0.785397,0.000345805,-0.00107413,0.000129555,0.0005368,8.34811e-05,-0.000276256,-0.000885672,0,0,0,0,0,0,0,-0.355213,-10.1654,-0.329831,21.2931,0.966203,-0.604955,0.135691,-0.341111,-1.06603,0.064219,2.79119,0.404895,-0.611404,0.155126
5566927,0,-1.5706,-0.522826,-2.47908e-05,-2.09641,1.57033,1.57168,0.785078,-1.57079,-0.523598,-3.43841e-07,-2.0944,1.5708,1.5708,0.785397,-0.000419077,-0.000159274,8.63703e-05,-0.00140537,0.000259105,-0.00042153,0.00178314,0,0,0,0,0,0,0,-0.327442,-10.1892,-0.329831,21.3684,0.96071,-0.598546,0.071604,-0.340575,-1.06321,0.0651297,2.78942,0.404793,-0.611447,0.155175
5566928,0,-1.5706,-0.522823,-2.64613e-05,-2.09641,1.57033,1.57168,0.785073,-1.57079,-0.523598,-3.43841e-07,-2.0944,1.5708,1.5708,0.785397,-0.000279385,0.00110024,-0.000499232,-0.000936914,0.000172736,-4.3661e-05,-0.000472752,0,0,0,0,0,0,0,-0.327442,-10.2408,-0.306028,21.3684,0.96071,-0.604955,0.116465,-0.340012,-1.06258,0.066056,2.78934,0.404746,-0.611496,0.155233
5566929,0,-1.5706,-0.522825,-2.47908e-05,-2.09641,1.57033,1.57168,0.785066,-1.57079,-0.523598,-3.43841e-07,-2.0944,1.5708,1.5708,0.785397,0.000463357,8.38814e-05,0.000223991,-0.000624609,0.000115158,0.000208252,-0.00177323,0,0,0,0,0,0,0,-0.355213,-10.213,-0.329831,21.3684,0.96071,-0.611364,0.155832,-0.339342,-1.06538,0.0671474,2.79131,0.404756,-0.611575,0.155273
5566930,0,-1.5706,-0.522828,-2.2842e-05,-2.09641,1.57033,1.57168,0.785074,-1.57079,-0.523598,-3.43841e-07,-2.0944,1.5708,1.5708,0.785397,-0.000897521,-0.0010577,0.000798941,0.00079002,-0.000330129,-9.85245e-05,0.000750627,0,0,0,0,0,0,0,-0.303639,-10.1654,-0.357602,21.3169,0.971697,-0.604955,0.103647,-0.339122,-1.06749,0.067529,2.79281,0.404751,-0.611561,0.155318
5566931,0,-1.5706,-0.522826,-2.2842e-05,-2.09641,1.57033,1.57168,0.785068,-1.57079,-0.523598,-3.43841e-07,-2.0944,1.5708,1.5708,0.785397,-0.000598347,-0.000148323,0.000532627,-0.000679746,-1.66357e-05,0.000171676,-0.000686377,0,0,0,0,0,0,0,-0.303639,-10.1892,-0.357602,21.3684,0.966203,-0.611364,0.135691,-0.339255,-1.06656,0.0671869,2.79258,0.404688,-0.611445,0.155408
5566932,0,-1.57059,-0.522825,-2.47908e-05,-2.09641,1.57033,1.57168,0.785077,-1.57079,-0.523598,-3.43841e-07,-2.0944,1.5708,1.5708,0.785397,0.00136434,0.00045793,-0.000294529,0.000103648,-0.000214541,0.000114451,0.001916,0,0,0,0,0,0,0,-0.379017,-10.213,-0.329831,21.3446,0.971697,-0.611364,0.071604,-0.339569,-1.0653,0.0664851,2.79214,0.404617,-0.611286,0.155539
5566933,0,-1.5706,-0.522825,-2.2842e-05,-2.09641,1.57033,1.57168,0.785072,-1.57079,-0.523598,-3.43841e-07,-2.0944,1.5708,1.5708,0.785397,0.000352748,0.000305286,0.000453261,0.000718713,-0.000346478,0.000551018,-0.000858894,0,0,0,0,0,0,0,-0.355213,-10.213,-0.357602,21.3169,0.97719,-0.624181,0.129282,-0.3403,-1.06525,0.0652902,2.79209,0.40456,-0.611085,0.155687
5566934,0,-1.5706,-0.522826,-2.64613e-05,-2.09641,1.57033,1.57168,0.785076,-1.57079,-0.523598,-3.43841e-07,-2.0944,1.5708,1.5708,0.785397,0.000235165,-0.000353288,-0.000904252,-0.000170472,-0.000468344,-0.000107372,0.000614199,0,0,0,0,0,0,0,-0.355213,-10.1892,-0.306028,21.3446,0.983598,-0.611364,0.0972387,-0.340997,-1.06521,0.0642696,2.79178,0.404495,-0.610908,0.155824
5566935,0,-1.5706,-0.522826,-2.47908e-05,-2.09641,1.57033,1.57168,0.78507,-1.57079,-0.523598,-3.43841e-07,-2.0944,1.5708,1.5708,0.785397,0.000156777,-0.000235525,-4.60225e-05,0.00687938,0.000332031,-7.15816e-05,-0.000302611,0,0,0,0,0,0,0,-0.355213,-10.1892,-0.329831,21.3169,0.966203,-0.611364,0.116465,-0.341086,-1.06203,0.0642992,2.78881,0.404324,-0.610818,0.155949
5566936,0,-1.57059,-0.522823,-2.47908e-05,-2.09641,1.57033,1.57168,0.785071,-1.57079,-0.523598,-3.43841e-07,-2.0944,1.5708,1.5708,0.785397,0.00066133,0.00104941,-3.06817e-05,0.00511487,0.000221354,-4.7721e-05,0.000272977,0,0,0,0,0,0,0,-0.379017,-10.2408,-0.329831,21.3169,0.966203,-0.611364,0.103647,-0.341041,-1.054,0.0647319,2.78092,0.403978,-0.610739,0.156073
5566937,0,-1.5706,-0.522825,-2.2842e-05,-2.09641,1.57033,1.57168,0.785075,-1.57079,-0.523598,-3.43841e-07,-2.0944,1.5708,1.5708,0.785397,-0.000115925,4.99922e-05,0.000629159,0.00259995,-0.000259332,0.000205545,0.000656703,0,0,0,0,0,0,0,-0.355213,-10.213,-0.357602,21.3684,0.97719,-0.617772,0.09083,-0.341414,-1.04489,0.0646281,2.77117,0.40359,-0.610622,0.156187
5566938,0,-1.5706,-0.522825,-2.2842e-05,-2.09641,1.57033,1.57168,0.785073,-1.57079,-0.523598,-3.43841e-07,-2.0944,1.5708,1.5708,0.785397,-7.72836e-05,3.33281e-05,0.00041944,0.00203065,0.000234013,0.00013703,-0.000511634,0,0,0,0,0,0,0,-0.355213,-10.213,-0.357602,21.3684,0.966203,-0.617772,0.116465,-0.342102,-1.03792,0.0639559,2.76344,0.40331,-0.610494,0.156268
5566939,0,-1.5706,-0.522825,-2.47908e-05,-2.0964,1.57033,1.57168,0.785078,-1.57079,-0.523598,-3.43841e-07,-2.0944,1.5708,1.5708,0.785397,-5.15224e-05,2.22187e-05,-0.000369988,0.00389683,0.000156009,9.13533e-05,0.00132042,0,0,0,0,0,0,0,-0.355213,-10.213,-0.329831,21.2693,0.966203,-0.617772,0.071604,-0.342636,-1.0325,0.0634347,2.7577,0.403117,-0.610416,0.156306
5566940,0,-1.57059,-0.522826,-2.2842e-05,-2.09641,1.57033,1.57168,0.785071,-1.57079,-0.523598,-3.43841e-07,-2.0944,1.5708,1.5708,0.785397,0.000522464,-0.000541999,0.000402956,0.000445093,0.000510907,-0.000413816,-0.00149331,0,0,0,0,0,0,0,-0.379017,-10.1892,-0.357602,21.3684,0.955217,-0.604955,0.135691,-0.342954,-1.02801,0.063273,2.75343,0.402971,-0.610388,0.156299
5566941,0,-1.5706,-0.522825,-2.64613e-05,-2.09641,1.57033,1.57168,0.785067,-1.57079,-0.523598,-3.43841e-07,-2.0944,1.5708,1.5708,0.785397,-0.000208503,0.000195479,-0.000937789,0.000422173,-0.000269747,-3.85182e-05,-0.00126681,0,0,0,0,0,0,0,-0.355213,-10.213,-0.306028,21.3684,0.971697,-0.611364,0.143015,-0.343115,-1.02587,0.0633949,2.75192,0.402917,-0.610404,0.156244
5566942,0,-1.5706,-0.522825,-2.2842e-05,-2.09641,1.57033,1.57168,0.785072,-1.57079,-0.523598,-3.43841e-07,-2.0944,1.5708,1.5708,0.785397,-0.000139002,0.000130319,0.000581233,0.00158196,2.36192e-05,-2.56788e-05,0.00108824,0,0,0,0,0,0,0,-0.355213,-10.213,-0.357602,21.3169,0.966203,-0.611364,0.09083,-0.342909,-1.02676,0.0640696,2.75324,0.402944,-0.610501,0.156183
5566943,0,-1.5706,-0.522828,-2.47908e-05,-2.0964,1.57033,1.57168,0.785071,-1.57079,-0.523598,-3.43841e-07,-2.0944,1.5708,1.5708,0.785397,-0.000742282,-0.00102674,-0.000262125,0.00168201,1.57461e-05,-0.000254478,0.000488136,0,0,0,0,0,0,0,-0.327442,-10.1654,-0.329831,21.2931,0.966203,-0.604955,0.0972387,-0.34252,-1.02805,0.0649521,2.75512,0.402974,-0.610628,0.156157
5566944,0,-1.5706,-0.522825,-2.2842e-05,-2.09641,1.57033,1.57168,0.785076,-1.57079,-0.523598,-3.43841e-07,-2.0944,1.5708,1.5708,0.785397,-0.000494855,0.000429128,0.000474864,0.000617451,-0.000192953,0.000305066,0.000800142,0,0,0,0,0,0,0,-0.327442,-10.213,-0.357602,21.3169,0.971697,-0.617772,0.0844213,-0.342027,-1.02869,0.0658604,2.75679,0.402991,-0.610754,0.156143
5566945,0,-1.5706,-0.522826,-2.47908e-05,-2.09641,1.57033,1.57168,0.785069,-1.57079,-0.523598,-3.43841e-07,-2.0944,1.5708,1.5708,0.785397,-0.000329903,-0.000270727,-0.000333038,-0.00131191,-0.000332086,-3.39817e-05,-0.00187407,0,0,0,0,0,0,0,-0.327442,-10.1892,-0.329831,21.3922,0.97719,-0.611364,0.149424,-0.341436,-1.03121,0.0667693,2.76,0.403067,-0.6109,0.156105
5566946,0,-1.57059,-0.522826,-2.07115e-05,-2.09641,1.57033,1.57168,0.785073,-1.57079,-0.523598,-3.43841e-07,-2.0944,1.5708,1.5708,0.785397,0.000986491,-0.000180485,0.00669877,0.000918398,-0.00045875,0.000214704,0.000920759,0,0,0,0,0,0,0,-0.379017,-10.1892,-0.357602,21.3169,0.983598,-0.617772,0.09083,-0.342983,-1.03564,0.0641248,2.76489,0.403309,-0.610733,0.156047
5566947,0,-1.5706,-0.522825,-2.19501e-05,-2.09641,1.57033,1.57168,0.78507,-1.57079,-0.523598,-3.43841e-07,-2.0944,1.5708,1.5708,0.785397,0.000100848,0.000436489,0.00433883,0.000634591,0.000134976,-0.000331582,-0.00104767,0,0,0,0,0,0,0,-0.355213,-10.213,-0.329831,21.3169,0.971697,-0.604955,0.135691,-0.349128,-1.04002,0.0540001,2.76974,0.40376,-0.609879,0.15601
5566948,0,-1.5706,-0.522828,-2.18951e-05,-2.09641,1.57033,1.57168,0.785078,-1.57079,-0.523598,-3.43841e-07,-2.0944,1.5708,1.5708,0.785397,6.72323e-05,-0.000822631,0.00393412,-0.000209808,-0.000350825,0.000253663,0.00167514,0,0,0,0,0,0,0,-0.355213,-10.1654,-0.357602,21.3446,0.983598,-0.617772,0.071604,-0.357808,-1.04383,0.0397379,2.77401,0.404319,-0.608643,0.155999
5566949,0,-1.5706,-0.522825,-2.25264e-05,-2.0964,1.57033,1.57168,0.785074,-1.57079,-0.523598,-3.43841e-07,-2.0944,1.5708,1.5708,0.785397,-0.0011616,0.000565203,0.00291671,0.00107911,0.000410377,-6.82499e-05,-0.000544752,0,0,0,0,0,0,0,-0.303639,-10.213,-0.357602,21.2931,0.966203,-0.611364,0.116465,-0.365563,-1.04695,0.0268701,2.7777,0.404848,-0.607538,0.155996
5566950,0,-1.5706,-0.522825,-2.27368e-05,-2.09641,1.57033,1.57168,0.785076,-1.57079,-0.523598,-3.43841e-07,-2.0944,1.5708,1.5708,0.785397,0.000432023,0.000376802,0.00216494,0.000172015,0.000273584,-0.000282859,0.000586268,0,0,0,0,0,0,0,-0.355213,-10.213,-0.357602,21.3169,0.966203,-0.604955,0.09083,-0.371101,-1.05027,0.0175095,2.78099,0.405288,-0.606767,0.155977
5566951,0,-1.5706,-0.522826,-2.28069e-05,-2.09641,1.57033,1.57168,0.785076,-1.57079,-0.523598,-3.43841e-07,-2.0944,1.5708,1.5708,0.785397,0.000288015,-0.000305611,0.00160865,-0.000527873,-2.1061e-05,4.87863e-05,0.000153486,0,0,0,0,0,0,0,-0.355213,-10.1892,-0.357602,21.3446,0.971697,-0.611364,0.0972387,-0.3745,-1.05419,0.01171,2.78431,0.405638,-0.606312,0.15593
5566952,0,-1.5706,-0.522825,-2.64496e-05,-2.09641,1.57033,1.57168,0.78507,-1.57079,-0.523598,-3.43841e-07,-2.0944,1.5708,1.5708,0.785397,0.00019201,0.000353072,-9.97897e-06,0.000302997,-1.40406e-05,3.25242e-05,-0.000847112,0,0,0,0,0,0,0,-0.355213,-10.213,-0.306028,21.3169,0.971697,-0.611364,0.122873,-0.375708,-1.05801,0.00963154,2.7876,0.405885,-0.606172,0.15585
5566953,0,-1.5706,-0.522826,-2.4787e-05,-2.0964,1.57033,1.57168,0.785075,-1.57079,-0.523598,-3.43841e-07,-2.0944,1.5708,1.5708,0.785397,-0.000521607,-0.000321431,0.000643171,0.000762783,-0.00045017,-0.000215676,0.000384695,0,0,0,0,0,0,0,-0.327442,-10.1892,-0.329831,21.2931,0.983598,-0.604955,0.0972387,-0.374467,-1.06103,0.0116025,2.79012,0.405995,-0.606384,0.155746
5566954,0,-1.5706,-0.522825,-2.47895e-05,-2.0964,1.57033,1.57168,0.785068,-1.57079,-0.523598,-3.43841e-07,-2.0944,1.5708,1.5708,0.785397,-0.000347738,0.000342525,0.000498539,0.000511502,0.000547597,0.000330934,-0.00116769,0,0,0,0,0,0,0,-0.327442,-10.213,-0.329831,21.2931,0.96071,-0.617772,0.135691,-0.371489,-1.06285,0.0163676,2.7915,0.405995,-0.606837,0.155638
5566955,0,-1.5706,-0.522826,-2.11711e-05,-2.0964,1.57033,1.57168,0.785077,-1.57079,-0.523598,-3.43841e-07,-2.0944,1.5708,1.5708,0.785397,-0.000231825,-0.000328462,0.0015911,0.000900049,0.000161614,-1.67364e-05,0.00159513,0,0,0,0,0,0,0,-0.327442,-10.1892,-0.381406,21.2693,0.966203,-0.611364,0.071604,-0.368045,-1.06375,0.0218404,2.79196,0.405948,-0.607343,0.155544
5566956,0,-1.5706,-0.522825,-2.28419e-05,-2.09641,1.57033,1.57168,0.785071,-1.57079,-0.523598,-3.43841e-07,-2.0944,1.5708,1.5708,0.785397,0.000495064,0.000337837,0.000543163,-0.000511915,0.000107743,-0.000248517,-0.00131017,0,0,0,0,0,0,0,-0.355213,-10.213,-0.357602,21.3169,0.966203,-0.604955,0.135691,-0.365072,-1.06434,0.0265551,2.79212,0.405904,-0.607769,0.155464
5566957,0,-1.57059,-0.522826,-2.2842e-05,-2.0964,1.57033,1.57168,0.785074,-1.57079,-0.523598,-3.43841e-07,-2.0944,1.5708,1.5708,0.785397,0.000886854,-0.000331587,0.000391538,0.000216793,0.000275279,0.00030904,7.59891e-05,0,0,0,0,0,0,0,-0.379017,-10.1892,-0.357602,21.2931,0.96071,-0.617772,0.110056,-0.362648,-1.06532,0.0304953,2.7926,0.405876,-0.60811,0.155388
5566958,0,-1.5706,-0.522823,-2.47908e-05,-2.09641,1.57033,1.57168,0.785073,-1.57079,-0.523598,-3.43841e-07,-2.0944,1.5708,1.5708,0.785397,3.44243e-05,0.000985368,-0.000366517,-0.00106095,-1.99311e-05,-0.000268691,0.000762736,0,0,0,0,0,0,0,-0.355213,-10.2408,-0.329831,21.3446,0.966203,-0.604955,0.09083,-0.360221,-1.06741,0.034558,2.79382,0.40585,-0.608462,0.155322
5566959,0,-1.5706,-0.522821,-2.2842e-05,-2.09641,1.57033,1.57168,0.785073,-1.57079,-0.523598,-3.43841e-07,-2.0944,1.5708,1.5708,0.785397,-0.000626664,0.000656912,0.000421824,-5.69819e-05,-0.000657547,0.000532949,-0.000440945,0,0,0,0,0,0,0,-0.327442,-10.2408,-0.357602,21.3169,0.983598,-0.624181,0.116465,-0.357266,-1.07159,0.0393989,2.79619,0.405826,-0.608924,0.155269
5566960,0,-1.5706,-0.522822,-2.64613e-05,-2.0964,1.57033,1.57168,0.785077,-1.57079,-0.523598,-3.43841e-07,-2.0944,1.5708,1.5708,0.785397,-0.000417776,0.000437941,-0.000912795,0.000519354,0.000205895,-0.000119418,0.000892831,0,0,0,0,0,0,0,-0.327442,-10.2408,-0.306028,21.2931,0.966203,-0.611364,0.0844213,-0.353624,-1.07658,0.0451619,2.79873,0.405775,-0.609511,0.155216
5566962,0,-1.57059,-0.522824,-2.11716e-05,-2.0964,1.57033,1.57168,0.785076,-1.57079,-0.523598,-3.43841e-07,-2.0944,1.5708,1.5708,0.785397,0.00102075,-0.000454973,0.000968601,0.000416992,-0.000247575,-0.000211314,0.000396814,0,0,0,0,0,0,0,-0.379017,-10.213,-0.381406,21.2931,0.97719,-0.611364,0.09083,-0.346906,-1.08254,0.0556047,2.80084,0.405602,-0.610592,0.155081
5566963,0,-1.5706,-0.522824,-2.47908e-05,-2.09641,1.57033,1.57168,0.78507,-1.57079,-0.523598,-3.43841e-07,-2.0944,1.5708,1.5708,0.785397,0.000123686,-0.000860128,-0.000555454,-0.000928208,0.000241851,-0.000378235,-0.000922252,0,0,0,0,0,0,0,-0.355213,-10.1892,-0.329831,21.3446,0.966203,-0.604955,0.122873,-0.345561,-1.08213,0.0577524,2.80026,0.405544,-0.610804,0.154983
5566964,0,-1.5706,-0.522823,-2.2842e-05,-2.09641,1.57033,1.57168,0.785075,-1.57079,-0.523598,-3.43841e-07,-2.0944,1.5708,1.5708,0.785397,-0.00112397,-0.000573418,0.000283239,-0.000618637,-4.22166e-05,0.000222561,0.000334601,0,0,0,0,0,0,0,-0.303639,-10.1892,-0.357602,21.3446,0.971697,-0.617772,0.0972387,-0.344232,-1.08,0.0598404,2.79922,0.405482,-0.610992,0.154864
5566965,0,-1.5706,-0.522825,-2.47908e-05,-2.09641,1.57033,1.57168,0.785078,-1.57079,-0.523598,-3.43841e-07,-2.0944,1.5708,1.5708,0.785397,-0.0001925,-0.000382279,-0.000457841,-0.000969111,-0.000231595,-8.89848e-05,0.0011725,0,0,0,0,0,0,0,-0.327442,-10.1892,-0.329831,21.3684,0.97719,-0.611364,0.071604,-0.342261,-1.07774,0.0627283,2.7985,0.40542,-0.611271,0.154739
5566966,0,-1.5706,-0.522822,-2.47908e-05,-2.09641,1.57033,1.57168,0.785074,-1.57079,-0.523598,-3.43841e-07,-2.0944,1.5708,1.5708,0.785397,-0.000128333,0.000951573,-0.000303018,-8.91676e-05,0.000455955,-5.93232e-05,-0.000879844,0,0,0,0,0,0,0,-0.327442,-10.2408,-0.329831,21.3446,0.96071,-0.611364,0.116465,-0.340048,-1.07695,0.0658912,2.79855,0.405378,-0.6116,0.1546
5566967,0,-1.5706,-0.522824,-2.2842e-05,-2.09641,1.57033,1.57168,0.785078,-1.57079,-0.523598,-3.43841e-07,-2.0944,1.5708,1.5708,0.785397,0.000564058,-1.52318e-05,0.000449259,-5.93743e-05,0.00030397,-0.000276908,0.000837591,0,0,0,0,0,0,0,-0.355213,-10.213,-0.357602,21.3446,0.96071,-0.604955,0.0780126,-0.338321,-1.07799,0.0683347,2.79921,0.405366,-0.611875,0.154433
5566968,0,-1.5706,-0.522826,-2.64613e-05,-2.09641,1.57033,1.57168,0.78507,-1.57079,-0.523598,-3.43841e-07,-2.0944,1.5708,1.5708,0.785397,-0.000273575,-0.000566966,-0.000905677,-3.95297e-05,-0.000204254,0.000290113,-0.00208646,0,0,0,0,0,0,0,-0.327442,-10.1892,-0.306028,21.3446,0.971697,-0.617772,0.149424,-0.33721,-1.07871,0.0698773,2.79945,0.405345,-0.612048,0.154244
5566969,0,-1.5706,-0.522826,-2.47908e-05,-2.09641,1.57033,1.57168,0.78507,-1.57079,-0.523598,-3.43841e-07,-2.0944,1.5708,1.5708,0.785397,-0.000182383,-0.000377978,-4.60403e-05,-2.63133e-05,0.000270731,0.000193408,-0.000170272,0,0,0,0,0,0,0,-0.327442,-10.1892,-0.329831,21.3446,0.96071,-0.617772,0.116465,-0.335998,-1.07768,0.0715805,2.79875,0.405273,-0.612209,0.154055
5566970,0,-1.5706,-0.522828,-2.47908e-05,-2.0964,1.57033,1.57168,0.785077,-1.57079,-0.523598,-3.43841e-07,-2.0944,1.5708,1.5708,0.785397,0.000528025,-0.000808797,-2.99944e-05,0.00118891,-0.000226413,0.000128939,0.00131064,0,0,0,0,0,0,0,-0.355213,-10.1654,-0.329831,21.2931,0.971697,-0.617772,0.0780126,-0.334932,-1.07482,0.0730711,2.79696,0.405151,-0.612332,0.153907
5566971,0,-1.5706,-0.522825,-2.64613e-05,-2.09641,1.57033,1.57168,0.785073,-1.57079,-0.523598,-3.43841e-07,-2.0944,1.5708,1.5708,0.785397,0.000352017,0.000574426,-0.000576284,-0.000413794,-0.000150942,8.59593e-05,-0.000550394,0,0,0,0,0,0,0,-0.355213,-10.213,-0.306028,21.3446,0.971697,-0.617772,0.116465,-0.334431,-1.07138,0.0737914,2.79467,0.405013,-0.612377,0.153806
5566972,0,-1.5706,-0.52283,-2.2842e-05,-2.09641,1.57033,1.57168,0.785078,-1.57079,-0.523598,-3.43841e-07,-2.0944,1.5708,1.5708,0.785397,0.000234678,-0.00138029,0.00082263,-0.000275846,0.000102822,5.73062e-05,0.00105722,0,0,0,0,0,0,0,-0.355213,-10.1377,-0.357602,21.3446,0.966203,-0.617772,0.0780126,-0.334447,-1.06876,0.0738015,2.79301,0.40491,-0.612369,0.153718
5566973,0,-1.57059,-0.522825,-2.81317e-05,-2.09641,1.57033,1.57168,0.78507,-1.57079,-0.523598,-3.43841e-07,-2.0944,1.5708,1.5708,0.785397,0.00127008,0.000843046,-0.00121452,-0.000740697,6.85482e-05,-0.000199155,-0.000719338,0,0,0,0,0,0,0,-0.402821,-10.213,-0.282224,21.3684,0.966203,-0.611364,0.116465,-0.334992,-1.06713,0.0731216,2.79233,0.40486,-0.612307,0.153625
5566974,0,-1.57059,-0.522826,-2.64613e-05,-2.09641,1.57033,1.57168,0.785075,-1.57079,-0.523598,-3.43841e-07,-2.0944,1.5708,1.5708,0.785397,0.000289905,5.21894e-06,-0.000252649,6.30235e-05,-0.000157752,-0.00013277,0.000469877,0,0,0,0,0,0,0,-0.379017,-10.1892,-0.306028,21.3446,0.971697,-0.611364,0.09083,-0.335585,-1.06743,0.0726378,2.79283,0.404842,-0.612278,0.153518
5566975,0,-1.57059,-0.522825,-2.64613e-05,-2.0964,1.57033,1.57168,0.785075,-1.57079,-0.523598,-3.43841e-07,-2.0944,1.5708,1.5708,0.785397,0.00019327,0.000560291,-0.000168267,0.00124845,-0.000105168,-8.85132e-05,-0.000161466,0,0,0,0,0,0,0,-0.379017,-10.213,-0.306028,21.2931,0.971697,-0.611364,0.103647,-0.336005,-1.06881,0.0726425,2.79358,0.404817,-0.61231,0.153402
5566976,0,-1.5706,-0.522826,-2.2842e-05,-2.09641,1.57033,1.57168,0.785074,-1.57079,-0.523598,-3.43841e-07,-2.0944,1.5708,1.5708,0.785397,-0.00107758,-0.000740096,0.00109437,-0.000374121,-0.000273562,0.00017835,0.000604433,0,0,0,0,0,0,0,-0.327442,-10.1654,-0.357602,21.3446,0.97719,-0.617772,0.0844213,-0.336501,-1.06931,0.0725318,2.79354,0.404776,-0.612338,0.153282
5566977,0,-1.5706,-0.522824,-2.11716e-05,-2.09641,1.57033,1.57168,0.785078,-1.57079,-0.523598,-3.43841e-07,-2.0944,1.5708,1.5708,0.785397,-6.87721e-05,0.000620226,0.00128649,0.000400204,2.10756e-05,-0.000118459,0.000877673,0,0,0,0,0,0,0,-0.355213,-10.213,-0.381406,21.3169,0.971697,-0.611364,0.071604,-0.33747,-1.06918,0.0715133,2.79326,0.404772,-0.612294,0.153147
5566978,0,-1.5706,-0.522826,-2.2842e-05,-2.09641,1.57033,1.57168,0.785072,-1.57079,-0.523598,-3.43841e-07,-2.0944,1.5708,1.5708,0.785397,-0.000695462,-0.000143328,0.000300916,0.000266805,-0.0001894,-7.89726e-05,-0.00155112,0,0,0,0,0,0,0,-0.327442,-10.1892,-0.357602,21.3169,0.97719,-0.611364,0.129282,-0.338865,-1.06926,0.0696757,2.79317,0.404816,-0.612188,0.152981
5566979,0,-1.5706,-0.522823,-2.64613e-05,-2.09641,1.57033,1.57168,0.785077,-1.57079,-0.523598,-3.43841e-07,-2.0944,1.5708,1.5708,0.785397,-0.000463641,0.00111087,-0.00100576,0.000177873,0.000280634,0.000184711,0.000627436,0,0,0,0,0,0,0,-0.327442,-10.2408,-0.306028,21.3169,0.966203,-0.617772,0.0844213,-0.339509,-1.07018,0.0689314,2.79339,0.40486,-0.612198,0.152777
5566980,0,-1.5706,-0.522825,-2.81317e-05,-2.09641,1.57033,1.57168,0.785067,-1.57079,-0.523598,-3.43841e-07,-2.0944,1.5708,1.5708,0.785397,-0.000309094,9.09688e-05,-0.00122728,-0.00108784,-0.000219812,-0.000114219,-0.00198921,0,0,0,0,0,0,0,-0.327442,-10.213,-0.282224,21.3684,0.97719,-0.611364,0.149424,-0.338584,-1.07266,0.0706277,2.79451,0.404886,-0.612446,0.152559
5566981,0,-1.5706,-0.522825,-2.64613e-05,-2.0964,1.57033,1.57168,0.785074,-1.57079,-0.523598,-3.43841e-07,-2.0944,1.5708,1.5708,0.785397,-0.000206063,6.06458e-05,-0.000261346,0.00103801,0.00026036,0.000161213,0.000369283,0,0,0,0,0,0,0,-0.327442,-10.213,-0.306028,21.2931,0.966203,-0.617772,0.103647,-0.336776,-1.07535,0.0737412,2.79592,0.404896,-0.612813,0.152359
5566982,0,-1.57059,-0.522825,-2.64613e-05,-2.09641,1.57033,1.57168,0.785077,-1.57079,-0.523598,-3.43841e-07,-2.0944,1.5708,1.5708,0.785397,0.00106905,4.04306e-05,-0.000174208,-0.00107123,0.000173573,-0.000367242,0.000958265,0,0,0,0,0,0,0,-0.379017,-10.213,-0.306028,21.3684,0.966203,-0.604955,0.0844213,-0.335497,-1.07677,0.0761341,2.79671,0.404904,-0.613073,0.152211
5566983,0,-1.5706,-0.522823,-2.64613e-05,-2.09641,1.57033,1.57168,0.785076,-1.57079,-0.523598,-3.43841e-07,-2.0944,1.5708,1.5708,0.785397,0.000155889,0.000676568,-0.000116122,-0.00015734,-0.000291185,0.00022989,0.000401485,0,0,0,0,0,0,0,-0.355213,-10.2408,-0.306028,21.3446,0.97719,-0.617772,0.09083,-0.335344,-1.07823,0.0769259,2.7977,0.404956,-0.613153,0.152108
5566984,0,-1.5706,-0.522828,-2.64613e-05,-2.09641,1.57033,1.57168,0.785077,-1.57079,-0.523598,-3.43841e-07,-2.0944,1.5708,1.5708,0.785397,-0.000545688,-0.00131219,-7.74024e-05,-0.000661705,9.32687e-06,0.00015326,0.000505015,0,0,0,0,0,0,0,-0.327442,-10.1654,-0.306028,21.3684,0.971697,-0.617772,0.0844213,-0.335635,-1.07933,0.0770542,2.79878,0.405028,-0.613156,0.152013
