shamilmamedov/beam_handling/log/param_estimation_ICRA/impulse_Z_2.csv
duration, success rate, q[0], q[1], q[2], q[3], q[4], q[5], q[6],q_d[0], q_d[1], q_d[2], q_d[3], q_d[4], q_d[5], q_d[6],dq[0], dq[1], dq[2], dq[3], dq[4], dq[5], dq[6],dq_d[0], dq_d[1], dq_d[2], dq_d[3], dq_d[4], dq_d[5], dq_d[6],tau_J[0], tau_J[1], tau_J[2], tau_J[3], tau_J[4], tau_J[5], tau_J[6],tau_ext_hat_filtered[0], tau_ext_hat_filtered[1], tau_ext_hat_filtered[2], tau_ext_hat_filtered[3], tau_ext_hat_filtered[4], tau_ext_hat_filtered[5], tau_ext_hat_filtered[6]
5649897,0,-1.57063,-0.522908,-2.35204e-05,-2.09649,-0.000715506,1.57131,0.785167,-1.5708,-0.523598,-2.40999e-07,-2.0944,-9.94096e-07,1.5708,0.785397,-0.000417956,-0.000336539,0.000178742,-0.000244452,0.000262913,0.000108111,-0.00123228,0,0,0,0,0,0,0,-0.125111,-10.1654,-0.484555,21.5152,1.30586,1.32772,0.110056,-0.126821,-1.00052,-0.00844085,2.90965,0.575852,-0.339618,0.0715658
5661546,0,-1.57064,-0.522921,-1.69739e-05,-2.09648,-0.000712583,1.57131,0.785181,-1.5708,-0.523598,-2.40999e-07,-2.0944,-9.94096e-07,1.5708,0.785397,-0.000816072,-0.000445325,5.89069e-05,-0.000229838,-0.000148717,-0.00013811,0.00191973,0,0,0,0,0,0,0,-0.101307,-10.0623,-0.532163,21.416,1.32234,1.31491,0.0258276,-0.138325,-0.954701,-0.051383,2.88356,0.604101,-0.352877,0.0723921
5661547,0,-1.57064,-0.522918,-1.86509e-05,-2.09648,-0.000713193,1.5713,0.785174,-1.5708,-0.523598,-2.40999e-07,-2.0944,-9.94096e-07,1.5708,0.785397,-0.000544048,0.000909543,-0.000517541,-0.00135965,-0.000302595,0.000145285,-0.00183976,0,0,0,0,0,0,0,-0.101307,-10.1139,-0.508359,21.4676,1.32784,1.3085,0.110056,-0.138291,-0.956809,-0.0516047,2.88508,0.604107,-0.352778,0.0723054
5661548,0,-1.57064,-0.52292,-1.65225e-05,-2.09648,-0.000711362,1.57131,0.78518,-1.5708,-0.523598,-2.40999e-07,-2.0944,-9.94096e-07,1.5708,0.785397,-0.000362699,4.95499e-05,-0.000345027,-0.000349622,0.000408622,9.68569e-05,0.000435009,0,0,0,0,0,0,0,-0.101307,-10.0901,-0.508359,21.4438,1.31136,1.3085,0.0651953,-0.137361,-0.960176,-0.0505699,2.88745,0.604182,-0.352613,0.0722166
5661549,0,-1.57064,-0.522923,-1.43244e-05,-2.09648,-0.000711972,1.57131,0.785173,-1.5708,-0.523598,-2.40999e-07,-2.0944,-9.94096e-07,1.5708,0.785397,0.000315013,-0.00117339,0.000976408,-0.000233081,6.89638e-05,-0.000410147,-0.00184622,0,0,0,0,0,0,0,-0.125111,-10.0385,-0.559934,21.4438,1.31685,1.32131,0.122873,-0.136573,-0.962463,-0.0497868,2.88931,0.604246,-0.352503,0.0721441
5661550,0,-1.57063,-0.522921,-1.67469e-05,-2.09648,-0.000712583,1.57131,0.785175,-1.5708,-0.523598,-2.40999e-07,-2.0944,-9.94096e-07,1.5708,0.785397,0.000210008,-0.00022545,1.3246e-06,0.000494226,-0.000157475,-3.60722e-05,-0.000756099,0,0,0,0,0,0,0,-0.125111,-10.0623,-0.532163,21.416,1.32234,1.31491,0.110056,-0.136724,-0.961559,-0.0504382,2.88943,0.604228,-0.352554,0.0721205
5661551,0,-1.57063,-0.522921,-1.69048e-05,-2.09648,-0.000713193,1.5713,0.785181,-1.5708,-0.523598,-2.40999e-07,-2.0944,-9.94096e-07,1.5708,0.785397,0.00078962,-0.0001503,8.83064e-07,0.000886296,-0.000308434,-2.40481e-05,0.00139481,0,0,0,0,0,0,0,-0.152882,-10.0623,-0.532163,21.3922,1.32784,1.31491,0.0587866,-0.137397,-0.95884,-0.0518328,2.88819,0.604148,-0.352753,0.0721809
5661552,0,-1.57063,-0.52292,-1.48269e-05,-2.09648,-0.000712583,1.57131,0.785178,-1.5708,-0.523598,-2.40999e-07,-2.0944,-9.94096e-07,1.5708,0.785397,-0.000123201,0.000549414,5.8871e-07,-0.00117237,-2.17188e-06,0.000221327,-1.95652e-05,0,0,0,0,0,0,0,-0.125111,-10.0901,-0.532163,21.4676,1.32234,1.3085,0.0844213,-0.138042,-0.956788,-0.0531314,2.88701,0.604068,-0.35297,0.0723293
5661553,0,-1.57063,-0.522917,-1.21854e-05,-2.09648,-0.000711362,1.5713,0.785179,-1.5708,-0.523598,-2.40999e-07,-2.0944,-9.94096e-07,1.5708,0.785397,0.00056748,0.000366276,0.000650006,-0.00133839,0.000405453,-8.98077e-05,0.000224315,0,0,0,0,0,0,0,-0.152882,-10.0901,-0.559934,21.4914,1.31136,1.31491,0.0780126,-0.138685,-0.957431,-0.0544463,2.88765,0.604037,-0.353018,0.072528
5661554,0,-1.57063,-0.522919,-1.60339e-05,-2.09648,-0.000711972,1.57131,0.785173,-1.5708,-0.523598,-2.40999e-07,-2.0944,-9.94096e-07,1.5708,0.785397,0.00037832,-0.00040543,-0.000216276,0.000870975,6.68516e-05,-5.98718e-05,-0.00174933,0,0,0,0,0,0,0,-0.152882,-10.0623,-0.532163,21.416,1.31685,1.31491,0.129282,-0.139483,-0.959227,-0.055988,2.88922,0.604028,-0.352978,0.0727483
5661555,0,-1.57063,-0.522921,-1.30478e-05,-2.09648,-0.000711972,1.57131,0.785178,-1.5708,-0.523598,-2.40999e-07,-2.0944,-9.94096e-07,1.5708,0.785397,0.000252213,-0.000270287,0.00106224,-0.000625776,4.45677e-05,-3.99145e-05,0.00168209,0,0,0,0,0,0,0,-0.152882,-10.0623,-0.583737,21.4676,1.31685,1.31491,0.0523779,-0.140419,-0.959436,-0.0577128,2.88985,0.60399,-0.353031,0.072996
5661556,0,-1.57063,-0.522919,-1.47477e-05,-2.09648,-0.000713193,1.5713,0.785175,-1.5708,-0.523598,-2.40999e-07,-2.0944,-9.94096e-07,1.5708,0.785397,-0.000481472,0.000469423,-0.000498265,0.000139628,-0.000377189,-0.000263969,-0.00054012,0,0,0,0,0,0,0,-0.125111,-10.0901,-0.532163,21.4438,1.32784,1.32131,0.0972387,-0.141136,-0.958921,-0.0591635,2.89004,0.603948,-0.353128,0.07328
5661557,0,-1.57063,-0.522919,-1.42895e-05,-2.09648,-0.000712583,1.5713,0.78518,-1.5708,-0.523598,-2.40999e-07,-2.0944,-9.94096e-07,1.5708,0.785397,-0.000320981,0.000312949,0.000317437,9.30853e-05,-4.8009e-05,-0.000175979,0.00204742,0,0,0,0,0,0,0,-0.125111,-10.0901,-0.559934,21.4438,1.32234,1.32131,0.0322363,-0.141055,-0.959141,-0.0595161,2.8905,0.603945,-0.353209,0.0735769
5661558,0,-1.57063,-0.522919,-1.67353e-05,-2.09648,-0.000711362,1.57131,0.785178,-1.5708,-0.523598,-2.40999e-07,-2.0944,-9.94096e-07,1.5708,0.785397,0.000435627,-0.000440982,-0.000437989,0.000711671,0.000374895,0.000357398,-9.31169e-05,0,0,0,0,0,0,0,-0.152882,-10.0623,-0.532163,21.416,1.31136,1.3085,0.071604,-0.140422,-0.959067,-0.0590656,2.89056,0.603961,-0.353329,0.0738498
5661559,0,-1.57063,-0.522919,-1.69009e-05,-2.09648,-0.000711972,1.5713,0.78518,-1.5708,-0.523598,-2.40999e-07,-2.0944,-9.94096e-07,1.5708,0.785397,0.00084723,0.000355626,-0.000291993,-0.000731979,4.64795e-05,-0.000236452,0.00041264,0,0,0,0,0,0,0,-0.176685,-10.0901,-0.532163,21.4676,1.31685,1.32131,0.0587866,-0.139865,-0.958234,-0.0585861,2.89019,0.603968,-0.353474,0.0740641
5661560,0,-1.57064,-0.522919,-1.86266e-05,-2.09648,-0.000711362,1.5713,0.785178,-1.5708,-0.523598,-2.40999e-07,-2.0944,-9.94096e-07,1.5708,0.785397,-0.00119842,0.000237084,-0.000751474,0.00071844,0.000234437,-0.000394994,-0.000674342,0,0,0,0,0,0,0,-0.101307,-10.0901,-0.508359,21.416,1.31136,1.32772,0.0844213,-0.139045,-0.957862,-0.0575917,2.89016,0.603992,-0.353569,0.0742045
5661561,0,-1.57063,-0.522917,-1.8645e-05,-2.09648,-0.000713905,1.57131,0.785177,-1.5708,-0.523598,-2.40999e-07,-2.0944,-9.94096e-07,1.5708,0.785397,0.00040748,0.000158056,-0.000500982,0.00103577,-0.000691419,0.000448748,-0.000686921,0,0,0,0,0,0,0,-0.152882,-10.0901,-0.508359,21.3922,1.33425,1.3085,0.09083,-0.137523,-0.957578,-0.0555452,2.88992,0.604038,-0.353679,0.0742816
5661562,0,-1.57063,-0.522919,-1.8191e-05,-2.09648,-0.000710751,1.57131,0.785183,-1.5708,-0.523598,-2.40999e-07,-2.0944,-9.94096e-07,1.5708,0.785397,0.000828466,0.000105371,-0.0008908,-0.000515911,0.000590215,-0.000175553,0.00147483,0,0,0,0,0,0,0,-0.176685,-10.0901,-0.484555,21.4438,1.30586,1.32131,0.038645,-0.135984,-0.956923,-0.0533232,2.88926,0.604073,-0.353818,0.0743275
5661563,0,-1.57064,-0.522915,-1.4142e-05,-2.09648,-0.000712583,1.57131,0.785174,-1.5708,-0.523598,-2.40999e-07,-2.0944,-9.94096e-07,1.5708,0.785397,-0.00121093,0.000627059,0.000519757,-0.000343941,-0.000216875,-0.000117035,-0.000949558,0,0,0,0,0,0,0,-0.101307,-10.1139,-0.532163,21.4438,1.32234,1.32131,0.09083,-0.134911,-0.957202,-0.0516492,2.88939,0.604106,-0.353856,0.0743583
5661564,0,-1.57063,-0.522921,-1.93774e-05,-2.09648,-0.000713193,1.57131,0.785181,-1.5708,-0.523598,-2.40999e-07,-2.0944,-9.94096e-07,1.5708,0.785397,0.000399141,-0.000788386,-0.000767119,0.00042032,-0.000348034,-7.80235e-05,0.00102847,0,0,0,0,0,0,0,-0.152882,-10.0623,-0.484555,21.416,1.32784,1.32131,0.0459692,-0.134043,-0.957822,-0.0503056,2.88999,0.604142,-0.353819,0.0743621
5661565,0,-1.57063,-0.522923,-1.30487e-05,-2.09648,-0.000711972,1.57131,0.785175,-1.5708,-0.523598,-2.40999e-07,-2.0944,-9.94096e-07,1.5708,0.785397,-0.00038352,-0.0010824,0.00180864,0.000280213,0.000174878,0.000185343,-0.00168794,0,0,0,0,0,0,0,-0.125111,-10.0385,-0.583737,21.416,1.31685,1.31491,0.110056,-0.133842,-0.956115,-0.0499773,2.88946,0.604133,-0.353854,0.074338
5661566,0,-1.57063,-0.522923,-1.4748e-05,-2.09648,-0.000711972,1.57131,0.785179,-1.5708,-0.523598,-2.40999e-07,-2.0944,-9.94096e-07,1.5708,0.785397,-0.00025568,-0.000721602,-6.67897e-07,0.000186809,0.000116586,0.000360921,0.00029886,0,0,0,0,0,0,0,-0.125111,-10.0385,-0.532163,21.416,1.31685,1.3085,0.071604,-0.134654,-0.951822,-0.0512295,2.88767,0.604065,-0.353976,0.0743003
5661567,0,-1.57063,-0.522919,-1.62385e-05,-2.09648,-0.000712583,1.5713,0.785177,-1.5708,-0.523598,-2.40999e-07,-2.0944,-9.94096e-07,1.5708,0.785397,0.000479161,0.000725358,-4.45264e-07,0.000681351,-0.000125727,3.25515e-06,-0.000512837,0,0,0,0,0,0,0,-0.152882,-10.0901,-0.532163,21.3922,1.32234,1.31491,0.09083,-0.135706,-0.947715,-0.0528643,2.88583,0.603988,-0.354108,0.0742747
5661568,0,-1.57064,-0.522917,-1.67353e-05,-2.09648,-0.000712583,1.57131,0.785181,-1.5708,-0.523598,-2.40999e-07,-2.0944,-9.94096e-07,1.5708,0.785397,-0.000886985,0.000483572,-2.96843e-07,0.000454234,-8.38178e-05,-0.000235189,0.000844904,0,0,0,0,0,0,0,-0.101307,-10.0901,-0.532163,21.3922,1.32234,1.32131,0.0587866,-0.136331,-0.946049,-0.0538282,2.88485,0.603943,-0.354195,0.0742766
5661569,0,-1.57063,-0.522917,-1.47704e-05,-2.09648,-0.000711972,1.57131,0.785179,-1.5708,-0.523598,-2.40999e-07,-2.0944,-9.94096e-07,1.5708,0.785397,-3.45117e-05,0.000322381,-1.97895e-07,-0.000253989,0.000147572,8.05664e-05,8.85512e-05,0,0,0,0,0,0,0,-0.125111,-10.0901,-0.532163,21.416,1.31685,1.31491,0.071604,-0.136403,-0.94668,-0.0540379,2.88488,0.603942,-0.354207,0.0742988
5661570,0,-1.57064,-0.522915,-1.41154e-05,-2.09648,-0.000712583,1.57131,0.785176,-1.5708,-0.523598,-2.40999e-07,-2.0944,-9.94096e-07,1.5708,0.785397,-2.30078e-05,0.000771733,-1.3193e-07,-0.000169326,-0.000105069,-0.000183648,-0.000890402,0,0,0,0,0,0,0,-0.125111,-10.1139,-0.532163,21.416,1.32234,1.32131,0.0972387,-0.136226,-0.948958,-0.0539378,2.88589,0.603976,-0.354118,0.0743245
5661571,0,-1.57064,-0.522918,-1.76981e-05,-2.09648,-0.000711972,1.5713,0.785181,-1.5708,-0.523598,-2.40999e-07,-2.0944,-9.94096e-07,1.5708,0.785397,-1.53385e-05,-4.23234e-05,-0.0005569,0.000443928,0.000133404,0.000352286,0.000830553,0,0,0,0,0,0,0,-0.125111,-10.0901,-0.508359,21.3922,1.31685,1.3085,0.0587866,-0.135947,-0.951917,-0.0536803,2.8873,0.604025,-0.353984,0.0743514
5661572,0,-1.57063,-0.522917,-1.25857e-05,-2.09648,-0.000711972,1.57131,0.785173,-1.5708,-0.523598,-2.40999e-07,-2.0944,-9.94096e-07,1.5708,0.785397,0.000639388,0.000528596,0.000835159,0.000295952,8.89363e-05,-0.000239861,-0.000870452,0,0,0,0,0,0,0,-0.152882,-10.1139,-0.559934,21.3922,1.31685,1.32131,0.0972387,-0.135852,-0.954226,-0.0536708,2.8882,0.604054,-0.353893,0.074388
5661573,0,-1.57063,-0.522919,-1.57072e-05,-2.09648,-0.000712583,1.5713,0.785177,-1.5708,-0.523598,-2.40999e-07,-2.0944,-9.94096e-07,1.5708,0.785397,-0.000223355,-0.000854028,-0.000649653,-0.000359511,-0.00014416,7.74519e-05,0.00108121,0,0,0,0,0,0,0,-0.125111,-10.0623,-0.508359,21.416,1.32234,1.31491,0.0523779,-0.136175,-0.955354,-0.0542703,2.88852,0.604051,-0.35384,0.0744345
5661574,0,-1.57063,-0.522917,-1.38709e-05,-2.09648,-0.000712583,1.5713,0.785176,-1.5708,-0.523598,-2.40999e-07,-2.0944,-9.94096e-07,1.5708,0.785397,0.000500711,0.000637074,0.00012371,-0.000239674,-9.61065e-05,0.000288994,-0.000465987,0,0,0,0,0,0,0,-0.152882,-10.1139,-0.532163,21.416,1.32234,1.3085,0.0844213,-0.136406,-0.955677,-0.0547194,2.88865,0.604051,-0.35378,0.0744839
5661575,0,-1.57063,-0.522915,-1.38156e-05,-2.09648,-0.000711972,1.5713,0.785182,-1.5708,-0.523598,-2.40999e-07,-2.0944,-9.94096e-07,1.5708,0.785397,0.000890619,0.000424716,8.24733e-05,-0.000159783,0.00013938,-0.000282056,0.0011135,0,0,0,0,0,0,0,-0.176685,-10.1139,-0.532163,21.416,1.31685,1.32131,0.0459692,-0.136796,-0.956679,-0.05532,2.88921,0.604053,-0.353684,0.0745289
5661576,0,-1.57063,-0.522917,-1.54676e-05,-2.09648,-0.000711972,1.57131,0.785176,-1.5708,-0.523598,-2.40999e-07,-2.0944,-9.94096e-07,1.5708,0.785397,-0.00061268,0.000283144,-0.00050183,-0.000106522,9.29197e-05,0.000286681,-0.00115654,0,0,0,0,0,0,0,-0.125111,-10.1139,-0.508359,21.416,1.31685,1.3085,0.0972387,-0.137303,-0.958601,-0.0560004,2.89014,0.604059,-0.353568,0.074556
5661577,0,-1.57063,-0.522919,-1.59215e-05,-2.09648,-0.000711362,1.57131,0.785181,-1.5708,-0.523598,-2.40999e-07,-2.0944,-9.94096e-07,1.5708,0.785397,0.000241161,-0.000368049,0.000222259,-0.000720628,0.000265397,-4.62384e-05,0.000890485,0,0,0,0,0,0,0,-0.152882,-10.0901,-0.532163,21.4438,1.31136,1.31491,0.0523779,-0.137341,-0.960216,-0.0559809,2.89095,0.604088,-0.353463,0.0745566
5661578,0,-1.57063,-0.522921,-1.66297e-05,-2.09648,-0.000712583,1.57131,0.785179,-1.5708,-0.523598,-2.40999e-07,-2.0944,-9.94096e-07,1.5708,0.785397,0.000160774,-0.00089498,0.000148173,0.000726007,-0.00022997,-3.08256e-05,-0.000355779,0,0,0,0,0,0,0,-0.152882,-10.0623,-0.532163,21.3922,1.32234,1.31491,0.0780126,-0.137389,-0.959998,-0.0559698,2.89092,0.604097,-0.353428,0.0745394
5661579,0,-1.57063,-0.522918,-1.68657e-05,-2.09648,-0.000711362,1.57131,0.785178,-1.5708,-0.523598,-2.40999e-07,-2.0944,-9.94096e-07,1.5708,0.785397,-0.000542431,0.000609772,9.87817e-05,-0.000722421,0.000253588,-2.05504e-05,-0.000474545,0,0,0,0,0,0,0,-0.125111,-10.1139,-0.532163,21.4438,1.31136,1.31491,0.0844213,-0.137594,-0.958374,-0.0561883,2.8901,0.604075,-0.353471,0.0745068
5661580,0,-1.57064,-0.522914,-1.48139e-05,-2.09648,-0.000712583,1.57131,0.785179,-1.5708,-0.523598,-2.40999e-07,-2.0944,-9.94096e-07,1.5708,0.785397,-0.000918433,0.000963327,6.58545e-05,0.000168,-0.000237842,0.000223659,0.000158355,0,0,0,0,0,0,0,-0.101307,-10.1377,-0.532163,21.416,1.32234,1.3085,0.071604,-0.137382,-0.958407,-0.0558845,2.88998,0.604078,-0.353479,0.0744664
5661581,0,-1.57064,-0.522915,-1.58004e-05,-2.09648,-0.000711972,1.57131,0.785179,-1.5708,-0.523598,-2.40999e-07,-2.0944,-9.94096e-07,1.5708,0.785397,-0.000612289,0.000642218,-0.000512909,0.000112,4.48889e-05,-8.82532e-05,-0.000131789,0,0,0,0,0,0,0,-0.101307,-10.1377,-0.508359,21.416,1.31685,1.31491,0.0780126,-0.136463,-0.960724,-0.0546633,2.89075,0.604121,-0.353444,0.0744319
5661582,0,-1.57063,-0.522917,-1.77029e-05,-2.09648,-0.000712583,1.5713,0.785183,-1.5708,-0.523598,-2.40999e-07,-2.0944,-9.94096e-07,1.5708,0.785397,0.00014862,-0.000685479,-0.000341939,0.000631479,-0.000173525,-0.000296194,0.0013702,0,0,0,0,0,0,0,-0.125111,-10.0901,-0.508359,21.3922,1.32234,1.32131,0.038645,-0.135124,-0.962579,-0.0528482,2.89103,0.604162,-0.353473,0.0744027
5661583,0,-1.57063,-0.522915,-1.66666e-05,-2.09648,-0.000712583,1.57131,0.785173,-1.5708,-0.523598,-2.40999e-07,-2.0944,-9.94096e-07,1.5708,0.785397,0.00195512,9.98262e-05,0.000328852,0.000420986,-0.000115683,0.000277255,-0.00149403,0,0,0,0,0,0,0,-0.204456,-10.1139,-0.532163,21.3922,1.32234,1.3085,0.103647,-0.134577,-0.962183,-0.0520429,2.89003,0.604134,-0.353611,0.0743681
5661584,0,-1.57064,-0.522917,-1.80884e-05,-2.09648,-0.000713193,1.57131,0.785178,-1.5708,-0.523598,-2.40999e-07,-2.0944,-9.94096e-07,1.5708,0.785397,-0.00110944,6.65508e-05,-0.000894389,0.000280657,-0.000280573,-5.25223e-05,0.00114021,0,0,0,0,0,0,0,-0.101307,-10.1139,-0.484555,21.3922,1.32784,1.31491,0.0459692,-0.134892,-0.960758,-0.0523231,2.88842,0.604059,-0.353799,0.0743199
5661585,0,-1.57063,-0.522916,-1.2159e-05,-2.09648,-0.000713193,1.57131,0.785171,-1.5708,-0.523598,-2.40999e-07,-2.0944,-9.94096e-07,1.5708,0.785397,-0.000182814,0.000601179,0.00116698,0.000187105,-0.000187048,0.000202344,-0.00137609,0,0,0,0,0,0,0,-0.125111,-10.1377,-0.559934,21.3922,1.32784,1.3085,0.103647,-0.134983,-0.960045,-0.0523308,2.88714,0.604019,-0.35396,0.0742629
5661586,0,-1.57063,-0.522919,-1.38946e-05,-2.09648,-0.000711972,1.57131,0.785179,-1.5708,-0.523598,-2.40999e-07,-2.0944,-9.94096e-07,1.5708,0.785397,-0.000121876,-0.000712838,0.000128372,0.000124736,0.000282202,0.000134896,0.000744119,0,0,0,0,0,0,0,-0.125111,-10.0901,-0.532163,21.3922,1.31685,1.3085,0.0587866,-0.135201,-0.959724,-0.0527006,2.88611,0.604002,-0.354094,0.0742077
5661587,0,-1.57063,-0.522917,-1.76244e-05,-2.09648,-0.000711362,1.57131,0.78518,-1.5708,-0.523598,-2.40999e-07,-2.0944,-9.94096e-07,1.5708,0.785397,0.000568363,-0.000475225,-0.000471231,-0.00112327,0.000391585,0.000361198,0.00049608,0,0,0,0,0,0,0,-0.152882,-10.0901,-0.508359,21.4438,1.31136,1.30117,0.0587866,-0.135701,-0.958747,-0.0535006,2.88512,0.603993,-0.354204,0.0741618
5661588,0,-1.57063,-0.522915,-1.66405e-05,-2.09648,-0.000711972,1.5713,0.785178,-1.5708,-0.523598,-2.40999e-07,-2.0944,-9.94096e-07,1.5708,0.785397,-0.000270705,0.000796807,0.000242658,-9.92315e-05,5.76063e-05,-0.000742545,-0.000618716,0,0,0,0,0,0,0,-0.125111,-10.1377,-0.532163,21.416,1.31685,1.32772,0.0844213,-0.136031,-0.958347,-0.0539764,2.88487,0.604013,-0.354235,0.0741159
5661589,0,-1.57064,-0.522918,-1.68693e-05,-2.09648,-0.000710751,1.57131,0.785175,-1.5708,-0.523598,-2.40999e-07,-2.0944,-9.94096e-07,1.5708,0.785397,-0.000737282,-2.56072e-05,0.000161772,-6.61544e-05,0.000445305,-2.03124e-05,-0.000175118,0,0,0,0,0,0,0,-0.101307,-10.1139,-0.532163,21.416,1.30586,1.31491,0.0780126,-0.136108,-0.959554,-0.054137,2.88544,0.604051,-0.354204,0.0740607
5661590,0,-1.57063,-0.522923,-2.01048e-05,-2.09648,-0.000712583,1.57131,0.785172,-1.5708,-0.523598,-2.40999e-07,-2.0944,-9.94096e-07,1.5708,0.785397,6.52906e-05,-0.00178031,-0.00165539,0.000512709,-0.000313481,-0.00048826,-0.000828822,0,0,0,0,0,0,0,-0.125111,-10.0385,-0.456784,21.3922,1.32234,1.32772,0.0972387,-0.135457,-0.959493,-0.0532843,2.88519,0.604089,-0.354243,0.0740022
5661591,0,-1.57063,-0.522916,-1.79313e-05,-2.09648,-0.000711972,1.57131,0.785182,-1.5708,-0.523598,-2.40999e-07,-2.0944,-9.94096e-07,1.5708,0.785397,4.35271e-05,0.000576365,0.000102833,-0.00086462,-5.53707e-06,0.00038657,0.00161759,0,0,0,0,0,0,0,-0.125111,-10.1139,-0.508359,21.4438,1.31685,1.3085,0.038645,-0.13413,-0.957336,-0.0513521,2.8839,0.604119,-0.35435,0.0739589
5661592,0,-1.57063,-0.522917,-1.62827e-05,-2.09648,-0.000711972,1.57131,0.785173,-1.5708,-0.523598,-2.40999e-07,-2.0944,-9.94096e-07,1.5708,0.785397,0.00188506,-0.000172569,6.85551e-05,0.00118682,-3.69138e-06,2.03547e-05,-0.00109175,0,0,0,0,0,0,0,-0.204456,-10.0901,-0.508359,21.3684,1.31685,1.31491,0.0972387,-0.133549,-0.955815,-0.050351,2.88284,0.604099,-0.354441,0.0739413
5661593,0,-1.57063,-0.522919,-1.74036e-05,-2.09648,-0.000712583,1.5713,0.785179,-1.5708,-0.523598,-2.40999e-07,-2.0944,-9.94096e-07,1.5708,0.785397,5.02794e-05,-0.000115046,-0.000511109,-0.000322408,-0.000205911,1.35698e-05,0.000696324,0,0,0,0,0,0,0,-0.152882,-10.0901,-0.484555,21.416,1.32234,1.31491,0.0587866,-0.134167,-0.955033,-0.0508814,2.88186,0.604013,-0.354544,0.073934
5661594,0,-1.57063,-0.522917,-1.93509e-05,-2.09648,-0.000711362,1.57131,0.78518,-1.5708,-0.523598,-2.40999e-07,-2.0944,-9.94096e-07,1.5708,0.785397,0.000590332,-7.66972e-05,-0.000340739,-0.00142136,0.000269627,9.04654e-06,0.000226857,0,0,0,0,0,0,0,-0.176685,-10.0901,-0.484555,21.4676,1.31136,1.31491,0.0651953,-0.134885,-0.954971,-0.0513734,2.88148,0.603934,-0.354582,0.0739277
5661595,0,-1.57063,-0.522919,-1.25798e-05,-2.09648,-0.000711972,1.57131,0.785178,-1.5708,-0.523598,-2.40999e-07,-2.0944,-9.94096e-07,1.5708,0.785397,-0.000163258,-5.11314e-05,0.00153608,-0.000390764,-2.36994e-05,-0.000468687,-0.00032348,0,0,0,0,0,0,0,-0.152882,-10.0901,-0.559934,21.4438,1.31685,1.32772,0.0780126,-0.135783,-0.956298,-0.052084,2.88242,0.603881,-0.354476,0.0739177
5661596,0,-1.57063,-0.522918,-1.57053e-05,-2.09648,-0.000711362,1.5713,0.785173,-1.5708,-0.523598,-2.40999e-07,-2.0944,-9.94096e-07,1.5708,0.785397,-0.000758452,0.000522724,-0.000182374,-0.000260509,0.000187651,0.00016226,-0.00116509,0,0,0,0,0,0,0,-0.125111,-10.1139,-0.508359,21.4438,1.31136,1.31491,0.103647,-0.137015,-0.95844,-0.0533789,2.88393,0.603825,-0.354316,0.0738978
5661597,0,-1.57063,-0.522921,-1.38702e-05,-2.09648,-0.000710751,1.5713,0.78518,-1.5708,-0.523598,-2.40999e-07,-2.0944,-9.94096e-07,1.5708,0.785397,0.000143979,-0.000857943,0.00043523,-0.000730485,0.000328551,-0.000366545,0.000884787,0,0,0,0,0,0,0,-0.152882,-10.0623,-0.532163,21.4676,1.30586,1.32772,0.0587866,-0.137868,-0.960478,-0.0541918,2.88535,0.603779,-0.354166,0.0738822
5661598,0,-1.57064,-0.522916,-1.18665e-05,-2.09648,-0.000712583,1.57131,0.785183,-1.5708,-0.523598,-2.40999e-07,-2.0944,-9.94096e-07,1.5708,0.785397,-0.00111044,0.00119128,0.000939767,0.000719436,-0.000391317,0.000467714,0.0015732,0,0,0,0,0,0,0,-0.101307,-10.1377,-0.559934,21.416,1.32234,1.3085,0.0322363,-0.138441,-0.961998,-0.0546666,2.88639,0.60372,-0.354054,0.0738878
5661600,0,-1.57064,-0.522919,-1.08819e-05,-2.09648,-0.000711362,1.5713,0.785179,-1.5708,-0.523598,-2.40999e-07,-2.0944,-9.94096e-07,1.5708,0.785397,-0.000524463,-0.000862574,0.00137663,-0.00107228,0.000165165,-0.000425084,4.3638e-05,0,0,0,0,0,0,0,-0.125111,-10.0623,-0.583737,21.4676,1.31136,1.32772,0.071604,-0.139546,-0.962888,-0.0556401,2.886,0.603503,-0.354131,0.0738534
5661601,0,-1.57063,-0.522922,-1.42074e-05,-2.09648,-0.000713193,1.57131,0.785175,-1.5708,-0.523598,-2.40999e-07,-2.0944,-9.94096e-07,1.5708,0.785397,0.000856784,-0.00113186,0.00036094,-0.000714854,-0.000500241,-4.60306e-05,-0.00139506,0,0,0,0,0,0,0,-0.176685,-10.0385,-0.559934,21.4676,1.32784,1.32131,0.110056,-0.140682,-0.960884,-0.057032,2.88519,0.603358,-0.354172,0.0738071
5661602,0,-1.57063,-0.522918,-1.47591e-05,-2.09648,-0.000711972,1.57131,0.785176,-1.5708,-0.523598,-2.40999e-07,-2.0944,-9.94096e-07,1.5708,0.785397,0.000571189,0.00100866,0.000240627,8.02428e-05,7.34068e-05,-3.06871e-05,-0.000692682,0,0,0,0,0,0,0,-0.176685,-10.1139,-0.559934,21.4438,1.31685,1.32131,0.103647,-0.142193,-0.958997,-0.0589892,2.88495,0.603215,-0.354135,0.0737837
5661603,0,-1.57063,-0.522919,-1.68918e-05,-2.09648,-0.000712583,1.57131,0.785181,-1.5708,-0.523598,-2.40999e-07,-2.0944,-9.94096e-07,1.5708,0.785397,-0.000176019,0.000115631,-0.000489196,0.000703109,-0.000154513,0.000216901,0.00242043,0,0,0,0,0,0,0,-0.152882,-10.0901,-0.532163,21.416,1.32234,1.31491,0.0258276,-0.143278,-0.958792,-0.0602489,2.8852,0.603105,-0.354081,0.0738133
5661604,0,-1.57063,-0.522916,-1.50042e-05,-2.09648,-0.000712583,1.57131,0.785176,-1.5708,-0.523598,-2.40999e-07,-2.0944,-9.94096e-07,1.5708,0.785397,-0.00076696,0.00119071,0.000323483,0.000468739,-0.000103008,-9.27584e-05,-0.000793879,0,0,0,0,0,0,0,-0.125111,-10.1377,-0.559934,21.416,1.32234,1.32131,0.09083,-0.143322,-0.960032,-0.0600351,2.8856,0.603052,-0.354054,0.0738837
5661605,0,-1.57063,-0.522919,-1.8644e-05,-2.09648,-0.000711972,1.5713,0.78518,-1.5708,-0.523598,-2.40999e-07,-2.0944,-9.94096e-07,1.5708,0.785397,-0.000511307,-0.000319817,-0.00099077,0.000869305,0.000134778,-0.000299198,0.000420183,0,0,0,0,0,0,0,-0.125111,-10.0901,-0.508359,21.3922,1.31685,1.32772,0.0651953,-0.142309,-0.961665,-0.0584014,2.88579,0.603059,-0.354059,0.073948
5661606,0,-1.57063,-0.522921,-1.86508e-05,-2.09648,-0.000711972,1.57131,0.785178,-1.5708,-0.523598,-2.40999e-07,-2.0944,-9.94096e-07,1.5708,0.785397,0.000865555,-0.000862825,-0.000660514,0.000579537,8.98522e-05,3.78937e-05,-0.000194596,0,0,0,0,0,0,0,-0.176685,-10.0623,-0.508359,21.3922,1.31685,1.32131,0.0780126,-0.140679,-0.961487,-0.055846,2.88496,0.603089,-0.354129,0.073991
5661607,0,-1.57063,-0.52292,-1.48521e-05,-2.09648,-0.000711362,1.57131,0.785179,-1.5708,-0.523598,-2.40999e-07,-2.0944,-9.94096e-07,1.5708,0.785397,0.000577037,7.43973e-05,0.00011647,-0.000170454,0.000263352,0.000262621,-0.000129731,0,0,0,0,0,0,0,-0.176685,-10.0901,-0.532163,21.416,1.31136,1.31491,0.0780126,-0.139501,-0.95935,-0.0537935,2.88334,0.603096,-0.354224,0.0740224
5661608,0,-1.57063,-0.522921,-1.62732e-05,-2.09648,-0.000713193,1.5713,0.785176,-1.5708,-0.523598,-2.40999e-07,-2.0944,-9.94096e-07,1.5708,0.785397,0.000384691,-0.000600016,7.76464e-05,-0.00076325,-0.000434784,0.000175081,0.000150872,0,0,0,0,0,0,0,-0.176685,-10.0623,-0.532163,21.4438,1.32784,1.31491,0.071604,-0.139347,-0.957494,-0.0531422,2.88236,0.603078,-0.354224,0.0740526
5661609,0,-1.57063,-0.522921,-1.46164e-05,-2.09648,-0.000711362,1.5713,0.785178,-1.5708,-0.523598,-2.40999e-07,-2.0944,-9.94096e-07,1.5708,0.785397,-0.000300351,-0.000400011,5.17642e-05,0.000140781,0.000320496,-0.000357997,0.000100581,0,0,0,0,0,0,0,-0.152882,-10.0623,-0.532163,21.416,1.31136,1.32772,0.071604,-0.139698,-0.956091,-0.0532314,2.88211,0.60306,-0.354132,0.0740839
5661610,0,-1.57063,-0.522918,-1.61946e-05,-2.09648,-0.000713193,1.57131,0.785181,-1.5708,-0.523598,-2.40999e-07,-2.0944,-9.94096e-07,1.5708,0.785397,-0.000200234,0.000939752,3.45095e-05,0.000650666,-0.000396688,0.000473412,0.000779131,0,0,0,0,0,0,0,-0.152882,-10.1139,-0.532163,21.3922,1.32784,1.3085,0.0523779,-0.139977,-0.955272,-0.0532553,2.88206,0.603056,-0.35403,0.0741093
5661611,0,-1.57063,-0.522917,-1.67207e-05,-2.09648,-0.000712583,1.57131,0.785172,-1.5708,-0.523598,-2.40999e-07,-2.0944,-9.94096e-07,1.5708,0.785397,-0.000783103,6.96895e-05,2.30063e-05,-0.00132946,-6.10079e-05,-0.000396469,-0.00161681,0,0,0,0,0,0,0,-0.125111,-10.0901,-0.532163,21.4676,1.32234,1.32772,0.110056,-0.139947,-0.956351,-0.0528984,2.8828,0.603087,-0.353882,0.0741185
5661612,0,-1.57063,-0.522921,-1.49472e-05,-2.09648,-0.000713193,1.57131,0.78518,-1.5708,-0.523598,-2.40999e-07,-2.0944,-9.94096e-07,1.5708,0.785397,-0.000522069,-0.000603154,0.000664951,0.000876931,-0.000244122,0.000447764,0.000820998,0,0,0,0,0,0,0,-0.125111,-10.0623,-0.559934,21.3922,1.32784,1.3085,0.0587866,-0.139749,-0.958003,-0.0524327,2.88398,0.603152,-0.353692,0.0741142
5661613,0,-1.57063,-0.522916,-1.28751e-05,-2.09648,-0.000711972,1.57131,0.785175,-1.5708,-0.523598,-2.40999e-07,-2.0944,-9.94096e-07,1.5708,0.785397,0.000301568,0.00136114,0.000443301,0.00058462,0.000244153,6.11506e-05,-0.00111418,0,0,0,0,0,0,0,-0.152882,-10.1377,-0.559934,21.3922,1.31685,1.31491,0.103647,-0.139932,-0.958946,-0.0526472,2.88453,0.603197,-0.353578,0.0741184
5661614,0,-1.57063,-0.522919,-1.58037e-05,-2.09648,-0.000711972,1.57131,0.785181,-1.5708,-0.523598,-2.40999e-07,-2.0944,-9.94096e-07,1.5708,0.785397,0.000201045,-0.000206201,-0.000910892,-0.000167065,0.000162768,-0.000433951,0.000918726,0,0,0,0,0,0,0,-0.152882,-10.0901,-0.508359,21.416,1.31685,1.32772,0.0587866,-0.14039,-0.960429,-0.0532337,2.88494,0.603231,-0.353507,0.0741424
5661615,0,-1.57063,-0.522923,-1.40847e-05,-2.09648,-0.000712583,1.57131,0.785181,-1.5708,-0.523598,-2.40999e-07,-2.0944,-9.94096e-07,1.5708,0.785397,-0.000515584,-0.00134389,0.000599165,-0.000111377,-9.49382e-05,0.000185417,0.000612484,0,0,0,0,0,0,0,-0.125111,-10.0385,-0.559934,21.416,1.32234,1.31491,0.0587866,-0.140574,-0.96098,-0.0533805,2.88507,0.603277,-0.353443,0.0741821
5661616,0,-1.57063,-0.522919,-1.6667e-05,-2.09648,-0.000711972,1.57131,0.785173,-1.5708,-0.523598,-2.40999e-07,-2.0944,-9.94096e-07,1.5708,0.785397,-0.000343722,0.000310497,-0.000250171,-7.42511e-05,0.000140158,0.000123612,-0.00101583,0,0,0,0,0,0,0,-0.125111,-10.0901,-0.532163,21.416,1.31685,1.31491,0.0972387,-0.140524,-0.959511,-0.0532991,2.8845,0.603326,-0.353411,0.0742183
5661617,0,-1.57063,-0.522918,-1.85486e-05,-2.09648,-0.000711362,1.57131,0.78518,-1.5708,-0.523598,-2.40999e-07,-2.0944,-9.94096e-07,1.5708,0.785397,0.000420466,0.00076381,-0.000723593,0.000507311,0.000296889,0.000591034,0.000746933,0,0,0,0,0,0,0,-0.152882,-10.1139,-0.508359,21.3922,1.31136,1.30117,0.0587866,-0.140233,-0.958727,-0.0529091,2.88414,0.603387,-0.353376,0.0742418
5661618,0,-1.57063,-0.522918,-1.8619e-05,-2.09648,-0.000711972,1.57131,0.785174,-1.5708,-0.523598,-2.40999e-07,-2.0944,-9.94096e-07,1.5708,0.785397,-0.000369304,0.000509207,-0.000482395,-0.00142503,0.00939024,0.000122755,-0.000688839,0,0,0,0,0,0,0,-0.125111,-10.1139,-0.508359,21.4676,1.31685,1.3085,0.09083,-0.139691,-0.960287,-0.0520439,2.88479,0.603437,-0.353275,0.0742566
5661619,0,-1.57063,-0.522918,-1.48415e-05,-2.09648,-0.000712583,1.57131,0.785178,-1.5708,-0.523598,-2.40999e-07,-2.0944,-9.94096e-07,1.5708,0.785397,0.000403412,0.000339471,0.000235215,0.00137003,0.00683969,-0.000155522,0.00120229,0,0,0,0,0,0,0,-0.152882,-10.1139,-0.532163,21.3684,1.32234,1.31491,0.0459692,-0.139423,-0.962961,-0.0514813,2.88594,0.603399,-0.353132,0.0742591
5661620,0,-1.57063,-0.522918,-1.62696e-05,-2.09648,-0.000711972,1.5713,0.785177,-1.5708,-0.523598,-2.40999e-07,-2.0944,-9.94096e-07,1.5708,0.785397,-0.000380673,0.000226314,0.00015681,-0.000200271,0.00535048,-0.000103681,-0.000385271,0,0,0,0,0,0,0,-0.125111,-10.1139,-0.532163,21.416,1.31685,1.31491,0.0780126,-0.139792,-0.964874,-0.051848,2.88639,0.603259,-0.353072,0.0742492
5661621,0,-1.57064,-0.522918,-1.84161e-05,-2.09648,-0.000711362,1.57131,0.785177,-1.5708,-0.523598,-2.40999e-07,-2.0944,-9.94096e-07,1.5708,0.785397,-0.000810594,0.000150876,-0.000452272,-0.000133514,0.00421086,-0.00030648,0.00045523,0,0,0,0,0,0,0,-0.101307,-10.1139,-0.508359,21.416,1.31136,1.32131,0.0587866,-0.140113,-0.966051,-0.0522591,2.8864,0.603118,-0.353067,0.0742207
5661622,0,-1.57063,-0.522918,-1.69044e-05,-2.09648,-0.000710751,1.5713,0.785179,-1.5708,-0.523598,-2.40999e-07,-2.0944,-9.94096e-07,1.5708,0.785397,0.00066603,0.000100584,0.000255297,0.000467803,0.00334101,0.000270398,0.000303487,0,0,0,0,0,0,0,-0.152882,-10.1139,-0.532163,21.3922,1.30586,1.3085,0.0587866,-0.140108,-0.96683,-0.0523021,2.88634,0.603017,-0.353073,0.0741705
5661623,0,-1.57063,-0.522918,-1.86277e-05,-2.09648,-0.000711972,1.57131,0.785171,-1.5708,-0.523598,-2.40999e-07,-2.0944,-9.94096e-07,1.5708,0.785397,-0.000205594,6.7056e-05,-0.000386614,-0.00145137,0.00206818,-0.000294453,-0.00169655,0,0,0,0,0,0,0,-0.125111,-10.1139,-0.508359,21.4676,1.31685,1.32131,0.110056,-0.140274,-0.967418,-0.0526191,2.88641,0.602934,-0.353074,0.0740999
5661624,0,-1.57063,-0.522921,-1.48444e-05,-2.09648,-0.000712583,1.57131,0.785177,-1.5708,-0.523598,-2.40999e-07,-2.0944,-9.94096e-07,1.5708,0.785397,0.000512551,-0.00116172,0.000299069,0.000795658,0.00136114,4.10572e-05,0.0010052,0,0,0,0,0,0,0,-0.152882,-10.0623,-0.532163,21.3922,1.32234,1.31491,0.0523779,-0.140608,-0.967216,-0.0531975,2.88647,0.602865,-0.353065,0.0740225
5661625,0,-1.57063,-0.52292,-1.41401e-05,-2.09648,-0.000710751,1.57131,0.785172,-1.5708,-0.523598,-2.40999e-07,-2.0944,-9.94096e-07,1.5708,0.785397,0.000341701,-0.000124867,0.00019938,-2.63731e-05,0.00165713,-0.000209987,-0.00099138,0,0,0,0,0,0,0,-0.152882,-10.0901,-0.532163,21.416,1.30586,1.32131,0.0972387,-0.141252,-0.964949,-0.0542346,2.88551,0.602778,-0.35315,0.073962
5661626,0,-1.57064,-0.522923,-1.60359e-05,-2.09648,-0.000713905,1.5713,0.785178,-1.5708,-0.523598,-2.40999e-07,-2.0944,-9.94096e-07,1.5708,0.785397,-0.000978625,-0.00128967,0.00013292,-0.00122401,0.00015811,-0.000139992,0.000525875,0,0,0,0,0,0,0,-0.101307,-10.0385,-0.532163,21.4676,1.33425,1.32131,0.0651953,-0.141909,-0.961652,-0.0553579,2.88417,0.6027,-0.353261,0.0739224
5661627,0,-1.57063,-0.522918,-1.83382e-05,-2.09648,-0.000711972,1.5713,0.785177,-1.5708,-0.523598,-2.40999e-07,-2.0944,-9.94096e-07,1.5708,0.785397,-9.56049e-05,0.000903457,-0.000468199,0.000947233,0.000828053,-9.33278e-05,-0.000598853,0,0,0,0,0,0,0,-0.125111,-10.1139,-0.508359,21.3922,1.31685,1.32131,0.09083,-0.141817,-0.959038,-0.0555109,2.88337,0.602686,-0.353317,0.0739026
5661628,0,-1.57063,-0.522918,-1.68784e-05,-2.09648,-0.000711972,1.5713,0.785176,-1.5708,-0.523598,-2.40999e-07,-2.0944,-9.94096e-07,1.5708,0.785397,-6.37366e-05,0.000602305,0.000244679,7.46764e-05,0.000610825,0.00017514,-0.000636594,0,0,0,0,0,0,0,-0.125111,-10.1139,-0.532163,21.416,1.31685,1.31491,0.0972387,-0.141218,-0.958419,-0.0549541,2.88313,0.602717,-0.353357,0.0739067
5661629,0,-1.57063,-0.522921,-1.86191e-05,-2.09648,-0.000711972,1.5713,0.785178,-1.5708,-0.523598,-2.40999e-07,-2.0944,-9.94096e-07,1.5708,0.785397,0.000607123,-0.000804889,-0.000393692,4.97843e-05,0.000451309,-0.000120599,0.00123712,0,0,0,0,0,0,0,-0.152882,-10.0623,-0.508359,21.416,1.31685,1.32131,0.0523779,-0.140769,-0.958942,-0.0545642,2.88312,0.602753,-0.353393,0.073946
5661630,0,-1.57063,-0.52292,-1.86425e-05,-2.09648,-0.000711972,1.57131,0.785175,-1.5708,-0.523598,-2.40999e-07,-2.0944,-9.94096e-07,1.5708,0.785397,-0.000244865,0.000113021,-0.000262462,0.00114681,0.000333942,0.000394319,-0.000836768,0,0,0,0,0,0,0,-0.125111,-10.0901,-0.508359,21.3684,1.31685,1.3085,0.0972387,-0.140424,-0.958362,-0.0542423,2.88246,0.602774,-0.35348,0.0740164
5661631,0,-1.57063,-0.52292,-1.86503e-05,-2.09648,-0.000712583,1.57131,0.785184,-1.5708,-0.523598,-2.40999e-07,-2.0944,-9.94096e-07,1.5708,0.785397,-0.000163244,7.53474e-05,-0.000174974,-0.000349082,4.39795e-05,-0.000211839,0.00208701,0,0,0,0,0,0,0,-0.125111,-10.0901,-0.508359,21.416,1.32234,1.32131,0.0258276,-0.139847,-0.957295,-0.0535469,2.88137,0.602798,-0.353605,0.0740983
5661632,0,-1.57063,-0.522916,-1.69824e-05,-2.09648,-0.000710751,1.5713,0.785176,-1.5708,-0.523598,-2.40999e-07,-2.0944,-9.94096e-07,1.5708,0.785397,0.000540785,0.000607044,0.000440162,0.000880903,0.000658273,9.61331e-05,-0.00149087,0,0,0,0,0,0,0,-0.152882,-10.1139,-0.532163,21.3684,1.30586,1.31491,0.103647,-0.139422,-0.957277,-0.0530711,2.88076,0.602822,-0.353688,0.0741739
5661633,0,-1.57063,-0.522919,-1.86537e-05,-2.09648,-0.000712583,1.57131,0.78518,-1.5708,-0.523598,-2.40999e-07,-2.0944,-9.94096e-07,1.5708,0.785397,0.000360523,-0.000152116,-0.00026337,-0.000526355,-0.000157552,6.40888e-05,0.000430237,0,0,0,0,0,0,0,-0.152882,-10.0901,-0.508359,21.416,1.32234,1.31491,0.0651953,-0.139575,-0.958182,-0.0533753,2.88066,0.602826,-0.353718,0.0742262
5661634,0,-1.57063,-0.522918,-1.50347e-05,-2.09648,-0.000713193,1.57131,0.785179,-1.5708,-0.523598,-2.40999e-07,-2.0944,-9.94096e-07,1.5708,0.785397,0.000797161,0.000455401,0.00103085,-0.000350904,-0.000298022,-0.000194633,-0.000187893,0,0,0,0,0,0,0,-0.176685,-10.1139,-0.559934,21.416,1.32784,1.32131,0.0780126,-0.140356,-0.959716,-0.0545141,2.88116,0.602811,-0.353674,0.0742656
5661635,0,-1.57063,-0.522918,-1.48532e-05,-2.09648,-0.000711972,1.57131,0.785175,-1.5708,-0.523598,-2.40999e-07,-2.0944,-9.94096e-07,1.5708,0.785397,-2.53714e-05,0.000303601,3.76165e-05,-0.000233936,0.000216067,0.000107604,-0.000125262,0,0,0,0,0,0,0,-0.152882,-10.1139,-0.532163,21.416,1.31685,1.31491,0.0780126,-0.141667,-0.962035,-0.0563852,2.88237,0.60279,-0.35355,0.0743037
5661636,0,-1.57063,-0.522916,-1.62735e-05,-2.09648,-0.000711972,1.57131,0.785178,-1.5708,-0.523598,-2.40999e-07,-2.0944,-9.94096e-07,1.5708,0.785397,-1.69143e-05,0.0002024,2.50777e-05,-0.000155957,0.000149931,-0.000165623,0.000153851,0,0,0,0,0,0,0,-0.152882,-10.1139,-0.532163,21.416,1.31685,1.32131,0.071604,-0.142748,-0.964649,-0.0578965,2.88377,0.602794,-0.353401,0.0743355
5661637,0,-1.57063,-0.522921,-1.46165e-05,-2.09648,-0.000712583,1.57131,0.785179,-1.5708,-0.523598,-2.40999e-07,-2.0944,-9.94096e-07,1.5708,0.785397,-1.12762e-05,-0.00107149,1.67184e-05,-0.000103971,-9.90826e-05,-0.000110415,0.000102567,0,0,0,0,0,0,0,-0.152882,-10.0623,-0.532163,21.416,1.32234,1.32131,0.071604,-0.143191,-0.965958,-0.0584465,2.88453,0.602824,-0.353291,0.0743597
5661638,0,-1.57063,-0.522914,-1.57346e-05,-2.09648,-0.000711972,1.5713,0.785182,-1.5708,-0.523598,-2.40999e-07,-2.0944,-9.94096e-07,1.5708,0.785397,0.000549294,0.00104891,-0.000545666,-6.93143e-05,0.000140706,0.000163749,0.00101781,0,0,0,0,0,0,0,-0.176685,-10.1377,-0.508359,21.416,1.31685,1.31491,0.0459692,-0.143237,-0.965998,-0.0583234,2.88464,0.602863,-0.353227,0.0743744
5661639,0,-1.57063,-0.522917,-1.60105e-05,-2.09648,-0.000714558,1.5713,0.785174,-1.5708,-0.523598,-2.40999e-07,-2.0944,-9.94096e-07,1.5708,0.785397,-0.00084023,0.000142461,0.000193034,-0.000695823,0.000299738,-0.000128193,-0.00216976,0,0,0,0,0,0,0,-0.125111,-10.1139,-0.532163,21.4438,1.31136,1.32131,0.122873,-0.142912,-0.967048,-0.0575679,2.88519,0.60293,-0.353126,0.0743686
5661640,0,-1.57063,-0.522919,-1.66593e-05,-2.09648,-0.000712427,1.57131,0.785181,-1.5708,-0.523598,-2.40999e-07,-2.0944,-9.94096e-07,1.5708,0.785397,-0.000560153,-0.000461838,0.00012869,-0.000463882,0.000201687,0.000151897,0.00092708,0,0,0,0,0,0,0,-0.125111,-10.0901,-0.532163,21.4438,1.31136,1.31491,0.0587866,-0.142232,-0.968699,-0.0563636,2.88619,0.603022,-0.352981,0.0743474
5661641,0,-1.57064,-0.522917,-1.68756e-05,-2.09648,-0.000712327,1.57131,0.785173,-1.5708,-0.523598,-2.40999e-07,-2.0944,-9.94096e-07,1.5708,0.785397,-0.000930247,-0.000307892,8.57931e-05,-0.000309255,-6.75956e-05,0.000101265,-0.000806101,0,0,0,0,0,0,0,-0.101307,-10.0901,-0.532163,21.4438,1.31685,1.31491,0.0972387,-0.141285,-0.969111,-0.0549303,2.88674,0.603109,-0.352864,0.0743385
5661642,0,-1.57063,-0.522919,-1.86181e-05,-2.09648,-0.00071148,1.57131,0.785178,-1.5708,-0.523598,-2.40999e-07,-2.0944,-9.94096e-07,1.5708,0.785397,-6.33529e-05,-0.000205261,-0.000499617,-0.00020617,0.000159434,-0.000407208,0.000412035,0,0,0,0,0,0,0,-0.125111,-10.0901,-0.508359,21.4438,1.31136,1.32772,0.071604,-0.140107,-0.968467,-0.0532552,2.8868,0.603176,-0.352797,0.0743524
5661643,0,-1.57063,-0.522921,-1.50229e-05,-2.09649,-0.000711401,1.5713,0.785181,-1.5708,-0.523598,-2.40999e-07,-2.0944,-9.94096e-07,1.5708,0.785397,0.000607379,-0.000786455,0.000873348,-0.00125107,0.000107075,0.000203246,0.000986767,0,0,0,0,0,0,0,-0.152882,-10.0623,-0.559934,21.4914,1.31136,1.31491,0.0523779,-0.139357,-0.967324,-0.0522096,2.88678,0.603198,-0.352735,0.0743919
5661644,0,-1.57064,-0.522918,-1.86502e-05,-2.09648,-0.000711985,1.5713,0.785178,-1.5708,-0.523598,-2.40999e-07,-2.0944,-9.94096e-07,1.5708,0.785397,-0.000801507,0.000682123,-0.000624194,0.000279577,-0.000131478,0.000135497,-0.000291591,0,0,0,0,0,0,0,-0.101307,-10.1139,-0.508359,21.4438,1.31685,1.31491,0.0780126,-0.139239,-0.966392,-0.0521028,2.88705,0.603172,-0.352656,0.0744425
5661645,0,-1.57063,-0.522919,-1.69824e-05,-2.09648,-0.000711977,1.57131,0.785178,-1.5708,-0.523598,-2.40999e-07,-2.0944,-9.94096e-07,1.5708,0.785397,0.000672088,-0.000102063,0.000140683,0.000835999,-8.721e-05,9.03314e-05,-0.000431753,0,0,0,0,0,0,0,-0.152882,-10.0901,-0.532163,21.416,1.31685,1.31491,0.0844213,-0.139057,-0.965984,-0.0519301,2.88716,0.603122,-0.352637,0.0744762
5661646,0,-1.57063,-0.522921,-1.86537e-05,-2.09648,-0.000713194,1.5713,0.785175,-1.5708,-0.523598,-2.40999e-07,-2.0944,-9.94096e-07,1.5708,0.785397,-0.000201555,-0.000717656,-0.000463023,-9.22816e-05,-0.00046471,6.0221e-05,-0.00123727,0,0,0,0,0,0,0,-0.125111,-10.0623,-0.508359,21.4438,1.32784,1.31491,0.110056,-0.138826,-0.964814,-0.0516623,2.88644,0.603042,-0.352732,0.0744956
5661647,0,-1.57063,-0.522921,-1.50347e-05,-2.09648,-0.000712583,1.57131,0.785179,-1.5708,-0.523598,-2.40999e-07,-2.0944,-9.94096e-07,1.5708,0.785397,0.000515244,-0.000478438,0.000897744,0.0011449,-0.000106107,-0.000197212,0.00154874,0,0,0,0,0,0,0,-0.152882,-10.0623,-0.559934,21.3922,1.32234,1.32131,0.0459692,-0.138938,-0.961978,-0.0519029,2.88479,0.60293,-0.352919,0.074531
5661648,0,-1.57063,-0.522921,-1.48532e-05,-2.09648,-0.000711972,1.5713,0.785177,-1.5708,-0.523598,-2.40999e-07,-2.0944,-9.94096e-07,1.5708,0.785397,0.000343496,-0.000318958,-5.11182e-05,0.000206458,0.000132899,-0.000368833,-0.000391659,0,0,0,0,0,0,0,-0.152882,-10.0623,-0.532163,21.416,1.31685,1.32772,0.0844213,-0.139648,-0.95821,-0.0530419,2.8826,0.602788,-0.353158,0.0745955
5661649,0,-1.57063,-0.522914,-1.58134e-05,-2.09648,-0.000712583,1.5713,0.78518,-1.5708,-0.523598,-2.40999e-07,-2.0944,-9.94096e-07,1.5708,0.785397,0.000228997,0.00220021,-0.000590891,-0.000511975,-0.000114712,-0.000245889,0.00068833,0,0,0,0,0,0,0,-0.152882,-10.1654,-0.508359,21.4438,1.32234,1.32772,0.0587866,-0.140395,-0.956928,-0.0541828,2.88169,0.602683,-0.353281,0.0746679
5661650,0,-1.57064,-0.522921,-1.4088e-05,-2.09648,-0.000711362,1.5713,0.785178,-1.5708,-0.523598,-2.40999e-07,-2.0944,-9.94096e-07,1.5708,0.785397,-0.000496949,-0.000946043,0.000812499,-0.000341317,0.000330532,0.000310792,-0.000490549,0,0,0,0,0,0,0,-0.125111,-10.0623,-0.559934,21.4438,1.31136,1.31491,0.0844213,-0.14069,-0.959356,-0.0546497,2.88294,0.602659,-0.353197,0.0747293
5661651,0,-1.57063,-0.522921,-1.47193e-05,-2.09648,-0.000711972,1.57131,0.785178,-1.5708,-0.523598,-2.40999e-07,-2.0944,-9.94096e-07,1.5708,0.785397,0.000318315,-0.000630695,0.000541666,0.000422069,1.69825e-05,0.000207195,-0.000327033,0,0,0,0,0,0,0,-0.152882,-10.0623,-0.559934,21.416,1.31685,1.31491,0.0844213,-0.141131,-0.960919,-0.0554436,2.88402,0.602642,-0.353092,0.0747737
5661652,0,-1.57063,-0.52292,-1.8549e-05,-2.09648,-0.000712583,1.5713,0.785175,-1.5708,-0.523598,-2.40999e-07,-2.0944,-9.94096e-07,1.5708,0.785397,0.000769022,0.00022915,-0.000845315,-0.000925046,-0.00019207,-0.000573947,-0.000218022,0,0,0,0,0,0,0,-0.176685,-10.0901,-0.508359,21.4676,1.32234,1.33413,0.0844213,-0.14179,-0.96054,-0.0565435,2.88435,0.602609,-0.353025,0.0748105
5661653,0,-1.57063,-0.522916,-1.86191e-05,-2.09648,-0.000711362,1.5713,0.785178,-1.5708,-0.523598,-2.40999e-07,-2.0944,-9.94096e-07,1.5708,0.785397,-4.41309e-05,0.00126639,-0.000563544,0.000589728,0.000278899,0.000329445,0.00032937,0,0,0,0,0,0,0,-0.152882,-10.1377,-0.508359,21.416,1.31136,1.31491,0.071604,-0.141957,-0.961574,-0.0567319,2.8854,0.602612,-0.35289,0.0748561
5661654,0,-1.57063,-0.522921,-1.28927e-05,-2.09648,-0.000710751,1.57131,0.785182,-1.5708,-0.523598,-2.40999e-07,-2.0944,-9.94096e-07,1.5708,0.785397,-2.94206e-05,-0.000918977,0.00083073,-0.000256462,0.000389416,-1.77286e-05,0.00116902,0,0,0,0,0,0,0,-0.152882,-10.0623,-0.559934,21.4438,1.30586,1.32131,0.0459692,-0.141773,-0.963588,-0.0563214,2.88674,0.602634,-0.352736,0.0749117
5661655,0,-1.57063,-0.52292,-1.58096e-05,-2.09648,-0.000710751,1.57131,0.785177,-1.5708,-0.523598,-2.40999e-07,-2.0944,-9.94096e-07,1.5708,0.785397,0.000537198,3.69624e-05,-0.000652606,-0.000170974,0.000259636,-1.18191e-05,-0.000882169,0,0,0,0,0,0,0,-0.176685,-10.0901,-0.508359,21.4438,1.30586,1.32131,0.09083,-0.14185,-0.964235,-0.0562845,2.88744,0.602624,-0.352627,0.0749572
5661656,0,-1.57063,-0.522921,-1.60355e-05,-2.09647,-0.000711972,1.5713,0.785179,-1.5708,-0.523598,-2.40999e-07,-2.0944,-9.94096e-07,1.5708,0.785397,-0.00019868,-0.000624972,0.000121741,0.00164925,-0.000233792,-7.8794e-06,0.000123964,0,0,0,0,0,0,0,-0.152882,-10.0623,-0.532163,21.3684,1.31685,1.32131,0.071604,-0.141966,-0.963021,-0.056219,2.88708,0.602574,-0.352603,0.0749737
5661657,0,-1.57063,-0.522919,-1.66677e-05,-2.09648,-0.000711972,1.57131,0.785175,-1.5708,-0.523598,-2.40999e-07,-2.0944,-9.94096e-07,1.5708,0.785397,0.000424359,-0.000416648,8.1161e-05,0.000542691,-0.000155847,0.000469465,-0.00134151,0,0,0,0,0,0,0,-0.176685,-10.0623,-0.532163,21.3922,1.31685,1.3085,0.110056,-0.142065,-0.959882,-0.056051,2.88524,0.602476,-0.352726,0.0749722
5661658,0,-1.57063,-0.522921,-1.47478e-05,-2.09648,-0.000711362,1.57131,0.785178,-1.5708,-0.523598,-2.40999e-07,-2.0944,-9.94096e-07,1.5708,0.785397,-0.00092352,-0.000277765,5.41073e-05,0.000361794,9.95628e-05,7.56177e-05,5.50953e-05,0,0,0,0,0,0,0,-0.125111,-10.0623,-0.532163,21.3922,1.31136,1.31491,0.0844213,-0.142179,-0.955967,-0.0559044,2.88282,0.60236,-0.352908,0.07498
5661659,0,-1.57063,-0.522918,-1.74488e-05,-2.09648,-0.000711362,1.57131,0.785177,-1.5708,-0.523598,-2.40999e-07,-2.0944,-9.94096e-07,1.5708,0.785397,-0.00061568,0.00102125,-0.00107755,-0.000315616,6.63831e-05,5.04118e-05,0.000748807,0,0,0,0,0,0,0,-0.125111,-10.1139,-0.484555,21.416,1.31136,1.31491,0.0651953,-0.141564,-0.953928,-0.0547354,2.88149,0.602297,-0.352994,0.0750214
5661660,0,-1.57063,-0.522916,-1.19458e-05,-2.09648,-0.000711972,1.57131,0.785177,-1.5708,-0.523598,-2.40999e-07,-2.0944,-9.94096e-07,1.5708,0.785397,-0.000410453,0.00123764,0.00104487,0.000903213,-0.000159189,0.000270967,0.000973923,0,0,0,0,0,0,0,-0.125111,-10.1377,-0.559934,21.3684,1.31685,1.3085,0.0523779,-0.140398,-0.955381,-0.052818,2.88188,0.602284,-0.352952,0.0750974
5661661,0,-1.57063,-0.522921,-1.38235e-05,-2.09648,-0.000711972,1.57131,0.785179,-1.5708,-0.523598,-2.40999e-07,-2.0944,-9.94096e-07,1.5708,0.785397,0.000375978,-0.000938141,4.69658e-05,4.53303e-05,-0.000106122,0.000451912,0.000174564,0,0,0,0,0,0,0,-0.152882,-10.0623,-0.532163,21.3922,1.31685,1.30117,0.0651953,-0.139921,-0.958016,-0.0519754,2.8827,0.60224,-0.3529,0.0751777
5661662,0,-1.57063,-0.522918,-1.54702e-05,-2.09648,-0.000713193,1.57131,0.785177,-1.5708,-0.523598,-2.40999e-07,-2.0944,-9.94096e-07,1.5708,0.785397,0.000250652,0.000580998,-0.000525501,-0.000526592,-0.000477646,-0.000444711,-0.00083306,0,0,0,0,0,0,0,-0.152882,-10.1139,-0.508359,21.416,1.32784,1.32131,0.09083,-0.140114,-0.959533,-0.0520877,2.88319,0.602162,-0.352873,0.0752274
5661663,0,-1.57064,-0.522919,-1.54623e-05,-2.09648,-0.000711972,1.57131,0.78518,-1.5708,-0.523598,-2.40999e-07,-2.0944,-9.94096e-07,1.5708,0.785397,-0.000482512,-0.000819094,-0.000350334,0.000205751,8.84732e-05,0.000178244,0.000394063,0,0,0,0,0,0,0,-0.125111,-10.0623,-0.508359,21.3922,1.31685,1.3085,0.0651953,-0.140084,-0.960384,-0.0518004,2.88368,0.602112,-0.35283,0.0752421
5661664,0,-1.57064,-0.522917,-1.59198e-05,-2.09648,-0.000711362,1.57131,0.785175,-1.5708,-0.523598,-2.40999e-07,-2.0944,-9.94096e-07,1.5708,0.785397,-0.000321675,0.000103551,0.000323256,-0.000419645,0.000262435,-0.00011853,-0.000449368,0,0,0,0,0,0,0,-0.125111,-10.0901,-0.532163,21.416,1.31136,1.31491,0.0844213,-0.13975,-0.960445,-0.0511149,2.88391,0.602091,-0.352807,0.0752386
5661665,0,-1.57064,-0.522917,-1.66291e-05,-2.09648,-0.000712583,1.57131,0.785182,-1.5708,-0.523598,-2.40999e-07,-2.0944,-9.94096e-07,1.5708,0.785397,0.000435164,0.000625846,0.000215504,-0.000279763,-0.000231943,-7.90197e-05,0.00139584,0,0,0,0,0,0,0,-0.152882,-10.1139,-0.532163,21.416,1.32234,1.31491,0.038645,-0.139731,-0.960882,-0.0509702,2.88439,0.602073,-0.352769,0.0752304
5661666,0,-1.57064,-0.522919,-1.68655e-05,-2.09648,-0.000711972,1.57131,0.785182,-1.5708,-0.523598,-2.40999e-07,-2.0944,-9.94096e-07,1.5708,0.785397,-0.000359505,-0.000139581,0.000143669,0.000370303,4.88227e-05,-5.26798e-05,0.000659294,0,0,0,0,0,0,0,-0.125111,-10.0901,-0.532163,21.3922,1.31685,1.31491,0.0459692,-0.140167,-0.962292,-0.0515297,2.88526,0.602044,-0.352718,0.0752103
5661667,0,-1.57063,-0.522917,-1.48138e-05,-2.09648,-0.000711972,1.5713,0.785175,-1.5708,-0.523598,-2.40999e-07,-2.0944,-9.94096e-07,1.5708,0.785397,0.000409944,-9.30541e-05,9.57795e-05,-0.000959557,3.25493e-05,-3.51199e-05,-0.00193406,0,0,0,0,0,0,0,-0.152882,-10.0901,-0.532163,21.4438,1.31685,1.31491,0.110056,-0.140732,-0.963394,-0.05231,2.8859,0.602013,-0.352692,0.0751447
5661668,0,-1.57063,-0.522915,-1.79309e-05,-2.09648,-0.000712583,1.57131,0.785181,-1.5708,-0.523598,-2.40999e-07,-2.0944,-9.94096e-07,1.5708,0.785397,-0.000376318,0.000494776,-0.000492959,-0.00119652,-0.00018175,-2.34132e-05,0.000609498,0,0,0,0,0,0,0,-0.125111,-10.1139,-0.508359,21.4676,1.32234,1.31491,0.0587866,-0.141111,-0.964922,-0.0528316,2.88708,0.602014,-0.352605,0.0750345
5661669,0,-1.57063,-0.522919,-1.67426e-05,-2.09648,-0.000711972,1.5713,0.785177,-1.5708,-0.523598,-2.40999e-07,-2.0944,-9.94096e-07,1.5708,0.785397,0.000398735,-0.000226961,0.000228173,-0.000240866,8.2284e-05,-1.56088e-05,-0.000780463,0,0,0,0,0,0,0,-0.152882,-10.0901,-0.532163,21.4438,1.31685,1.31491,0.09083,-0.141205,-0.967227,-0.052933,2.88894,0.602052,-0.352454,0.0749174
5661670,0,-1.57063,-0.522919,-1.69034e-05,-2.09648,-0.000709997,1.57131,0.785178,-1.5708,-0.523598,-2.40999e-07,-2.0944,-9.94096e-07,1.5708,0.785397,-0.00038379,-0.000151308,0.000152115,0.00104585,-0.000352045,-1.04059e-05,0.000666486,0,0,0,0,0,0,0,-0.125111,-10.0901,-0.532163,21.3922,1.32784,1.31491,0.0587866,-0.141342,-0.968253,-0.0531226,2.88985,0.602072,-0.352409,0.0748115
5661671,0,-1.57064,-0.522919,-1.64969e-05,-2.09648,-0.000712128,1.57131,0.785178,-1.5708,-0.523598,-2.40999e-07,-2.0944,-9.94096e-07,1.5708,0.785397,-0.000812672,-0.000100872,-0.000455402,0.00014042,-0.000234696,-0.000481655,-3.03937e-05,0,0,0,0,0,0,0,-0.101307,-10.0901,-0.508359,21.416,1.32784,1.32772,0.071604,-0.14119,-0.967284,-0.0529764,2.88917,0.602079,-0.352533,0.0747156
5661672,0,-1.57063,-0.522921,-1.79351e-05,-2.09648,-0.000712838,1.57131,0.785174,-1.5708,-0.523598,-2.40999e-07,-2.0944,-9.94096e-07,1.5708,0.785397,0.000664644,-0.000716862,-0.000303601,0.000650426,-0.000156464,0.000153614,-0.00049498,0,0,0,0,0,0,0,-0.152882,-10.0623,-0.508359,21.3922,1.32784,1.31491,0.0844213,-0.140512,-0.964971,-0.0521016,2.88752,0.602106,-0.352745,0.0746215
5661673,0,-1.57063,-0.522921,-2.00849e-05,-2.09648,-0.000712464,1.57131,0.785177,-1.5708,-0.523598,-2.40999e-07,-2.0944,-9.94096e-07,1.5708,0.785397,0.000443096,-0.000477908,-0.000759213,-0.000123195,9.91414e-05,0.00010241,-9.2628e-05,0,0,0,0,0,0,0,-0.152882,-10.0623,-0.484555,21.416,1.32234,1.31491,0.0780126,-0.139895,-0.961547,-0.0511922,2.88531,0.602143,-0.352985,0.0745307
5661674,0,-1.57063,-0.522921,-1.85743e-05,-2.09648,-0.000713153,1.57131,0.785171,-1.5708,-0.523598,-2.40999e-07,-2.0944,-9.94096e-07,1.5708,0.785397,0.000295398,-0.000318605,5.06701e-05,0.000474682,-0.000137356,6.82731e-05,-0.00124855,0,0,0,0,0,0,0,-0.152882,-10.0623,-0.508359,21.3922,1.32784,1.31491,0.110056,-0.139581,-0.957862,-0.0505689,2.88305,0.60219,-0.353212,0.0744583
5661675,0,-1.57064,-0.522919,-1.69571e-05,-2.09648,-0.000712569,1.57131,0.785179,-1.5708,-0.523598,-2.40999e-07,-2.0944,-9.94096e-07,1.5708,0.785397,-0.00100949,-0.000212403,0.000590592,-0.000889971,0.00011188,-0.000191844,0.00181249,0,0,0,0,0,0,0,-0.101307,-10.0623,-0.532163,21.4438,1.32234,1.32131,0.038645,-0.139527,-0.955057,-0.0503567,2.88146,0.602262,-0.353365,0.0744249
5661676,0,-1.57063,-0.522919,-1.48443e-05,-2.09648,-0.000711968,1.57131,0.785175,-1.5708,-0.523598,-2.40999e-07,-2.0944,-9.94096e-07,1.5708,0.785397,0.00053343,0.000508012,0.000393728,5.62998e-05,0.000278037,-0.000365255,-0.000961811,0,0,0,0,0,0,0,-0.152882,-10.0901,-0.532163,21.416,1.31685,1.32772,0.0972387,-0.139807,-0.954101,-0.0507789,2.88111,0.602359,-0.353394,0.0744337
5661677,0,-1.57063,-0.522917,-1.21912e-05,-2.09648,-0.00071136,1.5713,0.785182,-1.5708,-0.523598,-2.40999e-07,-2.0944,-9.94096e-07,1.5708,0.785397,0.00035562,0.000338674,0.000912099,0.000594345,0.000388809,-6.14415e-06,0.00152893,0,0,0,0,0,0,0,-0.152882,-10.0901,-0.559934,21.3922,1.31136,1.32131,0.038645,-0.140782,-0.954883,-0.0522568,2.88158,0.60244,-0.353352,0.0744632
5661678,0,-1.57063,-0.522919,-1.60358e-05,-2.09648,-0.000711972,1.57131,0.785178,-1.5708,-0.523598,-2.40999e-07,-2.0944,-9.94096e-07,1.5708,0.785397,-0.000412534,0.000225783,-4.15478e-05,0.00039623,5.57553e-05,0.000233263,-0.000438774,0,0,0,0,0,0,0,-0.125111,-10.0901,-0.532163,21.3922,1.31685,1.31491,0.0780126,-0.14213,-0.956156,-0.0542855,2.88191,0.602489,-0.35333,0.0744899
5661679,0,-1.57063,-0.522919,-1.66678e-05,-2.09648,-0.000711362,1.5713,0.785175,-1.5708,-0.523598,-2.40999e-07,-2.0944,-9.94096e-07,1.5708,0.785397,0.000374591,0.000150522,-2.76985e-05,0.000264153,0.000240621,-0.000556568,-0.000292516,0,0,0,0,0,0,0,-0.152882,-10.0901,-0.532163,21.3922,1.31136,1.33413,0.0780126,-0.142994,-0.957279,-0.0556273,2.88195,0.602538,-0.353323,0.0744902
5661680,0,-1.57063,-0.522921,-1.85488e-05,-2.09648,-0.000711362,1.57131,0.785175,-1.5708,-0.523598,-2.40999e-07,-2.0944,-9.94096e-07,1.5708,0.785397,0.000249727,-0.000549266,-0.000575278,-0.00158714,0.000160414,-0.000133687,4.23482e-05,0,0,0,0,0,0,0,-0.152882,-10.0623,-0.508359,21.4676,1.31136,1.32772,0.071604,-0.143282,-0.958295,-0.0560605,2.88228,0.602602,-0.353241,0.0744643
5661681,0,-1.57063,-0.522919,-1.48181e-05,-2.09648,-0.000711972,1.57131,0.785179,-1.5708,-0.523598,-2.40999e-07,-2.0944,-9.94096e-07,1.5708,0.785397,-0.000483129,0.000283437,0.000173294,0.000705147,-9.65079e-05,0.000622952,0.000265591,0,0,0,0,0,0,0,-0.125111,-10.0901,-0.532163,21.3922,1.31685,1.3085,0.0651953,-0.143101,-0.959169,-0.0557634,2.88301,0.602678,-0.353073,0.0744276
5661682,0,-1.57063,-0.522918,-1.58018e-05,-2.09648,-0.000711362,1.57131,0.785182,-1.5708,-0.523598,-2.40999e-07,-2.0944,-9.94096e-07,1.5708,0.785397,0.000327528,0.00074577,-0.000441283,-0.000736328,0.000139112,0.000177943,0.000889138,0,0,0,0,0,0,0,-0.152882,-10.1139,-0.508359,21.4438,1.31136,1.31491,0.0459692,-0.142577,-0.960511,-0.0549782,2.88391,0.602749,-0.35289,0.074382
5661683,0,-1.57063,-0.522916,-1.19536e-05,-2.09648,-0.000711362,1.5713,0.785175,-1.5708,-0.523598,-2.40999e-07,-2.0944,-9.94096e-07,1.5708,0.785397,0.000775164,0.00105399,0.000912237,0.000158729,9.27413e-05,-0.000356089,-0.00178083,0,0,0,0,0,0,0,-0.176685,-10.1377,-0.559934,21.416,1.31136,1.32772,0.110056,-0.14244,-0.963464,-0.0547136,2.88543,0.602788,-0.352677,0.0743197
5661684,0,-1.57063,-0.52292,-1.59566e-05,-2.09648,-0.000712583,1.57131,0.785177,-1.5708,-0.523598,-2.40999e-07,-2.0944,-9.94096e-07,1.5708,0.785397,-4.0036e-05,-0.000410963,-4.14558e-05,0.000105819,-0.000345074,-3.40076e-08,0.000711651,0,0,0,0,0,0,0,-0.152882,-10.0901,-0.532163,21.416,1.32234,1.32131,0.0587866,-0.143065,-0.966748,-0.0555159,2.88702,0.60277,-0.352469,0.0742443
5661687,0,-1.57063,-0.522921,-1.76692e-05,-2.09648,-0.000711972,1.57131,0.785177,-1.5708,-0.523598,-2.40999e-07,-2.0944,-9.94096e-07,1.5708,0.785397,0.000204675,-0.000895117,-0.000445359,0.000247892,0.000131347,-0.000158249,-0.000184739,0,0,0,0,0,0,0,-0.152882,-10.0623,-0.508359,21.416,1.31685,1.32131,0.0780126,-0.142479,-0.967476,-0.054276,2.88725,0.602751,-0.3522,0.074075
5661688,0,-1.57063,-0.522916,-1.45249e-05,-2.09648,-0.000712583,1.57131,0.785175,-1.5708,-0.523598,-2.40999e-07,-2.0944,-9.94096e-07,1.5708,0.785397,0.00013645,0.000609681,0.000259906,0.000165261,-0.000115886,-0.0001055,-0.000123159,0,0,0,0,0,0,0,-0.152882,-10.1139,-0.532163,21.416,1.32234,1.32131,0.0780126,-0.141918,-0.965156,-0.0533071,2.88618,0.602768,-0.352206,0.074045
5661689,0,-1.57063,-0.522917,-1.04143e-05,-2.09648,-0.000712583,1.57131,0.785177,-1.5708,-0.523598,-2.40999e-07,-2.0944,-9.94096e-07,1.5708,0.785397,0.000647779,0.000406454,0.0013797,0.000110174,-7.72571e-05,0.000167026,-0.000319465,0,0,0,0,0,0,0,-0.176685,-10.1139,-0.583737,21.416,1.32234,1.31491,0.0844213,-0.142289,-0.963834,-0.0536739,2.88541,0.602751,-0.352215,0.0740299
5661690,0,-1.57063,-0.522919,-1.76708e-05,-2.09648,-0.000711972,1.57131,0.785171,-1.5708,-0.523598,-2.40999e-07,-2.0944,-9.94096e-07,1.5708,0.785397,-0.000124959,-0.000285842,-0.00084344,-0.000576165,0.000151946,-0.000363367,-0.00116241,0,0,0,0,0,0,0,-0.152882,-10.0901,-0.508359,21.4438,1.31685,1.32772,0.110056,-0.143416,-0.963746,-0.0551458,2.88527,0.60272,-0.352182,0.0740365
5661691,0,-1.57063,-0.522919,-1.45254e-05,-2.09648,-0.000712583,1.5713,0.785181,-1.5708,-0.523598,-2.40999e-07,-2.0944,-9.94096e-07,1.5708,0.785397,-0.00073292,-0.000190562,-5.48152e-06,0.000265504,-0.000102153,0.000232473,0.00159865,0,0,0,0,0,0,0,-0.125111,-10.0901,-0.532163,21.416,1.32234,1.31491,0.0459692,-0.143853,-0.963468,-0.0556004,2.8852,0.602735,-0.352133,0.0740714
5661692,0,-1.57063,-0.522918,-1.42155e-05,-2.09648,-0.000711362,1.57131,0.785173,-1.5708,-0.523598,-2.40999e-07,-2.0944,-9.94096e-07,1.5708,0.785397,-0.000488613,0.000429771,0.00064596,0.000733815,0.000338799,0.000154982,-0.000833106,0,0,0,0,0,0,0,-0.125111,-10.1139,-0.559934,21.3922,1.31136,1.31491,0.0972387,-0.143514,-0.962722,-0.0550234,2.88472,0.602782,-0.352131,0.074138
5661693,0,-1.57063,-0.522919,-1.98698e-05,-2.09648,-0.000710751,1.57131,0.785182,-1.5708,-0.523598,-2.40999e-07,-2.0944,-9.94096e-07,1.5708,0.785397,-0.000325742,-0.000919912,-0.00198221,0.00048921,0.000429316,-0.000134038,0.00161473,0,0,0,0,0,0,0,-0.125111,-10.0623,-0.456784,21.3922,1.30586,1.32131,0.038645,-0.142637,-0.961273,-0.0537245,2.88352,0.602834,-0.352212,0.0742156
5661694,0,-1.57063,-0.52292,-1.78529e-05,-2.09648,-0.000711972,1.57131,0.785177,-1.5708,-0.523598,-2.40999e-07,-2.0944,-9.94096e-07,1.5708,0.785397,0.000989264,-0.00117009,-0.000115049,-0.000230672,-0.00012069,-8.93584e-05,-0.000618931,0,0,0,0,0,0,0,-0.176685,-10.0385,-0.508359,21.416,1.31685,1.32131,0.0844213,-0.141186,-0.958064,-0.0514428,2.88147,0.602882,-0.35235,0.0742812
5661695,0,-1.57063,-0.522919,-1.09669e-05,-2.09647,-0.000711362,1.57131,0.785179,-1.5708,-0.523598,-2.40999e-07,-2.0944,-9.94096e-07,1.5708,0.785397,0.00065951,0.000426368,0.00168654,0.00151665,0.00012299,-5.95723e-05,6.20971e-05,0,0,0,0,0,0,0,-0.176685,-10.0901,-0.583737,21.3446,1.31136,1.32131,0.071604,-0.140893,-0.953841,-0.0507261,2.87901,0.602847,-0.352512,0.0743289
5661696,0,-1.57063,-0.522916,-1.7855e-05,-2.09648,-0.000713193,1.57131,0.785176,-1.5708,-0.523598,-2.40999e-07,-2.0944,-9.94096e-07,1.5708,0.785397,-0.000117139,0.00139787,-0.000638879,-0.000102521,-0.000528358,0.000197644,-0.000908038,0,0,0,0,0,0,0,-0.152882,-10.1377,-0.508359,21.3922,1.32784,1.31491,0.0972387,-0.142112,-0.95186,-0.0522337,2.87735,0.602737,-0.352634,0.0743661
5661697,0,-1.57064,-0.522919,-1.83878e-05,-2.09648,-0.000712583,1.57131,0.785181,-1.5708,-0.523598,-2.40999e-07,-2.0944,-9.94096e-07,1.5708,0.785397,-0.00128452,-0.000181711,-0.000425919,-0.000625159,-0.000148788,0.000369122,0.000818795,0,0,0,0,0,0,0,-0.101307,-10.0901,-0.508359,21.416,1.32234,1.3085,0.0587866,-0.142664,-0.95342,-0.0528309,2.87743,0.60269,-0.352613,0.0744002
5661698,0,-1.57063,-0.522916,-1.85654e-05,-2.09648,-0.000712583,1.57131,0.785183,-1.5708,-0.523598,-2.40999e-07,-2.0944,-9.94096e-07,1.5708,0.785397,-0.000299534,0.000435671,-0.000283946,-0.000416773,-9.91921e-05,8.72217e-06,0.00129185,0,0,0,0,0,0,0,-0.125111,-10.1139,-0.508359,21.416,1.32234,1.31491,0.038645,-0.141846,-0.956494,-0.0515285,2.87873,0.602745,-0.352465,0.0744331
5661699,0,-1.57064,-0.522917,-1.69541e-05,-2.09648,-0.000713193,1.5713,0.785176,-1.5708,-0.523598,-2.40999e-07,-2.0944,-9.94096e-07,1.5708,0.785397,-0.000756501,0.000290448,0.000367515,-0.000927462,-0.000269579,-0.000231544,-0.00130891,0,0,0,0,0,0,0,-0.101307,-10.1139,-0.532163,21.4438,1.32784,1.32131,0.0972387,-0.140704,-0.960042,-0.0498743,2.88066,0.602843,-0.352249,0.0744466
5661700,0,-1.57064,-0.522921,-1.81842e-05,-2.09648,-0.000713193,1.57131,0.785178,-1.5708,-0.523598,-2.40999e-07,-2.0944,-9.94096e-07,1.5708,0.785397,-0.000504334,-0.00101279,-0.000868614,3.13056e-05,-0.000179719,8.29962e-05,-0.000397886,0,0,0,0,0,0,0,-0.101307,-10.0623,-0.484555,21.416,1.32784,1.31491,0.0844213,-0.139561,-0.962855,-0.0483292,2.88249,0.602958,-0.352034,0.0744228
5661701,0,-1.57063,-0.522919,-2.156e-05,-2.09648,-0.000711972,1.57131,0.785175,-1.5708,-0.523598,-2.40999e-07,-2.0944,-9.94096e-07,1.5708,0.785397,0.00142702,-2.55822e-05,-0.00122869,2.08704e-05,0.000287088,5.53308e-05,-0.00121469,0,0,0,0,0,0,0,-0.176685,-10.0901,-0.456784,21.416,1.31685,1.31491,0.110056,-0.138312,-0.963303,-0.0465326,2.88308,0.603072,-0.351926,0.0743849
5661702,0,-1.57063,-0.522919,-1.84163e-05,-2.09648,-0.000712583,1.57131,0.785181,-1.5708,-0.523598,-2.40999e-07,-2.0944,-9.94096e-07,1.5708,0.785397,0.000394531,-1.70548e-05,0.000387299,-0.0006357,-1.20583e-05,3.68872e-05,0.00108908,0,0,0,0,0,0,0,-0.152882,-10.0901,-0.508359,21.4438,1.32234,1.31491,0.0587866,-0.137685,-0.962797,-0.0453778,2.88308,0.603154,-0.351886,0.0743777
5661703,0,-1.57064,-0.522921,-1.85749e-05,-2.09648,-0.000711362,1.57131,0.785178,-1.5708,-0.523598,-2.40999e-07,-2.0944,-9.94096e-07,1.5708,0.785397,-0.000943405,-0.000660984,0.000258199,0.000225814,0.000398862,2.45915e-05,0.000726051,0,0,0,0,0,0,0,-0.101307,-10.0623,-0.508359,21.416,1.31136,1.31491,0.0587866,-0.137888,-0.962183,-0.0454079,2.88304,0.603203,-0.351869,0.0744175
5661704,0,-1.57063,-0.522914,-1.64972e-05,-2.09648,-0.000712583,1.5713,0.78518,-1.5708,-0.523598,-2.40999e-07,-2.0944,-9.94096e-07,1.5708,0.785397,-7.21247e-05,0.00132258,0.000172133,0.000707354,-0.000140993,-0.000220965,0.000484034,0,0,0,0,0,0,0,-0.125111,-10.1377,-0.508359,21.3922,1.32234,1.32131,0.0587866,-0.138235,-0.96158,-0.0458133,2.88273,0.603234,-0.351909,0.0744733
5661705,0,-1.57063,-0.522921,-1.79352e-05,-2.09648,-0.000711362,1.57131,0.785178,-1.5708,-0.523598,-2.40999e-07,-2.0944,-9.94096e-07,1.5708,0.785397,0.000601531,-0.000881517,0.000114755,-0.000734856,0.000312906,-0.00014731,-0.000389388,0,0,0,0,0,0,0,-0.152882,-10.0623,-0.508359,21.4438,1.31136,1.32131,0.0780126,-0.138747,-0.961749,-0.0465022,2.88253,0.603249,-0.351966,0.0745099
5661706,0,-1.57063,-0.522919,-1.47952e-05,-2.09648,-0.000712583,1.57131,0.785173,-1.5708,-0.523598,-2.40999e-07,-2.0944,-9.94096e-07,1.5708,0.785397,0.000401021,-0.000587678,0.00128293,0.000716522,-0.000198297,0.000139152,-0.0019211,0,0,0,0,0,0,0,-0.152882,-10.0623,-0.559934,21.3922,1.32234,1.31491,0.122873,-0.140045,-0.961023,-0.0483062,2.88204,0.603215,-0.352037,0.0745192
5661707,0,-1.57063,-0.522921,-1.69038e-05,-2.09648,-0.000711972,1.57131,0.785178,-1.5708,-0.523598,-2.40999e-07,-2.0944,-9.94096e-07,1.5708,0.785397,-0.000382267,-0.000391785,0.000205672,-0.000728745,7.12524e-05,9.27683e-05,0.00133021,0,0,0,0,0,0,0,-0.125111,-10.0623,-0.532163,21.4438,1.31685,1.31491,0.0523779,-0.141912,-0.958747,-0.0510034,2.88094,0.603138,-0.352146,0.0745301
5661708,0,-1.57063,-0.522919,-1.81674e-05,-2.09648,-0.000712583,1.57131,0.785177,-1.5708,-0.523598,-2.40999e-07,-2.0944,-9.94096e-07,1.5708,0.785397,0.000394769,-0.00026119,-0.000976509,-0.00104264,-0.000155949,-0.000175513,-0.000299987,0,0,0,0,0,0,0,-0.152882,-10.0623,-0.484555,21.4676,1.32234,1.32131,0.0844213,-0.143122,-0.956946,-0.0527614,2.88044,0.603099,-0.352187,0.0745685
5661709,0,-1.57063,-0.522917,-1.96056e-05,-2.09648,-0.000711972,1.57131,0.785185,-1.5708,-0.523598,-2.40999e-07,-2.0944,-9.94096e-07,1.5708,0.785397,0.00026318,0.0010323,-0.000651006,0.00106814,9.94846e-05,0.00012035,0.00220751,0,0,0,0,0,0,0,-0.152882,-10.1139,-0.484555,21.3922,1.31685,1.31491,0.0194189,-0.143145,-0.95683,-0.052631,2.88089,0.603125,-0.352152,0.0746205
5661710,0,-1.57064,-0.522917,-1.46135e-05,-2.09648,-0.000711972,1.57131,0.785181,-1.5708,-0.523598,-2.40999e-07,-2.0944,-9.94096e-07,1.5708,0.785397,-0.000474161,0.000131387,0.00067962,0.00126891,6.6323e-05,-0.000157126,1.36091e-05,0,0,0,0,0,0,0,-0.125111,-10.0901,-0.532163,21.3684,1.31685,1.32131,0.0587866,-0.142678,-0.957664,-0.051685,2.88107,0.603154,-0.352191,0.0746516
5661711,0,-1.57063,-0.522919,-1.7404e-05,-2.09648,-0.000711362,1.5713,0.785176,-1.5708,-0.523598,-2.40999e-07,-2.0944,-9.94096e-07,1.5708,0.785397,0.000890319,8.75917e-05,-0.000660544,-0.000267686,0.000247666,-0.00010475,-0.00141508,0,0,0,0,0,0,0,-0.176685,-10.0901,-0.484555,21.416,1.31136,1.32131,0.0972387,-0.142393,-0.958232,-0.0509979,2.8806,0.603154,-0.35231,0.0746225
5661712,0,-1.57063,-0.522918,-1.55501e-05,-2.09648,-0.000713193,1.5713,0.785178,-1.5708,-0.523598,-2.40999e-07,-2.0944,-9.94096e-07,1.5708,0.785397,-0.00061288,0.000615206,0.000116449,0.000378355,-0.000445241,0.000404884,-0.000468669,0,0,0,0,0,0,0,-0.125111,-10.1139,-0.508359,21.3922,1.32784,1.3085,0.0844213,-0.142193,-0.958997,-0.0503711,2.88033,0.603155,-0.352392,0.0745375
5661713,0,-1.57063,-0.522917,-1.38185e-05,-2.09648,-0.000712583,1.5713,0.785175,-1.5708,-0.523598,-2.40999e-07,-2.0944,-9.94096e-07,1.5708,0.785397,-0.000408587,-0.000146674,0.000634445,-0.000304575,-9.33768e-05,-0.000204795,-7.50873e-05,0,0,0,0,0,0,0,-0.125111,-10.0901,-0.532163,21.416,1.32234,1.32131,0.0780126,-0.141928,-0.960308,-0.0497051,2.88055,0.603173,-0.352415,0.0744448
5661714,0,-1.57063,-0.522921,-1.37981e-05,-2.09648,-0.000710039,1.57131,0.785179,-1.5708,-0.523598,-2.40999e-07,-2.0944,-9.94096e-07,1.5708,0.785397,-0.000272391,-0.000747397,0.000422963,-0.000852664,0.000785459,0.000100829,0.00164536,0,0,0,0,0,0,0,-0.125111,-10.0623,-0.532163,21.4438,1.29946,1.31491,0.0322363,-0.141881,-0.961037,-0.0495226,2.88092,0.603192,-0.352391,0.0743723
5661715,0,-1.57063,-0.522914,-1.54618e-05,-2.09648,-0.000711362,1.57131,0.785176,-1.5708,-0.523598,-2.40999e-07,-2.0944,-9.94096e-07,1.5708,0.785397,-0.000181594,0.00126497,-0.000274836,8.11712e-05,8.28301e-05,0.000304578,-0.00107323,0,0,0,0,0,0,0,-0.125111,-10.1377,-0.508359,21.416,1.31136,1.3085,0.09083,-0.141906,-0.96169,-0.0495296,2.88162,0.60321,-0.352316,0.0743039
5661716,0,-1.57064,-0.522919,-1.59196e-05,-2.09648,-0.000711972,1.57131,0.785182,-1.5708,-0.523598,-2.40999e-07,-2.0944,-9.94096e-07,1.5708,0.785397,-0.000677875,-0.000919922,0.000373588,0.000610926,-0.00014823,0.000203052,0.00121729,0,0,0,0,0,0,0,-0.101307,-10.0623,-0.532163,21.3922,1.31685,1.3085,0.038645,-0.141618,-0.96259,-0.0491363,2.88224,0.603221,-0.352271,0.0742145
5661717,0,-1.57063,-0.52292,-1.82995e-05,-2.09648,-0.000713193,1.5713,0.785175,-1.5708,-0.523598,-2.40999e-07,-2.0944,-9.94096e-07,1.5708,0.785397,0.000754509,-0.000613282,-0.000307754,-0.000149528,-0.000505721,-0.000576709,-0.00183333,0,0,0,0,0,0,0,-0.152882,-10.0623,-0.508359,21.416,1.32784,1.32772,0.110056,-0.141234,-0.961657,-0.0486573,2.88175,0.603191,-0.352338,0.0741009
5661718,0,-1.57063,-0.522919,-1.4735e-05,-2.09648,-0.000713905,1.57131,0.785175,-1.5708,-0.523598,-2.40999e-07,-2.0944,-9.94096e-07,1.5708,0.785397,0.000503006,0.00024076,0.000351643,-0.000749299,-0.000574507,9.02454e-05,-0.00122222,0,0,0,0,0,0,0,-0.152882,-10.0901,-0.532163,21.4438,1.33425,1.31491,0.110056,-0.141262,-0.959756,-0.0487342,2.881,0.603133,-0.352415,0.0739798
5661719,0,-1.57063,-0.522917,-1.62341e-05,-2.09648,-0.000711972,1.5713,0.785174,-1.5708,-0.523598,-2.40999e-07,-2.0944,-9.94096e-07,1.5708,0.785397,0.000335338,0.000160506,0.000234429,0.000150081,0.000261256,-0.000177195,-0.000102736,0,0,0,0,0,0,0,-0.152882,-10.0901,-0.532163,21.416,1.31685,1.32131,0.09083,-0.141829,-0.959206,-0.0495437,2.88114,0.60308,-0.352412,0.0738985
5661720,0,-1.57063,-0.522917,-1.46033e-05,-2.09648,-0.000712583,1.57131,0.78518,-1.5708,-0.523598,-2.40999e-07,-2.0944,-9.94096e-07,1.5708,0.785397,-0.000426056,0.000663816,0.000156286,-0.00110637,-2.92801e-05,-0.00011813,0.0011183,0,0,0,0,0,0,0,-0.125111,-10.1139,-0.532163,21.4676,1.32234,1.32131,0.0587866,-0.142455,-0.960334,-0.0504804,2.88216,0.603062,-0.352336,0.0738952
5661721,0,-1.57064,-0.522921,-1.40597e-05,-2.09648,-0.000711362,1.57131,0.785177,-1.5708,-0.523598,-2.40999e-07,-2.0944,-9.94096e-07,1.5708,0.785397,-0.000284037,-0.000763882,0.00010419,0.000468845,0.000387381,0.000395964,0.000745536,0,0,0,0,0,0,0,-0.125111,-10.0623,-0.532163,21.416,1.31136,1.3085,0.0587866,-0.142633,-0.961945,-0.0508645,2.88345,0.603084,-0.352237,0.0739524
5661722,0,-1.57064,-0.522921,-1.40602e-05,-2.09648,-0.000710751,1.5713,0.785175,-1.5708,-0.523598,-2.40999e-07,-2.0944,-9.94096e-07,1.5708,0.785397,-0.000189358,-0.000509255,0.000719074,0.00142619,0.000461705,-0.000210742,-0.00116449,0,0,0,0,0,0,0,-0.125111,-10.0623,-0.559934,21.3684,1.30586,1.32131,0.103647,-0.142584,-0.9612,-0.0510401,2.88319,0.603092,-0.352285,0.0740233
5661723,0,-1.57064,-0.522919,-1.83293e-05,-2.09648,-0.000711972,1.5713,0.785179,-1.5708,-0.523598,-2.40999e-07,-2.0944,-9.94096e-07,1.5708,0.785397,-0.000683051,0.000310111,-0.000727043,-0.000162833,-9.9098e-05,9.68645e-05,0.000410469,0,0,0,0,0,0,0,-0.101307,-10.0901,-0.508359,21.416,1.31685,1.31491,0.071604,-0.142275,-0.958517,-0.0509452,2.88145,0.603072,-0.352482,0.0740893
5661724,0,-1.57063,-0.522916,-1.85459e-05,-2.09648,-0.000713193,1.57131,0.785175,-1.5708,-0.523598,-2.40999e-07,-2.0944,-9.94096e-07,1.5708,0.785397,0.000751059,0.00132036,-0.000484695,-0.000758169,-0.000472966,6.45764e-05,-0.00115051,0,0,0,0,0,0,0,-0.152882,-10.1377,-0.508359,21.4438,1.32784,1.31491,0.110056,-0.141335,-0.95805,-0.0499336,2.88085,0.603088,-0.352582,0.0741677
5661725,0,-1.57063,-0.52292,-1.69476e-05,-2.09648,-0.000712583,1.57131,0.785176,-1.5708,-0.523598,-2.40999e-07,-2.0944,-9.94096e-07,1.5708,0.785397,0.000500706,-0.000233381,0.000233682,-0.00106226,-0.00011186,4.30509e-05,0.000657149,0,0,0,0,0,0,0,-0.152882,-10.0901,-0.532163,21.4676,1.32234,1.31491,0.071604,-0.140488,-0.960793,-0.0489571,2.88236,0.603134,-0.352487,0.0742783
5661726,0,-1.57063,-0.522921,-1.65116e-05,-2.09648,-0.000711972,1.5713,0.785183,-1.5708,-0.523598,-2.40999e-07,-2.0944,-9.94096e-07,1.5708,0.785397,-0.00031581,-0.000805201,-0.000401024,-0.00015136,0.000128877,2.87006e-05,0.00189616,0,0,0,0,0,0,0,-0.125111,-10.0623,-0.508359,21.4438,1.31685,1.31491,0.0322363,-0.140089,-0.963207,-0.0485904,2.8842,0.603172,-0.352343,0.0744239
5661727,0,-1.57063,-0.52292,-1.62695e-05,-2.09648,-0.000712583,1.57131,0.785176,-1.5708,-0.523598,-2.40999e-07,-2.0944,-9.94096e-07,1.5708,0.785397,-0.00021054,0.000112813,0.000289463,0.00110552,-0.000117533,-0.000218225,-0.000193955,0,0,0,0,0,0,0,-0.125111,-10.0901,-0.532163,21.3922,1.32234,1.32131,0.071604,-0.139613,-0.963049,-0.0481603,2.88466,0.603192,-0.352322,0.0745661
5661728,0,-1.57063,-0.52292,-1.46151e-05,-2.09648,-0.000711362,1.5713,0.78518,-1.5708,-0.523598,-2.40999e-07,-2.0944,-9.94096e-07,1.5708,0.785397,0.000509254,7.52088e-05,0.000192975,0.000737013,0.000328546,9.18755e-05,0.000345415,0,0,0,0,0,0,0,-0.152882,-10.0901,-0.532163,21.3922,1.31136,1.31491,0.0587866,-0.139319,-0.961402,-0.0480291,2.88375,0.603174,-0.352457,0.0746597
5661729,0,-1.57064,-0.522916,-1.40637e-05,-2.09648,-0.000711972,1.57131,0.785172,-1.5708,-0.523598,-2.40999e-07,-2.0944,-9.94096e-07,1.5708,0.785397,-0.000866923,0.000606951,0.00012865,0.00601187,1.55801e-05,0.000298609,-0.00143124,0,0,0,0,0,0,0,-0.101307,-10.1139,-0.532163,21.416,1.31685,1.3085,0.103647,-0.139285,-0.958196,-0.0482912,2.8806,0.603092,-0.352853,0.074693
5661730,0,-1.57064,-0.522917,-1.60104e-05,-2.09648,-0.000711972,1.57131,0.785176,-1.5708,-0.523598,-2.40999e-07,-2.0944,-9.94096e-07,1.5708,0.785397,-0.000577949,-0.000152178,8.57667e-05,0.00451436,1.03868e-05,-3.82861e-05,0.000469996,0,0,0,0,0,0,0,-0.101307,-10.0901,-0.532163,21.416,1.31685,1.31491,0.0651953,-0.138897,-0.951798,-0.0481214,2.87361,0.602932,-0.353686,0.0746819
5661731,0,-1.57064,-0.522919,-1.83297e-05,-2.09648,-0.000713193,1.57131,0.785176,-1.5708,-0.523598,-2.40999e-07,-2.0944,-9.94096e-07,1.5708,0.785397,-0.000385299,-0.000101452,-0.000499634,0.0033894,-0.000399977,-2.55241e-05,0.00055069,0,0,0,0,0,0,0,-0.101307,-10.0901,-0.508359,21.416,1.32784,1.31491,0.0587866,-0.137948,-0.943089,-0.0472367,2.86434,0.602738,-0.354763,0.0746567
5661732,0,-1.57063,-0.522914,-1.47451e-05,-2.09648,-0.000712583,1.5713,0.785181,-1.5708,-0.523598,-2.40999e-07,-2.0944,-9.94096e-07,1.5708,0.785397,0.00150637,0.00104599,0.000223723,0.00310129,-6.32005e-05,-0.000254375,0.000841844,0,0,0,0,0,0,0,-0.176685,-10.1377,-0.532163,21.3922,1.32234,1.32131,0.0459692,-0.137149,-0.935446,-0.0465274,2.85605,0.602556,-0.355737,0.0746271
5661733,0,-1.57063,-0.522917,-1.62375e-05,-2.09648,-0.000711972,1.5713,0.785178,-1.5708,-0.523598,-2.40999e-07,-2.0944,-9.94096e-07,1.5708,0.785397,0.00100425,-0.000416298,0.000149148,0.00107476,0.000161317,-0.000406942,-0.000625565,0,0,0,0,0,0,0,-0.176685,-10.0901,-0.532163,21.4438,1.31685,1.32772,0.0780126,-0.137487,-0.930845,-0.0473012,2.85047,0.602385,-0.356418,0.0745764
5661734,0,-1.57063,-0.522915,-1.84054e-05,-2.09648,-0.000711972,1.5713,0.785175,-1.5708,-0.523598,-2.40999e-07,-2.0944,-9.94096e-07,1.5708,0.785397,-0.000536927,0.00027928,-0.00045738,0.00152636,0.000107545,-3.39359e-05,-0.00160384,0,0,0,0,0,0,0,-0.125111,-10.1139,-0.508359,21.416,1.31685,1.32131,0.110056,-0.138324,-0.928777,-0.048691,2.84779,0.602276,-0.356754,0.0744894
5661735,0,-1.57063,-0.522917,-1.69008e-05,-2.09648,-0.000711972,1.57131,0.785178,-1.5708,-0.523598,-2.40999e-07,-2.0944,-9.94096e-07,1.5708,0.785397,0.000291662,0.000186187,0.000251892,0.00113776,7.16964e-05,0.000452094,-0.00011979,0,0,0,0,0,0,0,-0.152882,-10.1139,-0.532163,21.416,1.31685,1.3085,0.0844213,-0.138624,-0.928696,-0.0493124,2.84736,0.60226,-0.356817,0.074391
5661736,0,-1.57063,-0.522921,-1.50073e-05,-2.09648,-0.000712583,1.57131,0.785174,-1.5708,-0.523598,-2.40999e-07,-2.0944,-9.94096e-07,1.5708,0.785397,0.000194442,-0.0010823,0.000817542,-0.000357786,-0.000155653,6.4037e-05,-0.000317219,0,0,0,0,0,0,0,-0.152882,-10.0623,-0.559934,21.4676,1.32234,1.31491,0.09083,-0.139008,-0.929772,-0.0500974,2.8486,0.602289,-0.356674,0.074331
5661737,0,-1.57063,-0.522919,-1.69745e-05,-2.09648,-0.000713193,1.57131,0.785177,-1.5708,-0.523598,-2.40999e-07,-2.0944,-9.94096e-07,1.5708,0.785397,-0.000519986,-7.19203e-05,-0.000104586,0.0010355,-0.000307219,4.26913e-05,0.00121267,0,0,0,0,0,0,0,-0.125111,-10.0901,-0.532163,21.416,1.32784,1.31491,0.0523779,-0.139659,-0.930894,-0.0513363,2.85091,0.60234,-0.35639,0.0743271
5661738,0,-1.57063,-0.522919,-1.69807e-05,-2.09648,-0.000711972,1.57131,0.78518,-1.5708,-0.523598,-2.40999e-07,-2.0944,-9.94096e-07,1.5708,0.785397,0.000302956,-4.79469e-05,-6.97239e-05,0.00129785,0.000202088,-0.000208898,0.00080845,0,0,0,0,0,0,0,-0.152882,-10.0901,-0.532163,21.3922,1.31685,1.32131,0.0523779,-0.139902,-0.93211,-0.0519955,2.85349,0.60242,-0.356082,0.0743587
5661739,0,-1.57063,-0.522921,-1.50339e-05,-2.09648,-0.000712583,1.5713,0.785181,-1.5708,-0.523598,-2.40999e-07,-2.0944,-9.94096e-07,1.5708,0.785397,-0.000447643,-0.000681579,0.000603131,-0.000303166,-6.8725e-05,-0.000139265,0.000538966,0,0,0,0,0,0,0,-0.125111,-10.0623,-0.559934,21.4438,1.32234,1.32131,0.0523779,-0.139897,-0.933551,-0.0522826,2.85612,0.602517,-0.355776,0.074386
5661740,0,-1.57063,-0.522921,-2.03243e-05,-2.09648,-0.000712583,1.57131,0.785178,-1.5708,-0.523598,-2.40999e-07,-2.0944,-9.94096e-07,1.5708,0.785397,0.000351185,-0.000454386,-0.00136115,0.000476023,-4.58167e-05,0.000144515,-0.000827484,0,0,0,0,0,0,0,-0.152882,-10.0623,-0.484555,21.416,1.32234,1.31491,0.0844213,-0.139632,-0.934978,-0.0521631,2.85902,0.602643,-0.355428,0.0743715
5661741,0,-1.57063,-0.522921,-1.69836e-05,-2.09648,-0.000711362,1.57131,0.785177,-1.5708,-0.523598,-2.40999e-07,-2.0944,-9.94096e-07,1.5708,0.785397,0.000234124,-0.000302924,0.00020619,0.00089555,0.000376357,9.63436e-05,-0.000789015,0,0,0,0,0,0,0,-0.152882,-10.0623,-0.532163,21.3922,1.31136,1.31491,0.09083,-0.138948,-0.936163,-0.0512935,2.86175,0.602792,-0.355092,0.0743099
5661742,0,-1.57063,-0.522921,-1.50349e-05,-2.09648,-0.000713193,1.5713,0.785183,-1.5708,-0.523598,-2.40999e-07,-2.0944,-9.94096e-07,1.5708,0.785397,-0.000493532,-0.000201949,0.000787074,5.62638e-05,-0.000359447,6.42291e-05,0.00140677,0,0,0,0,0,0,0,-0.125111,-10.0623,-0.559934,21.416,1.32784,1.31491,0.038645,-0.13854,-0.937326,-0.0507922,2.86416,0.602921,-0.354801,0.0742358
5661743,0,-1.57063,-0.52292,-1.86542e-05,-2.09648,-0.000711362,1.57131,0.785179,-1.5708,-0.523598,-2.40999e-07,-2.0944,-9.94096e-07,1.5708,0.785397,0.000877405,0.000514981,-0.00068171,-0.000600073,0.00037072,0.000280178,-0.000282856,0,0,0,0,0,0,0,-0.176685,-10.0901,-0.508359,21.4438,1.31136,1.3085,0.071604,-0.138618,-0.93979,-0.0510339,2.86722,0.603037,-0.354467,0.0741661
5661744,0,-1.57063,-0.52292,-1.48532e-05,-2.09648,-0.000711362,1.57131,0.785182,-1.5708,-0.523598,-2.40999e-07,-2.0944,-9.94096e-07,1.5708,0.785397,-0.000621489,0.000343321,0.000102339,0.00137221,0.000247147,-0.000287932,0.000760865,0,0,0,0,0,0,0,-0.125111,-10.0901,-0.532163,21.3684,1.31136,1.32131,0.0459692,-0.138648,-0.943887,-0.0511218,2.87093,0.60316,-0.354099,0.0740784
5661745,0,-1.57063,-0.522921,-1.62736e-05,-2.09648,-0.000713193,1.57131,0.785178,-1.5708,-0.523598,-2.40999e-07,-2.0944,-9.94096e-07,1.5708,0.785397,0.000235288,-0.000420733,6.82258e-05,-0.000192047,-0.000445587,-0.000191955,-0.00091691,0,0,0,0,0,0,0,-0.152882,-10.0623,-0.532163,21.416,1.32784,1.32131,0.0844213,-0.138511,-0.947777,-0.050935,2.87409,0.603267,-0.353806,0.0739567
5661746,0,-1.57063,-0.522917,-1.6747e-05,-2.09648,-0.000713905,1.5713,0.785178,-1.5708,-0.523598,-2.40999e-07,-2.0944,-9.94096e-07,1.5708,0.785397,-0.000492755,0.000369125,4.54839e-05,-0.000122956,-0.000534417,-0.00012797,-0.000611274,0,0,0,0,0,0,0,-0.125111,-10.0901,-0.532163,21.416,1.33425,1.32131,0.0844213,-0.138367,-0.950959,-0.0507813,2.87679,0.60336,-0.353547,0.0738071
5661747,0,-1.57064,-0.522919,-1.85753e-05,-2.09648,-0.000712583,1.57131,0.785175,-1.5708,-0.523598,-2.40999e-07,-2.0944,-9.94096e-07,1.5708,0.785397,-0.000885316,0.000246083,-0.000526489,-0.000727777,8.45315e-05,-8.53133e-05,-0.00135695,0,0,0,0,0,0,0,-0.101307,-10.0901,-0.508359,21.4438,1.32234,1.32131,0.110056,-0.137819,-0.954701,-0.0501031,2.87993,0.603493,-0.35323,0.0736548
5661748,0,-1.57064,-0.522918,-1.28781e-05,-2.09648,-0.000712583,1.57131,0.78518,-1.5708,-0.523598,-2.40999e-07,-2.0944,-9.94096e-07,1.5708,0.785397,-0.00059021,0.000720868,0.000855433,0.000724096,5.63543e-05,-5.68755e-05,0.000756878,0,0,0,0,0,0,0,-0.101307,-10.1139,-0.559934,21.3922,1.32234,1.32131,0.0651953,-0.136851,-0.959137,-0.0489493,2.8833,0.603666,-0.35289,0.0735392
5661749,0,-1.57063,-0.522918,-1.62648e-05,-2.09648,-0.000711972,1.57131,0.785182,-1.5708,-0.523598,-2.40999e-07,-2.0944,-9.94096e-07,1.5708,0.785397,0.000812952,0.000480578,-7.93253e-05,-7.19398e-05,0.00024102,-0.000275276,0.00121666,0,0,0,0,0,0,0,-0.152882,-10.1139,-0.532163,21.416,1.31685,1.32772,0.0459692,-0.13639,-0.963577,-0.0486265,2.88626,0.60381,-0.352595,0.0734858
5661750,0,-1.57063,-0.522921,-2.0085e-05,-2.09648,-0.000710751,1.57131,0.785174,-1.5708,-0.523598,-2.40999e-07,-2.0944,-9.94096e-07,1.5708,0.785397,0.000541968,-0.00088604,-0.00116651,-0.000695968,0.000567581,5.38416e-05,-0.000850404,0,0,0,0,0,0,0,-0.152882,-10.0623,-0.484555,21.4438,1.30586,1.32131,0.09083,-0.136436,-0.966932,-0.0489164,2.88857,0.603914,-0.352338,0.0734657
5661751,0,-1.57063,-0.522918,-1.69039e-05,-2.09648,-0.000710751,1.57131,0.785176,-1.5708,-0.523598,-2.40999e-07,-2.0944,-9.94096e-07,1.5708,0.785397,-0.000288302,0.000615732,0.000335952,0.00018684,0.000378387,0.000273253,0.0003825,0,0,0,0,0,0,0,-0.125111,-10.1139,-0.532163,21.416,1.30586,1.31491,0.0651953,-0.136343,-0.968726,-0.0488489,2.89022,0.604003,-0.352103,0.0734423
5661752,0,-1.57063,-0.52292,-1.50083e-05,-2.09648,-0.000713193,1.57131,0.785174,-1.5708,-0.523598,-2.40999e-07,-2.0944,-9.94096e-07,1.5708,0.785397,-0.000192201,-0.000146324,0.000873582,0.000125463,-0.000561544,0.000182169,-0.00140651,0,0,0,0,0,0,0,-0.125111,-10.0901,-0.559934,21.416,1.32784,1.31491,0.110056,-0.136439,-0.969803,-0.0491382,2.89132,0.604051,-0.35192,0.073422
5661753,0,-1.57063,-0.522918,-1.69749e-05,-2.09648,-0.000713193,1.5713,0.785182,-1.5708,-0.523598,-2.40999e-07,-2.0944,-9.94096e-07,1.5708,0.785397,0.00052148,0.000459263,-6.72259e-05,-0.000565294,-0.000374363,-0.000115913,0.00143591,0,0,0,0,0,0,0,-0.152882,-10.1139,-0.532163,21.4438,1.32784,1.32131,0.0459692,-0.137072,-0.970815,-0.0503371,2.89222,0.604048,-0.35177,0.0734255
5661754,0,-1.57063,-0.52292,-1.86512e-05,-2.09648,-0.000711972,1.5713,0.785182,-1.5708,-0.523598,-2.40999e-07,-2.0944,-9.94096e-07,1.5708,0.785397,0.000347653,-0.000250637,-0.000601629,0.000273259,0.000157326,0.000397443,0.000957276,0,0,0,0,0,0,0,-0.152882,-10.0901,-0.508359,21.416,1.31685,1.3085,0.0459692,-0.137732,-0.971731,-0.0515147,2.89306,0.60403,-0.351635,0.0734541
5661755,0,-1.57064,-0.522921,-1.86532e-05,-2.09648,-0.000710751,1.57131,0.785183,-1.5708,-0.523598,-2.40999e-07,-2.0944,-9.94096e-07,1.5708,0.785397,-0.000417845,-0.000816705,-0.000401086,0.000182554,0.000511785,2.76028e-05,0.000909451,0,0,0,0,0,0,0,-0.125111,-10.0623,-0.508359,21.416,1.30586,1.31491,0.038645,-0.137801,-0.971204,-0.051712,2.89304,0.604022,-0.351586,0.0734666
5661756,0,-1.57064,-0.522918,-1.2904e-05,-2.09648,-0.000711362,1.57131,0.785179,-1.5708,-0.523598,-2.40999e-07,-2.0944,-9.94096e-07,1.5708,0.785397,-0.000835375,0.000661956,0.000939035,0.000121989,0.00013774,-0.000218957,-0.000614402,0,0,0,0,0,0,0,-0.101307,-10.1139,-0.559934,21.416,1.31136,1.32131,0.071604,-0.137414,-0.969446,-0.0513083,2.89222,0.604016,-0.35162,0.0734187
5661757,0,-1.57063,-0.522917,-1.43246e-05,-2.09648,-0.000711362,1.57131,0.785176,-1.5708,-0.523598,-2.40999e-07,-2.0944,-9.94096e-07,1.5708,0.785397,0.000649509,-0.000115508,0.000626023,-0.000568074,9.18263e-05,9.13875e-05,-0.0015964,0,0,0,0,0,0,0,-0.152882,-10.0901,-0.559934,21.4438,1.31136,1.31491,0.103647,-0.137464,-0.968606,-0.0517113,2.89187,0.603984,-0.351629,0.0733085
5661758,0,-1.57063,-0.522917,-1.62869e-05,-2.09648,-0.000713193,1.57131,0.78518,-1.5708,-0.523598,-2.40999e-07,-2.0944,-9.94096e-07,1.5708,0.785397,0.000433006,-7.70054e-05,-0.000789077,0.000271059,-0.000549134,6.0925e-05,0.00035989,0,0,0,0,0,0,0,-0.152882,-10.0901,-0.508359,21.416,1.32784,1.31491,0.0651953,-0.138057,-0.968481,-0.0528911,2.89199,0.603917,-0.351607,0.0731721
5661759,0,-1.57063,-0.522919,-1.7405e-05,-2.09648,-0.000713193,1.57131,0.785176,-1.5708,-0.523598,-2.40999e-07,-2.0944,-9.94096e-07,1.5708,0.785397,0.000288671,-5.13369e-05,-0.00108286,0.000737638,-0.000366089,0.000277976,2.56742e-06,0,0,0,0,0,0,0,-0.152882,-10.0901,-0.484555,21.3922,1.32784,1.3085,0.071604,-0.138147,-0.967804,-0.0531332,2.89162,0.60385,-0.351645,0.0730452
5661760,0,-1.57063,-0.522918,-1.55504e-05,-2.09648,-0.000713905,1.57131,0.78518,-1.5708,-0.523598,-2.40999e-07,-2.0944,-9.94096e-07,1.5708,0.785397,0.000192447,0.000522587,-0.000165097,-0.000714577,-0.000481418,0.000185317,0.000713788,0,0,0,0,0,0,0,-0.152882,-10.1139,-0.508359,21.4438,1.33425,1.3085,0.0523779,-0.137529,-0.967264,-0.0521516,2.8911,0.603819,-0.351725,0.072935
5661761,0,-1.57064,-0.522921,-1.54891e-05,-2.09648,-0.000712583,1.57131,0.785179,-1.5708,-0.523598,-2.40999e-07,-2.0944,-9.94096e-07,1.5708,0.785397,-0.000521316,-0.000858034,-0.000110065,-0.00103313,0.000119864,-0.000351173,0.000713218,0,0,0,0,0,0,0,-0.125111,-10.0623,-0.508359,21.4676,1.32234,1.32131,0.0459692,-0.136803,-0.967561,-0.050966,2.89137,0.603836,-0.351734,0.0728306
5661762,0,-1.57064,-0.522918,-1.59287e-05,-2.09648,-0.000712583,1.57131,0.785178,-1.5708,-0.523598,-2.40999e-07,-2.0944,-9.94096e-07,1.5708,0.785397,-0.000347544,0.000634403,0.000483436,0.000517724,7.99092e-05,3.2435e-06,-0.000473957,0,0,0,0,0,0,0,-0.125111,-10.1139,-0.532163,21.416,1.32234,1.31491,0.071604,-0.136241,-0.967946,-0.0500952,2.89207,0.603888,-0.3517,0.0727079
5661763,0,-1.57064,-0.522919,-1.66321e-05,-2.09648,-0.000711972,1.57131,0.785176,-1.5708,-0.523598,-2.40999e-07,-2.0944,-9.94096e-07,1.5708,0.785397,-0.000788508,-0.000133877,0.00032229,0.000902,0.000256723,2.16233e-06,-0.00126541,0,0,0,0,0,0,0,-0.101307,-10.0901,-0.532163,21.3922,1.31685,1.31491,0.0972387,-0.13592,-0.967934,-0.0496987,2.89218,0.60394,-0.351747,0.0725534
5661764,0,-1.57063,-0.522919,-1.27871e-05,-2.09648,-0.000711362,1.5713,0.785176,-1.5708,-0.523598,-2.40999e-07,-2.0944,-9.94096e-07,1.5708,0.785397,0.000680754,-0.000738865,0.000864474,-0.000605064,0.000374599,0.0002388,-0.00108096,0,0,0,0,0,0,0,-0.152882,-10.0623,-0.559934,21.4438,1.31136,1.3085,0.103647,-0.13614,-0.966925,-0.0501885,2.89147,0.603961,-0.351888,0.0723931
5661765,0,-1.57063,-0.522917,-1.21551e-05,-2.09648,-0.000711972,1.57131,0.785181,-1.5708,-0.523598,-2.40999e-07,-2.0944,-9.94096e-07,1.5708,0.785397,0.000453836,0.000157037,0.000576316,0.000803071,4.62824e-05,-7.81586e-05,0.00216157,0,0,0,0,0,0,0,-0.152882,-10.0901,-0.559934,21.3922,1.31685,1.31491,0.0258276,-0.13732,-0.964979,-0.052086,2.89038,0.603929,-0.352059,0.0722771
5661766,0,-1.57063,-0.52292,-1.76942e-05,-2.09648,-0.000711972,1.57131,0.785179,-1.5708,-0.523598,-2.40999e-07,-2.0944,-9.94096e-07,1.5708,0.785397,0.000302557,-0.000544922,-0.000822215,-0.000671029,3.08549e-05,-5.21057e-05,-1.70133e-05,0,0,0,0,0,0,0,-0.152882,-10.0623,-0.508359,21.4438,1.31685,1.31491,0.0651953,-0.138734,-0.963062,-0.0542409,2.88938,0.603872,-0.352226,0.0722081
5661767,0,-1.57063,-0.522918,-1.47149e-05,-2.09648,-0.000712583,1.57131,0.785181,-1.5708,-0.523598,-2.40999e-07,-2.0944,-9.94096e-07,1.5708,0.785397,0.000201705,0.000843144,0.000658282,-0.00100415,-0.000182881,0.000202622,0.000463376,0,0,0,0,0,0,0,-0.152882,-10.1139,-0.559934,21.4676,1.32234,1.3085,0.0523779,-0.139597,-0.962558,-0.0555098,2.88938,0.60385,-0.352299,0.0721395
5661768,0,-1.57063,-0.522919,-1.6417e-05,-2.09648,-0.000711362,1.5713,0.785175,-1.5708,-0.523598,-2.40999e-07,-2.0944,-9.94096e-07,1.5708,0.785397,0.00013447,5.28423e-06,-0.000767571,0.000537,0.000284981,-0.000576996,-0.00182731,0,0,0,0,0,0,0,-0.152882,-10.0901,-0.508359,21.416,1.31136,1.32772,0.110056,-0.140056,-0.963982,-0.0561511,2.89058,0.603863,-0.35227,0.0720449
5661769,0,-1.57063,-0.522918,-1.95789e-05,-2.09649,-0.000712583,1.57131,0.785174,-1.5708,-0.523598,-2.40999e-07,-2.0944,-9.94096e-07,1.5708,0.785397,-0.000559967,0.000560335,-0.00106853,-0.00140523,-0.000216914,9.00541e-05,-0.00169293,0,0,0,0,0,0,0,-0.125111,-10.1139,-0.484555,21.4914,1.32234,1.31491,0.122873,-0.139609,-0.966344,-0.0554018,2.8922,0.603923,-0.352207,0.071937
5661770,0,-1.57063,-0.522919,-1.84056e-05,-2.09648,-0.000711972,1.57131,0.785181,-1.5708,-0.523598,-2.40999e-07,-2.0944,-9.94096e-07,1.5708,0.785397,0.000276302,-0.000832869,-0.000155539,-0.000380004,5.88412e-05,-0.000177323,0.00148233,0,0,0,0,0,0,0,-0.152882,-10.0623,-0.508359,21.4676,1.31685,1.32131,0.0523779,-0.138257,-0.968649,-0.0532585,2.89405,0.604025,-0.352106,0.0718711
5661771,0,-1.57063,-0.522915,-1.28215e-05,-2.09648,-0.000711972,1.57131,0.785181,-1.5708,-0.523598,-2.40999e-07,-2.0944,-9.94096e-07,1.5708,0.785397,0.000184202,0.00065118,0.00110273,-0.000253332,3.92275e-05,-0.000355574,0.000750861,0,0,0,0,0,0,0,-0.152882,-10.1139,-0.559934,21.4676,1.31685,1.32772,0.0587866,-0.137483,-0.970073,-0.0519497,2.89565,0.604087,-0.352014,0.0718865
5661772,0,-1.57063,-0.522916,-1.79164e-05,-2.09648,-0.000712583,1.57131,0.785182,-1.5708,-0.523598,-2.40999e-07,-2.0944,-9.94096e-07,1.5708,0.785397,0.000122801,-0.000122692,-0.00047127,0.00215116,-0.000177299,3.09488e-07,0.000975292,0,0,0,0,0,0,0,-0.152882,-10.0901,-0.508359,21.3684,1.32234,1.32131,0.0459692,-0.137738,-0.97029,-0.0521478,2.89611,0.604062,-0.352046,0.0719471
5661773,0,-1.57063,-0.52292,-1.84082e-05,-2.09648,-0.000711972,1.57131,0.785176,-1.5708,-0.523598,-2.40999e-07,-2.0944,-9.94096e-07,1.5708,0.785397,8.18674e-05,-0.00128822,-0.00031418,-0.000329126,8.52513e-05,2.06325e-07,-0.00124868,0,0,0,0,0,0,0,-0.152882,-10.0385,-0.508359,21.4438,1.31685,1.32131,0.0972387,-0.13803,-0.968118,-0.0523265,2.8947,0.603991,-0.352251,0.0719926
5661774,0,-1.57063,-0.522917,-1.64417e-05,-2.09648,-0.000712583,1.57131,0.785178,-1.5708,-0.523598,-2.40999e-07,-2.0944,-9.94096e-07,1.5708,0.785397,-0.000595036,0.000904424,-0.000209453,-0.000219416,-0.000146616,1.3755e-07,-0.000357733,0,0,0,0,0,0,0,-0.125111,-10.1139,-0.508359,21.4438,1.32234,1.32131,0.0844213,-0.137849,-0.964877,-0.0517538,2.89283,0.603941,-0.352461,0.0720078
5661775,0,-1.57063,-0.522921,-1.57861e-05,-2.09648,-0.000712583,1.57131,0.785176,-1.5708,-0.523598,-2.40999e-07,-2.0944,-9.94096e-07,1.5708,0.785397,0.000252923,-0.000603477,-0.000139636,0.00106015,-9.77442e-05,9.17002e-08,-0.000713207,0,0,0,0,0,0,0,-0.152882,-10.0623,-0.508359,21.3922,1.32234,1.32131,0.0972387,-0.13742,-0.962846,-0.0508117,2.89173,0.603927,-0.35258,0.0720238
5661776,0,-1.57063,-0.522919,-1.55676e-05,-2.09648,-0.000712583,1.57131,0.78518,-1.5708,-0.523598,-2.40999e-07,-2.0944,-9.94096e-07,1.5708,0.785397,0.000725428,0.000247296,-9.30904e-05,0.000149956,-6.51628e-05,0.000746046,0.00193203,0,0,0,0,0,0,0,-0.176685,-10.0901,-0.508359,21.416,1.32234,1.30117,0.0322363,-0.137307,-0.961031,-0.0502392,2.89053,0.6039,-0.352706,0.0720707
5661777,0,-1.57063,-0.522917,-1.76253e-05,-2.09647,-0.000711972,1.57131,0.78518,-1.5708,-0.523598,-2.40999e-07,-2.0944,-9.94096e-07,1.5708,0.785397,-0.000722807,0.000164864,-6.20603e-05,0.00121359,0.000160009,-0.00048598,0.000542033,0,0,0,0,0,0,0,-0.125111,-10.0901,-0.508359,21.3684,1.31685,1.32772,0.0523779,-0.137533,-0.959352,-0.0500624,2.88918,0.60386,-0.35285,0.0721392
5661778,0,-1.57063,-0.522919,-1.46919e-05,-2.09648,-0.000711972,1.5713,0.785175,-1.5708,-0.523598,-2.40999e-07,-2.0944,-9.94096e-07,1.5708,0.785397,0.000167742,0.000109909,0.00116505,-0.00030456,0.000106672,0.000150731,-0.00177488,0,0,0,0,0,0,0,-0.152882,-10.0901,-0.559934,21.416,1.31685,1.31491,0.110056,-0.137984,-0.958447,-0.0502694,2.88816,0.603824,-0.352964,0.0721854
5661779,0,-1.57063,-0.522919,-1.85399e-05,-2.09648,-0.000711362,1.57131,0.78518,-1.5708,-0.523598,-2.40999e-07,-2.0944,-9.94096e-07,1.5708,0.785397,-0.000537786,7.3273e-05,-0.000429724,0.000910584,0.000274565,0.000100488,0.000478262,0,0,0,0,0,0,0,-0.125111,-10.0901,-0.508359,21.3684,1.31136,1.31491,0.0651953,-0.138711,-0.9581,-0.050982,2.88751,0.603791,-0.353028,0.0722013
5661780,0,-1.57063,-0.522918,-1.8156e-05,-2.09648,-0.000711972,1.57131,0.785175,-1.5708,-0.523598,-2.40999e-07,-2.0944,-9.94096e-07,1.5708,0.785397,-0.000358524,0.000605661,-0.000843295,-0.00171299,-2.04069e-05,6.69917e-05,-0.00134267,0,0,0,0,0,0,0,-0.125111,-10.1139,-0.484555,21.4676,1.31685,1.31491,0.110056,-0.138795,-0.958959,-0.0507751,2.88774,0.603807,-0.352991,0.072216
5661781,0,-1.57063,-0.522918,-1.41303e-05,-2.09648,-0.000713193,1.5713,0.785179,-1.5708,-0.523598,-2.40999e-07,-2.0944,-9.94096e-07,1.5708,0.785397,-0.000239016,0.000403774,0.000551427,6.44305e-05,-0.000420506,-0.000192698,0.00052904,0,0,0,0,0,0,0,-0.125111,-10.1139,-0.532163,21.416,1.32784,1.32131,0.071604,-0.138158,-0.961801,-0.0495272,2.88944,0.603881,-0.352801,0.072255
5661782,0,-1.57064,-0.522918,-1.24133e-05,-2.09648,-0.000711362,1.57131,0.785178,-1.5708,-0.523598,-2.40999e-07,-2.0944,-9.94096e-07,1.5708,0.785397,-0.000159344,0.000269182,0.00157404,4.29539e-05,0.000330014,0.000346253,0.00106477,0,0,0,0,0,0,0,-0.125111,-10.1139,-0.583737,21.416,1.31136,1.3085,0.0523779,-0.138202,-0.965216,-0.0494192,2.89154,0.603923,-0.352578,0.0723389
5661783,0,-1.57064,-0.522918,-1.62066e-05,-2.09648,-0.000710751,1.57131,0.78518,-1.5708,-0.523598,-2.40999e-07,-2.0944,-9.94096e-07,1.5708,0.785397,-0.000106229,0.000179455,-0.000713875,2.8636e-05,0.00042346,-0.000243883,0.000709847,0,0,0,0,0,0,0,-0.125111,-10.1139,-0.508359,21.416,1.30586,1.32131,0.0523779,-0.139003,-0.967728,-0.0505823,2.89295,0.603905,-0.352432,0.072447
5661784,0,-1.57063,-0.522921,-2.3128e-05,-2.09648,-0.000712583,1.5713,0.785177,-1.5708,-0.523598,-2.40999e-07,-2.0944,-9.94096e-07,1.5708,0.785397,0.000578794,-0.0016436,-0.00223915,1.90908e-05,-0.000328045,-0.000162589,-0.000950923,0,0,0,0,0,0,0,-0.152882,-10.0385,-0.432981,21.416,1.32234,1.32131,0.09083,-0.138945,-0.968064,-0.0503903,2.89319,0.603892,-0.352378,0.0725247
5661785,0,-1.57063,-0.522921,-1.67118e-05,-2.09648,-0.000711362,1.57131,0.785176,-1.5708,-0.523598,-2.40999e-07,-2.0944,-9.94096e-07,1.5708,0.785397,0.000385863,-0.000538922,0.00082728,1.27273e-05,0.000188205,0.000366326,-0.00110867,0,0,0,0,0,0,0,-0.152882,-10.0623,-0.532163,21.416,1.31136,1.3085,0.103647,-0.13807,-0.965231,-0.0487853,2.89191,0.603876,-0.352432,0.0725593
5661786,0,-1.57063,-0.522919,-1.85635e-05,-2.09648,-0.000711362,1.57131,0.785183,-1.5708,-0.523598,-2.40999e-07,-2.0944,-9.94096e-07,1.5708,0.785397,0.000814054,0.000290332,-5.2919e-06,0.000565297,0.00012547,-0.000230501,0.00166839,0,0,0,0,0,0,0,-0.176685,-10.0901,-0.508359,21.3922,1.31136,1.32131,0.038645,-0.138036,-0.961497,-0.048332,2.89009,0.603799,-0.352541,0.0725961
5661787,0,-1.57063,-0.522918,-1.8624e-05,-2.09648,-0.000712583,1.57131,0.785175,-1.5708,-0.523598,-2.40999e-07,-2.0944,-9.94096e-07,1.5708,0.785397,-1.41093e-05,0.000750367,-3.52793e-06,-0.000179947,-0.000323255,-0.000153667,-0.000583163,0,0,0,0,0,0,0,-0.152882,-10.1139,-0.508359,21.416,1.32234,1.32131,0.0844213,-0.138829,-0.959796,-0.0490522,2.88901,0.60368,-0.352617,0.0726551
5661788,0,-1.57063,-0.522918,-1.69737e-05,-2.09648,-0.000711972,1.5713,0.785182,-1.5708,-0.523598,-2.40999e-07,-2.0944,-9.94096e-07,1.5708,0.785397,-0.00065902,0.000500245,0.00055446,-0.00132639,-1.20525e-05,-0.000102445,0.00130665,0,0,0,0,0,0,0,-0.125111,-10.1139,-0.532163,21.4676,1.31685,1.32131,0.038645,-0.139539,-0.961156,-0.0496923,2.88958,0.603592,-0.352555,0.0727112
5661789,0,-1.57063,-0.522919,-1.48498e-05,-2.09648,-0.000712583,1.57131,0.78518,-1.5708,-0.523598,-2.40999e-07,-2.0944,-9.94096e-07,1.5708,0.785397,-0.000439347,-0.000223316,0.00036964,-0.000327449,-0.000211486,0.000406421,-0.000112247,0,0,0,0,0,0,0,-0.125111,-10.0901,-0.532163,21.4438,1.32234,1.3085,0.0651953,-0.140001,-0.964194,-0.0501366,2.89143,0.603549,-0.352365,0.0727417
5661790,0,-1.57063,-0.522919,-1.21931e-05,-2.09648,-0.000711972,1.57131,0.785174,-1.5708,-0.523598,-2.40999e-07,-2.0944,-9.94096e-07,1.5708,0.785397,-0.000292898,-0.000798491,0.000896041,0.000431315,6.24602e-05,-0.00020377,-0.0019737,0,0,0,0,0,0,0,-0.125111,-10.0623,-0.559934,21.416,1.31685,1.32131,0.116465,-0.140482,-0.965714,-0.0507764,2.8926,0.603502,-0.35223,0.0727278
5661791,0,-1.57063,-0.522921,-1.60365e-05,-2.09648,-0.000713905,1.57131,0.78518,-1.5708,-0.523598,-2.40999e-07,-2.0944,-9.94096e-07,1.5708,0.785397,0.000454349,-0.000532327,-5.22535e-05,0.000287543,-0.00060262,-0.000135847,0.00058307,0,0,0,0,0,0,0,-0.152882,-10.0623,-0.532163,21.416,1.33425,1.32131,0.0651953,-0.141188,-0.964318,-0.0518246,2.89206,0.60342,-0.352252,0.0726885
5661792,0,-1.57063,-0.522923,-1.6668e-05,-2.09648,-0.000711972,1.5713,0.785175,-1.5708,-0.523598,-2.40999e-07,-2.0944,-9.94096e-07,1.5708,0.785397,0.000302899,-0.000911697,-3.48357e-05,0.000191696,0.000242513,0.000146794,-0.000323364,0,0,0,0,0,0,0,-0.152882,-10.0385,-0.532163,21.416,1.31685,1.31491,0.0844213,-0.141918,-0.96095,-0.0528573,2.89035,0.603324,-0.352379,0.0726665
5661793,0,-1.57063,-0.522919,-1.80888e-05,-2.09648,-0.000711972,1.57131,0.785179,-1.5708,-0.523598,-2.40999e-07,-2.0944,-9.94096e-07,1.5708,0.785397,0.000201933,0.000598628,-0.00113685,0.00124142,0.000161676,0.000606489,0.000496501,0,0,0,0,0,0,0,-0.152882,-10.0901,-0.484555,21.3684,1.31685,1.30117,0.0651953,-0.142135,-0.95721,-0.0530123,2.88815,0.603258,-0.352568,0.0726681
5661794,0,-1.57063,-0.522916,-1.79089e-05,-2.09648,-0.000715778,1.57131,0.785175,-1.5708,-0.523598,-2.40999e-07,-2.0944,-9.94096e-07,1.5708,0.785397,0.000134622,0.000955897,-0.000201087,0.000270802,-9.56668e-05,-0.000341659,-0.000143717,0,0,0,0,0,0,0,-0.152882,-10.1139,-0.508359,21.3922,1.32234,1.32131,0.0780126,-0.141613,-0.955417,-0.0519528,2.8864,0.603244,-0.352761,0.0726852
5661795,0,-1.57064,-0.522917,-1.46048e-05,-2.09648,-0.000713648,1.57131,0.785175,-1.5708,-0.523598,-2.40999e-07,-2.0944,-9.94096e-07,1.5708,0.785397,-0.00111668,0.000637265,0.000422754,-0.000376277,-6.37779e-05,-0.000227773,0.000141547,0,0,0,0,0,0,0,-0.101307,-10.1139,-0.532163,21.416,1.32234,1.32131,0.071604,-0.140772,-0.956773,-0.0504576,2.88614,0.603282,-0.352843,0.0727146
5661796,0,-1.57063,-0.522923,-1.40602e-05,-2.09648,-0.000711717,1.57131,0.785169,-1.5708,-0.523598,-2.40999e-07,-2.0944,-9.94096e-07,1.5708,0.785397,0.000461974,-0.00133839,0.000281836,-0.000250852,0.000364382,-0.000389207,-0.00180451,0,0,0,0,0,0,0,-0.152882,-10.0385,-0.532163,21.416,1.31136,1.32772,0.122873,-0.140173,-0.958787,-0.0494889,2.88671,0.603342,-0.352821,0.0727518
5661797,0,-1.57064,-0.522916,-1.60092e-05,-2.09648,-0.00071148,1.57131,0.785175,-1.5708,-0.523598,-2.40999e-07,-2.0944,-9.94096e-07,1.5708,0.785397,-0.000341631,0.000870975,0.000187891,-0.000816848,0.000242922,0.000215246,-0.000253569,0,0,0,0,0,0,0,-0.125111,-10.1139,-0.532163,21.4438,1.31136,1.31491,0.0972387,-0.140077,-0.959767,-0.0493429,2.88731,0.60339,-0.352745,0.0728136
5661798,0,-1.57064,-0.522917,-1.66589e-05,-2.09648,-0.000711401,1.57131,0.785181,-1.5708,-0.523598,-2.40999e-07,-2.0944,-9.94096e-07,1.5708,0.785397,-0.000227754,0.00058065,0.000125261,0.000105048,0.000161948,-9.38614e-05,0.00271317,0,0,0,0,0,0,0,-0.125111,-10.1139,-0.532163,21.416,1.31136,1.32131,0.0194189,-0.140147,-0.961716,-0.0494936,2.88857,0.603433,-0.352596,0.0729359
5661799,0,-1.57063,-0.522921,-1.85459e-05,-2.09648,-0.000712596,1.57131,0.785179,-1.5708,-0.523598,-2.40999e-07,-2.0944,-9.94096e-07,1.5708,0.785397,0.00105459,-0.000819326,-0.000473305,-0.000579582,-0.000298936,-6.25743e-05,0.000350718,0,0,0,0,0,0,0,-0.176685,-10.0623,-0.508359,21.4438,1.32234,1.32131,0.0587866,-0.140207,-0.964047,-0.049616,2.88999,0.603457,-0.352433,0.0730985
5661800,0,-1.57064,-0.522921,-1.69476e-05,-2.09648,-0.000711366,1.5713,0.785182,-1.5708,-0.523598,-2.40999e-07,-2.0944,-9.94096e-07,1.5708,0.785397,-0.00106018,-0.000546217,0.000241275,0.000263226,0.00020761,0.000195643,0.00070853,0,0,0,0,0,0,0,-0.101307,-10.0623,-0.532163,21.416,1.31136,1.31491,0.0459692,-0.140244,-0.96419,-0.0496554,2.89038,0.603446,-0.352344,0.0732276
5661801,0,-1.57063,-0.522919,-1.86421e-05,-2.09648,-0.000712584,1.57131,0.785173,-1.5708,-0.523598,-2.40999e-07,-2.0944,-9.94096e-07,1.5708,0.785397,-0.000149973,0.000285469,-0.000395962,0.000175484,-0.000268494,-0.00010693,-0.00142652,0,0,0,0,0,0,0,-0.125111,-10.0901,-0.508359,21.416,1.32234,1.32131,0.0972387,-0.139863,-0.962787,-0.0491669,2.88985,0.603429,-0.352335,0.073281
5661802,0,-1.57064,-0.522919,-1.50309e-05,-2.09648,-0.000713193,1.57131,0.785177,-1.5708,-0.523598,-2.40999e-07,-2.0944,-9.94096e-07,1.5708,0.785397,-9.99823e-05,0.000190313,0.000942451,-0.000532625,-0.000382447,-7.1287e-05,-0.000476294,0,0,0,0,0,0,0,-0.125111,-10.0901,-0.559934,21.4438,1.32784,1.32131,0.0844213,-0.139402,-0.962002,-0.0486817,2.88948,0.603414,-0.352324,0.073275
5661803,0,-1.57063,-0.522921,-1.65223e-05,-2.09648,-0.000712583,1.57131,0.785181,-1.5708,-0.523598,-2.40999e-07,-2.0944,-9.94096e-07,1.5708,0.785397,0.00113977,-0.000522739,-0.000578125,0.000294531,-5.15139e-05,-4.75246e-05,0.000869265,0,0,0,0,0,0,0,-0.176685,-10.0623,-0.508359,21.416,1.32234,1.32131,0.0523779,-0.139557,-0.961748,-0.0490984,2.88944,0.603379,-0.352285,0.0732539
5661804,0,-1.57063,-0.52292,-1.41426e-05,-2.09648,-0.000711972,1.57131,0.785179,-1.5708,-0.523598,-2.40999e-07,-2.0944,-9.94096e-07,1.5708,0.785397,0.000203035,0.000301121,0.000171395,0.000196354,0.000169108,-3.16831e-05,-0.000132567,0,0,0,0,0,0,0,-0.152882,-10.0901,-0.532163,21.416,1.31685,1.32131,0.071604,-0.140147,-0.960983,-0.0500221,2.88907,0.603324,-0.352274,0.0732339
5661805,0,-1.57063,-0.522921,-1.55766e-05,-2.09648,-0.000711972,1.5713,0.785181,-1.5708,-0.523598,-2.40999e-07,-2.0944,-9.94096e-07,1.5708,0.785397,0.000692169,-0.000448866,-0.000442548,-0.00107552,0.000112739,0.000216237,0.000623699,0,0,0,0,0,0,0,-0.176685,-10.0623,-0.508359,21.4676,1.31685,1.31491,0.0523779,-0.140762,-0.960309,-0.0508474,2.88881,0.603283,-0.35225,0.0732005
5661806,0,-1.57064,-0.522916,-1.59579e-05,-2.09648,-0.000711362,1.5713,0.785175,-1.5708,-0.523598,-2.40999e-07,-2.0944,-9.94096e-07,1.5708,0.785397,-0.00130179,0.000907182,0.00026178,0.00048941,0.00027861,-0.00033056,-0.00172043,0,0,0,0,0,0,0,-0.101307,-10.1139,-0.532163,21.416,1.31136,1.32772,0.110056,-0.141,-0.960578,-0.051116,2.8892,0.603283,-0.352161,0.0731427
5661807,0,-1.57063,-0.522921,-1.46929e-05,-2.09648,-0.000710751,1.57131,0.785181,-1.5708,-0.523598,-2.40999e-07,-2.0944,-9.94096e-07,1.5708,0.785397,0.000895377,-0.000601638,0.000824134,0.000883086,0.00038919,1.69856e-05,0.000751917,0,0,0,0,0,0,0,-0.176685,-10.0623,-0.559934,21.3922,1.30586,1.32131,0.0587866,-0.141111,-0.960952,-0.0512945,2.88937,0.603282,-0.352107,0.0730738
5661808,0,-1.57063,-0.522921,-1.68698e-05,-2.09648,-0.000712583,1.57131,0.785174,-1.5708,-0.523598,-2.40999e-07,-2.0944,-9.94096e-07,1.5708,0.785397,0.000596918,-0.000401092,-0.000100191,3.19117e-05,-0.000350891,1.13238e-05,-0.000685516,0,0,0,0,0,0,0,-0.176685,-10.0623,-0.532163,21.416,1.32234,1.32131,0.09083,-0.14188,-0.959744,-0.0524196,2.88844,0.603212,-0.352156,0.073022
5661809,0,-1.57063,-0.522916,-1.28664e-05,-2.09648,-0.000712583,1.57131,0.785175,-1.5708,-0.523598,-2.40999e-07,-2.0944,-9.94096e-07,1.5708,0.785397,-0.000808481,0.000939031,0.00058282,2.12745e-05,-0.000233928,7.54917e-06,0.000255066,0,0,0,0,0,0,0,-0.125111,-10.1139,-0.559934,21.416,1.32234,1.32131,0.071604,-0.142843,-0.958334,-0.0537864,2.88744,0.603121,-0.3522,0.0729947
5661810,0,-1.57064,-0.522915,-1.21815e-05,-2.09648,-0.000711972,1.5713,0.785181,-1.5708,-0.523598,-2.40999e-07,-2.0944,-9.94096e-07,1.5708,0.785397,-0.0010958,0.000626021,0.000388546,0.000570995,4.74988e-05,5.03278e-06,0.00111948,0,0,0,0,0,0,0,-0.101307,-10.1139,-0.559934,21.3922,1.31685,1.32131,0.0459692,-0.143144,-0.958947,-0.0543552,2.8874,0.603077,-0.352167,0.0729895
