shamilmamedov/beam_handling/log/param_estimation_ICRA/impulse_Xdown_2.csv
duration, success rate, q[0], q[1], q[2], q[3], q[4], q[5], q[6],q_d[0], q_d[1], q_d[2], q_d[3], q_d[4], q_d[5], q_d[6],dq[0], dq[1], dq[2], dq[3], dq[4], dq[5], dq[6],dq_d[0], dq_d[1], dq_d[2], dq_d[3], dq_d[4], dq_d[5], dq_d[6],tau_J[0], tau_J[1], tau_J[2], tau_J[3], tau_J[4], tau_J[5], tau_J[6],tau_ext_hat_filtered[0], tau_ext_hat_filtered[1], tau_ext_hat_filtered[2], tau_ext_hat_filtered[3], tau_ext_hat_filtered[4], tau_ext_hat_filtered[5], tau_ext_hat_filtered[6]
5748333,0,-1.57062,-0.522867,-0.000443447,-2.09654,-1.56979,1.57143,0.785296,-1.5708,-0.523598,-1.29108e-06,-2.0944,-1.5708,1.5708,0.785397,0.000286195,0.000610074,0.000533746,0.00034304,0.000191225,3.13599e-05,-0.00306912,0,0,0,0,0,0,0,-0.204456,-10.2408,0.80878,21.5668,-1.39128,-0.366002,0.103647,-0.172363,-1.19443,0.656087,3.04769,-0.78412,-0.342681,-0.0112075
5754973,0,-1.57062,-0.522885,-0.000447067,-2.09652,-1.5698,1.57143,0.785304,-1.5708,-0.523598,-1.29108e-06,-2.0944,-1.5708,1.5708,0.785397,0.000327286,0.000547038,-0.000320507,0.000474995,0.000137575,0.000149943,0.000542129,0,0,0,0,0,0,0,-0.176685,-10.1654,0.860354,21.4914,-1.38579,-0.373326,0.0322363,-0.147962,-0.955063,0.674661,2.94845,-0.814414,-0.373369,-0.00722331
5754976,0,-1.57062,-0.522887,-0.000445118,-2.09652,-1.5698,1.57143,0.785301,-1.5708,-0.523598,-1.29108e-06,-2.0944,-1.5708,1.5708,0.785397,-0.000150498,-0.00010396,0.000740253,0.000408834,-4.44827e-06,-0.000305959,-0.000498699,0,0,0,0,0,0,0,-0.152882,-10.1377,0.832583,21.4914,-1.38029,-0.366002,0.0523779,-0.148023,-0.987119,0.677067,2.96282,-0.814919,-0.373552,-0.00706079
5754977,0,-1.57062,-0.522884,-0.000445118,-2.09652,-1.5698,1.57143,0.785306,-1.5708,-0.523598,-1.29108e-06,-2.0944,-1.5708,1.5708,0.785397,-0.000749946,0.00113192,0.000493502,-0.000284256,-0.000206416,6.72944e-05,0.00136295,0,0,0,0,0,0,0,-0.125111,-10.1892,0.832583,21.5152,-1.3748,-0.373326,0.00660151,-0.14833,-0.992554,0.6772,2.96483,-0.815012,-0.373597,-0.00698472
5754978,0,-1.57062,-0.522884,-0.000445118,-2.09652,-1.5698,1.57143,0.785309,-1.5708,-0.523598,-1.29108e-06,-2.0944,-1.5708,1.5708,0.785397,0.00014965,0.000750713,0.000329001,-0.000839118,0.00026929,0.000282222,0.000671278,0,0,0,0,0,0,0,-0.152882,-10.1892,0.832583,21.543,-1.38579,-0.379735,0.0130102,-0.149094,-0.999646,0.676562,2.96783,-0.815159,-0.373736,-0.00691848
5754979,0,-1.57062,-0.522885,-0.000447067,-2.09652,-1.5698,1.57143,0.785302,-1.5708,-0.523598,-1.29108e-06,-2.0944,-1.5708,1.5708,0.785397,9.97666e-05,-5.92614e-05,-0.00043028,0.000647014,0.000179527,-4.9211e-05,-0.0012479,0,0,0,0,0,0,0,-0.152882,-10.1654,0.860354,21.4914,-1.38579,-0.373326,0.0587866,-0.149942,-1.0071,0.675778,2.97119,-0.815323,-0.373898,-0.00689709
5754980,0,-1.57062,-0.522889,-0.000445118,-2.09652,-1.5698,1.57143,0.785306,-1.5708,-0.523598,-1.29108e-06,-2.0944,-1.5708,1.5708,0.785397,0.00127294,-0.00124813,0.000362761,-0.000125469,-8.37659e-05,-3.28073e-05,-8.59499e-05,0,0,0,0,0,0,0,-0.204456,-10.1139,0.832583,21.5152,-1.38029,-0.373326,0.038645,-0.150911,-1.0114,0.674813,2.97298,-0.815431,-0.374046,-0.00693851
5754981,0,-1.57062,-0.522889,-0.000448737,-2.09652,-1.5698,1.57143,0.785302,-1.5708,-0.523598,-1.29108e-06,-2.0944,-1.5708,1.5708,0.785397,-0.00100742,-0.00083373,-0.000964585,-0.00073326,0.000147607,-2.18716e-05,-0.000803285,0,0,0,0,0,0,0,-0.125111,-10.1139,0.884158,21.543,-1.38579,-0.373326,0.0587866,-0.151719,-1.0118,0.674053,2.97311,-0.815482,-0.374123,-0.00701101
5754982,0,-1.57062,-0.522889,-0.000443447,-2.09652,-1.5698,1.57143,0.785307,-1.5708,-0.523598,-1.29108e-06,-2.0944,-1.5708,1.5708,0.785397,-2.19962e-05,-0.000557054,0.00112018,0.0012744,-0.000511947,0.000222778,0.00139726,0,0,0,0,0,0,0,-0.152882,-10.1139,0.80878,21.4676,-1.36931,-0.379735,0.00660151,-0.151936,-1.00992,0.674031,2.97229,-0.815491,-0.374088,-0.0070801
5754983,0,-1.57062,-0.522885,-0.000443447,-2.09652,-1.5698,1.57143,0.785304,-1.5708,-0.523598,-1.29108e-06,-2.0944,-1.5708,1.5708,0.785397,-0.000664278,0.000834131,0.000746787,0.000292787,-0.000137848,-8.88403e-05,-0.00100128,0,0,0,0,0,0,0,-0.125111,-10.1654,0.80878,21.4914,-1.3748,-0.373326,0.0587866,-0.15231,-1.00783,0.673572,2.97093,-0.815486,-0.374095,-0.00713948
5754984,0,-1.57062,-0.522883,-0.000447248,-2.09652,-1.5698,1.57143,0.785311,-1.5708,-0.523598,-1.29108e-06,-2.0944,-1.5708,1.5708,0.785397,0.000206762,0.000555393,-5.89538e-05,-0.000361621,0.000518453,-5.92269e-05,0.00126526,0,0,0,0,0,0,0,-0.152882,-10.1654,0.832583,21.5152,-1.39128,-0.373326,0.00660151,-0.153029,-1.00804,0.672495,2.97047,-0.815518,-0.3742,-0.00719469
5754985,0,-1.57063,-0.522885,-0.000447777,-2.09652,-1.5698,1.57143,0.785304,-1.5708,-0.523598,-1.29108e-06,-2.0944,-1.5708,1.5708,0.785397,-0.00106858,0.000369742,-0.000688916,0.000315731,-0.000264716,-3.94846e-05,-0.00156399,0,0,0,0,0,0,0,-0.101307,-10.1654,0.860354,21.4914,-1.3748,-0.373326,0.071604,-0.153104,-1.01056,0.672351,2.97128,-0.815572,-0.374241,-0.0072515
5754986,0,-1.57062,-0.522885,-0.000447303,-2.09652,-1.5698,1.57143,0.785308,-1.5708,-0.523598,-1.29108e-06,-2.0944,-1.5708,1.5708,0.785397,0.000494036,0.000246104,-0.000459278,-0.000995938,-0.000176477,0.000211036,0.000178044,0,0,0,0,0,0,0,-0.152882,-10.1654,0.860354,21.543,-1.3748,-0.379735,0.038645,-0.152245,-1.01381,0.67357,2.97269,-0.81562,-0.374158,-0.00731034
5754987,0,-1.57062,-0.522885,-0.000445197,-2.09652,-1.5698,1.57143,0.785301,-1.5708,-0.523598,-1.29108e-06,-2.0944,-1.5708,1.5708,0.785397,-0.000320257,0.000163777,0.000343429,-1.43449e-05,0.000289249,-0.000605295,-0.000864648,0,0,0,0,0,0,0,-0.125111,-10.1654,0.832583,21.5152,-1.38579,-0.359594,0.0651953,-0.15129,-1.0172,0.674908,2.97448,-0.815676,-0.374067,-0.00735223
5754988,0,-1.57062,-0.522884,-0.000447093,-2.09652,-1.5698,1.57143,0.785308,-1.5708,-0.523598,-1.29108e-06,-2.0944,-1.5708,1.5708,0.785397,0.00043611,0.00694057,-0.000420661,-0.000659177,0.000192833,0.000105097,0.00088163,0,0,0,0,0,0,0,-0.152882,-10.1892,0.860354,21.543,-1.38579,-0.373326,0.0258276,-0.150844,-1.02532,0.67559,2.97847,-0.815823,-0.374112,-0.00734597
5754989,0,-1.57062,-0.522885,-0.000445127,-2.09652,-1.5698,1.57143,0.785301,-1.5708,-0.523598,-1.29108e-06,-2.0944,-1.5708,1.5708,0.785397,0.00029074,0.00459297,0.000369173,0.000766974,0.000128555,7.00644e-05,-0.000870309,0,0,0,0,0,0,0,-0.152882,-10.1654,0.832583,21.4914,-1.38579,-0.373326,0.0651953,-0.150995,-1.04349,0.675677,2.98661,-0.816131,-0.37437,-0.00727817
5754990,0,-1.57062,-0.52289,-0.00044345,-2.09652,-1.5698,1.57143,0.785305,-1.5708,-0.523598,-1.29108e-06,-2.0944,-1.5708,1.5708,0.785397,0.000193826,-0.0033398,0.000802927,-0.00069511,8.57035e-05,4.67096e-05,0.000877856,0,0,0,0,0,0,0,-0.152882,-10.1377,0.80878,21.543,-1.38579,-0.373326,0.0258276,-0.151826,-1.06124,0.674722,2.9943,-0.816451,-0.374724,-0.00718411
5754991,0,-1.57062,-0.522886,-0.000447068,-2.09652,-1.5698,1.57143,0.785302,-1.5708,-0.523598,-1.29108e-06,-2.0944,-1.5708,1.5708,0.785397,0.00133564,-0.0017949,-0.000671141,-0.000463406,-0.000146315,0.000268499,-0.000160748,0,0,0,0,0,0,0,-0.204456,-10.1654,0.860354,21.543,-1.38029,-0.379735,0.0459692,-0.152994,-1.06533,0.672895,2.99624,-0.816593,-0.374951,-0.00710401
5754992,0,-1.57062,-0.522886,-0.000447067,-2.09652,-1.5698,1.57143,0.785305,-1.5708,-0.523598,-1.29108e-06,-2.0944,-1.5708,1.5708,0.785397,0.000240815,-0.00136009,-0.000447427,0.000340676,-0.000300994,-5.83598e-05,0.000876179,0,0,0,0,0,0,0,-0.176685,-10.1654,0.860354,21.5152,-1.3748,-0.373326,0.0194189,-0.153841,-1.05833,0.671418,2.99352,-0.816571,-0.374982,-0.00704438
5754993,0,-1.57062,-0.522888,-0.000442987,-2.09652,-1.5698,1.57143,0.785301,-1.5708,-0.523598,-1.29108e-06,-2.0944,-1.5708,1.5708,0.785397,-0.000396269,-0.00167895,0.000351329,0.00134074,0.000206239,0.000198452,-0.000873943,0,0,0,0,0,0,0,-0.152882,-10.1377,0.832583,21.4676,-1.38579,-0.379735,0.0587866,-0.154068,-1.04632,0.670817,2.98818,-0.816433,-0.374857,-0.00700874
5754994,0,-1.57062,-0.522887,-0.000446357,-2.09652,-1.5698,1.57143,0.7853,-1.5708,-0.523598,-1.29108e-06,-2.0944,-1.5708,1.5708,0.785397,0.000292633,-0.00121126,-0.000415395,-0.000219796,0.000340943,-0.000376325,-0.000819987,0,0,0,0,0,0,0,-0.176685,-10.1377,0.860354,21.5152,-1.39128,-0.366002,0.0651953,-0.153882,-1.03219,0.670754,2.98143,-0.816229,-0.374642,-0.00699537
5754995,0,-1.57062,-0.522891,-0.000444881,-2.09652,-1.5698,1.57143,0.785303,-1.5708,-0.523598,-1.29108e-06,-2.0944,-1.5708,1.5708,0.785397,-0.000361723,-0.0019901,0.000372684,-0.000146531,2.38447e-05,-0.000250883,0.000436686,0,0,0,0,0,0,0,-0.152882,-10.0901,0.832583,21.5152,-1.38579,-0.366002,0.038645,-0.153516,-1.01841,0.670989,2.975,-0.816039,-0.374393,-0.00697354
5754996,0,-1.57062,-0.522887,-0.000446988,-2.09652,-1.5698,1.57143,0.785302,-1.5708,-0.523598,-1.29108e-06,-2.0944,-1.5708,1.5708,0.785397,0.000315663,-0.000264838,-0.000401158,-0.000747301,-0.000187554,0.000341371,1.98566e-05,0,0,0,0,0,0,0,-0.176685,-10.1377,0.860354,21.543,-1.38029,-0.379735,0.0459692,-0.153139,-1.0069,0.671354,2.97007,-0.815919,-0.374155,-0.00691547
5754997,0,-1.57062,-0.522884,-0.00044704,-2.09652,-1.5698,1.57143,0.785304,-1.5708,-0.523598,-1.29108e-06,-2.0944,-1.5708,1.5708,0.785397,0.000210442,0.000991071,-0.000267439,0.000708225,-0.000125036,-9.77836e-06,0.000759223,0,0,0,0,0,0,0,-0.176685,-10.1892,0.860354,21.4914,-1.38029,-0.373326,0.0258276,-0.152843,-1.00027,0.671862,2.96748,-0.815892,-0.37398,-0.00682255
5754998,0,-1.57062,-0.522885,-0.000443439,-2.09652,-1.5698,1.57143,0.785301,-1.5708,-0.523598,-1.29108e-06,-2.0944,-1.5708,1.5708,0.785397,0.000140295,7.48055e-05,0.00102813,0.00047215,0.000323544,-6.51891e-06,-0.000714554,0,0,0,0,0,0,0,-0.176685,-10.1654,0.80878,21.4914,-1.39128,-0.373326,0.0587866,-0.152989,-0.998648,0.671963,2.96679,-0.815941,-0.373932,-0.00671528
5754999,0,-1.57062,-0.522887,-0.000447064,-2.09652,-1.5698,1.57143,0.785306,-1.5708,-0.523598,-1.29108e-06,-2.0944,-1.5708,1.5708,0.785397,-0.0011129,-0.000621566,-0.000521004,-0.000242045,-0.000394656,-0.000275613,0.00145641,0,0,0,0,0,0,0,-0.125111,-10.1377,0.860354,21.5152,-1.3748,-0.366002,0.00660151,-0.153357,-0.998887,0.671746,2.96667,-0.81602,-0.373939,-0.00661166
5755000,0,-1.57062,-0.522887,-0.000445117,-2.09651,-1.5698,1.57143,0.785303,-1.5708,-0.523598,-1.29108e-06,-2.0944,-1.5708,1.5708,0.785397,-0.000741931,-0.000430744,0.000302278,0.00215869,-0.000263104,0.000324884,-0.0011992,0,0,0,0,0,0,0,-0.125111,-10.1377,0.832583,21.416,-1.3748,-0.379735,0.0651953,-0.153031,-0.998327,0.672408,2.96594,-0.816058,-0.373832,-0.00652615
5755001,0,-1.57062,-0.522884,-0.000447066,-2.09652,-1.5698,1.57143,0.785307,-1.5708,-0.523598,-1.29108e-06,-2.0944,-1.5708,1.5708,0.785397,0.000154993,0.000906988,-0.000448095,-0.000880926,0.000231498,-2.07695e-05,0.00137067,0,0,0,0,0,0,0,-0.152882,-10.1892,0.860354,21.5152,-1.38579,-0.373326,0.00660151,-0.152258,-0.997841,0.673659,2.96487,-0.816064,-0.373667,-0.00646644
5755002,0,-1.57062,-0.522887,-0.000445118,-2.09652,-1.5698,1.57143,0.7853,-1.5708,-0.523598,-1.29108e-06,-2.0944,-1.5708,1.5708,0.785397,0.000103329,-0.000610974,0.000350884,-0.000587284,0.000154332,0.000223513,-0.00149372,0,0,0,0,0,0,0,-0.152882,-10.1377,0.832583,21.5152,-1.38579,-0.379735,0.071604,-0.151814,-0.999612,0.674509,2.96523,-0.816124,-0.373583,-0.00642556
5755003,0,-1.57062,-0.522885,-0.000448737,-2.09652,-1.5698,1.57143,0.785308,-1.5708,-0.523598,-1.29108e-06,-2.0944,-1.5708,1.5708,0.785397,0.000625698,0.000235393,-0.000972503,0.000165289,-0.000100562,0.000149008,0.000936969,0,0,0,0,0,0,0,-0.176685,-10.1654,0.884158,21.4914,-1.38029,-0.379735,0.0194189,-0.151735,-1.00248,0.674933,2.96664,-0.816232,-0.373571,-0.00640174
5755004,0,-1.57062,-0.522885,-0.000445118,-2.09652,-1.5698,1.57143,0.785304,-1.5708,-0.523598,-1.29108e-06,-2.0944,-1.5708,1.5708,0.785397,-0.00013968,0.00015175,0.00055809,-0.000446619,-6.70415e-05,-0.00013802,-0.00107077,0,0,0,0,0,0,0,-0.152882,-10.1654,0.832583,21.5152,-1.38029,-0.373326,0.0651953,-0.151826,-1.00546,0.675189,2.96816,-0.816346,-0.373598,-0.00638691
5755005,0,-1.57062,-0.522887,-0.000445118,-2.09652,-1.5698,1.57143,0.78531,-1.5708,-0.523598,-1.29108e-06,-2.0944,-1.5708,1.5708,0.785397,-9.312e-05,-0.000552331,0.00037206,-0.000297746,0.000158756,-0.000363281,0.00121893,0,0,0,0,0,0,0,-0.152882,-10.1377,0.832583,21.5152,-1.38579,-0.366002,0.0130102,-0.152212,-1.00839,0.674962,2.96972,-0.816472,-0.373679,-0.00637112
5755006,0,-1.57062,-0.522884,-0.000447067,-2.09652,-1.5698,1.57143,0.785305,-1.5708,-0.523598,-1.29108e-06,-2.0944,-1.5708,1.5708,0.785397,-6.208e-05,0.000835292,-0.000401574,-0.000198497,-9.76131e-05,-0.000242187,0.000100543,0,0,0,0,0,0,0,-0.152882,-10.1892,0.860354,21.5152,-1.38029,-0.366002,0.0322363,-0.152684,-1.01108,0.674515,2.97123,-0.816602,-0.373771,-0.0063556
5755007,0,-1.57062,-0.522891,-0.000447067,-2.09652,-1.5698,1.57143,0.785303,-1.5708,-0.523598,-1.29108e-06,-2.0944,-1.5708,1.5708,0.785397,0.00116504,-0.00176537,-0.000267716,-0.000132332,-0.000471976,0.000109809,-0.00017033,0,0,0,0,0,0,0,-0.204456,-10.0901,0.860354,21.5152,-1.36931,-0.373326,0.038645,-0.15303,-1.01297,0.674308,2.97232,-0.816707,-0.373826,-0.00635926
5755008,0,-1.57062,-0.522883,-0.000445118,-2.09652,-1.5698,1.57143,0.785302,-1.5708,-0.523598,-1.29108e-06,-2.0944,-1.5708,1.5708,0.785397,-0.000429733,0.000584684,0.000471137,-8.8221e-05,0.000499151,7.32062e-05,-0.000384821,0,0,0,0,0,0,0,-0.152882,-10.1654,0.832583,21.5152,-1.39128,-0.373326,0.0459692,-0.153576,-1.01312,0.673869,2.97255,-0.816772,-0.373875,-0.00639529
5755009,0,-1.57063,-0.522885,-0.000445118,-2.09652,-1.5698,1.57143,0.785303,-1.5708,-0.523598,-1.29108e-06,-2.0944,-1.5708,1.5708,0.785397,-0.00149291,0.00038856,0.000314091,0.000497998,-0.000277584,4.88041e-05,1.47202e-05,0,0,0,0,0,0,0,-0.101307,-10.1654,0.832583,21.4914,-1.3748,-0.373326,0.038645,-0.153987,-1.01346,0.673516,2.97267,-0.816818,-0.373901,-0.00644562
5755010,0,-1.57062,-0.522887,-0.000445118,-2.09652,-1.5698,1.57143,0.785305,-1.5708,-0.523598,-1.29108e-06,-2.0944,-1.5708,1.5708,0.785397,0.000211149,-0.000391495,0.000209394,-0.000224813,1.83944e-05,-0.000238731,0.00072189,0,0,0,0,0,0,0,-0.152882,-10.1377,0.832583,21.5152,-1.38029,-0.366002,0.0194189,-0.153921,-1.01457,0.673664,2.97292,-0.816848,-0.373867,-0.00649473
5755011,0,-1.57062,-0.522885,-0.000445118,-2.09653,-1.5698,1.57143,0.785301,-1.5708,-0.523598,-1.29108e-06,-2.0944,-1.5708,1.5708,0.785397,-0.000508848,0.000387926,0.000139596,-0.0013563,-0.000394638,-0.000159154,-0.000739443,0,0,0,0,0,0,0,-0.125111,-10.1654,0.832583,21.5668,-1.36931,-0.366002,0.0523779,-0.153774,-1.01595,0.673837,2.97357,-0.816887,-0.373822,-0.00654617
5755012,0,-1.57062,-0.522885,-0.000445118,-2.09652,-1.5698,1.57143,0.785304,-1.5708,-0.523598,-1.29108e-06,-2.0944,-1.5708,1.5708,0.785397,-0.000339232,0.000258099,9.3064e-05,-0.000347389,-0.000263092,-0.000343462,0.000253023,0,0,0,0,0,0,0,-0.125111,-10.1654,0.832583,21.543,-1.36931,-0.359594,0.0322363,-0.153576,-1.01852,0.67403,2.97528,-0.816952,-0.373774,-0.00660279
5755013,0,-1.57063,-0.522885,-0.000445118,-2.09652,-1.5698,1.57143,0.7853,-1.5708,-0.523598,-1.29108e-06,-2.0944,-1.5708,1.5708,0.785397,-0.000782966,0.000171677,6.20427e-05,0.000974833,2.80558e-05,0.000279652,-0.00105202,0,0,0,0,0,0,0,-0.101307,-10.1654,0.832583,21.4914,-1.3748,-0.373326,0.0651953,-0.153098,-1.02119,0.674489,2.97692,-0.81698,-0.37368,-0.00666208
5755014,0,-1.57062,-0.522885,-0.000448737,-2.09652,-1.5698,1.57143,0.785304,-1.5708,-0.523598,-1.29108e-06,-2.0944,-1.5708,1.5708,0.785397,0.000684448,0.00011416,-0.00116506,9.30769e-05,0.000222154,0.000186435,0.000519356,0,0,0,0,0,0,0,-0.152882,-10.1654,0.884158,21.5152,-1.38029,-0.373326,0.0322363,-0.152267,-1.0226,0.675371,2.97742,-0.816922,-0.373519,-0.00671575
5755015,0,-1.57062,-0.522884,-0.000443447,-2.09652,-1.5698,1.57143,0.785301,-1.5708,-0.523598,-1.29108e-06,-2.0944,-1.5708,1.5708,0.785397,0.000456299,0.0006327,0.000986528,6.20512e-05,0.000148103,0.000599008,-0.000399748,0,0,0,0,0,0,0,-0.152882,-10.1892,0.80878,21.5152,-1.38029,-0.386144,0.0523779,-0.151708,-1.02369,0.675901,2.97753,-0.816833,-0.373401,-0.00674818
5755016,0,-1.57062,-0.522882,-0.000445118,-2.09652,-1.5698,1.57143,0.785304,-1.5708,-0.523598,-1.29108e-06,-2.0944,-1.5708,1.5708,0.785397,0.000861011,0.000978448,0.000100874,4.13675e-05,9.87353e-05,0.000161979,0.000479487,0,0,0,0,0,0,0,-0.176685,-10.213,0.832583,21.5152,-1.38029,-0.379735,0.0322363,-0.152279,-1.02587,0.674823,2.97816,-0.816786,-0.373482,-0.00675367
5755017,0,-1.57062,-0.522884,-0.000447067,-2.09652,-1.5698,1.57143,0.785304,-1.5708,-0.523598,-1.29108e-06,-2.0944,-1.5708,1.5708,0.785397,0.00122362,9.53635e-05,-0.000582365,2.75783e-05,-0.000137627,-0.00040064,-0.000663686,0,0,0,0,0,0,0,-0.204456,-10.1892,0.860354,21.5152,-1.3748,-0.366002,0.0587866,-0.15354,-1.02881,0.672843,2.97916,-0.81677,-0.373691,-0.00673864
5755018,0,-1.57063,-0.522887,-0.000448737,-2.09653,-1.5698,1.57143,0.785306,-1.5708,-0.523598,-1.29108e-06,-2.0944,-1.5708,1.5708,0.785397,-0.00104029,-0.00114294,-0.000945055,-0.00118804,0.000111699,4.17402e-06,-0.000205099,0,0,0,0,0,0,0,-0.125111,-10.1377,0.884158,21.5668,-1.38029,-0.373326,0.0523779,-0.154073,-1.03042,0.672041,2.97987,-0.816727,-0.373772,-0.00670859
5755019,0,-1.57062,-0.522887,-0.000447067,-2.09652,-1.5698,1.57143,0.785307,-1.5708,-0.523598,-1.29108e-06,-2.0944,-1.5708,1.5708,0.785397,-4.39142e-05,-0.000762031,-7.32248e-05,0.000971211,0.000277917,0.000240142,0.00132133,0,0,0,0,0,0,0,-0.152882,-10.1377,0.860354,21.4914,-1.38579,-0.379735,0.0130102,-0.153317,-1.02905,0.673065,2.97953,-0.816616,-0.373619,-0.00666007
5755020,0,-1.57062,-0.522887,-0.000447067,-2.09653,-1.5698,1.57143,0.785306,-1.5708,-0.523598,-1.29108e-06,-2.0944,-1.5708,1.5708,0.785397,-2.92761e-05,-0.000508072,-4.88166e-05,-0.00111576,0.00891319,0.000160094,-0.000339817,0,0,0,0,0,0,0,-0.152882,-10.1377,0.860354,21.5668,-1.3748,-0.379735,0.0459692,-0.15231,-1.02572,0.67438,2.97838,-0.816509,-0.373399,-0.00660765
5755021,0,-1.57062,-0.522887,-0.000448737,-2.09652,-1.5698,1.57143,0.785305,-1.5708,-0.523598,-1.29108e-06,-2.0944,-1.5708,1.5708,0.785397,-1.95174e-05,-0.000338754,-0.000589356,-0.000187031,0.00649991,0.00010673,0.000282082,0,0,0,0,0,0,0,-0.152882,-10.1377,0.884158,21.543,-1.36931,-0.379735,0.0322363,-0.151666,-1.02287,0.675211,2.9778,-0.816509,-0.373224,-0.00657858
5755022,0,-1.57062,-0.522885,-0.000447067,-2.09652,-1.5698,1.57143,0.7853,-1.5708,-0.523598,-1.29108e-06,-2.0944,-1.5708,1.5708,0.785397,-1.30116e-05,0.000423749,0.000163908,0.000524927,0.0049042,7.11531e-05,-0.00127001,0,0,0,0,0,0,0,-0.152882,-10.1654,0.860354,21.5152,-1.36931,-0.379735,0.071604,-0.151216,-1.02134,0.675867,2.97794,-0.816575,-0.373095,-0.00657279
5755023,0,-1.57062,-0.522885,-0.000443447,-2.09653,-1.5698,1.57143,0.785304,-1.5708,-0.523598,-1.29108e-06,-2.0944,-1.5708,1.5708,0.785397,-0.000658288,0.000282477,0.0013157,-0.000856475,0.00410456,-0.000189924,0.00061139,0,0,0,0,0,0,0,-0.125111,-10.1654,0.80878,21.5668,-1.38029,-0.373326,0.0322363,-0.151325,-1.0214,0.675712,2.97858,-0.81665,-0.373098,-0.00656412
5755024,0,-1.57063,-0.522887,-0.000443447,-2.09652,-1.5698,1.57143,0.7853,-1.5708,-0.523598,-1.29108e-06,-2.0944,-1.5708,1.5708,0.785397,-0.000995671,-0.000461312,0.000877132,0.000635443,0.00346442,-0.000397883,-0.00081311,0,0,0,0,0,0,0,-0.101307,-10.1377,0.80878,21.5152,-1.39128,-0.366002,0.0651953,-0.152035,-1.02224,0.674472,2.97952,-0.816714,-0.373233,-0.00653076
5755025,0,-1.57062,-0.522885,-0.000445118,-2.09652,-1.5698,1.57143,0.78531,-1.5708,-0.523598,-1.29108e-06,-2.0944,-1.5708,1.5708,0.785397,-0.000106969,0.00034206,2.79426e-05,0.000423629,0.00194012,0.000243371,0.00162807,0,0,0,0,0,0,0,-0.125111,-10.1654,0.832583,21.5152,-1.3748,-0.379735,0.00660151,-0.152687,-1.02234,0.67309,2.97983,-0.816718,-0.373381,-0.00647098
5755026,0,-1.57062,-0.522887,-0.000445118,-2.09652,-1.5698,1.57143,0.785302,-1.5708,-0.523598,-1.29108e-06,-2.0944,-1.5708,1.5708,0.785397,0.00113511,-0.000421583,1.86284e-05,-0.000367195,0.00188096,-0.000346379,-0.000610044,0,0,0,0,0,0,0,-0.176685,-10.1377,0.832583,21.543,-1.38579,-0.366002,0.0523779,-0.153203,-1.022,0.671914,2.97968,-0.816674,-0.373526,-0.00639689
5755027,0,-1.57062,-0.522887,-0.000448737,-2.09652,-1.5698,1.57143,0.785307,-1.5708,-0.523598,-1.29108e-06,-2.0944,-1.5708,1.5708,0.785397,-0.000449684,-0.000281062,-0.00119401,-0.000244797,0.000575655,-0.000230919,0.000339289,0,0,0,0,0,0,0,-0.125111,-10.1377,0.884158,21.543,-1.36381,-0.366002,0.0322363,-0.153367,-1.02155,0.671402,2.97967,-0.816603,-0.373622,-0.00632953
5755028,0,-1.57062,-0.522884,-0.000447067,-2.09652,-1.5698,1.57143,0.785301,-1.5708,-0.523598,-1.29108e-06,-2.0944,-1.5708,1.5708,0.785397,0.000906637,0.00101905,-0.000239193,-0.000163198,0.00129918,0.000117321,-0.00099451,0,0,0,0,0,0,0,-0.176685,-10.1892,0.860354,21.543,-1.38579,-0.373326,0.0651953,-0.15278,-1.02179,0.672147,2.98016,-0.816509,-0.373605,-0.00627346
5755029,0,-1.57062,-0.522887,-0.000447067,-2.09652,-1.5698,1.57143,0.785307,-1.5708,-0.523598,-1.29108e-06,-2.0944,-1.5708,1.5708,0.785397,-0.000602001,-0.000527066,-0.000159462,0.00109763,0.000738882,7.82141e-05,0.00150713,0,0,0,0,0,0,0,-0.125111,-10.1377,0.860354,21.4914,-1.38029,-0.373326,0.00660151,-0.151985,-1.02278,0.673286,2.9808,-0.816395,-0.373557,-0.00621928
5755030,0,-1.57062,-0.522887,-0.000441499,-2.09652,-1.5698,1.57143,0.785307,-1.5708,-0.523598,-1.29108e-06,-2.0944,-1.5708,1.5708,0.785397,0.00024828,-0.00035138,0.00174973,0.000731752,0.000346294,0.000289502,5.5319e-05,0,0,0,0,0,0,0,-0.152882,-10.1377,0.781009,21.4914,-1.3748,-0.379735,0.0322363,-0.151772,-1.02217,0.673428,2.9802,-0.816247,-0.37358,-0.00617416
5755031,0,-1.57062,-0.522885,-0.000443447,-2.09652,-1.5698,1.57143,0.785306,-1.5708,-0.523598,-1.29108e-06,-2.0944,-1.5708,1.5708,0.785397,0.000722332,-0.000234256,0.000516874,0.000487834,7.02801e-05,-0.000315625,-0.000471747,0,0,0,0,0,0,0,-0.176685,-10.1377,0.80878,21.4914,-1.36931,-0.366002,0.0459692,-0.152746,-1.01981,0.671635,2.97846,-0.816096,-0.373763,-0.00616007
5755032,0,-1.57062,-0.522887,-0.000443447,-2.09652,-1.5698,1.57143,0.785304,-1.5708,-0.523598,-1.29108e-06,-2.0944,-1.5708,1.5708,0.785397,-7.52574e-05,-0.000156172,0.000344583,-0.000231589,0.000282455,0.00029821,-4.32306e-05,0,0,0,0,0,0,0,-0.152882,-10.1377,0.80878,21.5152,-1.3748,-0.379735,0.038645,-0.154316,-1.0175,0.668934,2.97688,-0.815967,-0.37403,-0.00617823
5755033,0,-1.57062,-0.522885,-0.000449197,-2.09652,-1.5698,1.57143,0.785307,-1.5708,-0.523598,-1.29108e-06,-2.0944,-1.5708,1.5708,0.785397,-0.000699786,0.000545498,-0.000976704,-0.000154393,0.000212416,-3.85526e-05,0.000208539,0,0,0,0,0,0,0,-0.125111,-10.1654,0.860354,21.5152,-1.3748,-0.373326,0.0322363,-0.154941,-1.01662,0.667659,2.97633,-0.815845,-0.374157,-0.00620784
5755034,0,-1.57062,-0.522885,-0.000444158,-2.09652,-1.5698,1.57143,0.785303,-1.5708,-0.523598,-1.29108e-06,-2.0944,-1.5708,1.5708,0.785397,-0.000466524,-0.00588898,0.00055529,0.000453883,0.000363146,-2.57017e-05,-0.000369601,0,0,0,0,0,0,0,-0.125111,-10.1654,0.80878,21.4914,-1.38029,-0.373326,0.0459692,-0.154163,-1.01282,0.6683,2.97478,-0.815647,-0.374029,-0.00625412
5755035,0,-1.57062,-0.522885,-0.000447303,-2.09652,-1.5698,1.57143,0.785303,-1.5708,-0.523598,-1.29108e-06,-2.0944,-1.5708,1.5708,0.785397,0.000338598,-0.00444704,-0.000836233,0.000302589,0.000255661,-1.71345e-05,-0.00119584,0,0,0,0,0,0,0,-0.152882,-10.1654,0.860354,21.4914,-1.38029,-0.373326,0.071604,-0.152725,-0.999311,0.669576,2.96897,-0.815283,-0.373678,-0.00633421
5755036,0,-1.57062,-0.522885,-0.000447146,-2.09652,-1.5698,1.57143,0.785309,-1.5708,-0.523598,-1.29108e-06,-2.0944,-1.5708,1.5708,0.785397,-0.000423882,-0.00335548,-0.000557488,-0.0010047,0.000384064,0.000225936,0.000898197,0,0,0,0,0,0,0,-0.125111,-10.1654,0.860354,21.543,-1.38579,-0.379735,0.0258276,-0.15095,-0.98,0.671224,2.96078,-0.814838,-0.373202,-0.00641623
5755037,0,-1.57062,-0.522885,-0.000448763,-2.09652,-1.5698,1.57143,0.785305,-1.5708,-0.523598,-1.29108e-06,-2.0944,-1.5708,1.5708,0.785397,0.000923838,-0.00253008,-0.000928471,0.000536626,-0.000143229,0.000150624,-0.000621905,0,0,0,0,0,0,0,-0.176685,-10.1654,0.884158,21.4914,-1.3748,-0.379735,0.0587866,-0.148978,-0.962734,0.67334,2.95373,-0.814445,-0.372722,-0.00646066
5755038,0,-1.57062,-0.522884,-0.000445127,-2.09652,-1.5698,1.57143,0.785302,-1.5708,-0.523598,-1.29108e-06,-2.0944,-1.5708,1.5708,0.785397,0.000615892,-0.00134973,0.000587445,-0.000199061,0.000317137,-0.000136943,-0.000414603,0,0,0,0,0,0,0,-0.176685,-10.1892,0.832583,21.5152,-1.38579,-0.373326,0.0587866,-0.147736,-0.950579,0.674688,2.94877,-0.814161,-0.372423,-0.00646577
5755039,0,-1.57062,-0.522885,-0.00044707,-2.09652,-1.5698,1.57143,0.785303,-1.5708,-0.523598,-1.29108e-06,-2.0944,-1.5708,1.5708,0.785397,0.000410595,-0.0016215,-0.000257984,0.000424104,1.2266e-05,-9.12953e-05,0.000198316,0,0,0,0,0,0,0,-0.176685,-10.1654,0.860354,21.4914,-1.38029,-0.373326,0.0459692,-0.147653,-0.94422,0.674614,2.94606,-0.814004,-0.372374,-0.00642629
5755040,0,-1.57062,-0.522883,-0.000445119,-2.09652,-1.5698,1.57143,0.78531,-1.5708,-0.523598,-1.29108e-06,-2.0944,-1.5708,1.5708,0.785397,-0.000283082,-0.00120465,0.000477625,0.000282736,1.1396e-05,-6.08635e-05,0.00159027,0,0,0,0,0,0,0,-0.152882,-10.1654,0.832583,21.4914,-1.38029,-0.373326,0.00660151,-0.148103,-0.942316,0.673926,2.94501,-0.813941,-0.372458,-0.00633842
5755041,0,-1.57062,-0.522885,-0.000443448,-2.09652,-1.5698,1.57143,0.785307,-1.5708,-0.523598,-1.29108e-06,-2.0944,-1.5708,1.5708,0.785397,-0.000188721,-0.000895834,0.000875228,0.000745303,1.00114e-05,-4.05757e-05,0.000822823,0,0,0,0,0,0,0,-0.152882,-10.1654,0.80878,21.4676,-1.38029,-0.373326,0.0130102,-0.148808,-0.943526,0.672903,2.94498,-0.813941,-0.372618,-0.00623228
5755042,0,-1.57062,-0.522887,-0.000443448,-2.09652,-1.5698,1.57143,0.785305,-1.5708,-0.523598,-1.29108e-06,-2.0944,-1.5708,1.5708,0.785397,0.000430998,-0.00131639,0.000583486,-5.99434e-05,8.48478e-06,-2.70505e-05,-0.000909514,0,0,0,0,0,0,0,-0.176685,-10.1377,0.80878,21.4914,-1.38029,-0.373326,0.0523779,-0.149999,-0.946984,0.671159,2.94572,-0.813997,-0.372872,-0.00615955
5755043,0,-1.57062,-0.522884,-0.000448737,-2.09652,-1.5698,1.57143,0.785308,-1.5708,-0.523598,-1.29108e-06,-2.0944,-1.5708,1.5708,0.785397,-0.00026948,0.000276669,-0.00137425,-0.000596774,7.01442e-06,0.000219325,0.00108908,0,0,0,0,0,0,0,-0.152882,-10.1892,0.884158,21.5152,-1.38029,-0.379735,0.00660151,-0.150962,-0.952924,0.66989,2.94775,-0.814102,-0.373109,-0.00613752
5755044,0,-1.57062,-0.522885,-0.000445118,-2.09652,-1.5698,1.57143,0.785303,-1.5708,-0.523598,-1.29108e-06,-2.0944,-1.5708,1.5708,0.785397,-0.000829267,-0.000411489,0.000290261,0.000158962,5.6947e-06,-9.11421e-05,-0.000460742,0,0,0,0,0,0,0,-0.125111,-10.1654,0.832583,21.4914,-1.38029,-0.373326,0.038645,-0.150777,-0.961834,0.670476,2.95141,-0.81424,-0.373197,-0.00615506
5755045,0,-1.57062,-0.522885,-0.000441499,-2.09652,-1.5698,1.57143,0.785311,-1.5708,-0.523598,-1.29108e-06,-2.0944,-1.5708,1.5708,0.785397,0.000653581,-0.000303669,0.00139993,0.000105975,-0.00019889,-6.07614e-05,0.00135435,0,0,0,0,0,0,0,-0.176685,-10.1654,0.781009,21.4914,-1.3748,-0.373326,-0.00621587,-0.15058,-0.971793,0.671041,2.95551,-0.814401,-0.373298,-0.00621838
5755046,0,-1.57062,-0.522887,-0.000445118,-2.09652,-1.5698,1.57143,0.785306,-1.5708,-0.523598,-1.29108e-06,-2.0944,-1.5708,1.5708,0.785397,0.000435721,-0.000874066,-0.000273137,7.065e-05,7.14299e-05,-4.05076e-05,-0.00126724,0,0,0,0,0,0,0,-0.176685,-10.1377,0.832583,21.4914,-1.38029,-0.373326,0.0523779,-0.151472,-0.980766,0.669937,2.95902,-0.814574,-0.373552,-0.0063413
5755047,0,-1.57062,-0.522885,-0.000445118,-2.09652,-1.5698,1.57143,0.785308,-1.5708,-0.523598,-1.29108e-06,-2.0944,-1.5708,1.5708,0.785397,-0.000915945,5.03979e-05,-0.000182091,0.000603912,4.80496e-05,-2.70051e-05,0.000850596,0,0,0,0,0,0,0,-0.125111,-10.1654,0.832583,21.4676,-1.38029,-0.373326,0.00660151,-0.152253,-0.988426,0.668983,2.96178,-0.814713,-0.373767,-0.0065237
5755048,0,-1.57062,-0.522891,-0.000448737,-2.09652,-1.5698,1.57143,0.785299,-1.5708,-0.523598,-1.29108e-06,-2.0944,-1.5708,1.5708,0.785397,-0.00061063,-0.00174202,-0.00132782,-0.00136063,-0.000171095,-0.000289271,-0.00207779,0,0,0,0,0,0,0,-0.125111,-10.0901,0.884158,21.543,-1.3748,-0.366002,0.0780126,-0.151595,-0.994758,0.670078,2.96409,-0.814792,-0.373739,-0.00674715
5755049,0,-1.57063,-0.522885,-0.000442987,-2.09652,-1.5698,1.57143,0.785306,-1.5708,-0.523598,-1.29108e-06,-2.0944,-1.5708,1.5708,0.785397,-0.000963899,0.000592608,0.000321212,0.000299339,8.96287e-05,7.84202e-05,0.0010223,0,0,0,0,0,0,0,-0.101307,-10.1654,0.832583,21.4914,-1.38029,-0.373326,0.0130102,-0.149763,-1.00023,0.672796,2.96644,-0.814841,-0.373517,-0.00698081
5755050,0,-1.57062,-0.522887,-0.000444408,-2.09652,-1.5698,1.57143,0.785305,-1.5708,-0.523598,-1.29108e-06,-2.0944,-1.5708,1.5708,0.785397,0.000563827,-0.000261505,0.000214142,0.000756371,5.99337e-05,0.000526998,-0.000539168,0,0,0,0,0,0,0,-0.152882,-10.1377,0.832583,21.4676,-1.38029,-0.386144,0.0459692,-0.148246,-1.00578,0.674949,2.96869,-0.814893,-0.37335,-0.00719668
5755051,0,-1.57062,-0.522884,-0.000443211,-2.09652,-1.5698,1.57143,0.785308,-1.5708,-0.523598,-1.29108e-06,-2.0944,-1.5708,1.5708,0.785397,-0.000273729,0.00102687,0.000699573,-0.00125899,0.000243542,-0.000123386,0.000149181,0,0,0,0,0,0,0,-0.125111,-10.1892,0.80878,21.543,-1.38579,-0.373326,0.0322363,-0.14797,-1.01227,0.675224,2.97116,-0.814986,-0.373401,-0.00738905
5755052,0,-1.57062,-0.522885,-0.000445039,-2.09652,-1.5698,1.57143,0.785301,-1.5708,-0.523598,-1.29108e-06,-2.0944,-1.5708,1.5708,0.785397,-0.000182486,-0.000525765,-9.04299e-05,0.000367099,-4.0987e-05,0.000155102,-0.00135861,0,0,0,0,0,0,0,-0.125111,-10.1377,0.832583,21.4914,-1.38029,-0.379735,0.071604,-0.148363,-1.01958,0.674433,2.97424,-0.815127,-0.373579,-0.00755852
5755053,0,-1.57062,-0.522883,-0.000445092,-2.09652,-1.5698,1.57143,0.785304,-1.5708,-0.523598,-1.29108e-06,-2.0944,-1.5708,1.5708,0.785397,0.000527956,0.000852979,-6.02866e-05,-0.000961693,-2.72482e-05,-0.000133958,-0.000431021,0,0,0,0,0,0,0,-0.152882,-10.1892,0.832583,21.543,-1.38029,-0.373326,0.0587866,-0.148765,-1.02653,0.673555,2.97735,-0.815277,-0.373768,-0.00769198
5755054,0,-1.57062,-0.522887,-0.000447058,-2.09652,-1.5698,1.57143,0.785308,-1.5708,-0.523598,-1.29108e-06,-2.0944,-1.5708,1.5708,0.785397,-0.000297643,-0.000639977,-0.000689805,-0.000641129,-1.81081e-05,-8.93052e-05,0.000695997,0,0,0,0,0,0,0,-0.125111,-10.1377,0.860354,21.543,-1.38029,-0.373326,0.0322363,-0.148881,-1.03282,0.673103,2.98039,-0.815423,-0.373915,-0.00776302
5755055,0,-1.57062,-0.522885,-0.000445115,-2.09652,-1.5698,1.57143,0.785302,-1.5708,-0.523598,-1.29108e-06,-2.0944,-1.5708,1.5708,0.785397,0.001008,0.00022131,0.000189744,0.000779007,-1.20291e-05,0.000177822,-0.00146878,0,0,0,0,0,0,0,-0.176685,-10.1654,0.832583,21.4914,-1.38029,-0.379735,0.0844213,-0.148792,-1.0375,0.672956,2.98273,-0.815539,-0.374018,-0.00777016
5755056,0,-1.57062,-0.522887,-0.000445117,-2.09652,-1.5698,1.57143,0.785309,-1.5708,-0.523598,-1.29108e-06,-2.0944,-1.5708,1.5708,0.785397,0.000671998,-0.000503313,0.000126496,-3.74741e-05,-0.000211438,-0.000390078,0.00119095,0,0,0,0,0,0,0,-0.176685,-10.1377,0.832583,21.5152,-1.3748,-0.366002,0.0258276,-0.149204,-1.03982,0.672095,2.98358,-0.815611,-0.374174,-0.00772443
5755057,0,-1.57062,-0.522885,-0.000447066,-2.09652,-1.5698,1.57143,0.7853,-1.5708,-0.523598,-1.29108e-06,-2.0944,-1.5708,1.5708,0.785397,-0.000108813,0.000313143,-0.000565283,-0.000674597,0.000706776,0.000485933,-0.00113881,0,0,0,0,0,0,0,-0.152882,-10.1654,0.860354,21.543,-1.39769,-0.386144,0.0780126,-0.149879,-1.0411,0.670911,2.9839,-0.81567,-0.374351,-0.00762164
5755058,0,-1.57062,-0.522889,-0.000445118,-2.09652,-1.5698,1.57143,0.78531,-1.5708,-0.523598,-1.29108e-06,-2.0944,-1.5708,1.5708,0.785397,0.00113388,-0.000998361,0.000272758,0.000199883,-0.000376508,-0.000150762,0.00188565,0,0,0,0,0,0,0,-0.204456,-10.1139,0.832583,21.5152,-1.3748,-0.373326,0.00660151,-0.150385,-1.04178,0.670066,2.9842,-0.815726,-0.374485,-0.00747008
5755059,0,-1.57062,-0.522891,-0.000445118,-2.09652,-1.5698,1.57143,0.785306,-1.5708,-0.523598,-1.29108e-06,-2.0944,-1.5708,1.5708,0.785397,-0.000450503,-0.00122291,0.000181839,0.000690067,0.000155909,0.000136851,-0.000438322,0,0,0,0,0,0,0,-0.152882,-10.0901,0.832583,21.4914,-1.38579,-0.379735,0.0523779,-0.151037,-1.03998,0.669037,2.98326,-0.81575,-0.374606,-0.00729613
5755060,0,-1.57063,-0.522889,-0.000445118,-2.09652,-1.5698,1.57143,0.785309,-1.5708,-0.523598,-1.29108e-06,-2.0944,-1.5708,1.5708,0.785397,-0.00094995,-0.000258853,0.000121226,-0.000746381,-9.95008e-05,-0.000146125,0.000691129,0,0,0,0,0,0,0,-0.125111,-10.1139,0.832583,21.543,-1.38029,-0.373326,0.0258276,-0.151357,-1.03608,0.6684,2.98131,-0.815736,-0.374649,-0.00712915
5755061,0,-1.57062,-0.522889,-0.000448737,-2.09652,-1.5698,1.57143,0.785305,-1.5708,-0.523598,-1.29108e-06,-2.0944,-1.5708,1.5708,0.785397,1.63143e-05,-0.000172863,-0.00112561,0.000152027,0.000137124,0.000139942,-0.00075995,0,0,0,0,0,0,0,-0.152882,-10.1139,0.884158,21.5152,-1.38579,-0.379735,0.0587866,-0.150738,-1.03302,0.66913,2.98001,-0.815726,-0.374559,-0.00697982
5755062,0,-1.57062,-0.522889,-0.000443447,-2.09652,-1.5698,1.57143,0.785305,-1.5708,-0.523598,-1.29108e-06,-2.0944,-1.5708,1.5708,0.785397,1.08762e-05,-0.000115462,0.00101283,0.000658163,-0.000315479,9.32948e-05,-0.000743992,0,0,0,0,0,0,0,-0.152882,-10.1139,0.80878,21.4914,-1.3748,-0.379735,0.0651953,-0.149859,-1.03119,0.670349,2.97928,-0.815728,-0.374448,-0.00684771
5755063,0,-1.57062,-0.522884,-0.000447067,-2.09652,-1.5698,1.57143,0.785308,-1.5708,-0.523598,-1.29108e-06,-2.0944,-1.5708,1.5708,0.785397,0.000564063,0.0016861,-0.000531204,-0.000118037,0.000196586,0.000299555,0.000724708,0,0,0,0,0,0,0,-0.176685,-10.1892,0.860354,21.5152,-1.38579,-0.386144,0.0322363,-0.149685,-1.03123,0.67066,2.97917,-0.815768,-0.374477,-0.00671191
5755064,0,-1.57062,-0.522885,-0.000447067,-2.09652,-1.5698,1.57143,0.785308,-1.5708,-0.523598,-1.29108e-06,-2.0944,-1.5708,1.5708,0.785397,0.000376042,0.000567129,-0.000354136,-0.000728305,-7.239e-05,-0.000275014,0.00024578,0,0,0,0,0,0,0,-0.176685,-10.1654,0.860354,21.543,-1.38029,-0.373326,0.038645,-0.149953,-1.03471,0.670565,2.98078,-0.815879,-0.374622,-0.00655171
5755065,0,-1.57062,-0.522885,-0.000447067,-2.09652,-1.5698,1.57143,0.78531,-1.5708,-0.523598,-1.29108e-06,-2.0944,-1.5708,1.5708,0.785397,-0.000306117,0.00665773,-0.000236091,-0.000485537,-4.82576e-05,-0.000183343,0.00111329,0,0,0,0,0,0,0,-0.152882,-10.1654,0.860354,21.543,-1.38029,-0.373326,0.0130102,-0.150117,-1.0446,0.670951,2.98561,-0.816104,-0.374828,-0.00637242
5755066,0,-1.57062,-0.522887,-0.000445118,-2.09652,-1.5698,1.57143,0.785303,-1.5708,-0.523598,-1.29108e-06,-2.0944,-1.5708,1.5708,0.785397,-0.000853692,0.0037553,0.00049222,0.000882735,0.000171281,-0.000122229,-0.00166531,0,0,0,0,0,0,0,-0.125111,-10.1139,0.832583,21.4914,-1.38579,-0.373326,0.0780126,-0.150178,-1.063,0.671702,2.9941,-0.816451,-0.375122,-0.00619593
5755067,0,-1.57062,-0.522885,-0.000442987,-2.09652,-1.5698,1.57143,0.785306,-1.5708,-0.523598,-1.29108e-06,-2.0944,-1.5708,1.5708,0.785397,8.04858e-05,0.00410239,0.000328147,0.0011453,-0.000292713,-8.14857e-05,0.000822577,0,0,0,0,0,0,0,-0.152882,-10.1654,0.832583,21.4676,-1.3748,-0.373326,0.0258276,-0.150388,-1.08409,0.672189,3.00309,-0.816812,-0.375476,-0.00604444
5755068,0,-1.57062,-0.522885,-0.000444408,-2.09652,-1.5698,1.57143,0.7853,-1.5708,-0.523598,-1.29108e-06,-2.0944,-1.5708,1.5708,0.785397,-0.000595957,0.00302925,0.000218764,0.000206723,8.30981e-06,0.000183035,-0.00114704,0,0,0,0,0,0,0,-0.125111,-10.1654,0.832583,21.4914,-1.38029,-0.379735,0.071604,-0.15084,-1.10225,0.672151,3.01026,-0.81711,-0.375831,-0.00591213
5755069,0,-1.57062,-0.522885,-0.000444881,-2.09652,-1.5698,1.57143,0.785305,-1.5708,-0.523598,-1.29108e-06,-2.0944,-1.5708,1.5708,0.785397,-0.000397304,0.00224024,0.000145843,-0.000418997,-0.00040136,-0.000115336,0.000184745,0,0,0,0,0,0,0,-0.125111,-10.1654,0.832583,21.5152,-1.36931,-0.373326,0.0459692,-0.151174,-1.11613,0.672073,3.01573,-0.817343,-0.376114,-0.00578494
5755070,0,-1.57062,-0.522887,-0.000446988,-2.09652,-1.5698,1.57143,0.785306,-1.5708,-0.523598,-1.29108e-06,-2.0944,-1.5708,1.5708,0.785397,0.000384744,0.00100944,-0.000552385,-0.000279331,-6.41225e-05,-0.000585517,0.000123163,0,0,0,0,0,0,0,-0.152882,-10.1377,0.860354,21.5152,-1.3748,-0.359594,0.0459692,-0.151164,-1.12426,0.672289,3.0192,-0.817493,-0.376264,-0.00565243
5755071,0,-1.57062,-0.522887,-0.000443421,-2.09652,-1.5698,1.57143,0.78531,-1.5708,-0.523598,-1.29108e-06,-2.0944,-1.5708,1.5708,0.785397,0.00146292,0.000797126,0.000838169,-0.000186221,0.000160703,0.000118282,0.00106545,0,0,0,0,0,0,0,-0.204456,-10.1377,0.80878,21.5152,-1.38029,-0.373326,0.0194189,-0.1515,-1.12601,0.671901,3.02023,-0.817556,-0.376368,-0.00551606
5755072,0,-1.57062,-0.522883,-0.000448728,-2.09652,-1.5698,1.57143,0.785305,-1.5708,-0.523598,-1.29108e-06,-2.0944,-1.5708,1.5708,0.785397,-0.000880758,0.00127416,-0.00120446,0.000432665,0.000107135,-0.000192413,0.000235584,0,0,0,0,0,0,0,-0.125111,-10.1654,0.884158,21.4914,-1.38029,-0.366002,0.0322363,-0.152168,-1.12276,0.670979,3.0191,-0.817535,-0.376435,-0.00539589
5755073,0,-1.57062,-0.522887,-0.000445115,-2.09652,-1.5698,1.57143,0.785301,-1.5708,-0.523598,-1.29108e-06,-2.0944,-1.5708,1.5708,0.785397,6.24416e-05,0.000269668,0.000403454,-0.000268369,7.14238e-05,0.000142992,-0.000826288,0,0,0,0,0,0,0,-0.152882,-10.1377,0.832583,21.5152,-1.38029,-0.373326,0.0587866,-0.152102,-1.11641,0.67104,3.0165,-0.817429,-0.376329,-0.00531365
5755074,0,-1.57063,-0.522885,-0.000445117,-2.09652,-1.5698,1.57143,0.785309,-1.5708,-0.523598,-1.29108e-06,-2.0944,-1.5708,1.5708,0.785397,-0.0011648,0.000881776,0.000268969,0.000377899,0.000454517,9.53281e-05,0.00114456,0,0,0,0,0,0,0,-0.101307,-10.1654,0.832583,21.4914,-1.39128,-0.373326,0.0130102,-0.151542,-1.10797,0.671634,3.01294,-0.817273,-0.376106,-0.00526856
5755075,0,-1.57062,-0.522887,-0.000447066,-2.09652,-1.5698,1.57143,0.785302,-1.5708,-0.523598,-1.29108e-06,-2.0944,-1.5708,1.5708,0.785397,-0.00021972,-2.24758e-05,-0.000470301,-0.000954493,-0.000103889,0.000300911,-0.000695021,0,0,0,0,0,0,0,-0.125111,-10.1377,0.860354,21.543,-1.38029,-0.379735,0.0523779,-0.150767,-1.09858,0.672352,3.00906,-0.817111,-0.375835,-0.00524906
5755076,0,-1.57062,-0.522891,-0.000444936,-2.09652,-1.5698,1.57143,0.785303,-1.5708,-0.523598,-1.29108e-06,-2.0944,-1.5708,1.5708,0.785397,0.00105995,-0.00109914,-0.000313534,0.00112691,-0.000679611,0.000200607,4.52793e-05,0,0,0,0,0,0,0,-0.176685,-10.0901,0.860354,21.4676,-1.36381,-0.379735,0.038645,-0.149886,-1.0875,0.673191,3.00447,-0.81693,-0.375533,-0.00526119
5755077,0,-1.57062,-0.522885,-0.000448027,-2.09652,-1.5698,1.57143,0.785304,-1.5708,-0.523598,-1.29108e-06,-2.0944,-1.5708,1.5708,0.785397,0.000149819,0.00105258,-0.000765835,0.000194461,-4.6173e-05,0.000133738,-0.000715799,0,0,0,0,0,0,0,-0.152882,-10.1654,0.884158,21.4914,-1.3748,-0.379735,0.0587866,-0.149303,-1.07488,0.673727,2.99885,-0.816712,-0.375273,-0.0052982
5755078,0,-1.57062,-0.522889,-0.00044683,-2.09652,-1.5698,1.57143,0.785306,-1.5708,-0.523598,-1.29108e-06,-2.0944,-1.5708,1.5708,0.785397,9.98791e-05,-0.000488135,4.62555e-05,0.000129641,0.000376119,0.000326518,0.000980863,0,0,0,0,0,0,0,-0.152882,-10.1139,0.860354,21.4914,-1.38579,-0.386144,0.0194189,-0.14885,-1.06339,0.674225,2.99349,-0.816494,-0.375064,-0.00533437
5755079,0,-1.57062,-0.522885,-0.000446988,-2.09652,-1.5698,1.57143,0.7853,-1.5708,-0.523598,-1.29108e-06,-2.0944,-1.5708,1.5708,0.785397,0.000623398,0.000893434,3.0837e-05,-0.000470385,0.000250746,-0.000257039,-0.00104151,0,0,0,0,0,0,0,-0.176685,-10.1654,0.860354,21.5152,-1.38579,-0.373326,0.0651953,-0.148737,-1.05413,0.674336,2.98931,-0.816323,-0.374948,-0.00536041
5755080,0,-1.57063,-0.522885,-0.000443421,-2.09652,-1.5698,1.57143,0.785306,-1.5708,-0.523598,-1.29108e-06,-2.0944,-1.5708,1.5708,0.785397,-0.00134764,0.000604946,0.00122698,0.000243222,-3.62864e-05,-0.00017136,0.00123844,0,0,0,0,0,0,0,-0.101307,-10.1654,0.80878,21.4914,-1.38029,-0.373326,0.0130102,-0.149148,-1.04754,0.673684,2.9865,-0.816226,-0.374958,-0.00537641
5755081,0,-1.57062,-0.522887,-0.000445109,-2.09652,-1.5698,1.57143,0.7853,-1.5708,-0.523598,-1.29108e-06,-2.0944,-1.5708,1.5708,0.785397,0.00151443,-0.000239325,0.000261177,0.00127577,0.00038271,0.000123119,-0.00110715,0,0,0,0,0,0,0,-0.204456,-10.1377,0.832583,21.4438,-1.39128,-0.379735,0.0651953,-0.150077,-1.04218,0.672181,2.98396,-0.816166,-0.375076,-0.00538945
5755082,0,-1.57062,-0.522885,-0.000448734,-2.09652,-1.5698,1.57143,0.785304,-1.5708,-0.523598,-1.29108e-06,-2.0944,-1.5708,1.5708,0.785397,0.000360003,0.000495308,-0.00103231,-0.000819921,-0.000355211,8.20795e-05,0.000719959,0,0,0,0,0,0,0,-0.176685,-10.1654,0.884158,21.5152,-1.3748,-0.379735,0.0258276,-0.151246,-1.03677,0.670453,2.98108,-0.816109,-0.375234,-0.00540804
5755083,0,-1.57062,-0.522887,-0.000443447,-2.09652,-1.5698,1.57143,0.785302,-1.5708,-0.523598,-1.29108e-06,-2.0944,-1.5708,1.5708,0.785397,-0.000966424,-0.000315475,0.00107503,1.01978e-05,0.000170093,-0.000453907,-0.00121545,0,0,0,0,0,0,0,-0.125111,-10.1377,0.80878,21.4914,-1.38579,-0.366002,0.071604,-0.151908,-1.03228,0.669623,2.97888,-0.816076,-0.37532,-0.0054221
5755084,0,-1.57062,-0.522883,-0.000447066,-2.09652,-1.5698,1.57143,0.785306,-1.5708,-0.523598,-1.29108e-06,-2.0944,-1.5708,1.5708,0.785397,0.000562143,0.000442247,-0.000489737,6.79853e-06,-0.000293505,-3.13371e-05,0.00112248,0,0,0,0,0,0,0,-0.176685,-10.1654,0.860354,21.4914,-1.3748,-0.373326,0.0194189,-0.152111,-1.0286,0.669418,2.97725,-0.816066,-0.375338,-0.00542118
5755085,0,-1.57062,-0.522888,-0.000447067,-2.09652,-1.5698,1.57143,0.785306,-1.5708,-0.523598,-1.29108e-06,-2.0944,-1.5708,1.5708,0.785397,-0.000831664,-0.000909382,-0.000326492,-0.00055228,-0.00019567,-2.08914e-05,0.00098568,0,0,0,0,0,0,0,-0.125111,-10.1139,0.860354,21.5152,-1.3748,-0.373326,0.0130102,-0.151883,-1.02505,0.669853,2.97574,-0.816053,-0.375281,-0.00540532
5755086,0,-1.57062,-0.522885,-0.000445118,-2.09652,-1.5698,1.57143,0.785305,-1.5708,-0.523598,-1.29108e-06,-2.0944,-1.5708,1.5708,0.785397,9.51715e-05,0.00060183,0.000431953,0.000745438,-0.000130447,-0.000285195,-0.000563583,0,0,0,0,0,0,0,-0.152882,-10.1654,0.832583,21.4676,-1.3748,-0.366002,0.0459692,-0.151224,-1.02142,0.670921,2.97417,-0.816021,-0.375146,-0.00540138
5755087,0,-1.57062,-0.522887,-0.000447067,-2.09653,-1.5698,1.57143,0.785309,-1.5708,-0.523598,-1.29108e-06,-2.0944,-1.5708,1.5708,0.785397,-0.000586166,-0.000247149,-0.000361645,-0.00182309,-0.000290415,8.11374e-05,0.000607622,0,0,0,0,0,0,0,-0.125111,-10.1377,0.860354,21.5668,-1.36931,-0.373326,0.0194189,-0.150567,-1.01877,0.671949,2.97311,-0.815995,-0.375012,-0.00543182
5755088,0,-1.57062,-0.522887,-0.000443447,-2.09652,-1.5698,1.57143,0.785301,-1.5708,-0.523598,-1.29108e-06,-2.0944,-1.5708,1.5708,0.785397,0.000815648,-0.000163833,0.000965329,-8.96841e-06,0.000416742,5.40916e-05,-0.00129034,0,0,0,0,0,0,0,-0.176685,-10.1377,0.80878,21.5152,-1.38579,-0.373326,0.0651953,-0.150318,-1.01744,0.672383,2.97305,-0.816,-0.37494,-0.00549328
5755089,0,-1.57062,-0.522887,-0.000445118,-2.09652,-1.5698,1.57143,0.785305,-1.5708,-0.523598,-1.29108e-06,-2.0944,-1.5708,1.5708,0.785397,-1.30464e-05,-0.000108522,8.67407e-05,-0.000655593,0.000277828,3.60611e-05,0.000835195,0,0,0,0,0,0,0,-0.152882,-10.1377,0.832583,21.543,-1.38579,-0.373326,0.0194189,-0.150877,-1.01636,0.671624,2.97326,-0.81602,-0.37498,-0.00557653
5755090,0,-1.57062,-0.522885,-0.000447067,-2.09652,-1.5698,1.57143,0.785306,-1.5708,-0.523598,-1.29108e-06,-2.0944,-1.5708,1.5708,0.785397,-8.69758e-06,0.000577791,-0.000591787,0.00132618,0.000388669,2.40407e-05,-0.00015528,0,0,0,0,0,0,0,-0.152882,-10.1654,0.860354,21.4676,-1.39128,-0.373326,0.038645,-0.15149,-1.01532,0.670799,2.97309,-0.816017,-0.375024,-0.00566708
5755091,0,-1.57062,-0.522887,-0.000445118,-2.09652,-1.5698,1.57143,0.78531,-1.5708,-0.523598,-1.29108e-06,-2.0944,-1.5708,1.5708,0.785397,-5.79838e-06,-0.000264026,0.000255089,-0.000879121,5.56621e-05,1.60271e-05,0.000845915,0,0,0,0,0,0,0,-0.152882,-10.1377,0.832583,21.543,-1.38579,-0.373326,0.0130102,-0.151532,-1.01446,0.670838,2.97257,-0.81599,-0.374982,-0.00576505
5755092,0,-1.57062,-0.522887,-0.000447067,-2.09653,-1.5698,1.57143,0.785303,-1.5708,-0.523598,-1.29108e-06,-2.0944,-1.5708,1.5708,0.785397,-0.00065348,-0.000175722,-0.000479554,-0.00114289,0.000240559,0.000248044,-0.000656759,0,0,0,0,0,0,0,-0.125111,-10.1377,0.860354,21.5668,-1.39128,-0.379735,0.0459692,-0.151191,-1.01394,0.671414,2.97249,-0.815989,-0.374883,-0.00587969
5755093,0,-1.57062,-0.522887,-0.000447067,-2.09652,-1.5698,1.57143,0.785302,-1.5708,-0.523598,-1.29108e-06,-2.0944,-1.5708,1.5708,0.785397,0.000213961,-0.000116927,-0.000319703,0.000444498,-4.30781e-05,-7.19965e-05,-0.00043784,0,0,0,0,0,0,0,-0.152882,-10.1377,0.860354,21.5152,-1.38579,-0.373326,0.0459692,-0.150427,-1.01355,0.672577,2.97288,-0.816017,-0.374723,-0.00601569
5755094,0,-1.57062,-0.522885,-0.000445118,-2.09652,-1.5698,1.57143,0.785301,-1.5708,-0.523598,-1.29108e-06,-2.0944,-1.5708,1.5708,0.785397,0.000142641,0.000571829,0.000436479,0.000853144,-0.000232169,0.000189361,-0.000766611,0,0,0,0,0,0,0,-0.152882,-10.1654,0.832583,21.4914,-1.38029,-0.379735,0.0587866,-0.14979,-1.01287,0.673555,2.97275,-0.816045,-0.374593,-0.00616134
5755095,0,-1.57062,-0.522887,-0.000443447,-2.09653,-1.5698,1.57143,0.785303,-1.5708,-0.523598,-1.29108e-06,-2.0944,-1.5708,1.5708,0.785397,0.000651906,-0.00026827,0.000847798,-0.00119448,-0.00015478,0.0003636,0.000234911,0,0,0,0,0,0,0,-0.176685,-10.1377,0.80878,21.5668,-1.38029,-0.386144,0.038645,-0.150137,-1.01241,0.673081,2.97241,-0.816105,-0.374633,-0.00628679
5755096,0,-1.57062,-0.522891,-0.000443447,-2.09652,-1.5698,1.57143,0.785302,-1.5708,-0.523598,-1.29108e-06,-2.0944,-1.5708,1.5708,0.785397,-0.000771822,-0.00129238,0.000565198,-0.000239505,-0.000306637,-0.000503585,-0.00011466,0,0,0,0,0,0,0,-0.125111,-10.0901,0.80878,21.543,-1.3748,-0.366002,0.0459692,-0.151238,-1.01147,0.671396,2.97226,-0.816205,-0.374793,-0.00637465
5755097,0,-1.57062,-0.522882,-0.000447067,-2.09652,-1.5698,1.57143,0.785301,-1.5708,-0.523598,-1.29108e-06,-2.0944,-1.5708,1.5708,0.785397,0.000135066,0.00201535,-0.000829627,0.00104676,-9.74052e-07,0.000410262,-0.000551158,0,0,0,0,0,0,0,-0.152882,-10.213,0.860354,21.4914,-1.38029,-0.386144,0.0587866,-0.15191,-1.01024,0.67024,2.97204,-0.816285,-0.374897,-0.00642708
5755098,0,-1.57062,-0.522887,-0.000448737,-2.09652,-1.5698,1.57143,0.785308,-1.5708,-0.523598,-1.29108e-06,-2.0944,-1.5708,1.5708,0.785397,-0.00055957,-0.000419621,-0.0011099,0.000141025,0.000202801,-0.00020121,0.00109062,0,0,0,0,0,0,0,-0.125111,-10.1377,0.884158,21.5152,-1.38579,-0.373326,0.0194189,-0.151333,-1.01047,0.670998,2.972,-0.816317,-0.374846,-0.00644306
5755099,0,-1.57062,-0.522887,-0.000447067,-2.09652,-1.5698,1.57143,0.785306,-1.5708,-0.523598,-1.29108e-06,-2.0944,-1.5708,1.5708,0.785397,-0.000373047,-0.000279708,-0.00657217,-0.000555597,-0.0002717,-0.00013414,-0.000493621,0,0,0,0,0,0,0,-0.125111,-10.1377,0.860354,21.543,-1.3748,-0.373326,0.0523779,-0.14794,-1.01086,0.676215,2.97206,-0.816255,-0.374373,-0.00643045
5755100,0,-1.57062,-0.522883,-0.000443629,-2.09652,-1.5698,1.57143,0.78531,-1.5708,-0.523598,-1.29108e-06,-2.0944,-1.5708,1.5708,0.785397,0.000957728,0.000463172,-0.00305783,0.000279216,0.000429218,-8.94267e-05,0.00112898,0,0,0,0,0,0,0,-0.176685,-10.1654,0.781009,21.5152,-1.39128,-0.373326,0.0130102,-0.141279,-1.01078,0.686763,2.97227,-0.816091,-0.373393,-0.00640881
5755101,0,-1.57062,-0.522887,-0.000444158,-2.09652,-1.5698,1.57143,0.785302,-1.5708,-0.523598,-1.29108e-06,-2.0944,-1.5708,1.5708,0.785397,0.000638485,-0.000340811,-0.00308748,0.000186144,-0.000120756,-0.000330885,-0.0018922,0,0,0,0,0,0,0,-0.176685,-10.1377,0.80878,21.5152,-1.38029,-0.366002,0.0844213,-0.134312,-1.01081,0.698057,2.97256,-0.815909,-0.37236,-0.00639399
5755102,0,-1.57062,-0.522887,-0.000445355,-2.09652,-1.5698,1.57143,0.785309,-1.5708,-0.523598,-1.29108e-06,-2.0944,-1.5708,1.5708,0.785397,-0.000131155,-0.00022719,-0.00291462,0.000124096,-8.05038e-05,0.000288036,0.000908671,0,0,0,0,0,0,0,-0.152882,-10.1377,0.832583,21.5152,-1.38029,-0.379735,0.0258276,-0.128711,-1.01016,0.707216,2.97243,-0.815752,-0.371516,-0.00638442
5755103,0,-1.57062,-0.522884,-0.000445197,-2.09652,-1.5698,1.57143,0.785303,-1.5708,-0.523598,-1.29108e-06,-2.0944,-1.5708,1.5708,0.785397,-8.74367e-05,0.00105498,-0.0021677,-0.000566883,0.000149781,-4.53348e-05,-0.001327,0,0,0,0,0,0,0,-0.152882,-10.1892,0.832583,21.543,-1.38579,-0.373326,0.0780126,-0.12425,-1.00999,0.71443,2.97262,-0.815645,-0.37084,-0.0063553
5755104,0,-1.57062,-0.522884,-0.000447093,-2.09653,-1.5698,1.57143,0.785307,-1.5708,-0.523598,-1.29108e-06,-2.0944,-1.5708,1.5708,0.785397,0.000498521,0.000703328,-0.00226321,-0.000934734,0.000303305,0.000207136,0.00128547,0,0,0,0,0,0,0,-0.176685,-10.1892,0.860354,21.5668,-1.39128,-0.379735,0.0194189,-0.121254,-1.01244,0.719274,2.97435,-0.815644,-0.370409,-0.00628836
5755105,0,-1.57062,-0.522887,-0.000445127,-2.09652,-1.5698,1.57143,0.785307,-1.5708,-0.523598,-1.29108e-06,-2.0944,-1.5708,1.5708,0.785397,-0.000224465,-0.000737533,-0.000985536,0.00058327,-0.000204698,0.00013809,0.000144905,0,0,0,0,0,0,0,-0.152882,-10.1377,0.832583,21.5152,-1.38029,-0.379735,0.038645,-0.119958,-1.01553,0.721411,2.97654,-0.815721,-0.370241,-0.00619159
5755106,0,-1.57062,-0.522888,-0.0004492,-2.09652,-1.5698,1.57143,0.785305,-1.5708,-0.523598,-1.29108e-06,-2.0944,-1.5708,1.5708,0.785397,-0.000149643,0.00015793,-0.0014014,0.000388847,-0.000339916,-0.000416566,0.000571321,0,0,0,0,0,0,0,-0.152882,-10.1654,0.860354,21.5152,-1.3748,-0.366002,0.0258276,-0.120096,-1.01622,0.721135,2.97727,-0.815799,-0.370269,-0.00609606
5755107,0,-1.57062,-0.52289,-0.000444159,-2.09653,-1.5698,1.57143,0.785302,-1.5708,-0.523598,-1.29108e-06,-2.0944,-1.5708,1.5708,0.785397,-9.97621e-05,-0.00110114,0.000201091,-0.000947195,-2.316e-05,-0.000277711,-0.000602463,0,0,0,0,0,0,0,-0.152882,-10.1139,0.80878,21.5668,-1.38029,-0.366002,0.0523779,-0.121481,-1.01491,0.718743,2.97694,-0.81588,-0.370462,-0.00602472
5755108,0,-1.57062,-0.522884,-0.000445355,-2.09652,-1.5698,1.57143,0.785309,-1.5708,-0.523598,-1.29108e-06,-2.0944,-1.5708,1.5708,0.785397,-6.65081e-05,0.000472339,-0.000476053,0.000574963,0.000391461,0.000323486,0.00105642,0,0,0,0,0,0,0,-0.152882,-10.1654,0.832583,21.5152,-1.39128,-0.379735,0.0130102,-0.124156,-1.01302,0.714254,2.97651,-0.815994,-0.370833,-0.00597872
5755109,0,-1.57062,-0.522888,-0.000447146,-2.09652,-1.5698,1.57143,0.785306,-1.5708,-0.523598,-1.29108e-06,-2.0944,-1.5708,1.5708,0.785397,-4.43387e-05,-0.000891531,-0.00100696,0.00094012,-0.000349378,-2.17017e-05,-0.000516423,0,0,0,0,0,0,0,-0.152882,-10.1139,0.860354,21.4914,-1.3748,-0.373326,0.0459692,-0.127384,-1.01066,0.708871,2.9756,-0.816099,-0.371278,-0.00596144
5755110,0,-1.57062,-0.522887,-0.000441525,-2.09652,-1.5698,1.57143,0.785301,-1.5708,-0.523598,-1.29108e-06,-2.0944,-1.5708,1.5708,0.785397,-0.000679173,-3.75405e-05,0.00115475,6.9935e-05,0.000173983,-0.000523094,-0.00129372,0,0,0,0,0,0,0,-0.125111,-10.1377,0.781009,21.5152,-1.38579,-0.359594,0.071604,-0.130688,-1.00755,0.703294,2.97393,-0.816174,-0.371723,-0.00597837
5755111,0,-1.57062,-0.522887,-0.000443456,-2.09652,-1.5698,1.57143,0.785302,-1.5708,-0.523598,-1.29108e-06,-2.0944,-1.5708,1.5708,0.785397,0.000196832,-2.50257e-05,9.77332e-05,0.00116025,-0.000290913,0.000397256,8.69571e-05,0,0,0,0,0,0,0,-0.152882,-10.1377,0.80878,21.4676,-1.3748,-0.379735,0.0459692,-0.134487,-1.00456,0.696833,2.97215,-0.816258,-0.372242,-0.00600431
5755112,0,-1.57062,-0.522885,-0.000445121,-2.09652,-1.5698,1.57143,0.785308,-1.5708,-0.523598,-1.29108e-06,-2.0944,-1.5708,1.5708,0.785397,0.00133765,0.000632931,-0.000508522,0.000216686,-0.000193942,0.000502196,0.00104132,0,0,0,0,0,0,0,-0.204456,-10.1654,0.832583,21.4914,-1.3748,-0.386144,0.0194189,-0.138717,-1.00294,0.689817,2.9708,-0.816362,-0.37284,-0.0060027
5755113,0,-1.57062,-0.522887,-0.000447068,-2.09652,-1.5698,1.57143,0.785308,-1.5708,-0.523598,-1.29108e-06,-2.0944,-1.5708,1.5708,0.785397,-0.000314661,-0.000227659,-0.00100128,0.000144457,0.000277607,-0.00013992,0.00140629,0,0,0,0,0,0,0,-0.152882,-10.1377,0.860354,21.4914,-1.38579,-0.373326,0.000192821,-0.142514,-1.00285,0.683724,2.97021,-0.816468,-0.373389,-0.00597806
5755114,0,-1.57062,-0.522885,-0.000445118,-2.09652,-1.5698,1.57143,0.785303,-1.5708,-0.523598,-1.29108e-06,-2.0944,-1.5708,1.5708,0.785397,0.000347038,0.000497842,-2.73909e-05,-0.000460507,-1.83795e-05,-9.32803e-05,-0.00170733,0,0,0,0,0,0,0,-0.176685,-10.1654,0.832583,21.5152,-1.38029,-0.373326,0.071604,-0.145313,-1.00392,0.679288,2.97051,-0.816572,-0.373797,-0.00597241
5755115,0,-1.57062,-0.522887,-0.000445118,-2.09652,-1.5698,1.57143,0.785306,-1.5708,-0.523598,-1.29108e-06,-2.0944,-1.5708,1.5708,0.785397,-0.000325453,-0.000317719,-2.53756e-05,0.000806619,-0.000419154,-6.21869e-05,0.000794559,0,0,0,0,0,0,0,-0.152882,-10.1377,0.832583,21.4676,-1.36931,-0.373326,0.0194189,-0.147562,-1.00539,0.675722,2.97118,-0.816669,-0.374123,-0.00600558
5755116,0,-1.57062,-0.522891,-0.000443448,-2.09652,-1.5698,1.57143,0.7853,-1.5708,-0.523598,-1.29108e-06,-2.0944,-1.5708,1.5708,0.785397,-0.000216969,-0.00132544,0.000534559,-1.90658e-05,-7.59855e-05,-4.14579e-05,-0.00140307,0,0,0,0,0,0,0,-0.152882,-10.0901,0.80878,21.4914,-1.3748,-0.373326,0.071604,-0.149646,-1.00518,0.672332,2.971,-0.816724,-0.374405,-0.00606231
5755117,0,-1.57063,-0.522887,-0.000445118,-2.09652,-1.5698,1.57143,0.785305,-1.5708,-0.523598,-1.29108e-06,-2.0944,-1.5708,1.5708,0.785397,-0.00135107,0.00023,-0.000204442,-0.000569522,0.000152794,0.00020972,0.000997397,0,0,0,0,0,0,0,-0.101307,-10.1377,0.832583,21.5152,-1.38029,-0.379735,0.0194189,-0.151247,-1.0034,0.669508,2.97022,-0.816734,-0.374596,-0.00612075
5755118,0,-1.57062,-0.522885,-0.000445118,-2.09652,-1.5698,1.57143,0.785304,-1.5708,-0.523598,-1.29108e-06,-2.0944,-1.5708,1.5708,0.785397,0.000305711,0.000802947,-0.000139296,0.00530663,-0.000101588,-0.000368813,-0.000793131,0,0,0,0,0,0,0,-0.152882,-10.1654,0.832583,21.543,-1.3748,-0.366002,0.0587866,-0.152124,-1.00158,0.667673,2.9687,-0.816679,-0.374691,-0.00616925
5755119,0,-1.57062,-0.522887,-0.000448737,-2.09652,-1.5698,1.57143,0.785309,-1.5708,-0.523598,-1.29108e-06,-2.0944,-1.5708,1.5708,0.785397,-0.000445806,-0.000114316,-0.00130154,0.00406575,0.000135725,-0.000245875,0.00187874,0,0,0,0,0,0,0,-0.125111,-10.1377,0.884158,21.543,-1.38029,-0.366002,-0.00621587,-0.152303,-0.998022,0.666882,2.96413,-0.816465,-0.374688,-0.00621955
5755120,0,-1.57062,-0.522887,-0.000445118,-2.09652,-1.5698,1.57143,0.785304,-1.5708,-0.523598,-1.29108e-06,-2.0944,-1.5708,1.5708,0.785397,0.00035241,-7.62103e-05,0.000337043,0.00431292,0.000293934,-0.000401276,-0.001155,0,0,0,0,0,0,0,-0.152882,-10.1377,0.832583,21.4914,-1.38579,-0.359594,0.0587866,-0.15206,-0.991726,0.666745,2.95667,-0.816113,-0.374598,-0.00628958
5755121,0,-1.57062,-0.522889,-0.000445118,-2.09652,-1.5698,1.57143,0.785306,-1.5708,-0.523598,-1.29108e-06,-2.0944,-1.5708,1.5708,0.785397,-0.000414674,-0.000607619,0.000223429,0.00372909,-0.000617846,0.000478468,-0.000295283,0,0,0,0,0,0,0,-0.125111,-10.1139,0.832583,21.4676,-1.36381,-0.379735,0.0459692,-0.152161,-0.98382,0.666063,2.94823,-0.815729,-0.374533,-0.00638847
5755122,0,-1.57062,-0.522889,-0.000441499,-2.09652,-1.5698,1.57143,0.785304,-1.5708,-0.523598,-1.29108e-06,-2.0944,-1.5708,1.5708,0.785397,0.000929976,-0.000405079,0.00135443,0.00215199,0.000198454,8.16198e-05,7.44118e-05,0,0,0,0,0,0,0,-0.176685,-10.1139,0.781009,21.4914,-1.38029,-0.373326,0.038645,-0.153295,-0.975822,0.663794,2.94044,-0.815398,-0.374612,-0.00649463
5755123,0,-1.57062,-0.522885,-0.000447067,-2.09652,-1.5698,1.57143,0.785303,-1.5708,-0.523598,-1.29108e-06,-2.0944,-1.5708,1.5708,0.785397,6.31724e-05,0.000936373,-0.000953799,0.000395298,-7.11478e-05,-0.000454213,4.96079e-05,0,0,0,0,0,0,0,-0.152882,-10.1654,0.860354,21.543,-1.3748,-0.359594,0.038645,-0.155116,-0.971064,0.660619,2.93581,-0.815207,-0.374811,-0.0065749
5755124,0,-1.57062,-0.522889,-0.000447067,-2.09652,-1.5698,1.57143,0.785303,-1.5708,-0.523598,-1.29108e-06,-2.0944,-1.5708,1.5708,0.785397,4.21149e-05,-0.000582177,-0.000636401,0.00215207,0.000359469,0.000680535,3.30719e-05,0,0,0,0,0,0,0,-0.152882,-10.1139,0.860354,21.4676,-1.38579,-0.386144,0.038645,-0.15623,-0.970573,0.658719,2.93489,-0.815134,-0.374927,-0.00662691
5755125,0,-1.57062,-0.522885,-0.000445118,-2.09652,-1.5698,1.57143,0.785299,-1.5708,-0.523598,-1.29108e-06,-2.0944,-1.5708,1.5708,0.785397,-0.000621537,0.000818308,0.000224946,0.00097187,3.61956e-05,-0.000292295,-0.00119866,0,0,0,0,0,0,0,-0.125111,-10.1654,0.832583,21.4914,-1.38029,-0.366002,0.071604,-0.156318,-0.972114,0.65844,2.93586,-0.815102,-0.374896,-0.00666285
5755126,0,-1.57062,-0.522885,-0.000447067,-2.09652,-1.5698,1.57143,0.785309,-1.5708,-0.523598,-1.29108e-06,-2.0944,-1.5708,1.5708,0.785397,0.000792068,-0.000104075,-0.00049995,0.00016158,0.000227581,7.64041e-05,0.00137104,0,0,0,0,0,0,0,-0.176685,-10.1377,0.860354,21.5152,-1.38579,-0.373326,0.0130102,-0.156193,-0.975438,0.658527,2.93841,-0.815136,-0.374848,-0.00667246
5755127,0,-1.57062,-0.522888,-0.000447067,-2.09652,-1.5698,1.57143,0.785306,-1.5708,-0.523598,-1.29108e-06,-2.0944,-1.5708,1.5708,0.785397,0.000528045,-0.000626196,-0.000333526,0.000717391,-5.17299e-05,5.0936e-05,-0.000544038,0,0,0,0,0,0,0,-0.176685,-10.1139,0.860354,21.4914,-1.38029,-0.373326,0.0523779,-0.15624,-0.979581,0.658523,2.94212,-0.815237,-0.374828,-0.00665189
5755128,0,-1.57062,-0.522885,-0.000445118,-2.09652,-1.5698,1.57143,0.785306,-1.5708,-0.523598,-1.29108e-06,-2.0944,-1.5708,1.5708,0.785397,-0.000854396,0.000788962,0.000427095,-0.000688521,-0.000441388,-0.00023731,0.000858011,0,0,0,0,0,0,0,-0.125111,-10.1654,0.832583,21.543,-1.36931,-0.366002,0.0194189,-0.156373,-0.983848,0.658491,2.94643,-0.81538,-0.374814,-0.00661917
5755129,0,-1.57062,-0.522887,-0.000445118,-2.09652,-1.5698,1.57143,0.7853,-1.5708,-0.523598,-1.29108e-06,-2.0944,-1.5708,1.5708,0.785397,8.00167e-05,-0.000123639,0.000284603,0.000220333,0.000112643,-0.000158207,-0.00136077,0,0,0,0,0,0,0,-0.152882,-10.1377,0.832583,21.5152,-1.38029,-0.366002,0.071604,-0.156509,-0.989347,0.658409,2.95169,-0.81557,-0.374812,-0.00658485
5755130,0,-1.57062,-0.522887,-0.000450868,-2.09652,-1.5698,1.57143,0.785304,-1.5708,-0.523598,-1.29108e-06,-2.0944,-1.5708,1.5708,0.785397,-0.000596269,-8.24261e-05,-0.00101679,0.00128281,-0.000128355,-0.000105471,0.00055088,0,0,0,0,0,0,0,-0.125111,-10.1377,0.884158,21.4676,-1.3748,-0.366002,0.0322363,-0.156337,-0.994425,0.658739,2.95655,-0.815732,-0.374753,-0.00655392
5755131,0,-1.57062,-0.522885,-0.000447777,-2.09652,-1.5698,1.57143,0.785303,-1.5708,-0.523598,-1.29108e-06,-2.0944,-1.5708,1.5708,0.785397,0.000808913,-0.00562869,-0.000121116,0.000871933,0.000321331,0.000438312,-0.00085345,0,0,0,0,0,0,0,-0.176685,-10.1654,0.860354,21.4676,-1.38579,-0.379735,0.0651953,-0.155625,-0.993338,0.659793,2.95796,-0.815744,-0.374534,-0.00653071
5755132,0,-1.57062,-0.522885,-0.000445355,-2.09652,-1.5698,1.57143,0.785307,-1.5708,-0.523598,-1.29108e-06,-2.0944,-1.5708,1.5708,0.785397,-1.75367e-05,-0.00427108,0.000568816,-0.000519791,0.00021422,5.48492e-05,0.00136381,0,0,0,0,0,0,0,-0.152882,-10.1654,0.832583,21.5152,-1.38579,-0.373326,0.0130102,-0.155182,-0.982101,0.660274,2.95463,-0.815597,-0.37423,-0.00651545
5755133,0,-1.57062,-0.522885,-0.000447146,-2.09652,-1.5698,1.57143,0.785305,-1.5708,-0.523598,-1.29108e-06,-2.0944,-1.5708,1.5708,0.785397,-1.16911e-05,-0.00323634,-0.000270443,0.000219692,0.000142814,-0.000234701,0.000434491,0,0,0,0,0,0,0,-0.152882,-10.1654,0.860354,21.4914,-1.38579,-0.366002,0.0258276,-0.155234,-0.965605,0.6599,2.94915,-0.815405,-0.373935,-0.00649974
5755134,0,-1.57063,-0.522887,-0.000447093,-2.09652,-1.5698,1.57143,0.785307,-1.5708,-0.523598,-1.29108e-06,-2.0944,-1.5708,1.5708,0.785397,-0.00121422,-0.0030989,-0.000180326,-0.00105291,-0.000108241,-0.000156467,5.23018e-05,0,0,0,0,0,0,0,-0.101307,-10.1377,0.860354,21.543,-1.38029,-0.366002,0.0322363,-0.154868,-0.950548,0.660136,2.94445,-0.81525,-0.373596,-0.00649307
5755135,0,-1.57062,-0.522887,-0.000447076,-2.09652,-1.5698,1.57143,0.785306,-1.5708,-0.523598,-1.29108e-06,-2.0944,-1.5708,1.5708,0.785397,0.000396946,-0.00228472,-0.00012024,0.000509779,-0.000275611,0.000166956,-0.000473758,0,0,0,0,0,0,0,-0.152882,-10.1377,0.860354,21.4914,-1.3748,-0.373326,0.0459692,-0.153958,-0.939159,0.661224,2.94133,-0.815149,-0.373221,-0.00651241
5755136,0,-1.57062,-0.522889,-0.000445121,-2.09652,-1.5698,1.57143,0.785305,-1.5708,-0.523598,-1.29108e-06,-2.0944,-1.5708,1.5708,0.785397,-0.000384983,0.00395029,0.000569437,-0.000862605,0.00022316,0.000111304,0.000192787,0,0,0,0,0,0,0,-0.125111,-10.1139,0.832583,21.543,-1.38579,-0.373326,0.0322363,-0.153425,-0.936603,0.661988,2.94178,-0.815186,-0.373022,-0.00653985
5755137,0,-1.57062,-0.522884,-0.000445119,-2.09653,-1.5698,1.57143,0.785302,-1.5708,-0.523598,-1.29108e-06,-2.0944,-1.5708,1.5708,0.785397,-0.000256656,0.00478989,0.000379612,-0.0011289,-5.46771e-05,-0.000197065,-0.000380101,0,0,0,0,0,0,0,-0.125111,-10.1892,0.832583,21.5668,-1.38029,-0.366002,0.0459692,-0.153679,-0.950264,0.661985,2.94926,-0.815491,-0.373153,-0.00654124
5755138,0,-1.57062,-0.522889,-0.000447067,-2.09652,-1.5698,1.57143,0.785302,-1.5708,-0.523598,-1.29108e-06,-2.0944,-1.5708,1.5708,0.785397,0.00047851,0.00172487,-0.000396549,0.000456055,-0.000239902,0.000139891,-0.00120284,0,0,0,0,0,0,0,-0.152882,-10.1139,0.860354,21.5152,-1.3748,-0.373326,0.071604,-0.154278,-0.97568,0.661758,2.96181,-0.815981,-0.373492,-0.00651882
5755139,0,-1.57062,-0.522887,-0.000441499,-2.09652,-1.5698,1.57143,0.785305,-1.5708,-0.523598,-1.29108e-06,-2.0944,-1.5708,1.5708,0.785397,0.000319007,0.00192786,0.00159167,0.000305711,4.35159e-05,-0.000178007,0.00089353,0,0,0,0,0,0,0,-0.152882,-10.1377,0.781009,21.5152,-1.38029,-0.366002,0.0258276,-0.155309,-1.0011,0.660896,2.97377,-0.81645,-0.37391,-0.0064849
5755140,0,-1.57062,-0.522884,-0.000447067,-2.09652,-1.5698,1.57143,0.785308,-1.5708,-0.523598,-1.29108e-06,-2.0944,-1.5708,1.5708,0.785397,0.000212671,0.00265751,-0.000794934,-0.000444551,0.000232461,0.000152596,0.000595687,0,0,0,0,0,0,0,-0.152882,-10.1892,0.860354,21.543,-1.38579,-0.373326,0.0258276,-0.156762,-1.02309,0.659283,2.98377,-0.816853,-0.374355,-0.00643091
5755141,0,-1.57062,-0.522885,-0.000447067,-2.09652,-1.5698,1.57143,0.785307,-1.5708,-0.523598,-1.29108e-06,-2.0944,-1.5708,1.5708,0.785397,-0.000507833,0.00133925,-0.00052996,0.000354189,0.000154974,0.00033909,0.000871842,0,0,0,0,0,0,0,-0.125111,-10.1654,0.860354,21.5152,-1.38579,-0.379735,0.0130102,-0.157414,-1.04213,0.658779,2.9924,-0.817181,-0.374645,-0.00637409
5755142,0,-1.57062,-0.522889,-0.000443447,-2.09652,-1.5698,1.57143,0.785304,-1.5708,-0.523598,-1.29108e-06,-2.0944,-1.5708,1.5708,0.785397,-0.000338555,-0.000220301,0.000853116,0.000236832,-0.000100134,-1.12991e-05,-0.00111419,0,0,0,0,0,0,0,-0.125111,-10.1139,0.80878,21.5152,-1.38029,-0.373326,0.0587866,-0.157076,-1.05532,0.659508,2.99829,-0.817387,-0.374722,-0.00635661
5755143,0,-1.57062,-0.522887,-0.000447067,-2.09652,-1.5698,1.57143,0.785306,-1.5708,-0.523598,-1.29108e-06,-2.0944,-1.5708,1.5708,0.785397,0.00042391,0.000479913,-0.000637684,0.00071523,-0.000473657,-0.0002788,0.000715267,0,0,0,0,0,0,0,-0.152882,-10.1377,0.860354,21.4914,-1.36931,-0.366002,0.0194189,-0.156609,-1.06116,0.660116,3.00068,-0.817469,-0.374706,-0.0063908
5755144,0,-1.57062,-0.522883,-0.000447067,-2.09652,-1.5698,1.57143,0.7853,-1.5708,-0.523598,-1.29108e-06,-2.0944,-1.5708,1.5708,0.785397,0.000839419,0.00727223,-0.000425124,0.00103403,-0.000315772,0.00032276,-0.00145594,0,0,0,0,0,0,0,-0.176685,-10.1654,0.860354,21.4676,-1.36931,-0.379735,0.071604,-0.156228,-1.06706,0.66069,3.00266,-0.81753,-0.374716,-0.00644403
5755145,0,-1.57063,-0.522885,-0.000447067,-2.09652,-1.5698,1.57143,0.785304,-1.5708,-0.523598,-1.29108e-06,-2.0944,-1.5708,1.5708,0.785397,-0.00120363,0.00540836,-0.000283418,-0.000423973,0.000399837,-2.21859e-05,0.000487438,0,0,0,0,0,0,0,-0.101307,-10.1654,0.860354,21.5152,-1.38579,-0.373326,0.0322363,-0.15574,-1.08192,0.661777,3.00833,-0.817697,-0.374829,-0.00647507
5755146,0,-1.57062,-0.522887,-0.000445118,-2.09653,-1.5698,1.57143,0.785303,-1.5708,-0.523598,-1.29108e-06,-2.0944,-1.5708,1.5708,0.785397,-0.000245605,0.00337611,0.000460668,-0.00148885,6.31076e-05,0.000222568,-0.000895744,0,0,0,0,0,0,0,-0.125111,-10.1377,0.832583,21.5668,-1.38029,-0.379735,0.0651953,-0.154984,-1.10247,0.663313,3.01708,-0.81796,-0.374975,-0.00646926
5755147,0,-1.57062,-0.522887,-0.000445118,-2.09652,-1.5698,1.57143,0.78531,-1.5708,-0.523598,-1.29108e-06,-2.0944,-1.5708,1.5708,0.785397,0.000485877,0.00256586,0.000307111,0.000770838,4.20717e-05,-0.000360247,0.00133562,0,0,0,0,0,0,0,-0.152882,-10.1377,0.832583,21.4914,-1.38029,-0.366002,0.0130102,-0.154536,-1.11989,0.664191,3.0251,-0.818211,-0.375138,-0.00643855
5755148,0,-1.57062,-0.522884,-0.000443447,-2.09652,-1.5698,1.57143,0.785307,-1.5708,-0.523598,-1.29108e-06,-2.0944,-1.5708,1.5708,0.785397,0.00088073,0.00315333,0.000761552,-0.000692408,2.80478e-05,3.11024e-05,-0.000330292,0,0,0,0,0,0,0,-0.176685,-10.1892,0.80878,21.543,-1.38029,-0.373326,0.0459692,-0.155066,-1.13123,0.663473,3.03044,-0.818399,-0.375383,-0.00640077
5755149,0,-1.57062,-0.522887,-0.000443447,-2.09652,-1.5698,1.57143,0.78531,-1.5708,-0.523598,-1.29108e-06,-2.0944,-1.5708,1.5708,0.785397,3.03415e-05,0.00107305,0.000507701,-0.000461511,-0.000184752,0.000258094,0.00100051,0,0,0,0,0,0,0,-0.152882,-10.1377,0.80878,21.543,-1.3748,-0.379735,0.0130102,-0.156374,-1.13711,0.661487,3.03344,-0.818528,-0.375679,-0.00637501
5755150,0,-1.57062,-0.522885,-0.000445118,-2.09652,-1.5698,1.57143,0.785304,-1.5708,-0.523598,-1.29108e-06,-2.0944,-1.5708,1.5708,0.785397,-0.000629386,0.00149792,-0.000218345,0.000342011,0.000283733,0.00064678,-0.00150313,0,0,0,0,0,0,0,-0.125111,-10.1654,0.832583,21.5152,-1.38579,-0.392553,0.071604,-0.157363,-1.13707,0.659756,3.03393,-0.818558,-0.375858,-0.00638109
5755151,0,-1.57062,-0.522885,-0.000445118,-2.09652,-1.5698,1.57143,0.785308,-1.5708,-0.523598,-1.29108e-06,-2.0944,-1.5708,1.5708,0.785397,-0.000419591,0.00109832,-0.000145563,0.00022806,0.000189155,-0.00028089,0.000455973,0,0,0,0,0,0,0,-0.125111,-10.1654,0.832583,21.5152,-1.38579,-0.373326,0.0322363,-0.157176,-1.13181,0.659524,3.03187,-0.818458,-0.375811,-0.00641673
5755152,0,-1.57062,-0.522885,-0.000447067,-2.09652,-1.5698,1.57143,0.7853,-1.5708,-0.523598,-1.29108e-06,-2.0944,-1.5708,1.5708,0.785397,0.000369887,0.000806991,-0.000746656,-0.0061714,0.000126104,-0.000458527,-0.00139144,0,0,0,0,0,0,0,-0.152882,-10.1654,0.860354,21.5152,-1.38579,-0.366002,0.0780126,-0.156063,-1.12525,0.660603,3.03024,-0.818362,-0.375614,-0.00644575
5755153,0,-1.57062,-0.522885,-0.000448737,-2.09652,-1.5698,1.57143,0.785303,-1.5708,-0.523598,-1.29108e-06,-2.0944,-1.5708,1.5708,0.785397,-0.000403023,0.000594078,-0.00105458,-0.00297076,-0.000119381,-0.000543044,0.000259169,0,0,0,0,0,0,0,-0.125111,-10.1654,0.884158,21.4438,-1.38029,-0.359594,0.0459692,-0.154274,-1.12053,0.662815,3.03175,-0.81839,-0.375316,-0.0064325
5755154,0,-1.57062,-0.522889,-0.000445118,-2.09652,-1.5698,1.57143,0.785308,-1.5708,-0.523598,-1.29108e-06,-2.0944,-1.5708,1.5708,0.785397,0.000380932,-0.000768311,0.00050337,-0.00469575,0.000123863,0.000146597,0.00115612,0,0,0,0,0,0,0,-0.152882,-10.1139,0.832583,21.543,-1.38579,-0.373326,0.0194189,-0.152306,-1.116,0.665363,3.03465,-0.818491,-0.374969,-0.00636836
5755155,0,-1.57062,-0.522885,-0.000445118,-2.09652,-1.5698,1.57143,0.785309,-1.5708,-0.523598,-1.29108e-06,-2.0944,-1.5708,1.5708,0.785397,0.000810767,0.000725766,0.00033558,-0.00222047,8.25753e-05,0.00033509,0.000770749,0,0,0,0,0,0,0,-0.176685,-10.1654,0.832583,21.4914,-1.38579,-0.379735,0.0194189,-0.151399,-1.10996,0.666347,3.03676,-0.818612,-0.374753,-0.00627807
5755156,0,-1.57062,-0.522884,-0.000445118,-2.09652,-1.5698,1.57143,0.785306,-1.5708,-0.523598,-1.29108e-06,-2.0944,-1.5708,1.5708,0.785397,-0.000665915,0.00106432,0.00022372,-0.00170261,-0.000351851,-1.39654e-05,-0.00070687,0,0,0,0,0,0,0,-0.125111,-10.1892,0.832583,21.4914,-1.3748,-0.373326,0.0523779,-0.151526,-1.10362,0.665825,3.03752,-0.818717,-0.374693,-0.00620583
5755157,0,-1.57062,-0.522889,-0.000445118,-2.09652,-1.5698,1.57143,0.785302,-1.5708,-0.523598,-1.29108e-06,-2.0944,-1.5708,1.5708,0.785397,0.000205671,-0.00103595,0.000149147,-0.000188173,-0.000438018,0.000228049,-0.000708606,0,0,0,0,0,0,0,-0.152882,-10.1139,0.832583,21.4438,-1.36931,-0.379735,0.0587866,-0.151687,-1.09587,0.665171,3.03571,-0.818722,-0.374638,-0.00617542
5755158,0,-1.57062,-0.522891,-0.000448737,-2.09652,-1.5698,1.57143,0.785307,-1.5708,-0.523598,-1.29108e-06,-2.0944,-1.5708,1.5708,0.785397,-0.0005125,-0.000677323,-0.00110699,-0.00136411,-8.85613e-05,-8.53265e-05,0.00051094,0,0,0,0,0,0,0,-0.125111,-10.1139,0.884158,21.4914,-1.3748,-0.373326,0.0322363,-0.151261,-1.08439,0.665286,3.03053,-0.818569,-0.374465,-0.00617168
5755159,0,-1.57063,-0.522888,-0.000445118,-2.09652,-1.5698,1.57143,0.7853,-1.5708,-0.523598,-1.29108e-06,-2.0944,-1.5708,1.5708,0.785397,-0.000898479,0.000115245,0.000468429,-0.00100319,0.00034786,-0.000328152,-0.00111744,0,0,0,0,0,0,0,-0.101307,-10.1377,0.832583,21.4914,-1.38579,-0.366002,0.071604,-0.150003,-1.07125,0.666569,3.02371,-0.818315,-0.374157,-0.00616685
5755160,0,-1.57062,-0.522888,-0.000447067,-2.09652,-1.5698,1.57143,0.785302,-1.5708,-0.523598,-1.29108e-06,-2.0944,-1.5708,1.5708,0.785397,-4.21738e-05,8.43162e-05,-0.000337328,0.00613868,-0.000174994,-0.000218768,0.000204479,0,0,0,0,0,0,0,-0.125111,-10.1377,0.860354,21.4676,-1.3748,-0.366002,0.0459692,-0.148487,-1.05729,0.668115,3.0147,-0.817954,-0.37382,-0.0061545
5755161,0,-1.57062,-0.522883,-0.000447067,-2.09652,-1.5698,1.57143,0.785301,-1.5708,-0.523598,-1.29108e-06,-2.0944,-1.5708,1.5708,0.785397,0.000621498,0.000711439,-0.000224885,0.00400964,8.67877e-05,0.000125422,-0.000338399,0,0,0,0,0,0,0,-0.152882,-10.1654,0.860354,21.4914,-1.38029,-0.373326,0.0587866,-0.147348,-1.0408,0.669055,3.00127,-0.817412,-0.373538,-0.00613222
5755162,0,-1.57062,-0.522883,-0.000447067,-2.09652,-1.5698,1.57143,0.785311,-1.5708,-0.523598,-1.29108e-06,-2.0944,-1.5708,1.5708,0.785397,0.000414332,0.000478504,-0.000149923,0.00247178,-0.000145592,8.36148e-05,0.0021819,0,0,0,0,0,0,0,-0.152882,-10.1654,0.860354,21.5152,-1.3748,-0.373326,-0.00621587,-0.146806,-1.02441,0.669262,2.98614,-0.816807,-0.37336,-0.00608303
5755163,0,-1.57062,-0.522885,-0.000445118,-2.09652,-1.5698,1.57143,0.785306,-1.5708,-0.523598,-1.29108e-06,-2.0944,-1.5708,1.5708,0.785397,0.000276221,0.000322161,0.000549665,0.0030281,0.00030984,0.000530461,-0.00071554,0,0,0,0,0,0,0,-0.152882,-10.1654,0.832583,21.4676,-1.38579,-0.386144,0.0523779,-0.146959,-1.01076,0.668613,2.9727,-0.816279,-0.373312,-0.0060184
5755164,0,-1.57062,-0.522885,-0.000443447,-2.09652,-1.5698,1.57143,0.785306,-1.5708,-0.523598,-1.29108e-06,-2.0944,-1.5708,1.5708,0.785397,0.000184148,0.000217143,0.000923255,0.00166189,-0.000200341,0.000116282,0.000743677,0,0,0,0,0,0,0,-0.152882,-10.1654,0.80878,21.4914,-1.3748,-0.379735,0.0194189,-0.147885,-0.999719,0.666877,2.9615,-0.815859,-0.373406,-0.00597449
5755165,0,-1.57062,-0.522885,-0.000445118,-2.09652,-1.5698,1.57143,0.7853,-1.5708,-0.523598,-1.29108e-06,-2.0944,-1.5708,1.5708,0.785397,0.000679577,0.000146538,5.86915e-05,0.0012579,-0.000133561,-0.000431105,-0.001437,0,0,0,0,0,0,0,-0.176685,-10.1654,0.832583,21.4914,-1.3748,-0.366002,0.071604,-0.149346,-0.991462,0.664409,2.95306,-0.815562,-0.373605,-0.00595901
5755166,0,-1.57062,-0.522885,-0.000445118,-2.09652,-1.5698,1.57143,0.785304,-1.5708,-0.523598,-1.29108e-06,-2.0944,-1.5708,1.5708,0.785397,-0.000103761,9.90246e-05,3.91277e-05,0.00150789,0.00031786,0.000221223,0.000737424,0,0,0,0,0,0,0,-0.152882,-10.1654,0.832583,21.4676,-1.38579,-0.379735,0.0258276,-0.150628,-0.985794,0.662325,2.94728,-0.815363,-0.373793,-0.00595717
5755167,0,-1.57062,-0.522885,-0.000445118,-2.09652,-1.5698,1.57143,0.785299,-1.5708,-0.523598,-1.29108e-06,-2.0944,-1.5708,1.5708,0.785397,-0.000718788,6.70157e-05,2.60851e-05,0.000532813,0.000211907,-0.000361144,-0.00120381,0,0,0,0,0,0,0,-0.125111,-10.1654,0.832583,21.4914,-1.38579,-0.366002,0.071604,-0.151114,-0.982164,0.661465,2.94364,-0.815224,-0.373865,-0.00595128
5755168,0,-1.57062,-0.522887,-0.000447067,-2.09652,-1.5698,1.57143,0.785306,-1.5708,-0.523598,-1.29108e-06,-2.0944,-1.5708,1.5708,0.785397,0.000727234,-0.000604187,-0.000632224,-0.000138333,-0.00026563,0.000267863,0.0013676,0,0,0,0,0,0,0,-0.176685,-10.1377,0.860354,21.5152,-1.3748,-0.379735,0.0130102,-0.150804,-0.98017,0.661821,2.94197,-0.815149,-0.373817,-0.00592787
5755169,0,-1.57063,-0.522887,-0.000447067,-2.09652,-1.5698,1.57143,0.785309,-1.5708,-0.523598,-1.29108e-06,-2.0944,-1.5708,1.5708,0.785397,-0.00127842,-0.000402229,-0.000421483,0.00106886,-0.000177086,0.000178576,0.000911735,0,0,0,0,0,0,0,-0.101307,-10.1377,0.860354,21.4676,-1.3748,-0.379735,0.0130102,-0.149821,-0.978771,0.663247,2.94151,-0.815113,-0.373663,-0.0058901
5755170,0,-1.57063,-0.522889,-0.000447067,-2.09652,-1.5698,1.57143,0.7853,-1.5708,-0.523598,-1.29108e-06,-2.0944,-1.5708,1.5708,0.785397,-0.000295465,-0.000824543,-0.000280988,0.00074816,8.53929e-05,-0.000118309,-0.00179967,0,0,0,0,0,0,0,-0.125111,-10.1139,0.860354,21.4676,-1.38029,-0.373326,0.0780126,-0.148137,-0.976866,0.665658,2.9411,-0.815059,-0.373401,-0.00587213
5755171,0,-1.57062,-0.52289,-0.000447067,-2.09652,-1.5698,1.57143,0.785302,-1.5708,-0.523598,-1.29108e-06,-2.0944,-1.5708,1.5708,0.785397,0.00165906,-0.0062575,-0.000187326,-0.000588158,-0.000146522,-7.88724e-05,-1.29884e-05,0,0,0,0,0,0,0,-0.204456,-10.1377,0.860354,21.5152,-1.3748,-0.373326,0.0459692,-0.146653,-0.970577,0.667692,2.93905,-0.814952,-0.373119,-0.00589535
5755172,0,-1.57062,-0.522888,-0.000447067,-2.09652,-1.5698,1.57143,0.785302,-1.5708,-0.523598,-1.29108e-06,-2.0944,-1.5708,1.5708,0.785397,-0.000749998,-0.0046935,-0.000124884,-0.0010217,0.00030922,0.000422136,-0.000958095,0,0,0,0,0,0,0,-0.125111,-10.1377,0.860354,21.543,-1.38579,-0.386144,0.071604,-0.14594,-0.956214,0.668519,2.9343,-0.814773,-0.372848,-0.0059324
5755173,0,-1.57062,-0.522889,-0.000445118,-2.09652,-1.5698,1.57143,0.785308,-1.5708,-0.523598,-1.29108e-06,-2.0944,-1.5708,1.5708,0.785397,-0.000499998,-0.00407719,0.000566358,-1.65048e-05,-0.000200755,-0.000464561,0.000819332,0,0,0,0,0,0,0,-0.125111,-10.1139,0.832583,21.5152,-1.3748,-0.366002,0.0322363,-0.145377,-0.937614,0.668971,2.92832,-0.814561,-0.372548,-0.00594251
5755174,0,-1.57062,-0.522888,-0.000447067,-2.09652,-1.5698,1.57143,0.785302,-1.5708,-0.523598,-1.29108e-06,-2.0944,-1.5708,1.5708,0.785397,0.000873094,-0.00245485,-0.000272042,2.57684e-07,-0.000133836,-3.844e-05,-0.000437123,0,0,0,0,0,0,0,-0.176685,-10.1377,0.860354,21.5152,-1.3748,-0.373326,0.0587866,-0.145008,-0.920914,0.669126,2.92309,-0.81438,-0.372309,-0.00590582
5755175,0,-1.57062,-0.522886,-0.000443447,-2.09652,-1.5698,1.57143,0.785307,-1.5708,-0.523598,-1.29108e-06,-2.0944,-1.5708,1.5708,0.785397,2.52505e-05,-0.00120711,0.00102506,-0.000640996,-8.92242e-05,-2.56267e-05,0.00164136,0,0,0,0,0,0,0,-0.152882,-10.1654,0.80878,21.543,-1.3748,-0.373326,0.00660151,-0.1454,-0.910314,0.668396,2.92026,-0.814295,-0.372264,-0.00582416
5755176,0,-1.57062,-0.522883,-0.000448737,-2.09653,-1.5698,1.57143,0.785305,-1.5708,-0.523598,-1.29108e-06,-2.0944,-1.5708,1.5708,0.785397,0.000573646,-0.000969851,-0.00107986,-0.00153462,0.000143968,-1.70844e-05,-0.000601178,0,0,0,0,0,0,0,-0.176685,-10.1654,0.884158,21.5906,-1.38029,-0.373326,0.0523779,-0.146235,-0.907968,0.667329,2.92119,-0.814342,-0.37238,-0.00571529
5755177,0,-1.57063,-0.52289,-0.000450408,-2.09652,-1.5698,1.57143,0.785303,-1.5708,-0.523598,-1.29108e-06,-2.0944,-1.5708,1.5708,0.785397,-0.00138081,-0.00253364,-0.00127672,9.52942e-05,0.000740238,-1.13896e-05,-0.000163426,0,0,0,0,0,0,0,-0.101307,-10.0901,0.907962,21.543,-1.39769,-0.373326,0.0459692,-0.146043,-0.910903,0.668031,2.92464,-0.814434,-0.37239,-0.00561379
5755179,0,-1.57062,-0.522885,-0.000448737,-2.09652,-1.5698,1.57143,0.785308,-1.5708,-0.523598,-1.29108e-06,-2.0944,-1.5708,1.5708,0.785397,4.98774e-06,-8.21452e-05,-0.000598365,0.000294873,-0.000710863,-5.06206e-06,0.000594232,0,0,0,0,0,0,0,-0.152882,-10.1654,0.884158,21.5152,-1.36381,-0.373326,0.0322363,-0.144589,-0.921842,0.671279,2.93148,-0.814569,-0.372318,-0.00544867
5755180,0,-1.57063,-0.522889,-0.000447067,-2.09652,-1.5698,1.57143,0.785304,-1.5708,-0.523598,-1.29108e-06,-2.0944,-1.5708,1.5708,0.785397,-0.000646289,-0.00131343,0.000157902,0.000755398,0.000543344,-3.3747e-06,-0.000824549,0,0,0,0,0,0,0,-0.125111,-10.1139,0.860354,21.4914,-1.39128,-0.373326,0.0651953,-0.144629,-0.93026,0.671918,2.93513,-0.814669,-0.372442,-0.00535387
5755181,0,-1.57062,-0.522889,-0.000445118,-2.09652,-1.5698,1.57143,0.785301,-1.5708,-0.523598,-1.29108e-06,-2.0944,-1.5708,1.5708,0.785397,0.000775567,-0.000914804,0.000754882,-5.17102e-05,0.000362229,0.000235109,-0.000549699,0,0,0,0,0,0,0,-0.176685,-10.1139,0.832583,21.5152,-1.39128,-0.379735,0.0651953,-0.144894,-0.937938,0.672176,2.93836,-0.814762,-0.372588,-0.00525299
5755182,0,-1.57062,-0.522887,-0.000447067,-2.09652,-1.5698,1.57143,0.785307,-1.5708,-0.523598,-1.29108e-06,-2.0944,-1.5708,1.5708,0.785397,-3.97675e-05,-8.24439e-05,-0.000146359,-3.33461e-05,-0.000165415,-0.000351887,0.00180367,0,0,0,0,0,0,0,-0.152882,-10.1377,0.860354,21.5152,-1.38029,-0.366002,0.00660151,-0.145877,-0.945435,0.671386,2.94167,-0.814894,-0.372836,-0.0051284
5755183,0,-1.57062,-0.522887,-0.000447067,-2.09652,-1.5698,1.57143,0.785303,-1.5708,-0.523598,-1.29108e-06,-2.0944,-1.5708,1.5708,0.785397,-2.65117e-05,-7.70026e-05,-9.75729e-05,-0.000670999,-0.000110277,-0.000234591,1.56538e-05,0,0,0,0,0,0,0,-0.152882,-10.1377,0.860354,21.543,-1.38029,-0.366002,0.038645,-0.146834,-0.954345,0.670721,2.94597,-0.815084,-0.37309,-0.00497858
5755184,0,-1.57062,-0.522887,-0.000443447,-2.09652,-1.5698,1.57143,0.785306,-1.5708,-0.523598,-1.29108e-06,-2.0944,-1.5708,1.5708,0.785397,-0.000667288,-6.7865e-05,0.00114138,0.000759727,-0.000480419,0.000114873,1.04359e-05,0,0,0,0,0,0,0,-0.125111,-10.1377,0.80878,21.4914,-1.36931,-0.373326,0.038645,-0.147531,-0.964026,0.670401,2.95078,-0.815299,-0.373303,-0.0048437
5755185,0,-1.57062,-0.522884,-0.000447067,-2.09652,-1.5698,1.57143,0.785302,-1.5708,-0.523598,-1.29108e-06,-2.0944,-1.5708,1.5708,0.785397,0.000761567,0.00114879,-0.000445508,0.00050696,8.66218e-05,-0.000194685,-0.00168846,0,0,0,0,0,0,0,-0.176685,-10.1892,0.860354,21.4914,-1.38029,-0.366002,0.0844213,-0.148356,-0.973813,0.669808,2.95532,-0.815502,-0.373529,-0.00474471
5755186,0,-1.57062,-0.522884,-0.000447067,-2.09653,-1.5698,1.57143,0.785311,-1.5708,-0.523598,-1.29108e-06,-2.0944,-1.5708,1.5708,0.785397,-4.91006e-05,0.000756559,-0.000297005,-0.00142491,5.77479e-05,-0.000367149,0.00175657,0,0,0,0,0,0,0,-0.152882,-10.1892,0.860354,21.5668,-1.38029,-0.359594,0.00660151,-0.149028,-0.984922,0.669536,2.96043,-0.815709,-0.37373,-0.00465385
5755187,0,-1.57062,-0.522887,-0.000447067,-2.09652,-1.5698,1.57143,0.785301,-1.5708,-0.523598,-1.29108e-06,-2.0944,-1.5708,1.5708,0.785397,-0.000682348,-0.000709027,-0.000198003,-0.000392859,0.0004454,0.000738578,-0.00123645,0,0,0,0,0,0,0,-0.125111,-10.1377,0.860354,21.543,-1.39128,-0.386144,0.071604,-0.149078,-0.996278,0.670225,2.96622,-0.815919,-0.373812,-0.00455323
5755188,0,-1.57062,-0.522887,-0.000445118,-2.09652,-1.5698,1.57143,0.785307,-1.5708,-0.523598,-1.29108e-06,-2.0944,-1.5708,1.5708,0.785397,0.000194715,-0.000477915,0.000517612,0.000944721,-0.000109968,0.000492385,0.0015832,0,0,0,0,0,0,0,-0.152882,-10.1377,0.832583,21.4914,-1.38029,-0.386144,0.00660151,-0.148826,-1.00424,0.671185,2.97056,-0.816069,-0.373801,-0.00446322
5755189,0,-1.57062,-0.522887,-0.000443447,-2.09652,-1.5698,1.57143,0.785301,-1.5708,-0.523598,-1.29108e-06,-2.0944,-1.5708,1.5708,0.785397,0.000686622,-0.000322533,0.000901886,-0.000576462,-0.000276762,-0.000417728,-0.000639955,0,0,0,0,0,0,0,-0.176685,-10.1377,0.80878,21.543,-1.3748,-0.366002,0.0523779,-0.149278,-1.00847,0.670937,2.97281,-0.816169,-0.373867,-0.00439603
5755190,0,-1.57062,-0.522885,-0.000447067,-2.09652,-1.5698,1.57143,0.78531,-1.5708,-0.523598,-1.29108e-06,-2.0944,-1.5708,1.5708,0.785397,-9.90638e-05,0.00043165,-0.000605168,0.000822231,1.89422e-05,-7.21817e-06,0.00150614,0,0,0,0,0,0,0,-0.152882,-10.1654,0.860354,21.4914,-1.38029,-0.373326,0.000192821,-0.150288,-1.01138,0.669822,2.97427,-0.81626,-0.374016,-0.00435632
5755191,0,-1.57062,-0.522885,-0.000445118,-2.09652,-1.5698,1.57143,0.785305,-1.5708,-0.523598,-1.29108e-06,-2.0944,-1.5708,1.5708,0.785397,0.000490769,0.00028556,0.000246168,-8.57331e-06,1.26281e-05,0.000232547,-0.00116604,0,0,0,0,0,0,0,-0.176685,-10.1654,0.832583,21.5152,-1.38029,-0.379735,0.0587866,-0.150976,-1.01438,0.669222,2.97557,-0.81633,-0.374121,-0.00435673
5755192,0,-1.57062,-0.522885,-0.000448737,-2.09652,-1.5698,1.57143,0.785307,-1.5708,-0.523598,-1.29108e-06,-2.0944,-1.5708,1.5708,0.785397,-0.000229632,0.000188719,-0.00104231,-5.65206e-06,8.41875e-06,-8.23277e-05,0.000918059,0,0,0,0,0,0,0,-0.152882,-10.1654,0.884158,21.5152,-1.38029,-0.373326,0.0130102,-0.151107,-1.0176,0.669506,2.9769,-0.816376,-0.374148,-0.00440225
5755193,0,-1.57062,-0.522885,-0.000445118,-2.09652,-1.5698,1.57143,0.785304,-1.5708,-0.523598,-1.29108e-06,-2.0944,-1.5708,1.5708,0.785397,-0.000153088,0.000124571,0.00051155,0.000553092,5.6125e-06,0.000182474,-0.000100038,0,0,0,0,0,0,0,-0.152882,-10.1654,0.832583,21.4914,-1.38029,-0.379735,0.0322363,-0.150714,-1.02051,0.670576,2.9781,-0.816401,-0.374095,-0.00448585
5755194,0,-1.57062,-0.522885,-0.000447067,-2.09652,-1.5698,1.57143,0.785302,-1.5708,-0.523598,-1.29108e-06,-2.0944,-1.5708,1.5708,0.785397,-0.000102059,8.21167e-05,-0.000308581,0.000368763,3.74167e-06,0.000121649,-0.000575318,0,0,0,0,0,0,0,-0.152882,-10.1654,0.860354,21.4914,-1.38029,-0.379735,0.0459692,-0.150235,-1.02255,0.671709,2.97874,-0.816401,-0.37403,-0.00460797
5755195,0,-1.57062,-0.522885,-0.000443447,-2.09652,-1.5698,1.57143,0.785308,-1.5708,-0.523598,-1.29108e-06,-2.0944,-1.5708,1.5708,0.785397,-0.000717653,5.40463e-05,0.00100071,0.000245869,-0.000200956,-0.000156259,0.000599799,0,0,0,0,0,0,0,-0.125111,-10.1654,0.80878,21.4914,-1.3748,-0.373326,0.0194189,-0.149979,-1.02382,0.672386,2.9789,-0.816393,-0.374004,-0.0047611
5755196,0,-1.57062,-0.522884,-0.000445118,-2.09652,-1.5698,1.57143,0.785303,-1.5708,-0.523598,-1.29108e-06,-2.0944,-1.5708,1.5708,0.785397,-0.000478435,0.000592319,0.000110325,-0.00104249,6.94798e-05,-0.000104173,-0.000583478,0,0,0,0,0,0,0,-0.125111,-10.1892,0.832583,21.543,-1.38029,-0.373326,0.0459692,-0.149887,-1.02546,0.672649,2.97946,-0.81641,-0.37402,-0.00492645
5755197,0,-1.57063,-0.522887,-0.000445118,-2.09652,-1.5698,1.57143,0.785308,-1.5708,-0.523598,-1.29108e-06,-2.0944,-1.5708,1.5708,0.785397,-0.000875769,-0.000811939,7.35501e-05,0.00106826,-0.000157131,-0.000578075,0.00154379,0,0,0,0,0,0,0,-0.101307,-10.1377,0.832583,21.4676,-1.3748,-0.359594,-0.00621587,-0.149575,-1.02711,0.673044,2.98027,-0.816432,-0.37401,-0.00510195
5755198,0,-1.57062,-0.522887,-0.000448737,-2.09652,-1.5698,1.57143,0.785299,-1.5708,-0.523598,-1.29108e-06,-2.0944,-1.5708,1.5708,0.785397,0.00117939,-0.000541587,-0.00115739,-0.000401441,9.86968e-05,0.000360602,-0.00185302,0,0,0,0,0,0,0,-0.176685,-10.1377,0.884158,21.5152,-1.38029,-0.379735,0.071604,-0.148815,-1.02673,0.674014,2.98002,-0.816397,-0.37391,-0.00530332
5755199,0,-1.57062,-0.522889,-0.000445118,-2.09652,-1.5698,1.57143,0.785306,-1.5708,-0.523598,-1.29108e-06,-2.0944,-1.5708,1.5708,0.785397,0.000229449,-0.000918091,0.000434831,-0.000267619,6.57978e-05,-0.000268225,0.000934793,0,0,0,0,0,0,0,-0.152882,-10.1139,0.832583,21.5152,-1.38029,-0.366002,0.0130102,-0.148216,-1.0246,0.674836,2.97905,-0.816331,-0.373804,-0.00553183
5755200,0,-1.57062,-0.522884,-0.000443447,-2.09652,-1.5698,1.57143,0.785299,-1.5708,-0.523598,-1.29108e-06,-2.0944,-1.5708,1.5708,0.785397,0.000709778,0.00115101,0.000846699,-0.000178406,-0.000159585,9.24507e-05,-0.00154694,0,0,0,0,0,0,0,-0.176685,-10.1892,0.80878,21.5152,-1.3748,-0.373326,0.071604,-0.148581,-1.02316,0.674302,2.9786,-0.816306,-0.373842,-0.00575987
5755201,0,-1.57062,-0.522885,-0.000445118,-2.09652,-1.5698,1.57143,0.785305,-1.5708,-0.523598,-1.29108e-06,-2.0944,-1.5708,1.5708,0.785397,-0.00073324,0.000210405,7.65418e-06,0.000994691,9.70603e-05,0.000536352,0.000901484,0,0,0,0,0,0,0,-0.125111,-10.1654,0.832583,21.4676,-1.38029,-0.386144,0.0194189,-0.149638,-1.02381,0.672717,2.97886,-0.816322,-0.374008,-0.00596521
5755202,0,-1.57062,-0.522885,-0.000447067,-2.09652,-1.5698,1.57143,0.785302,-1.5708,-0.523598,-1.29108e-06,-2.0944,-1.5708,1.5708,0.785397,0.000160787,0.000140177,-0.000644511,0.000663131,-0.000342194,0.000120209,-0.000382355,0,0,0,0,0,0,0,-0.152882,-10.1654,0.860354,21.4676,-1.36931,-0.379735,0.0459692,-0.150158,-1.02498,0.671874,2.97882,-0.816302,-0.374108,-0.00614144
5755203,0,-1.57062,-0.522885,-0.000441499,-2.09652,-1.5698,1.57143,0.78531,-1.5708,-0.523598,-1.29108e-06,-2.0944,-1.5708,1.5708,0.785397,0.000664003,9.33812e-05,0.00142637,-0.000114722,-2.46789e-05,-0.000428487,0.00120316,0,0,0,0,0,0,0,-0.176685,-10.1654,0.781009,21.4914,-1.3748,-0.366002,0.00660151,-0.150464,-1.02561,0.671321,2.97828,-0.816252,-0.37418,-0.0062938
5755204,0,-1.57062,-0.522885,-0.000445118,-2.09652,-1.5698,1.57143,0.785302,-1.5708,-0.523598,-1.29108e-06,-2.0944,-1.5708,1.5708,0.785397,-0.000114143,6.22017e-05,-0.000255515,-0.000633291,0.000390448,-0.000285658,-0.000893315,0,0,0,0,0,0,0,-0.152882,-10.1654,0.832583,21.5152,-1.38579,-0.366002,0.0523779,-0.151354,-1.02653,0.669889,2.97817,-0.816232,-0.37434,-0.0064372
5755205,0,-1.57062,-0.522884,-0.000443447,-2.09652,-1.5698,1.57143,0.785304,-1.5708,-0.523598,-1.29108e-06,-2.0944,-1.5708,1.5708,0.785397,-0.000725709,0.00059824,0.000386468,0.000134619,-0.000350053,0.000318188,-0.000832902,0,0,0,0,0,0,0,-0.125111,-10.1892,0.80878,21.4914,-1.36931,-0.379735,0.0587866,-0.151982,-1.02822,0.668777,2.97878,-0.816229,-0.374456,-0.00658228
5755206,0,-1.57062,-0.522885,-0.000448737,-2.09652,-1.5698,1.57143,0.785309,-1.5708,-0.523598,-1.29108e-06,-2.0944,-1.5708,1.5708,0.785397,-0.000483806,-0.000158014,-0.00150559,8.97473e-05,0.000376983,-0.000296501,0.000665435,0,0,0,0,0,0,0,-0.125111,-10.1654,0.884158,21.4914,-1.38579,-0.366002,0.0258276,-0.151408,-1.03012,0.669368,2.97949,-0.816191,-0.374385,-0.00671396
5755207,0,-1.57062,-0.522885,-0.000448737,-2.09652,-1.5698,1.57143,0.785307,-1.5708,-0.523598,-1.29108e-06,-2.0944,-1.5708,1.5708,0.785397,0.000327076,-0.000105365,-0.00100373,5.98324e-05,0.000251322,0.000548318,-0.000302362,0,0,0,0,0,0,0,-0.152882,-10.1654,0.884158,21.4914,-1.38579,-0.386144,0.0459692,-0.1496,-1.03114,0.671822,2.97968,-0.816097,-0.374113,-0.00681843
5755208,0,-1.57063,-0.522885,-0.000445118,-2.09652,-1.5698,1.57143,0.78531,-1.5708,-0.523598,-1.29108e-06,-2.0944,-1.5708,1.5708,0.785397,-0.000431563,-7.026e-05,0.000537274,-0.000516923,-3.59025e-05,0.000128186,0.00078177,0,0,0,0,0,0,0,-0.125111,-10.1654,0.832583,21.5152,-1.38029,-0.379735,0.0194189,-0.147666,-1.03141,0.674529,2.97956,-0.815996,-0.373818,-0.00690291
5755209,0,-1.57062,-0.522889,-0.000441499,-2.09652,-1.5698,1.57143,0.785305,-1.5708,-0.523598,-1.29108e-06,-2.0944,-1.5708,1.5708,0.785397,0.000918717,-0.00125328,0.00156461,0.000769009,0.000382966,-0.000151901,-0.00117424,0,0,0,0,0,0,0,-0.176685,-10.1139,0.781009,21.4676,-1.39128,-0.373326,0.0651953,-0.147191,-1.0304,0.674974,2.97886,-0.815937,-0.373745,-0.00698119
5755210,0,-1.57062,-0.522885,-0.000447067,-2.09652,-1.5698,1.57143,0.785309,-1.5708,-0.523598,-1.29108e-06,-2.0944,-1.5708,1.5708,0.785397,-0.000593948,0.000370898,-0.000812968,-4.41389e-05,0.000255311,-0.000101268,0.00162467,0,0,0,0,0,0,0,-0.125111,-10.1654,0.860354,21.4914,-1.39128,-0.373326,0.000192821,-0.147944,-1.02784,0.673481,2.97722,-0.815903,-0.373855,-0.00705756
5755211,0,-1.57062,-0.522887,-0.000445118,-2.09653,-1.5698,1.57143,0.785302,-1.5708,-0.523598,-1.29108e-06,-2.0944,-1.5708,1.5708,0.785397,0.000253649,-0.000402356,0.000107636,-0.00179266,-0.000236694,0.000169847,-0.000849666,0,0,0,0,0,0,0,-0.152882,-10.1377,0.832583,21.5668,-1.38029,-0.379735,0.0523779,-0.148376,-1.02621,0.672492,2.97628,-0.815914,-0.373933,-0.00712525
5755212,0,-1.57063,-0.522887,-0.000445118,-2.09652,-1.5698,1.57143,0.785306,-1.5708,-0.523598,-1.29108e-06,-2.0944,-1.5708,1.5708,0.785397,-0.000480515,-0.000268242,7.1757e-05,0.000568129,-0.000361246,-0.000124127,0.000891618,0,0,0,0,0,0,0,-0.125111,-10.1377,0.832583,21.4914,-1.3748,-0.373326,0.0130102,-0.148321,-1.02597,0.672255,2.97648,-0.815979,-0.373957,-0.00719565
5755213,0,-1.57062,-0.522891,-0.000445118,-2.09652,-1.5698,1.57143,0.7853,-1.5708,-0.523598,-1.29108e-06,-2.0944,-1.5708,1.5708,0.785397,0.000329271,-0.00129246,4.7838e-05,-0.000827673,-3.73804e-05,-8.27517e-05,-0.00133837,0,0,0,0,0,0,0,-0.152882,-10.0901,0.832583,21.543,-1.38029,-0.373326,0.0651953,-0.148222,-1.02482,0.672019,2.97629,-0.816039,-0.373973,-0.00728407
5755214,0,-1.57062,-0.522889,-0.000447067,-2.09652,-1.5698,1.57143,0.785306,-1.5708,-0.523598,-1.29108e-06,-2.0944,-1.5708,1.5708,0.785397,-0.0004301,-0.00086164,0.00599337,9.7832e-05,0.00017853,0.000182191,0.00104053,0,0,0,0,0,0,0,-0.125111,-10.0901,0.860354,21.5152,-1.38579,-0.379735,0.0130102,-0.149737,-1.02192,0.669085,2.97526,-0.81612,-0.374222,-0.00738581
5755215,0,-1.57062,-0.522885,-0.000441317,-2.09652,-1.5698,1.57143,0.785299,-1.5708,-0.523598,-1.29108e-06,-2.0944,-1.5708,1.5708,0.785397,0.000362881,0.00118881,0.00575293,0.000622033,-0.000491331,-0.000387166,-0.00147645,0,0,0,0,0,0,0,-0.152882,-10.1654,0.80878,21.4914,-1.36931,-0.366002,0.071604,-0.155285,-1.01927,0.659605,2.97409,-0.816319,-0.375105,-0.0074851
5755216,0,-1.57062,-0.522889,-0.000444408,-2.09652,-1.5698,1.57143,0.785305,-1.5708,-0.523598,-1.29108e-06,-2.0944,-1.5708,1.5708,0.785397,-0.000407694,-0.000413888,0.00369167,-0.000142123,0.000282797,1.3157e-05,0.00094848,0,0,0,0,0,0,0,-0.125111,-10.1139,0.832583,21.5152,-1.38579,-0.373326,0.0194189,-0.163596,-1.01866,0.645704,2.97344,-0.816615,-0.376444,-0.0075687
5755217,0,-1.57063,-0.522885,-0.00044683,-2.09652,-1.5698,1.57143,0.785302,-1.5708,-0.523598,-1.29108e-06,-2.0944,-1.5708,1.5708,0.785397,-0.000828608,0.000930499,0.0021214,-0.000744363,0.000188532,8.77134e-06,-0.000351024,0,0,0,0,0,0,0,-0.101307,-10.1654,0.860354,21.543,-1.38579,-0.373326,0.0459692,-0.170885,-1.01986,0.633395,2.97376,-0.816906,-0.377645,-0.0076276
5755218,0,-1.57062,-0.522884,-0.000445039,-2.09652,-1.5698,1.57143,0.785307,-1.5708,-0.523598,-1.29108e-06,-2.0944,-1.5708,1.5708,0.785397,0.000654021,0.00117714,0.0022963,0.000153372,-7.77628e-05,5.84756e-06,0.000511969,0,0,0,0,0,0,0,-0.152882,-10.1892,0.832583,21.5152,-1.38029,-0.373326,0.0258276,-0.175618,-1.02331,0.625193,2.97542,-0.817162,-0.378474,-0.00766515
5755219,0,-1.57062,-0.522887,-0.00044704,-2.09652,-1.5698,1.57143,0.785303,-1.5708,-0.523598,-1.29108e-06,-2.0944,-1.5708,1.5708,0.785397,-0.0002136,-0.000421664,0.00105557,0.00121587,0.000151609,3.89837e-06,-0.000404672,0,0,0,0,0,0,0,-0.125111,-10.1377,0.860354,21.4676,-1.38579,-0.373326,0.0459692,-0.178206,-1.02723,0.62056,2.97706,-0.817343,-0.378978,-0.00769965
5755220,0,-1.57062,-0.522884,-0.000447058,-2.09653,-1.5698,1.57143,0.785305,-1.5708,-0.523598,-1.29108e-06,-2.0944,-1.5708,1.5708,0.785397,-0.0001424,0.000925316,0.000834449,-0.00150947,-0.000102378,2.59892e-06,0.000476204,0,0,0,0,0,0,0,-0.125111,-10.1892,0.860354,21.5668,-1.38029,-0.373326,0.0258276,-0.178587,-1.02985,0.619499,2.97796,-0.817427,-0.379124,-0.00773893
5755221,0,-1.57062,-0.522889,-0.000448734,-2.09652,-1.5698,1.57143,0.785308,-1.5708,-0.523598,-1.29108e-06,-2.0944,-1.5708,1.5708,0.785397,0.00111149,-0.00114636,9.75401e-05,-0.0004495,0.000135198,1.73261e-06,0.000317469,0,0,0,0,0,0,0,-0.176685,-10.1139,0.884158,21.543,-1.38579,-0.373326,0.0258276,-0.177093,-1.03193,0.621544,2.9792,-0.817471,-0.378964,-0.00778033
5755222,0,-1.57062,-0.522887,-0.000443447,-2.09652,-1.5698,1.57143,0.785302,-1.5708,-0.523598,-1.29108e-06,-2.0944,-1.5708,1.5708,0.785397,0.000184183,-0.000207429,0.0019018,-0.000299667,-0.000113318,1.15507e-06,-0.00100906,0,0,0,0,0,0,0,-0.152882,-10.1377,0.80878,21.543,-1.38029,-0.373326,0.0587866,-0.174994,-1.03232,0.62476,2.98013,-0.817486,-0.378677,-0.00783667
5755223,0,-1.57062,-0.522885,-0.000445118,-2.09652,-1.5698,1.57143,0.785307,-1.5708,-0.523598,-1.29108e-06,-2.0944,-1.5708,1.5708,0.785397,0.000679601,0.000511328,0.000766212,0.000449836,0.000127905,0.000238129,0.000310639,0,0,0,0,0,0,0,-0.176685,-10.1654,0.832583,21.5152,-1.38579,-0.379735,0.0322363,-0.173153,-1.03143,0.627722,2.98033,-0.817479,-0.378406,-0.0079068
5755224,0,-1.57062,-0.522885,-0.000447067,-2.09652,-1.5698,1.57143,0.785302,-1.5708,-0.523598,-1.29108e-06,-2.0944,-1.5708,1.5708,0.785397,0.000453067,0.000340885,-9.74398e-05,-0.000349723,8.527e-05,0.000158753,-0.000538892,0,0,0,0,0,0,0,-0.176685,-10.1654,0.860354,21.543,-1.38579,-0.379735,0.0523779,-0.171206,-1.03126,0.631019,2.98059,-0.817465,-0.378122,-0.00796819
5755225,0,-1.57062,-0.522887,-0.000447067,-2.09652,-1.5698,1.57143,0.78531,-1.5708,-0.523598,-1.29108e-06,-2.0944,-1.5708,1.5708,0.785397,-0.000254767,-0.000422357,-3.39354e-05,-0.000233149,-0.000350054,0.000580553,0.00133616,0,0,0,0,0,0,0,-0.152882,-10.1377,0.860354,21.543,-1.3748,-0.392553,0.00660151,-0.168421,-1.03142,0.63575,2.98102,-0.817429,-0.377714,-0.00801178
5755226,0,-1.57062,-0.522885,-0.000445118,-2.09652,-1.5698,1.57143,0.785301,-1.5708,-0.523598,-1.29108e-06,-2.0944,-1.5708,1.5708,0.785397,-0.000169845,0.000368042,0.000650259,0.000494181,0.000173531,-0.000596309,-0.00127937,0,0,0,0,0,0,0,-0.152882,-10.1654,0.832583,21.5152,-1.38579,-0.366002,0.0651953,-0.164984,-1.03099,0.641482,2.98118,-0.817366,-0.377209,-0.00804846
5755227,0,-1.57062,-0.522887,-0.000447067,-2.09652,-1.5698,1.57143,0.785306,-1.5708,-0.523598,-1.29108e-06,-2.0944,-1.5708,1.5708,0.785397,0.000443582,-0.000404253,-0.000198657,0.00598845,-8.77629e-05,0.000111087,0.00107987,0,0,0,0,0,0,0,-0.176685,-10.1377,0.860354,21.543,-1.38029,-0.379735,0.0130102,-0.16155,-1.02801,0.647148,2.97886,-0.817201,-0.376692,-0.00809953
5755228,0,-1.57062,-0.522887,-0.000441499,-2.09652,-1.5698,1.57143,0.785299,-1.5708,-0.523598,-1.29108e-06,-2.0944,-1.5708,1.5708,0.785397,-0.000261091,-0.000269502,0.00173669,0.00451801,-5.85086e-05,7.4058e-05,-0.00145023,0,0,0,0,0,0,0,-0.152882,-10.1377,0.781009,21.543,-1.38029,-0.379735,0.071604,-0.158728,-1.02007,0.651769,2.97174,-0.816858,-0.376238,-0.00817468
5755229,0,-1.57062,-0.522884,-0.000445118,-2.09652,-1.5698,1.57143,0.785304,-1.5708,-0.523598,-1.29108e-06,-2.0944,-1.5708,1.5708,0.785397,-0.000823674,0.00102676,-3.88159e-05,0.0034063,0.000164445,-0.000187987,0.000491245,0,0,0,0,0,0,0,-0.125111,-10.1892,0.832583,21.543,-1.38579,-0.373326,0.0322363,-0.156512,-1.01009,0.655295,2.9623,-0.816437,-0.375868,-0.00825383
5755230,0,-1.57062,-0.522884,-0.000447067,-2.09652,-1.5698,1.57143,0.785298,-1.5708,-0.523598,-1.29108e-06,-2.0944,-1.5708,1.5708,0.785397,0.000100498,0.000684505,-0.000668129,0.00256658,-9.38207e-05,-0.000125325,-0.00136792,0,0,0,0,0,0,0,-0.152882,-10.1892,0.860354,21.543,-1.38029,-0.373326,0.0780126,-0.153975,-1.00296,0.659261,2.95465,-0.81607,-0.375482,-0.00830199
5755231,0,-1.57063,-0.52288,-0.000447067,-2.09652,-1.5698,1.57143,0.785305,-1.5708,-0.523598,-1.29108e-06,-2.0944,-1.5708,1.5708,0.785397,-0.00113943,0.00166276,-0.000439898,0.00313927,-0.000265998,-8.35497e-05,0.00125819,0,0,0,0,0,0,0,-0.101307,-10.2408,0.860354,21.4914,-1.3748,-0.373326,0.0194189,-0.150671,-0.9999,0.664457,2.94989,-0.815787,-0.375018,-0.00829733
5755232,0,-1.57063,-0.522887,-0.000447067,-2.09652,-1.5698,1.57143,0.785302,-1.5708,-0.523598,-1.29108e-06,-2.0944,-1.5708,1.5708,0.785397,-0.000759618,-0.00130434,-0.000289124,0.00105276,0.000229569,0.000181659,-0.00109399,0,0,0,0,0,0,0,-0.101307,-10.1377,0.860354,21.543,-1.38579,-0.379735,0.071604,-0.146879,-0.99895,0.670309,2.94729,-0.815574,-0.374496,-0.00824101
5755233,0,-1.57062,-0.522887,-0.000445118,-2.09652,-1.5698,1.57143,0.785308,-1.5708,-0.523598,-1.29108e-06,-2.0944,-1.5708,1.5708,0.785397,0.000700014,-0.000869562,0.000459971,0.000826594,0.000153046,-0.000116253,0.000966096,0,0,0,0,0,0,0,-0.152882,-10.1377,0.832583,21.543,-1.38579,-0.373326,0.0258276,-0.14358,-0.997208,0.675273,2.94596,-0.815434,-0.374027,-0.00814932
5755234,0,-1.57062,-0.522887,-0.000447067,-2.09652,-1.5698,1.57143,0.785305,-1.5708,-0.523598,-1.29108e-06,-2.0944,-1.5708,1.5708,0.785397,0.00102349,-0.000579708,-0.000340637,0.00129424,-0.00030487,-7.75019e-05,0.000406705,0,0,0,0,0,0,0,-0.176685,-10.1377,0.860354,21.5152,-1.3748,-0.373326,0.0322363,-0.141773,-0.994563,0.678032,2.94563,-0.815385,-0.373763,-0.00803211
5755235,0,-1.57062,-0.522885,-0.000447067,-2.09652,-1.5698,1.57143,0.785303,-1.5708,-0.523598,-1.29108e-06,-2.0944,-1.5708,1.5708,0.785397,0.000125513,0.000263142,-0.000225344,0.000933004,-0.000203247,-0.000322935,3.37779e-05,0,0,0,0,0,0,0,-0.152882,-10.1654,0.860354,21.5152,-1.3748,-0.366002,0.038645,-0.140995,-0.992919,0.679407,2.94644,-0.815409,-0.373657,-0.00790575
5755236,0,-1.57062,-0.522887,-0.000445118,-2.09652,-1.5698,1.57143,0.785301,-1.5708,-0.523598,-1.29108e-06,-2.0944,-1.5708,1.5708,0.785397,0.000640487,-0.001031,0.000500695,0.00123145,6.79526e-05,0.000293336,-0.000486108,0,0,0,0,0,0,0,-0.176685,-10.1139,0.832583,21.4914,-1.38029,-0.379735,0.0523779,-0.140718,-0.992468,0.680119,2.94808,-0.815472,-0.373625,-0.00779203
5755237,0,-1.57062,-0.522887,-0.000447067,-2.09652,-1.5698,1.57143,0.785299,-1.5708,-0.523598,-1.29108e-06,-2.0944,-1.5708,1.5708,0.785397,-0.00012982,-0.00013052,-0.000314835,0.000860437,-0.000361599,0.000195557,-0.00103615,0,0,0,0,0,0,0,-0.152882,-10.1377,0.860354,21.4914,-1.36931,-0.379735,0.071604,-0.140858,-0.992157,0.680216,2.94989,-0.81554,-0.373643,-0.00769133
5755238,0,-1.57062,-0.522885,-0.000447067,-2.09652,-1.5698,1.57143,0.785305,-1.5708,-0.523598,-1.29108e-06,-2.0944,-1.5708,1.5708,0.785397,-8.65469e-05,0.000562601,-0.000209153,0.00060323,0.000165835,0.000367731,0.00124201,0,0,0,0,0,0,0,-0.152882,-10.1654,0.860354,21.4914,-1.38029,-0.386144,0.0194189,-0.140849,-0.993082,0.680577,2.9523,-0.815611,-0.373649,-0.00757656
5755239,0,-1.57062,-0.522885,-0.000447067,-2.09652,-1.5698,1.57143,0.785304,-1.5708,-0.523598,-1.29108e-06,-2.0944,-1.5708,1.5708,0.785397,-5.76979e-05,0.000375067,-0.000138882,-0.000132455,-0.000296344,-0.000229564,-0.000392694,0,0,0,0,0,0,0,-0.152882,-10.1654,0.860354,21.5152,-1.36931,-0.373326,0.0523779,-0.140513,-0.996728,0.681512,2.95609,-0.815711,-0.373641,-0.00743161
5755240,0,-1.57062,-0.522887,-0.000447067,-2.09652,-1.5698,1.57143,0.785311,-1.5708,-0.523598,-1.29108e-06,-2.0944,-1.5708,1.5708,0.785397,0.000518347,-0.000956381,-9.21737e-05,0.00104197,0.000853598,8.43161e-05,0.00143363,0,0,0,0,0,0,0,-0.176685,-10.1139,0.860354,21.4676,-1.39769,-0.379735,0.00660151,-0.140247,-1.00108,0.682411,2.96025,-0.815818,-0.373655,-0.00728012
5755241,0,-1.57062,-0.522881,-0.000448737,-2.09652,-1.5698,1.57143,0.785304,-1.5708,-0.523598,-1.29108e-06,-2.0944,-1.5708,1.5708,0.785397,-0.000211248,0.00740786,-0.00061795,-0.0010561,-0.000482096,-0.000181148,-0.00121439,0,0,0,0,0,0,0,-0.152882,-10.1892,0.884158,21.543,-1.36931,-0.373326,0.0651953,-0.140142,-1.00985,0.683298,2.96627,-0.815991,-0.373749,-0.0071356
5755242,0,-1.57062,-0.522885,-0.000448737,-2.09652,-1.5698,1.57143,0.785302,-1.5708,-0.523598,-1.29108e-06,-2.0944,-1.5708,1.5708,0.785397,-0.000790446,0.00490528,-0.000411734,0.000511727,8.55039e-05,-0.000120765,-0.000572234,0,0,0,0,0,0,0,-0.125111,-10.1654,0.884158,21.4914,-1.38029,-0.373326,0.0587866,-0.139778,-1.03055,0.684961,2.97748,-0.81634,-0.37395,-0.00698594
