shamilmamedov/beam_handling/log/param_estimation_ICRA/impulse_Xup_1.csv
duration, success rate, q[0], q[1], q[2], q[3], q[4], q[5], q[6],q_d[0], q_d[1], q_d[2], q_d[3], q_d[4], q_d[5], q_d[6],dq[0], dq[1], dq[2], dq[3], dq[4], dq[5], dq[6],dq_d[0], dq_d[1], dq_d[2], dq_d[3], dq_d[4], dq_d[5], dq_d[6],tau_J[0], tau_J[1], tau_J[2], tau_J[3], tau_J[4], tau_J[5], tau_J[6],tau_ext_hat_filtered[0], tau_ext_hat_filtered[1], tau_ext_hat_filtered[2], tau_ext_hat_filtered[3], tau_ext_hat_filtered[4], tau_ext_hat_filtered[5], tau_ext_hat_filtered[6]
5477169,0,-1.57034,-0.522803,0.000146424,-2.09582,1.57092,1.57177,0.785038,-1.5708,-0.523599,6.5269e-08,-2.0944,1.5708,1.5708,0.785397,0.000474158,-0.000153889,-0.000350515,0.000339846,-0.000218897,0.000202063,0.000789964,0,0,0,0,0,0,0,-0.581349,-10.2924,-0.583737,20.8963,0.695207,-0.72672,0.110056,-0.515353,-1.15768,-0.0807981,2.29615,0.060407,-0.75447,0.188786
5501219,0,-1.57036,-0.522877,0.000134744,-2.09583,1.57078,1.57169,0.785053,-1.5708,-0.523599,6.5269e-08,-2.0944,1.5708,1.5708,0.785397,0.00110861,-6.26438e-05,5.77063e-05,-0.00056014,0.000386779,0.000124002,0.000913632,0,0,0,0,0,0,0,-0.529774,-10.1892,-0.508359,20.8725,0.745561,-0.662633,0.09083,-0.505424,-1.05365,-0.107586,2.32081,0.189806,-0.657621,0.156998
5501220,0,-1.57036,-0.522879,0.000134744,-2.09583,1.57078,1.57169,0.78505,-1.5708,-0.523599,6.5269e-08,-2.0944,1.5708,1.5708,0.785397,0.000182264,-0.000598575,3.84709e-05,-0.00148705,-0.000386407,-0.000154691,-0.000102989,0,0,0,0,0,0,0,-0.50597,-10.1654,-0.508359,20.9201,0.762956,-0.656224,0.110056,-0.505911,-1.05468,-0.108594,2.32151,0.189885,-0.657517,0.157017
5501221,0,-1.57036,-0.522877,0.000133073,-2.09583,1.57078,1.57168,0.785046,-1.5708,-0.523599,6.5269e-08,-2.0944,1.5708,1.5708,0.785397,0.000121509,0.000157762,-0.000531165,0.000122257,-0.000257605,-0.000103127,-0.00152672,0,0,0,0,0,0,0,-0.50597,-10.1892,-0.484555,20.8725,0.762956,-0.656224,0.149424,-0.50645,-1.05543,-0.109568,2.32257,0.189973,-0.6574,0.157026
5501222,0,-1.57036,-0.522876,0.000136414,-2.09583,1.57078,1.57168,0.785052,-1.5708,-0.523599,6.5269e-08,-2.0944,1.5708,1.5708,0.785397,0.000637818,0.000661987,0.000759514,0.000731118,0.000269073,-0.00030611,0.000914966,0,0,0,0,0,0,0,-0.529774,-10.213,-0.532163,20.8448,0.751055,-0.649816,0.0972387,-0.506911,-1.05611,-0.110346,2.32335,0.190044,-0.6573,0.15704
5501223,0,-1.57036,-0.522876,0.000131125,-2.09583,1.57078,1.57168,0.785049,-1.5708,-0.523599,6.5269e-08,-2.0944,1.5708,1.5708,0.785397,-0.0001316,0.000441325,-0.0012569,-0.000719014,0.000382832,3.32854e-05,-0.000339459,0,0,0,0,0,0,0,-0.50597,-10.213,-0.456784,20.8963,0.745561,-0.656224,0.122873,-0.507334,-1.05744,-0.110963,2.32399,0.190104,-0.657218,0.157083
5501224,0,-1.57036,-0.522881,0.000134744,-2.09583,1.57078,1.57168,0.785054,-1.5708,-0.523599,6.5269e-08,-2.0944,1.5708,1.5708,0.785397,-0.000737346,-0.00146902,0.000368496,7.74696e-05,5.17711e-05,-0.000215169,0.00143521,0,0,0,0,0,0,0,-0.478199,-10.1377,-0.508359,20.8725,0.751055,-0.649816,0.0780126,-0.507036,-1.05814,-0.110449,2.32438,0.190123,-0.657229,0.157145
5501225,0,-1.57036,-0.522877,0.000138363,-2.09583,1.57078,1.57168,0.78505,-1.5708,-0.523599,6.5269e-08,-2.0944,1.5708,1.5708,0.785397,0.000714861,0.000227078,0.00145209,0.00070126,-0.000406295,0.000331272,-0.000467349,0,0,0,0,0,0,0,-0.529774,-10.1892,-0.559934,20.8448,0.762956,-0.662633,0.116465,-0.506905,-1.05629,-0.110272,2.32358,0.190102,-0.657175,0.157208
5501226,0,-1.57036,-0.522877,0.000134744,-2.09583,1.57078,1.57168,0.785046,-1.5708,-0.523599,6.5269e-08,-2.0944,1.5708,1.5708,0.785397,-8.0238e-05,0.000151385,-0.000238366,-0.000182107,0.000169946,-1.65109e-05,-0.00153227,0,0,0,0,0,0,0,-0.50597,-10.1892,-0.508359,20.8725,0.751055,-0.656224,0.149424,-0.507782,-1.05385,-0.111685,2.32231,0.190098,-0.656963,0.157251
5501227,0,-1.57036,-0.522879,0.000134744,-2.09583,1.57078,1.57168,0.785053,-1.5708,-0.523599,6.5269e-08,-2.0944,1.5708,1.5708,0.785397,-5.3492e-05,-0.000455888,-0.000158911,-0.000121405,0.000113297,0.000226352,0.00138599,0,0,0,0,0,0,0,-0.50597,-10.1654,-0.508359,20.8725,0.751055,-0.662633,0.0844213,-0.508485,-1.05239,-0.112811,2.32155,0.190102,-0.65679,0.157284
5501228,0,-1.57036,-0.522877,0.000131125,-2.09583,1.57078,1.57168,0.785048,-1.5708,-0.523599,6.5269e-08,-2.0944,1.5708,1.5708,0.785397,-0.000685275,0.000252886,-0.00131237,0.000568677,-0.000161827,0.000150901,-0.000737523,0,0,0,0,0,0,0,-0.478199,-10.1892,-0.456784,20.8448,0.757463,-0.662633,0.129282,-0.507972,-1.05116,-0.112051,2.32096,0.190059,-0.656808,0.15733
5501229,0,-1.57036,-0.522879,0.000136414,-2.09583,1.57078,1.57169,0.78505,-1.5708,-0.523599,6.5269e-08,-2.0944,1.5708,1.5708,0.785397,0.000749575,-0.000388221,-0.00533402,0.00093593,0.000129474,0.00033796,-1.69638e-05,0,0,0,0,0,0,0,-0.529774,-10.1654,-0.532163,20.821,0.751055,-0.669042,0.116465,-0.505081,-1.0497,-0.107359,2.31993,0.189891,-0.657193,0.157381
5501230,0,-1.57036,-0.522876,0.000133073,-2.09583,1.57078,1.57168,0.785049,-1.5708,-0.523599,6.5269e-08,-2.0944,1.5708,1.5708,0.785397,-5.7095e-05,0.00085481,-0.00518817,6.71416e-05,-0.000151043,-1.20525e-05,-0.000248668,0,0,0,0,0,0,0,-0.50597,-10.213,-0.484555,20.8448,0.757463,-0.662633,0.122873,-0.498838,-1.0486,-0.0969309,2.3187,0.189558,-0.658104,0.157431
5501231,0,-1.57036,-0.522874,0.000134744,-2.09583,1.57078,1.57168,0.785049,-1.5708,-0.523599,6.5269e-08,-2.0944,1.5708,1.5708,0.785397,-3.80633e-05,0.00121949,-0.00329086,-0.00116166,0.000136664,-8.03499e-06,-0.000165779,0,0,0,0,0,0,0,-0.50597,-10.2408,-0.508359,20.8963,0.751055,-0.662633,0.122873,-0.490668,-1.05049,-0.0832154,2.31909,0.189194,-0.659359,0.15749
5501232,0,-1.57036,-0.522879,0.000136414,-2.09583,1.57078,1.57168,0.785053,-1.5708,-0.523599,6.5269e-08,-2.0944,1.5708,1.5708,0.785397,-2.53755e-05,-0.000950246,-0.00192877,0.000988795,-0.00014625,-0.000480075,0.00107628,0,0,0,0,0,0,0,-0.50597,-10.1654,-0.532163,20.821,0.757463,-0.649816,0.09083,-0.483422,-1.05413,-0.0710553,2.3207,0.188918,-0.660509,0.157569
5501233,0,-1.57036,-0.522877,0.000134744,-2.09583,1.57078,1.57168,0.785048,-1.5708,-0.523599,6.5269e-08,-2.0944,1.5708,1.5708,0.785397,-1.6917e-05,-7.66856e-05,-0.00206141,-0.00110404,-9.74999e-05,0.000154668,-0.000943996,0,0,0,0,0,0,0,-0.50597,-10.1892,-0.508359,20.8963,0.757463,-0.662633,0.135691,-0.478562,-1.05565,-0.0628656,2.32147,0.188721,-0.661281,0.157664
5501234,0,-1.57036,-0.522879,0.000134744,-2.09583,1.57078,1.57168,0.785053,-1.5708,-0.523599,6.5269e-08,-2.0944,1.5708,1.5708,0.785397,-0.000660891,-0.000607936,-0.00153834,-0.000736028,0.000172359,0.000103112,0.00126954,0,0,0,0,0,0,0,-0.478199,-10.1654,-0.508359,20.8963,0.751055,-0.662633,0.0844213,-0.475706,-1.05573,-0.0581187,2.32197,0.188616,-0.661733,0.15776
5501235,0,-1.57036,-0.522876,0.000136414,-2.09583,1.57078,1.57169,0.785046,-1.5708,-0.523599,6.5269e-08,-2.0944,1.5708,1.5708,0.785397,0.000209019,0.000708333,-0.000591798,0.00127255,0.000114906,0.0003061,-0.00156114,0,0,0,0,0,0,0,-0.50597,-10.213,-0.532163,20.821,0.751055,-0.669042,0.149424,-0.474597,-1.05566,-0.0564136,2.32251,0.188598,-0.661924,0.15785
5501236,0,-1.57036,-0.522877,0.000133073,-2.09583,1.57078,1.57169,0.785051,-1.5708,-0.523599,6.5269e-08,-2.0944,1.5708,1.5708,0.785397,0.000139346,-8.45897e-05,-0.00160044,-0.000914869,0.000280055,0.000441426,0.000654663,0,0,0,0,0,0,0,-0.50597,-10.1892,-0.484555,20.8963,0.745561,-0.67545,0.103647,-0.475167,-1.05576,-0.0575116,2.32276,0.188638,-0.66188,0.157938
5501237,0,-1.57036,-0.522877,0.000134744,-2.09583,1.57078,1.57168,0.785052,-1.5708,-0.523599,6.5269e-08,-2.0944,1.5708,1.5708,0.785397,9.28974e-05,-5.63931e-05,-0.000579365,0.00115332,-1.67475e-05,-0.000417793,0.000673801,0,0,0,0,0,0,0,-0.50597,-10.1892,-0.508359,20.821,0.751055,-0.656224,0.0972387,-0.476812,-1.05586,-0.060355,2.32285,0.188703,-0.661695,0.158035
5501238,0,-1.57036,-0.522879,0.000134744,-2.09583,1.57078,1.57168,0.78505,-1.5708,-0.523599,6.5269e-08,-2.0944,1.5708,1.5708,0.785397,0.000618744,-0.000594407,-0.000438155,-0.000437543,-0.000248524,-4.11697e-05,-2.55173e-05,0,0,0,0,0,0,0,-0.529774,-10.1654,-0.508359,20.8725,0.757463,-0.662633,0.110056,-0.479447,-1.05481,-0.0647501,2.32229,0.188769,-0.661367,0.158136
5501239,0,-1.57036,-0.522879,0.000134744,-2.09583,1.57078,1.57169,0.785052,-1.5708,-0.523599,6.5269e-08,-2.0944,1.5708,1.5708,0.785397,-0.000144316,-0.000396272,-0.000331037,0.000357919,-0.000369133,0.000209912,0.000457706,0,0,0,0,0,0,0,-0.50597,-10.1654,-0.508359,20.8448,0.762956,-0.669042,0.0972387,-0.48295,-1.05262,-0.0704954,2.32123,0.188845,-0.660908,0.158217
5501240,0,-1.57036,-0.522876,0.000133073,-2.09583,1.57078,1.57168,0.785049,-1.5708,-0.523599,6.5269e-08,-2.0944,1.5708,1.5708,0.785397,-9.62108e-05,0.000849443,-0.000806703,-0.000411001,0.000398171,-0.000334776,-0.000644298,0,0,0,0,0,0,0,-0.50597,-10.213,-0.484555,20.8725,0.745561,-0.656224,0.122873,-0.486466,-1.05111,-0.0762829,2.32062,0.188944,-0.660466,0.158266
5501241,0,-1.57036,-0.522877,0.000134744,-2.09583,1.57078,1.57168,0.785051,-1.5708,-0.523599,6.5269e-08,-2.0944,1.5708,1.5708,0.785397,-0.000713754,9.48329e-06,-2.8904e-06,-0.000274001,6.1997e-05,1.41748e-05,0.000282545,0,0,0,0,0,0,0,-0.478199,-10.1892,-0.508359,20.8725,0.751055,-0.662633,0.103647,-0.489471,-1.05175,-0.0813331,2.32115,0.189073,-0.660129,0.158283
5501242,0,-1.57036,-0.522879,0.000136414,-2.09583,1.57078,1.57168,0.785045,-1.5708,-0.523599,6.5269e-08,-2.0944,1.5708,1.5708,0.785397,0.000173777,-0.00055049,0.00053846,-0.000182667,4.13313e-05,-0.000227909,-0.00174442,0,0,0,0,0,0,0,-0.50597,-10.1654,-0.532163,20.8725,0.751055,-0.656224,0.155832,-0.492412,-1.05288,-0.0863624,2.32208,0.189221,-0.6598,0.158282
5501243,0,-1.57036,-0.522879,0.000134744,-2.09583,1.57078,1.57168,0.785054,-1.5708,-0.523599,6.5269e-08,-2.0944,1.5708,1.5708,0.785397,-0.00109057,-0.000366993,-0.000210158,0.00108465,-0.000209805,-0.000389298,0.00171927,0,0,0,0,0,0,0,-0.454395,-10.1654,-0.508359,20.821,0.757463,-0.649816,0.0780126,-0.49543,-1.05222,-0.0915917,2.32203,0.189335,-0.659424,0.158292
5501244,0,-1.57036,-0.522877,0.000134744,-2.09584,1.57078,1.57168,0.785048,-1.5708,-0.523599,6.5269e-08,-2.0944,1.5708,1.5708,0.785397,0.000479376,0.00031215,-0.000149344,-0.00104014,-0.00013987,0.000215186,-0.00099005,0,0,0,0,0,0,0,-0.50597,-10.1892,-0.508359,20.8963,0.757463,-0.662633,0.135691,-0.497986,-1.05083,-0.096155,2.32144,0.189408,-0.659089,0.158327
5501245,0,-1.57036,-0.522877,0.000134744,-2.09583,1.57078,1.57168,0.785048,-1.5708,-0.523599,6.5269e-08,-2.0944,1.5708,1.5708,0.785397,0.000876396,0.0002081,-0.000106492,0.00106981,-9.32466e-05,0.000143457,-0.000422674,0,0,0,0,0,0,0,-0.529774,-10.1892,-0.508359,20.821,0.757463,-0.662633,0.129282,-0.500383,-1.05059,-0.100376,2.32141,0.189492,-0.658769,0.158371
5501246,0,-1.57036,-0.522877,0.000133073,-2.09583,1.57078,1.57168,0.785049,-1.5708,-0.523599,6.5269e-08,-2.0944,1.5708,1.5708,0.785397,2.74521e-05,0.000138733,-0.000633004,0.000156396,-6.21644e-05,9.56381e-05,-4.44238e-05,0,0,0,0,0,0,0,-0.50597,-10.1892,-0.484555,20.8448,0.757463,-0.662633,0.122873,-0.502742,-1.05088,-0.104342,2.3214,0.189575,-0.658453,0.158432
5501247,0,-1.57036,-0.522877,0.000136414,-2.09583,1.57078,1.57168,0.78505,-1.5708,-0.523599,6.5269e-08,-2.0944,1.5708,1.5708,0.785397,1.83014e-05,9.24888e-05,0.000687724,0.00121789,0.000195916,-0.0001736,0.000207743,0,0,0,0,0,0,0,-0.50597,-10.1892,-0.532163,20.7972,0.751055,-0.656224,0.116465,-0.50474,-1.05076,-0.107661,2.32083,0.189628,-0.658184,0.158529
5501248,0,-1.57036,-0.522881,0.000134744,-2.09583,1.57078,1.57168,0.785049,-1.5708,-0.523599,6.5269e-08,-2.0944,1.5708,1.5708,0.785397,1.22009e-05,-0.00114477,-0.000101253,-0.000301699,0.000334061,-0.000115733,-9.88636e-05,0,0,0,0,0,0,0,-0.50597,-10.1377,-0.508359,20.8448,0.745561,-0.656224,0.122873,-0.506609,-1.0494,-0.110786,2.31955,0.189663,-0.657915,0.158657
5501249,0,-1.57036,-0.522877,0.000134744,-2.09583,1.57078,1.57169,0.785048,-1.5708,-0.523599,6.5269e-08,-2.0944,1.5708,1.5708,0.785397,-0.00119829,0.000443248,-6.96944e-05,-0.000850746,-0.000421553,0.000160203,-0.000540627,0,0,0,0,0,0,0,-0.454395,-10.1892,-0.508359,20.8725,0.762956,-0.662633,0.135691,-0.507924,-1.04761,-0.113146,2.31846,0.189695,-0.657709,0.158803
5501250,0,-1.57036,-0.522876,0.000136414,-2.09583,1.57078,1.57169,0.785053,-1.5708,-0.523599,6.5269e-08,-2.0944,1.5708,1.5708,0.785397,-0.000242049,0.000852311,0.000508705,-0.000567164,-7.75845e-05,-0.000130557,0.00130109,0,0,0,0,0,0,0,-0.478199,-10.213,-0.532163,20.8725,0.757463,-0.656224,0.09083,-0.508416,-1.04841,-0.114423,2.31919,0.189772,-0.657641,0.158963
5501251,0,-1.57036,-0.522877,0.000134744,-2.09583,1.57078,1.57168,0.785045,-1.5708,-0.523599,6.5269e-08,-2.0944,1.5708,1.5708,0.785397,-0.000161366,1.13952e-05,-0.000218909,-0.00037811,-0.000255174,-0.000324397,-0.0015401,0,0,0,0,0,0,0,-0.478199,-10.1892,-0.508359,20.8725,0.762956,-0.649816,0.155832,-0.508676,-1.05175,-0.115465,2.32136,0.189898,-0.657622,0.159136
5501252,0,-1.57036,-0.522879,0.000136414,-2.09583,1.57078,1.57169,0.785052,-1.5708,-0.523599,6.5269e-08,-2.0944,1.5708,1.5708,0.785397,-0.000107577,-0.000549215,0.000409948,0.000397541,3.33348e-05,0.000258453,0.0011434,0,0,0,0,0,0,0,-0.478199,-10.1654,-0.532163,20.8448,0.757463,-0.662633,0.0972387,-0.508942,-1.05428,-0.116535,2.32305,0.190016,-0.657573,0.159315
5501253,0,-1.57036,-0.522876,0.000134744,-2.09583,1.57078,1.57169,0.78505,-1.5708,-0.523599,6.5269e-08,-2.0944,1.5708,1.5708,0.785397,0.000577895,0.00074748,-0.000284207,0.000265027,0.000463033,0.000409661,0.000287552,0,0,0,0,0,0,0,-0.50597,-10.213,-0.508359,20.8448,0.745561,-0.669042,0.110056,-0.509258,-1.0551,-0.117659,2.32356,0.190098,-0.657483,0.159507
5501254,0,-1.57036,-0.522877,0.000134744,-2.09583,1.57078,1.57168,0.785053,-1.5708,-0.523599,6.5269e-08,-2.0944,1.5708,1.5708,0.785397,-0.00026435,-5.84916e-05,-0.000189992,0.000176685,0.000105238,-0.000438969,0.000903778,0,0,0,0,0,0,0,-0.478199,-10.1892,-0.508359,20.8448,0.751055,-0.649816,0.09083,-0.509467,-1.05574,-0.118561,2.32364,0.190157,-0.657404,0.159694
5501255,0,-1.57036,-0.522881,0.000138363,-2.09583,1.57078,1.57168,0.785053,-1.5708,-0.523599,6.5269e-08,-2.0944,1.5708,1.5708,0.785397,0.00047338,-0.00124542,0.00107937,-0.000531824,-0.000370651,-5.52873e-05,0.000839878,0,0,0,0,0,0,0,-0.50597,-10.1377,-0.559934,20.8725,0.762956,-0.656224,0.0844213,-0.509781,-1.05539,-0.119632,2.3233,0.190198,-0.657292,0.159847
5501256,0,-1.57036,-0.522876,0.000133073,-2.09583,1.57078,1.57168,0.785051,-1.5708,-0.523599,6.5269e-08,-2.0944,1.5708,1.5708,0.785397,-0.000334027,0.000932958,-0.00104395,0.000295065,-0.000450551,0.000200501,-0.000152158,0,0,0,0,0,0,0,-0.478199,-10.213,-0.484555,20.8448,0.76845,-0.662633,0.103647,-0.510212,-1.05398,-0.120938,2.32265,0.190233,-0.657143,0.159937
5501257,0,-1.57036,-0.522879,0.000138363,-2.09583,1.57078,1.57169,0.785051,-1.5708,-0.523599,6.5269e-08,-2.0944,1.5708,1.5708,0.785397,0.000426929,-0.000491652,0.00106705,0.000753522,0.000547343,0.000371026,-0.000101439,0,0,0,0,0,0,0,-0.50597,-10.1654,-0.559934,20.821,0.745561,-0.669042,0.103647,-0.510328,-1.05297,-0.121777,2.32198,0.190262,-0.657049,0.15995
5501258,0,-1.57036,-0.522881,0.000134744,-2.09583,1.57078,1.57169,0.785046,-1.5708,-0.523599,6.5269e-08,-2.0944,1.5708,1.5708,0.785397,-0.000364994,-0.000977382,-0.000495222,-0.00126089,0.000161445,-0.000227367,-0.00176305,0,0,0,0,0,0,0,-0.478199,-10.1377,-0.508359,20.8963,0.751055,-0.656224,0.149424,-0.510365,-1.05139,-0.122525,2.32101,0.190291,-0.656965,0.159895
5501259,0,-1.57036,-0.522876,0.000136414,-2.09583,1.57078,1.57169,0.785053,-1.5708,-0.523599,6.5269e-08,-2.0944,1.5708,1.5708,0.785397,0.000963096,0.00111165,0.000226541,-0.000840593,-0.000129729,8.57808e-05,0.000994774,0,0,0,0,0,0,0,-0.529774,-10.213,-0.532163,20.8963,0.757463,-0.662633,0.09083,-0.510379,-1.05045,-0.123234,2.3209,0.190352,-0.656893,0.159806
5501260,0,-1.57036,-0.522874,0.000134744,-2.09583,1.57078,1.57168,0.78505,-1.5708,-0.523599,6.5269e-08,-2.0944,1.5708,1.5708,0.785397,8.5252e-05,0.00139071,-0.000405877,0.00064603,0.000150873,-0.000180172,-0.000286253,0,0,0,0,0,0,0,-0.50597,-10.2408,-0.508359,20.8448,0.751055,-0.656224,0.116465,-0.510356,-1.05298,-0.123786,2.3226,0.190459,-0.656882,0.159718
5501261,0,-1.57036,-0.522877,0.000133073,-2.09583,1.57078,1.57169,0.785051,-1.5708,-0.523599,6.5269e-08,-2.0944,1.5708,1.5708,0.785397,0.00126326,-0.000279283,-0.000827466,0.000987499,0.000304032,0.000354603,0.000283883,0,0,0,0,0,0,0,-0.557545,-10.1892,-0.484555,20.821,0.745561,-0.669042,0.103647,-0.510197,-1.05671,-0.123915,2.32425,0.190532,-0.656929,0.159639
5501262,0,-1.57036,-0.522877,0.000136414,-2.09583,1.57078,1.57168,0.785049,-1.5708,-0.523599,6.5269e-08,-2.0944,1.5708,1.5708,0.785397,-0.000364252,-0.000186189,0.000561928,0.000101521,-0.000441572,-0.000238316,-0.000522822,0,0,0,0,0,0,0,-0.50597,-10.1892,-0.532163,20.8448,0.762956,-0.656224,0.122873,-0.509959,-1.05808,-0.123706,2.32426,0.190523,-0.656983,0.159564
5501263,0,-1.57036,-0.522877,0.000133073,-2.09583,1.57078,1.57168,0.78505,-1.5708,-0.523599,6.5269e-08,-2.0944,1.5708,1.5708,0.785397,-0.00144926,-0.000124126,-0.000739045,6.76804e-05,-0.000294381,-0.000158877,0.00012617,0,0,0,0,0,0,0,-0.454395,-10.1892,-0.484555,20.8448,0.762956,-0.656224,0.110056,-0.509343,-1.05747,-0.122951,2.32336,0.190469,-0.657084,0.159493
5501264,0,-1.57036,-0.522877,0.000134744,-2.09583,1.57078,1.57168,0.78505,-1.5708,-0.523599,6.5269e-08,-2.0944,1.5708,1.5708,0.785397,-0.000966173,-8.27506e-05,6.40863e-05,-0.000604494,7.19645e-06,-0.000105918,-0.000153246,0,0,0,0,0,0,0,-0.454395,-10.1892,-0.508359,20.8725,0.757463,-0.656224,0.116465,-0.507694,-1.05662,-0.120818,2.32264,0.190402,-0.657335,0.159429
5501265,0,-1.57036,-0.522874,0.000136414,-2.09584,1.57078,1.57168,0.78505,-1.5708,-0.523599,6.5269e-08,-2.0944,1.5708,1.5708,0.785397,0.00056231,0.00115126,0.000599514,-0.00151662,4.79763e-06,-0.000307971,-0.000102164,0,0,0,0,0,0,0,-0.50597,-10.2408,-0.532163,20.9201,0.757463,-0.649816,0.116465,-0.506073,-1.05758,-0.118838,2.32334,0.190406,-0.657584,0.159374
5501266,0,-1.57036,-0.522874,0.000133073,-2.09583,1.57078,1.57169,0.785054,-1.5708,-0.523599,6.5269e-08,-2.0944,1.5708,1.5708,0.785397,0.000931685,0.000767506,-0.000713964,0.000102544,0.000240557,0.000506763,0.00135604,0,0,0,0,0,0,0,-0.529774,-10.2408,-0.484555,20.8725,0.751055,-0.669042,0.0780126,-0.505535,-1.06147,-0.118403,2.32583,0.190519,-0.657687,0.159328
5501267,0,-1.57036,-0.522879,0.000134744,-2.09583,1.57078,1.57168,0.785048,-1.5708,-0.523599,6.5269e-08,-2.0944,1.5708,1.5708,0.785397,6.43114e-05,-0.00125157,8.08234e-05,0.000717977,0.000160372,-0.000136876,-0.0012322,0,0,0,0,0,0,0,-0.50597,-10.1654,-0.508359,20.8448,0.751055,-0.656224,0.135691,-0.505555,-1.06448,-0.118582,2.32762,0.190616,-0.65769,0.159285
5501268,0,-1.57036,-0.522879,0.000133073,-2.09583,1.57078,1.57168,0.78505,-1.5708,-0.523599,6.5269e-08,-2.0944,1.5708,1.5708,0.785397,-0.00116355,-0.000834378,-0.000502939,-0.000170963,-0.000130445,-9.12507e-05,0.000127969,0,0,0,0,0,0,0,-0.454395,-10.1654,-0.484555,20.8725,0.757463,-0.656224,0.110056,-0.50527,-1.06294,-0.118223,2.32683,0.190605,-0.657685,0.159234
5501269,0,-1.57036,-0.522877,0.000134744,-2.09583,1.57078,1.57168,0.785049,-1.5708,-0.523599,6.5269e-08,-2.0944,1.5708,1.5708,0.785397,-0.000218889,5.59835e-07,0.000221512,-0.000670787,-0.000290414,-6.08338e-05,-0.000389406,0,0,0,0,0,0,0,-0.478199,-10.1892,-0.508359,20.8963,0.762956,-0.656224,0.122873,-0.504405,-1.05933,-0.117092,2.32514,0.190546,-0.657734,0.159183
5501270,0,-1.57036,-0.522877,0.000133073,-2.09583,1.57078,1.57168,0.78505,-1.5708,-0.523599,6.5269e-08,-2.0944,1.5708,1.5708,0.785397,0.0010605,3.73223e-07,-0.000409142,-0.000447191,9.84148e-06,0.000196803,-2.22447e-05,0,0,0,0,0,0,0,-0.529774,-10.1892,-0.484555,20.8963,0.757463,-0.662633,0.116465,-0.503714,-1.05706,-0.116226,2.32442,0.190529,-0.657762,0.159146
5501271,0,-1.57036,-0.522874,0.000136414,-2.09583,1.57078,1.57168,0.785054,-1.5708,-0.523599,6.5269e-08,-2.0944,1.5708,1.5708,0.785397,-0.000499426,0.00120667,0.000840858,0.000908298,0.00024392,0.000131202,0.00140932,0,0,0,0,0,0,0,-0.478199,-10.2408,-0.532163,20.8448,0.751055,-0.662633,0.0780126,-0.50375,-1.05683,-0.116371,2.32459,0.190568,-0.657707,0.159128
5501272,0,-1.57036,-0.522876,0.000133073,-2.09583,1.57078,1.57169,0.785048,-1.5708,-0.523599,6.5269e-08,-2.0944,1.5708,1.5708,0.785397,-0.00033295,0.000154836,-0.000553055,-4.40818e-05,0.000162613,8.7468e-05,-0.00119668,0,0,0,0,0,0,0,-0.478199,-10.213,-0.484555,20.8725,0.751055,-0.662633,0.135691,-0.503924,-1.05815,-0.116752,2.32507,0.19062,-0.65766,0.159115
5501273,0,-1.57036,-0.522876,0.000134744,-2.09583,1.57078,1.57169,0.785053,-1.5708,-0.523599,6.5269e-08,-2.0944,1.5708,1.5708,0.785397,0.000984458,0.000103224,0.000188107,0.000620226,0.000108409,5.8312e-05,0.000863725,0,0,0,0,0,0,0,-0.529774,-10.213,-0.508359,20.8448,0.751055,-0.662633,0.09083,-0.503946,-1.05949,-0.116887,2.32531,0.190652,-0.657644,0.159089
5501274,0,-1.57036,-0.522877,0.000134744,-2.09583,1.57078,1.57169,0.785048,-1.5708,-0.523599,6.5269e-08,-2.0944,1.5708,1.5708,0.785397,-0.00110693,-0.000487996,0.000125403,0.000970296,-0.000165086,3.88747e-05,-0.000848337,0,0,0,0,0,0,0,-0.454395,-10.1892,-0.508359,20.821,0.757463,-0.662633,0.129282,-0.504051,-1.05913,-0.117087,2.32453,0.190639,-0.657605,0.159057
5501275,0,-1.57036,-0.522877,0.000134744,-2.09583,1.57077,1.57168,0.785053,-1.5708,-0.523599,6.5269e-08,-2.0944,1.5708,1.5708,0.785397,0.000468471,-0.000325331,8.36007e-05,-0.000559562,-0.000516959,-0.000211442,0.00109595,0,0,0,0,0,0,0,-0.50597,-10.1892,-0.508359,20.8725,0.76845,-0.656224,0.0844213,-0.504074,-1.05711,-0.117225,2.32293,0.190592,-0.657566,0.159022
5501276,0,-1.57036,-0.522877,0.000138363,-2.09583,1.57078,1.57168,0.78505,-1.5708,-0.523599,6.5269e-08,-2.0944,1.5708,1.5708,0.785397,0.000312314,-0.000216887,0.00126216,-0.000373041,6.2262e-05,-0.00061568,-0.000456158,0,0,0,0,0,0,0,-0.50597,-10.1892,-0.559934,20.8725,0.757463,-0.643407,0.116465,-0.504547,-1.05507,-0.118107,2.32179,0.190588,-0.657455,0.15898
5501277,0,-1.57036,-0.522876,0.000134744,-2.09583,1.57077,1.57168,0.785046,-1.5708,-0.523599,6.5269e-08,-2.0944,1.5708,1.5708,0.785397,-0.000441404,0.000412221,-0.000364987,0.00040092,-0.000568844,-0.000173094,-0.00152481,0,0,0,0,0,0,0,-0.478199,-10.213,-0.508359,20.8448,0.773943,-0.649816,0.149424,-0.505539,-1.05409,-0.119828,2.32146,0.19065,-0.657264,0.158922
5501278,0,-1.57036,-0.522876,0.000133073,-2.09583,1.57078,1.57168,0.785053,-1.5708,-0.523599,6.5269e-08,-2.0944,1.5708,1.5708,0.785397,0.000355344,0.000274814,-0.000800137,0.0013809,0.000468481,0.000121963,0.0011536,0,0,0,0,0,0,0,-0.50597,-10.213,-0.484555,20.7972,0.751055,-0.656224,0.09083,-0.505791,-1.05385,-0.120416,2.3211,0.190699,-0.657175,0.158868
5501279,0,-1.57036,-0.522881,0.000134744,-2.09583,1.57078,1.57168,0.785048,-1.5708,-0.523599,6.5269e-08,-2.0944,1.5708,1.5708,0.785397,0.000793708,-0.00158003,2.33866e-05,0.000920603,0.000515771,0.000318668,-0.000892446,0,0,0,0,0,0,0,-0.529774,-10.1377,-0.508359,20.7972,0.745561,-0.662633,0.135691,-0.505377,-1.05207,-0.119828,2.31939,0.190684,-0.657156,0.158845
5501280,0,-1.57036,-0.522877,0.000134744,-2.09583,1.57078,1.57168,0.785055,-1.5708,-0.523599,6.5269e-08,-2.0944,1.5708,1.5708,0.785397,0.000529139,0.000153073,1.55908e-05,-0.0011495,-9.69618e-05,-0.000262273,0.00177863,0,0,0,0,0,0,0,-0.529774,-10.1892,-0.508359,20.8725,0.757463,-0.649816,0.071604,-0.505294,-1.04857,-0.119584,2.31692,0.190658,-0.657056,0.158847
5501281,0,-1.57036,-0.522876,0.000134744,-2.09583,1.57078,1.57168,0.785049,-1.5708,-0.523599,6.5269e-08,-2.0944,1.5708,1.5708,0.785397,-0.000204053,0.000658861,1.03936e-05,-0.000116721,0.000172718,-0.000174849,-0.000713121,0,0,0,0,0,0,0,-0.50597,-10.213,-0.508359,20.8448,0.751055,-0.649816,0.122873,-0.505483,-1.04732,-0.119711,2.31615,0.190701,-0.656935,0.15885
5501282,0,-1.57036,-0.522877,0.000133073,-2.09583,1.57078,1.57168,0.78505,-1.5708,-0.523599,6.5269e-08,-2.0944,1.5708,1.5708,0.785397,0.000420777,-0.000117571,-0.000549883,-7.78142e-05,0.000318596,0.000358152,-6.96305e-07,0,0,0,0,0,0,0,-0.529774,-10.1892,-0.484555,20.8448,0.745561,-0.662633,0.110056,-0.505406,-1.04898,-0.119405,2.31704,0.190784,-0.656886,0.158832
5501283,0,-1.57036,-0.522874,0.000134744,-2.09584,1.57078,1.57168,0.785051,-1.5708,-0.523599,6.5269e-08,-2.0944,1.5708,1.5708,0.785397,-0.000925907,0.00112804,0.000190223,-0.0012583,0.000415848,1.40917e-06,-0.000712541,0,0,0,0,0,0,0,-0.478199,-10.2408,-0.508359,20.8963,0.740068,-0.656224,0.129282,-0.50488,-1.05233,-0.118394,2.31886,0.19087,-0.656926,0.158794
5501284,0,-1.57036,-0.522877,0.000134744,-2.09583,1.57078,1.57169,0.785053,-1.5708,-0.523599,6.5269e-08,-2.0944,1.5708,1.5708,0.785397,3.23416e-05,-0.000454396,0.000126815,0.000367558,-0.000129669,0.000713016,0.000711767,0,0,0,0,0,0,0,-0.50597,-10.1892,-0.508359,20.8448,0.751055,-0.67545,0.0972387,-0.504128,-1.05678,-0.117104,2.32136,0.190951,-0.65702,0.158756
5501285,0,-1.57036,-0.522877,0.000134744,-2.09583,1.57078,1.57169,0.785052,-1.5708,-0.523599,6.5269e-08,-2.0944,1.5708,1.5708,0.785397,0.00122799,-0.000302931,8.45435e-05,0.000801851,-8.64462e-05,0.000237985,0.000474512,0,0,0,0,0,0,0,-0.557545,-10.1892,-0.508359,20.821,0.751055,-0.669042,0.0972387,-0.503861,-1.05926,-0.11649,2.32261,0.19097,-0.657044,0.158734
5501286,0,-1.57036,-0.522877,0.000134744,-2.09583,1.57078,1.57168,0.785049,-1.5708,-0.523599,6.5269e-08,-2.0944,1.5708,1.5708,0.785397,-0.000387768,-0.000201954,5.63623e-05,-0.000671859,-5.76308e-05,-0.000316061,-0.000633095,0,0,0,0,0,0,0,-0.50597,-10.1892,-0.508359,20.8725,0.751055,-0.656224,0.122873,-0.504276,-1.05918,-0.116728,2.3223,0.190923,-0.656972,0.158712
5501287,0,-1.57036,-0.522877,0.000138363,-2.09583,1.57078,1.57168,0.785053,-1.5708,-0.523599,6.5269e-08,-2.0944,1.5708,1.5708,0.785397,0.0002983,-0.000134636,0.001244,-0.000447906,-3.84205e-05,2.66516e-05,0.000764732,0,0,0,0,0,0,0,-0.529774,-10.1892,-0.559934,20.8725,0.751055,-0.662633,0.09083,-0.505117,-1.05883,-0.117596,2.32207,0.190878,-0.656862,0.158676
5501288,0,-1.57036,-0.522879,0.000133073,-2.09583,1.57078,1.57168,0.785048,-1.5708,-0.523599,6.5269e-08,-2.0944,1.5708,1.5708,0.785397,-0.000357945,-0.000646569,-0.000933904,-0.000298604,-2.56137e-05,1.77677e-05,-0.00115169,0,0,0,0,0,0,0,-0.50597,-10.1654,-0.484555,20.8725,0.751055,-0.662633,0.135691,-0.506004,-1.05844,-0.118579,2.32211,0.190837,-0.656767,0.158626
5501289,0,-1.57036,-0.522877,0.000134744,-2.09583,1.57078,1.57168,0.78505,-1.5708,-0.523599,6.5269e-08,-2.0944,1.5708,1.5708,0.785397,0.000318182,0.000125766,-6.57908e-05,0.00100736,-0.000254435,-0.000225514,0.000181641,0,0,0,0,0,0,0,-0.529774,-10.1892,-0.508359,20.821,0.757463,-0.656224,0.110056,-0.506233,-1.05728,-0.118487,2.32162,0.190738,-0.656782,0.158572
5501290,0,-1.57036,-0.522877,0.000133073,-2.09583,1.57078,1.57168,0.785047,-1.5708,-0.523599,6.5269e-08,-2.0944,1.5708,1.5708,0.785397,0.000212121,8.38439e-05,-0.000600672,0.000114759,6.77358e-05,-0.000150343,-0.00109961,0,0,0,0,0,0,0,-0.529774,-10.1892,-0.484555,20.8448,0.751055,-0.656224,0.143015,-0.505974,-1.0559,-0.117504,2.32057,0.190588,-0.656886,0.15853
5501291,0,-1.57036,-0.522879,0.000138363,-2.09583,1.57078,1.57168,0.785053,-1.5708,-0.523599,6.5269e-08,-2.0944,1.5708,1.5708,0.785397,-0.000415398,-0.000500916,0.00136279,-0.00112992,-0.000192202,-0.000100228,0.00143707,0,0,0,0,0,0,0,-0.50597,-10.1654,-0.559934,20.8963,0.757463,-0.656224,0.0844213,-0.505956,-1.05516,-0.116863,2.3199,0.190465,-0.656966,0.158519
5501292,0,-1.57036,-0.522876,0.000133073,-2.09583,1.57078,1.57168,0.785049,-1.5708,-0.523599,6.5269e-08,-2.0944,1.5708,1.5708,0.785397,0.00027988,0.00077968,-0.000854712,-0.000196468,-0.000331585,0.00017054,-0.000466109,0,0,0,0,0,0,0,-0.529774,-10.213,-0.484555,20.8725,0.762956,-0.662633,0.122873,-0.506264,-1.05574,-0.116805,2.32037,0.19041,-0.657008,0.158534
5501293,0,-1.57036,-0.522879,0.000133073,-2.09583,1.57078,1.57168,0.785048,-1.5708,-0.523599,6.5269e-08,-2.0944,1.5708,1.5708,0.785397,-0.000370225,-0.000593837,-0.000569808,-0.000130979,0.000219753,-0.000361025,-0.000548099,0,0,0,0,0,0,0,-0.50597,-10.1654,-0.484555,20.8725,0.751055,-0.649816,0.129282,-0.50615,-1.05725,-0.116067,2.32143,0.190371,-0.65712,0.158557
5501294,0,-1.57036,-0.522879,0.000131125,-2.09583,1.57078,1.57168,0.78505,-1.5708,-0.523599,6.5269e-08,-2.0944,1.5708,1.5708,0.785397,-0.00089643,-0.000395892,-0.00102949,0.00167592,0.000146502,-3.32407e-06,0.000346678,0,0,0,0,0,0,0,-0.478199,-10.1654,-0.456784,20.7972,0.751055,-0.656224,0.110056,-0.505,-1.05716,-0.113673,2.32131,0.190261,-0.65736,0.158591
5501295,0,-1.57036,-0.522877,0.000136414,-2.09583,1.57078,1.57168,0.785049,-1.5708,-0.523599,6.5269e-08,-2.0944,1.5708,1.5708,0.785397,0.000608805,0.000292884,0.00107691,-0.00761575,-0.000343142,-0.000476934,-0.000243599,0,0,0,0,0,0,0,-0.529774,-10.1892,-0.532163,20.8725,0.762956,-0.643407,0.122873,-0.503739,-1.05789,-0.111165,2.3224,0.190209,-0.657599,0.158639
5501296,0,-1.57036,-0.522879,0.000136414,-2.09583,1.57078,1.57169,0.785051,-1.5708,-0.523599,6.5269e-08,-2.0944,1.5708,1.5708,0.785397,-0.000800555,-0.000361556,0.000717943,-0.00500837,-0.000228761,0.00063148,0.000549677,0,0,0,0,0,0,0,-0.478199,-10.1654,-0.532163,20.8448,0.762956,-0.669042,0.103647,-0.503666,-1.06471,-0.110691,2.3293,0.190448,-0.657677,0.158685
5501297,0,-1.57035,-0.522879,0.000136414,-2.09583,1.57078,1.57168,0.785048,-1.5708,-0.523599,6.5269e-08,-2.0944,1.5708,1.5708,0.785397,0.00132234,-0.000241037,0.000478628,-0.00442414,0.000491753,-0.00029109,-0.000820343,0,0,0,0,0,0,0,-0.557545,-10.1654,-0.532163,20.8725,0.745561,-0.649816,0.135691,-0.50473,-1.07515,-0.112126,2.33988,0.190898,-0.657589,0.158728
5501298,0,-1.57036,-0.522877,0.000133073,-2.09583,1.57078,1.57168,0.785055,-1.5708,-0.523599,6.5269e-08,-2.0944,1.5708,1.5708,0.785397,-0.000974482,0.00039612,-0.000794538,-0.00206971,0.000124385,0.000280658,0.00182669,0,0,0,0,0,0,0,-0.478199,-10.1892,-0.484555,20.821,0.751055,-0.662633,0.071604,-0.505882,-1.08479,-0.113652,2.34964,0.191326,-0.65747,0.158778
5501299,0,-1.57036,-0.522876,0.000136414,-2.09583,1.57078,1.57168,0.785049,-1.5708,-0.523599,6.5269e-08,-2.0944,1.5708,1.5708,0.785397,-4.1407e-08,0.000820892,0.000583932,-0.00162484,-0.000154436,0.000187105,-0.000681076,0,0,0,0,0,0,0,-0.50597,-10.213,-0.532163,20.821,0.757463,-0.662633,0.122873,-0.506274,-1.09268,-0.113994,2.35682,0.191622,-0.657461,0.158832
5501300,0,-1.57036,-0.522876,0.000133073,-2.09583,1.57078,1.57169,0.785052,-1.5708,-0.523599,6.5269e-08,-2.0944,1.5708,1.5708,0.785397,-0.000649641,0.000547262,-0.000724336,-0.00247343,-0.000102957,0.000362096,0.000495385,0,0,0,0,0,0,0,-0.478199,-10.213,-0.484555,20.8725,0.757463,-0.669042,0.0972387,-0.506023,-1.09914,-0.113419,2.3616,0.191798,-0.657552,0.158868
5501301,0,-1.57036,-0.522877,0.000134744,-2.09583,1.57078,1.57168,0.785049,-1.5708,-0.523599,6.5269e-08,-2.0944,1.5708,1.5708,0.785397,-0.000433094,-0.000191971,7.39212e-05,-0.00178678,0.000372171,-0.000233321,-0.000619179,0,0,0,0,0,0,0,-0.478199,-10.1892,-0.508359,20.8725,0.745561,-0.656224,0.122873,-0.50528,-1.10382,-0.112156,2.36449,0.191886,-0.657711,0.158876
5501302,0,-1.57036,-0.522877,0.000134744,-2.09583,1.57078,1.57168,0.785051,-1.5708,-0.523599,6.5269e-08,-2.0944,1.5708,1.5708,0.785397,0.000360884,-0.000127981,4.92808e-05,-0.000644946,-0.000396146,8.18118e-05,0.000299291,0,0,0,0,0,0,0,-0.50597,-10.1892,-0.508359,20.8448,0.762956,-0.662633,0.103647,-0.504527,-1.10517,-0.110911,2.36489,0.19188,-0.657843,0.158868
5501303,0,-1.57036,-0.522876,0.000134744,-2.09583,1.57078,1.57168,0.785052,-1.5708,-0.523599,6.5269e-08,-2.0944,1.5708,1.5708,0.785397,0.000797401,0.000471492,3.28539e-05,4.93184e-05,0.000380163,5.45412e-05,0.000436886,0,0,0,0,0,0,0,-0.529774,-10.213,-0.508359,20.821,0.745561,-0.662633,0.0972387,-0.504516,-1.10322,-0.110719,2.36257,0.19179,-0.657841,0.158857
5501304,0,-1.57036,-0.522877,0.000133073,-2.09583,1.57078,1.57168,0.78505,-1.5708,-0.523599,6.5269e-08,-2.0944,1.5708,1.5708,0.785397,-0.000674824,-0.000242484,-0.000534909,-0.00234532,4.99913e-05,3.63608e-05,-0.00018346,0,0,0,0,0,0,0,-0.478199,-10.1892,-0.484555,20.9201,0.751055,-0.662633,0.110056,-0.504766,-1.09992,-0.110853,2.35897,0.191652,-0.657798,0.158834
5501305,0,-1.57036,-0.522874,0.000133073,-2.09583,1.57078,1.57168,0.785052,-1.5708,-0.523599,6.5269e-08,-2.0944,1.5708,1.5708,0.785397,0.00019973,0.00104477,-0.000356606,0.000712894,-0.000204031,-0.000450477,0.000352411,0,0,0,0,0,0,0,-0.50597,-10.2408,-0.484555,20.821,0.757463,-0.649816,0.0972387,-0.504519,-1.09681,-0.110244,2.35537,0.191488,-0.657838,0.158786
5501306,0,-1.57036,-0.522877,0.000134744,-2.09583,1.57078,1.57168,0.785046,-1.5708,-0.523599,6.5269e-08,-2.0944,1.5708,1.5708,0.785397,0.000133154,-0.000509913,0.000319074,-0.000763871,0.000101338,-0.000300318,-0.00169784,0,0,0,0,0,0,0,-0.50597,-10.1892,-0.508359,20.8725,0.751055,-0.649816,0.149424,-0.504216,-1.09344,-0.109547,2.35134,0.191297,-0.657883,0.158719
5501307,0,-1.57036,-0.522876,0.000136414,-2.09583,1.57078,1.57168,0.785053,-1.5708,-0.523599,6.5269e-08,-2.0944,1.5708,1.5708,0.785397,8.8769e-05,0.00021687,0.000769528,-0.00109059,6.75587e-05,3.71468e-05,0.00103825,0,0,0,0,0,0,0,-0.50597,-10.213,-0.532163,20.8963,0.751055,-0.656224,0.09083,-0.504619,-1.08933,-0.109957,2.347,0.191121,-0.657799,0.158649
5501308,0,-1.57036,-0.522876,0.000134744,-2.09583,1.57078,1.57168,0.785048,-1.5708,-0.523599,6.5269e-08,-2.0944,1.5708,1.5708,0.785397,5.91794e-05,0.00014458,-4.37931e-05,0.000460968,4.50391e-05,0.000262123,-0.00073199,0,0,0,0,0,0,0,-0.50597,-10.213,-0.508359,20.8448,0.751055,-0.662633,0.129282,-0.505519,-1.08516,-0.111206,2.34293,0.190975,-0.657623,0.158598
5501309,0,-1.57036,-0.522877,0.000134744,-2.09583,1.57078,1.57168,0.785051,-1.5708,-0.523599,6.5269e-08,-2.0944,1.5708,1.5708,0.785397,3.94529e-05,-0.000460425,-2.91954e-05,-0.000912913,-0.000410783,0.000174749,0.000461443,0,0,0,0,0,0,0,-0.50597,-10.1892,-0.508359,20.8963,0.762956,-0.662633,0.103647,-0.506253,-1.08076,-0.112227,2.33881,0.190816,-0.657462,0.158567
5501310,0,-1.57036,-0.522879,0.000136414,-2.09583,1.57078,1.57168,0.785051,-1.5708,-0.523599,6.5269e-08,-2.0944,1.5708,1.5708,0.785397,-0.000623311,-0.000863762,0.000537348,0.00114428,-0.000477306,-0.000358219,-0.000641807,0,0,0,0,0,0,0,-0.478199,-10.1654,-0.532163,20.821,0.76845,-0.649816,0.129282,-0.506648,-1.07489,-0.112785,2.33406,0.190626,-0.657332,0.158554
5501311,0,-1.57036,-0.522877,0.000134744,-2.09583,1.57078,1.57168,0.785055,-1.5708,-0.523599,6.5269e-08,-2.0944,1.5708,1.5708,0.785397,-0.000415541,-1.90295e-05,-0.00019858,0.00019828,0.000326056,0.000235906,0.000284205,0,0,0,0,0,0,0,-0.478199,-10.1892,-0.508359,20.8448,0.751055,-0.662633,0.110056,-0.506697,-1.06752,-0.112941,2.32849,0.19041,-0.657232,0.158563
5501312,0,-1.57036,-0.522876,0.000133073,-2.09583,1.57078,1.57168,0.785052,-1.5708,-0.523599,6.5269e-08,-2.0944,1.5708,1.5708,0.785397,0.00157901,0.000544126,-0.000689198,0.000683177,-1.99883e-05,0.00015727,0.00018947,0,0,0,0,0,0,0,-0.557545,-10.213,-0.484555,20.821,0.757463,-0.662633,0.110056,-0.506481,-1.06107,-0.112655,2.32324,0.190208,-0.65718,0.15859
5501313,0,-1.57036,-0.522879,0.000134744,-2.09583,1.57078,1.57169,0.785047,-1.5708,-0.523599,6.5269e-08,-2.0944,1.5708,1.5708,0.785397,-0.000153751,-0.000750873,9.73463e-05,-0.000105726,-0.000216776,0.000342206,-0.00109439,0,0,0,0,0,0,0,-0.50597,-10.1654,-0.508359,20.8448,0.762956,-0.669042,0.143015,-0.506394,-1.05639,-0.11237,2.319,0.190053,-0.657134,0.15863
5501314,0,-1.57036,-0.522877,0.000136414,-2.09583,1.57078,1.57168,0.785054,-1.5708,-0.523599,6.5269e-08,-2.0944,1.5708,1.5708,0.785397,-0.000102501,5.62296e-05,0.00062171,-0.000723373,0.000499743,-9.22172e-06,0.0016779,0,0,0,0,0,0,0,-0.50597,-10.1892,-0.532163,20.8725,0.745561,-0.662633,0.0780126,-0.506554,-1.05266,-0.112459,2.31574,0.189962,-0.657074,0.158682
5501315,0,-1.57036,-0.522879,0.000136414,-2.09583,1.57078,1.57168,0.785048,-1.5708,-0.523599,6.5269e-08,-2.0944,1.5708,1.5708,0.785397,0.000488478,-0.000519326,0.000414473,0.00016491,0.000536612,-6.14781e-06,-0.00101763,0,0,0,0,0,0,0,-0.529774,-10.1654,-0.532163,20.8448,0.740068,-0.662633,0.135691,-0.507093,-1.04987,-0.113229,2.31356,0.189939,-0.65698,0.158747
5501316,0,-1.57036,-0.522876,0.000134744,-2.09583,1.57078,1.57168,0.785053,-1.5708,-0.523599,6.5269e-08,-2.0944,1.5708,1.5708,0.785397,-0.00023116,0.000767407,-0.000280497,0.000108098,0.000154291,-4.09854e-06,0.000983094,0,0,0,0,0,0,0,-0.50597,-10.213,-0.508359,20.8448,0.745561,-0.662633,0.09083,-0.507767,-1.04816,-0.114204,2.31208,0.189934,-0.656898,0.158809
5501317,0,-1.57036,-0.522881,0.000138363,-2.09583,1.57078,1.57168,0.785049,-1.5708,-0.523599,6.5269e-08,-2.0944,1.5708,1.5708,0.785397,-0.00080372,-0.00125163,0.00101943,7.06838e-05,-0.00010059,-2.73236e-06,-0.000531398,0,0,0,0,0,0,0,-0.478199,-10.1377,-0.559934,20.8448,0.751055,-0.662633,0.122873,-0.50808,-1.04692,-0.114708,2.31084,0.189903,-0.656892,0.158861
5501318,0,-1.57036,-0.522877,0.000134744,-2.09583,1.57078,1.57168,0.78505,-1.5708,-0.523599,6.5269e-08,-2.0944,1.5708,1.5708,0.785397,0.0001138,0.000372004,-0.000526807,-0.000603527,-6.70599e-05,-0.000239181,-0.000116907,0,0,0,0,0,0,0,-0.50597,-10.1892,-0.508359,20.8725,0.751055,-0.656224,0.116465,-0.508072,-1.04542,-0.114874,2.30972,0.189847,-0.65694,0.158902
5501319,0,-1.57036,-0.522877,0.000134744,-2.09583,1.57078,1.57168,0.785051,-1.5708,-0.523599,6.5269e-08,-2.0944,1.5708,1.5708,0.785397,7.58667e-05,0.000248002,-0.000351205,0.000246485,-4.47066e-05,7.79053e-05,0.00039678,0,0,0,0,0,0,0,-0.50597,-10.1892,-0.508359,20.8448,0.751055,-0.662633,0.103647,-0.50768,-1.04495,-0.114459,2.30933,0.189778,-0.657058,0.158932
5501320,0,-1.57036,-0.522876,0.000134744,-2.09583,1.57078,1.57168,0.785051,-1.5708,-0.523599,6.5269e-08,-2.0944,1.5708,1.5708,0.785397,0.00060739,0.000722147,-0.000234137,0.00127736,0.000173646,5.19368e-05,0.00026452,0,0,0,0,0,0,0,-0.529774,-10.213,-0.508359,20.7972,0.745561,-0.662633,0.103647,-0.507075,-1.04584,-0.1136,2.30931,0.189689,-0.657231,0.158959
5501321,0,-1.57036,-0.522879,0.000134744,-2.09583,1.57078,1.57168,0.785053,-1.5708,-0.523599,6.5269e-08,-2.0944,1.5708,1.5708,0.785397,-0.000151885,-0.000632193,-0.000156091,-0.000262485,-8.76864e-05,3.46246e-05,0.000888424,0,0,0,0,0,0,0,-0.50597,-10.1654,-0.508359,20.8448,0.751055,-0.662633,0.0844213,-0.506599,-1.04652,-0.112842,2.30884,0.189568,-0.657389,0.158975
5501322,0,-1.57036,-0.522876,0.000134744,-2.09583,1.57078,1.57168,0.785047,-1.5708,-0.523599,6.5269e-08,-2.0944,1.5708,1.5708,0.785397,0.000455555,0.000692162,-0.000104061,-0.00138174,0.000144993,2.3083e-05,-0.00157786,0,0,0,0,0,0,0,-0.529774,-10.213,-0.508359,20.8963,0.745561,-0.662633,0.143015,-0.506259,-1.04747,-0.11226,2.30888,0.189465,-0.657528,0.158958
5501323,0,-1.57036,-0.522879,0.000131125,-2.09583,1.57078,1.57168,0.785053,-1.5708,-0.523599,6.5269e-08,-2.0944,1.5708,1.5708,0.785397,-0.000253109,-0.000652182,-0.0012758,0.00084183,-0.000344148,-0.000459329,0.000880876,0,0,0,0,0,0,0,-0.50597,-10.1654,-0.456784,20.821,0.757463,-0.649816,0.09083,-0.505715,-1.04901,-0.111305,2.30973,0.189378,-0.657702,0.158907
5501324,0,-1.57036,-0.522876,0.000133073,-2.09583,1.57078,1.57168,0.785048,-1.5708,-0.523599,6.5269e-08,-2.0944,1.5708,1.5708,0.785397,-0.000168739,0.000678836,-0.000200919,4.22345e-06,7.92725e-06,0.000168498,-0.00107426,0,0,0,0,0,0,0,-0.50597,-10.213,-0.484555,20.8448,0.751055,-0.662633,0.135691,-0.504626,-1.0499,-0.109413,2.31011,0.189248,-0.657948,0.158849
5501325,0,-1.57036,-0.522877,0.000133073,-2.09583,1.57078,1.57168,0.78505,-1.5708,-0.523599,6.5269e-08,-2.0944,1.5708,1.5708,0.785397,-0.000762106,-0.000104255,-0.000133946,0.000559489,5.28483e-06,-0.000125027,0.000233261,0,0,0,0,0,0,0,-0.478199,-10.1892,-0.484555,20.821,0.751055,-0.656224,0.110056,-0.503349,-1.05042,-0.107228,2.31003,0.1891,-0.658212,0.158797
5501326,0,-1.57036,-0.522877,0.000134744,-2.09583,1.57078,1.57169,0.78505,-1.5708,-0.523599,6.5269e-08,-2.0944,1.5708,1.5708,0.785397,0.000141543,-6.95033e-05,0.000467515,-0.000183923,0.000206974,0.000391367,0.000155507,0,0,0,0,0,0,0,-0.50597,-10.1892,-0.508359,20.8448,0.745561,-0.669042,0.110056,-0.502501,-1.05072,-0.105763,2.30977,0.188975,-0.658399,0.158762
5501327,0,-1.57036,-0.522879,0.000136414,-2.09583,1.57078,1.57168,0.785049,-1.5708,-0.523599,6.5269e-08,-2.0944,1.5708,1.5708,0.785397,0.000651174,-0.000603147,0.000868488,0.000990931,-0.000709728,2.35522e-05,-0.000371046,0,0,0,0,0,0,0,-0.529774,-10.1654,-0.532163,20.7972,0.76845,-0.662633,0.122873,-0.502797,-1.0498,-0.106054,2.3089,0.18888,-0.658394,0.158748
5501328,0,-1.57036,-0.522879,0.000136414,-2.09583,1.57078,1.57168,0.78505,-1.5708,-0.523599,6.5269e-08,-2.0944,1.5708,1.5708,0.785397,-0.000122696,-0.000402098,0.000578992,-0.00110268,0.000171108,1.57015e-05,-1.00053e-05,0,0,0,0,0,0,0,-0.50597,-10.1654,-0.532163,20.8725,0.751055,-0.662633,0.116465,-0.504298,-1.04777,-0.108174,2.30762,0.18883,-0.658198,0.158751
5501329,0,-1.57036,-0.522879,0.000134744,-2.09583,1.57078,1.57169,0.785047,-1.5708,-0.523599,6.5269e-08,-2.0944,1.5708,1.5708,0.785397,0.000475015,-0.000268066,-0.000170817,-8.55469e-05,0.000317523,-0.000226891,-0.000990014,0,0,0,0,0,0,0,-0.529774,-10.1654,-0.508359,20.8448,0.745561,-0.656224,0.143015,-0.506024,-1.04596,-0.110635,2.30685,0.188825,-0.657968,0.158769
5501330,0,-1.57036,-0.522877,0.000134744,-2.09583,1.57078,1.57169,0.785053,-1.5708,-0.523599,6.5269e-08,-2.0944,1.5708,1.5708,0.785397,-0.000240136,0.000378102,-0.000113878,-0.000706678,-0.000229128,8.60981e-05,0.00151013,0,0,0,0,0,0,0,-0.50597,-10.1892,-0.508359,20.8725,0.757463,-0.662633,0.0844213,-0.507204,-1.04552,-0.112222,2.30704,0.188842,-0.657836,0.158811
5501331,0,-1.57036,-0.522874,0.000136414,-2.09583,1.57078,1.57168,0.785048,-1.5708,-0.523599,6.5269e-08,-2.0944,1.5708,1.5708,0.785397,0.000396722,0.00145849,0.000480893,-0.00158477,8.46071e-05,-0.000417319,-0.000892119,0,0,0,0,0,0,0,-0.529774,-10.2408,-0.532163,20.9201,0.751055,-0.649816,0.135691,-0.507951,-1.04825,-0.113142,2.30904,0.188907,-0.657807,0.158877
5501332,0,-1.57036,-0.522877,0.000134744,-2.09583,1.57078,1.57169,0.785053,-1.5708,-0.523599,6.5269e-08,-2.0944,1.5708,1.5708,0.785397,-0.000292331,-0.000234097,-0.000236216,0.000706708,-0.000384405,-4.08538e-05,0.00106677,0,0,0,0,0,0,0,-0.50597,-10.1892,-0.508359,20.8448,0.762956,-0.656224,0.09083,-0.508548,-1.05349,-0.113854,2.31238,0.189015,-0.657824,0.158949
5501333,0,-1.57036,-0.522876,0.000140034,-2.09583,1.57078,1.57169,0.785049,-1.5708,-0.523599,6.5269e-08,-2.0944,1.5708,1.5708,0.785397,0.000361925,0.000400747,0.00160576,0.00102794,-5.28193e-05,0.000210123,-0.000475617,0,0,0,0,0,0,0,-0.529774,-10.213,-0.583737,20.821,0.757463,-0.662633,0.122873,-0.509303,-1.05701,-0.11484,2.31431,0.189083,-0.657796,0.159025
5501334,0,-1.57036,-0.522872,0.000134744,-2.09583,1.57078,1.57168,0.78505,-1.5708,-0.523599,6.5269e-08,-2.0944,1.5708,1.5708,0.785397,0.000241283,0.00147359,-0.000692731,0.000128469,0.000202146,-9.72769e-05,0.00015764,0,0,0,0,0,0,0,-0.529774,-10.2646,-0.508359,20.8448,0.751055,-0.656224,0.110056,-0.510386,-1.05917,-0.116349,2.31486,0.189123,-0.657704,0.159097
5501335,0,-1.57036,-0.522877,0.000133073,-2.09583,1.57078,1.57168,0.785052,-1.5708,-0.523599,6.5269e-08,-2.0944,1.5708,1.5708,0.785397,0.000160855,-0.000780844,-0.00101863,8.56381e-05,-0.000102595,-6.48513e-05,0.000579811,0,0,0,0,0,0,0,-0.529774,-10.1892,-0.484555,20.8448,0.757463,-0.656224,0.0972387,-0.510798,-1.06144,-0.116733,2.31528,0.189137,-0.65771,0.159155
5501336,0,-1.57036,-0.522876,0.000133073,-2.09583,1.57078,1.57168,0.78505,-1.5708,-0.523599,6.5269e-08,-2.0944,1.5708,1.5708,0.785397,-0.00109919,3.62493e-05,-0.000679088,0.000613898,-6.83966e-05,-0.000517952,-8.81771e-05,0,0,0,0,0,0,0,-0.478199,-10.213,-0.484555,20.821,0.757463,-0.643407,0.110056,-0.509793,-1.06178,-0.114862,2.3148,0.189071,-0.657893,0.159196
5501337,0,-1.57036,-0.522879,0.000134744,-2.09583,1.57078,1.57168,0.785053,-1.5708,-0.523599,6.5269e-08,-2.0944,1.5708,1.5708,0.785397,-0.000732792,-0.00108946,0.000104086,0.000409261,0.000191761,0.000129417,0.000890651,0,0,0,0,0,0,0,-0.478199,-10.1654,-0.508359,20.821,0.751055,-0.656224,0.0844213,-0.507928,-1.05938,-0.111771,2.31296,0.188943,-0.658149,0.15921
5501338,0,-1.57036,-0.522879,0.000136414,-2.09583,1.57078,1.57168,0.785045,-1.5708,-0.523599,6.5269e-08,-2.0944,1.5708,1.5708,0.785397,0.000161085,-0.000726305,0.000626203,-0.000283975,-0.000312969,8.62777e-05,-0.00205109,0,0,0,0,0,0,0,-0.50597,-10.1654,-0.532163,20.8448,0.762956,-0.656224,0.155832,-0.506449,-1.05499,-0.10943,2.3103,0.188823,-0.658293,0.159191
5501339,0,-1.57036,-0.522876,0.000134744,-2.09583,1.57078,1.57168,0.785053,-1.5708,-0.523599,6.5269e-08,-2.0944,1.5708,1.5708,0.785397,0.00010739,0.00062942,-0.000139343,-0.000838933,-5.19525e-06,-0.00017984,0.0010401,0,0,0,0,0,0,0,-0.50597,-10.213,-0.508359,20.8725,0.757463,-0.649816,0.09083,-0.506017,-1.05131,-0.108763,2.30844,0.18879,-0.658259,0.159147
5501340,0,-1.57036,-0.522876,0.000136414,-2.09583,1.57078,1.57168,0.785049,-1.5708,-0.523599,6.5269e-08,-2.0944,1.5708,1.5708,0.785397,7.15934e-05,0.000419614,0.000463916,-0.0011161,0.000640796,0.000117465,-0.000493391,0,0,0,0,0,0,0,-0.50597,-10.213,-0.532163,20.8963,0.740068,-0.656224,0.122873,-0.506216,-1.0513,-0.109092,2.30887,0.188871,-0.658149,0.159102
5501341,0,-1.57036,-0.522881,0.000134744,-2.09583,1.57078,1.57168,0.78505,-1.5708,-0.523599,6.5269e-08,-2.0944,1.5708,1.5708,0.785397,4.77289e-05,-0.0014835,-0.000247534,-0.00074407,0.000223747,0.000315669,0.00014579,0,0,0,0,0,0,0,-0.50597,-10.1377,-0.508359,20.8963,0.745561,-0.662633,0.110056,-0.506617,-1.0528,-0.109765,2.31047,0.189001,-0.658006,0.159062
5501342,0,-1.57036,-0.522877,0.000134744,-2.09583,1.57078,1.57169,0.785054,-1.5708,-0.523599,6.5269e-08,-2.0944,1.5708,1.5708,0.785397,-0.000617794,0.000217429,-0.000165023,-0.000496047,-5.42858e-05,-2.69129e-05,0.00128399,0,0,0,0,0,0,0,-0.478199,-10.1892,-0.508359,20.8963,0.751055,-0.656224,0.0780126,-0.506727,-1.05296,-0.11004,2.31162,0.189087,-0.657884,0.159027
5501343,0,-1.57036,-0.522877,0.000133073,-2.09583,1.57078,1.57169,0.785046,-1.5708,-0.523599,6.5269e-08,-2.0944,1.5708,1.5708,0.785397,0.000237751,0.000144953,-0.000666827,0.00198935,-0.000477,0.000219417,-0.00178886,0,0,0,0,0,0,0,-0.50597,-10.1892,-0.484555,20.7972,0.762956,-0.662633,0.149424,-0.506256,-1.05234,-0.109448,2.31187,0.18909,-0.657848,0.158989
5501344,0,-1.57036,-0.522876,0.000131125,-2.09583,1.57078,1.57169,0.785053,-1.5708,-0.523599,6.5269e-08,-2.0944,1.5708,1.5708,0.785397,0.0001585,0.000653447,-0.00109417,-0.000437005,0.000122809,0.000383637,0.000977562,0,0,0,0,0,0,0,-0.50597,-10.213,-0.456784,20.8725,0.751055,-0.669042,0.09083,-0.505297,-1.052,-0.10801,2.31142,0.189022,-0.657909,0.158941
5501345,0,-1.57036,-0.522876,0.000131125,-2.09583,1.57078,1.57169,0.785049,-1.5708,-0.523599,6.5269e-08,-2.0944,1.5708,1.5708,0.785397,0.000105667,0.000435631,-0.000729444,-0.000291337,-0.000562387,0.000255758,-0.000535086,0,0,0,0,0,0,0,-0.50597,-10.213,-0.456784,20.8725,0.76845,-0.669042,0.122873,-0.503972,-1.05323,-0.105868,2.31162,0.188956,-0.658064,0.158893
5501346,0,-1.57036,-0.522877,0.000136414,-2.09583,1.57078,1.57169,0.785052,-1.5708,-0.523599,6.5269e-08,-2.0944,1.5708,1.5708,0.785397,0.00127687,-0.000266391,0.00127694,-0.000751037,-0.000171474,-0.000304213,0.000592712,0,0,0,0,0,0,0,-0.557545,-10.1892,-0.532163,20.8963,0.762956,-0.656224,0.0972387,-0.503447,-1.05566,-0.104845,2.31286,0.188968,-0.658135,0.158851
5501347,0,-1.57036,-0.522876,0.000136414,-2.09583,1.57078,1.57169,0.78505,-1.5708,-0.523599,6.5269e-08,-2.0944,1.5708,1.5708,0.785397,-0.00100479,0.000379218,0.000851295,0.00126255,8.91344e-05,0.00027191,-7.95769e-05,0,0,0,0,0,0,0,-0.478199,-10.213,-0.532163,20.821,0.757463,-0.669042,0.110056,-0.504576,-1.05733,-0.10636,2.31389,0.189058,-0.657976,0.158812
5501348,0,-1.57036,-0.522876,0.000134744,-2.09583,1.57078,1.57168,0.785048,-1.5708,-0.523599,6.5269e-08,-2.0944,1.5708,1.5708,0.785397,0.00118618,0.000252812,1.07179e-05,0.000841697,0.000296782,-0.000293445,-0.00100249,0,0,0,0,0,0,0,-0.557545,-10.213,-0.508359,20.821,0.751055,-0.656224,0.135691,-0.506377,-1.05776,-0.108946,2.31381,0.189158,-0.657731,0.158772
5501349,0,-1.57036,-0.522879,0.000138363,-2.09583,1.57078,1.57168,0.785053,-1.5708,-0.523599,6.5269e-08,-2.0944,1.5708,1.5708,0.785397,-0.000415641,-0.000945083,0.00121357,0.000561131,-3.95043e-05,-0.00019563,0.00123055,0,0,0,0,0,0,0,-0.50597,-10.1654,-0.559934,20.821,0.757463,-0.656224,0.0844213,-0.508314,-1.05652,-0.111693,2.31252,0.18923,-0.657469,0.158737
5501350,0,-1.57036,-0.522879,0.000133073,-2.09583,1.57078,1.57169,0.78505,-1.5708,-0.523599,6.5269e-08,-2.0944,1.5708,1.5708,0.785397,0.00148614,-0.000630055,-0.00095419,-0.00138915,-2.63362e-05,0.000344298,-0.00036643,0,0,0,0,0,0,0,-0.581349,-10.1654,-0.484555,20.8963,0.757463,-0.669042,0.116465,-0.510251,-1.05377,-0.114353,2.31085,0.189296,-0.657197,0.158711
5501351,0,-1.57036,-0.522877,0.000133073,-2.09583,1.57078,1.57168,0.785053,-1.5708,-0.523599,6.5269e-08,-2.0944,1.5708,1.5708,0.785397,-0.000772475,0.000136775,-0.000636127,0.000280326,0.000423252,-0.000482545,0.000942508,0,0,0,0,0,0,0,-0.50597,-10.1892,-0.484555,20.8448,0.745561,-0.649816,0.0844213,-0.511267,-1.05143,-0.115442,2.31001,0.189356,-0.657076,0.158675
5501352,0,-1.57036,-0.522877,0.000134744,-2.09583,1.57078,1.57168,0.785045,-1.5708,-0.523599,6.5269e-08,-2.0944,1.5708,1.5708,0.785397,-0.000514983,9.11835e-05,0.000132727,0.000743696,-0.000362092,-8.43376e-05,-0.00201652,0,0,0,0,0,0,0,-0.50597,-10.1892,-0.508359,20.821,0.762956,-0.656224,0.155832,-0.51102,-1.05027,-0.114547,2.3097,0.189383,-0.657167,0.158617
5501353,0,-1.57036,-0.522877,0.000136414,-2.09583,1.57078,1.57168,0.785046,-1.5708,-0.523599,6.5269e-08,-2.0944,1.5708,1.5708,0.785397,-0.000343322,6.0789e-05,0.000645297,-0.000710629,0.000199415,0.000181134,-0.00110699,0,0,0,0,0,0,0,-0.50597,-10.1892,-0.532163,20.8725,0.751055,-0.662633,0.149424,-0.510429,-1.04996,-0.113251,2.30957,0.189407,-0.657322,0.158552
5501354,0,-1.57036,-0.522877,0.000134744,-2.09583,1.57078,1.57168,0.785051,-1.5708,-0.523599,6.5269e-08,-2.0944,1.5708,1.5708,0.785397,-0.000878495,4.0526e-05,-0.000126614,0.000175861,0.000132943,-0.000353962,0.00095743,0,0,0,0,0,0,0,-0.478199,-10.1892,-0.508359,20.8448,0.751055,-0.649816,0.103647,-0.509972,-1.05059,-0.112312,2.31004,0.189464,-0.657457,0.158527
5501355,0,-1.57036,-0.522876,0.000131125,-2.09583,1.57078,1.57168,0.785052,-1.5708,-0.523599,6.5269e-08,-2.0944,1.5708,1.5708,0.785397,6.39501e-05,0.000583829,-0.00129084,0.000117241,-0.000352181,0.000238743,0.000875646,0,0,0,0,0,0,0,-0.50597,-10.213,-0.456784,20.8448,0.762956,-0.662633,0.0972387,-0.508994,-1.05201,-0.110623,2.31088,0.189504,-0.657667,0.158569
5501356,0,-1.57036,-0.522879,0.000134744,-2.09583,1.57078,1.57169,0.785053,-1.5708,-0.523599,6.5269e-08,-2.0944,1.5708,1.5708,0.785397,-0.00060698,-0.000724404,0.000345869,7.81606e-05,-0.000234787,0.000396521,0.000821123,0,0,0,0,0,0,0,-0.478199,-10.1654,-0.508359,20.8448,0.762956,-0.669042,0.09083,-0.507491,-1.05335,-0.108103,2.31155,0.189508,-0.657943,0.158647
5501357,0,-1.57036,-0.522877,0.000136414,-2.09583,1.57078,1.57169,0.785048,-1.5708,-0.523599,6.5269e-08,-2.0944,1.5708,1.5708,0.785397,0.00024496,7.38757e-05,0.000787391,5.2107e-05,4.69258e-05,2.69885e-05,-0.0011141,0,0,0,0,0,0,0,-0.50597,-10.1892,-0.532163,20.8448,0.757463,-0.662633,0.135691,-0.5066,-1.05359,-0.106591,2.31169,0.189527,-0.658106,0.158717
5501358,0,-1.57036,-0.522877,0.000133073,-2.09583,1.57078,1.57169,0.78505,-1.5708,-0.523599,6.5269e-08,-2.0944,1.5708,1.5708,0.785397,-0.000486307,4.92505e-05,-0.000588696,0.00114836,0.000268643,-0.000219367,-3.06548e-05,0,0,0,0,0,0,0,-0.478199,-10.1892,-0.484555,20.7972,0.751055,-0.656224,0.116465,-0.506501,-1.05303,-0.106379,2.31126,0.189569,-0.658139,0.158766
5501359,0,-1.57036,-0.522874,0.000134744,-2.09583,1.57078,1.57168,0.785047,-1.5708,-0.523599,6.5269e-08,-2.0944,1.5708,1.5708,0.785397,0.000882221,0.00123926,0.000164348,-0.000348049,-5.82637e-05,-0.000146244,-0.00100378,0,0,0,0,0,0,0,-0.529774,-10.2408,-0.508359,20.8448,0.757463,-0.656224,0.143015,-0.506562,-1.05338,-0.106395,2.31096,0.189623,-0.658156,0.158812
5501360,0,-1.57036,-0.522876,0.000134744,-2.09583,1.57078,1.57169,0.785053,-1.5708,-0.523599,6.5269e-08,-2.0944,1.5708,1.5708,0.785397,3.13353e-05,0.000176559,0.000109565,-0.000881647,-3.88425e-05,0.000139863,0.00150095,0,0,0,0,0,0,0,-0.50597,-10.213,-0.508359,20.8725,0.757463,-0.662633,0.0844213,-0.506959,-1.05613,-0.106891,2.312,0.189735,-0.658142,0.158875
5501361,0,-1.57036,-0.522879,0.000134744,-2.09583,1.57078,1.57168,0.785052,-1.5708,-0.523599,6.5269e-08,-2.0944,1.5708,1.5708,0.785397,-0.00118554,-0.000995918,7.30434e-05,-0.000587765,-2.5895e-05,-0.000381476,0.000525917,0,0,0,0,0,0,0,-0.454395,-10.1654,-0.508359,20.8725,0.757463,-0.649816,0.0972387,-0.507345,-1.05916,-0.107478,2.31376,0.189879,-0.658119,0.158956
5501362,0,-1.57036,-0.522877,0.000134744,-2.09583,1.57078,1.57169,0.78505,-1.5708,-0.523599,6.5269e-08,-2.0944,1.5708,1.5708,0.785397,0.000416069,-0.000107133,4.86956e-05,-0.000948655,0.000220096,0.0002204,-0.000361466,0,0,0,0,0,0,0,-0.50597,-10.1892,-0.508359,20.8963,0.751055,-0.662633,0.116465,-0.507276,-1.06027,-0.107551,2.31503,0.189999,-0.658121,0.159023
5501363,0,-1.57036,-0.522877,0.000136414,-2.09583,1.57078,1.57169,0.785053,-1.5708,-0.523599,6.5269e-08,-2.0944,1.5708,1.5708,0.785397,0.000277379,-7.14222e-05,0.000589276,-7.56247e-05,0.000350181,0.000384293,0.000708459,0,0,0,0,0,0,0,-0.50597,-10.1892,-0.532163,20.8725,0.745561,-0.669042,0.09083,-0.507432,-1.06056,-0.108027,2.31605,0.190116,-0.658066,0.159057
5501364,0,-1.57036,-0.522877,0.000134744,-2.09583,1.57078,1.57168,0.785048,-1.5708,-0.523599,6.5269e-08,-2.0944,1.5708,1.5708,0.785397,-0.00102151,-4.76148e-05,-0.000163961,0.000599197,-0.000410806,-0.000455882,-0.00118921,0,0,0,0,0,0,0,-0.454395,-10.1892,-0.508359,20.8448,0.762956,-0.649816,0.135691,-0.507763,-1.06044,-0.108834,2.31654,0.190206,-0.65798,0.159059
5501365,0,-1.57036,-0.522879,0.000136414,-2.09583,1.57078,1.57168,0.785053,-1.5708,-0.523599,6.5269e-08,-2.0944,1.5708,1.5708,0.785397,0.00173185,-0.000588555,0.000447504,0.00151309,0.000370389,-0.000303921,0.00110607,0,0,0,0,0,0,0,-0.557545,-10.1654,-0.532163,20.7972,0.745561,-0.649816,0.0844213,-0.508101,-1.05862,-0.109676,2.31551,0.190219,-0.657877,0.159043
5501366,0,-1.57036,-0.522877,0.000136414,-2.09583,1.57078,1.57168,0.785048,-1.5708,-0.523599,6.5269e-08,-2.0944,1.5708,1.5708,0.785397,-5.18611e-05,0.000164442,0.000298336,-0.00131132,4.34757e-05,0.000272104,-0.00116149,0,0,0,0,0,0,0,-0.50597,-10.1892,-0.532163,20.8963,0.751055,-0.662633,0.135691,-0.509034,-1.05583,-0.111329,2.31369,0.190205,-0.657667,0.159017
5501367,0,-1.57036,-0.522879,0.000134744,-2.09583,1.57078,1.57168,0.785056,-1.5708,-0.523599,6.5269e-08,-2.0944,1.5708,1.5708,0.785397,0.00117185,-0.000447184,-0.000357921,0.000889022,2.89838e-05,-5.59564e-05,0.00112454,0,0,0,0,0,0,0,-0.557545,-10.1654,-0.508359,20.821,0.751055,-0.656224,0.0844213,-0.5102,-1.05387,-0.113255,2.31254,0.190207,-0.657427,0.158979
5501368,0,-1.57036,-0.522879,0.000133073,-2.09583,1.57078,1.57168,0.785049,-1.5708,-0.523599,6.5269e-08,-2.0944,1.5708,1.5708,0.785397,-0.0010748,-0.000298123,-0.000795426,3.58693e-05,-0.000624937,-3.73043e-05,-0.000911818,0,0,0,0,0,0,0,-0.478199,-10.1654,-0.484555,20.8448,0.76845,-0.656224,0.129282,-0.510557,-1.05203,-0.11388,2.3115,0.190167,-0.657313,0.158932
5501369,0,-1.57036,-0.522877,0.000134744,-2.09583,1.57078,1.57168,0.785049,-1.5708,-0.523599,6.5269e-08,-2.0944,1.5708,1.5708,0.785397,-6.69231e-05,0.000358063,2.65279e-05,0.000580725,0.000227635,-2.48695e-05,-0.000607878,0,0,0,0,0,0,0,-0.50597,-10.1892,-0.508359,20.821,0.751055,-0.656224,0.129282,-0.509764,-1.05029,-0.11277,2.31035,0.190079,-0.657376,0.158879
5501370,0,-1.57036,-0.522879,0.000133073,-2.09583,1.57078,1.57168,0.785051,-1.5708,-0.523599,6.5269e-08,-2.0944,1.5708,1.5708,0.785397,-0.000694229,-0.000318103,-0.000539127,-0.00137609,0.000151757,0.000220779,0.000544184,0,0,0,0,0,0,0,-0.478199,-10.1654,-0.484555,20.8963,0.751055,-0.662633,0.103647,-0.508353,-1.04994,-0.110798,2.31007,0.190013,-0.657545,0.158832
5501371,0,-1.57036,-0.522881,0.000134744,-2.09583,1.57078,1.57168,0.785049,-1.5708,-0.523599,6.5269e-08,-2.0944,1.5708,1.5708,0.785397,-0.000462819,-0.000861683,0.000197394,0.000289034,0.000101171,0.000147186,-0.000349288,0,0,0,0,0,0,0,-0.478199,-10.1377,-0.508359,20.8448,0.751055,-0.662633,0.122873,-0.506781,-1.04997,-0.108659,2.31044,0.189976,-0.657736,0.158807
5501372,0,-1.57036,-0.522879,0.000136414,-2.09583,1.57078,1.57168,0.785054,-1.5708,-0.523599,6.5269e-08,-2.0944,1.5708,1.5708,0.785397,0.000341067,7.51589e-05,0.000688408,0.000749501,0.000270898,9.81241e-05,0.00142865,0,0,0,0,0,0,0,-0.50597,-10.1654,-0.532163,20.821,0.745561,-0.662633,0.0780126,-0.505746,-1.04887,-0.107402,2.31024,0.189939,-0.657835,0.158804
5501373,0,-1.57036,-0.522877,0.000133073,-2.09583,1.57078,1.57168,0.785051,-1.5708,-0.523599,6.5269e-08,-2.0944,1.5708,1.5708,0.785397,0.000227378,0.000606918,-0.000654685,0.000499667,-0.000260211,6.54161e-05,3.00026e-06,0,0,0,0,0,0,0,-0.50597,-10.1892,-0.484555,20.821,0.757463,-0.662633,0.103647,-0.505544,-1.04782,-0.107372,2.30962,0.1899,-0.657824,0.158806
5501374,0,-1.57036,-0.522877,0.000136414,-2.09583,1.57078,1.57168,0.785049,-1.5708,-0.523599,6.5269e-08,-2.0944,1.5708,1.5708,0.785397,-0.00105484,0.000404612,0.000677167,-0.000873314,6.3885e-05,-0.000193748,-0.000710077,0,0,0,0,0,0,0,-0.454395,-10.1892,-0.532163,20.8725,0.751055,-0.656224,0.122873,-0.505399,-1.0488,-0.107437,2.3099,0.189883,-0.657839,0.15878
5501375,0,-1.57036,-0.522876,0.000136414,-2.09583,1.57078,1.57168,0.785053,-1.5708,-0.523599,6.5269e-08,-2.0944,1.5708,1.5708,0.785397,0.000503199,0.000826553,0.000451445,6.74045e-05,0.000449491,-0.000129165,0.00071341,0,0,0,0,0,0,0,-0.50597,-10.213,-0.532163,20.8448,0.740068,-0.656224,0.09083,-0.505337,-1.05198,-0.107773,2.31153,0.189919,-0.657865,0.158721
5501376,0,-1.57036,-0.522877,0.000134744,-2.09583,1.57078,1.57168,0.78505,-1.5708,-0.523599,6.5269e-08,-2.0944,1.5708,1.5708,0.785397,-0.000314147,-5.77646e-06,-0.000255849,4.49363e-05,9.62102e-05,0.000151249,-0.000473829,0,0,0,0,0,0,0,-0.478199,-10.1892,-0.508359,20.8448,0.745561,-0.662633,0.116465,-0.505555,-1.05582,-0.108609,2.31355,0.189969,-0.65785,0.158644
5501377,0,-1.57036,-0.522877,0.000134744,-2.09583,1.57078,1.57168,0.785055,-1.5708,-0.523599,6.5269e-08,-2.0944,1.5708,1.5708,0.785397,0.000440182,-3.85098e-06,-0.000170566,-0.000619656,-0.00013931,-0.000373885,0.00134563,0,0,0,0,0,0,0,-0.50597,-10.1892,-0.508359,20.8725,0.751055,-0.649816,0.071604,-0.505599,-1.05871,-0.109155,2.31514,0.189974,-0.657844,0.158552
5501378,0,-1.57036,-0.522874,0.000134744,-2.09583,1.57078,1.57169,0.785048,-1.5708,-0.523599,6.5269e-08,-2.0944,1.5708,1.5708,0.785397,0.000293454,0.00120386,-0.000113711,-0.000969916,-0.000533683,0.00046282,-0.0014765,0,0,0,0,0,0,0,-0.50597,-10.2408,-0.508359,20.8963,0.762956,-0.669042,0.135691,-0.50551,-1.06179,-0.109457,2.3171,0.189968,-0.657852,0.158434
5501379,0,-1.57036,-0.522877,0.000133073,-2.09583,1.57078,1.57168,0.78505,-1.5708,-0.523599,6.5269e-08,-2.0944,1.5708,1.5708,0.785397,0.000195636,-0.000403854,-0.000632619,0.000559815,-0.000152338,7.11876e-05,-3.49009e-05,0,0,0,0,0,0,0,-0.50597,-10.1892,-0.484555,20.8448,0.757463,-0.662633,0.110056,-0.505309,-1.06538,-0.109524,2.3194,0.189963,-0.657883,0.158289
5501380,0,-1.57036,-0.522879,0.000136414,-2.09583,1.57078,1.57168,0.785048,-1.5708,-0.523599,6.5269e-08,-2.0944,1.5708,1.5708,0.785397,0.00189366,-0.000826048,0.000691878,0.00037321,-0.000305009,-0.000189901,-0.000972703,0,0,0,0,0,0,0,-0.581349,-10.1654,-0.532163,20.8448,0.762956,-0.656224,0.135691,-0.505495,-1.06617,-0.110007,2.32002,0.189916,-0.657836,0.158147
5501381,0,-1.57036,-0.522877,0.000133073,-2.09583,1.57078,1.57168,0.785051,-1.5708,-0.523599,6.5269e-08,-2.0944,1.5708,1.5708,0.785397,5.60155e-05,6.11353e-06,-0.000652372,-0.000957619,0.00023747,0.000110759,0.000538326,0,0,0,0,0,0,0,-0.529774,-10.1892,-0.484555,20.8963,0.751055,-0.662633,0.103647,-0.506495,-1.0641,-0.111488,2.31916,0.189858,-0.657649,0.158039
5501382,0,-1.57036,-0.522876,0.000134744,-2.09583,1.57078,1.57168,0.785053,-1.5708,-0.523599,6.5269e-08,-2.0944,1.5708,1.5708,0.785397,3.73436e-05,0.000560888,0.000121897,-8.16008e-05,-7.90457e-05,-0.000400879,0.00107096,0,0,0,0,0,0,0,-0.529774,-10.213,-0.508359,20.8725,0.757463,-0.649816,0.0844213,-0.507307,-1.06271,-0.112553,2.31887,0.18983,-0.657513,0.157966
5501383,0,-1.57036,-0.522879,0.000136414,-2.09583,1.57078,1.57168,0.78505,-1.5708,-0.523599,6.5269e-08,-2.0944,1.5708,1.5708,0.785397,-0.00118153,-0.000739699,0.000638077,0.000595213,0.000184662,-2.98936e-05,-0.000235462,0,0,0,0,0,0,0,-0.478199,-10.1654,-0.532163,20.8448,0.751055,-0.656224,0.110056,-0.507525,-1.06194,-0.11276,2.3188,0.189805,-0.657486,0.157909
5501384,0,-1.57036,-0.522879,0.000134744,-2.09583,1.57078,1.57168,0.78505,-1.5708,-0.523599,6.5269e-08,-2.0944,1.5708,1.5708,0.785397,-0.000787686,-0.000493133,-0.000131427,0.000396809,-0.000114251,-1.99291e-05,-0.000394334,0,0,0,0,0,0,0,-0.478199,-10.1654,-0.508359,20.8448,0.757463,-0.656224,0.116465,-0.50725,-1.0594,-0.112378,2.31756,0.189741,-0.657514,0.157844
5501385,0,-1.57036,-0.522877,0.000133073,-2.09583,1.57078,1.57168,0.785045,-1.5708,-0.523599,6.5269e-08,-2.0944,1.5708,1.5708,0.785397,0.000124489,0.000228057,-0.00064443,-0.000941887,-7.61674e-05,-1.3286e-05,-0.00172095,0,0,0,0,0,0,0,-0.50597,-10.1892,-0.484555,20.8963,0.757463,-0.656224,0.155832,-0.506358,-1.05639,-0.111117,2.3161,0.189659,-0.657617,0.157768
5501386,0,-1.57036,-0.522881,0.000134744,-2.09583,1.57078,1.57168,0.785054,-1.5708,-0.523599,6.5269e-08,-2.0944,1.5708,1.5708,0.785397,8.29927e-05,-0.00105439,0.000127192,-7.11125e-05,0.000186581,0.000228502,0.00173491,0,0,0,0,0,0,0,-0.50597,-10.1377,-0.508359,20.8725,0.751055,-0.662633,0.0780126,-0.505347,-1.05432,-0.109587,2.31545,0.189607,-0.657733,0.157711
5501387,0,-1.57036,-0.522879,0.000136414,-2.09583,1.57078,1.57168,0.785048,-1.5708,-0.523599,6.5269e-08,-2.0944,1.5708,1.5708,0.785397,-0.000594285,-5.33114e-05,0.000641606,0.000602206,-0.000316422,0.000152334,-0.000742262,0,0,0,0,0,0,0,-0.478199,-10.1654,-0.532163,20.8448,0.762956,-0.662633,0.129282,-0.504798,-1.05183,-0.108754,2.31469,0.189573,-0.65777,0.157695
5501388,0,-1.57036,-0.522881,0.000133073,-2.09583,1.57078,1.57168,0.785053,-1.5708,-0.523599,6.5269e-08,-2.0944,1.5708,1.5708,0.785397,0.000253423,-0.000685155,-0.000685886,0.000958282,-0.000617849,-0.000135803,0.00116667,0,0,0,0,0,0,0,-0.50597,-10.1377,-0.484555,20.821,0.773943,-0.656224,0.0844213,-0.504557,-1.04843,-0.108439,2.31312,0.189526,-0.657756,0.157707
5501389,0,-1.57036,-0.522877,0.000134744,-2.09583,1.57078,1.57168,0.785049,-1.5708,-0.523599,6.5269e-08,-2.0944,1.5708,1.5708,0.785397,0.000168949,0.000749656,9.95545e-05,0.00119567,0.000198452,-0.000327894,-0.000646373,0,0,0,0,0,0,0,-0.50597,-10.1892,-0.508359,20.7972,0.757463,-0.649816,0.122873,-0.504334,-1.04508,-0.108087,2.31105,0.189471,-0.657744,0.157723
5501390,0,-1.57036,-0.522879,0.000134744,-2.09583,1.57078,1.57168,0.785048,-1.5708,-0.523599,6.5269e-08,-2.0944,1.5708,1.5708,0.785397,0.000112633,-5.70413e-05,6.63696e-05,-0.000316513,0.000573111,-0.000218596,-0.000668274,0,0,0,0,0,0,0,-0.50597,-10.1654,-0.508359,20.8448,0.745561,-0.649816,0.129282,-0.504328,-1.04333,-0.108002,2.30953,0.189464,-0.657711,0.157729
5501391,0,-1.57036,-0.522877,0.000134744,-2.09583,1.57078,1.57169,0.785052,-1.5708,-0.523599,6.5269e-08,-2.0944,1.5708,1.5708,0.785397,0.0006319,0.000518784,4.42464e-05,-0.000211008,-5.87356e-05,0.000328987,0.000741279,0,0,0,0,0,0,0,-0.529774,-10.1892,-0.508359,20.8448,0.757463,-0.662633,0.0972387,-0.504685,-1.04382,-0.108455,2.30943,0.189541,-0.657632,0.157732
5501392,0,-1.57036,-0.522877,0.000136414,-2.09583,1.57078,1.57168,0.78505,-1.5708,-0.523599,6.5269e-08,-2.0944,1.5708,1.5708,0.785397,0.000421267,0.000345856,0.00058631,-0.000140672,0.000198202,-0.000255393,1.94679e-05,0,0,0,0,0,0,0,-0.529774,-10.1892,-0.532163,20.8448,0.751055,-0.649816,0.110056,-0.505515,-1.04608,-0.109595,2.31059,0.189684,-0.657492,0.157744
5501393,0,-1.57035,-0.522879,0.000131125,-2.09583,1.57078,1.57169,0.785054,-1.5708,-0.523599,6.5269e-08,-2.0944,1.5708,1.5708,0.785397,0.000930459,-0.000326241,-0.00137236,-0.00130021,-0.000105224,0.000304456,0.00119977,0,0,0,0,0,0,0,-0.557545,-10.1654,-0.456784,20.8963,0.757463,-0.662633,0.0780126,-0.506465,-1.04914,-0.110801,2.31252,0.189851,-0.657339,0.157755
5501394,0,-1.57036,-0.522877,0.000136414,-2.09583,1.57078,1.57168,0.785045,-1.5708,-0.523599,6.5269e-08,-2.0944,1.5708,1.5708,0.785397,-2.93082e-05,0.000339318,0.000848328,0.000339621,0.000167209,-3.43884e-05,-0.00231973,0,0,0,0,0,0,0,-0.529774,-10.1892,-0.532163,20.8448,0.751055,-0.656224,0.162241,-0.507102,-1.05196,-0.111364,2.31466,0.190004,-0.657233,0.157743
5501395,0,-1.57036,-0.522879,0.000133073,-2.09583,1.57078,1.57168,0.785052,-1.5708,-0.523599,6.5269e-08,-2.0944,1.5708,1.5708,0.785397,-0.00122596,-0.0003306,-0.000548072,-0.0004232,-0.000329337,0.000214433,0.000861014,0,0,0,0,0,0,0,-0.478199,-10.1654,-0.484555,20.8725,0.762956,-0.662633,0.0972387,-0.507296,-1.05397,-0.111274,2.31633,0.190122,-0.657196,0.157715
5501396,0,-1.57036,-0.522876,0.000136414,-2.09583,1.57078,1.57168,0.785047,-1.5708,-0.523599,6.5269e-08,-2.0944,1.5708,1.5708,0.785397,0.000389116,0.000893224,0.000748243,0.000924293,-0.000219558,-9.44034e-05,-0.00112141,0,0,0,0,0,0,0,-0.529774,-10.213,-0.532163,20.821,0.762956,-0.656224,0.143015,-0.507079,-1.05531,-0.110667,2.31735,0.190203,-0.657229,0.157705
5501397,0,-1.57036,-0.522877,0.000136414,-2.09583,1.57078,1.57168,0.785052,-1.5708,-0.523599,6.5269e-08,-2.0944,1.5708,1.5708,0.785397,0.000259411,3.86706e-05,0.000498828,0.00117301,5.70787e-05,-0.000300295,0.000947813,0,0,0,0,0,0,0,-0.529774,-10.1892,-0.532163,20.7972,0.757463,-0.649816,0.0972387,-0.507364,-1.05612,-0.110811,2.3175,0.190268,-0.657196,0.157733
5501398,0,-1.57036,-0.522879,0.000133073,-2.09583,1.57078,1.57168,0.785052,-1.5708,-0.523599,6.5269e-08,-2.0944,1.5708,1.5708,0.785397,0.00017294,-0.000531032,-0.000781072,-0.00153805,0.000478862,0.000274522,0.000631875,0,0,0,0,0,0,0,-0.529774,-10.1654,-0.484555,20.8963,0.745561,-0.662633,0.0972387,-0.508076,-1.05604,-0.111507,2.31704,0.190328,-0.657094,0.157792
5501399,0,-1.57036,-0.522879,0.000133073,-2.09583,1.57078,1.57168,0.785049,-1.5708,-0.523599,6.5269e-08,-2.0944,1.5708,1.5708,0.785397,-0.00109113,-0.000354021,-0.000520714,-0.00102536,0.000115791,-5.43446e-05,-0.000528185,0,0,0,0,0,0,0,-0.478199,-10.1654,-0.484555,20.8963,0.751055,-0.656224,0.122873,-0.507909,-1.0557,-0.110822,2.3172,0.19038,-0.65711,0.157851
5501400,0,-1.57036,-0.522877,0.000136414,-2.09583,1.57078,1.57169,0.785049,-1.5708,-0.523599,6.5269e-08,-2.0944,1.5708,1.5708,0.785397,0.000479004,0.000320798,0.000766481,0.00052285,-0.000363616,0.000201129,-0.000352124,0,0,0,0,0,0,0,-0.529774,-10.1892,-0.532163,20.8448,0.762956,-0.662633,0.122873,-0.507194,-1.05563,-0.109359,2.31793,0.190429,-0.657208,0.157894
5501401,0,-1.57036,-0.522877,0.000134744,-2.09583,1.57078,1.57168,0.785047,-1.5708,-0.523599,6.5269e-08,-2.0944,1.5708,1.5708,0.785397,-0.000887089,0.000213865,-4.58246e-05,-0.000301047,-0.00024241,-0.000340632,-0.000980734,0,0,0,0,0,0,0,-0.478199,-10.1892,-0.508359,20.8725,0.762956,-0.649816,0.143015,-0.506929,-1.05585,-0.108662,2.31853,0.190482,-0.657249,0.15794
5501402,0,-1.57036,-0.522877,0.000136414,-2.09583,1.57078,1.57169,0.785053,-1.5708,-0.523599,6.5269e-08,-2.0944,1.5708,1.5708,0.785397,5.82205e-05,0.000142577,0.000526262,0.000448916,0.000482653,1.02711e-05,0.00151632,0,0,0,0,0,0,0,-0.50597,-10.1892,-0.532163,20.8448,0.745561,-0.656224,0.0844213,-0.506952,-1.05626,-0.108502,2.31895,0.190536,-0.657249,0.158013
5501403,0,-1.57036,-0.522877,0.000138363,-2.09583,1.57078,1.57168,0.785048,-1.5708,-0.523599,6.5269e-08,-2.0944,1.5708,1.5708,0.785397,0.000595626,9.50512e-05,0.00100046,0.000856089,0.000118318,-0.000230512,-0.000887994,0,0,0,0,0,0,0,-0.529774,-10.1892,-0.559934,20.821,0.751055,-0.649816,0.135691,-0.507587,-1.05611,-0.109335,2.31875,0.190586,-0.657145,0.158115
5501404,0,-1.57036,-0.522876,0.000133073,-2.09583,1.57078,1.57168,0.785052,-1.5708,-0.523599,6.5269e-08,-2.0944,1.5708,1.5708,0.785397,-0.000159728,0.000620179,-0.00109627,0.000570726,-0.00015848,8.36846e-05,0.000832158,0,0,0,0,0,0,0,-0.50597,-10.213,-0.484555,20.821,0.757463,-0.656224,0.0972387,-0.508628,-1.05551,-0.110766,2.31789,0.19061,-0.656967,0.158228
5501405,0,-1.57036,-0.522879,0.000136874,-2.09583,1.57078,1.57168,0.785049,-1.5708,-0.523599,6.5269e-08,-2.0944,1.5708,1.5708,0.785397,-0.00131291,-0.000700171,-0.000174033,-0.000176328,-0.000309104,5.57897e-05,-0.000394664,0,0,0,0,0,0,0,-0.454395,-10.1654,-0.508359,20.8448,0.762956,-0.656224,0.122873,-0.508548,-1.05483,-0.11054,2.3169,0.190579,-0.656945,0.158339
5501406,0,-1.57036,-0.522876,0.000135454,-2.09583,1.57078,1.57168,0.78505,-1.5708,-0.523599,6.5269e-08,-2.0944,1.5708,1.5708,0.785397,0.000887963,0.000646843,-0.000116022,-0.000117552,0.00023474,3.71931e-05,0.000211608,0,0,0,0,0,0,0,-0.529774,-10.213,-0.508359,20.8448,0.751055,-0.656224,0.110056,-0.507587,-1.05417,-0.109089,2.31619,0.190531,-0.657037,0.158441
5501407,0,-1.57036,-0.522876,0.000134981,-2.09583,1.57078,1.57168,0.78505,-1.5708,-0.523599,6.5269e-08,-2.0944,1.5708,1.5708,0.785397,3.51636e-05,0.000431229,-7.7348e-05,0.000478444,0.000359944,2.47954e-05,0.000141072,0,0,0,0,0,0,0,-0.50597,-10.213,-0.508359,20.821,0.745561,-0.656224,0.110056,-0.507015,-1.05448,-0.108228,2.31607,0.190521,-0.65707,0.158533
5501408,0,-1.57036,-0.522881,0.000133152,-2.09583,1.57078,1.57168,0.785051,-1.5708,-0.523599,6.5269e-08,-2.0944,1.5708,1.5708,0.785397,0.00122987,-0.00147575,-0.000608377,-0.000887463,3.65121e-05,1.65303e-05,0.000331407,0,0,0,0,0,0,0,-0.557545,-10.1377,-0.484555,20.8725,0.751055,-0.656224,0.103647,-0.506973,-1.05456,-0.10805,2.31594,0.190519,-0.657014,0.158616
5501409,0,-1.57036,-0.522877,0.000136441,-2.09583,1.57078,1.57168,0.785054,-1.5708,-0.523599,6.5269e-08,-2.0944,1.5708,1.5708,0.785397,-0.00103613,0.000222591,0.000708039,-0.000591642,2.43414e-05,-0.000226339,0.00117037,0,0,0,0,0,0,0,-0.478199,-10.1892,-0.532163,20.8725,0.751055,-0.649816,0.0780126,-0.507196,-1.0533,-0.108227,2.31562,0.19051,-0.656897,0.158679
5501410,0,-1.57036,-0.522879,0.000131133,-2.09583,1.57078,1.57168,0.785045,-1.5708,-0.523599,6.5269e-08,-2.0944,1.5708,1.5708,0.785397,-4.1138e-05,-0.000408418,-0.00129121,0.000811998,-0.000221131,8.64664e-05,-0.00210197,0,0,0,0,0,0,0,-0.50597,-10.1654,-0.456784,20.821,0.757463,-0.656224,0.155832,-0.507078,-1.05186,-0.107968,2.31534,0.190483,-0.656827,0.158705
5501411,0,-1.57036,-0.522879,0.000133076,-2.09583,1.57078,1.57168,0.785052,-1.5708,-0.523599,6.5269e-08,-2.0944,1.5708,1.5708,0.785397,0.000529387,-0.000272279,-0.000211194,-1.54801e-05,8.99381e-05,-0.000179715,0.000768828,0,0,0,0,0,0,0,-0.529774,-10.1654,-0.484555,20.8448,0.751055,-0.649816,0.0972387,-0.506389,-1.05008,-0.106785,2.31451,0.190403,-0.65684,0.158699
5501412,0,-1.57036,-0.522877,0.000131126,-2.09583,1.57078,1.57168,0.785047,-1.5708,-0.523599,6.5269e-08,-2.0944,1.5708,1.5708,0.785397,0.000352924,0.000375293,-0.00079041,-0.00121675,-0.0001774,-0.000357169,-0.00118287,0,0,0,0,0,0,0,-0.529774,-10.1892,-0.456784,20.8963,0.757463,-0.643407,0.143015,-0.50577,-1.04894,-0.105517,2.31402,0.190327,-0.656843,0.158689
5501413,0,-1.57037,-0.522881,0.000136415,-2.09583,1.57078,1.57168,0.785053,-1.5708,-0.523599,6.5269e-08,-2.0944,1.5708,1.5708,0.785397,-0.00152795,-0.000956231,0.0012363,-0.000811164,0.000119092,0.000473964,0.0011442,0,0,0,0,0,0,0,-0.454395,-10.1377,-0.532163,20.8963,0.751055,-0.662633,0.09083,-0.505425,-1.04929,-0.104688,2.31479,0.190312,-0.65681,0.158693
5501414,0,-1.57036,-0.522877,0.000131125,-2.09583,1.57078,1.57168,0.78505,-1.5708,-0.523599,6.5269e-08,-2.0944,1.5708,1.5708,0.785397,0.000187789,0.000568939,-0.000939039,0.00066565,0.000282845,7.86173e-05,-0.000186635,0,0,0,0,0,0,0,-0.50597,-10.1892,-0.456784,20.8448,0.745561,-0.656224,0.116465,-0.505092,-1.04966,-0.104052,2.3157,0.190312,-0.656767,0.158715
5501415,0,-1.57036,-0.522874,0.000133074,-2.09583,1.57078,1.57168,0.78505,-1.5708,-0.523599,6.5269e-08,-2.0944,1.5708,1.5708,0.785397,0.000682005,0.00158572,2.35878e-05,0.000443767,-0.000252246,5.24115e-05,0.000112935,0,0,0,0,0,0,0,-0.529774,-10.2408,-0.484555,20.8448,0.757463,-0.656224,0.110056,-0.504825,-1.05106,-0.103448,2.31655,0.190297,-0.656733,0.158745
5501416,0,-1.57036,-0.522877,0.000134744,-2.09583,1.57078,1.57168,0.78505,-1.5708,-0.523599,6.5269e-08,-2.0944,1.5708,1.5708,0.785397,-0.000102142,-0.00014928,0.000572537,-0.00035377,-0.000371614,-0.000202418,-0.000162069,0,0,0,0,0,0,0,-0.50597,-10.1892,-0.508359,20.8725,0.762956,-0.649816,0.116465,-0.505142,-1.0543,-0.103584,2.31788,0.190303,-0.656644,0.158772
5501417,0,-1.57036,-0.522876,0.000136414,-2.09583,1.57078,1.57168,0.785046,-1.5708,-0.523599,6.5269e-08,-2.0944,1.5708,1.5708,0.785397,-6.80948e-05,0.000457292,0.000938503,-0.000235846,-4.42925e-05,0.000102414,-0.00132875,0,0,0,0,0,0,0,-0.50597,-10.213,-0.532163,20.8725,0.757463,-0.656224,0.149424,-0.506249,-1.05747,-0.104976,2.31933,0.190353,-0.656436,0.158798
5501418,0,-1.57036,-0.522874,0.000134744,-2.09583,1.57078,1.57169,0.785054,-1.5708,-0.523599,6.5269e-08,-2.0944,1.5708,1.5708,0.785397,-0.00069501,0.000954475,6.8857e-05,0.000492383,-2.95283e-05,0.000542994,0.00175902,0,0,0,0,0,0,0,-0.478199,-10.2408,-0.508359,20.8448,0.757463,-0.669042,0.0780126,-0.507503,-1.06035,-0.106735,2.3207,0.190426,-0.656204,0.158839
5501419,0,-1.57036,-0.522877,0.000136414,-2.09583,1.57078,1.57169,0.78505,-1.5708,-0.523599,6.5269e-08,-2.0944,1.5708,1.5708,0.785397,0.000743085,-0.000570109,0.000602717,-0.000878171,-0.000223136,-0.000112722,-0.000251471,0,0,0,0,0,0,0,-0.529774,-10.1892,-0.532163,20.8963,0.762956,-0.656224,0.116465,-0.508523,-1.06289,-0.108229,2.32189,0.190498,-0.656012,0.158903
5501420,0,-1.57036,-0.522879,0.000133073,-2.09583,1.57078,1.57168,0.785053,-1.5708,-0.523599,6.5269e-08,-2.0944,1.5708,1.5708,0.785397,-0.000711035,-0.000936885,-0.000711813,-2.86351e-05,-0.000148757,-7.51481e-05,0.00101915,0,0,0,0,0,0,0,-0.478199,-10.1654,-0.484555,20.8725,0.762956,-0.656224,0.0844213,-0.509236,-1.06318,-0.109255,2.32229,0.190546,-0.655847,0.158962
5501421,0,-1.57036,-0.522877,0.000136414,-2.09583,1.57078,1.57168,0.785048,-1.5708,-0.523599,6.5269e-08,-2.0944,1.5708,1.5708,0.785397,0.00017559,-6.77779e-05,0.000639082,-1.909e-05,-9.91716e-05,-0.000287458,-0.000982081,0,0,0,0,0,0,0,-0.50597,-10.1892,-0.532163,20.8725,0.762956,-0.649816,0.129282,-0.509411,-1.06098,-0.109485,2.32164,0.190554,-0.655737,0.158992
5501422,0,-1.57036,-0.522877,0.000134744,-2.09583,1.57078,1.57168,0.785049,-1.5708,-0.523599,6.5269e-08,-2.0944,1.5708,1.5708,0.785397,-0.000532553,-4.51852e-05,-0.000130757,-0.000569539,0.000374695,-0.000191638,-0.000417362,0,0,0,0,0,0,0,-0.478199,-10.1892,-0.508359,20.8963,0.751055,-0.649816,0.122873,-0.509344,-1.05854,-0.109435,2.32087,0.190571,-0.655659,0.158991
5501423,0,-1.57036,-0.522879,0.000136414,-2.09583,1.57078,1.57168,0.78505,-1.5708,-0.523599,6.5269e-08,-2.0944,1.5708,1.5708,0.785397,0.000294578,-0.000586935,0.00046964,0.00017712,1.24378e-05,0.0001096,0.000196477,0,0,0,0,0,0,0,-0.50597,-10.1654,-0.532163,20.8725,0.757463,-0.656224,0.110056,-0.509288,-1.05655,-0.109502,2.32038,0.190613,-0.655574,0.158979
5501424,0,-1.57036,-0.522877,0.000133073,-2.09583,1.57078,1.57168,0.785051,-1.5708,-0.523599,6.5269e-08,-2.0944,1.5708,1.5708,0.785397,0.000753197,0.000165522,-0.00080053,0.00188132,0.000245651,0.000310426,0.000368343,0,0,0,0,0,0,0,-0.529774,-10.1892,-0.484555,20.7972,0.751055,-0.662633,0.103647,-0.509271,-1.05376,-0.109598,2.31909,0.190624,-0.655474,0.158978
5501425,0,-1.57036,-0.522876,0.000133073,-2.09583,1.57078,1.57168,0.785054,-1.5708,-0.523599,6.5269e-08,-2.0944,1.5708,1.5708,0.785397,0.000502131,0.00066716,-0.000533687,0.000140588,-0.000277042,-3.04085e-05,0.001195,0,0,0,0,0,0,0,-0.529774,-10.213,-0.484555,20.8448,0.762956,-0.656224,0.0780126,-0.50912,-1.05106,-0.109307,2.31714,0.190586,-0.655409,0.158983
5501426,0,-1.57036,-0.522881,0.000134744,-2.09583,1.57078,1.57168,0.785045,-1.5708,-0.523599,6.5269e-08,-2.0944,1.5708,1.5708,0.785397,-0.000222058,-0.00131846,0.000201021,9.37252e-05,1.87557e-05,-2.02724e-05,-0.00208555,0,0,0,0,0,0,0,-0.50597,-10.1377,-0.508359,20.8448,0.757463,-0.656224,0.155832,-0.508773,-1.04908,-0.108623,2.31549,0.190547,-0.655395,0.158967
5501427,0,-1.57036,-0.522877,0.000136414,-2.09583,1.57078,1.57169,0.785052,-1.5708,-0.523599,6.5269e-08,-2.0944,1.5708,1.5708,0.785397,-0.000148038,0.000327449,0.000690826,-0.00058713,0.000249863,-1.35149e-05,0.000779772,0,0,0,0,0,0,0,-0.50597,-10.1892,-0.532163,20.8725,0.751055,-0.656224,0.0972387,-0.508647,-1.04706,-0.108375,2.31433,0.19055,-0.65535,0.158925
5501428,0,-1.57036,-0.522877,0.000134744,-2.09583,1.57078,1.57169,0.785051,-1.5708,-0.523599,6.5269e-08,-2.0944,1.5708,1.5708,0.785397,-9.86923e-05,0.0002183,-9.62614e-05,0.000258194,-0.000274234,-9.00994e-06,0.000282489,0,0,0,0,0,0,0,-0.50597,-10.1892,-0.508359,20.8448,0.762956,-0.656224,0.103647,-0.508789,-1.04629,-0.10866,2.31414,0.190608,-0.655285,0.158886
5501429,0,-1.57036,-0.522879,0.000133073,-2.09583,1.57078,1.57169,0.78505,-1.5708,-0.523599,6.5269e-08,-2.0944,1.5708,1.5708,0.785397,-6.57949e-05,-0.000411279,-0.000620986,-0.000477485,0.000461437,0.000231352,-0.000286392,0,0,0,0,0,0,0,-0.50597,-10.1654,-0.484555,20.8725,0.745561,-0.662633,0.116465,-0.50864,-1.04683,-0.108515,2.31469,0.190678,-0.655286,0.158852
5501430,0,-1.57036,-0.522879,0.000136414,-2.09583,1.57078,1.57168,0.785053,-1.5708,-0.523599,6.5269e-08,-2.0944,1.5708,1.5708,0.785397,-4.38632e-05,-0.000274186,0.000699633,0.00144491,0.000104174,-8.31241e-05,0.000995867,0,0,0,0,0,0,0,-0.50597,-10.1654,-0.532163,20.7972,0.751055,-0.656224,0.0844213,-0.508224,-1.0466,-0.107928,2.31474,0.190711,-0.655328,0.158812
5501431,0,-1.57036,-0.522877,0.000132613,-2.09583,1.57078,1.57169,0.785048,-1.5708,-0.523599,6.5269e-08,-2.0944,1.5708,1.5708,0.785397,-0.000678855,0.000374021,-9.03899e-05,-0.000799961,-0.000167909,0.000419302,-0.000997601,0,0,0,0,0,0,0,-0.478199,-10.1892,-0.508359,20.8725,0.757463,-0.669042,0.129282,-0.507933,-1.04589,-0.107594,2.31431,0.190722,-0.655358,0.158762
5501432,0,-1.57036,-0.522879,0.000135704,-2.09583,1.57078,1.57168,0.785053,-1.5708,-0.523599,6.5269e-08,-2.0944,1.5708,1.5708,0.785397,0.000197043,-0.000307464,0.000496552,0.000116306,0.000125419,-0.000432542,0.000759086,0,0,0,0,0,0,0,-0.50597,-10.1654,-0.532163,20.8448,0.751055,-0.649816,0.09083,-0.507727,-1.04615,-0.107501,2.31447,0.19075,-0.655396,0.158693
5501433,0,-1.57036,-0.522876,0.000138126,-2.09583,1.57078,1.57168,0.785047,-1.5708,-0.523599,6.5269e-08,-2.0944,1.5708,1.5708,0.785397,0.000131362,0.000908648,0.000980649,-0.000572076,-0.000153746,-5.10026e-05,-0.00142672,0,0,0,0,0,0,0,-0.50597,-10.213,-0.559934,20.8725,0.757463,-0.656224,0.143015,-0.508062,-1.04767,-0.108314,2.3155,0.190821,-0.655371,0.158613
5501434,0,-1.57036,-0.522876,0.000134665,-2.09583,1.57078,1.57168,0.785053,-1.5708,-0.523599,6.5269e-08,-2.0944,1.5708,1.5708,0.785397,-0.000562039,0.000605765,-0.00055266,0.00026823,-0.000102497,-0.000271361,0.00121899,0,0,0,0,0,0,0,-0.478199,-10.213,-0.508359,20.8448,0.757463,-0.649816,0.0844213,-0.508676,-1.05082,-0.109635,2.31731,0.190922,-0.655321,0.158534
5501435,0,-1.57036,-0.522876,0.000134718,-2.09583,1.57078,1.57168,0.785048,-1.5708,-0.523599,6.5269e-08,-2.0944,1.5708,1.5708,0.785397,-0.000374692,0.000403843,-0.00036844,0.000735632,-6.83316e-05,5.64518e-05,-0.000848852,0,0,0,0,0,0,0,-0.478199,-10.213,-0.508359,20.821,0.757463,-0.656224,0.129282,-0.508404,-1.05451,-0.109677,2.31908,0.190979,-0.655404,0.158466
5501436,0,-1.57036,-0.522877,0.000133065,-2.09583,1.57078,1.57168,0.785048,-1.5708,-0.523599,6.5269e-08,-2.0944,1.5708,1.5708,0.785397,-0.000806607,-0.000287583,-0.000802439,-6.63908e-05,0.000395255,-0.000199724,-0.000565902,0,0,0,0,0,0,0,-0.454395,-10.1892,-0.484555,20.8448,0.745561,-0.649816,0.129282,-0.507004,-1.05682,-0.108055,2.31983,0.190958,-0.655623,0.158408
5501437,0,-1.57036,-0.522877,0.000136411,-2.09583,1.57078,1.57168,0.78505,-1.5708,-0.523599,6.5269e-08,-2.0944,1.5708,1.5708,0.785397,0.000668687,-0.000191722,0.000578665,-0.000693874,-0.000380757,-0.00013315,0.000334809,0,0,0,0,0,0,0,-0.50597,-10.1892,-0.532163,20.8725,0.762956,-0.649816,0.110056,-0.505416,-1.05766,-0.106209,2.32002,0.190913,-0.655824,0.158368
5501438,0,-1.57036,-0.522877,0.000134743,-2.09583,1.57078,1.57169,0.785048,-1.5708,-0.523599,6.5269e-08,-2.0944,1.5708,1.5708,0.785397,0.0010026,-0.000127815,-0.000171035,0.000187031,-0.000253838,0.000148593,-0.00072623,0,0,0,0,0,0,0,-0.529774,-10.1892,-0.508359,20.8448,0.762956,-0.656224,0.135691,-0.504884,-1.05768,-0.105937,2.32014,0.190904,-0.65583,0.158365
5501439,0,-1.57036,-0.522879,0.000134744,-2.09583,1.57078,1.57169,0.785053,-1.5708,-0.523599,6.5269e-08,-2.0944,1.5708,1.5708,0.785397,0.000668402,-0.000642022,-0.000114024,0.000681499,0.000271584,0.000336421,0.00117736,0,0,0,0,0,0,0,-0.529774,-10.1654,-0.508359,20.821,0.751055,-0.662633,0.09083,-0.505332,-1.05646,-0.107007,2.31956,0.190905,-0.655666,0.158399
5501440,0,-1.57036,-0.522877,0.000138363,-2.09583,1.57078,1.57169,0.785051,-1.5708,-0.523599,6.5269e-08,-2.0944,1.5708,1.5708,0.785397,-0.00011121,0.000128797,0.00113041,-0.000752093,0.000181056,0.00022428,0.000310188,0,0,0,0,0,0,0,-0.50597,-10.1892,-0.559934,20.8725,0.751055,-0.662633,0.103647,-0.506213,-1.05431,-0.108682,2.31838,0.190907,-0.655432,0.158461
5501441,0,-1.57036,-0.522881,0.000131125,-2.09583,1.57078,1.57168,0.785053,-1.5708,-0.523599,6.5269e-08,-2.0944,1.5708,1.5708,0.785397,0.000482672,-0.00112056,-0.00165925,0.000148219,-0.000320105,-8.78387e-05,0.00068151,0,0,0,0,0,0,0,-0.529774,-10.1377,-0.456784,20.8448,0.762956,-0.656224,0.09083,-0.506944,-1.05214,-0.110131,2.31738,0.190915,-0.655234,0.15852
5501442,0,-1.57036,-0.522879,0.000133073,-2.09583,1.57078,1.57168,0.785048,-1.5708,-0.523599,6.5269e-08,-2.0944,1.5708,1.5708,0.785397,0.000321781,-9.74267e-05,-0.000456549,9.88124e-05,0.000430856,0.0001788,-0.00120717,0,0,0,0,0,0,0,-0.529774,-10.1654,-0.484555,20.8448,0.745561,-0.662633,0.135691,-0.506749,-1.04945,-0.109988,2.31618,0.190876,-0.655188,0.158548
5501443,0,-1.57036,-0.522879,0.000134744,-2.09583,1.57078,1.57169,0.78505,-1.5708,-0.523599,6.5269e-08,-2.0944,1.5708,1.5708,0.785397,0.000214521,-6.49511e-05,0.000252446,-0.000583739,0.000287238,-0.000118159,-9.27048e-05,0,0,0,0,0,0,0,-0.529774,-10.1654,-0.508359,20.8725,0.745561,-0.656224,0.116465,-0.506213,-1.04722,-0.109133,2.31519,0.190824,-0.655221,0.158546
5501444,0,-1.57036,-0.522876,0.000133073,-2.09583,1.57078,1.57169,0.78505,-1.5708,-0.523599,6.5269e-08,-2.0944,1.5708,1.5708,0.785397,-0.00162022,0.00107032,-0.000388515,-0.000945971,0.000191492,-7.87727e-05,0.000175556,0,0,0,0,0,0,0,-0.454395,-10.213,-0.484555,20.8963,0.745561,-0.656224,0.110056,-0.505615,-1.04778,-0.108215,2.31579,0.190821,-0.655316,0.158537
5501445,0,-1.57036,-0.522881,0.000134744,-2.09583,1.57078,1.57169,0.78505,-1.5708,-0.523599,6.5269e-08,-2.0944,1.5708,1.5708,0.785397,0.000126276,-0.00104969,0.000297802,0.000575778,-0.000313148,0.000184844,0.000117037,0,0,0,0,0,0,0,-0.50597,-10.1377,-0.508359,20.8448,0.757463,-0.662633,0.110056,-0.504607,-1.04994,-0.106792,2.3173,0.190823,-0.655505,0.158537
5501446,0,-1.57036,-0.522877,0.000134744,-2.09583,1.57078,1.57168,0.785053,-1.5708,-0.523599,6.5269e-08,-2.0944,1.5708,1.5708,0.785397,-0.000565429,0.000506633,0.000198535,0.000940664,-0.000412216,-0.00011413,0.00102746,0,0,0,0,0,0,0,-0.478199,-10.1892,-0.508359,20.821,0.762956,-0.656224,0.0844213,-0.503827,-1.05053,-0.105752,2.31766,0.190774,-0.655653,0.158546
5501447,0,-1.57036,-0.522877,0.000134744,-2.09583,1.57078,1.57168,0.785049,-1.5708,-0.523599,6.5269e-08,-2.0944,1.5708,1.5708,0.785397,0.000272661,0.000337755,0.000132356,-0.000579316,-7.13602e-05,0.000161272,-0.00073918,0,0,0,0,0,0,0,-0.50597,-10.1892,-0.508359,20.8725,0.757463,-0.662633,0.122873,-0.503591,-1.05059,-0.105528,2.31741,0.190714,-0.655723,0.158548
5501448,0,-1.57036,-0.522877,0.000131125,-2.09583,1.57078,1.57168,0.785049,-1.5708,-0.523599,6.5269e-08,-2.0944,1.5708,1.5708,0.785397,0.000738586,0.00022517,-0.00111819,-0.000943023,0.000393236,-0.000604562,-0.000492787,0,0,0,0,0,0,0,-0.529774,-10.1892,-0.456784,20.8963,0.745561,-0.643407,0.122873,-0.503562,-1.05227,-0.1055,2.31823,0.190702,-0.655778,0.158521
5501449,0,-1.57036,-0.522881,0.000133073,-2.09583,1.57078,1.57168,0.785048,-1.5708,-0.523599,6.5269e-08,-2.0944,1.5708,1.5708,0.785397,-6.44215e-05,-0.00105631,-9.58449e-05,-7.187e-05,5.87068e-05,7.16766e-05,-0.000803242,0,0,0,0,0,0,0,-0.50597,-10.1377,-0.484555,20.8725,0.751055,-0.656224,0.135691,-0.503455,-1.05387,-0.10514,2.31946,0.190701,-0.655829,0.158482
5501450,0,-1.57036,-0.522879,0.000134744,-2.09583,1.57078,1.57168,0.785053,-1.5708,-0.523599,6.5269e-08,-2.0944,1.5708,1.5708,0.785397,-4.29477e-05,-5.45943e-05,0.000492915,-0.000604725,-0.000401672,4.77844e-05,0.00136338,0,0,0,0,0,0,0,-0.50597,-10.1654,-0.508359,20.8963,0.762956,-0.656224,0.0844213,-0.503472,-1.05367,-0.104906,2.32001,0.190679,-0.655829,0.158464
5501451,0,-1.57036,-0.522879,0.000134744,-2.09583,1.57078,1.57168,0.785049,-1.5708,-0.523599,6.5269e-08,-2.0944,1.5708,1.5708,0.785397,-0.000678245,-3.63962e-05,0.00032861,0.000803276,0.000173028,0.000269215,-0.000515236,0,0,0,0,0,0,0,-0.478199,-10.1654,-0.508359,20.8448,0.751055,-0.662633,0.122873,-0.503803,-1.05261,-0.105251,2.32008,0.190655,-0.655769,0.158473
5501452,0,-1.57036,-0.522877,0.000129454,-2.09583,1.57078,1.57168,0.785048,-1.5708,-0.523599,6.5269e-08,-2.0944,1.5708,1.5708,0.785397,0.000754262,0.000532548,-0.00154416,0.000535517,0.000115352,-5.78821e-05,-0.00058085,0,0,0,0,0,0,0,-0.529774,-10.1892,-0.432981,20.8448,0.751055,-0.656224,0.129282,-0.503844,-1.05171,-0.105137,2.31975,0.190606,-0.655758,0.158489
5501453,0,-1.57036,-0.522876,0.000133073,-2.09583,1.57078,1.57168,0.785052,-1.5708,-0.523599,6.5269e-08,-2.0944,1.5708,1.5708,0.785397,-0.000703584,0.000911844,0.000176983,0.000357011,0.000280352,-0.000275947,0.000799562,0,0,0,0,0,0,0,-0.478199,-10.213,-0.484555,20.8448,0.745561,-0.649816,0.0972387,-0.503278,-1.05192,-0.103941,2.31952,0.190527,-0.655855,0.158511
5501454,0,-1.57036,-0.522876,0.000134744,-2.09583,1.57078,1.57169,0.785047,-1.5708,-0.523599,6.5269e-08,-2.0944,1.5708,1.5708,0.785397,0.000180557,0.000607896,0.000674801,0.00079482,-0.000253908,0.000290753,-0.00116238,0,0,0,0,0,0,0,-0.50597,-10.213,-0.508359,20.821,0.757463,-0.662633,0.143015,-0.502871,-1.05361,-0.102982,2.31977,0.190466,-0.655944,0.158549
5501455,0,-1.57036,-0.522876,0.000131125,-2.09583,1.57078,1.57168,0.785053,-1.5708,-0.523599,6.5269e-08,-2.0944,1.5708,1.5708,0.785397,0.000120372,0.000405264,-0.000756559,-2.69322e-05,-0.000169272,-0.000280882,0.00139522,0,0,0,0,0,0,0,-0.50597,-10.213,-0.456784,20.8448,0.757463,-0.649816,0.0844213,-0.50299,-1.05572,-0.102861,2.32016,0.190428,-0.655956,0.158601
5501456,0,-1.57036,-0.522877,0.000134744,-2.09583,1.57078,1.57169,0.785049,-1.5708,-0.523599,6.5269e-08,-2.0944,1.5708,1.5708,0.785397,0.00063706,-0.000286636,0.000702053,-1.79548e-05,-0.000112848,0.000524822,-0.000494008,0,0,0,0,0,0,0,-0.529774,-10.1892,-0.508359,20.8448,0.757463,-0.669042,0.122873,-0.503418,-1.05726,-0.103131,2.32047,0.190403,-0.655908,0.158664
5501457,0,-1.57036,-0.522876,0.000134744,-2.09583,1.57078,1.57169,0.785054,-1.5708,-0.523599,6.5269e-08,-2.0944,1.5708,1.5708,0.785397,0.000424706,0.000365721,0.000468036,-0.000661584,-7.5232e-05,0.000349881,0.00133217,0,0,0,0,0,0,0,-0.529774,-10.213,-0.508359,20.8725,0.757463,-0.669042,0.0780126,-0.504502,-1.05816,-0.104343,2.32087,0.190418,-0.655757,0.158722
5501458,0,-1.57035,-0.522879,0.000133073,-2.09583,1.57078,1.57168,0.785048,-1.5708,-0.523599,6.5269e-08,-2.0944,1.5708,1.5708,0.785397,0.000932752,-0.00086981,-0.000244788,-0.000441056,-5.01547e-05,-0.000241464,-0.00101076,0,0,0,0,0,0,0,-0.557545,-10.1654,-0.484555,20.8725,0.757463,-0.656224,0.129282,-0.506123,-1.05853,-0.106287,2.32143,0.190473,-0.655535,0.158755
5501459,0,-1.57036,-0.522877,0.000134744,-2.09583,1.57078,1.57169,0.78505,-1.5708,-0.523599,6.5269e-08,-2.0944,1.5708,1.5708,0.785397,-0.000584592,-2.30612e-05,0.00039362,0.000912389,0.000407373,0.000313742,3.82399e-05,0,0,0,0,0,0,0,-0.50597,-10.1892,-0.508359,20.821,0.745561,-0.669042,0.110056,-0.507553,-1.05741,-0.107831,2.32129,0.190506,-0.655348,0.158757
5501460,0,-1.57036,-0.522879,0.000133073,-2.09583,1.57078,1.57168,0.785053,-1.5708,-0.523599,6.5269e-08,-2.0944,1.5708,1.5708,0.785397,-0.00103934,-0.000572186,-0.000294399,0.000608259,-0.000169227,-0.000265556,0.000974929,0,0,0,0,0,0,0,-0.478199,-10.1654,-0.484555,20.821,0.757463,-0.656224,0.0844213,-0.508116,-1.05455,-0.108105,2.31984,0.190466,-0.655298,0.158742
5501461,0,-1.57036,-0.522879,0.000133073,-2.09583,1.57078,1.57168,0.785048,-1.5708,-0.523599,6.5269e-08,-2.0944,1.5708,1.5708,0.785397,-0.000692894,-0.000381457,-0.000196266,-0.000151306,-0.000316269,6.03213e-05,-0.00101156,0,0,0,0,0,0,0,-0.478199,-10.1654,-0.484555,20.8448,0.762956,-0.662633,0.129282,-0.507528,-1.05092,-0.106773,2.31774,0.190367,-0.655431,0.158711
5501462,0,-1.57036,-0.522881,0.000134744,-2.09583,1.57078,1.57169,0.785056,-1.5708,-0.523599,6.5269e-08,-2.0944,1.5708,1.5708,0.785397,0.000187684,-0.000903919,0.000425968,-0.00186411,-7.39536e-06,-0.000197145,0.000987139,0,0,0,0,0,0,0,-0.50597,-10.1377,-0.508359,20.9201,0.757463,-0.656224,0.0844213,-0.506613,-1.04779,-0.105046,2.31638,0.190294,-0.655617,0.158655
5501463,0,-1.57036,-0.522879,0.000134744,-2.09583,1.57078,1.57169,0.785046,-1.5708,-0.523599,6.5269e-08,-2.0944,1.5708,1.5708,0.785397,-0.000524491,4.70014e-05,0.000283979,0.000520499,-4.93024e-06,-0.00013143,-0.00198676,0,0,0,0,0,0,0,-0.478199,-10.1654,-0.508359,20.8448,0.757463,-0.656224,0.155832,-0.506205,-1.04581,-0.104174,2.31618,0.190299,-0.655731,0.158578
5501464,0,-1.57036,-0.522879,0.000133073,-2.09583,1.57078,1.57169,0.785049,-1.5708,-0.523599,6.5269e-08,-2.0944,1.5708,1.5708,0.785397,0.000299953,3.13342e-05,-0.000367493,-0.000859427,0.000437523,-8.76199e-05,-0.000341165,0,0,0,0,0,0,0,-0.50597,-10.1654,-0.484555,20.8963,0.745561,-0.656224,0.129282,-0.506048,-1.04505,-0.103739,2.31657,0.190341,-0.655811,0.158499
5501465,0,-1.57036,-0.522876,0.000136414,-2.09583,1.57078,1.57169,0.785053,-1.5708,-0.523599,6.5269e-08,-2.0944,1.5708,1.5708,0.785397,0.000756781,0.00113451,0.000868629,-0.000572951,8.82312e-05,0.000178946,0.00143407,0,0,0,0,0,0,0,-0.529774,-10.213,-0.532163,20.8963,0.751055,-0.662633,0.0844213,-0.506245,-1.04663,-0.103828,2.31803,0.190427,-0.655857,0.158456
5501466,0,-1.57036,-0.522877,0.000134744,-2.09583,1.57078,1.57169,0.78505,-1.5708,-0.523599,6.5269e-08,-2.0944,1.5708,1.5708,0.785397,-5.22916e-05,0.00019953,2.22738e-05,-0.000381967,-0.000381989,0.000119297,-0.000230749,0,0,0,0,0,0,0,-0.50597,-10.1892,-0.508359,20.8963,0.762956,-0.662633,0.116465,-0.507084,-1.0506,-0.104898,2.3207,0.190563,-0.655835,0.158454
5501467,0,-1.57036,-0.522877,0.000134744,-2.09583,1.57078,1.57169,0.785052,-1.5708,-0.523599,6.5269e-08,-2.0944,1.5708,1.5708,0.785397,-0.000684474,0.00013302,1.48492e-05,0.000302167,-0.000254659,-0.000157828,0.000558244,0,0,0,0,0,0,0,-0.478199,-10.1892,-0.508359,20.8725,0.762956,-0.656224,0.0972387,-0.507711,-1.0545,-0.105738,2.32316,0.190674,-0.655847,0.158464
5501468,0,-1.57036,-0.522877,0.000134744,-2.09583,1.57078,1.57169,0.785045,-1.5708,-0.523599,6.5269e-08,-2.0944,1.5708,1.5708,0.785397,0.000193297,8.86801e-05,9.89949e-06,0.000201445,0.000474487,0.000132141,-0.00203533,0,0,0,0,0,0,0,-0.50597,-10.1892,-0.508359,20.8725,0.745561,-0.662633,0.162241,-0.507672,-1.0567,-0.105668,2.32448,0.190722,-0.655938,0.158469
5501469,0,-1.57036,-0.522879,0.000136414,-2.09583,1.57078,1.57168,0.78505,-1.5708,-0.523599,6.5269e-08,-2.0944,1.5708,1.5708,0.785397,0.000685677,-0.000497692,0.000563412,0.00134072,0.000112874,-0.000149265,0.00057589,0,0,0,0,0,0,0,-0.529774,-10.1654,-0.532163,20.821,0.751055,-0.656224,0.110056,-0.507766,-1.05662,-0.105803,2.32426,0.190719,-0.655982,0.158484
5501470,0,-1.57035,-0.522877,0.000134744,-2.09583,1.57078,1.57168,0.785049,-1.5708,-0.523599,6.5269e-08,-2.0944,1.5708,1.5708,0.785397,0.00166354,0.000225017,-0.000181204,0.000337003,-0.000162109,-0.000336869,-9.07912e-05,0,0,0,0,0,0,0,-0.581349,-10.1892,-0.508359,20.8448,0.757463,-0.649816,0.122873,-0.50869,-1.05445,-0.107051,2.32264,0.190679,-0.655879,0.158543
5501471,0,-1.57036,-0.522874,0.000134744,-2.09583,1.57078,1.57168,0.785053,-1.5708,-0.523599,6.5269e-08,-2.0944,1.5708,1.5708,0.785397,-9.73968e-05,0.00135644,-0.000120803,-0.000424945,0.000129286,1.27796e-05,0.00112627,0,0,0,0,0,0,0,-0.529774,-10.2408,-0.508359,20.8725,0.751055,-0.656224,0.09083,-0.509956,-1.05344,-0.108634,2.3216,0.190655,-0.655741,0.15864
5501472,0,-1.57036,-0.522879,0.000133073,-2.09583,1.57078,1.57169,0.785053,-1.5708,-0.523599,6.5269e-08,-2.0944,1.5708,1.5708,0.785397,-6.49312e-05,-0.000858946,-0.000637347,0.000366317,0.000289641,0.000483238,0.000988204,0,0,0,0,0,0,0,-0.529774,-10.1654,-0.484555,20.8448,0.745561,-0.669042,0.0844213,-0.510458,-1.05444,-0.108998,2.32182,0.19064,-0.65574,0.158745
5501473,0,-1.57036,-0.522877,0.000134744,-2.09583,1.57078,1.57168,0.785048,-1.5708,-0.523599,6.5269e-08,-2.0944,1.5708,1.5708,0.785397,-0.00124971,-1.58188e-05,0.000131914,-0.000962215,-0.000247715,-0.000152559,-0.00124007,0,0,0,0,0,0,0,-0.478199,-10.1892,-0.508359,20.8963,0.757463,-0.656224,0.135691,-0.509837,-1.05473,-0.107735,2.32201,0.190587,-0.6559,0.158821
5501474,0,-1.57036,-0.522877,0.000133073,-2.09583,1.57078,1.57168,0.785052,-1.5708,-0.523599,6.5269e-08,-2.0944,1.5708,1.5708,0.785397,-0.000833142,-1.05459e-05,-0.000468869,0.00112176,7.22154e-05,-0.000101706,0.000597441,0,0,0,0,0,0,0,-0.478199,-10.1892,-0.484555,20.821,0.751055,-0.656224,0.0972387,-0.508373,-1.05413,-0.105353,2.32195,0.190498,-0.656175,0.158855
5501475,0,-1.57036,-0.522877,0.000136414,-2.09583,1.57078,1.57168,0.785048,-1.5708,-0.523599,6.5269e-08,-2.0944,1.5708,1.5708,0.785397,-0.000555428,-7.0306e-06,0.000801044,0.000191029,-0.000189215,-6.78042e-05,-0.000788501,0,0,0,0,0,0,0,-0.478199,-10.1892,-0.532163,20.8448,0.757463,-0.656224,0.129282,-0.506756,-1.05309,-0.102894,2.3214,0.190387,-0.656464,0.158868
5501476,0,-1.57036,-0.522879,0.000136414,-2.09583,1.57078,1.57168,0.785053,-1.5708,-0.523599,6.5269e-08,-2.0944,1.5708,1.5708,0.785397,0.000279328,-0.000561499,0.00053403,0.000127353,-0.000329594,0.000192156,0.00113585,0,0,0,0,0,0,0,-0.50597,-10.1654,-0.532163,20.8448,0.762956,-0.662633,0.0844213,-0.506004,-1.05138,-0.101867,2.32038,0.190295,-0.656604,0.158875
5501477,0,-1.57036,-0.522877,0.000134744,-2.09583,1.57078,1.57168,0.785048,-1.5708,-0.523599,6.5269e-08,-2.0944,1.5708,1.5708,0.785397,0.000743031,0.000182479,-0.000200792,0.000641714,-0.000219729,0.000128104,-0.000904282,0,0,0,0,0,0,0,-0.529774,-10.1892,-0.508359,20.821,0.762956,-0.662633,0.129282,-0.506281,-1.04932,-0.102405,2.3192,0.190242,-0.656577,0.158873
5501478,0,-1.57036,-0.522877,0.000138363,-2.09583,1.57078,1.57169,0.785051,-1.5708,-0.523599,6.5269e-08,-2.0944,1.5708,1.5708,0.785397,-0.000711071,0.000121653,0.00107256,-0.000129003,5.69643e-05,-0.000151956,0.000346581,0,0,0,0,0,0,0,-0.478199,-10.1892,-0.559934,20.8448,0.757463,-0.656224,0.103647,-0.507038,-1.04784,-0.103666,2.31823,0.190229,-0.656483,0.158859
5501479,0,-1.57036,-0.522881,0.000136414,-2.09583,1.57078,1.57168,0.785048,-1.5708,-0.523599,6.5269e-08,-2.0944,1.5708,1.5708,0.785397,0.000732378,-0.00112532,6.5429e-05,-0.000735616,0.000478786,-0.000338663,-0.000718382,0,0,0,0,0,0,0,-0.529774,-10.1377,-0.532163,20.8725,0.745561,-0.649816,0.129282,-0.508033,-1.04685,-0.105404,2.31774,0.190267,-0.656349,0.158834
5501480,0,-1.57036,-0.522876,0.000133073,-2.09584,1.57078,1.57169,0.785048,-1.5708,-0.523599,6.5269e-08,-2.0944,1.5708,1.5708,0.785397,-6.85602e-05,0.00101302,-0.00107,-0.00160403,0.00011574,0.000248942,-0.000478921,0,0,0,0,0,0,0,-0.50597,-10.213,-0.484555,20.9201,0.751055,-0.662633,0.129282,-0.508688,-1.04686,-0.106639,2.31836,0.190341,-0.656261,0.158808
5501481,0,-1.57036,-0.522876,0.000134744,-2.09583,1.57078,1.57169,0.785054,-1.5708,-0.523599,6.5269e-08,-2.0944,1.5708,1.5708,0.785397,-4.57068e-05,0.000675348,-0.000156524,0.00125069,7.71599e-05,0.000165962,0.00157959,0,0,0,0,0,0,0,-0.50597,-10.213,-0.508359,20.821,0.751055,-0.662633,0.0780126,-0.508366,-1.04941,-0.106327,2.32035,0.190417,-0.656344,0.158798
5501482,0,-1.57036,-0.522879,0.000133073,-2.09583,1.57078,1.57168,0.785048,-1.5708,-0.523599,6.5269e-08,-2.0944,1.5708,1.5708,0.785397,0.000526341,-0.000663392,-0.000661162,-0.00148625,-0.00038937,0.000110641,-0.000845811,0,0,0,0,0,0,0,-0.529774,-10.1654,-0.484555,20.9201,0.762956,-0.662633,0.129282,-0.507543,-1.05258,-0.105202,2.32233,0.190455,-0.656517,0.158807
5501483,0,-1.57036,-0.522879,0.000134744,-2.09583,1.57078,1.57168,0.785051,-1.5708,-0.523599,6.5269e-08,-2.0944,1.5708,1.5708,0.785397,0.000350894,-0.000442261,0.000116038,0.000772402,0.00018123,7.37607e-05,0.000385562,0,0,0,0,0,0,0,-0.529774,-10.1654,-0.508359,20.8448,0.751055,-0.662633,0.103647,-0.50696,-1.05375,-0.104342,2.32332,0.190458,-0.656641,0.158814
5501484,0,-1.57036,-0.522877,0.000133073,-2.09583,1.57078,1.57169,0.785046,-1.5708,-0.523599,6.5269e-08,-2.0944,1.5708,1.5708,0.785397,-0.00152931,0.000261971,-0.000479454,0.000514935,-0.000116539,0.000286533,-0.00143838,0,0,0,0,0,0,0,-0.454395,-10.1892,-0.484555,20.8448,0.757463,-0.669042,0.149424,-0.506329,-1.05306,-0.103407,2.32314,0.19042,-0.656767,0.158818
5501485,0,-1.57036,-0.522876,0.000133073,-2.09583,1.57078,1.57168,0.785053,-1.5708,-0.523599,6.5269e-08,-2.0944,1.5708,1.5708,0.785397,0.000186887,0.000731459,-0.000319636,0.000900102,0.000159666,-0.000283696,0.00144858,0,0,0,0,0,0,0,-0.50597,-10.213,-0.484555,20.821,0.751055,-0.656224,0.0844213,-0.505142,-1.0523,-0.101714,2.32234,0.190341,-0.656994,0.158836
5501486,0,-1.57036,-0.522879,0.000131125,-2.09583,1.57078,1.57169,0.785049,-1.5708,-0.523599,6.5269e-08,-2.0944,1.5708,1.5708,0.785397,0.000124591,-0.000625984,-0.000862704,-0.000606358,-0.000130915,4.82282e-05,-0.000458435,0,0,0,0,0,0,0,-0.50597,-10.1654,-0.456784,20.8725,0.757463,-0.662633,0.122873,-0.503824,-1.05215,-0.0997696,2.32166,0.190258,-0.657257,0.158873
5501487,0,-1.57036,-0.522879,0.000134744,-2.09583,1.57078,1.57169,0.78505,-1.5708,-0.523599,6.5269e-08,-2.0944,1.5708,1.5708,0.785397,8.30607e-05,-0.000417323,0.00063129,-0.000404239,0.000150082,-0.000205207,0.000169095,0,0,0,0,0,0,0,-0.50597,-10.1654,-0.508359,20.8725,0.751055,-0.656224,0.110056,-0.503041,-1.05156,-0.0985343,2.32119,0.190203,-0.657431,0.158915
5501488,0,-1.57036,-0.522877,0.000134744,-2.09583,1.57078,1.57168,0.78505,-1.5708,-0.523599,6.5269e-08,-2.0944,1.5708,1.5708,0.785397,-0.000594239,0.000278597,0.00042086,-0.000269493,0.000100055,-0.000374163,0.00011273,0,0,0,0,0,0,0,-0.478199,-10.1892,-0.508359,20.8725,0.751055,-0.649816,0.110056,-0.503071,-1.0509,-0.098584,2.32113,0.190201,-0.657472,0.158952
5501489,0,-1.57036,-0.522876,0.000133073,-2.09583,1.57078,1.57168,0.785048,-1.5708,-0.523599,6.5269e-08,-2.0944,1.5708,1.5708,0.785397,0.000810266,0.000742543,-0.000276239,0.00158358,6.67033e-05,-0.000249442,-0.000636924,0,0,0,0,0,0,0,-0.529774,-10.213,-0.484555,20.7972,0.751055,-0.649816,0.129282,-0.503649,-1.05104,-0.0995007,2.32125,0.190222,-0.657429,0.158987
5501490,0,-1.57036,-0.522877,0.000134744,-2.09583,1.57078,1.57168,0.785052,-1.5708,-0.523599,6.5269e-08,-2.0944,1.5708,1.5708,0.785397,0.000540177,-6.17832e-05,0.000372653,-0.00070752,4.44689e-05,0.000308423,0.000762179,0,0,0,0,0,0,0,-0.529774,-10.1892,-0.508359,20.8725,0.751055,-0.662633,0.0972387,-0.504608,-1.05175,-0.100868,2.3212,0.190234,-0.657323,0.159025
