shamilmamedov/beam_handling/log/param_estimation_ICRA/impulse_Xdown_1.csv
duration, success rate, q[0], q[1], q[2], q[3], q[4], q[5], q[6],q_d[0], q_d[1], q_d[2], q_d[3], q_d[4], q_d[5], q_d[6],dq[0], dq[1], dq[2], dq[3], dq[4], dq[5], dq[6],dq_d[0], dq_d[1], dq_d[2], dq_d[3], dq_d[4], dq_d[5], dq_d[6],tau_J[0], tau_J[1], tau_J[2], tau_J[3], tau_J[4], tau_J[5], tau_J[6],tau_ext_hat_filtered[0], tau_ext_hat_filtered[1], tau_ext_hat_filtered[2], tau_ext_hat_filtered[3], tau_ext_hat_filtered[4], tau_ext_hat_filtered[5], tau_ext_hat_filtered[6]
5702055,0,-1.57063,-0.522766,-0.000325203,-2.09671,-1.56937,1.5714,0.785207,-1.5708,-0.523598,-4.37798e-09,-2.0944,-1.5708,1.5708,0.785398,-0.000113629,0.000230176,-0.000103076,8.2727e-05,-0.000235119,-9.88239e-05,-0.00101954,0,0,0,0,0,0,0,-0.152882,-10.2408,0.80878,21.5668,-1.57805,-0.276281,0.0780126,-0.148279,-1.09668,0.63098,3.05826,-1.04185,-0.275874,0.00997892
5713771,0,-1.57063,-0.522783,-0.000330069,-2.09664,-1.56946,1.5714,0.785219,-1.5708,-0.523598,-4.37798e-09,-2.0944,-1.5708,1.5708,0.785398,-8.73871e-05,-0.000444556,0.00276222,-0.000946679,0.000374878,0.000196768,-0.00019891,0,0,0,0,0,0,0,-0.125111,-10.1654,0.832583,21.6144,-1.54967,-0.308324,0.0587866,-0.175154,-1.05596,0.61864,3.02233,-0.98011,-0.310579,0.0121869
5713772,0,-1.57063,-0.522782,-0.000333689,-2.09664,-1.56946,1.5714,0.785222,-1.5708,-0.523598,-4.37798e-09,-2.0944,-1.5708,1.5708,0.785398,0.00114817,0.000260442,0.000867762,-7.43072e-05,-0.000156983,0.000131178,0.000850738,0,0,0,0,0,0,0,-0.176685,-10.1892,0.884158,21.5906,-1.53868,-0.308324,0.0322363,-0.179225,-1.0543,0.611456,3.02201,-0.980225,-0.311186,0.0121091
5713773,0,-1.57063,-0.52278,-0.000328399,-2.09664,-1.56946,1.5714,0.785214,-1.5708,-0.523598,-4.37798e-09,-2.0944,-1.5708,1.5708,0.785398,-0.000440981,0.00073044,0.00251628,0.000507274,-0.000308106,-0.000149907,-0.0020777,0,0,0,0,0,0,0,-0.125111,-10.213,0.80878,21.5668,-1.53319,-0.301915,0.103647,-0.181802,-1.05402,0.606991,3.02222,-0.980295,-0.311583,0.0120172
5713774,0,-1.57063,-0.522783,-0.00032645,-2.09664,-1.56946,1.5714,0.785223,-1.5708,-0.523598,-4.37798e-09,-2.0944,-1.5708,1.5708,0.785398,0.00156205,-0.000626664,0.00245803,0.00154461,0.000201497,-9.99378e-05,0.00149708,0,0,0,0,0,0,0,-0.204456,-10.1654,0.781009,21.5152,-1.54417,-0.301915,0.0258276,-0.183684,-1.05375,0.603857,3.0218,-0.980298,-0.31188,0.0119176
5713775,0,-1.57063,-0.522782,-0.000328399,-2.09664,-1.56946,1.5714,0.785216,-1.5708,-0.523598,-4.37798e-09,-2.0944,-1.5708,1.5708,0.785398,-0.000165057,0.000139036,0.00108725,-0.000176687,0.000337782,0.000408093,-0.00140944,0,0,0,0,0,0,0,-0.152882,-10.1892,0.80878,21.5668,-1.54967,-0.314733,0.09083,-0.185203,-1.05211,0.601463,3.0203,-0.980235,-0.312099,0.0118278
5713776,0,-1.57063,-0.52278,-0.000328399,-2.09664,-1.56946,1.5714,0.785218,-1.5708,-0.523598,-4.37798e-09,-2.0944,-1.5708,1.5708,0.785398,0.000446774,0.000649503,0.000798463,-0.000117791,2.17375e-05,-0.000202656,9.80765e-06,0,0,0,0,0,0,0,-0.176685,-10.213,0.80878,21.5668,-1.54417,-0.301915,0.0651953,-0.18537,-1.05112,0.601309,3.01931,-0.980147,-0.312108,0.0117603
5713777,0,-1.57063,-0.52278,-0.000330069,-2.09664,-1.56946,1.5714,0.785218,-1.5708,-0.523598,-4.37798e-09,-2.0944,-1.5708,1.5708,0.785398,-0.000258963,0.000433002,3.07194e-05,-7.85275e-05,1.44917e-05,0.000339614,-0.000230821,0,0,0,0,0,0,0,-0.152882,-10.213,0.832583,21.5668,-1.54417,-0.314733,0.071604,-0.183746,-1.05223,0.604035,3.01972,-0.980062,-0.311857,0.011733
5713778,0,-1.57063,-0.522783,-0.000332018,-2.09664,-1.56946,1.5714,0.785218,-1.5708,-0.523598,-4.37798e-09,-2.0944,-1.5708,1.5708,0.785398,0.00038417,-0.000824956,-0.000587717,0.00050446,-0.000193789,-1.09497e-05,-0.00015388,0,0,0,0,0,0,0,-0.176685,-10.1654,0.860354,21.543,-1.53868,-0.308324,0.071604,-0.180493,-1.05332,0.609355,3.02026,-0.979942,-0.311355,0.0117511
5713779,0,-1.57063,-0.522783,-0.000328399,-2.09664,-1.56946,1.5714,0.78522,-1.5708,-0.523598,-4.37798e-09,-2.0944,-1.5708,1.5708,0.785398,-0.000300699,-0.000549971,0.000845677,-0.000220505,-0.000129193,-0.000244659,0.00060949,0,0,0,0,0,0,0,-0.152882,-10.1654,0.80878,21.5668,-1.53868,-0.301915,0.0523779,-0.176322,-1.05233,0.616107,3.01989,-0.979768,-0.310688,0.0118067
5713780,0,-1.57063,-0.522783,-0.000332018,-2.09664,-1.56946,1.5714,0.785218,-1.5708,-0.523598,-4.37798e-09,-2.0944,-1.5708,1.5708,0.785398,0.000356346,-0.000366647,-0.000619344,-0.000147003,-0.000289579,-0.000163106,-6.83913e-05,0,0,0,0,0,0,0,-0.176685,-10.1654,0.860354,21.5668,-1.53319,-0.301915,0.0651953,-0.172101,-1.05011,0.622954,3.01913,-0.979583,-0.309994,0.0118933
5713781,0,-1.57063,-0.52278,-0.00032645,-2.09664,-1.56946,1.5714,0.785223,-1.5708,-0.523598,-4.37798e-09,-2.0944,-1.5708,1.5708,0.785398,-0.000319248,0.000869192,0.00146062,-9.80023e-05,1.03978e-05,0.000365981,0.00141247,0,0,0,0,0,0,0,-0.152882,-10.213,0.781009,21.5668,-1.53868,-0.314733,0.0258276,-0.168337,-1.04892,0.62917,3.019,-0.979429,-0.309378,0.0119978
5713782,0,-1.57063,-0.522778,-0.000328399,-2.09664,-1.56946,1.5714,0.785216,-1.5708,-0.523598,-4.37798e-09,-2.0944,-1.5708,1.5708,0.785398,-0.000212832,0.00122908,0.000337235,-0.000622147,-0.000196519,0.000243987,-0.00122849,0,0,0,0,0,0,0,-0.152882,-10.2408,0.80878,21.5906,-1.53319,-0.314733,0.0844213,-0.165467,-1.05074,0.634059,3.02033,-0.979341,-0.308936,0.0121
5713783,0,-1.57063,-0.522783,-0.000330069,-2.09664,-1.56946,1.5714,0.785221,-1.5708,-0.523598,-4.37798e-09,-2.0944,-1.5708,1.5708,0.785398,0.000414924,-0.000943854,-0.00032216,0.000698859,7.24381e-05,-0.000786778,0.000876425,0,0,0,0,0,0,0,-0.176685,-10.1654,0.832583,21.543,-1.53868,-0.289098,0.038645,-0.163062,-1.05387,0.638231,3.02223,-0.97927,-0.308585,0.0121792
5713784,0,-1.57063,-0.522783,-0.000330069,-2.09664,-1.56946,1.5714,0.785221,-1.5708,-0.523598,-4.37798e-09,-2.0944,-1.5708,1.5708,0.785398,-0.00092981,-0.000629236,-0.000207402,0.000465906,-0.000155158,-4.98006e-05,0.000313016,0,0,0,0,0,0,0,-0.125111,-10.1654,0.832583,21.543,-1.53319,-0.301915,0.0459692,-0.160336,-1.05415,0.642797,3.02252,-0.979116,-0.308148,0.0122285
5713785,0,-1.57063,-0.522782,-0.000330069,-2.09664,-1.56946,1.5714,0.785217,-1.5708,-0.523598,-4.37798e-09,-2.0944,-1.5708,1.5708,0.785398,0.000586553,0.000137321,-0.000132739,0.000310604,0.000506913,0.000204159,-0.000978117,0,0,0,0,0,0,0,-0.176685,-10.1892,0.832583,21.543,-1.54967,-0.308324,0.0780126,-0.157417,-1.05204,0.647548,3.02142,-0.978891,-0.307643,0.012243
5713786,0,-1.57063,-0.52278,-0.000328399,-2.09664,-1.56946,1.5714,0.785221,-1.5708,-0.523598,-4.37798e-09,-2.0944,-1.5708,1.5708,0.785398,-0.000165777,0.000648359,0.000472465,0.000207069,0.000134491,-0.000101253,0.000534717,0,0,0,0,0,0,0,-0.152882,-10.213,0.80878,21.543,-1.54417,-0.301915,0.0459692,-0.155112,-1.05076,0.651395,3.02061,-0.978688,-0.307233,0.0122314
5713787,0,-1.57063,-0.522778,-0.000332018,-2.09664,-1.56946,1.5714,0.78522,-1.5708,-0.523598,-4.37798e-09,-2.0944,-1.5708,1.5708,0.785398,0.000446294,0.00108185,-0.000888339,0.000138046,8.96608e-05,-6.75022e-05,0.000119119,0,0,0,0,0,0,0,-0.176685,-10.2408,0.860354,21.543,-1.54417,-0.301915,0.0523779,-0.153455,-1.05184,0.654363,3.02085,-0.978549,-0.30694,0.0122159
5713788,0,-1.57063,-0.522783,-0.00032645,-2.09664,-1.56946,1.5714,0.785221,-1.5708,-0.523598,-4.37798e-09,-2.0944,-1.5708,1.5708,0.785398,-0.000259283,-0.001042,0.00126615,-0.00222802,5.97739e-05,0.000192358,0.000316771,0,0,0,0,0,0,0,-0.152882,-10.1654,0.781009,21.6422,-1.54417,-0.308324,0.0459692,-0.152245,-1.05445,0.656704,3.02224,-0.978485,-0.306722,0.0121966
5713789,0,-1.57063,-0.52278,-0.00032645,-2.09664,-1.56946,1.5714,0.785215,-1.5708,-0.523598,-4.37798e-09,-2.0944,-1.5708,1.5708,0.785398,-0.000172855,0.000418956,0.000845847,0.000834704,-0.000367052,0.000602956,-0.00168769,0,0,0,0,0,0,0,-0.152882,-10.213,0.781009,21.543,-1.53319,-0.321141,0.0972387,-0.151931,-1.05654,0.657559,3.02401,-0.978481,-0.306627,0.0121596
5713790,0,-1.57063,-0.522783,-0.000330069,-2.09664,-1.56946,1.5714,0.785221,-1.5708,-0.523598,-4.37798e-09,-2.0944,-1.5708,1.5708,0.785398,-0.000764851,-0.00083432,-0.000641216,0.000556469,-4.12507e-05,-7.27471e-05,0.00104501,0,0,0,0,0,0,0,-0.125111,-10.1654,0.832583,21.543,-1.53868,-0.308324,0.038645,-0.151834,-1.05673,0.65785,3.02458,-0.978446,-0.306561,0.0121129
5713791,0,-1.57063,-0.522784,-0.000330069,-2.09664,-1.56946,1.5714,0.785214,-1.5708,-0.523598,-4.37798e-09,-2.0944,-1.5708,1.5708,0.785398,0.000139714,5.986e-07,-0.000426493,0.00102059,-2.75005e-05,-4.8498e-05,-0.00171082,0,0,0,0,0,0,0,-0.152882,-10.1892,0.832583,21.5152,-1.53868,-0.308324,0.103647,-0.150885,-1.05474,0.659267,3.02342,-0.978318,-0.306368,0.0120772
5713792,0,-1.57063,-0.522782,-0.000330069,-2.09664,-1.56946,1.5714,0.785218,-1.5708,-0.523598,-4.37798e-09,-2.0944,-1.5708,1.5708,0.785398,9.31423e-05,3.99067e-07,-0.000283591,-0.00052603,0.000185117,-3.2332e-05,0.000283605,0,0,0,0,0,0,0,-0.152882,-10.1892,0.832583,21.5668,-1.54417,-0.308324,0.0651953,-0.14952,-1.05231,0.661298,3.0218,-0.978158,-0.306127,0.0120705
5713793,0,-1.57063,-0.522782,-0.000330069,-2.09664,-1.56946,1.5714,0.785222,-1.5708,-0.523598,-4.37798e-09,-2.0944,-1.5708,1.5708,0.785398,6.20949e-05,2.66044e-07,-0.000188507,-0.00146431,0.000123411,-2.15547e-05,0.00140977,0,0,0,0,0,0,0,-0.152882,-10.1892,0.832583,21.6144,-1.54417,-0.308324,0.0322363,-0.148388,-1.05159,0.663052,3.02147,-0.978059,-0.305951,0.0121184
5713794,0,-1.57063,-0.522782,-0.000328399,-2.09664,-1.56946,1.5714,0.785221,-1.5708,-0.523598,-4.37798e-09,-2.0944,-1.5708,1.5708,0.785398,-0.000608217,1.77363e-07,0.000431556,0.000137417,8.22742e-05,0.000460348,0.000431222,0,0,0,0,0,0,0,-0.125111,-10.1892,0.80878,21.5668,-1.54417,-0.321141,0.0459692,-0.147582,-1.05243,0.664302,3.0225,-0.978034,-0.305856,0.0122073
5713795,0,-1.57063,-0.522782,-0.000330069,-2.09664,-1.56946,1.5714,0.785221,-1.5708,-0.523598,-4.37798e-09,-2.0944,-1.5708,1.5708,0.785398,-0.000405478,1.18242e-07,-0.000268797,9.16112e-05,-0.000148601,-0.000167819,0.000287482,0,0,0,0,0,0,0,-0.125111,-10.1892,0.832583,21.5668,-1.53868,-0.308324,0.0459692,-0.146925,-1.05335,0.665188,3.02349,-0.978021,-0.30581,0.0122843
5713796,0,-1.57063,-0.52278,-0.000332018,-2.09664,-1.56946,1.5714,0.785216,-1.5708,-0.523598,-4.37798e-09,-2.0944,-1.5708,1.5708,0.785398,0.000379295,0.000556891,-0.000828578,-0.000495738,-0.000505968,-0.000111879,-0.0012325,0,0,0,0,0,0,0,-0.152882,-10.213,0.860354,21.5906,-1.52769,-0.308324,0.0844213,-0.146093,-1.05436,0.666284,3.0243,-0.977999,-0.305765,0.012323
5713797,0,-1.57063,-0.522783,-0.000328399,-2.09663,-1.56946,1.5714,0.785221,-1.5708,-0.523598,-4.37798e-09,-2.0944,-1.5708,1.5708,0.785398,0.00145929,-0.000742363,0.000654215,0.00198956,6.95888e-05,-7.45863e-05,0.000602487,0,0,0,0,0,0,0,-0.204456,-10.1654,0.80878,21.4914,-1.53868,-0.308324,0.0459692,-0.145733,-1.05484,0.666787,3.02449,-0.977956,-0.305803,0.0123297
5713798,0,-1.57063,-0.522782,-0.00032645,-2.09664,-1.56946,1.5714,0.785216,-1.5708,-0.523598,-4.37798e-09,-2.0944,-1.5708,1.5708,0.785398,-0.000233566,6.1903e-05,0.00108589,0.00076956,-0.000157058,-4.97242e-05,-0.0010225,0,0,0,0,0,0,0,-0.152882,-10.1892,0.781009,21.5152,-1.53319,-0.308324,0.0844213,-0.14674,-1.05308,0.665274,3.02286,-0.977868,-0.306032,0.0123203
5713799,0,-1.57063,-0.522782,-0.000328399,-2.09664,-1.56946,1.5714,0.785223,-1.5708,-0.523598,-4.37798e-09,-2.0944,-1.5708,1.5708,0.785398,-0.000155711,4.12687e-05,7.44105e-05,-0.0012502,0.000302196,-3.31495e-05,0.00148848,0,0,0,0,0,0,0,-0.152882,-10.1892,0.80878,21.5906,-1.54417,-0.308324,0.0258276,-0.148359,-1.05104,0.66275,3.02103,-0.977782,-0.306347,0.0123168
5713800,0,-1.57063,-0.522782,-0.000328399,-2.09664,-1.56946,1.5714,0.785221,-1.5708,-0.523598,-4.37798e-09,-2.0944,-1.5708,1.5708,0.785398,-0.000103807,2.75125e-05,4.96809e-05,-0.000276653,0.000201464,-0.000259459,0.000517599,0,0,0,0,0,0,0,-0.152882,-10.1892,0.80878,21.5668,-1.54417,-0.301915,0.038645,-0.149456,-1.0509,0.660959,3.02087,-0.977746,-0.30659,0.0123262
5713801,0,-1.57063,-0.52278,-0.000330069,-2.09664,-1.56946,1.5714,0.785217,-1.5708,-0.523598,-4.37798e-09,-2.0944,-1.5708,1.5708,0.785398,-6.92048e-05,0.000575154,-0.000523636,0.00102199,0.00033776,-0.000172972,-0.001113,0,0,0,0,0,0,0,-0.152882,-10.213,0.832583,21.5152,-1.54967,-0.301915,0.0780126,-0.149782,-1.05182,0.660335,3.02142,-0.977716,-0.306713,0.012315
5713802,0,-1.57063,-0.522783,-0.000330069,-2.09664,-1.56946,1.5714,0.785221,-1.5708,-0.523598,-4.37798e-09,-2.0944,-1.5708,1.5708,0.785398,-4.61366e-05,-0.000730188,-0.000349049,-0.00108191,-0.000385178,0.000122044,0.000444797,0,0,0,0,0,0,0,-0.152882,-10.1654,0.832583,21.5906,-1.53319,-0.308324,0.0459692,-0.14942,-1.05263,0.660768,3.02176,-0.977663,-0.306714,0.0122688
5713803,0,-1.57063,-0.52278,-0.000328399,-2.09664,-1.56946,1.5714,0.785217,-1.5708,-0.523598,-4.37798e-09,-2.0944,-1.5708,1.5708,0.785398,-3.07577e-05,0.000626832,0.000324144,-0.000164462,0.000150115,8.13627e-05,-0.000890263,0,0,0,0,0,0,0,-0.152882,-10.213,0.80878,21.5668,-1.54417,-0.308324,0.0780126,-0.148872,-1.05345,0.661502,3.02237,-0.977627,-0.30667,0.0122109
5713804,0,-1.57063,-0.52278,-0.000328399,-2.09664,-1.56946,1.5714,0.785221,-1.5708,-0.523598,-4.37798e-09,-2.0944,-1.5708,1.5708,0.785398,-0.000670119,0.000417888,0.000216119,-0.000666453,0.000100077,5.42418e-05,0.000864553,0,0,0,0,0,0,0,-0.125111,-10.213,0.80878,21.5906,-1.54417,-0.308324,0.038645,-0.148552,-1.05535,0.661862,3.02374,-0.977636,-0.306664,0.0121593
5713805,0,-1.57063,-0.522778,-0.000330069,-2.09664,-1.56946,1.5714,0.785221,-1.5708,-0.523598,-4.37798e-09,-2.0944,-1.5708,1.5708,0.785398,0.000202868,0.000928206,-0.000412715,-0.000444302,-0.000136733,3.61612e-05,0.000305102,0,0,0,0,0,0,0,-0.152882,-10.2408,0.832583,21.5906,-1.53868,-0.308324,0.0459692,-0.148257,-1.05877,0.662157,3.02589,-0.977682,-0.306679,0.012119
5713806,0,-1.57063,-0.522782,-0.000328399,-2.09664,-1.56946,1.5714,0.785222,-1.5708,-0.523598,-4.37798e-09,-2.0944,-1.5708,1.5708,0.785398,0.000135245,-0.000587622,0.000281682,0.000817422,-9.1155e-05,2.41075e-05,0.000712027,0,0,0,0,0,0,0,-0.152882,-10.1892,0.80878,21.543,-1.53868,-0.308324,0.0322363,-0.148014,-1.06191,0.662379,3.0277,-0.977721,-0.306702,0.0120694
5713807,0,-1.57063,-0.52278,-0.000330069,-2.09664,-1.56946,1.5714,0.785218,-1.5708,-0.523598,-4.37798e-09,-2.0944,-1.5708,1.5708,0.785398,-0.00055945,0.000165064,-0.000369014,0.00119456,0.000346131,-0.000458646,-0.000983377,0,0,0,0,0,0,0,-0.125111,-10.213,0.832583,21.5152,-1.54967,-0.295507,0.071604,-0.147806,-1.06238,0.662464,3.02762,-0.977691,-0.306703,0.0119796
5713808,0,-1.57063,-0.522778,-0.000330069,-2.09664,-1.56946,1.5714,0.785216,-1.5708,-0.523598,-4.37798e-09,-2.0944,-1.5708,1.5708,0.785398,0.000276647,0.000759657,-0.000246002,-0.000410051,-0.000176147,0.000168954,-0.00136766,0,0,0,0,0,0,0,-0.152882,-10.2408,0.832583,21.5668,-1.53868,-0.308324,0.09083,-0.14735,-1.06168,0.662851,3.02654,-0.977618,-0.306649,0.0118542
5713809,0,-1.57063,-0.522783,-0.000330069,-2.09664,-1.56946,1.5714,0.785221,-1.5708,-0.523598,-4.37798e-09,-2.0944,-1.5708,1.5708,0.785398,0.000184431,-0.0012568,-0.000163996,-0.000273367,0.00028947,-0.000124723,0.000749738,0,0,0,0,0,0,0,-0.152882,-10.1654,0.832583,21.5668,-1.54967,-0.301915,0.0459692,-0.146909,-1.06124,0.66326,3.02583,-0.977567,-0.306589,0.0117361
5713810,0,-1.57063,-0.52278,-0.000330069,-2.09665,-1.56946,1.5714,0.785216,-1.5708,-0.523598,-4.37798e-09,-2.0944,-1.5708,1.5708,0.785398,0.000679766,0.000275757,-0.000109326,-0.00194548,0.000430339,-0.000320508,-0.000924328,0,0,0,0,0,0,0,-0.176685,-10.213,0.832583,21.6422,-1.55607,-0.295507,0.0844213,-0.146844,-1.06055,0.663192,3.02576,-0.97757,-0.30656,0.0116575
5713811,0,-1.57063,-0.52278,-0.000328399,-2.09664,-1.56946,1.5714,0.785223,-1.5708,-0.523598,-4.37798e-09,-2.0944,-1.5708,1.5708,0.785398,-0.000753248,0.000183838,0.000483931,0.000466249,-0.000153917,0.000261046,0.00179128,0,0,0,0,0,0,0,-0.125111,-10.213,0.80878,21.5668,-1.54417,-0.308324,0.0194189,-0.147119,-1.06075,0.662671,3.02665,-0.977642,-0.306572,0.0116232
5713812,0,-1.57063,-0.522782,-0.000330069,-2.09664,-1.56946,1.5714,0.785222,-1.5708,-0.523598,-4.37798e-09,-2.0944,-1.5708,1.5708,0.785398,-0.000502166,-0.000434253,-0.000234189,0.000310833,-0.000509512,0.000174031,0.000719468,0,0,0,0,0,0,0,-0.125111,-10.1892,0.832583,21.5668,-1.53319,-0.308324,0.0322363,-0.147265,-1.06097,0.662244,3.02728,-0.977721,-0.306562,0.0116127
5713813,0,-1.57063,-0.522783,-0.000328399,-2.09664,-1.56946,1.5714,0.785219,-1.5708,-0.523598,-4.37798e-09,-2.0944,-1.5708,1.5708,0.785398,0.000314837,-0.000846314,0.000400688,0.000764034,-0.000543125,0.00011602,-0.000503699,0,0,0,0,0,0,0,-0.152882,-10.1654,0.80878,21.543,-1.52769,-0.308324,0.0587866,-0.147207,-1.05907,0.661985,3.02633,-0.977739,-0.306504,0.0115764
5713814,0,-1.57063,-0.522783,-0.000330069,-2.09664,-1.56946,1.5714,0.785219,-1.5708,-0.523598,-4.37798e-09,-2.0944,-1.5708,1.5708,0.785398,0.000766703,-0.000564209,-0.000289686,0.000509356,0.000248268,7.7347e-05,-0.000335799,0,0,0,0,0,0,0,-0.176685,-10.1654,0.832583,21.543,-1.54417,-0.308324,0.0587866,-0.147485,-1.05514,0.661232,3.02405,-0.977703,-0.306481,0.0114879
5713815,0,-1.57063,-0.52278,-0.000327939,-2.09664,-1.56946,1.5714,0.785218,-1.5708,-0.523598,-4.37798e-09,-2.0944,-1.5708,1.5708,0.785398,-4.56765e-05,0.000737484,-0.000193123,0.000339571,0.000368962,5.15647e-05,-0.000461225,0,0,0,0,0,0,0,-0.152882,-10.213,0.832583,21.543,-1.54967,-0.308324,0.0651953,-0.147984,-1.05155,0.660285,3.02177,-0.977649,-0.306498,0.0113692
5713816,0,-1.57063,-0.52278,-0.00032574,-2.09664,-1.56946,1.5714,0.785221,-1.5708,-0.523598,-4.37798e-09,-2.0944,-1.5708,1.5708,0.785398,0.00117597,0.000491656,0.00107768,-0.000887243,4.25245e-05,0.000509094,0.000675861,0,0,0,0,0,0,0,-0.204456,-10.213,0.781009,21.5906,-1.54417,-0.321141,0.038645,-0.148879,-1.05096,0.658925,3.02108,-0.977656,-0.306613,0.0112536
5713817,0,-1.57063,-0.522783,-0.000328162,-2.09664,-1.56946,1.5714,0.785217,-1.5708,-0.523598,-4.37798e-09,-2.0944,-1.5708,1.5708,0.785398,0.000134369,-0.000785853,6.88387e-05,-3.46837e-05,-0.000175101,-0.000135322,-0.00100749,0,0,0,0,0,0,0,-0.176685,-10.1654,0.80878,21.5668,-1.53868,-0.308324,0.0780126,-0.150556,-1.0523,0.656526,3.02175,-0.977738,-0.306874,0.0111484
5713818,0,-1.57063,-0.522782,-0.00032832,-2.09664,-1.56946,1.5714,0.785223,-1.5708,-0.523598,-4.37798e-09,-2.0944,-1.5708,1.5708,0.785398,-0.000467232,3.29099e-05,4.58929e-05,-2.31225e-05,8.67166e-05,0.000147144,0.00149848,0,0,0,0,0,0,0,-0.152882,-10.1892,0.80878,21.5668,-1.54417,-0.314733,0.0194189,-0.152003,-1.05296,0.654463,3.02232,-0.977815,-0.307101,0.0110479
5713819,0,-1.57063,-0.52278,-0.000331992,-2.09664,-1.56946,1.5714,0.785217,-1.5708,-0.523598,-4.37798e-09,-2.0944,-1.5708,1.5708,0.785398,-0.000311488,0.000578752,-0.00117583,-1.5415e-05,5.78111e-05,-0.000376622,-0.00117115,0,0,0,0,0,0,0,-0.152882,-10.213,0.860354,21.5668,-1.54417,-0.301915,0.0780126,-0.152145,-1.05355,0.654327,3.02283,-0.977852,-0.307138,0.0109508
5713820,0,-1.57063,-0.522785,-0.000332009,-2.09664,-1.56946,1.5714,0.785221,-1.5708,-0.523598,-4.37798e-09,-2.0944,-1.5708,1.5708,0.785398,0.000349153,-0.0013774,-0.000783887,-1.02767e-05,-0.00016491,0.000223637,0.000406027,0,0,0,0,0,0,0,-0.176685,-10.1377,0.860354,21.5668,-1.53868,-0.314733,0.0459692,-0.151074,-1.05403,0.656094,3.02328,-0.977849,-0.306994,0.0108476
5713821,0,-1.57063,-0.522782,-0.000330066,-2.09664,-1.56946,1.5714,0.785216,-1.5708,-0.523598,-4.37798e-09,-2.0944,-1.5708,1.5708,0.785398,0.000232769,0.000288157,0.000127023,0.000549961,0.000296961,-8.82677e-05,-0.00115347,0,0,0,0,0,0,0,-0.176685,-10.1892,0.832583,21.543,-1.54967,-0.308324,0.0844213,-0.149857,-1.05298,0.658201,3.02293,-0.977808,-0.306813,0.0107405
5713822,0,-1.57063,-0.522783,-0.000324779,-2.09664,-1.56946,1.5714,0.785219,-1.5708,-0.523598,-4.37798e-09,-2.0944,-1.5708,1.5708,0.785398,-0.00105125,-0.000364707,0.00184792,-0.0013038,-5.47641e-06,0.000415873,0.000180456,0,0,0,0,0,0,0,-0.125111,-10.1654,0.757205,21.6144,-1.54417,-0.321141,0.0587866,-0.149611,-1.05189,0.65883,3.02263,-0.977803,-0.306786,0.0106523
5713823,0,-1.57063,-0.522782,-0.000328399,-2.09664,-1.56946,1.5714,0.785218,-1.5708,-0.523598,-4.37798e-09,-2.0944,-1.5708,1.5708,0.785398,-5.12172e-05,0.000313674,2.55209e-05,0.000244427,-3.65094e-06,-0.000434828,-0.000354414,0,0,0,0,0,0,0,-0.152882,-10.1892,0.80878,21.5668,-1.54417,-0.301915,0.071604,-0.150273,-1.0521,0.657934,3.02324,-0.97787,-0.306925,0.010605
5713824,0,-1.57063,-0.522782,-0.000330069,-2.09664,-1.56946,1.5714,0.785216,-1.5708,-0.523598,-4.37798e-09,-2.0944,-1.5708,1.5708,0.785398,-3.41448e-05,0.000209116,-0.000539798,0.000719763,-0.000205884,-0.000289886,-0.000710994,0,0,0,0,0,0,0,-0.152882,-10.1892,0.832583,21.543,-1.53868,-0.301915,0.0844213,-0.150815,-1.05288,0.657163,3.02399,-0.977943,-0.307065,0.0106011
5713825,0,-1.57063,-0.522783,-0.000332018,-2.09664,-1.56946,1.5714,0.785223,-1.5708,-0.523598,-4.37798e-09,-2.0944,-1.5708,1.5708,0.785398,-0.000672377,-0.000417401,-0.00100948,0.000479842,6.61942e-05,4.41019e-05,0.00169614,0,0,0,0,0,0,0,-0.125111,-10.1654,0.860354,21.543,-1.54417,-0.308324,0.0258276,-0.150369,-1.05307,0.65791,3.02397,-0.977956,-0.307052,0.0106409
5713826,0,-1.57063,-0.522782,-0.000328399,-2.09664,-1.56946,1.5714,0.785216,-1.5708,-0.523598,-4.37798e-09,-2.0944,-1.5708,1.5708,0.785398,0.00140779,0.000278544,0.00053344,0.000319895,-0.000159321,2.94013e-05,-0.00127674,0,0,0,0,0,0,0,-0.204456,-10.1892,0.80878,21.543,-1.53868,-0.308324,0.09083,-0.149621,-1.0525,0.659165,3.02336,-0.977935,-0.306982,0.010715
5713827,0,-1.57063,-0.522778,-0.000328399,-2.09664,-1.56946,1.5714,0.785221,-1.5708,-0.523598,-4.37798e-09,-2.0944,-1.5708,1.5708,0.785398,0.000288912,0.00139212,0.000355627,-0.000343549,-0.000106214,1.96008e-05,0.000810355,0,0,0,0,0,0,0,-0.176685,-10.2408,0.80878,21.5668,-1.53868,-0.308324,0.0459692,-0.150027,-1.05336,0.658858,3.02346,-0.977968,-0.307097,0.0108074
5713828,0,-1.57063,-0.522783,-0.000330069,-2.09664,-1.56946,1.5714,0.785217,-1.5708,-0.523598,-4.37798e-09,-2.0944,-1.5708,1.5708,0.785398,0.000842222,-0.000835156,-0.000319728,0.000977393,-7.08094e-05,-0.000224292,-0.000646558,0,0,0,0,0,0,0,-0.204456,-10.1654,0.832583,21.5152,-1.53868,-0.301915,0.0780126,-0.151317,-1.05553,0.657379,3.0242,-0.978042,-0.307347,0.0109149
5713829,0,-1.57063,-0.522785,-0.000330069,-2.09664,-1.56946,1.5714,0.78522,-1.5708,-0.523598,-4.37798e-09,-2.0944,-1.5708,1.5708,0.785398,-0.000644945,-0.00120638,-0.000213152,0.000651596,-0.000454107,-0.000149528,0.000518397,0,0,0,0,0,0,0,-0.152882,-10.1377,0.832583,21.5152,-1.52769,-0.301915,0.0523779,-0.152261,-1.05496,0.656405,3.02346,-0.978041,-0.307493,0.0110264
5713830,0,-1.57064,-0.522782,-0.000328399,-2.09664,-1.56946,1.5714,0.785218,-1.5708,-0.523598,-4.37798e-09,-2.0944,-1.5708,1.5708,0.785398,-0.00163639,0.000402169,0.000414711,-0.00132884,0.000104163,-9.96852e-05,-0.000366479,0,0,0,0,0,0,0,-0.101307,-10.1892,0.80878,21.5906,-1.53868,-0.301915,0.071604,-0.152253,-1.05226,0.656661,3.02191,-0.977974,-0.307448,0.0111428
5713831,0,-1.57063,-0.52278,-0.00032645,-2.09664,-1.56946,1.5714,0.78522,-1.5708,-0.523598,-4.37798e-09,-2.0944,-1.5708,1.5708,0.785398,0.0001155,0.000824925,0.000926088,-0.000885894,6.94419e-05,0.000170902,0.000467758,0,0,0,0,0,0,0,-0.152882,-10.213,0.781009,21.5906,-1.53868,-0.308324,0.0523779,-0.151925,-1.05221,0.65721,3.02231,-0.977961,-0.307368,0.0112761
5713832,0,-1.57063,-0.522782,-0.000330069,-2.09664,-1.56946,1.5714,0.785223,-1.5708,-0.523598,-4.37798e-09,-2.0944,-1.5708,1.5708,0.785398,0.000633812,-6.86207e-06,-0.000589034,0.00172945,4.62946e-05,-0.000360783,0.00153254,0,0,0,0,0,0,0,-0.176685,-10.1892,0.832583,21.4914,-1.53868,-0.295507,0.0194189,-0.152153,-1.05437,0.656934,3.02381,-0.977987,-0.307389,0.0114143
5713833,0,-1.57063,-0.52278,-0.000330069,-2.09664,-1.56946,1.5714,0.785217,-1.5708,-0.523598,-4.37798e-09,-2.0944,-1.5708,1.5708,0.785398,-0.000783885,0.000552237,-0.000392689,-5.34566e-05,0.000234314,0.000234196,-0.00114844,0,0,0,0,0,0,0,-0.125111,-10.213,0.832583,21.543,-1.54417,-0.308324,0.0780126,-0.152302,-1.05588,0.656835,3.0243,-0.977955,-0.307385,0.0115211
5713834,0,-1.57063,-0.522783,-0.000330069,-2.09664,-1.56946,1.5714,0.785222,-1.5708,-0.523598,-4.37798e-09,-2.0944,-1.5708,1.5708,0.785398,0.000127024,-0.000745466,-0.000261793,-0.00059245,0.000156209,0.000156131,0.000929791,0,0,0,0,0,0,0,-0.152882,-10.1654,0.832583,21.5668,-1.54417,-0.308324,0.0322363,-0.151819,-1.05665,0.657646,3.02434,-0.977882,-0.307268,0.0115777
5713835,0,-1.57063,-0.522785,-0.000328399,-2.09664,-1.56946,1.5714,0.785217,-1.5708,-0.523598,-4.37798e-09,-2.0944,-1.5708,1.5708,0.785398,8.46828e-05,-0.00114659,0.000382283,-0.000394966,0.000104139,0.000341446,-0.00107556,0,0,0,0,0,0,0,-0.152882,-10.1377,0.80878,21.5668,-1.54417,-0.314733,0.0780126,-0.151398,-1.056,0.65829,3.02419,-0.977813,-0.307138,0.0115913
5713836,0,-1.57063,-0.52278,-0.000328399,-2.09664,-1.56946,1.5714,0.78522,-1.5708,-0.523598,-4.37798e-09,-2.0944,-1.5708,1.5708,0.785398,5.64552e-05,0.000998844,0.000254856,0.000293501,6.94262e-05,-9.7283e-06,0.000232396,0,0,0,0,0,0,0,-0.152882,-10.213,0.80878,21.543,-1.54417,-0.308324,0.0523779,-0.151568,-1.05446,0.65799,3.02378,-0.977763,-0.307097,0.0115745
5713837,0,-1.57063,-0.52278,-0.00032645,-2.09664,-1.56946,1.5714,0.785219,-1.5708,-0.523598,-4.37798e-09,-2.0944,-1.5708,1.5708,0.785398,3.76368e-05,0.000665896,0.000819518,0.000195667,4.62842e-05,0.000230873,-8.24285e-05,0,0,0,0,0,0,0,-0.152882,-10.213,0.781009,21.543,-1.54417,-0.314733,0.0587866,-0.152325,-1.05467,0.656789,3.02389,-0.97776,-0.307187,0.0115503
5713838,0,-1.57063,-0.522782,-0.000330069,-2.09664,-1.56946,1.5714,0.785221,-1.5708,-0.523598,-4.37798e-09,-2.0944,-1.5708,1.5708,0.785398,2.50912e-05,-0.000112881,-0.000660081,0.000780059,-0.000172594,-0.000320802,0.000691033,0,0,0,0,0,0,0,-0.152882,-10.1892,0.832583,21.5152,-1.53868,-0.301915,0.038645,-0.15319,-1.05601,0.655395,3.02412,-0.977777,-0.307329,0.0115267
5713839,0,-1.57063,-0.522783,-0.000330069,-2.09664,-1.56946,1.5714,0.785219,-1.5708,-0.523598,-4.37798e-09,-2.0944,-1.5708,1.5708,0.785398,-0.000632886,-0.000632066,-0.000440054,0.000520039,8.83876e-05,-0.000213868,-0.000285297,0,0,0,0,0,0,0,-0.125111,-10.1654,0.832583,21.5152,-1.54417,-0.301915,0.0587866,-0.153228,-1.05582,0.655155,3.02332,-0.977743,-0.307341,0.011489
5713840,0,-1.57063,-0.522782,-0.000328399,-2.09664,-1.56946,1.5714,0.785216,-1.5708,-0.523598,-4.37798e-09,-2.0944,-1.5708,1.5708,0.785398,0.000784502,0.000135434,0.000263443,-0.00141655,0.000262376,0.000332139,-0.00113963,0,0,0,0,0,0,0,-0.176685,-10.1892,0.80878,21.5906,-1.54967,-0.314733,0.0844213,-0.152723,-1.05462,0.655678,3.02225,-0.977696,-0.30726,0.0114318
5713841,0,-1.57063,-0.52278,-0.00032645,-2.09664,-1.56946,1.5714,0.78522,-1.5708,-0.523598,-4.37798e-09,-2.0944,-1.5708,1.5708,0.785398,0.000523001,0.000647102,0.000825242,-0.000387551,-0.000231984,-1.59329e-05,0.000427039,0,0,0,0,0,0,0,-0.176685,-10.213,0.781009,21.5668,-1.53868,-0.308324,0.0523779,-0.153045,-1.05511,0.655046,3.02261,-0.977738,-0.30732,0.0113794
5713842,0,-1.57063,-0.522782,-0.000328399,-2.09664,-1.56946,1.5714,0.785215,-1.5708,-0.523598,-4.37798e-09,-2.0944,-1.5708,1.5708,0.785398,0.000348667,-0.000125411,-9.94523e-05,0.00150487,-0.000358107,-0.000247981,-0.00137682,0,0,0,0,0,0,0,-0.176685,-10.1892,0.80878,21.4914,-1.53319,-0.301915,0.0972387,-0.154222,-1.05661,0.653208,3.02336,-0.977826,-0.307526,0.0113527
5713843,0,-1.57063,-0.522782,-0.000330069,-2.09664,-1.56946,1.5714,0.785222,-1.5708,-0.523598,-4.37798e-09,-2.0944,-1.5708,1.5708,0.785398,-0.000973981,-8.36073e-05,-0.000623114,0.00100325,-3.52872e-05,-0.000165321,0.00148962,0,0,0,0,0,0,0,-0.125111,-10.1892,0.832583,21.4914,-1.53868,-0.301915,0.0322363,-0.154827,-1.05639,0.652158,3.0225,-0.977833,-0.307628,0.0113568
5713844,0,-1.57063,-0.522783,-0.000328399,-2.09664,-1.56946,1.5714,0.78522,-1.5708,-0.523598,-4.37798e-09,-2.0944,-1.5708,1.5708,0.785398,2.93287e-07,-0.00061255,0.000141403,-0.000537595,-2.35248e-05,-0.000110214,0.000247093,0,0,0,0,0,0,0,-0.152882,-10.1654,0.80878,21.543,-1.53868,-0.301915,0.0523779,-0.154323,-1.05454,0.652648,3.02057,-0.977763,-0.307536,0.0113949
5713845,0,-1.57063,-0.522782,-0.000327939,-2.09664,-1.56946,1.5714,0.785221,-1.5708,-0.523598,-4.37798e-09,-2.0944,-1.5708,1.5708,0.785398,0.000557007,0.000148445,-0.000462543,-0.000915208,0.000391218,0.000401242,0.000673355,0,0,0,0,0,0,0,-0.176685,-10.1892,0.832583,21.5668,-1.54967,-0.314733,0.038645,-0.153646,-1.05302,0.653419,3.01936,-0.977714,-0.307405,0.0114454
5713846,0,-1.57063,-0.522783,-0.000327689,-2.09664,-1.56946,1.5714,0.785218,-1.5708,-0.523598,-4.37798e-09,-2.0944,-1.5708,1.5708,0.785398,-0.000185474,-0.000457848,0.00024845,0.000596287,5.73614e-05,-0.000444582,-0.0007718,0,0,0,0,0,0,0,-0.152882,-10.1654,0.80878,21.5152,-1.54417,-0.295507,0.071604,-0.153317,-1.05234,0.65378,3.01899,-0.977705,-0.307322,0.0114771
5713847,0,-1.57063,-0.522776,-0.000326213,-2.09664,-1.56946,1.5714,0.785219,-1.5708,-0.523598,-4.37798e-09,-2.0944,-1.5708,1.5708,0.785398,0.000433163,0.00201482,0.000815247,-0.000252089,-0.00036866,0.000653048,-3.98152e-05,0,0,0,0,0,0,0,-0.176685,-10.2646,0.781009,21.543,-1.53319,-0.321141,0.0587866,-0.153552,-1.05309,0.653353,3.01915,-0.977731,-0.307339,0.0114856
5713848,0,-1.57063,-0.52278,-0.00032832,-2.09664,-1.56946,1.5714,0.785221,-1.5708,-0.523598,-4.37798e-09,-2.0944,-1.5708,1.5708,0.785398,0.000938389,0.0007864,-0.000106116,-0.0018385,0.000364578,-3.93528e-05,0.000719442,0,0,0,0,0,0,0,-0.204456,-10.2408,0.80878,21.6144,-1.54967,-0.308324,0.038645,-0.154648,-1.0575,0.651797,3.02113,-0.977849,-0.307529,0.0114927
5713849,0,-1.57063,-0.522782,-0.000328373,-2.09664,-1.56946,1.5714,0.785216,-1.5708,-0.523598,-4.37798e-09,-2.0944,-1.5708,1.5708,0.785398,-0.000580833,-0.000682159,-7.07439e-05,-0.00011204,3.96016e-05,-0.000263594,-0.00121579,0,0,0,0,0,0,0,-0.152882,-10.1892,0.80878,21.5668,-1.54417,-0.301915,0.0844213,-0.15583,-1.06332,0.650242,3.02428,-0.978013,-0.307741,0.0114966
5713850,0,-1.57064,-0.522783,-0.000332009,-2.09664,-1.56946,1.5714,0.785221,-1.5708,-0.523598,-4.37798e-09,-2.0944,-1.5708,1.5708,0.785398,-0.00159365,-0.00101158,-0.00125359,-7.46931e-05,-0.000177049,0.000298988,0.000884892,0,0,0,0,0,0,0,-0.101307,-10.1654,0.860354,21.5668,-1.53868,-0.314733,0.038645,-0.155566,-1.06552,0.650679,3.0258,-0.978079,-0.307688,0.0114832
5713851,0,-1.57063,-0.522782,-0.000328396,-2.09664,-1.56946,1.5714,0.78522,-1.5708,-0.523598,-4.37798e-09,-2.0944,-1.5708,1.5708,0.785398,0.000700806,-0.000117578,0.0003707,-0.000606607,-0.000118033,-3.80333e-05,8.13019e-05,0,0,0,0,0,0,0,-0.176685,-10.1892,0.80878,21.5906,-1.53868,-0.308324,0.0523779,-0.154038,-1.06422,0.65282,3.02552,-0.978045,-0.307412,0.0114622
5713852,0,-1.57063,-0.52278,-0.000328398,-2.09664,-1.56946,1.5714,0.785221,-1.5708,-0.523598,-4.37798e-09,-2.0944,-1.5708,1.5708,0.785398,-8.9608e-05,0.000478427,0.000247133,0.000709219,-7.86887e-05,-0.000500073,0.0100379,0,0,0,0,0,0,0,-0.152882,-10.213,0.80878,21.543,-1.53868,-0.295507,0.038645,-0.153076,-1.06251,0.654139,3.02482,-0.978015,-0.307233,0.0114282
5713853,0,-1.57063,-0.522782,-0.000330069,-2.09664,-1.56946,1.5714,0.785216,-1.5708,-0.523598,-4.37798e-09,-2.0944,-1.5708,1.5708,0.785398,0.00114669,-0.000237861,-0.000392056,0.000472813,0.000354442,-9.60233e-05,0.00554874,0,0,0,0,0,0,0,-0.204456,-10.1892,0.832583,21.543,-1.54967,-0.301915,0.09083,-0.153136,-1.0611,0.654061,3.02377,-0.978004,-0.307223,0.011359
5713854,0,-1.57063,-0.522783,-0.000330069,-2.09664,-1.56946,1.5714,0.78522,-1.5708,-0.523598,-4.37798e-09,-2.0944,-1.5708,1.5708,0.785398,-0.000441968,-0.000715386,-0.000261371,-0.000798415,3.28441e-05,-6.40156e-05,0.0057155,0,0,0,0,0,0,0,-0.152882,-10.1654,0.832583,21.5906,-1.54417,-0.301915,0.0523779,-0.15345,-1.05913,0.653732,3.02233,-0.977987,-0.307233,0.0112674
5713855,0,-1.57063,-0.52278,-0.000330069,-2.09664,-1.56946,1.5714,0.785217,-1.5708,-0.523598,-4.37798e-09,-2.0944,-1.5708,1.5708,0.785398,-0.000294645,0.0006367,-0.000174247,-0.00108909,-0.00988515,-4.2677e-05,0.00330504,0,0,0,0,0,0,0,-0.152882,-10.213,0.832583,21.6144,-1.53319,-0.301915,0.0780126,-0.153397,-1.05761,0.65401,3.02157,-0.977955,-0.307184,0.011203
5713856,0,-1.57063,-0.522782,-0.000330069,-2.09664,-1.56946,1.5714,0.785218,-1.5708,-0.523598,-4.37798e-09,-2.0944,-1.5708,1.5708,0.785398,-0.00019643,-0.000132345,-0.000116165,0.000944377,-0.00717833,0.000208908,0.00277383,0,0,0,0,0,0,0,-0.152882,-10.1892,0.832583,21.543,-1.53868,-0.308324,0.071604,-0.152929,-1.05727,0.654928,3.02146,-0.977856,-0.307101,0.0111942
5713857,0,-1.57063,-0.522782,-0.000330069,-2.09664,-1.56946,1.5714,0.785221,-1.5708,-0.523598,-4.37798e-09,-2.0944,-1.5708,1.5708,0.785398,-0.000780567,-8.82302e-05,-7.74432e-05,0.000629584,-0.00473505,-9.80872e-05,0.00331975,0,0,0,0,0,0,0,-0.125111,-10.1892,0.832583,21.543,-1.55607,-0.301915,0.038645,-0.152262,-1.05637,0.656093,3.02055,-0.977661,-0.306996,0.0112343
5713858,0,-1.57063,-0.52278,-0.000330069,-2.09664,-1.56946,1.5714,0.785218,-1.5708,-0.523598,-4.37798e-09,-2.0944,-1.5708,1.5708,0.785398,-0.000520378,0.000497992,-5.16288e-05,-0.000137089,-0.00424628,0.000409326,0.00117984,0,0,0,0,0,0,0,-0.125111,-10.213,0.832583,21.5668,-1.53868,-0.314733,0.071604,-0.151431,-1.05504,0.657394,3.01912,-0.977447,-0.306859,0.0113044
5713859,0,-1.57063,-0.522782,-0.000330069,-2.09664,-1.56946,1.5714,0.785221,-1.5708,-0.523598,-4.37798e-09,-2.0944,-1.5708,1.5708,0.785398,-0.000346919,-0.000224817,-3.44192e-05,-0.000648205,-0.00316484,0.000272884,0.00187652,0,0,0,0,0,0,0,-0.125111,-10.1892,0.832583,21.5906,-1.53868,-0.314733,0.0459692,-0.150644,-1.05478,0.658554,3.01853,-0.977304,-0.306736,0.0113842
5713860,0,-1.57063,-0.522782,-0.000328399,-2.09664,-1.56946,1.5714,0.785216,-1.5708,-0.523598,-4.37798e-09,-2.0944,-1.5708,1.5708,0.785398,-0.000231279,-0.000149878,-0.0063388,0.0013311,-0.00215694,-5.54361e-05,-6.77396e-05,0,0,0,0,0,0,0,-0.125111,-10.1892,0.80878,21.5152,-1.54417,-0.308324,0.0844213,-0.148329,-1.05456,0.662151,3.01823,-0.977163,-0.306382,0.011458
5713861,0,-1.57063,-0.522783,-0.000330069,-2.09664,-1.56946,1.5714,0.785223,-1.5708,-0.523598,-4.37798e-09,-2.0944,-1.5708,1.5708,0.785398,-0.000154186,-0.000656731,-0.0053554,0.000237787,-0.00162583,0.000200402,0.00220403,0,0,0,0,0,0,0,-0.125111,-10.1654,0.832583,21.543,-1.54417,-0.314733,0.0258276,-0.142164,-1.0529,0.671902,3.01711,-0.976901,-0.305429,0.0115211
5713862,0,-1.57063,-0.522782,-0.000330069,-2.09664,-1.56946,1.5714,0.785217,-1.5708,-0.523598,-4.37798e-09,-2.0944,-1.5708,1.5708,0.785398,0.000546823,0.000118991,-0.00399981,-0.000398287,-0.00102134,-0.000341117,-0.000404142,0,0,0,0,0,0,0,-0.152882,-10.1892,0.832583,21.5668,-1.54967,-0.301915,0.0780126,-0.133696,-1.05075,0.685365,3.01588,-0.976596,-0.304126,0.0115758
5713863,0,-1.57063,-0.522782,-0.000328399,-2.09664,-1.56946,1.5714,0.785222,-1.5708,-0.523598,-4.37798e-09,-2.0944,-1.5708,1.5708,0.785398,-0.000285065,7.93276e-05,-0.00243188,-0.000265525,-0.00139692,0.000247307,0.00147046,0,0,0,0,0,0,0,-0.125111,-10.1892,0.80878,21.5668,-1.53319,-0.314733,0.0322363,-0.126201,-1.04997,0.697304,3.01574,-0.976394,-0.302995,0.0116194
5713864,0,-1.57063,-0.522782,-0.000328399,-2.09664,-1.56946,1.5714,0.78522,-1.5708,-0.523598,-4.37798e-09,-2.0944,-1.5708,1.5708,0.785398,0.000459571,5.28851e-05,-0.00186287,-0.000733829,-0.000807086,-7.24878e-05,0.000267668,0,0,0,0,0,0,0,-0.152882,-10.1892,0.80878,21.5906,-1.53868,-0.308324,0.0523779,-0.121183,-1.05074,0.705241,3.01669,-0.976335,-0.302274,0.0116484
5713865,0,-1.57063,-0.522782,-0.000328399,-2.09664,-1.56946,1.5714,0.785218,-1.5708,-0.523598,-4.37798e-09,-2.0944,-1.5708,1.5708,0.785398,-0.000343234,3.52567e-05,-0.00142313,6.75929e-05,-0.0005975,-0.000285684,-0.00050862,0,0,0,0,0,0,0,-0.125111,-10.1892,0.80878,21.5668,-1.53868,-0.301915,0.071604,-0.118753,-1.05224,0.708932,3.01817,-0.976385,-0.301968,0.0116509
5713866,0,-1.57063,-0.522783,-0.00032645,-2.09664,-1.56946,1.5714,0.785221,-1.5708,-0.523598,-4.37798e-09,-2.0944,-1.5708,1.5708,0.785398,0.000420792,-0.000533307,-0.000435048,0.000601874,-0.000849817,4.69028e-05,0.000629114,0,0,0,0,0,0,0,-0.152882,-10.1654,0.781009,21.543,-1.52769,-0.308324,0.0459692,-0.118586,-1.05303,0.708835,3.01911,-0.97648,-0.302009,0.0116249
5713867,0,-1.57063,-0.522783,-0.000333689,-2.09664,-1.56946,1.5714,0.785215,-1.5708,-0.523598,-4.37798e-09,-2.0944,-1.5708,1.5708,0.785398,0.00083734,-0.000355538,-0.00280482,-0.000155563,-0.00019308,-0.00020609,-0.00146539,0,0,0,0,0,0,0,-0.176685,-10.1654,0.884158,21.5668,-1.53868,-0.301915,0.0972387,-0.119974,-1.05229,0.706177,3.01904,-0.976567,-0.30227,0.0115844
5713868,0,-1.57063,-0.52278,-0.000328399,-2.09664,-1.56946,1.5714,0.785222,-1.5708,-0.523598,-4.37798e-09,-2.0944,-1.5708,1.5708,0.785398,0.000558226,0.000876598,-0.000183089,0.00110272,0.000253103,9.99653e-05,0.00144112,0,0,0,0,0,0,0,-0.176685,-10.213,0.80878,21.5152,-1.54967,-0.308324,0.0322363,-0.122181,-1.05146,0.702328,3.01867,-0.976642,-0.302646,0.0115508
5713869,0,-1.57063,-0.522778,-0.00032645,-2.09664,-1.56946,1.5714,0.785221,-1.5708,-0.523598,-4.37798e-09,-2.0944,-1.5708,1.5708,0.785398,0.00102176,0.00123401,0.000470218,-0.000471281,-0.000460424,0.000304003,0.000460035,0,0,0,0,0,0,0,-0.204456,-10.2408,0.781009,21.5668,-1.53319,-0.314733,0.0459692,-0.125877,-1.05281,0.696339,3.01905,-0.976772,-0.303264,0.0115438
5713870,0,-1.57063,-0.52278,-0.000332018,-2.09664,-1.56946,1.5714,0.785222,-1.5708,-0.523598,-4.37798e-09,-2.0944,-1.5708,1.5708,0.785398,0.000681177,0.000173061,-0.00158556,-0.000314187,8.58455e-05,-0.000509408,0.000821251,0,0,0,0,0,0,0,-0.204456,-10.213,0.860354,21.5668,-1.54417,-0.295507,0.0322363,-0.130825,-1.05651,0.688621,3.02064,-0.976979,-0.304085,0.0115454
5713871,0,-1.57063,-0.522782,-0.000328399,-2.09664,-1.56946,1.5714,0.785218,-1.5708,-0.523598,-4.37798e-09,-2.0944,-1.5708,1.5708,0.785398,0.000454118,-0.000441438,0.000117131,-0.000209458,4.66508e-05,-0.000102247,-0.000668751,0,0,0,0,0,0,0,-0.204456,-10.1892,0.80878,21.5668,-1.54417,-0.301915,0.0651953,-0.135566,-1.05988,0.68138,3.02242,-0.977182,-0.30484,0.0115173
5713872,0,-1.57063,-0.522782,-0.00032645,-2.09664,-1.56946,1.5714,0.785219,-1.5708,-0.523598,-4.37798e-09,-2.0944,-1.5708,1.5708,0.785398,-0.000903681,-0.000294292,0.000703513,0.000417173,-0.000180285,-6.81645e-05,-0.000205136,0,0,0,0,0,0,0,-0.152882,-10.1892,0.781009,21.543,-1.53868,-0.301915,0.0587866,-0.13999,-1.0609,0.674594,3.02315,-0.977336,-0.305485,0.0114466
5713873,0,-1.57063,-0.522782,-0.000330069,-2.09664,-1.56946,1.5714,0.785221,-1.5708,-0.523598,-4.37798e-09,-2.0944,-1.5708,1.5708,0.785398,-4.56419e-05,-0.000196195,-0.000755559,-0.000278697,-0.000126141,0.000429275,0.000340464,0,0,0,0,0,0,0,-0.176685,-10.1892,0.832583,21.5668,-1.53868,-0.314733,0.0459692,-0.143951,-1.06016,0.668394,3.02294,-0.977443,-0.306016,0.0113521
5713874,0,-1.57063,-0.522782,-0.000328399,-2.09664,-1.56946,1.5714,0.785219,-1.5708,-0.523598,-4.37798e-09,-2.0944,-1.5708,1.5708,0.785398,-0.00058724,-0.000130796,3.94994e-05,-0.000185798,-0.000292008,4.88243e-05,-0.000245864,0,0,0,0,0,0,0,-0.152882,-10.1892,0.80878,21.5668,-1.53319,-0.308324,0.0587866,-0.146979,-1.05901,0.663625,3.0226,-0.977513,-0.306386,0.0112512
5713875,0,-1.57063,-0.522783,-0.000328399,-2.09664,-1.56946,1.5714,0.78522,-1.5708,-0.523598,-4.37798e-09,-2.0944,-1.5708,1.5708,0.785398,0.000814933,-0.00064401,1.61282e-05,-0.000680677,5.43132e-06,-0.000204809,7.48583e-05,0,0,0,0,0,0,0,-0.204456,-10.1654,0.80878,21.5906,-1.53868,-0.301915,0.0523779,-0.149587,-1.05784,0.659602,3.02245,-0.977569,-0.306685,0.0111456
5713876,0,-1.57063,-0.52278,-0.000328399,-2.09664,-1.56946,1.5714,0.785218,-1.5708,-0.523598,-4.37798e-09,-2.0944,-1.5708,1.5708,0.785398,-0.000106326,0.000684284,3.0986e-06,0.000659839,0.00064537,-0.00013654,-0.000423756,0,0,0,0,0,0,0,-0.176685,-10.213,0.80878,21.543,-1.55607,-0.301915,0.0651953,-0.152308,-1.05688,0.655573,3.02243,-0.97762,-0.306995,0.0110379
5713877,0,-1.57063,-0.522782,-0.000328399,-2.09664,-1.56946,1.5714,0.785222,-1.5708,-0.523598,-4.37798e-09,-2.0944,-1.5708,1.5708,0.785398,-0.000627696,-0.000100622,-3.67443e-06,0.000439893,-0.000215896,0.000146333,0.000938991,0,0,0,0,0,0,0,-0.152882,-10.1892,0.80878,21.543,-1.53868,-0.308324,0.0322363,-0.154736,-1.05647,0.652076,3.02229,-0.977652,-0.307264,0.0109348
5713878,0,-1.57063,-0.522782,-0.000332018,-2.09664,-1.56946,1.5714,0.785217,-1.5708,-0.523598,-4.37798e-09,-2.0944,-1.5708,1.5708,0.785398,-0.000418464,-6.70817e-05,-0.00121318,0.00149969,-0.000145343,-0.000377163,-0.00106883,0,0,0,0,0,0,0,-0.152882,-10.1892,0.860354,21.4914,-1.53868,-0.295507,0.0780126,-0.156115,-1.05558,0.650142,3.02135,-0.977628,-0.307368,0.0108325
5713879,0,-1.57063,-0.522782,-0.000330069,-2.09664,-1.56946,1.5714,0.785219,-1.5708,-0.523598,-4.37798e-09,-2.0944,-1.5708,1.5708,0.785398,-0.000278976,-4.47211e-05,-0.000162402,-0.000763446,0.000308947,0.000697994,-3.25628e-08,0,0,0,0,0,0,0,-0.152882,-10.1892,0.832583,21.5668,-1.54967,-0.321141,0.0587866,-0.156449,-1.0541,0.649809,3.0199,-0.977561,-0.307308,0.0107285
5713880,0,-1.57064,-0.522782,-0.000328399,-2.09664,-1.56946,1.5714,0.78522,-1.5708,-0.523598,-4.37798e-09,-2.0944,-1.5708,1.5708,0.785398,-0.00139241,-2.98141e-05,0.000446122,-0.00106578,1.71952e-06,-9.38864e-06,0.000237671,0,0,0,0,0,0,0,-0.101307,-10.1892,0.80878,21.5906,-1.54417,-0.308324,0.0523779,-0.1565,-1.0537,0.649885,3.01951,-0.977539,-0.307222,0.0106442
5713881,0,-1.57063,-0.522782,-0.00032645,-2.09664,-1.56946,1.5714,0.785215,-1.5708,-0.523598,-4.37798e-09,-2.0944,-1.5708,1.5708,0.785398,0.000278153,-1.9876e-05,0.000945213,0.000403107,0.000204001,-6.25909e-06,-0.00150281,0,0,0,0,0,0,0,-0.152882,-10.1892,0.781009,21.543,-1.54967,-0.308324,0.0972387,-0.157031,-1.05439,0.649092,3.02021,-0.977594,-0.307242,0.0105876
5713882,0,-1.57063,-0.52278,-0.000328399,-2.09664,-1.56946,1.5714,0.785218,-1.5708,-0.523598,-4.37798e-09,-2.0944,-1.5708,1.5708,0.785398,0.000185435,0.000543561,-2.08344e-05,-0.000844886,-0.000271347,0.000233186,0.000185107,0,0,0,0,0,0,0,-0.152882,-10.213,0.80878,21.5906,-1.53868,-0.314733,0.0651953,-0.158388,-1.05566,0.646996,3.02121,-0.977699,-0.307423,0.0105632
5713883,0,-1.57063,-0.522783,-0.000333689,-2.09664,-1.56946,1.5714,0.785218,-1.5708,-0.523598,-4.37798e-09,-2.0944,-1.5708,1.5708,0.785398,-0.000525991,-0.00075125,-0.00177815,0.00119998,-0.000181233,-8.19015e-05,-0.000113814,0,0,0,0,0,0,0,-0.125111,-10.1654,0.884158,21.5152,-1.53868,-0.308324,0.071604,-0.159356,-1.05673,0.645518,3.02194,-0.97779,-0.30757,0.0105909
5713884,0,-1.57063,-0.522785,-0.00032478,-2.09664,-1.56946,1.5714,0.785221,-1.5708,-0.523598,-4.37798e-09,-2.0944,-1.5708,1.5708,0.785398,0.000298954,-0.00115045,0.00178346,0.000150373,0.000285828,-5.4601e-05,0.000873666,0,0,0,0,0,0,0,-0.152882,-10.1377,0.757205,21.543,-1.54967,-0.308324,0.0459692,-0.159558,-1.0552,0.645101,3.02108,-0.977804,-0.307598,0.0106663
5713885,0,-1.57063,-0.522782,-0.00032645,-2.09664,-1.56946,1.5714,0.785216,-1.5708,-0.523598,-4.37798e-09,-2.0944,-1.5708,1.5708,0.785398,0.000756114,0.000439461,0.00063159,-0.00101338,-1.30873e-05,-0.00027376,-0.00107899,0,0,0,0,0,0,0,-0.176685,-10.1892,0.781009,21.5906,-1.54417,-0.301915,0.09083,-0.160767,-1.05236,0.643057,3.01962,-0.977835,-0.307783,0.0107735
5713886,0,-1.57063,-0.522783,-0.000330069,-2.09664,-1.56946,1.5714,0.785218,-1.5708,-0.523598,-4.37798e-09,-2.0944,-1.5708,1.5708,0.785398,-5.27357e-05,-0.000263838,-0.000785797,-0.000675583,-0.000212317,-0.000182506,0.000230169,0,0,0,0,0,0,0,-0.152882,-10.1654,0.832583,21.5906,-1.53868,-0.301915,0.0651953,-0.162614,-1.05148,0.640088,3.01963,-0.977945,-0.308088,0.010911
5713887,0,-1.57063,-0.522782,-0.000328399,-2.09664,-1.56946,1.5714,0.785214,-1.5708,-0.523598,-4.37798e-09,-2.0944,-1.5708,1.5708,0.785398,-0.000684771,0.00038092,3.26241e-05,0.000106423,6.18e-05,0.000115688,-0.00127066,0,0,0,0,0,0,0,-0.125111,-10.1892,0.80878,21.5668,-1.54417,-0.308324,0.103647,-0.163409,-1.05224,0.638713,3.02065,-0.97806,-0.308249,0.011084
5713888,0,-1.57063,-0.522782,-0.000332018,-2.09664,-1.56946,1.5714,0.785217,-1.5708,-0.523598,-4.37798e-09,-2.0944,-1.5708,1.5708,0.785398,0.0001931,0.000253947,-0.00118492,7.09486e-05,4.11205e-05,7.71253e-05,0.000102361,0,0,0,0,0,0,0,-0.152882,-10.1892,0.860354,21.5668,-1.54417,-0.308324,0.0780126,-0.163023,-1.05357,0.639065,3.02172,-0.978134,-0.308236,0.0113019
5713889,0,-1.57063,-0.522782,-0.000328399,-2.09664,-1.56946,1.5714,0.785222,-1.5708,-0.523598,-4.37798e-09,-2.0944,-1.5708,1.5708,0.785398,0.000685545,0.000169298,0.000416298,4.72991e-05,2.7354e-05,0.000288776,0.00176369,0,0,0,0,0,0,0,-0.176685,-10.1892,0.80878,21.5668,-1.54417,-0.314733,0.0322363,-0.162359,-1.05513,0.639906,3.02265,-0.978189,-0.308188,0.0115762
5713890,0,-1.57063,-0.522783,-0.000328399,-2.09664,-1.56946,1.5714,0.785216,-1.5708,-0.523598,-4.37798e-09,-2.0944,-1.5708,1.5708,0.785398,-9.97818e-05,-0.000443947,0.000277396,3.15327e-05,0.000221642,-4.48417e-05,-0.000994329,0,0,0,0,0,0,0,-0.152882,-10.1654,0.80878,21.5668,-1.54967,-0.308324,0.09083,-0.162323,-1.05607,0.63986,3.02318,-0.978247,-0.308233,0.0118837
5713891,0,-1.57063,-0.522787,-0.000328399,-2.09664,-1.56946,1.5714,0.785222,-1.5708,-0.523598,-4.37798e-09,-2.0944,-1.5708,1.5708,0.785398,-6.65212e-05,-0.00150239,0.000184828,0.000577834,0.000147728,0.000207464,0.00150727,0,0,0,0,0,0,0,-0.152882,-10.1139,0.80878,21.543,-1.54967,-0.314733,0.0322363,-0.162706,-1.05463,0.639082,3.02254,-0.978281,-0.308319,0.0121822
5713892,0,-1.57063,-0.522783,-0.000332018,-2.09664,-1.56946,1.5714,0.785219,-1.5708,-0.523598,-4.37798e-09,-2.0944,-1.5708,1.5708,0.785398,-0.000693961,0.000204832,-0.00108328,-0.000728401,-0.000104991,0.00013831,2.1511e-05,0,0,0,0,0,0,0,-0.125111,-10.1654,0.860354,21.5906,-1.54417,-0.314733,0.0587866,-0.162524,-1.05123,0.63905,3.02105,-0.978279,-0.308307,0.0124573
5713893,0,-1.57063,-0.522782,-0.000330069,-2.09664,-1.56946,1.5714,0.78522,-1.5708,-0.523598,-4.37798e-09,-2.0944,-1.5708,1.5708,0.785398,0.0013934,0.000693367,-7.26328e-05,0.000628023,-0.000273463,-0.000145153,0.000251708,0,0,0,0,0,0,0,-0.204456,-10.1892,0.832583,21.543,-1.53868,-0.308324,0.0523779,-0.161793,-1.04929,0.639968,3.02037,-0.978298,-0.308242,0.0126973
5713894,0,-1.57063,-0.522778,-0.00032645,-2.09664,-1.56946,1.5714,0.785219,-1.5708,-0.523598,-4.37798e-09,-2.0944,-1.5708,1.5708,0.785398,-0.000927107,0.00166867,0.00115796,-0.00013813,0.000461937,-0.000334127,-6.95479e-05,0,0,0,0,0,0,0,-0.125111,-10.2408,0.781009,21.5668,-1.55607,-0.301915,0.0587866,-0.161647,-1.0508,0.640196,3.02115,-0.978389,-0.308317,0.0128927
5713895,0,-1.57063,-0.52278,-0.000330069,-2.09664,-1.56946,1.5714,0.785221,-1.5708,-0.523598,-4.37798e-09,-2.0944,-1.5708,1.5708,0.785398,-0.000618071,0.000462833,-0.000434484,-9.20866e-05,-0.000336313,-0.00046011,0.000428357,0,0,0,0,0,0,0,-0.125111,-10.213,0.832583,21.5668,-1.53868,-0.295507,0.0459692,-0.161843,-1.05503,0.639869,3.02311,-0.978539,-0.308477,0.0130462
5713896,0,-1.57064,-0.522783,-0.000330069,-2.09664,-1.56946,1.5714,0.785221,-1.5708,-0.523598,-4.37798e-09,-2.0944,-1.5708,1.5708,0.785398,-0.00096886,-0.000805069,-0.00028968,-6.13911e-05,-2.07658e-05,0.000405337,0.000285575,0,0,0,0,0,0,0,-0.101307,-10.1654,0.832583,21.5668,-1.54417,-0.314733,0.0459692,-0.16119,-1.05866,0.640627,3.02493,-0.978669,-0.308493,0.0131521
5713897,0,-1.57063,-0.52278,-0.000330069,-2.09664,-1.56946,1.5714,0.785218,-1.5708,-0.523598,-4.37798e-09,-2.0944,-1.5708,1.5708,0.785398,0.00111733,0.000576912,-0.000193139,0.000515885,0.000189601,-0.000204494,-0.00075905,0,0,0,0,0,0,0,-0.176685,-10.213,0.832583,21.543,-1.54967,-0.301915,0.071604,-0.160097,-1.05977,0.641963,3.02558,-0.978742,-0.308405,0.0131995
5713898,0,-1.57063,-0.52278,-0.00032645,-2.09664,-1.56946,1.5714,0.785223,-1.5708,-0.523598,-4.37798e-09,-2.0944,-1.5708,1.5708,0.785398,-0.000461538,0.000384608,0.00107765,-0.000212889,0.000126396,0.00010103,0.00118939,0,0,0,0,0,0,0,-0.125111,-10.213,0.781009,21.5668,-1.54967,-0.308324,0.0258276,-0.15976,-1.06027,0.642204,3.02581,-0.978819,-0.308418,0.0131997
5713899,0,-1.57063,-0.522783,-0.000328399,-2.09664,-1.56946,1.5714,0.785216,-1.5708,-0.523598,-4.37798e-09,-2.0944,-1.5708,1.5708,0.785398,0.000341922,-0.000857219,6.88113e-05,0.000414886,-0.00032264,-0.000170006,-0.00137721,0,0,0,0,0,0,0,-0.152882,-10.1654,0.80878,21.543,-1.53868,-0.301915,0.0844213,-0.160216,-1.0603,0.641194,3.02577,-0.978916,-0.308541,0.0131637
5713900,0,-1.57063,-0.522782,-0.000328399,-2.09664,-1.56946,1.5714,0.785218,-1.5708,-0.523598,-4.37798e-09,-2.0944,-1.5708,1.5708,0.785398,0.000227948,-1.46672e-05,4.58665e-05,-0.00139385,-1.16456e-05,0.00059874,-0.000206063,0,0,0,0,0,0,0,-0.152882,-10.1892,0.80878,21.6144,-1.54417,-0.321141,0.0651953,-0.160807,-1.05911,0.63991,3.02542,-0.979009,-0.308662,0.0130968
5713901,0,-1.57063,-0.522782,-0.000328399,-2.09664,-1.56946,1.5714,0.785216,-1.5708,-0.523598,-4.37798e-09,-2.0944,-1.5708,1.5708,0.785398,0.000151965,-9.77816e-06,3.05719e-05,-0.00092923,-7.76563e-06,-7.55581e-05,-0.000849451,0,0,0,0,0,0,0,-0.152882,-10.1892,0.80878,21.6144,-1.54417,-0.308324,0.0844213,-0.161253,-1.05849,0.638888,3.02593,-0.979125,-0.30876,0.0130316
5713902,0,-1.57063,-0.522783,-0.00032645,-2.09664,-1.56946,1.5714,0.785221,-1.5708,-0.523598,-4.37798e-09,-2.0944,-1.5708,1.5708,0.785398,0.00010131,-0.000563331,0.000669991,0.00105095,-0.000208629,-0.000287731,0.000857853,0,0,0,0,0,0,0,-0.152882,-10.1654,0.781009,21.543,-1.53868,-0.301915,0.0459692,-0.161639,-1.05806,0.637936,3.02666,-0.97924,-0.308856,0.0129958
5713903,0,-1.57063,-0.52278,-0.000328399,-2.09664,-1.56946,1.5714,0.785216,-1.5708,-0.523598,-4.37798e-09,-2.0944,-1.5708,1.5708,0.785398,6.75401e-05,0.00073807,-0.000202957,0.000700633,-0.000139087,-0.000191821,-0.000852251,0,0,0,0,0,0,0,-0.152882,-10.213,0.80878,21.543,-1.53868,-0.301915,0.0844213,-0.16197,-1.05658,0.636989,3.02621,-0.979295,-0.308936,0.0129902
5713904,0,-1.57063,-0.522782,-0.000330069,-2.09664,-1.56946,1.5714,0.785218,-1.5708,-0.523598,-4.37798e-09,-2.0944,-1.5708,1.5708,0.785398,-0.000604587,-6.47652e-05,-0.000692119,0.0011167,0.000314176,-0.00012788,0.00014391,0,0,0,0,0,0,0,-0.125111,-10.1892,0.832583,21.5152,-1.54967,-0.301915,0.0651953,-0.161621,-1.05499,0.637023,3.02497,-0.979281,-0.308911,0.013011
5713905,0,-1.57063,-0.522783,-0.000328399,-2.09664,-1.56946,1.5714,0.785218,-1.5708,-0.523598,-4.37798e-09,-2.0944,-1.5708,1.5708,0.785398,0.000246556,-0.000599989,9.53976e-05,9.48543e-05,-0.000197451,-8.52536e-05,9.59402e-05,0,0,0,0,0,0,0,-0.152882,-10.1654,0.80878,21.543,-1.53868,-0.301915,0.0651953,-0.160484,-1.05302,0.638208,3.02327,-0.979216,-0.30875,0.0130611
5713906,0,-1.57063,-0.522782,-0.000328399,-2.09664,-1.56946,1.5714,0.785216,-1.5708,-0.523598,-4.37798e-09,-2.0944,-1.5708,1.5708,0.785398,-0.000485243,0.000156819,6.3597e-05,-0.000493576,7.18159e-05,0.000417882,-0.000648117,0,0,0,0,0,0,0,-0.125111,-10.1892,0.80878,21.5668,-1.54417,-0.314733,0.0844213,-0.159332,-1.05087,0.639386,3.02178,-0.979156,-0.30857,0.0131423
5713907,0,-1.57063,-0.52278,-0.00032645,-2.09664,-1.56946,1.5714,0.78522,-1.5708,-0.523598,-4.37798e-09,-2.0944,-1.5708,1.5708,0.785398,0.000326118,0.000661358,0.000692011,0.000227761,-0.000359024,-0.00019613,0.000754717,0,0,0,0,0,0,0,-0.152882,-10.213,0.781009,21.543,-1.53319,-0.301915,0.0523779,-0.158676,-1.05034,0.639816,3.02143,-0.979152,-0.308477,0.0132577
5713908,0,-1.57063,-0.522782,-0.000330069,-2.09664,-1.56946,1.5714,0.785216,-1.5708,-0.523598,-4.37798e-09,-2.0944,-1.5708,1.5708,0.785398,0.000774224,-0.000115906,-0.000745086,0.000151841,0.000167551,0.000106606,-0.000921009,0,0,0,0,0,0,0,-0.176685,-10.1892,0.832583,21.543,-1.54417,-0.308324,0.09083,-0.15855,-1.05125,0.639532,3.0218,-0.979179,-0.30848,0.0134036
5713909,0,-1.57063,-0.52278,-0.000328399,-2.09664,-1.56946,1.5714,0.785223,-1.5708,-0.523598,-4.37798e-09,-2.0944,-1.5708,1.5708,0.785398,-0.000690276,0.000479541,6.00874e-05,0.000750841,-9.17498e-05,-0.000166288,0.00179349,0,0,0,0,0,0,0,-0.125111,-10.213,0.80878,21.5152,-1.53868,-0.301915,0.0258276,-0.158351,-1.0522,0.639449,3.02199,-0.979185,-0.308467,0.013569
5713910,0,-1.57064,-0.52278,-0.00032645,-2.09664,-1.56946,1.5714,0.785218,-1.5708,-0.523598,-4.37798e-09,-2.0944,-1.5708,1.5708,0.785398,-0.001017,0.000319694,0.000689672,-0.000149053,0.000142284,0.0001265,-0.00049976,0,0,0,0,0,0,0,-0.101307,-10.213,0.781009,21.543,-1.54417,-0.308324,0.071604,-0.157714,-1.05321,0.639904,3.02203,-0.979168,-0.308388,0.0137415
5713911,0,-1.57063,-0.522778,-0.000328399,-2.09664,-1.56946,1.5714,0.785222,-1.5708,-0.523598,-4.37798e-09,-2.0944,-1.5708,1.5708,0.785398,0.000528428,0.000862743,-0.000189833,-0.000656181,-0.000108595,-0.000153026,0.00112489,0,0,0,0,0,0,0,-0.152882,-10.2408,0.80878,21.5668,-1.53868,-0.301915,0.0322363,-0.157055,-1.05536,0.640253,3.02277,-0.979175,-0.308319,0.0138984
5713912,0,-1.57063,-0.522782,-0.000330069,-2.09664,-1.56946,1.5714,0.78522,-1.5708,-0.523598,-4.37798e-09,-2.0944,-1.5708,1.5708,0.785398,0.000352286,-0.000631264,-0.000683368,-0.000437454,0.000131054,0.000135342,3.94083e-06,0,0,0,0,0,0,0,-0.152882,-10.1892,0.832583,21.5668,-1.54417,-0.308324,0.0523779,-0.156503,-1.0582,0.640515,3.0242,-0.97921,-0.308268,0.0140189
5713913,0,-1.57063,-0.52278,-0.000328399,-2.09664,-1.56946,1.5714,0.785219,-1.5708,-0.523598,-4.37798e-09,-2.0944,-1.5708,1.5708,0.785398,-0.000414757,0.000135969,0.000101233,0.00091479,8.73692e-05,-0.000147131,-0.000234732,0,0,0,0,0,0,0,-0.125111,-10.213,0.80878,21.5152,-1.54417,-0.301915,0.0587866,-0.155795,-1.05959,0.641062,3.02496,-0.979211,-0.308172,0.0140822
5713914,0,-1.57063,-0.522782,-0.000332018,-2.09664,-1.56946,1.5714,0.785219,-1.5708,-0.523598,-4.37798e-09,-2.0944,-1.5708,1.5708,0.785398,-0.000276505,-0.000466166,-0.00113894,-3.97539e-05,-0.000145204,0.000139272,-0.000156488,0,0,0,0,0,0,0,-0.125111,-10.1892,0.860354,21.543,-1.53868,-0.308324,0.0587866,-0.154618,-1.05904,0.642244,3.02444,-0.979149,-0.307984,0.0140866
5713915,0,-1.57063,-0.522782,-0.000332018,-2.09664,-1.56946,1.5714,0.785218,-1.5708,-0.523598,-4.37798e-09,-2.0944,-1.5708,1.5708,0.785398,0.00102209,-0.000310777,-0.000759292,0.000623111,-9.6803e-05,-0.000144511,-0.000341684,0,0,0,0,0,0,0,-0.176685,-10.1892,0.860354,21.5152,-1.53868,-0.301915,0.0651953,-0.153042,-1.05725,0.64409,3.02309,-0.979042,-0.307722,0.0140515
5713916,0,-1.57063,-0.522782,-0.000330069,-2.09664,-1.56946,1.5714,0.785225,-1.5708,-0.523598,-4.37798e-09,-2.0944,-1.5708,1.5708,0.785398,0.000124581,-0.000207185,0.00014342,-0.000234206,0.000138915,-9.63408e-05,0.00194235,0,0,0,0,0,0,0,-0.152882,-10.1892,0.832583,21.543,-1.54417,-0.301915,0.00660151,-0.151864,-1.05493,0.645533,3.02143,-0.978933,-0.307509,0.0139955
5713917,0,-1.57063,-0.52278,-0.000332018,-2.09664,-1.56946,1.5714,0.785217,-1.5708,-0.523598,-4.37798e-09,-2.0944,-1.5708,1.5708,0.785398,-0.00056656,0.000418689,-0.000554001,-0.000156138,9.26101e-05,-6.42272e-05,-0.00134996,0,0,0,0,0,0,0,-0.125111,-10.213,0.860354,21.543,-1.54417,-0.301915,0.0780126,-0.151155,-1.05353,0.646386,3.02032,-0.978862,-0.307369,0.0139152
5713918,0,-1.57063,-0.52278,-0.000330069,-2.09664,-1.56946,1.5714,0.785222,-1.5708,-0.523598,-4.37798e-09,-2.0944,-1.5708,1.5708,0.785398,0.000828719,0.000279126,0.00028028,-0.000104092,6.17401e-05,0.000194541,0.00079545,0,0,0,0,0,0,0,-0.176685,-10.213,0.832583,21.543,-1.54417,-0.308324,0.0322363,-0.150679,-1.05387,0.646988,3.02015,-0.978836,-0.307277,0.0137957
5713919,0,-1.57063,-0.522784,-0.000330069,-2.09664,-1.56946,1.5714,0.785216,-1.5708,-0.523598,-4.37798e-09,-2.0944,-1.5708,1.5708,0.785398,-4.33243e-06,-0.000370728,0.000186853,0.000580219,-0.00016229,0.000129694,-0.00140248,0,0,0,0,0,0,0,-0.152882,-10.1892,0.832583,21.5152,-1.53868,-0.308324,0.0844213,-0.150896,-1.05468,0.646687,3.02012,-0.978837,-0.307289,0.0136415
5713920,0,-1.57063,-0.522781,-0.00032645,-2.09664,-1.56946,1.5714,0.785218,-1.5708,-0.523598,-4.37798e-09,-2.0944,-1.5708,1.5708,0.785398,-0.000652502,0.00030966,-0.00539132,-0.000262801,9.52568e-05,0.000323822,-0.000460269,0,0,0,0,0,0,0,-0.125111,-10.213,0.781009,21.543,-1.54417,-0.314733,0.071604,-0.149906,-1.05496,0.648419,3.0197,-0.978785,-0.30711,0.0134716
5713921,0,-1.57063,-0.52278,-0.000332018,-2.09664,-1.56946,1.5714,0.785221,-1.5708,-0.523598,-4.37798e-09,-2.0944,-1.5708,1.5708,0.785398,-0.000435001,0.00020644,-0.00601045,-0.00128882,6.35046e-05,-0.000258837,0.00064259,0,0,0,0,0,0,0,-0.125111,-10.213,0.860354,21.5906,-1.54417,-0.301915,0.0459692,-0.144595,-1.05608,0.65706,3.02,-0.978628,-0.30628,0.013323
5713922,0,-1.57063,-0.522785,-0.000328399,-2.09664,-1.56946,1.5714,0.78522,-1.5708,-0.523598,-4.37798e-09,-2.0944,-1.5708,1.5708,0.785398,0.000359613,-0.00162561,-0.00322068,0.000254408,4.23364e-05,-0.000172558,0.000191034,0,0,0,0,0,0,0,-0.152882,-10.1377,0.80878,21.543,-1.54417,-0.301915,0.0523779,-0.136247,-1.05701,0.670544,3.02069,-0.978398,-0.304985,0.0132088
5713923,0,-1.57063,-0.52278,-0.000328399,-2.09664,-1.56946,1.5714,0.785221,-1.5708,-0.523598,-4.37798e-09,-2.0944,-1.5708,1.5708,0.785398,0.00144617,0.000679497,-0.00246223,-0.000387207,2.82242e-05,0.00012232,0.000635982,0,0,0,0,0,0,0,-0.204456,-10.213,0.80878,21.5668,-1.54417,-0.308324,0.038645,-0.129049,-1.05625,0.682301,3.02059,-0.978178,-0.303848,0.0131055
5713924,0,-1.57063,-0.522782,-0.000328399,-2.09664,-1.56946,1.5714,0.785216,-1.5708,-0.523598,-4.37798e-09,-2.0944,-1.5708,1.5708,0.785398,-0.000242314,-0.000103814,-0.00187782,-0.00081495,1.88162e-05,-0.000155812,-0.00127143,0,0,0,0,0,0,0,-0.152882,-10.1892,0.80878,21.5906,-1.54417,-0.301915,0.0844213,-0.124743,-1.05615,0.689637,3.02075,-0.978058,-0.30316,0.0129992
5713925,0,-1.57063,-0.522782,-0.000333689,-2.09664,-1.56946,1.5714,0.785219,-1.5708,-0.523598,-4.37798e-09,-2.0944,-1.5708,1.5708,0.785398,-0.000161543,-6.92093e-05,-0.00319237,0.000570324,-0.000190906,-0.000103875,0.000101814,0,0,0,0,0,0,0,-0.152882,-10.1892,0.884158,21.543,-1.53868,-0.301915,0.0587866,-0.122094,-1.057,0.694284,3.02134,-0.978007,-0.302731,0.0128924
5713926,0,-1.57063,-0.522782,-0.00032645,-2.09664,-1.56946,1.5714,0.785217,-1.5708,-0.523598,-4.37798e-09,-2.0944,-1.5708,1.5708,0.785398,0.000449117,-4.61395e-05,0.000151671,-0.000176596,-0.000127271,0.000405468,-0.000644201,0,0,0,0,0,0,0,-0.176685,-10.1892,0.781009,21.5668,-1.53868,-0.314733,0.0780126,-0.120768,-1.05726,0.696708,3.02137,-0.977975,-0.302496,0.0128013
5713927,0,-1.57063,-0.522782,-0.000330069,-2.09664,-1.56946,1.5714,0.785221,-1.5708,-0.523598,-4.37798e-09,-2.0944,-1.5708,1.5708,0.785398,-0.000907015,-3.07597e-05,-0.00120501,0.000439081,0.000322054,3.29531e-05,0.000757327,0,0,0,0,0,0,0,-0.125111,-10.1892,0.832583,21.543,-1.54967,-0.308324,0.0459692,-0.121459,-1.05709,0.695856,3.02095,-0.977984,-0.302568,0.0127417
5713928,0,-1.57063,-0.522782,-0.000332018,-2.09664,-1.56946,1.5714,0.785224,-1.5708,-0.523598,-4.37798e-09,-2.0944,-1.5708,1.5708,0.785398,4.49375e-05,-2.05065e-05,-0.00152773,0.000292721,-0.000192199,2.19687e-05,0.00172559,0,0,0,0,0,0,0,-0.152882,-10.1892,0.860354,21.543,-1.53868,-0.308324,0.0130102,-0.123087,-1.0566,0.693377,3.02021,-0.978011,-0.302791,0.0127116
5713929,0,-1.57063,-0.52278,-0.000330069,-2.09664,-1.56946,1.5714,0.785218,-1.5708,-0.523598,-4.37798e-09,-2.0944,-1.5708,1.5708,0.785398,-0.000619656,0.000543141,-0.000424958,0.000195147,0.000516128,0.000252005,-0.00101975,0,0,0,0,0,0,0,-0.125111,-10.213,0.832583,21.543,-1.55607,-0.314733,0.071604,-0.124876,-1.05635,0.690568,3.01945,-0.978047,-0.303055,0.0126772
5713930,0,-1.57063,-0.522782,-0.000328399,-2.09664,-1.56946,1.5714,0.785222,-1.5708,-0.523598,-4.37798e-09,-2.0944,-1.5708,1.5708,0.785398,-0.000413104,-0.000194718,0.000231445,-0.000983526,0.000344085,-0.000544074,0.000778231,0,0,0,0,0,0,0,-0.125111,-10.1892,0.80878,21.5906,-1.55607,-0.295507,0.0322363,-0.127316,-1.05705,0.686675,3.01936,-0.97814,-0.303442,0.0126074
5713931,0,-1.57063,-0.522782,-0.000328399,-2.09664,-1.56946,1.5714,0.785213,-1.5708,-0.523598,-4.37798e-09,-2.0944,-1.5708,1.5708,0.785398,0.000374211,-0.000129812,0.00012275,-9.88719e-05,-0.000211419,0.000112002,-0.0023634,0,0,0,0,0,0,0,-0.152882,-10.1892,0.80878,21.5668,-1.54417,-0.308324,0.110056,-0.130678,-1.05809,0.681276,3.01989,-0.978307,-0.303979,0.0125051
5713932,0,-1.57063,-0.522782,-0.000328399,-2.09664,-1.56946,1.5714,0.785219,-1.5708,-0.523598,-4.37798e-09,-2.0944,-1.5708,1.5708,0.785398,-0.00040014,-8.65413e-05,5.81736e-05,-6.59146e-05,-0.000344397,7.46681e-05,0.000323275,0,0,0,0,0,0,0,-0.125111,-10.1892,0.80878,21.5668,-1.53868,-0.308324,0.0587866,-0.134638,-1.05864,0.674917,3.02034,-0.978508,-0.304607,0.0123955
5713933,0,-1.57063,-0.52278,-0.00032645,-2.09664,-1.56946,1.5714,0.785221,-1.5708,-0.523598,-4.37798e-09,-2.0944,-1.5708,1.5708,0.785398,-0.00026676,0.000499118,0.000670652,-4.39431e-05,-0.000229598,4.97787e-05,0.000690234,0,0,0,0,0,0,0,-0.125111,-10.213,0.781009,21.5668,-1.53868,-0.308324,0.0459692,-0.138632,-1.05908,0.668413,3.02064,-0.978714,-0.305251,0.0123208
5713934,0,-1.57064,-0.522783,-0.000332018,-2.09664,-1.56946,1.5714,0.78522,-1.5708,-0.523598,-4.37798e-09,-2.0944,-1.5708,1.5708,0.785398,-0.000734652,-0.000780879,-0.00142225,-2.92954e-05,-0.000356516,3.31858e-05,0.000222797,0,0,0,0,0,0,0,-0.101307,-10.1654,0.860354,21.5668,-1.53319,-0.308324,0.0523779,-0.14186,-1.05935,0.662934,3.0208,-0.978889,-0.305789,0.0122849
5713935,0,-1.57063,-0.52278,-0.000328399,-2.09664,-1.56946,1.5714,0.785221,-1.5708,-0.523598,-4.37798e-09,-2.0944,-1.5708,1.5708,0.785398,0.000716658,0.000593038,0.000248279,-1.95302e-05,-0.000441128,2.21239e-05,0.00038589,0,0,0,0,0,0,0,-0.152882,-10.213,0.80878,21.5668,-1.52769,-0.308324,0.0459692,-0.144004,-1.05905,0.659053,3.02068,-0.979004,-0.306168,0.0122578
5713936,0,-1.57063,-0.522782,-0.000332018,-2.09664,-1.56946,1.5714,0.785216,-1.5708,-0.523598,-4.37798e-09,-2.0944,-1.5708,1.5708,0.785398,0.000477772,-0.000161453,-0.00104839,-1.30202e-05,-9.06346e-05,1.47493e-05,-0.00140425,0,0,0,0,0,0,0,-0.152882,-10.1892,0.860354,21.5668,-1.53319,-0.308324,0.09083,-0.145852,-1.05899,0.655741,3.02066,-0.97908,-0.306513,0.0122225
5713937,0,-1.57063,-0.522782,-0.000332018,-2.09664,-1.56946,1.5714,0.785221,-1.5708,-0.523598,-4.37798e-09,-2.0944,-1.5708,1.5708,0.785398,0.000875327,-0.000107635,-0.000704543,-8.68011e-06,0.000346478,0.000247192,0.000725344,0,0,0,0,0,0,0,-0.176685,-10.1892,0.860354,21.5668,-1.54417,-0.314733,0.0459692,-0.147558,-1.05905,0.652857,3.0207,-0.979112,-0.306839,0.0121842
5713938,0,-1.57063,-0.52278,-0.000330069,-2.09664,-1.56946,1.5714,0.785216,-1.5708,-0.523598,-4.37798e-09,-2.0944,-1.5708,1.5708,0.785398,0.00123317,0.000485055,0.000175708,0.00120064,2.75348e-05,-0.000309923,-0.000940591,0,0,0,0,0,0,0,-0.204456,-10.213,0.832583,21.5152,-1.53868,-0.301915,0.0844213,-0.149363,-1.05875,0.650072,3.02038,-0.979097,-0.307174,0.0121598
5713939,0,-1.57063,-0.522783,-0.000330069,-2.09664,-1.56946,1.5714,0.785221,-1.5708,-0.523598,-4.37798e-09,-2.0944,-1.5708,1.5708,0.785398,-0.00103393,-0.000790254,0.00011398,-0.000406,1.83565e-05,-0.000206616,0.000797093,0,0,0,0,0,0,0,-0.125111,-10.1654,0.832583,21.5668,-1.53868,-0.301915,0.0459692,-0.151418,-1.05796,0.647029,3.01956,-0.979054,-0.307535,0.0121575
5713940,0,-1.57063,-0.522782,-0.000330069,-2.09664,-1.56946,1.5714,0.785221,-1.5708,-0.523598,-4.37798e-09,-2.0944,-1.5708,1.5708,0.785398,-3.96726e-05,2.9976e-05,7.36182e-05,0.000935759,0.000419139,0.000336974,0.000531395,0,0,0,0,0,0,0,-0.152882,-10.1892,0.832583,21.5152,-1.54967,-0.314733,0.0459692,-0.152975,-1.05627,0.644656,3.01836,-0.97898,-0.307798,0.0121773
5713941,0,-1.57063,-0.52278,-0.000328399,-2.09664,-1.56946,1.5714,0.785217,-1.5708,-0.523598,-4.37798e-09,-2.0944,-1.5708,1.5708,0.785398,0.00117998,0.000576796,0.00750051,-0.0011394,7.59753e-05,-1.27095e-05,-0.000832531,0,0,0,0,0,0,0,-0.204456,-10.213,0.80878,21.5906,-1.54417,-0.308324,0.0780126,-0.156429,-1.05521,0.639269,3.01761,-0.978988,-0.30835,0.0122053
5713942,0,-1.57063,-0.522778,-0.000332018,-2.09664,-1.56946,1.5714,0.78522,-1.5708,-0.523598,-4.37798e-09,-2.0944,-1.5708,1.5708,0.785398,-0.000419774,0.00103414,0.00436728,-0.000202787,0.000254101,-0.000483191,0.000394415,0,0,0,0,0,0,0,-0.152882,-10.2408,0.860354,21.5668,-1.54967,-0.295507,0.0523779,-0.164361,-1.05695,0.626905,3.01848,-0.979208,-0.309611,0.0122365
5713943,0,-1.57063,-0.522782,-0.000328399,-2.09664,-1.56946,1.5714,0.785216,-1.5708,-0.523598,-4.37798e-09,-2.0944,-1.5708,1.5708,0.785398,-0.000279849,-0.000516996,0.00454797,-0.000135191,-3.405e-05,-8.47683e-05,-0.000923851,0,0,0,0,0,0,0,-0.152882,-10.1892,0.80878,21.5668,-1.54417,-0.301915,0.0844213,-0.174126,-1.06006,0.611603,3.02021,-0.979539,-0.311152,0.0122765
5713944,0,-1.57063,-0.522783,-0.00032645,-2.09664,-1.56946,1.5714,0.78522,-1.5708,-0.523598,-4.37798e-09,-2.0944,-1.5708,1.5708,0.785398,-0.000186566,-0.000901476,0.00400411,0.000466684,-0.000226151,0.000180847,0.000570894,0,0,0,0,0,0,0,-0.152882,-10.1654,0.781009,21.543,-1.53868,-0.308324,0.0523779,-0.18295,-1.06093,0.597685,3.02077,-0.979816,-0.312504,0.0123234
5713945,0,-1.57063,-0.522785,-0.00032645,-2.09664,-1.56946,1.5714,0.785217,-1.5708,-0.523598,-4.37798e-09,-2.0944,-1.5708,1.5708,0.785398,-0.000124378,-0.0012506,0.0029113,-0.000245689,5.26835e-05,0.000120564,-0.00056884,0,0,0,0,0,0,0,-0.152882,-10.1377,0.781009,21.5668,-1.54417,-0.308324,0.0780126,-0.190093,-1.05834,0.58636,3.01963,-0.97999,-0.313543,0.0123799
5713946,0,-1.57063,-0.522782,-0.000330069,-2.09664,-1.56946,1.5714,0.785222,-1.5708,-0.523598,-4.37798e-09,-2.0944,-1.5708,1.5708,0.785398,-0.000732532,0.000372694,0.000915857,-0.000163793,-0.000371779,8.03763e-05,0.00131619,0,0,0,0,0,0,0,-0.125111,-10.1892,0.832583,21.5668,-1.53319,-0.308324,0.0322363,-0.194344,-1.05464,0.579574,3.01807,-0.980064,-0.314119,0.0124523
5713947,0,-1.57063,-0.522785,-0.000330069,-2.09664,-1.56946,1.5714,0.785217,-1.5708,-0.523598,-4.37798e-09,-2.0944,-1.5708,1.5708,0.785398,0.000161259,-0.000957963,0.000746634,-0.000109195,-4.4402e-05,-0.000421134,-0.000817958,0,0,0,0,0,0,0,-0.152882,-10.1377,0.832583,21.5668,-1.53868,-0.295507,0.0780126,-0.195099,-1.05187,0.578326,3.01711,-0.980047,-0.314168,0.0125338
5713948,0,-1.57063,-0.52278,-0.000328399,-2.09664,-1.56946,1.5714,0.785216,-1.5708,-0.523598,-4.37798e-09,-2.0944,-1.5708,1.5708,0.785398,0.000664318,0.0011246,0.00115662,0.00113363,0.0003773,0.00066868,-0.00102002,0,0,0,0,0,0,0,-0.176685,-10.213,0.80878,21.5152,-1.54967,-0.321141,0.09083,-0.193649,-1.05014,0.580717,3.01644,-0.979956,-0.313889,0.0126075
5713949,0,-1.57063,-0.522778,-0.00032645,-2.09664,-1.56946,1.5714,0.785221,-1.5708,-0.523598,-4.37798e-09,-2.0944,-1.5708,1.5708,0.785398,-0.000113933,0.00139934,0.00149723,-0.00100749,4.80826e-05,-2.89312e-05,0.00125276,0,0,0,0,0,0,0,-0.152882,-10.2408,0.781009,21.5906,-1.54417,-0.308324,0.038645,-0.191628,-1.05132,0.584261,3.01687,-0.979873,-0.313562,0.0126938
5713950,0,-1.57063,-0.522782,-0.000328399,-2.09664,-1.56946,1.5714,0.785216,-1.5708,-0.523598,-4.37798e-09,-2.0944,-1.5708,1.5708,0.785398,-0.000725569,-0.00027353,0.000405938,-0.000114845,-0.000578296,0.000218071,-0.000860245,0,0,0,0,0,0,0,-0.125111,-10.1892,0.80878,21.5668,-1.52769,-0.314733,0.0844213,-0.189028,-1.05541,0.588761,3.01886,-0.979832,-0.31319,0.0128122
5713951,0,-1.57063,-0.522783,-0.000328399,-2.09664,-1.56946,1.5714,0.785223,-1.5708,-0.523598,-4.37798e-09,-2.0944,-1.5708,1.5708,0.785398,0.000165901,-0.000739165,0.000313677,-7.65632e-05,0.000224821,0.000145381,0.001834,0,0,0,0,0,0,0,-0.152882,-10.1654,0.80878,21.5668,-1.54417,-0.314733,0.0194189,-0.185383,-1.05827,0.594718,3.02056,-0.979753,-0.31266,0.0129399
5713952,0,-1.57063,-0.522782,-0.000328399,-2.09664,-1.56946,1.5714,0.78522,-1.5708,-0.523598,-4.37798e-09,-2.0944,-1.5708,1.5708,0.785398,0.000667413,6.40353e-05,0.000241406,-0.000607854,-5.35701e-05,9.69206e-05,1.96445e-06,0,0,0,0,0,0,0,-0.176685,-10.1892,0.80878,21.5906,-1.53868,-0.314733,0.0523779,-0.181338,-1.05881,0.601238,3.02129,-0.979619,-0.312059,0.0130521
5713953,0,-1.57063,-0.52278,-0.00032478,-2.09664,-1.56946,1.5714,0.785221,-1.5708,-0.523598,-4.37798e-09,-2.0944,-1.5708,1.5708,0.785398,0.00109456,0.000599502,0.00139158,0.001358,-0.000239164,-0.000172745,0.000238669,0,0,0,0,0,0,0,-0.204456,-10.213,0.757205,21.5152,-1.53319,-0.308324,0.0459692,-0.178102,-1.05897,0.606621,3.02169,-0.979485,-0.311595,0.0131225
5713954,0,-1.57063,-0.522783,-0.000327939,-2.09664,-1.56946,1.5714,0.785218,-1.5708,-0.523598,-4.37798e-09,-2.0944,-1.5708,1.5708,0.785398,0.000729704,-0.000713956,-0.000817356,0.000255721,0.000450909,-0.000352522,-0.000790323,0,0,0,0,0,0,0,-0.204456,-10.1654,0.832583,21.543,-1.54967,-0.301915,0.071604,-0.175749,-1.05861,0.610766,3.0213,-0.979332,-0.311267,0.013134
5713955,0,-1.57063,-0.522782,-0.000329359,-2.09664,-1.56946,1.5714,0.785219,-1.5708,-0.523598,-4.37798e-09,-2.0944,-1.5708,1.5708,0.785398,-0.000719957,8.08414e-05,-0.000531282,0.00017048,0.000300606,0.000239703,-5.21644e-05,0,0,0,0,0,0,0,-0.152882,-10.1892,0.832583,21.543,-1.54967,-0.314733,0.0587866,-0.172848,-1.05711,0.615771,3.02021,-0.979129,-0.310834,0.0131007
5713956,0,-1.57063,-0.522783,-0.000329833,-2.09664,-1.56946,1.5714,0.785221,-1.5708,-0.523598,-4.37798e-09,-2.0944,-1.5708,1.5708,0.785398,-0.000479971,-0.000502918,-0.000343972,0.000763268,-3.04655e-06,-7.7557e-05,0.000711209,0,0,0,0,0,0,0,-0.152882,-10.1654,0.832583,21.5152,-1.54417,-0.308324,0.038645,-0.168813,-1.05505,0.622406,3.0189,-0.978895,-0.310211,0.0130495
5713957,0,-1.57063,-0.522782,-0.000331939,-2.09664,-1.56946,1.5714,0.785217,-1.5708,-0.523598,-4.37798e-09,-2.0944,-1.5708,1.5708,0.785398,-0.000319981,0.000221533,-0.000871266,-0.000697581,-0.000205482,-0.000289064,-0.000983923,0,0,0,0,0,0,0,-0.152882,-10.1892,0.860354,21.5668,-1.53868,-0.301915,0.0780126,-0.164288,-1.05315,0.629714,3.01776,-0.978674,-0.309513,0.0129894
5713958,0,-1.57063,-0.52278,-0.000331992,-2.09664,-1.56946,1.5714,0.785223,-1.5708,-0.523598,-4.37798e-09,-2.0944,-1.5708,1.5708,0.785398,0.000343491,0.000704501,-0.000575098,9.1758e-05,-0.000340438,-0.000192709,0.00151419,0,0,0,0,0,0,0,-0.176685,-10.213,0.860354,21.543,-1.53319,-0.301915,0.0194189,-0.159915,-1.05297,0.636899,3.01769,-0.978513,-0.308849,0.012924
5713959,0,-1.57063,-0.522783,-0.000330061,-2.09664,-1.56946,1.5714,0.785216,-1.5708,-0.523598,-4.37798e-09,-2.0944,-1.5708,1.5708,0.785398,-0.000327818,-0.000643957,0.000270525,0.000710786,0.000179942,0.000108886,-0.0016354,0,0,0,0,0,0,0,-0.152882,-10.1654,0.832583,21.5152,-1.54417,-0.308324,0.09083,-0.15639,-1.05379,0.642925,3.01808,-0.978397,-0.308315,0.0128491
5713960,0,-1.57063,-0.522782,-0.000330066,-2.09664,-1.56946,1.5714,0.78522,-1.5708,-0.523598,-4.37798e-09,-2.0944,-1.5708,1.5708,0.785398,-0.000218545,0.000127508,0.000183583,0.000473857,0.000119961,-0.000164768,0.000333889,0,0,0,0,0,0,0,-0.152882,-10.1892,0.832583,21.5152,-1.54417,-0.301915,0.0523779,-0.153992,-1.05344,0.647212,3.01761,-0.978281,-0.30793,0.0127561
5713961,0,-1.57063,-0.522785,-0.000330068,-2.09664,-1.56946,1.5714,0.785217,-1.5708,-0.523598,-4.37798e-09,-2.0944,-1.5708,1.5708,0.785398,-0.000795311,-0.00112142,0.000124813,-0.000890521,-0.000530377,0.000127514,-0.000726843,0,0,0,0,0,0,0,-0.125111,-10.1377,0.832583,21.5668,-1.52769,-0.308324,0.0780126,-0.152319,-1.05206,0.650289,3.01671,-0.978175,-0.307634,0.0126671
5713962,0,-1.57063,-0.52278,-0.000330069,-2.09664,-1.56946,1.5714,0.78522,-1.5708,-0.523598,-4.37798e-09,-2.0944,-1.5708,1.5708,0.785398,0.000676219,0.00101562,8.50269e-05,0.000612745,0.000697576,8.5009e-05,0.000464874,0,0,0,0,0,0,0,-0.176685,-10.213,0.832583,21.5152,-1.55607,-0.308324,0.0523779,-0.151201,-1.05097,0.652492,3.01622,-0.978105,-0.307419,0.0126047
5713963,0,-1.57063,-0.52278,-0.000328399,-2.09664,-1.56946,1.5714,0.785217,-1.5708,-0.523598,-4.37798e-09,-2.0944,-1.5708,1.5708,0.785398,-0.000105999,0.000677083,0.00061486,0.000408497,-0.00038266,5.66727e-05,-0.00063952,0,0,0,0,0,0,0,-0.152882,-10.213,0.80878,21.5152,-1.53319,-0.308324,0.0780126,-0.150967,-1.05167,0.653443,3.01636,-0.97808,-0.307363,0.0125732
5713964,0,-1.57063,-0.522783,-0.000330069,-2.09664,-1.56946,1.5714,0.785217,-1.5708,-0.523598,-4.37798e-09,-2.0944,-1.5708,1.5708,0.785398,-0.00072028,-0.000662235,-0.000145882,-0.000377283,0.000151795,3.77818e-05,-0.000426347,0,0,0,0,0,0,0,-0.125111,-10.1654,0.832583,21.543,-1.54417,-0.308324,0.0780126,-0.151153,-1.0533,0.653733,3.01673,-0.978078,-0.307386,0.0125718
5713965,0,-1.57063,-0.52278,-0.00032645,-2.09664,-1.56946,1.5714,0.785221,-1.5708,-0.523598,-4.37798e-09,-2.0944,-1.5708,1.5708,0.785398,0.00137585,0.000672134,0.00110994,-0.000808334,-0.000102254,0.000262547,0.00117383,0,0,0,0,0,0,0,-0.204456,-10.213,0.781009,21.5668,-1.53868,-0.314733,0.038645,-0.151638,-1.05477,0.653494,3.01734,-0.978101,-0.307457,0.0126078
5713966,0,-1.57063,-0.522782,-0.000332018,-2.09664,-1.56946,1.5714,0.785217,-1.5708,-0.523598,-4.37798e-09,-2.0944,-1.5708,1.5708,0.785398,-0.000289191,-0.000108723,-0.00111551,-0.0010957,0.000338732,-0.000299687,-0.000675508,0,0,0,0,0,0,0,-0.152882,-10.1892,0.860354,21.5906,-1.54967,-0.301915,0.0780126,-0.152567,-1.05713,0.652663,3.01885,-0.978176,-0.307605,0.0126794
5713967,0,-1.57063,-0.522785,-0.000328399,-2.09664,-1.56946,1.5714,0.785219,-1.5708,-0.523598,-4.37798e-09,-2.0944,-1.5708,1.5708,0.785398,-0.000842408,-0.00127891,0.000463187,-0.000730467,0.000225821,3.75678e-05,0.000261738,0,0,0,0,0,0,0,-0.125111,-10.1377,0.80878,21.5906,-1.54967,-0.308324,0.0587866,-0.152816,-1.05894,0.652799,3.02055,-0.978245,-0.307641,0.0127628
5713968,0,-1.57064,-0.52278,-0.000330069,-2.09664,-1.56946,1.5714,0.785215,-1.5708,-0.523598,-4.37798e-09,-2.0944,-1.5708,1.5708,0.785398,-0.00111842,0.000910633,-0.000247697,0.000626646,-0.000459804,0.000499763,-0.00124966,0,0,0,0,0,0,0,-0.101307,-10.213,0.832583,21.543,-1.53319,-0.321141,0.0972387,-0.152049,-1.05898,0.65418,3.02136,-0.978262,-0.307512,0.0128506
5713969,0,-1.57063,-0.522782,-0.000330069,-2.09664,-1.56946,1.5714,0.785221,-1.5708,-0.523598,-4.37798e-09,-2.0944,-1.5708,1.5708,0.785398,0.000460815,5.02765e-05,-0.000164889,-0.000139048,0.000100365,-0.000378901,0.00106576,0,0,0,0,0,0,0,-0.152882,-10.1892,0.832583,21.5668,-1.54417,-0.301915,0.0459692,-0.150944,-1.05903,0.655899,3.02164,-0.978251,-0.30736,0.0129588
5713970,0,-1.57063,-0.52278,-0.000332018,-2.09664,-1.56946,1.5714,0.785218,-1.5708,-0.523598,-4.37798e-09,-2.0944,-1.5708,1.5708,0.785398,0.00030721,0.00059033,-0.000759358,-9.26988e-05,6.69099e-05,-1.5242e-05,-0.000238927,0,0,0,0,0,0,0,-0.152882,-10.213,0.860354,21.5668,-1.54417,-0.308324,0.071604,-0.149971,-1.0599,0.657477,3.02197,-0.978244,-0.307258,0.0130965
5713971,0,-1.57063,-0.522782,-0.000328399,-2.09664,-1.56946,1.5714,0.785223,-1.5708,-0.523598,-4.37798e-09,-2.0944,-1.5708,1.5708,0.785398,-0.000444807,-0.000163259,0.000700324,-0.000618611,-0.000158844,-1.01613e-05,0.00153614,0,0,0,0,0,0,0,-0.125111,-10.1892,0.80878,21.5906,-1.53868,-0.308324,0.0258276,-0.149334,-1.06116,0.65859,3.02256,-0.978257,-0.307222,0.0132496
5713972,0,-1.57063,-0.522782,-0.000328399,-2.09664,-1.56946,1.5714,0.785222,-1.5708,-0.523598,-4.37798e-09,-2.0944,-1.5708,1.5708,0.785398,0.000353076,-0.000108839,0.000466985,0.000144405,-0.000105896,-0.000244133,0.000786732,0,0,0,0,0,0,0,-0.152882,-10.1892,0.80878,21.5668,-1.53868,-0.301915,0.0322363,-0.149298,-1.06191,0.65868,3.02304,-0.978287,-0.307278,0.0133879
5713973,0,-1.57063,-0.522783,-0.000326268,-2.09664,-1.56946,1.5714,0.785216,-1.5708,-0.523598,-4.37798e-09,-2.0944,-1.5708,1.5708,0.785398,0.000235384,-0.000629371,0.0003114,-0.000460542,0.000132853,-0.000162755,-0.00140829,0,0,0,0,0,0,0,-0.152882,-10.1654,0.80878,21.5906,-1.54417,-0.301915,0.0844213,-0.149947,-1.06134,0.657622,3.02295,-0.978314,-0.307422,0.01347
5713974,0,-1.57063,-0.522782,-0.000327689,-2.09664,-1.56946,1.5714,0.785221,-1.5708,-0.523598,-4.37798e-09,-2.0944,-1.5708,1.5708,0.785398,0.000156922,0.000137231,0.000207658,-0.000307028,0.000292019,-0.000108504,0.000485292,0,0,0,0,0,0,0,-0.152882,-10.1892,0.80878,21.5906,-1.54967,-0.301915,0.0459692,-0.150849,-1.06001,0.656133,3.02263,-0.978332,-0.307582,0.0134885
5713975,0,-1.57063,-0.522778,-0.000328162,-2.09664,-1.56946,1.5714,0.785217,-1.5708,-0.523598,-4.37798e-09,-2.0944,-1.5708,1.5708,0.785398,0.000661427,0.00129791,0.000138482,-0.000204685,-0.000212221,0.000402382,-0.000863266,0,0,0,0,0,0,0,-0.176685,-10.2408,0.80878,21.5906,-1.53868,-0.314733,0.0780126,-0.151812,-1.06004,0.654593,3.02303,-0.978373,-0.307752,0.0134776
5713976,0,-1.57063,-0.522782,-0.000326371,-2.09664,-1.56946,1.5714,0.785221,-1.5708,-0.523598,-4.37798e-09,-2.0944,-1.5708,1.5708,0.785398,-0.000115861,-0.00034115,0.000741967,0.000977167,0.00026542,-0.000443822,0.000611284,0,0,0,0,0,0,0,-0.152882,-10.1892,0.781009,21.543,-1.54967,-0.295507,0.0459692,-0.152907,-1.0614,0.652895,3.02378,-0.978427,-0.307949,0.0134573
5713977,0,-1.57063,-0.522783,-0.000331992,-2.09664,-1.56946,1.5714,0.785216,-1.5708,-0.523598,-4.37798e-09,-2.0944,-1.5708,1.5708,0.785398,0.000479572,-0.000784246,-0.00136137,-0.00101899,-2.65038e-05,-5.85224e-05,-0.00125399,0,0,0,0,0,0,0,-0.176685,-10.1654,0.860354,21.6144,-1.54417,-0.301915,0.09083,-0.153585,-1.06135,0.651784,3.02374,-0.978443,-0.308049,0.013431
5713978,0,-1.57063,-0.522782,-0.000330061,-2.09664,-1.56946,1.5714,0.785223,-1.5708,-0.523598,-4.37798e-09,-2.0944,-1.5708,1.5708,0.785398,-0.000237098,3.39816e-05,-0.000257948,0.000991108,-0.00042457,0.000435703,0.0015715,0,0,0,0,0,0,0,-0.152882,-10.1892,0.832583,21.543,-1.53319,-0.314733,0.0258276,-0.153229,-1.0595,0.652251,3.023,-0.978408,-0.30795,0.0134097
5713979,0,-1.57063,-0.522782,-0.000328396,-2.09664,-1.56946,1.5714,0.785216,-1.5708,-0.523598,-4.37798e-09,-2.0944,-1.5708,1.5708,0.785398,-0.000807679,2.26544e-05,0.00038486,0.000103927,0.000123854,5.31097e-05,-0.00112247,0,0,0,0,0,0,0,-0.125111,-10.1892,0.80878,21.5668,-1.54417,-0.308324,0.0844213,-0.152281,-1.05727,0.653586,3.02196,-0.978344,-0.307749,0.0133988
5713980,0,-1.57063,-0.522782,-0.000328398,-2.09664,-1.56946,1.5714,0.785218,-1.5708,-0.523598,-4.37798e-09,-2.0944,-1.5708,1.5708,0.785398,-0.000538453,1.51029e-05,0.000256584,-0.000487527,-0.000120881,3.54064e-05,-3.6236e-05,0,0,0,0,0,0,0,-0.125111,-10.1892,0.80878,21.5906,-1.53868,-0.308324,0.0651953,-0.151346,-1.05567,0.654752,3.02121,-0.978289,-0.307564,0.013392
5713981,0,-1.57063,-0.522782,-0.000328399,-2.09664,-1.56946,1.5714,0.785219,-1.5708,-0.523598,-4.37798e-09,-2.0944,-1.5708,1.5708,0.785398,0.000290645,1.00686e-05,0.000171063,-0.00088183,-8.05874e-05,-0.000213755,0.000213202,0,0,0,0,0,0,0,-0.152882,-10.1892,0.80878,21.6144,-1.53868,-0.301915,0.0587866,-0.150702,-1.05529,0.655409,3.0215,-0.978281,-0.307441,0.0134003
5713982,0,-1.57063,-0.52278,-0.000330069,-2.09664,-1.56946,1.5714,0.785218,-1.5708,-0.523598,-4.37798e-09,-2.0944,-1.5708,1.5708,0.785398,0.000750576,0.000563524,-0.000442764,0.000525737,0.000590535,9.48558e-05,-0.000332583,0,0,0,0,0,0,0,-0.176685,-10.213,0.832583,21.5668,-1.55607,-0.308324,0.071604,-0.150527,-1.05604,0.655466,3.02258,-0.978309,-0.307405,0.0134298
5713983,0,-1.57063,-0.522782,-0.00032645,-2.09664,-1.56946,1.5714,0.785218,-1.5708,-0.523598,-4.37798e-09,-2.0944,-1.5708,1.5708,0.785398,-5.64282e-05,-0.000181129,0.000911254,0.000350491,-4.71194e-05,6.32372e-05,-0.000221722,0,0,0,0,0,0,0,-0.152882,-10.1892,0.781009,21.5668,-1.54417,-0.308324,0.071604,-0.150862,-1.05693,0.65486,3.02346,-0.978337,-0.307449,0.0134711
5713984,0,-1.57063,-0.522782,-0.000328399,-2.09664,-1.56946,1.5714,0.785216,-1.5708,-0.523598,-4.37798e-09,-2.0944,-1.5708,1.5708,0.785398,-3.76188e-05,-0.000120753,-4.21078e-05,-0.000323151,-3.14129e-05,4.21582e-05,-0.000622533,0,0,0,0,0,0,0,-0.152882,-10.1892,0.80878,21.5906,-1.54417,-0.308324,0.0844213,-0.151529,-1.05705,0.653708,3.02377,-0.978362,-0.307538,0.0135289
5713985,0,-1.57063,-0.52278,-0.000328399,-2.09664,-1.56946,1.5714,0.785223,-1.5708,-0.523598,-4.37798e-09,-2.0944,-1.5708,1.5708,0.785398,-2.50792e-05,0.00047631,-2.80695e-05,0.0015478,-2.0942e-05,0.000265464,0.00175512,0,0,0,0,0,0,0,-0.152882,-10.213,0.80878,21.5152,-1.54417,-0.314733,0.0258276,-0.15202,-1.0566,0.652753,3.02363,-0.978375,-0.3076,0.0136153
5713986,0,-1.57063,-0.522782,-0.000333689,-2.09664,-1.56946,1.5714,0.785218,-1.5708,-0.523598,-4.37798e-09,-2.0944,-1.5708,1.5708,0.785398,-0.000666333,-0.000239272,-0.00178195,-0.000174557,-1.39613e-05,-6.03827e-05,-0.000525343,0,0,0,0,0,0,0,-0.125111,-10.1892,0.884158,21.5668,-1.54417,-0.308324,0.071604,-0.151506,-1.05584,0.653306,3.023,-0.978348,-0.307519,0.0137197
5713987,0,-1.57063,-0.522782,-0.00032645,-2.09664,-1.56946,1.5714,0.785223,-1.5708,-0.523598,-4.37798e-09,-2.0944,-1.5708,1.5708,0.785398,0.000762204,-0.000159515,0.00122489,-0.000116371,-9.30754e-06,-4.02551e-05,0.00134519,0,0,0,0,0,0,0,-0.176685,-10.1892,0.781009,21.5668,-1.54417,-0.308324,0.0258276,-0.150351,-1.0549,0.654855,3.0224,-0.978313,-0.307346,0.0138132
5713988,0,-1.57063,-0.522782,-0.000328399,-2.09664,-1.56946,1.5714,0.785216,-1.5708,-0.523598,-4.37798e-09,-2.0944,-1.5708,1.5708,0.785398,-4.86762e-05,-0.000106343,0.000166979,-0.000634393,-0.000209656,-0.000264196,-0.00127334,0,0,0,0,0,0,0,-0.152882,-10.1892,0.80878,21.5906,-1.53868,-0.301915,0.0844213,-0.150109,-1.05425,0.655061,3.02238,-0.978337,-0.307318,0.013877
5713989,0,-1.57063,-0.52278,-0.00032645,-2.09664,-1.56946,1.5714,0.785221,-1.5708,-0.523598,-4.37798e-09,-2.0944,-1.5708,1.5708,0.785398,-3.24508e-05,0.000485917,0.000760934,0.00189712,-0.00013977,6.12285e-05,0.000575258,0,0,0,0,0,0,0,-0.152882,-10.213,0.781009,21.4914,-1.53868,-0.308324,0.0459692,-0.150773,-1.05389,0.653877,3.02242,-0.978391,-0.307433,0.0139054
5713990,0,-1.57063,-0.52278,-0.000328399,-2.09664,-1.56946,1.5714,0.785218,-1.5708,-0.523598,-4.37798e-09,-2.0944,-1.5708,1.5708,0.785398,-0.000671248,0.000323944,-0.000142324,0.000707936,-0.000296631,-0.00019654,-0.000565931,0,0,0,0,0,0,0,-0.125111,-10.213,0.80878,21.5152,-1.53319,-0.301915,0.071604,-0.151371,-1.05343,0.652691,3.02172,-0.978405,-0.307542,0.013909
5713991,0,-1.57063,-0.522778,-0.000328399,-2.09664,-1.56946,1.5714,0.785221,-1.5708,-0.523598,-4.37798e-09,-2.0944,-1.5708,1.5708,0.785398,0.000202115,0.000865577,-9.48824e-05,-0.000177657,5.69668e-06,-0.000131027,0.000572149,0,0,0,0,0,0,0,-0.152882,-10.2408,0.80878,21.543,-1.53868,-0.301915,0.0459692,-0.151476,-1.05382,0.652188,3.02111,-0.978396,-0.307583,0.0139035
5713992,0,-1.57063,-0.522782,-0.00032645,-2.09664,-1.56946,1.5714,0.785224,-1.5708,-0.523598,-4.37798e-09,-2.0944,-1.5708,1.5708,0.785398,-0.00051487,-0.000629375,0.000586359,-0.000118438,0.000207248,0.000150008,0.00160214,0,0,0,0,0,0,0,-0.125111,-10.1892,0.781009,21.543,-1.54417,-0.308324,0.0130102,-0.151346,-1.05522,0.652013,3.02133,-0.978402,-0.307588,0.0138922
5713993,0,-1.57063,-0.522782,-0.00032645,-2.09663,-1.56946,1.5714,0.785217,-1.5708,-0.523598,-4.37798e-09,-2.0944,-1.5708,1.5708,0.785398,0.000306367,-0.000419583,-0.00660207,0.00168428,-0.000472186,-0.000374713,-0.00133941,0,0,0,0,0,0,0,-0.152882,-10.1892,0.781009,21.4676,-1.52769,-0.295507,0.0780126,-0.149498,-1.05512,0.654519,3.0209,-0.978321,-0.3073,0.0138437
5713994,0,-1.57063,-0.522783,-0.000328399,-2.09664,-1.56946,1.5714,0.785221,-1.5708,-0.523598,-4.37798e-09,-2.0944,-1.5708,1.5708,0.785398,0.000204245,-0.000836534,-0.00563374,-0.000640385,0.000295561,-1.24495e-05,0.000293856,0,0,0,0,0,0,0,-0.152882,-10.1654,0.80878,21.543,-1.54417,-0.301915,0.0459692,-0.143431,-1.05273,0.663784,3.01924,-0.978045,-0.30632,0.0137351
5713995,0,-1.57063,-0.522782,-0.000330069,-2.09664,-1.56946,1.5714,0.785218,-1.5708,-0.523598,-4.37798e-09,-2.0944,-1.5708,1.5708,0.785398,0.000692975,-8.77393e-07,-0.0047497,-0.000983735,0.000197041,0.000466418,-0.000516173,0,0,0,0,0,0,0,-0.176685,-10.1892,0.832583,21.5668,-1.54417,-0.314733,0.0651953,-0.134563,-1.05046,0.677662,3.01812,-0.977688,-0.304889,0.0135945
5713996,0,-1.57063,-0.522782,-0.00032645,-2.09663,-1.56946,1.5714,0.785221,-1.5708,-0.523598,-4.37798e-09,-2.0944,-1.5708,1.5708,0.785398,-9.48286e-05,-5.84929e-07,-0.00228784,0.000550602,-0.000275541,-0.000401131,0.000639229,0,0,0,0,0,0,0,-0.152882,-10.1892,0.781009,21.5152,-1.53319,-0.295507,0.038645,-0.12634,-1.04983,0.690622,3.0182,-0.977391,-0.30356,0.0134483
5713997,0,-1.57064,-0.52278,-0.000332018,-2.09664,-1.56946,1.5714,0.785218,-1.5708,-0.523598,-4.37798e-09,-2.0944,-1.5708,1.5708,0.785398,-0.00126964,0.000556422,-0.00362711,-0.000282546,0.000223207,0.000207297,-0.00079455,0,0,0,0,0,0,0,-0.101307,-10.213,0.860354,21.543,-1.54417,-0.308324,0.071604,-0.119845,-1.05052,0.700704,3.01871,-0.977166,-0.302511,0.0133
5713998,0,-1.57063,-0.52278,-0.000328399,-2.09664,-1.56946,1.5714,0.785224,-1.5708,-0.523598,-4.37798e-09,-2.0944,-1.5708,1.5708,0.785398,-0.000289618,0.000370948,-0.00139603,0.00101806,0.000352255,-9.91609e-05,0.000419736,0,0,0,0,0,0,0,-0.125111,-10.213,0.80878,21.4914,-1.54967,-0.301915,0.0459692,-0.114894,-1.05219,0.708065,3.01928,-0.976994,-0.301718,0.0131508
5713999,0,-1.57063,-0.522783,-0.000328399,-2.09664,-1.56946,1.5714,0.785226,-1.5708,-0.523598,-4.37798e-09,-2.0944,-1.5708,1.5708,0.785398,0.000456535,-0.000866325,-0.00106898,-0.00108453,-0.000375515,0.000171252,0.00173789,0,0,0,0,0,0,0,-0.152882,-10.1654,0.80878,21.5668,-1.53319,-0.308324,0.00660151,-0.112461,-1.05365,0.71132,3.01954,-0.976902,-0.301318,0.0130037
5714000,0,-1.57063,-0.522776,-0.000330069,-2.09664,-1.56946,1.5714,0.785217,-1.5708,-0.523598,-4.37798e-09,-2.0944,-1.5708,1.5708,0.785398,0.000861169,0.0017425,-0.00137318,0.000483406,-4.68926e-05,0.000114168,-0.00172363,0,0,0,0,0,0,0,-0.176685,-10.2646,0.832583,21.5152,-1.53868,-0.308324,0.0844213,-0.112985,-1.05532,0.710029,3.01997,-0.976918,-0.301379,0.0128409
5714001,0,-1.57063,-0.522782,-0.000333689,-2.09664,-1.56946,1.5714,0.78522,-1.5708,-0.523598,-4.37798e-09,-2.0944,-1.5708,1.5708,0.785398,1.73006e-05,-0.000601571,-0.00219967,-0.000327343,-3.12617e-05,7.61118e-05,3.77112e-05,0,0,0,0,0,0,0,-0.152882,-10.1892,0.884158,21.543,-1.53868,-0.308324,0.0523779,-0.115038,-1.05818,0.706528,3.0209,-0.976996,-0.301693,0.0126457
5714002,0,-1.57063,-0.522783,-0.000332018,-2.09664,-1.56946,1.5714,0.785218,-1.5708,-0.523598,-4.37798e-09,-2.0944,-1.5708,1.5708,0.785398,0.000568346,-0.00095786,-0.000967973,-0.000218229,-0.000224292,5.07412e-05,-0.000686936,0,0,0,0,0,0,0,-0.176685,-10.1654,0.860354,21.543,-1.53319,-0.308324,0.071604,-0.117461,-1.05969,0.702535,3.0212,-0.977057,-0.302049,0.0124382
5714003,0,-1.57063,-0.522782,-0.00032645,-2.09664,-1.56946,1.5714,0.785219,-1.5708,-0.523598,-4.37798e-09,-2.0944,-1.5708,1.5708,0.785398,-0.000827529,-8.17611e-05,0.00116697,-0.00125911,-0.000149528,0.000508545,1.67605e-05,0,0,0,0,0,0,0,-0.125111,-10.1892,0.781009,21.5906,-1.53319,-0.321141,0.0587866,-0.120769,-1.05921,0.69715,3.02091,-0.977123,-0.302524,0.0122477
5714004,0,-1.57063,-0.522783,-0.000330069,-2.09664,-1.56946,1.5714,0.785223,-1.5708,-0.523598,-4.37798e-09,-2.0944,-1.5708,1.5708,0.785398,-0.000551686,-0.000611319,-0.000461263,-0.000282595,0.000307216,0.000101671,0.00146924,0,0,0,0,0,0,0,-0.125111,-10.1654,0.832583,21.5668,-1.54417,-0.314733,0.0194189,-0.125051,-1.0586,0.690136,3.02092,-0.977226,-0.303165,0.0120909
5714005,0,-1.57063,-0.522783,-0.000328399,-2.09664,-1.56946,1.5714,0.785216,-1.5708,-0.523598,-4.37798e-09,-2.0944,-1.5708,1.5708,0.785398,0.000838635,-0.000407546,-0.00655467,0.000368416,0.000204811,-0.000169578,-0.00142801,0,0,0,0,0,0,0,-0.176685,-10.1654,0.80878,21.543,-1.54417,-0.308324,0.0844213,-0.127678,-1.05747,0.685773,3.02064,-0.977256,-0.303572,0.0119486
5714006,0,-1.57063,-0.522778,-0.000330069,-2.09664,-1.56946,1.5714,0.785221,-1.5708,-0.523598,-4.37798e-09,-2.0944,-1.5708,1.5708,0.785398,0.00055909,0.00149154,-0.00551,-0.000868014,0.000339991,0.000124307,0.000743416,0,0,0,0,0,0,0,-0.176685,-10.2408,0.832583,21.5906,-1.54967,-0.314733,0.038645,-0.126307,-1.05717,0.688129,3.02054,-0.977153,-0.303393,0.0118035
5714007,0,-1.57063,-0.522783,-0.000330069,-2.09665,-1.56946,1.5714,0.78522,-1.5708,-0.523598,-4.37798e-09,-2.0944,-1.5708,1.5708,0.785398,-0.000833699,-0.000768878,-0.00411089,-0.0017851,-0.000587141,-0.000154488,-1.30156e-05,0,0,0,0,0,0,0,-0.125111,-10.1654,0.832583,21.6422,-1.52769,-0.308324,0.0523779,-0.122077,-1.05951,0.695296,3.02205,-0.977021,-0.302817,0.0116726
5714008,0,-1.57063,-0.522782,-0.000330069,-2.09664,-1.56946,1.5714,0.78522,-1.5708,-0.523598,-4.37798e-09,-2.0944,-1.5708,1.5708,0.785398,9.38146e-05,4.42269e-05,-0.00306876,0.00057317,-0.000187977,0.000134367,-8.67703e-06,0,0,0,0,0,0,0,-0.152882,-10.1892,0.832583,21.5668,-1.53319,-0.314733,0.0523779,-0.117499,-1.06197,0.702921,3.02398,-0.976902,-0.302202,0.0115498
5714009,0,-1.57063,-0.522782,-0.000330069,-2.09664,-1.56946,1.5714,0.785221,-1.5708,-0.523598,-4.37798e-09,-2.0944,-1.5708,1.5708,0.785398,6.2543e-05,2.94846e-05,-0.00229196,0.000382113,7.81324e-05,8.95781e-05,0.000502842,0,0,0,0,0,0,0,-0.152882,-10.1892,0.832583,21.5668,-1.53868,-0.314733,0.038645,-0.114381,-1.06264,0.708103,3.02467,-0.976772,-0.301811,0.0114172
5714010,0,-1.57063,-0.52278,-0.00032645,-2.09664,-1.56946,1.5714,0.785217,-1.5708,-0.523598,-4.37798e-09,-2.0944,-1.5708,1.5708,0.785398,4.16954e-05,0.000576468,-0.000506142,-0.00030207,5.20883e-05,-0.00017764,-0.00112283,0,0,0,0,0,0,0,-0.152882,-10.213,0.781009,21.5906,-1.53868,-0.308324,0.0780126,-0.113771,-1.06287,0.709272,3.02464,-0.976678,-0.301818,0.0112735
5714011,0,-1.57063,-0.522787,-0.000330069,-2.09664,-1.56946,1.5714,0.785219,-1.5708,-0.523598,-4.37798e-09,-2.0944,-1.5708,1.5708,0.785398,-0.000621817,-0.00193574,-0.0016823,0.000912244,3.47255e-05,-0.000355786,-3.64794e-05,0,0,0,0,0,0,0,-0.125111,-10.1139,0.832583,21.543,-1.53868,-0.301915,0.0587866,-0.11532,-1.06184,0.706857,3.02389,-0.976617,-0.30215,0.0111229
5714012,0,-1.57063,-0.52278,-0.000328399,-2.09664,-1.56946,1.5714,0.785216,-1.5708,-0.523598,-4.37798e-09,-2.0944,-1.5708,1.5708,0.785398,0.000235069,0.00102956,-0.000668554,0.000608163,-0.0001803,0.000237527,-0.000973755,0,0,0,0,0,0,0,-0.152882,-10.213,0.80878,21.543,-1.53319,-0.314733,0.0844213,-0.117981,-1.05856,0.702456,3.02183,-0.976538,-0.30263,0.0109841
5714013,0,-1.57063,-0.52278,-0.000332018,-2.09664,-1.56946,1.5714,0.78522,-1.5708,-0.523598,-4.37798e-09,-2.0944,-1.5708,1.5708,0.785398,0.000713525,0.000686372,-0.00173,-0.00126499,8.32504e-05,-0.000316366,0.000537624,0,0,0,0,0,0,0,-0.176685,-10.213,0.860354,21.6144,-1.53868,-0.301915,0.0523779,-0.121444,-1.05697,0.696852,3.02063,-0.97651,-0.303249,0.0108899
5714014,0,-1.57063,-0.522783,-0.000328399,-2.09664,-1.56946,1.5714,0.78522,-1.5708,-0.523598,-4.37798e-09,-2.0944,-1.5708,1.5708,0.785398,-8.11288e-05,-0.000656043,-5.31658e-06,0.000270295,-0.000351401,-0.000210911,0.000358416,0,0,0,0,0,0,0,-0.152882,-10.1654,0.80878,21.5668,-1.52769,-0.301915,0.0523779,-0.125557,-1.05793,0.690397,3.02113,-0.976561,-0.303981,0.0108532
5714015,0,-1.57063,-0.52278,-0.000330069,-2.09664,-1.56946,1.5714,0.785216,-1.5708,-0.523598,-4.37798e-09,-2.0944,-1.5708,1.5708,0.785398,-0.0007037,0.000676262,-0.000604161,-0.000376616,-3.08167e-05,-0.000140607,-0.00118521,0,0,0,0,0,0,0,-0.125111,-10.213,0.832583,21.5906,-1.53319,-0.301915,0.09083,-0.129867,-1.05875,0.68358,3.02182,-0.976619,-0.304722,0.0108522
5714016,0,-1.57063,-0.52278,-0.000330069,-2.09664,-1.56946,1.5714,0.785221,-1.5708,-0.523598,-4.37798e-09,-2.0944,-1.5708,1.5708,0.785398,0.000180481,0.000450841,-0.000435628,-0.000251077,0.000386357,-9.37382e-05,0.00114264,0,0,0,0,0,0,0,-0.152882,-10.213,0.832583,21.5906,-1.54417,-0.301915,0.038645,-0.133967,-1.06013,0.677002,3.02285,-0.976673,-0.305417,0.0108807
5714017,0,-1.57063,-0.522782,-0.000328399,-2.09664,-1.56946,1.5714,0.785216,-1.5708,-0.523598,-4.37798e-09,-2.0944,-1.5708,1.5708,0.785398,0.000677132,-0.000256251,0.000241753,-0.000167385,0.000257571,0.000649585,-0.00117102,0,0,0,0,0,0,0,-0.176685,-10.1892,0.80878,21.5906,-1.54417,-0.321141,0.09083,-0.138194,-1.06199,0.670304,3.02421,-0.976733,-0.306116,0.01094
5714018,0,-1.57063,-0.522782,-0.000328399,-2.09664,-1.56946,1.5714,0.78522,-1.5708,-0.523598,-4.37798e-09,-2.0944,-1.5708,1.5708,0.785398,-0.00010539,-0.000170834,0.000142689,-0.00011159,0.000375165,-0.00027902,0.000643474,0,0,0,0,0,0,0,-0.152882,-10.1892,0.80878,21.5906,-1.54967,-0.301915,0.0523779,-0.142856,-1.06276,0.663019,3.0251,-0.976791,-0.306853,0.01102
5714019,0,-1.57063,-0.522783,-0.000330069,-2.09664,-1.56946,1.5714,0.785216,-1.5708,-0.523598,-4.37798e-09,-2.0944,-1.5708,1.5708,0.785398,0.000486552,-0.000670701,-0.000475546,-7.43932e-05,-0.000360242,-0.000423373,-0.000995171,0,0,0,0,0,0,0,-0.176685,-10.1654,0.832583,21.5906,-1.53319,-0.295507,0.09083,-0.147252,-1.06197,0.656157,3.02528,-0.976831,-0.307519,0.0111222
5714020,0,-1.57063,-0.522783,-0.000328399,-2.09664,-1.56946,1.5714,0.785223,-1.5708,-0.523598,-4.37798e-09,-2.0944,-1.5708,1.5708,0.785398,-0.000882058,-0.000447134,0.000229386,0.000507216,-3.67107e-05,-4.48894e-05,0.00174405,0,0,0,0,0,0,0,-0.125111,-10.1654,0.80878,21.5668,-1.53868,-0.301915,0.0258276,-0.150776,-1.05959,0.650598,3.02464,-0.976833,-0.308019,0.0112507
5714021,0,-1.57063,-0.522783,-0.000332018,-2.09664,-1.56946,1.5714,0.78522,-1.5708,-0.523598,-4.37798e-09,-2.0944,-1.5708,1.5708,0.785398,6.15752e-05,-0.000298089,-0.0010613,0.000894956,0.000178977,0.000444792,0.000179356,0,0,0,0,0,0,0,-0.152882,-10.1654,0.860354,21.543,-1.54417,-0.314733,0.0523779,-0.153202,-1.05602,0.646657,3.02314,-0.976781,-0.308325,0.0113927
5714022,0,-1.57063,-0.522783,-0.000328399,-2.09664,-1.56946,1.5714,0.785219,-1.5708,-0.523598,-4.37798e-09,-2.0944,-1.5708,1.5708,0.785398,0.000597862,-0.000198726,0.000493046,-0.000516986,-0.000287583,-0.00017819,-0.000117788,0,0,0,0,0,0,0,-0.176685,-10.1654,0.80878,21.5906,-1.53319,-0.301915,0.0587866,-0.155021,-1.05253,0.643729,3.0215,-0.976712,-0.308532,0.0115167
5714023,0,-1.57063,-0.522782,-0.000328399,-2.09664,-1.56946,1.5714,0.785222,-1.5708,-0.523598,-4.37798e-09,-2.0944,-1.5708,1.5708,0.785398,0.000398575,0.000424328,0.000324312,-0.00090147,1.17284e-05,-0.000118793,0.000904819,0,0,0,0,0,0,0,-0.176685,-10.1892,0.80878,21.6144,-1.53868,-0.301915,0.0322363,-0.157237,-1.05093,0.640404,3.02118,-0.976709,-0.30881,0.0116107
5714024,0,-1.57063,-0.522782,-0.000330069,-2.09664,-1.56946,1.5714,0.785216,-1.5708,-0.523598,-4.37798e-09,-2.0944,-1.5708,1.5708,0.785398,-0.000940709,0.000282885,-0.000343893,0.00106946,0.000211269,0.000395522,-0.00132957,0,0,0,0,0,0,0,-0.125111,-10.1892,0.832583,21.543,-1.54417,-0.314733,0.0844213,-0.159432,-1.05143,0.637209,3.0221,-0.976753,-0.309099,0.0116715
5714025,0,-1.57063,-0.52278,-0.000332018,-2.09664,-1.56946,1.5714,0.785221,-1.5708,-0.523598,-4.37798e-09,-2.0944,-1.5708,1.5708,0.785398,2.24743e-05,0.000745402,-0.000881343,0.000156159,-0.000469505,-0.000211036,0.000809043,0,0,0,0,0,0,0,-0.152882,-10.213,0.860354,21.5668,-1.52769,-0.301915,0.038645,-0.160479,-1.05277,0.635752,3.02307,-0.97676,-0.309226,0.0116971
5714026,0,-1.57063,-0.52278,-0.000330069,-2.09664,-1.56946,1.5714,0.785218,-1.5708,-0.523598,-4.37798e-09,-2.0944,-1.5708,1.5708,0.785398,0.000571795,0.000496935,6.02021e-05,0.000660918,0.000500799,-0.000140691,-0.000681341,0,0,0,0,0,0,0,-0.176685,-10.213,0.832583,21.543,-1.54967,-0.301915,0.071604,-0.160815,-1.0547,0.635475,3.02397,-0.97674,-0.309254,0.0117039
5714027,0,-1.57063,-0.522782,-0.000328399,-2.09664,-1.56946,1.5714,0.785222,-1.5708,-0.523598,-4.37798e-09,-2.0944,-1.5708,1.5708,0.785398,-0.000825229,-0.000225522,0.000595559,0.000440612,0.000130415,-0.000331153,0.00100383,0,0,0,0,0,0,0,-0.125111,-10.1892,0.80878,21.543,-1.54417,-0.295507,0.0322363,-0.161369,-1.05631,0.634921,3.02455,-0.97672,-0.309306,0.0116974
5714028,0,-1.57063,-0.522783,-0.000328399,-2.09664,-1.56946,1.5714,0.785219,-1.5708,-0.523598,-4.37798e-09,-2.0944,-1.5708,1.5708,0.785398,0.000656273,-0.00070716,0.000395999,-0.000263071,-0.000116507,0.000253949,-0.000314121,0,0,0,0,0,0,0,-0.176685,-10.1654,0.80878,21.5668,-1.53868,-0.308324,0.0587866,-0.16231,-1.05622,0.633683,3.02441,-0.9767,-0.309386,0.0116724
5714029,0,-1.57063,-0.522782,-0.000332018,-2.09664,-1.56946,1.5714,0.785221,-1.5708,-0.523598,-4.37798e-09,-2.0944,-1.5708,1.5708,0.785398,-0.000768911,8.53719e-05,-0.000943207,-0.00017538,-0.000281122,0.000406658,0.000265304,0,0,0,0,0,0,0,-0.125111,-10.1892,0.860354,21.5668,-1.53319,-0.314733,0.0459692,-0.163098,-1.05503,0.632651,3.02408,-0.976684,-0.309421,0.011624
5714030,0,-1.57063,-0.52278,-0.000332018,-2.09664,-1.56946,1.5714,0.785217,-1.5708,-0.523598,-4.37798e-09,-2.0944,-1.5708,1.5708,0.785398,0.000137007,0.000613727,-0.00062939,0.00108951,1.60359e-05,3.37467e-05,-0.00100993,0,0,0,0,0,0,0,-0.152882,-10.213,0.860354,21.5152,-1.53868,-0.308324,0.0780126,-0.162939,-1.0543,0.633106,3.02397,-0.976649,-0.309321,0.011553
5714031,0,-1.57063,-0.522782,-0.00032478,-2.09664,-1.56946,1.5714,0.785216,-1.5708,-0.523598,-4.37798e-09,-2.0944,-1.5708,1.5708,0.785398,-0.000558276,-0.000147661,0.00199282,7.67231e-05,1.06906e-05,-0.000214861,-0.001148,0,0,0,0,0,0,0,-0.125111,-10.1892,0.757205,21.543,-1.53868,-0.301915,0.09083,-0.162687,-1.05416,0.633672,3.02378,-0.976606,-0.30923,0.0114739
5714032,0,-1.57064,-0.522783,-0.00032645,-2.09664,-1.56946,1.5714,0.785222,-1.5708,-0.523598,-4.37798e-09,-2.0944,-1.5708,1.5708,0.785398,-0.000928996,-0.000655253,0.000771405,5.11487e-05,-0.000196323,9.41182e-05,0.0014048,0,0,0,0,0,0,0,-0.101307,-10.1654,0.781009,21.543,-1.53319,-0.308324,0.0322363,-0.163338,-1.05348,0.632613,3.02327,-0.976585,-0.309286,0.0114201
5714033,0,-1.57063,-0.522778,-0.00032478,-2.09664,-1.56946,1.5714,0.785218,-1.5708,-0.523598,-4.37798e-09,-2.0944,-1.5708,1.5708,0.785398,0.000587095,0.0013264,0.00107083,3.40992e-05,-0.000130882,6.27455e-05,-0.000521526,0,0,0,0,0,0,0,-0.152882,-10.2408,0.757205,21.543,-1.53319,-0.308324,0.071604,-0.164541,-1.05303,0.630474,3.02301,-0.976595,-0.309446,0.01141
5714034,0,-1.57063,-0.522782,-0.000330069,-2.09664,-1.56946,1.5714,0.785223,-1.5708,-0.523598,-4.37798e-09,-2.0944,-1.5708,1.5708,0.785398,0.000391397,-0.000322157,-0.00104953,-0.000534079,0.000116196,-0.000195529,0.0015851,0,0,0,0,0,0,0,-0.152882,-10.1892,0.832583,21.5668,-1.53868,-0.301915,0.0194189,-0.16571,-1.05436,0.628405,3.02369,-0.976631,-0.309632,0.0114254
5714035,0,-1.57063,-0.522778,-0.000328399,-2.09664,-1.56946,1.5714,0.785217,-1.5708,-0.523598,-4.37798e-09,-2.0944,-1.5708,1.5708,0.785398,0.00146736,0.000991654,-0.000143016,-0.000912865,-0.000125987,-0.000130352,-0.00111341,0,0,0,0,0,0,0,-0.204456,-10.2408,0.80878,21.5906,-1.53319,-0.301915,0.0780126,-0.166379,-1.05712,0.627281,3.02535,-0.976675,-0.309755,0.0114394
5714036,0,-1.57063,-0.522778,-0.000328399,-2.09664,-1.56946,1.5714,0.785221,-1.5708,-0.523598,-4.37798e-09,-2.0944,-1.5708,1.5708,0.785398,-0.000228188,0.000661103,-9.5448e-05,-5.17645e-05,0.00032291,-8.69016e-05,0.000444523,0,0,0,0,0,0,0,-0.152882,-10.2408,0.80878,21.5668,-1.54417,-0.301915,0.0459692,-0.166719,-1.06116,0.626826,3.02782,-0.976726,-0.309828,0.0114358
5714037,0,-1.57063,-0.522782,-0.000330069,-2.09664,-1.56946,1.5714,0.785216,-1.5708,-0.523598,-4.37798e-09,-2.0944,-1.5708,1.5708,0.785398,-0.000152125,-0.000765691,-0.000620522,0.000522302,1.18227e-05,0.000416783,-0.00112781,0,0,0,0,0,0,0,-0.152882,-10.1892,0.832583,21.543,-1.53868,-0.314733,0.0844213,-0.166505,-1.06444,0.627167,3.02968,-0.97673,-0.309797,0.0114142
5714038,0,-1.57063,-0.522782,-0.000328399,-2.09664,-1.56946,1.5714,0.785222,-1.5708,-0.523598,-4.37798e-09,-2.0944,-1.5708,1.5708,0.785398,-0.000751031,-0.00051046,0.000143072,0.000997815,7.88182e-06,0.000277856,0.00118091,0,0,0,0,0,0,0,-0.125111,-10.1892,0.80878,21.5152,-1.53868,-0.314733,0.0322363,-0.16543,-1.06411,0.628597,3.0293,-0.976624,-0.309595,0.0113839
5714039,0,-1.57063,-0.522783,-0.000328399,-2.09664,-1.56946,1.5714,0.785221,-1.5708,-0.523598,-4.37798e-09,-2.0944,-1.5708,1.5708,0.785398,-0.000500687,-0.000897119,9.53374e-05,1.55964e-05,-0.000198196,-0.000289481,0.000549914,0,0,0,0,0,0,0,-0.125111,-10.1654,0.80878,21.543,-1.53319,-0.301915,0.038645,-0.163964,-1.06063,0.630384,3.02706,-0.976447,-0.309311,0.0113533
