shamilmamedov/beam_handling/log/param_estimation_ICRA/impulse_Z_1.csv
duration, success rate, q[0], q[1], q[2], q[3], q[4], q[5], q[6],q_d[0], q_d[1], q_d[2], q_d[3], q_d[4], q_d[5], q_d[6],dq[0], dq[1], dq[2], dq[3], dq[4], dq[5], dq[6],dq_d[0], dq_d[1], dq_d[2], dq_d[3], dq_d[4], dq_d[5], dq_d[6],tau_J[0], tau_J[1], tau_J[2], tau_J[3], tau_J[4], tau_J[5], tau_J[6],tau_ext_hat_filtered[0], tau_ext_hat_filtered[1], tau_ext_hat_filtered[2], tau_ext_hat_filtered[3], tau_ext_hat_filtered[4], tau_ext_hat_filtered[5], tau_ext_hat_filtered[6]
5623786,0,-1.57063,-0.522853,-2.31383e-05,-2.09654,-0.000225431,1.57132,0.785162,-1.5708,-0.523598,-1.78584e-08,-2.0944,2.6929e-08,1.5708,0.785398,0.000407003,0.00018733,0.000102478,-7.62426e-05,-0.000346299,-0.000355272,-0.000448246,0,0,0,0,0,0,0,-0.176685,-10.1654,-0.532163,21.5152,1.07973,1.28836,0.0972387,-0.148716,-1.03944,-0.0512708,2.97876,0.357614,-0.391268,0.0805827
5623787,0,-1.57063,-0.52285,-2.32963e-05,-2.09655,-0.000227304,1.57132,0.785162,-1.5708,-0.523598,-1.78584e-08,-2.0944,2.6929e-08,1.5708,0.785398,-0.00093509,0.00123851,6.83185e-05,-0.000700442,0.000209943,0.000475229,0.000887964,0,0,0,0,0,0,0,-0.125111,-10.213,-0.532163,21.543,1.06783,1.26913,0.0651953,-0.150246,-1.03876,-0.0533084,2.97855,0.357484,-0.39131,0.0806977
5623788,0,-1.57063,-0.522853,-2.50194e-05,-2.09655,-0.000225784,1.57132,0.785162,-1.5708,-0.523598,-1.78584e-08,-2.0944,2.6929e-08,1.5708,0.785398,0.000583032,-0.00028795,-0.000511266,-0.000466962,-6.34883e-05,7.94602e-05,-0.000120101,0,0,0,0,0,0,0,-0.176685,-10.1654,-0.508359,21.543,1.07332,1.27554,0.0844213,-0.150838,-1.04103,-0.0539955,2.97994,0.357438,-0.391213,0.0808156
5623789,0,-1.57063,-0.522852,-2.33665e-05,-2.09654,-0.000225786,1.57132,0.785164,-1.5708,-0.523598,-1.78584e-08,-2.0944,2.6929e-08,1.5708,0.785398,-0.000168124,0.000364845,0.000215968,0.000338306,-0.000279684,-0.000184385,0.000157292,0,0,0,0,0,0,0,-0.152882,-10.1892,-0.532163,21.5152,1.07973,1.28195,0.0780126,-0.150966,-1.04357,-0.0539521,2.98151,0.357424,-0.391103,0.0809209
5623790,0,-1.57063,-0.52285,-2.29123e-05,-2.09654,-0.000224837,1.57132,0.785166,-1.5708,-0.523598,-1.78584e-08,-2.0944,2.6929e-08,1.5708,0.785398,-0.000112082,0.000800042,-0.000412833,0.000782349,5.09026e-05,0.000114435,0.000816938,0,0,0,0,0,0,0,-0.152882,-10.213,-0.508359,21.4914,1.07332,1.27554,0.0587866,-0.15092,-1.04552,-0.0536122,2.98242,0.35741,-0.391071,0.0810065
5623791,0,-1.57063,-0.522858,-2.43346e-05,-2.09654,-0.000224758,1.57132,0.785156,-1.5708,-0.523598,-1.78584e-08,-2.0944,2.6929e-08,1.5708,0.785398,-7.47216e-05,-0.00122988,-0.000275222,-3.52457e-05,3.39351e-05,7.62902e-05,-0.00182896,0,0,0,0,0,0,0,-0.152882,-10.1377,-0.508359,21.5152,1.07332,1.27554,0.122873,-0.150554,-1.04637,-0.0527875,2.98244,0.357403,-0.391131,0.081062
5623792,0,-1.57063,-0.522854,-2.11894e-05,-2.09654,-0.000224732,1.57132,0.785166,-1.5708,-0.523598,-1.78584e-08,-2.0944,2.6929e-08,1.5708,0.785398,-0.000699428,-0.000170304,0.00102294,-2.34971e-05,2.26234e-05,-0.000186499,0.00139164,0,0,0,0,0,0,0,-0.125111,-10.1654,-0.559934,21.5152,1.07332,1.28195,0.0523779,-0.150213,-1.04501,-0.0520629,2.98151,0.357394,-0.391249,0.0810941
5623793,0,-1.57063,-0.522856,-2.66372e-05,-2.09655,-0.000223503,1.57132,0.785162,-1.5708,-0.523598,-1.78584e-08,-2.0944,2.6929e-08,1.5708,0.785398,0.000183328,-0.00076315,-0.00108127,-0.00122209,0.000421983,0.000113026,-0.000733753,0,0,0,0,0,0,0,-0.152882,-10.1377,-0.484555,21.5668,1.06233,1.27554,0.0972387,-0.15001,-1.04277,-0.0516459,2.98063,0.357391,-0.391329,0.0811248
5623794,0,-1.57063,-0.522854,-2.3349e-05,-2.09654,-0.000226696,1.57132,0.785164,-1.5708,-0.523598,-1.78584e-08,-2.0944,2.6929e-08,1.5708,0.785398,0.000122219,0.000140847,0.000392774,0.000948511,0.000281322,7.53509e-05,0.000222908,0,0,0,0,0,0,0,-0.152882,-10.1654,-0.532163,21.4914,1.06233,1.27554,0.0780126,-0.149731,-1.04082,-0.0510878,2.98016,0.357397,-0.391361,0.0811516
5623795,0,-1.57063,-0.522852,-2.33665e-05,-2.09654,-0.000227107,1.57132,0.785166,-1.5708,-0.523598,-1.78584e-08,-2.0944,2.6929e-08,1.5708,0.785398,-0.000568135,0.00065071,0.000261849,0.000632341,-0.000660162,0.000287593,0.000623323,0,0,0,0,0,0,0,-0.125111,-10.1892,-0.532163,21.4914,1.08522,1.26913,0.0651953,-0.149616,-1.03951,-0.0507761,2.97959,0.357375,-0.391438,0.0811765
5623796,0,-1.57063,-0.522852,-2.29123e-05,-2.09655,-0.00022827,1.57132,0.785163,-1.5708,-0.523598,-1.78584e-08,-2.0944,2.6929e-08,1.5708,0.785398,-0.000378756,0.000433807,-0.000382246,-0.00134168,7.01215e-07,-0.000282989,-0.000296528,0,0,0,0,0,0,0,-0.125111,-10.1892,-0.508359,21.5668,1.07332,1.28195,0.0844213,-0.149434,-1.04007,-0.0504877,2.9797,0.357355,-0.39149,0.0811976
5623797,0,-1.57063,-0.52285,-2.26642e-05,-2.09654,-0.000225292,1.57132,0.785161,-1.5708,-0.523598,-1.78584e-08,-2.0944,2.6929e-08,1.5708,0.785398,-0.000252504,0.000846017,0.000301981,0.000868786,0.000203918,4.86994e-05,3.96736e-05,0,0,0,0,0,0,0,-0.125111,-10.213,-0.532163,21.4914,1.06783,1.27554,0.0780126,-0.14896,-1.04268,-0.0498677,2.98103,0.357372,-0.391439,0.0812017
5623798,0,-1.57063,-0.522853,-2.11894e-05,-2.09654,-0.000225114,1.57132,0.78516,-1.5708,-0.523598,-1.78584e-08,-2.0944,2.6929e-08,1.5708,0.785398,-0.000168336,-0.000549613,0.000850935,0.000579191,-6.75052e-05,-0.000204893,-0.000922987,0,0,0,0,0,0,0,-0.125111,-10.1654,-0.559934,21.4914,1.07332,1.28195,0.103647,-0.148808,-1.04496,-0.0498364,2.98199,0.357366,-0.39143,0.0811919
5623799,0,-1.57063,-0.522853,-2.49667e-05,-2.09654,-0.000224851,1.57132,0.785164,-1.5708,-0.523598,-1.78584e-08,-2.0944,2.6929e-08,1.5708,0.785398,0.0010942,-0.000366409,-0.000639136,0.000386127,-4.50035e-05,-0.000136595,0.00152091,0,0,0,0,0,0,0,-0.176685,-10.1654,-0.508359,21.4914,1.07332,1.28195,0.0459692,-0.149251,-1.0448,-0.0507233,2.98149,0.3573,-0.391544,0.0811826
5623800,0,-1.57063,-0.522855,-2.50194e-05,-2.09655,-0.000224152,1.57132,0.78516,-1.5708,-0.523598,-1.78584e-08,-2.0944,2.6929e-08,1.5708,0.785398,0.000729468,-0.000893886,-0.000426091,-0.000949008,0.000173448,-0.000328422,-0.00112229,0,0,0,0,0,0,0,-0.176685,-10.1377,-0.508359,21.543,1.06783,1.28836,0.103647,-0.149882,-1.0428,-0.0517256,2.98035,0.357212,-0.391669,0.0811745
5623801,0,-1.57063,-0.522852,-1.92872e-05,-2.09654,-0.000223513,1.57132,0.785167,-1.5708,-0.523598,-1.78584e-08,-2.0944,2.6929e-08,1.5708,0.785398,0.000486312,0.000610502,0.000922365,0.000573754,0.000319083,1.84107e-05,0.00115068,0,0,0,0,0,0,0,-0.176685,-10.1892,-0.559934,21.4914,1.06233,1.28195,0.0523779,-0.150746,-1.0408,-0.0529292,2.97957,0.357124,-0.39172,0.0811586
5623802,0,-1.57064,-0.522855,-2.43327e-05,-2.09654,-0.000226657,1.57132,0.785163,-1.5708,-0.523598,-1.78584e-08,-2.0944,2.6929e-08,1.5708,0.785398,-0.00143903,-0.000799425,-0.000591516,0.000382503,-0.000838439,-0.000225085,-0.000657036,0,0,0,0,0,0,0,-0.101307,-10.1377,-0.508359,21.4914,1.09072,1.28836,0.09083,-0.15145,-1.03925,-0.0539782,2.97889,0.357043,-0.391751,0.0811311
5623803,0,-1.57063,-0.522852,-2.31376e-05,-2.09654,-0.000225433,1.57132,0.785161,-1.5708,-0.523598,-1.78584e-08,-2.0944,2.6929e-08,1.5708,0.785398,0.000247073,0.000673476,0.000162468,-0.00030181,-0.000152058,0.000324661,-0.000912742,0,0,0,0,0,0,0,-0.152882,-10.1892,-0.532163,21.5152,1.07973,1.27554,0.103647,-0.151196,-1.03803,-0.0537725,2.97818,0.357013,-0.391775,0.081085
5623804,0,-1.57063,-0.522852,-2.32961e-05,-2.09654,-0.000227915,1.57132,0.785163,-1.5708,-0.523598,-1.78584e-08,-2.0944,2.6929e-08,1.5708,0.785398,0.000721527,0.000448984,0.000108312,-0.000201207,0.000135987,0.000691159,0.00105302,0,0,0,0,0,0,0,-0.176685,-10.1892,-0.532163,21.5152,1.07332,1.26272,0.0587866,-0.150831,-1.03848,-0.0534006,2.97834,0.357024,-0.391717,0.0810414
5623805,0,-1.57063,-0.522852,-2.33489e-05,-2.09654,-0.00022837,1.57132,0.785162,-1.5708,-0.523598,-1.78584e-08,-2.0944,2.6929e-08,1.5708,0.785398,-7.57939e-05,0.000299323,7.22081e-05,0.000422674,0.000294108,-0.000488663,-0.000484783,0,0,0,0,0,0,0,-0.152882,-10.1892,-0.532163,21.4914,1.06783,1.28836,0.09083,-0.151026,-1.04042,-0.0537532,2.97918,0.357039,-0.39161,0.0810184
5623806,0,-1.57063,-0.52285,-2.14177e-05,-2.09654,-0.000226139,1.57132,0.785167,-1.5708,-0.523598,-1.78584e-08,-2.0944,2.6929e-08,1.5708,0.785398,-5.05293e-05,0.00075636,0.000697753,-0.000275029,-7.37834e-06,0.000148942,0.00110097,0,0,0,0,0,0,0,-0.152882,-10.213,-0.559934,21.5152,1.07332,1.27554,0.0523779,-0.151425,-1.04282,-0.0544073,2.98014,0.357054,-0.391504,0.081002
5623807,0,-1.57063,-0.522855,-2.33724e-05,-2.09654,-0.000225192,1.57132,0.785161,-1.5708,-0.523598,-1.78584e-08,-2.0944,2.6929e-08,1.5708,0.785398,-3.36862e-05,-0.001259,-0.000184445,-0.000183353,-4.91889e-06,9.92949e-05,-0.00140225,0,0,0,0,0,0,0,-0.152882,-10.1377,-0.532163,21.5152,1.07332,1.27554,0.110056,-0.151849,-1.04462,-0.0551583,2.98089,0.35707,-0.391408,0.0809766
5623808,0,-1.57063,-0.52285,-2.50448e-05,-2.09654,-0.000226852,1.57132,0.785161,-1.5708,-0.523598,-1.78584e-08,-2.0944,2.6929e-08,1.5708,0.785398,-2.24575e-05,0.000923906,-0.000679776,0.000434577,0.000403622,-0.000171162,-0.000697477,0,0,0,0,0,0,0,-0.152882,-10.213,-0.508359,21.4914,1.06233,1.28195,0.103647,-0.151832,-1.04492,-0.0552427,2.98097,0.357098,-0.39136,0.0809369
5623809,0,-1.57063,-0.522853,-2.12445e-05,-2.09654,-0.000227812,1.57132,0.785166,-1.5708,-0.523598,-1.78584e-08,-2.0944,2.6929e-08,1.5708,0.785398,-1.49716e-05,-0.000497686,0.000103628,-0.000267094,0.000269081,-0.000114108,0.000959169,0,0,0,0,0,0,0,-0.152882,-10.1654,-0.532163,21.5152,1.06233,1.28195,0.0651953,-0.151285,-1.04487,-0.0544803,2.98076,0.357137,-0.39134,0.0809123
5623810,0,-1.57063,-0.522855,-2.43355e-05,-2.09654,-0.000225547,1.57132,0.785161,-1.5708,-0.523598,-1.78584e-08,-2.0944,2.6929e-08,1.5708,0.785398,-9.98109e-06,-0.000981405,-0.000487726,0.000378749,-2.40631e-05,0.000161287,-0.000784708,0,0,0,0,0,0,0,-0.152882,-10.1377,-0.508359,21.4914,1.06783,1.27554,0.103647,-0.150632,-1.04383,-0.0535268,2.98007,0.357154,-0.391355,0.0809213
5623811,0,-1.57063,-0.522852,-2.31386e-05,-2.09655,-0.000225198,1.57132,0.785169,-1.5708,-0.523598,-1.78584e-08,-2.0944,2.6929e-08,1.5708,0.785398,-6.65406e-06,0.000552156,0.000231661,-0.000953926,-0.000219493,0.000107525,0.00188436,0,0,0,0,0,0,0,-0.152882,-10.1892,-0.532163,21.543,1.07332,1.27554,0.038645,-0.15006,-1.04189,-0.0526749,2.97909,0.357143,-0.391384,0.080954
5623812,0,-1.57063,-0.522853,-2.13476e-05,-2.09655,-0.000224879,1.57132,0.785161,-1.5708,-0.523598,-1.78584e-08,-2.0944,2.6929e-08,1.5708,0.785398,-4.43604e-06,-0.000188708,0.000804055,-0.000635951,-0.000146328,-0.000165676,-0.00138862,0,0,0,0,0,0,0,-0.152882,-10.1654,-0.559934,21.543,1.07332,1.28195,0.110056,-0.14996,-1.04149,-0.0525532,2.9792,0.357116,-0.391319,0.0809976
5623813,0,-1.57063,-0.522853,-2.3349e-05,-2.09654,-0.000224162,1.57132,0.785165,-1.5708,-0.523598,-1.78584e-08,-2.0944,2.6929e-08,1.5708,0.785398,-2.95736e-06,-0.000125805,-0.000113578,0.000225647,0.000105898,0.000126908,0.000498409,0,0,0,0,0,0,0,-0.152882,-10.1654,-0.532163,21.5152,1.06783,1.27554,0.071604,-0.150401,-1.04199,-0.0532866,2.97993,0.357069,-0.391209,0.0810326
5623814,0,-1.57063,-0.522857,-2.29065e-05,-2.09654,-0.000224126,1.57132,0.785163,-1.5708,-0.523598,-1.78584e-08,-2.0944,2.6929e-08,1.5708,0.785398,0.00055484,-0.0012903,-0.00063253,0.000150431,7.05988e-05,-0.000390112,-0.000142445,0,0,0,0,0,0,0,-0.176685,-10.1139,-0.508359,21.5152,1.06783,1.28836,0.0844213,-0.15076,-1.04099,-0.0538407,2.97973,0.357003,-0.39119,0.0810572
5623815,0,-1.57063,-0.522852,-2.43327e-05,-2.09654,-0.0002267,1.57132,0.785163,-1.5708,-0.523598,-1.78584e-08,-2.0944,2.6929e-08,1.5708,0.785398,-0.000186918,0.00090304,-0.000421687,0.000100287,0.000250516,0.000452002,-9.49635e-05,0,0,0,0,0,0,0,-0.152882,-10.1892,-0.508359,21.5152,1.06233,1.26913,0.0844213,-0.150667,-1.03894,-0.0535867,2.97881,0.356934,-0.391245,0.0810761
5623816,0,-1.57063,-0.522857,-2.48081e-05,-2.09654,-0.000225176,1.57132,0.785163,-1.5708,-0.523598,-1.78584e-08,-2.0944,2.6929e-08,1.5708,0.785398,-0.000124612,-0.00116121,-0.000281125,0.00062367,-3.64396e-05,6.39757e-05,0.000886127,0,0,0,0,0,0,0,-0.152882,-10.1139,-0.508359,21.4914,1.06783,1.27554,0.0587866,-0.150162,-1.03717,-0.0526516,2.97778,0.356872,-0.39133,0.0810898
5623817,0,-1.57063,-0.522853,-1.96768e-05,-2.09655,-0.000224464,1.57132,0.785162,-1.5708,-0.523598,-1.78584e-08,-2.0944,2.6929e-08,1.5708,0.785398,0.000473737,0.000432285,0.00157582,-0.000790646,-2.4293e-05,4.26505e-05,-0.000358685,0,0,0,0,0,0,0,-0.176685,-10.1654,-0.583737,21.543,1.06783,1.27554,0.0844213,-0.150127,-1.0355,-0.0524317,2.97679,0.356779,-0.391426,0.0810986
5623818,0,-1.57063,-0.522852,-2.50193e-05,-2.09654,-0.00022555,1.57132,0.785165,-1.5708,-0.523598,-1.78584e-08,-2.0944,2.6929e-08,1.5708,0.785398,0.000965439,0.000845002,-0.00071269,0.000679329,-0.000457005,0.000265793,0.000235595,0,0,0,0,0,0,0,-0.204456,-10.1892,-0.508359,21.4914,1.07973,1.26913,0.071604,-0.151194,-1.03538,-0.0537951,2.9767,0.356643,-0.391463,0.0810959
5623819,0,-1.57063,-0.522853,-2.33665e-05,-2.09654,-0.000224759,1.57132,0.785161,-1.5708,-0.523598,-1.78584e-08,-2.0944,2.6929e-08,1.5708,0.785398,-5.98815e-06,6.52282e-06,8.16851e-05,-0.000103926,-6.73109e-05,0.000177195,-0.00126709,0,0,0,0,0,0,0,-0.176685,-10.1654,-0.532163,21.5152,1.07332,1.26913,0.110056,-0.152425,-1.03706,-0.0552407,2.97735,0.356515,-0.391469,0.0810758
5623820,0,-1.57063,-0.522853,-2.14235e-05,-2.09654,-0.000225444,1.57132,0.785166,-1.5708,-0.523598,-1.78584e-08,-2.0944,2.6929e-08,1.5708,0.785398,-0.000560804,4.34854e-06,0.000704071,0.000487528,-0.000282233,-0.000356588,0.000816786,0,0,0,0,0,0,0,-0.152882,-10.1654,-0.559934,21.4914,1.07973,1.28195,0.0651953,-0.153246,-1.03854,-0.0560558,2.97781,0.356419,-0.391511,0.081049
5623821,0,-1.57063,-0.522853,-2.67152e-05,-2.09654,-0.000224723,1.57132,0.785163,-1.5708,-0.523598,-1.78584e-08,-2.0944,2.6929e-08,1.5708,0.785398,-0.000373869,2.89903e-06,-0.00129386,0.000881831,4.92037e-05,-3.66291e-07,-0.000167553,0,0,0,0,0,0,0,-0.152882,-10.1654,-0.484555,21.4676,1.07332,1.27554,0.0844213,-0.153403,-1.03892,-0.0559701,2.97759,0.356361,-0.391618,0.0810297
5623822,0,-1.57063,-0.522857,-2.50454e-05,-2.09654,-0.0002235,1.57132,0.785162,-1.5708,-0.523598,-1.78584e-08,-2.0944,2.6929e-08,1.5708,0.785398,-0.000249246,-0.00120449,-0.00030576,-0.000525737,0.000439703,-2.44194e-07,-0.00058642,0,0,0,0,0,0,0,-0.152882,-10.1139,-0.508359,21.5152,1.06233,1.27554,0.0972387,-0.152535,-1.03779,-0.054339,2.97658,0.356359,-0.391781,0.0810096
5623823,0,-1.57063,-0.522852,-2.29151e-05,-2.09654,-0.000227305,1.57132,0.785166,-1.5708,-0.523598,-1.78584e-08,-2.0944,2.6929e-08,1.5708,0.785398,-0.000166164,0.000960242,-0.00020384,0.000206321,8.96851e-05,-1.62796e-07,0.00103321,0,0,0,0,0,0,0,-0.152882,-10.1892,-0.508359,21.4914,1.06783,1.27554,0.0587866,-0.151321,-1.03622,-0.052147,2.97563,0.356391,-0.391911,0.0809943
5623824,0,-1.57063,-0.522852,-2.26651e-05,-2.09654,-0.000226496,1.57132,0.785161,-1.5708,-0.523598,-1.78584e-08,-2.0944,2.6929e-08,1.5708,0.785398,-0.000110776,0.000640162,0.000420919,-0.000419265,-0.000381019,-1.08531e-07,-0.000972708,0,0,0,0,0,0,0,-0.152882,-10.1892,-0.532163,21.5152,1.07973,1.27554,0.103647,-0.150568,-1.03674,-0.0506416,2.97586,0.356424,-0.391939,0.0809957
5623825,0,-1.57063,-0.522852,-2.4809e-05,-2.09655,-0.000225074,1.57132,0.785166,-1.5708,-0.523598,-1.78584e-08,-2.0944,2.6929e-08,1.5708,0.785398,-0.000723465,0.000426774,-0.000276199,-0.000929124,-1.6654e-05,-0.000237431,0.000775682,0,0,0,0,0,0,0,-0.125111,-10.1892,-0.508359,21.543,1.07332,1.28195,0.0651953,-0.150193,-1.03971,-0.0497631,2.97749,0.356468,-0.391846,0.0810071
5623826,0,-1.57063,-0.522853,-2.49668e-05,-2.09655,-0.000224227,1.57132,0.785165,-1.5708,-0.523598,-1.78584e-08,-2.0944,2.6929e-08,1.5708,0.785398,0.000724116,-0.000272296,-0.000184133,-0.00117623,0.000192348,-0.000158288,0.000279762,0,0,0,0,0,0,0,-0.176685,-10.1654,-0.508359,21.5668,1.06783,1.28195,0.071604,-0.149938,-1.04337,-0.0490867,2.97995,0.35653,-0.391651,0.081024
5623827,0,-1.57063,-0.522853,-2.3349e-05,-2.09655,-0.000224148,1.57132,0.785165,-1.5708,-0.523598,-1.78584e-08,-2.0944,2.6929e-08,1.5708,0.785398,-7.40679e-05,-0.00018153,0.000434057,-0.000784152,0.000128232,0.000369193,0.000186508,0,0,0,0,0,0,0,-0.152882,-10.1654,-0.532163,21.5668,1.06783,1.26913,0.071604,-0.150146,-1.04618,-0.0490434,2.98244,0.356576,-0.391426,0.0810345
5623828,0,-1.57063,-0.522855,-2.1236e-05,-2.09655,-0.000227318,1.57132,0.785163,-1.5708,-0.523598,-1.78584e-08,-2.0944,2.6929e-08,1.5708,0.785398,-4.93786e-05,-0.000770634,0.000289371,0.00612571,8.54879e-05,8.76963e-06,-0.000350379,0,0,0,0,0,0,0,-0.152882,-10.1377,-0.532163,21.543,1.06783,1.27554,0.0844213,-0.150909,-1.04505,-0.0498174,2.98196,0.356525,-0.391505,0.0810193
5623829,0,-1.57063,-0.52285,-2.43327e-05,-2.09654,-0.000225789,1.57132,0.785163,-1.5708,-0.523598,-1.78584e-08,-2.0944,2.6929e-08,1.5708,0.785398,-3.29191e-05,0.00124948,-0.000363898,0.00579787,-0.000146459,-0.000231513,-0.000233586,0,0,0,0,0,0,0,-0.152882,-10.213,-0.508359,21.4914,1.07332,1.28195,0.0844213,-0.151652,-1.03808,-0.0505656,2.97565,0.356325,-0.392236,0.080974
5623830,0,-1.57063,-0.522853,-2.48081e-05,-2.09654,-0.000224465,1.57132,0.785166,-1.5708,-0.523598,-1.78584e-08,-2.0944,2.6929e-08,1.5708,0.785398,-2.1946e-05,-0.000280636,-0.000242599,0.00424598,0.000105811,-0.000154342,0.000556353,0,0,0,0,0,0,0,-0.152882,-10.1654,-0.508359,21.4914,1.06783,1.28195,0.0651953,-0.151957,-1.02835,-0.0506243,2.96571,0.356042,-0.393398,0.0809131
5623831,0,-1.57064,-0.522853,-2.32961e-05,-2.09655,-0.000224838,1.57132,0.785159,-1.5708,-0.523598,-1.78584e-08,-2.0944,2.6929e-08,1.5708,0.785398,-0.00177787,-0.000187091,0.00039508,0.00190977,-0.00013291,-0.000102894,-0.00176533,0,0,0,0,0,0,0,-0.0775034,-10.1654,-0.532163,21.543,1.07332,1.28195,0.122873,-0.151682,-1.019,-0.0499456,2.95613,0.35579,-0.394516,0.080846
5623832,0,-1.57064,-0.522852,-2.14001e-05,-2.09655,-0.000225471,1.57132,0.78517,-1.5708,-0.523598,-1.78584e-08,-2.0944,2.6929e-08,1.5708,0.785398,-0.000628434,0.000432085,0.000913,0.00148734,-0.000325965,0.000168763,0.00241741,0,0,0,0,0,0,0,-0.101307,-10.1892,-0.559934,21.543,1.07973,1.27554,0.0258276,-0.151072,-1.01215,-0.0491352,2.94942,0.355627,-0.395295,0.0807892
5623833,0,-1.57063,-0.52285,-2.5037e-05,-2.09654,-0.000225444,1.57132,0.785161,-1.5708,-0.523598,-1.78584e-08,-2.0944,2.6929e-08,1.5708,0.785398,0.00134428,0.000844868,-0.000597759,0.0018018,-0.00021731,0.000349867,-0.00150797,0,0,0,0,0,0,0,-0.176685,-10.213,-0.508359,21.5152,1.07973,1.26913,0.110056,-0.15085,-1.00941,-0.0490859,2.94635,0.355531,-0.39569,0.0807535
5623834,0,-1.57064,-0.522853,-2.33724e-05,-2.09654,-0.000224723,1.57133,0.785163,-1.5708,-0.523598,-1.78584e-08,-2.0944,2.6929e-08,1.5708,0.785398,-0.00086705,-0.000550378,0.000158306,0.00132166,9.24855e-05,-4.11403e-06,-5.58777e-05,0,0,0,0,0,0,0,-0.101307,-10.1654,-0.532163,21.5152,1.07332,1.27554,0.0844213,-0.150984,-1.00932,-0.0495119,2.94568,0.355483,-0.395835,0.0807171
5623835,0,-1.57063,-0.522855,-2.50448e-05,-2.09654,-0.00022411,1.57132,0.785162,-1.5708,-0.523598,-1.78584e-08,-2.0944,2.6929e-08,1.5708,0.785398,-2.12213e-05,-0.00101653,-0.000451275,0.00152827,0.000265108,-0.000477461,-0.00051197,0,0,0,0,0,0,0,-0.125111,-10.1377,-0.508359,21.4914,1.06783,1.28836,0.0972387,-0.150771,-1.00883,-0.0495017,2.94571,0.355488,-0.395867,0.0806804
5623836,0,-1.57063,-0.522853,-2.3375e-05,-2.09655,-0.000224719,1.57132,0.785162,-1.5708,-0.523598,-1.78584e-08,-2.0944,2.6929e-08,1.5708,0.785398,0.00119228,-2.80746e-05,0.000255962,-0.000119818,-2.67122e-05,-0.000318307,-0.000341313,0,0,0,0,0,0,0,-0.176685,-10.1654,-0.532163,21.543,1.07332,1.28836,0.0972387,-0.150584,-1.00775,-0.0495761,2.94634,0.35552,-0.395783,0.0806693
5623837,0,-1.57063,-0.522852,-2.50456e-05,-2.09654,-0.000224719,1.57132,0.785164,-1.5708,-0.523598,-1.78584e-08,-2.0944,2.6929e-08,1.5708,0.785398,0.00023804,0.000538096,-0.00038617,0.00173418,-1.78081e-05,0.000499872,0.000484535,0,0,0,0,0,0,0,-0.152882,-10.1892,-0.508359,21.4676,1.07332,1.26913,0.0780126,-0.150957,-1.00838,-0.0503823,2.94837,0.355556,-0.395541,0.0807014
5623838,0,-1.57063,-0.522853,-2.33753e-05,-2.09655,-0.000227915,1.57132,0.785161,-1.5708,-0.523598,-1.78584e-08,-2.0944,2.6929e-08,1.5708,0.785398,-0.00049092,-0.000198082,0.000299365,-0.00717232,-1.18721e-05,-0.00014147,-0.000626413,0,0,0,0,0,0,0,-0.125111,-10.1654,-0.532163,21.5668,1.07332,1.28195,0.103647,-0.151319,-1.01317,-0.05119,2.95376,0.355673,-0.394947,0.0807772
5623839,0,-1.57063,-0.522852,-2.33753e-05,-2.09655,-0.000224564,1.57132,0.785166,-1.5708,-0.523598,-1.78584e-08,-2.0944,2.6929e-08,1.5708,0.785398,-0.00032728,0.000424758,0.000199577,-0.00470003,0.000398986,-0.000331672,0.0012439,0,0,0,0,0,0,0,-0.125111,-10.1892,-0.532163,21.543,1.06233,1.28836,0.0587866,-0.151324,-1.02409,-0.0516578,2.96507,0.355953,-0.393705,0.08089
5623840,0,-1.57063,-0.522852,-2.33753e-05,-2.09654,-0.00022827,1.57132,0.785161,-1.5708,-0.523598,-1.78584e-08,-2.0944,2.6929e-08,1.5708,0.785398,0.000431427,0.000283172,0.000133051,-0.00228339,-0.00014091,1.62442e-05,-0.000832243,0,0,0,0,0,0,0,-0.152882,-10.1892,-0.532163,21.4914,1.07332,1.28195,0.103647,-0.151302,-1.0384,-0.0522011,2.97953,0.356304,-0.392118,0.0810256
5623841,0,-1.57063,-0.522857,-2.50458e-05,-2.09654,-0.00022981,1.57132,0.785164,-1.5708,-0.523598,-1.78584e-08,-2.0944,2.6929e-08,1.5708,0.785398,0.00084443,-0.00157446,-0.000468111,-0.00178961,-0.000331299,0.000248188,0.000394607,0,0,0,0,0,0,0,-0.176685,-10.1139,-0.508359,21.4914,1.07973,1.27554,0.0780126,-0.151479,-1.0499,-0.0529378,2.9916,0.356581,-0.390769,0.0811609
5623842,0,-1.57063,-0.52285,-2.50458e-05,-2.09655,-0.000226179,1.57132,0.785166,-1.5708,-0.523598,-1.78584e-08,-2.0944,2.6929e-08,1.5708,0.785398,6.14139e-06,0.00127041,-0.000312074,-0.00315682,1.64929e-05,-7.19e-05,0.000737789,0,0,0,0,0,0,0,-0.152882,-10.213,-0.508359,21.5668,1.07332,1.28195,0.0651953,-0.151612,-1.05759,-0.0534271,3.00044,0.356784,-0.389745,0.0812909
5623843,0,-1.57063,-0.522855,-1.9756e-05,-2.09654,-0.000223985,1.57132,0.785162,-1.5708,-0.523598,-1.78584e-08,-2.0944,2.6929e-08,1.5708,0.785398,4.09426e-06,-0.000916297,0.00155519,-0.000491696,0.000417896,-4.79333e-05,-0.000694935,0,0,0,0,0,0,0,-0.152882,-10.1377,-0.583737,21.4914,1.06233,1.28195,0.0972387,-0.151879,-1.06368,-0.0540742,3.00721,0.356934,-0.388952,0.0814105
5623844,0,-1.57063,-0.52285,-2.50458e-05,-2.09654,-0.000225593,1.57132,0.785167,-1.5708,-0.523598,-1.78584e-08,-2.0944,2.6929e-08,1.5708,0.785398,0.000559541,0.00115237,-0.000726446,0.000116226,-0.000365662,0.000205403,0.00119822,0,0,0,0,0,0,0,-0.176685,-10.213,-0.508359,21.4676,1.07973,1.27554,0.0523779,-0.152592,-1.06732,-0.0553859,3.011,0.356992,-0.388499,0.0815081
5623845,0,-1.57063,-0.522852,-2.33753e-05,-2.09654,-0.000224773,1.57132,0.785162,-1.5708,-0.523598,-1.78584e-08,-2.0944,2.6929e-08,1.5708,0.785398,-0.000183784,0.000211437,7.25149e-05,-0.000563919,-6.41602e-06,0.000136936,-0.000862698,0,0,0,0,0,0,0,-0.152882,-10.1892,-0.532163,21.4914,1.07332,1.27554,0.0972387,-0.153045,-1.06906,-0.0562089,3.01204,0.356992,-0.388369,0.0815771
5623846,0,-1.57063,-0.522852,-1.9756e-05,-2.09655,-0.000225449,1.57132,0.785162,-1.5708,-0.523598,-1.78584e-08,-2.0944,2.6929e-08,1.5708,0.785398,-0.000122523,0.000140958,0.00125477,-0.00164582,-0.000241636,9.12904e-05,0.000374304,0,0,0,0,0,0,0,-0.152882,-10.1892,-0.583737,21.543,1.07973,1.27554,0.071604,-0.15328,-1.07029,-0.0566982,3.01204,0.356985,-0.388364,0.0816153
5623847,0,-1.57063,-0.522852,-2.14265e-05,-2.09655,-0.000224725,1.57132,0.78516,-1.5708,-0.523598,-1.78584e-08,-2.0944,2.6929e-08,1.5708,0.785398,-8.16819e-05,9.3972e-05,0.000279701,-0.00114479,7.62681e-05,0.000535578,-0.00117462,0,0,0,0,0,0,0,-0.152882,-10.1892,-0.559934,21.543,1.07332,1.26272,0.110056,-0.153875,-1.07101,-0.0578359,3.0118,0.356971,-0.38838,0.081634
5623848,0,-1.57063,-0.522855,-2.50458e-05,-2.09654,-0.000228629,1.57132,0.785162,-1.5708,-0.523598,-1.78584e-08,-2.0944,2.6929e-08,1.5708,0.785398,0.00115197,-0.00114378,-0.00101996,-0.000149268,-0.000186514,-0.000117666,0.000878434,0,0,0,0,0,0,0,-0.204456,-10.1377,-0.508359,21.5152,1.07973,1.27554,0.0651953,-0.154375,-1.07004,-0.0587689,3.01063,0.356958,-0.388486,0.0816464
5623849,0,-1.57063,-0.522853,-2.14265e-05,-2.09654,-0.00022776,1.57132,0.785171,-1.5708,-0.523598,-1.78584e-08,-2.0944,2.6929e-08,1.5708,0.785398,-0.000438445,-0.000112905,0.000526453,0.00154416,0.000519918,-7.84439e-05,0.00275576,0,0,0,0,0,0,0,-0.152882,-10.1654,-0.559934,21.4438,1.06233,1.27554,0.00660151,-0.15446,-1.06572,-0.0588949,3.00718,0.35692,-0.388832,0.0816584
5623850,0,-1.57063,-0.522853,-2.14265e-05,-2.09654,-0.000224919,1.57132,0.785161,-1.5708,-0.523598,-1.78584e-08,-2.0944,2.6929e-08,1.5708,0.785398,0.000264515,-7.52698e-05,0.000350969,-0.000661071,0.000346612,-0.000289655,-0.00175712,0,0,0,0,0,0,0,-0.176685,-10.1654,-0.559934,21.5152,1.06233,1.28195,0.103647,-0.154515,-1.05976,-0.058946,3.00222,0.356849,-0.389352,0.0816355
5623851,0,-1.57063,-0.522853,-1.9756e-05,-2.09654,-0.000226515,1.57132,0.785166,-1.5708,-0.523598,-1.78584e-08,-2.0944,2.6929e-08,1.5708,0.785398,-0.000380468,-5.01798e-05,0.000790791,0.000657855,-0.000616636,4.42557e-05,0.000490101,0,0,0,0,0,0,0,-0.152882,-10.1654,-0.583737,21.4676,1.08522,1.27554,0.0587866,-0.154837,-1.05456,-0.0594787,2.99755,0.356768,-0.38986,0.0815404
5623852,0,-1.57063,-0.522852,-2.14265e-05,-2.09654,-0.000225589,1.57132,0.785158,-1.5708,-0.523598,-1.78584e-08,-2.0944,2.6929e-08,1.5708,0.785398,-0.00090326,0.000523359,-2.96178e-05,0.000427278,-0.00020764,0.000266863,-0.00252157,0,0,0,0,0,0,0,-0.125111,-10.1892,-0.559934,21.4676,1.07973,1.26913,0.135691,-0.154991,-1.05056,-0.0599091,2.99342,0.356704,-0.390327,0.081391
5623853,0,-1.57063,-0.522853,-2.50458e-05,-2.09654,-0.000224772,1.57132,0.785166,-1.5708,-0.523598,-1.78584e-08,-2.0944,2.6929e-08,1.5708,0.785398,-0.000602173,-0.000207906,-0.00122617,-0.00083724,9.89322e-05,0.000177908,0.000929899,0,0,0,0,0,0,0,-0.125111,-10.1654,-0.508359,21.5152,1.07332,1.26913,0.0651953,-0.154047,-1.04797,-0.0588515,2.99004,0.356718,-0.390728,0.08123
5623854,0,-1.57063,-0.522852,-2.14265e-05,-2.09654,-0.000222295,1.57132,0.785165,-1.5708,-0.523598,-1.78584e-08,-2.0944,2.6929e-08,1.5708,0.785398,0.000248165,0.000418208,0.000388979,-0.000564512,0.000879757,-0.000118753,0.000382574,0,0,0,0,0,0,0,-0.152882,-10.1892,-0.559934,21.5152,1.05135,1.27554,0.071604,-0.152323,-1.04693,-0.0566582,2.98797,0.356804,-0.39099,0.0811
5623855,0,-1.57063,-0.522853,-2.14265e-05,-2.09654,-0.000225437,1.57132,0.785165,-1.5708,-0.523598,-1.78584e-08,-2.0944,2.6929e-08,1.5708,0.785398,-0.00048417,-0.000278007,0.000259319,-0.000381105,-0.000464656,-0.000316528,0.000255049,0,0,0,0,0,0,0,-0.125111,-10.1654,-0.559934,21.5152,1.07973,1.28195,0.071604,-0.151088,-1.04685,-0.0552237,2.98689,0.356878,-0.391146,0.0810061
5623856,0,-1.57063,-0.522856,-2.14265e-05,-2.09654,-0.000225433,1.57132,0.785166,-1.5708,-0.523598,-1.78584e-08,-2.0944,2.6929e-08,1.5708,0.785398,0.000326834,-0.000185338,0.000172879,0.000299169,-0.000309771,2.63404e-05,0.000644751,0,0,0,0,0,0,0,-0.152882,-10.1654,-0.559934,21.4914,1.07973,1.27554,0.0587866,-0.150572,-1.04636,-0.0549463,2.9858,0.356902,-0.391298,0.0809226
5623857,0,-1.57063,-0.522853,-2.12448e-05,-2.09654,-0.00022472,1.57132,0.785162,-1.5708,-0.523598,-1.78584e-08,-2.0944,2.6929e-08,1.5708,0.785398,0.000774701,0.000433253,-0.000534361,-0.000360045,3.0845e-05,-0.000219799,-0.00099432,0,0,0,0,0,0,0,-0.176685,-10.1892,-0.532163,21.5152,1.07332,1.28195,0.0972387,-0.150487,-1.04547,-0.055283,2.98449,0.35689,-0.391469,0.08083
5623858,0,-1.57063,-0.52285,-1.90459e-05,-2.09654,-0.000224719,1.57132,0.785163,-1.5708,-0.523598,-1.78584e-08,-2.0944,2.6929e-08,1.5708,0.785398,-0.000689959,0.000845648,0.000850185,-0.00024204,2.05633e-05,9.08265e-05,-0.000188162,0,0,0,0,0,0,0,-0.125111,-10.213,-0.583737,21.5152,1.07332,1.27554,0.0844213,-0.150675,-1.04589,-0.0559871,2.98385,0.35688,-0.391582,0.0807257
5623859,0,-1.57063,-0.522852,-2.10081e-05,-2.09655,-0.000222888,1.57132,0.785164,-1.5708,-0.523598,-1.78584e-08,-2.0944,2.6929e-08,1.5708,0.785398,-0.000459972,6.95309e-06,-0.000639636,-0.00136929,0.00062406,6.0551e-05,0.000111918,0,0,0,0,0,0,0,-0.125111,-10.1892,-0.532163,21.5668,1.05684,1.27554,0.0780126,-0.150657,-1.04796,-0.0565237,2.9843,0.356907,-0.39159,0.0806272
5623860,0,-1.57063,-0.522852,-2.25862e-05,-2.09655,-0.000224109,1.57132,0.785166,-1.5708,-0.523598,-1.78584e-08,-2.0944,2.6929e-08,1.5708,0.785398,-0.000306648,4.63539e-06,-0.000426424,-0.00035718,9.13925e-06,-0.000434351,0.00054933,0,0,0,0,0,0,0,-0.125111,-10.1892,-0.532163,21.543,1.06783,1.28836,0.0651953,-0.149937,-1.05025,-0.0561407,2.9853,0.356972,-0.391523,0.0805422
5623861,0,-1.57063,-0.522852,-2.09818e-05,-2.09654,-0.000223498,1.57132,0.785168,-1.5708,-0.523598,-1.78584e-08,-2.0944,2.6929e-08,1.5708,0.785398,0.00100199,3.09026e-06,-0.000284283,0.000410646,0.000209543,0.000185151,0.0010783,0,0,0,0,0,0,0,-0.176685,-10.1892,-0.532163,21.5152,1.06233,1.27554,0.0459692,-0.149009,-1.05135,-0.0553983,2.98575,0.357012,-0.391495,0.080462
5623862,0,-1.57063,-0.522852,-2.25775e-05,-2.09654,-0.000228627,1.57132,0.785159,-1.5708,-0.523598,-1.78584e-08,-2.0944,2.6929e-08,1.5708,0.785398,0.00131761,2.06017e-06,-0.000189522,0.00082994,-0.000504564,-0.000351284,-0.00212944,0,0,0,0,0,0,0,-0.204456,-10.1892,-0.532163,21.4914,1.07973,1.28836,0.122873,-0.148881,-1.05075,-0.0556216,2.98493,0.356958,-0.391595,0.0803666
5623863,0,-1.57063,-0.522854,-2.47798e-05,-2.09655,-0.000229692,1.57132,0.785165,-1.5708,-0.523598,-1.78584e-08,-2.0944,2.6929e-08,1.5708,0.785398,-0.000328019,1.37345e-06,-0.00068316,-0.00065361,-0.000336376,3.16962e-06,0.000479243,0,0,0,0,0,0,0,-0.152882,-10.1892,-0.508359,21.543,1.07973,1.28195,0.071604,-0.149255,-1.04924,-0.0563651,2.98342,0.356853,-0.391756,0.0802545
5623864,0,-1.57064,-0.522853,-2.49571e-05,-2.09655,-0.000226851,1.57132,0.785161,-1.5708,-0.523598,-1.78584e-08,-2.0944,2.6929e-08,1.5708,0.785398,-0.00142511,9.15633e-07,-0.00045544,-0.000436097,-0.000224251,0.000239472,-0.00110466,0,0,0,0,0,0,0,-0.101307,-10.1892,-0.508359,21.543,1.07973,1.27554,0.110056,-0.148808,-1.04812,-0.0559087,2.9824,0.356808,-0.391848,0.0801534
5623865,0,-1.57063,-0.522852,-2.50162e-05,-2.09655,-0.000225192,1.57132,0.785165,-1.5708,-0.523598,-1.78584e-08,-2.0944,2.6929e-08,1.5708,0.785398,0.000256356,6.10422e-07,-0.000303627,-0.000847812,8.78584e-05,0.000159648,0.000687715,0,0,0,0,0,0,0,-0.152882,-10.1892,-0.508359,21.5668,1.07332,1.27554,0.071604,-0.147491,-1.04777,-0.0542654,2.98218,0.356844,-0.391844,0.0800857
5623866,0,-1.57063,-0.522854,-2.33655e-05,-2.09655,-0.000228785,1.57132,0.785165,-1.5708,-0.523598,-1.78584e-08,-2.0944,2.6929e-08,1.5708,0.785398,-0.00047871,-0.000556405,0.000354394,-8.59709e-06,-0.000178787,0.000106432,0.000458476,0,0,0,0,0,0,0,-0.125111,-10.1654,-0.532163,21.543,1.07973,1.27554,0.071604,-0.146448,-1.04736,-0.0530256,2.98222,0.35689,-0.391812,0.0800617
5623867,0,-1.57063,-0.522852,-2.3372e-05,-2.09655,-0.000227202,1.57132,0.785165,-1.5708,-0.523598,-1.78584e-08,-2.0944,2.6929e-08,1.5708,0.785398,0.000330474,0.000185875,0.000236263,-5.88229e-06,0.000728519,7.09547e-05,0.000305651,0,0,0,0,0,0,0,-0.152882,-10.1892,-0.532163,21.543,1.05684,1.27554,0.071604,-0.146225,-1.04624,-0.0529725,2.98193,0.3569,-0.391822,0.0800669
5623868,0,-1.57063,-0.522855,-2.50447e-05,-2.09655,-0.000228742,1.57132,0.785162,-1.5708,-0.523598,-1.78584e-08,-2.0944,2.6929e-08,1.5708,0.785398,0.000220316,-0.00108251,-0.000399303,-4.03469e-06,7.87785e-05,4.73031e-05,-0.000745668,0,0,0,0,0,0,0,-0.152882,-10.1377,-0.508359,21.543,1.06783,1.27554,0.0972387,-0.14659,-1.04428,-0.0537074,2.98114,0.356873,-0.391895,0.0800734
5623869,0,-1.57064,-0.522853,-2.50454e-05,-2.09655,-0.000225043,1.57132,0.785159,-1.5708,-0.523598,-1.78584e-08,-2.0944,2.6929e-08,1.5708,0.785398,-0.00105955,-7.20587e-05,-0.000266202,-2.77467e-06,0.00025597,3.15354e-05,-0.00144655,0,0,0,0,0,0,0,-0.101307,-10.1654,-0.508359,21.543,1.06233,1.27554,0.122873,-0.146746,-1.04143,-0.0540735,2.97992,0.356838,-0.392016,0.080074
5623870,0,-1.57063,-0.522852,-2.12447e-05,-2.09655,-0.000225234,1.57132,0.785167,-1.5708,-0.523598,-1.78584e-08,-2.0944,2.6929e-08,1.5708,0.785398,0.00050006,0.000508773,0.000379344,-0.000558725,-0.000236255,-0.000216335,0.00164658,0,0,0,0,0,0,0,-0.152882,-10.1892,-0.532163,21.5668,1.07332,1.28195,0.0523779,-0.146568,-1.03945,-0.0539811,2.97923,0.356809,-0.392107,0.0801015
5623871,0,-1.57063,-0.522852,-2.26651e-05,-2.09654,-0.000225603,1.57132,0.785162,-1.5708,-0.523598,-1.78584e-08,-2.0944,2.6929e-08,1.5708,0.785398,0.000333373,0.000339182,0.000252896,0.00139071,-0.000394862,9.31354e-05,-0.000563791,0,0,0,0,0,0,0,-0.152882,-10.1892,-0.532163,21.4914,1.07973,1.27554,0.0972387,-0.146906,-1.0393,-0.0546278,2.97932,0.356747,-0.392165,0.0801788
5623872,0,-1.57063,-0.522853,-2.4809e-05,-2.09654,-0.000225488,1.57132,0.785168,-1.5708,-0.523598,-1.78584e-08,-2.0944,2.6929e-08,1.5708,0.785398,-0.000427365,-0.000330691,-0.000388215,0.00037029,-0.000263241,0.000299449,0.00152301,0,0,0,0,0,0,0,-0.125111,-10.1654,-0.508359,21.5152,1.07973,1.26913,0.0459692,-0.147521,-1.03911,-0.0556324,2.97896,0.356648,-0.3923,0.0802778
5623873,0,-1.57063,-0.522855,-2.32964e-05,-2.09655,-0.000227934,1.57132,0.785162,-1.5708,-0.523598,-1.78584e-08,-2.0944,2.6929e-08,1.5708,0.785398,-0.00028491,-0.000870074,0.000298002,-0.000402781,6.18647e-05,-0.000512444,-0.000883531,0,0,0,0,0,0,0,-0.125111,-10.1377,-0.532163,21.543,1.07332,1.28836,0.0972387,-0.147701,-1.03768,-0.056033,2.97799,0.356569,-0.392482,0.0803643
5623874,0,-1.57063,-0.522848,-1.92696e-05,-2.09654,-0.000225791,1.57132,0.785162,-1.5708,-0.523598,-1.78584e-08,-2.0944,2.6929e-08,1.5708,0.785398,0.00101649,0.0018328,0.000848282,0.000381073,4.12431e-05,-0.00010427,-0.000589021,0,0,0,0,0,0,0,-0.176685,-10.2408,-0.559934,21.5152,1.07332,1.28195,0.0972387,-0.148158,-1.03696,-0.0568765,2.97772,0.356509,-0.392581,0.0804291
5623875,0,-1.57064,-0.522852,-1.70883e-05,-2.09655,-0.000225076,1.57132,0.785164,-1.5708,-0.523598,-1.78584e-08,-2.0944,2.6929e-08,1.5708,0.785398,-0.00108558,1.54422e-05,0.00177195,-0.000952392,2.74954e-05,-6.95136e-05,0.000319396,0,0,0,0,0,0,0,-0.101307,-10.1892,-0.611508,21.5668,1.07332,1.28195,0.0780126,-0.149607,-1.03911,-0.0592819,2.97903,0.356446,-0.392536,0.0804936
5623876,0,-1.57063,-0.522852,-2.31357e-05,-2.09654,-0.000223007,1.57132,0.785163,-1.5708,-0.523598,-1.78584e-08,-2.0944,2.6929e-08,1.5708,0.785398,0.000482706,1.02948e-05,-0.000674742,0.000571486,0.000628682,-4.63424e-05,-2.4428e-05,0,0,0,0,0,0,0,-0.152882,-10.1892,-0.532163,21.5152,1.05684,1.28195,0.0844213,-0.151175,-1.04214,-0.0620498,2.98096,0.356399,-0.392418,0.0805693
5623877,0,-1.57063,-0.52285,-2.49659e-05,-2.09655,-0.000223538,1.57132,0.785163,-1.5708,-0.523598,-1.78584e-08,-2.0944,2.6929e-08,1.5708,0.785398,0.000878616,0.000563675,-0.00100664,-0.000825443,0.000215671,-3.08949e-05,0.00093315,0,0,0,0,0,0,0,-0.176685,-10.213,-0.508359,21.5668,1.06233,1.28195,0.0587866,-0.151814,-1.04445,-0.0633713,2.98258,0.356386,-0.3923,0.0806431
5623878,0,-1.57063,-0.522852,-2.33487e-05,-2.09654,-0.000224732,1.57132,0.785162,-1.5708,-0.523598,-1.78584e-08,-2.0944,2.6929e-08,1.5708,0.785398,-0.000620682,-0.000181029,-0.000114281,0.000656124,-0.000263121,-2.05966e-05,-0.000564694,0,0,0,0,0,0,0,-0.125111,-10.1892,-0.532163,21.5152,1.07332,1.28195,0.09083,-0.151458,-1.04645,-0.0630466,2.98399,0.356396,-0.392183,0.0807008
5623879,0,-1.57063,-0.522853,-2.67073e-05,-2.09654,-0.000225435,1.57132,0.785166,-1.5708,-0.523598,-1.78584e-08,-2.0944,2.6929e-08,1.5708,0.785398,0.000235826,-0.000677498,-0.00118981,0.000994223,-0.000412773,0.000223628,0.000810332,0,0,0,0,0,0,0,-0.152882,-10.1654,-0.484555,21.4914,1.07973,1.27554,0.0587866,-0.150285,-1.04649,-0.0614874,2.98413,0.356404,-0.392172,0.0807299
5623880,0,-1.57063,-0.522852,-2.50428e-05,-2.09654,-0.000225433,1.57132,0.785161,-1.5708,-0.523598,-1.78584e-08,-2.0944,2.6929e-08,1.5708,0.785398,0.000714029,0.000105147,-0.000236396,0.000106,-0.000275182,0.000149085,-0.00135865,0,0,0,0,0,0,0,-0.176685,-10.1892,-0.508359,21.5152,1.07973,1.27554,0.110056,-0.148811,-1.04434,-0.0593815,2.98282,0.356394,-0.392286,0.0807305
5623881,0,-1.57063,-0.522855,-2.14255e-05,-2.09655,-0.000225432,1.57132,0.785161,-1.5708,-0.523598,-1.78584e-08,-2.0944,2.6929e-08,1.5708,0.785398,-8.07925e-05,-0.00113633,0.00104883,-0.00113576,-0.000183455,9.93902e-05,-0.000668408,0,0,0,0,0,0,0,-0.152882,-10.1377,-0.559934,21.5668,1.07973,1.27554,0.103647,-0.148117,-1.04184,-0.058333,2.98164,0.356369,-0.392369,0.0807208
5623882,0,-1.57063,-0.522852,-2.67159e-05,-2.09654,-0.000227305,1.57132,0.785168,-1.5708,-0.523598,-1.78584e-08,-2.0944,2.6929e-08,1.5708,0.785398,-5.38617e-05,0.000448874,-0.00106402,0.000449249,0.000318506,-0.000171099,0.00169063,0,0,0,0,0,0,0,-0.152882,-10.1892,-0.484555,21.5152,1.06783,1.28195,0.0459692,-0.148082,-1.03982,-0.0582626,2.98119,0.356354,-0.392364,0.0807322
5623883,0,-1.57063,-0.522852,-2.29151e-05,-2.09654,-0.00022837,1.57132,0.785163,-1.5708,-0.523598,-1.78584e-08,-2.0944,2.6929e-08,1.5708,0.785398,-3.59078e-05,0.000299249,-0.000152534,0.000299498,0.000212338,0.000123293,-0.00029707,0,0,0,0,0,0,0,-0.152882,-10.1892,-0.508359,21.5152,1.06783,1.27554,0.0844213,-0.147691,-1.03897,-0.0575927,2.98119,0.356376,-0.392336,0.080765
5623884,0,-1.57063,-0.522853,-2.26651e-05,-2.09655,-0.000226139,1.57132,0.785166,-1.5708,-0.523598,-1.78584e-08,-2.0944,2.6929e-08,1.5708,0.785398,-0.000673552,-0.000357312,0.000455123,-0.00100676,-6.18921e-05,-0.000155164,0.000751389,0,0,0,0,0,0,0,-0.125111,-10.1654,-0.532163,21.5668,1.07332,1.28195,0.0587866,-0.147095,-1.03931,-0.0565833,2.98166,0.356423,-0.392281,0.0807895
5623885,0,-1.57063,-0.522853,-2.4809e-05,-2.09654,-0.000229711,1.57132,0.785161,-1.5708,-0.523598,-1.78584e-08,-2.0944,2.6929e-08,1.5708,0.785398,0.000200579,-0.000238208,-0.000253397,0.00109206,-0.000482071,-0.000103442,-0.00139795,0,0,0,0,0,0,0,-0.152882,-10.1654,-0.508359,21.4914,1.08522,1.28195,0.110056,-0.146732,-1.03951,-0.0559632,2.98219,0.356465,-0.392217,0.0807895
5623886,0,-1.57063,-0.522852,-2.13476e-05,-2.09654,-0.000224721,1.57132,0.785163,-1.5708,-0.523598,-1.78584e-08,-2.0944,2.6929e-08,1.5708,0.785398,0.000133719,0.000398006,0.00103749,0.00128485,0.00052633,0.000168397,1.74721e-05,0,0,0,0,0,0,0,-0.152882,-10.1892,-0.559934,21.4676,1.06233,1.27554,0.0844213,-0.146881,-1.03877,-0.0560794,2.98178,0.356465,-0.392256,0.0807731
5623887,0,-1.57063,-0.522853,-2.50195e-05,-2.09655,-0.000225839,1.57132,0.785161,-1.5708,-0.523598,-1.78584e-08,-2.0944,2.6929e-08,1.5708,0.785398,8.91462e-05,-0.000291474,-0.000514763,-0.00090667,-0.000293373,-0.000125094,-0.000937788,0,0,0,0,0,0,0,-0.152882,-10.1654,-0.508359,21.543,1.07973,1.28195,0.110056,-0.147555,-1.03799,-0.0569273,2.98099,0.356438,-0.392343,0.0807675
5623888,0,-1.57063,-0.522852,-2.1236e-05,-2.09655,-0.000225567,1.57132,0.785165,-1.5708,-0.523598,-1.78584e-08,-2.0944,2.6929e-08,1.5708,0.785398,0.000616243,0.000362496,0.000213637,-0.000604447,-0.000195582,0.000391322,0.00201966,0,0,0,0,0,0,0,-0.176685,-10.1892,-0.532163,21.543,1.07973,1.26913,0.038645,-0.148257,-1.03844,-0.0577435,2.98125,0.356439,-0.392311,0.0807953
5623889,0,-1.57063,-0.52285,-1.69124e-05,-2.09654,-0.00022735,1.57132,0.785168,-1.5708,-0.523598,-1.78584e-08,-2.0944,2.6929e-08,1.5708,0.785398,0.000410829,0.000798476,0.00134885,0.000246649,0.000310421,2.35223e-05,0.0015838,0,0,0,0,0,0,0,-0.176685,-10.213,-0.583737,21.5152,1.06783,1.27554,0.0322363,-0.149403,-1.04055,-0.0591507,2.98266,0.356448,-0.392174,0.0808498
5623890,0,-1.57063,-0.522853,-2.04786e-05,-2.09654,-0.000224579,1.57132,0.785164,-1.5708,-0.523598,-1.78584e-08,-2.0944,2.6929e-08,1.5708,0.785398,-0.00093254,-0.000581307,0.000342422,0.000721245,0.000410398,-0.000221677,-0.000639553,0,0,0,0,0,0,0,-0.125111,-10.1654,-0.559934,21.4914,1.06233,1.28195,0.0780126,-0.151028,-1.04274,-0.0613514,2.98387,0.356433,-0.392078,0.080871
5623891,0,-1.57063,-0.522853,-2.30594e-05,-2.09654,-0.000225791,1.57132,0.785165,-1.5708,-0.523598,-1.78584e-08,-2.0944,2.6929e-08,1.5708,0.785398,2.79205e-05,-0.000387538,-0.000421333,0.00103764,-0.000370661,-0.000147785,-0.00018901,0,0,0,0,0,0,0,-0.152882,-10.1654,-0.532163,21.4676,1.07973,1.28195,0.071604,-0.151933,-1.04263,-0.0626243,2.98351,0.35642,-0.392127,0.0808056
5623892,0,-1.57063,-0.522853,-2.13212e-05,-2.09654,-0.000223618,1.57132,0.78516,-1.5708,-0.523598,-1.78584e-08,-2.0944,2.6929e-08,1.5708,0.785398,1.86136e-05,-0.000258359,0.000368725,-0.000421863,0.000397152,0.000138836,-0.00178752,0,0,0,0,0,0,0,-0.152882,-10.1654,-0.559934,21.5152,1.06233,1.27554,0.116465,-0.152012,-1.04074,-0.0627156,2.9821,0.35642,-0.392254,0.080669
5623893,0,-1.57063,-0.522853,-2.33402e-05,-2.09655,-0.000227344,1.57132,0.785166,-1.5708,-0.523598,-1.78584e-08,-2.0944,2.6929e-08,1.5708,0.785398,-0.000637205,-0.000172239,-0.000403797,-0.00204448,6.13178e-05,0.000329916,0.000707192,0,0,0,0,0,0,0,-0.125111,-10.1654,-0.532163,21.5906,1.06783,1.26913,0.0651953,-0.151708,-1.03974,-0.0622871,2.9817,0.356459,-0.392254,0.080512
5623894,0,-1.57063,-0.522853,-1.92842e-05,-2.09654,-0.000229705,1.57132,0.785162,-1.5708,-0.523598,-1.78584e-08,-2.0944,2.6929e-08,1.5708,0.785398,-0.000424803,-0.000114826,0.000380416,0.000400251,-0.000399931,0.000219944,-0.000715333,0,0,0,0,0,0,0,-0.125111,-10.1654,-0.559934,21.5152,1.07973,1.26913,0.0972387,-0.150951,-1.04029,-0.0613247,2.98275,0.356542,-0.392104,0.0803742
5623895,0,-1.57063,-0.522852,-2.07124e-05,-2.09655,-0.000225533,1.57132,0.785168,-1.5708,-0.523598,-1.78584e-08,-2.0944,2.6929e-08,1.5708,0.785398,0.00157284,0.000480261,0.000253611,-0.00038278,0.000174189,-9.07296e-05,0.00142198,0,0,0,0,0,0,0,-0.204456,-10.1892,-0.559934,21.543,1.06783,1.27554,0.0459692,-0.150544,-1.04141,-0.0609191,2.98403,0.356596,-0.391966,0.0802693
5623896,0,-1.57063,-0.522852,-2.31373e-05,-2.09655,-0.000225906,1.57132,0.785163,-1.5708,-0.523598,-1.78584e-08,-2.0944,2.6929e-08,1.5708,0.785398,-0.000807481,0.000320174,-0.00048054,-0.000255187,-0.000324684,-6.04864e-05,-0.000713524,0,0,0,0,0,0,0,-0.125111,-10.1892,-0.532163,21.543,1.07973,1.27554,0.09083,-0.15071,-1.04328,-0.0612815,2.98542,0.35661,-0.391863,0.0801855
5623897,0,-1.57063,-0.522855,-2.3296e-05,-2.09654,-0.000225589,1.57132,0.785161,-1.5708,-0.523598,-1.78584e-08,-2.0944,2.6929e-08,1.5708,0.785398,0.000111293,-0.000992976,-0.00032036,0.0010363,-0.000216456,-4.03243e-05,-0.00118776,0,0,0,0,0,0,0,-0.152882,-10.1377,-0.532163,21.4914,1.07973,1.27554,0.110056,-0.150381,-1.04443,-0.0609198,2.98621,0.356636,-0.39184,0.080097
5623898,0,-1.57063,-0.522852,-2.50193e-05,-2.09655,-0.000227968,1.57132,0.785165,-1.5708,-0.523598,-1.78584e-08,-2.0944,2.6929e-08,1.5708,0.785398,7.41953e-05,0.000544442,-0.000770385,-0.000515558,9.30551e-05,-0.000264242,0.000632314,0,0,0,0,0,0,0,-0.152882,-10.1892,-0.508359,21.543,1.07332,1.28195,0.071604,-0.14944,-1.04381,-0.0596556,2.98583,0.356675,-0.391934,0.0800159
5623899,0,-1.57063,-0.522852,-2.67074e-05,-2.09655,-0.00023032,1.57132,0.78516,-1.5708,-0.523598,-1.78584e-08,-2.0944,2.6929e-08,1.5708,0.785398,0.000606276,0.000362961,-0.0010704,-0.000343706,-0.000378773,-0.000176161,-0.00123997,0,0,0,0,0,0,0,-0.176685,-10.1892,-0.484555,21.543,1.08522,1.28195,0.116465,-0.148249,-1.04397,-0.0578814,2.98591,0.356747,-0.391989,0.0799726
5623900,0,-1.57063,-0.522853,-2.50428e-05,-2.09654,-0.000225535,1.57132,0.785163,-1.5708,-0.523598,-1.78584e-08,-2.0944,2.6929e-08,1.5708,0.785398,0.0010538,-0.000314838,-0.00015679,0.000977289,0.000391745,-0.000117441,0.00130958,0,0,0,0,0,0,0,-0.204456,-10.1654,-0.508359,21.4914,1.06783,1.28195,0.0587866,-0.147325,-1.04487,-0.0562597,2.98636,0.356826,-0.392008,0.079976
5623901,0,-1.57063,-0.522855,-2.33743e-05,-2.09655,-0.00022778,1.57132,0.785162,-1.5708,-0.523598,-1.78584e-08,-2.0944,2.6929e-08,1.5708,0.785398,-0.00115351,-0.000859506,0.000452286,-0.0005549,0.000261163,0.000396424,-0.000313739,0,0,0,0,0,0,0,-0.125111,-10.1377,-0.532163,21.543,1.06783,1.26913,0.09083,-0.147099,-1.04411,-0.055553,2.98588,0.356869,-0.3921,0.0800213
5623902,0,-1.57063,-0.522852,-2.3375e-05,-2.09654,-0.000225332,1.57132,0.785164,-1.5708,-0.523598,-1.78584e-08,-2.0944,2.6929e-08,1.5708,0.785398,-0.000119391,0.000633422,0.000301524,0.000836493,0.000174109,2.69237e-05,0.000265559,0,0,0,0,0,0,0,-0.152882,-10.1892,-0.532163,21.4914,1.06783,1.27554,0.0780126,-0.147203,-1.04235,-0.0554511,2.98491,0.356897,-0.392224,0.0800877
5623903,0,-1.57063,-0.522852,-2.67161e-05,-2.09655,-0.000224517,1.57132,0.785157,-1.5708,-0.523598,-1.78584e-08,-2.0944,2.6929e-08,1.5708,0.785398,-0.000729208,0.000422281,-0.000912608,-0.000648764,0.000116073,1.79492e-05,-0.00100976,0,0,0,0,0,0,0,-0.125111,-10.1892,-0.484555,21.543,1.06783,1.27554,0.110056,-0.147049,-1.04192,-0.0550434,2.98455,0.356944,-0.392305,0.0801608
5623904,0,-1.57063,-0.522852,-2.45856e-05,-2.09655,-0.000224855,1.57132,0.785162,-1.5708,-0.523598,-1.78584e-08,-2.0944,2.6929e-08,1.5708,0.785398,0.000163475,0.000281521,-0.000608405,-0.000432509,-0.000126069,-0.000225393,0.000276265,0,0,0,0,0,0,0,-0.152882,-10.1892,-0.484555,21.543,1.07332,1.28195,0.0844213,-0.146274,-1.04343,-0.0536471,2.98532,0.357028,-0.392284,0.0802467
5623905,0,-1.57063,-0.522852,-2.43356e-05,-2.09654,-0.000225476,1.57132,0.785165,-1.5708,-0.523598,-1.78584e-08,-2.0944,2.6929e-08,1.5708,0.785398,-0.000540631,0.000187681,0.000151208,0.000918086,-0.000321405,-0.000150262,0.000658895,0,0,0,0,0,0,0,-0.125111,-10.1892,-0.508359,21.4914,1.07973,1.28195,0.071604,-0.145345,-1.04538,-0.0519498,2.98639,0.357111,-0.392231,0.0803594
5623906,0,-1.57063,-0.522855,-2.4809e-05,-2.09654,-0.000224124,1.57132,0.785158,-1.5708,-0.523598,-1.78584e-08,-2.0944,2.6929e-08,1.5708,0.785398,-0.00036042,-0.00108131,0.000100806,5.52455e-05,0.00022654,0.000137184,-0.000747532,0,0,0,0,0,0,0,-0.125111,-10.1377,-0.508359,21.5152,1.06783,1.27554,0.103647,-0.144809,-1.04557,-0.0508612,2.98637,0.357143,-0.39227,0.0804908
5623907,0,-1.57063,-0.522852,-2.32964e-05,-2.09654,-0.000224114,1.57132,0.785166,-1.5708,-0.523598,-1.78584e-08,-2.0944,2.6929e-08,1.5708,0.785398,-0.00024028,0.000485556,0.000624016,3.68304e-05,0.000151026,9.14562e-05,0.00140052,0,0,0,0,0,0,0,-0.125111,-10.1892,-0.532163,21.5152,1.06783,1.27554,0.0523779,-0.144799,-1.04408,-0.0506426,2.98551,0.357132,-0.392368,0.0806271
5623908,0,-1.57063,-0.522848,-1.97297e-05,-2.09654,-0.000226696,1.57132,0.785163,-1.5708,-0.523598,-1.78584e-08,-2.0944,2.6929e-08,1.5708,0.785398,0.000489427,0.00153013,0.00162244,2.45536e-05,0.000304135,-0.000176388,-0.000253117,0,0,0,0,0,0,0,-0.152882,-10.2408,-0.583737,21.5152,1.06233,1.28195,0.0844213,-0.145855,-1.0442,-0.0520966,2.98546,0.357076,-0.392397,0.0807676
5623909,0,-1.57063,-0.522855,-2.5037e-05,-2.09655,-0.000225785,1.57132,0.785166,-1.5708,-0.523598,-1.78584e-08,-2.0944,2.6929e-08,1.5708,0.785398,0.000326285,-0.00139277,-0.000681614,-0.00119006,-0.000204145,-0.000117592,0.000780691,0,0,0,0,0,0,0,-0.152882,-10.1377,-0.508359,21.5668,1.07332,1.28195,0.0587866,-0.147777,-1.04617,-0.0548723,2.98654,0.356986,-0.392319,0.0808914
5623910,0,-1.57063,-0.522852,-1.97531e-05,-2.09654,-0.000228982,1.57132,0.785161,-1.5708,-0.523598,-1.78584e-08,-2.0944,2.6929e-08,1.5708,0.785398,-0.000432091,0.000277916,0.00130883,0.000969867,-0.000373455,-7.83947e-05,-0.00137841,0,0,0,0,0,0,0,-0.125111,-10.1892,-0.583737,21.4914,1.07973,1.28195,0.110056,-0.14951,-1.04682,-0.0574106,2.98726,0.356888,-0.392238,0.0809734
5623911,0,-1.57063,-0.522852,-2.33743e-05,-2.09654,-0.000225292,1.57132,0.785165,-1.5708,-0.523598,-1.78584e-08,-2.0944,2.6929e-08,1.5708,0.785398,0.000918365,0.000185277,-0.000333873,8.97658e-05,0.000191839,0.000185096,0.000505213,0,0,0,0,0,0,0,-0.176685,-10.1892,-0.532163,21.5152,1.06783,1.27554,0.071604,-0.150936,-1.04622,-0.0595714,2.98711,0.356782,-0.392232,0.081021
5623912,0,-1.57063,-0.522853,-2.3375e-05,-2.09654,-0.000225826,1.57132,0.785158,-1.5708,-0.523598,-1.78584e-08,-2.0944,2.6929e-08,1.5708,0.785398,5.54316e-05,-0.000433294,-0.000222582,0.000616656,-0.000312917,-0.000113962,-0.000849986,0,0,0,0,0,0,0,-0.152882,-10.1654,-0.532163,21.4914,1.07973,1.28195,0.103647,-0.152,-1.04533,-0.0611613,2.98643,0.356682,-0.392282,0.0810566
5623913,0,-1.57063,-0.522852,-2.45856e-05,-2.09655,-0.00022424,1.57132,0.785165,-1.5708,-0.523598,-1.78584e-08,-2.0944,2.6929e-08,1.5708,0.785398,3.69544e-05,0.000267949,-0.00126201,-0.000795322,0.000232198,-0.000313333,0.000857496,0,0,0,0,0,0,0,-0.152882,-10.1892,-0.484555,21.543,1.06783,1.28836,0.0651953,-0.152028,-1.04431,-0.0611356,2.98569,0.356636,-0.392318,0.081091
5623914,0,-1.57063,-0.522852,-2.26651e-05,-2.09654,-0.000227348,1.57132,0.785167,-1.5708,-0.523598,-1.78584e-08,-2.0944,2.6929e-08,1.5708,0.785398,2.46363e-05,0.000178633,0.000272283,0.000119399,0.000154799,-0.000208889,0.00104638,0,0,0,0,0,0,0,-0.152882,-10.1892,-0.532163,21.5152,1.06783,1.28836,0.0523779,-0.151166,-1.04428,-0.059753,2.98566,0.356654,-0.392266,0.0811285
5623915,0,-1.57064,-0.522852,-2.11897e-05,-2.09655,-0.000225799,1.57132,0.785163,-1.5708,-0.523598,-1.78584e-08,-2.0944,2.6929e-08,1.5708,0.785398,-0.00119,0.000119089,0.000831136,-0.000570014,-0.000100251,9.80996e-05,-0.000726566,0,0,0,0,0,0,0,-0.101307,-10.1892,-0.559934,21.543,1.07332,1.28195,0.09083,-0.150309,-1.04521,-0.0584967,2.98625,0.356688,-0.392137,0.0811522
5623916,0,-1.57063,-0.522852,-2.49668e-05,-2.09654,-0.000226401,1.57132,0.785162,-1.5708,-0.523598,-1.78584e-08,-2.0944,2.6929e-08,1.5708,0.785398,0.000969903,7.93924e-05,-0.000652335,0.000269604,-0.000507644,-0.000409318,-0.000721736,0,0,0,0,0,0,0,-0.176685,-10.1892,-0.508359,21.5152,1.08522,1.29476,0.0972387,-0.149751,-1.04632,-0.0578348,2.98696,0.356714,-0.391982,0.0811431
5623917,0,-1.57063,-0.522853,-2.3349e-05,-2.09654,-0.000224839,1.57132,0.785161,-1.5708,-0.523598,-1.78584e-08,-2.0944,2.6929e-08,1.5708,0.785398,8.97903e-05,-0.000503884,0.000121922,0.00129336,0.00010238,0.000676557,-0.000955875,0,0,0,0,0,0,0,-0.152882,-10.1654,-0.532163,21.4676,1.07332,1.26913,0.110056,-0.149431,-1.04626,-0.0574419,2.98678,0.356716,-0.391901,0.0811187
5623918,0,-1.57063,-0.522854,-2.86563e-05,-2.09655,-0.000225471,1.57132,0.785168,-1.5708,-0.523598,-1.78584e-08,-2.0944,2.6929e-08,1.5708,0.785398,-0.000589754,0.000220889,-0.00168196,-0.00145781,-0.000169105,0.000213679,0.00173634,0,0,0,0,0,0,0,-0.125111,-10.1892,-0.456784,21.5668,1.07973,1.27554,0.0459692,-0.148724,-1.04516,-0.0563653,2.98584,0.356737,-0.391883,0.0811114
5623919,0,-1.57063,-0.522851,-2.33724e-05,-2.09654,-0.000224122,1.57132,0.785163,-1.5708,-0.523598,-1.78584e-08,-2.0944,2.6929e-08,1.5708,0.785398,0.000256445,0.000704072,0.000641933,0.000234553,0.000328073,-9.49062e-05,-0.000266594,0,0,0,0,0,0,0,-0.152882,-10.213,-0.532163,21.5152,1.06783,1.28195,0.0844213,-0.147396,-1.04549,-0.0543354,2.98589,0.356823,-0.391771,0.0811282
5623920,0,-1.57063,-0.522854,-2.12438e-05,-2.09654,-0.000224723,1.57132,0.785166,-1.5708,-0.523598,-1.78584e-08,-2.0944,2.6929e-08,1.5708,0.785398,-0.000478651,-0.000644243,0.000427956,-0.000493245,1.52645e-05,-6.32708e-05,0.000534347,0,0,0,0,0,0,0,-0.125111,-10.1654,-0.532163,21.543,1.07332,1.28195,0.0651953,-0.146607,-1.04688,-0.0531364,2.98667,0.356907,-0.391598,0.0811469
5623921,0,-1.57063,-0.522854,-2.43353e-05,-2.09654,-0.00022472,1.57132,0.785163,-1.5708,-0.523598,-1.78584e-08,-2.0944,2.6929e-08,1.5708,0.785398,-0.000319101,-0.000429495,-0.000271508,0.000320784,1.01763e-05,0.000432537,-0.000355845,0,0,0,0,0,0,0,-0.125111,-10.1654,-0.508359,21.5152,1.07332,1.26913,0.0844213,-0.146394,-1.04692,-0.0528846,2.98683,0.356957,-0.391483,0.0811458
5623922,0,-1.57063,-0.52285,-2.31385e-05,-2.09654,-0.000224109,1.57132,0.785163,-1.5708,-0.523598,-1.78584e-08,-2.0944,2.6929e-08,1.5708,0.785398,-0.000212734,0.000827294,0.000375806,0.000770668,0.000210235,-0.000423719,-0.000474589,0,0,0,0,0,0,0,-0.125111,-10.213,-0.532163,21.4914,1.06783,1.28836,0.09083,-0.146145,-1.04604,-0.0526406,2.9863,0.356991,-0.391453,0.081121
5623923,0,-1.57063,-0.522852,-2.32964e-05,-2.09655,-0.000227915,1.57132,0.785161,-1.5708,-0.523598,-1.78584e-08,-2.0944,2.6929e-08,1.5708,0.785398,0.000507791,-5.28278e-06,0.000250538,-0.00124946,-6.3294e-05,0.000429598,0.000158325,0,0,0,0,0,0,0,-0.152882,-10.1892,-0.532163,21.5668,1.07332,1.26913,0.0780126,-0.146232,-1.04625,-0.052908,2.98614,0.357007,-0.391417,0.0810899
5623924,0,-1.57063,-0.522853,-2.14002e-05,-2.09655,-0.000227107,1.57132,0.785162,-1.5708,-0.523598,-1.78584e-08,-2.0944,2.6929e-08,1.5708,0.785398,0.00089534,-0.000560334,0.000816639,-0.00138978,-0.000483005,-0.000188319,-0.000369168,0,0,0,0,0,0,0,-0.176685,-10.1654,-0.559934,21.5906,1.08522,1.28195,0.09083,-0.147189,-1.04751,-0.0544242,2.98713,0.357002,-0.391268,0.081071
5623925,0,-1.57063,-0.52285,-1.92872e-05,-2.09655,-0.000225786,1.57132,0.785167,-1.5708,-0.523598,-1.78584e-08,-2.0944,2.6929e-08,1.5708,0.785398,4.00811e-05,0.000740068,0.000544426,0.000187101,-0.000118553,0.000349172,0.0014154,0,0,0,0,0,0,0,-0.152882,-10.213,-0.559934,21.543,1.07973,1.26913,0.0459692,-0.14891,-1.04901,-0.0570427,2.98877,0.356978,-0.391061,0.0810673
5623926,0,-1.57063,-0.522853,-2.43327e-05,-2.09654,-0.00022616,1.57132,0.785161,-1.5708,-0.523598,-1.78584e-08,-2.0944,2.6929e-08,1.5708,0.785398,-0.000622893,-0.000620245,-0.000843475,0.00133116,-0.000282486,-0.000241937,-0.00119263,0,0,0,0,0,0,0,-0.125111,-10.1654,-0.508359,21.4914,1.08522,1.28195,0.103647,-0.150105,-1.04975,-0.0589237,2.98956,0.356968,-0.390977,0.0810574
5623927,0,-1.57063,-0.522852,-2.11888e-05,-2.09654,-0.000227954,1.57132,0.785165,-1.5708,-0.523598,-1.78584e-08,-2.0944,2.6929e-08,1.5708,0.785398,0.000234352,0.000143315,0.000644109,0.00088744,0.000252486,7.60677e-05,0.000391708,0,0,0,0,0,0,0,-0.152882,-10.1892,-0.559934,21.4914,1.07332,1.27554,0.071604,-0.150198,-1.04846,-0.0592212,2.9885,0.356987,-0.391108,0.0810221
5623928,0,-1.57063,-0.522855,-2.49665e-05,-2.09655,-0.000224577,1.57132,0.785162,-1.5708,-0.523598,-1.78584e-08,-2.0944,2.6929e-08,1.5708,0.785398,0.000713046,-0.00111088,-0.00077702,-0.000614799,0.000575225,5.07118e-05,-0.000688297,0,0,0,0,0,0,0,-0.176685,-10.1377,-0.508359,21.543,1.06233,1.27554,0.0972387,-0.150083,-1.04572,-0.0591652,2.98653,0.357014,-0.391326,0.0809768
5623929,0,-1.57063,-0.522855,-2.33489e-05,-2.09655,-0.000225791,1.57132,0.78516,-1.5708,-0.523598,-1.78584e-08,-2.0944,2.6929e-08,1.5708,0.785398,-8.14476e-05,-0.000740588,3.87987e-05,-0.000409866,-0.000260777,0.000271167,-0.00117094,0,0,0,0,0,0,0,-0.152882,-10.1377,-0.532163,21.543,1.07973,1.26913,0.116465,-0.149969,-1.04237,-0.0589986,2.98479,0.35706,-0.391495,0.0809384
5623930,0,-1.57063,-0.522853,-1.92871e-05,-2.09654,-0.000224228,1.57132,0.785165,-1.5708,-0.523598,-1.78584e-08,-2.0944,2.6929e-08,1.5708,0.785398,-5.42984e-05,0.000155888,0.00067548,0.000933182,0.000266958,0.000180778,0.000880885,0,0,0,0,0,0,0,-0.152882,-10.1654,-0.559934,21.4914,1.06783,1.26913,0.071604,-0.149862,-1.03908,-0.0588393,2.98335,0.357111,-0.391637,0.0809322
5623931,0,-1.57063,-0.522853,-2.26622e-05,-2.09654,-0.000224149,1.57132,0.785165,-1.5708,-0.523598,-1.78584e-08,-2.0944,2.6929e-08,1.5708,0.785398,-3.61989e-05,0.000103926,-0.000199294,0.00117893,0.000177972,-0.000354199,0.000587257,0,0,0,0,0,0,0,-0.152882,-10.1654,-0.532163,21.4676,1.06783,1.28195,0.071604,-0.149933,-1.0366,-0.0590022,2.98186,0.357138,-0.391834,0.0809774
5623932,0,-1.57063,-0.522853,-2.31376e-05,-2.09654,-0.000224732,1.57132,0.785166,-1.5708,-0.523598,-1.78584e-08,-2.0944,2.6929e-08,1.5708,0.785398,0.000532679,6.92837e-05,-0.000132863,-0.000327669,-8.48024e-05,0.000238585,0.000866222,0,0,0,0,0,0,0,-0.176685,-10.1654,-0.532163,21.5152,1.07332,1.26913,0.0587866,-0.149951,-1.0352,-0.0590461,2.98056,0.357152,-0.392045,0.0810493
5623933,0,-1.57063,-0.52285,-1.96768e-05,-2.09654,-0.000225435,1.57132,0.785157,-1.5708,-0.523598,-1.78584e-08,-2.0944,2.6929e-08,1.5708,0.785398,0.00100473,0.00115981,0.00111785,0.000338366,-0.000293894,-7.83023e-05,-0.00132139,0,0,0,0,0,0,0,-0.204456,-10.213,-0.583737,21.4914,1.07973,1.27554,0.110056,-0.150462,-1.03588,-0.0597071,2.98042,0.357153,-0.39216,0.0811155
5623934,0,-1.57063,-0.522853,-2.50193e-05,-2.09654,-0.000227306,1.57132,0.785162,-1.5708,-0.523598,-1.78584e-08,-2.0944,2.6929e-08,1.5708,0.785398,-0.00118622,-0.000340415,-0.001018,0.000225578,0.00024488,0.000185157,-0.00016885,0,0,0,0,0,0,0,-0.125111,-10.1654,-0.508359,21.4914,1.06783,1.26913,0.09083,-0.151214,-1.03825,-0.0606837,2.9812,0.35716,-0.392198,0.0811653
5623935,0,-1.57063,-0.52285,-2.1236e-05,-2.09654,-0.00022837,1.57132,0.78516,-1.5708,-0.523598,-1.78584e-08,-2.0944,2.6929e-08,1.5708,0.785398,0.000415614,0.00088668,-0.000121857,-0.000406427,0.000163253,-0.00035128,-0.001062,0,0,0,0,0,0,0,-0.176685,-10.213,-0.532163,21.5152,1.06783,1.28195,0.116465,-0.150979,-1.04099,-0.0602144,2.98222,0.357223,-0.392202,0.0812138
5623936,0,-1.57063,-0.522855,-2.07134e-05,-2.09654,-0.000228725,1.57132,0.785165,-1.5708,-0.523598,-1.78584e-08,-2.0944,2.6929e-08,1.5708,0.785398,-0.000279736,-0.00117212,0.000568376,0.000285861,0.000108836,0.000240531,0.000953511,0,0,0,0,0,0,0,-0.152882,-10.1377,-0.559934,21.4914,1.06783,1.26913,0.071604,-0.15041,-1.04315,-0.0592454,2.98316,0.357297,-0.39219,0.0812927
5623937,0,-1.57063,-0.522852,-2.31376e-05,-2.09654,-0.00022697,1.57132,0.785167,-1.5708,-0.523598,-1.78584e-08,-2.0944,2.6929e-08,1.5708,0.785398,-0.000186491,0.000425014,-0.000270697,0.000190574,-0.000368252,-7.70046e-05,0.00134775,0,0,0,0,0,0,0,-0.152882,-10.1892,-0.532163,21.4914,1.07973,1.27554,0.0523779,-0.150176,-1.04363,-0.0588007,2.98331,0.357331,-0.392232,0.0814122
5623938,0,-1.57063,-0.522853,-2.13472e-05,-2.09654,-0.000225232,1.57132,0.785163,-1.5708,-0.523598,-1.78584e-08,-2.0944,2.6929e-08,1.5708,0.785398,-0.000124327,-0.000273469,0.000469149,0.000127049,-8.14264e-06,-5.13364e-05,-0.000288294,0,0,0,0,0,0,0,-0.152882,-10.1654,-0.559934,21.4914,1.07332,1.27554,0.0844213,-0.149973,-1.04335,-0.0584463,2.98299,0.357344,-0.392313,0.0815384
5623939,0,-1.57063,-0.522857,-2.50193e-05,-2.09655,-0.000226212,1.57132,0.785164,-1.5708,-0.523598,-1.78584e-08,-2.0944,2.6929e-08,1.5708,0.785398,-8.28847e-05,-0.00138874,-0.00089366,-0.00112173,-0.000446238,-0.000508942,4.51628e-05,0,0,0,0,0,0,0,-0.152882,-10.1139,-0.508359,21.543,1.08522,1.28836,0.0780126,-0.149675,-1.04247,-0.0579564,2.98261,0.357365,-0.392374,0.0816318
5623940,0,-1.57063,-0.522852,-2.5037e-05,-2.09654,-0.000224776,1.57132,0.785163,-1.5708,-0.523598,-1.78584e-08,-2.0944,2.6929e-08,1.5708,0.785398,-5.52565e-05,0.000837412,-0.000595773,0.000458608,0.000143318,0.000135423,-0.000444609,0,0,0,0,0,0,0,-0.152882,-10.1892,-0.508359,21.4914,1.07332,1.27554,0.09083,-0.148928,-1.0411,-0.0567457,2.9823,0.357422,-0.392391,0.0816862
5623941,0,-1.57063,-0.522853,-2.50428e-05,-2.09655,-0.00022545,1.57132,0.785165,-1.5708,-0.523598,-1.78584e-08,-2.0944,2.6929e-08,1.5708,0.785398,0.000519974,1.46276e-06,-0.000397182,-0.000900687,-0.000141814,-0.000147077,0.000415671,0,0,0,0,0,0,0,-0.176685,-10.1654,-0.508359,21.543,1.07973,1.28195,0.071604,-0.147984,-1.04121,-0.055119,2.98265,0.357512,-0.39235,0.0817185
5623942,0,-1.57063,-0.522855,-2.65335e-05,-2.09654,-0.000228633,1.57132,0.785169,-1.5708,-0.523598,-1.78584e-08,-2.0944,2.6929e-08,1.5708,0.785398,-0.000859776,-0.000648639,-0.00147121,4.91559e-05,-9.45426e-05,0.000139308,0.00149782,0,0,0,0,0,0,0,-0.125111,-10.1377,-0.456784,21.5152,1.07973,1.27554,0.038645,-0.146864,-1.04208,-0.0531188,2.98334,0.357628,-0.392274,0.0817357
5623943,0,-1.57063,-0.522853,-2.43353e-05,-2.09654,-0.000225786,1.57132,0.785166,-1.5708,-0.523598,-1.78584e-08,-2.0944,2.6929e-08,1.5708,0.785398,-0.000573184,0.000217188,0.000225617,3.27706e-05,0.000174331,9.28718e-05,1.52004e-05,0,0,0,0,0,0,0,-0.125111,-10.1654,-0.508359,21.5152,1.07332,1.27554,0.0651953,-0.145243,-1.04219,-0.0503728,2.98359,0.357771,-0.392232,0.0817146
5623944,0,-1.57063,-0.522853,-2.48089e-05,-2.09655,-0.000225787,1.57132,0.785166,-1.5708,-0.523598,-1.78584e-08,-2.0944,2.6929e-08,1.5708,0.785398,0.000267491,0.000144792,0.000150411,-0.000627767,-0.000121139,-0.000175444,1.01336e-05,0,0,0,0,0,0,0,-0.152882,-10.1654,-0.508359,21.543,1.07973,1.28195,0.0651953,-0.144084,-1.04247,-0.048361,2.98383,0.357902,-0.3922,0.0816319
5623945,0,-1.57063,-0.522853,-2.32964e-05,-2.09655,-0.00022555,1.57132,0.785159,-1.5708,-0.523598,-1.78584e-08,-2.0944,2.6929e-08,1.5708,0.785398,0.000178327,9.6528e-05,0.000657086,-0.000418511,-8.07591e-05,0.000120396,-0.00212947,0,0,0,0,0,0,0,-0.152882,-10.1654,-0.532163,21.543,1.07973,1.27554,0.122873,-0.144245,-1.04366,-0.0483008,2.98467,0.35799,-0.392117,0.0814917
5623946,0,-1.57064,-0.522853,-2.3349e-05,-2.09654,-0.000224759,1.57132,0.785165,-1.5708,-0.523598,-1.78584e-08,-2.0944,2.6929e-08,1.5708,0.785398,-0.00108754,6.4352e-05,0.000438057,0.00148423,0.00018352,8.0264e-05,0.000479222,0,0,0,0,0,0,0,-0.101307,-10.1654,-0.532163,21.4676,1.07332,1.27554,0.071604,-0.145185,-1.04454,-0.049458,2.98518,0.358041,-0.392079,0.0813272
5623947,0,-1.57063,-0.522853,-2.33665e-05,-2.09654,-0.000224732,1.57132,0.785165,-1.5708,-0.523598,-1.78584e-08,-2.0944,2.6929e-08,1.5708,0.785398,0.00103821,4.29014e-05,0.000292038,0.000989487,0.000122346,-0.00018385,0.000319481,0,0,0,0,0,0,0,-0.176685,-10.1654,-0.532163,21.4676,1.07332,1.28195,0.071604,-0.146339,-1.04393,-0.05102,2.98426,0.358048,-0.392201,0.0811806
5623948,0,-1.57063,-0.522852,-2.50428e-05,-2.09655,-0.000224113,1.57132,0.785167,-1.5708,-0.523598,-1.78584e-08,-2.0944,2.6929e-08,1.5708,0.785398,0.00069214,0.000585413,-0.00036212,-0.00110358,0.000285015,0.000352151,0.000925064,0,0,0,0,0,0,0,-0.176685,-10.1892,-0.508359,21.543,1.06783,1.26913,0.0523779,-0.147789,-1.04326,-0.0529129,2.9831,0.358027,-0.39235,0.0810604
5623949,0,-1.57064,-0.522853,-2.14255e-05,-2.09654,-0.00022411,1.57132,0.785166,-1.5708,-0.523598,-1.78584e-08,-2.0944,2.6929e-08,1.5708,0.785398,-0.00130181,-0.000166537,0.000965013,-8.6106e-05,0.00019001,-2.59129e-06,0.000141992,0,0,0,0,0,0,0,-0.101307,-10.1654,-0.559934,21.5152,1.06783,1.27554,0.0651953,-0.149152,-1.04401,-0.0546524,2.98314,0.358028,-0.392368,0.0809396
5623950,0,-1.57063,-0.52285,-2.50454e-05,-2.09654,-0.000224109,1.57132,0.785161,-1.5708,-0.523598,-1.78584e-08,-2.0944,2.6929e-08,1.5708,0.785398,0.000338552,0.0010026,-0.000563084,-5.7404e-05,0.000126673,-1.72753e-06,-0.00156685,0,0,0,0,0,0,0,-0.152882,-10.213,-0.508359,21.5152,1.06783,1.27554,0.110056,-0.149894,-1.04565,-0.0556464,2.98392,0.358062,-0.392312,0.0807911
5623951,0,-1.57063,-0.522853,-2.12447e-05,-2.09655,-0.000226652,1.57132,0.785166,-1.5708,-0.523598,-1.78584e-08,-2.0944,2.6929e-08,1.5708,0.785398,0.000225701,-0.000445224,0.000181423,-0.000687883,-0.000763262,-0.000238511,0.000854304,0,0,0,0,0,0,0,-0.152882,-10.1654,-0.532163,21.543,1.09072,1.28195,0.0587866,-0.1502,-1.04767,-0.0560372,2.98498,0.358104,-0.392231,0.0806267
5623952,0,-1.57063,-0.522855,-2.6006e-05,-2.09654,-0.000224719,1.57132,0.785161,-1.5708,-0.523598,-1.78584e-08,-2.0944,2.6929e-08,1.5708,0.785398,0.000150468,-0.00094643,-0.000992676,0.000747837,0.000135419,0.000315711,-0.00132934,0,0,0,0,0,0,0,-0.152882,-10.1377,-0.484555,21.4914,1.07332,1.26913,0.110056,-0.150199,-1.04803,-0.0559001,2.98533,0.358136,-0.3922,0.0804715
5623953,0,-1.57063,-0.522853,-2.4809e-05,-2.09655,-0.000227915,1.57132,0.785168,-1.5708,-0.523598,-1.78584e-08,-2.0944,2.6929e-08,1.5708,0.785398,0.000100312,1.86605e-05,-0.000104972,-0.000707868,9.02792e-05,0.000210474,0.00148737,0,0,0,0,0,0,0,-0.152882,-10.1654,-0.508359,21.543,1.07332,1.26913,0.0459692,-0.149781,-1.04605,-0.0550703,2.9845,0.358167,-0.392267,0.080334
5623954,0,-1.57063,-0.522855,-2.13476e-05,-2.09654,-0.000224564,1.57132,0.785166,-1.5708,-0.523598,-1.78584e-08,-2.0944,2.6929e-08,1.5708,0.785398,0.000623686,-0.000637174,0.00113644,0.000734514,0.000467087,-0.000334402,0.000516859,0,0,0,0,0,0,0,-0.176685,-10.1377,-0.559934,21.4914,1.06233,1.28195,0.0587866,-0.149767,-1.04345,-0.0548047,2.98334,0.358173,-0.392375,0.0802202
5623955,0,-1.57063,-0.522855,-2.3349e-05,-2.09655,-0.000223853,1.57132,0.785162,-1.5708,-0.523598,-1.78584e-08,-2.0944,2.6929e-08,1.5708,0.785398,-0.000790635,-0.000424782,0.000108016,-0.00071675,0.000311391,-0.000460294,-0.00107958,0,0,0,0,0,0,0,-0.125111,-10.1377,-0.532163,21.543,1.06233,1.28836,0.0972387,-0.150555,-1.04057,-0.0557944,2.9821,0.35813,-0.392492,0.080106
5623956,0,-1.57063,-0.522852,-2.14177e-05,-2.09654,-0.000228033,1.57132,0.785163,-1.5708,-0.523598,-1.78584e-08,-2.0944,2.6929e-08,1.5708,0.785398,0.000122524,0.000923238,0.000721625,0.000171781,-0.000199307,-6.95035e-05,-0.000245003,0,0,0,0,0,0,0,-0.152882,-10.1892,-0.559934,21.5152,1.07332,1.28195,0.0844213,-0.151353,-1.03874,-0.0569333,2.98146,0.358084,-0.392551,0.0799758
5623957,0,-1.57063,-0.522855,-2.67133e-05,-2.09654,-0.000229019,1.57132,0.78516,-1.5708,-0.523598,-1.78584e-08,-2.0944,2.6929e-08,1.5708,0.785398,-0.000567931,-0.000590934,-0.00128215,0.00011452,-0.000132871,-4.63356e-05,-0.00135013,0,0,0,0,0,0,0,-0.125111,-10.1377,-0.484555,21.5152,1.07332,1.28195,0.116465,-0.151502,-1.03856,-0.0571805,2.98156,0.35806,-0.392549,0.0798522
5623958,0,-1.57064,-0.522854,-2.33743e-05,-2.09654,-0.000226865,1.57132,0.785167,-1.5708,-0.523598,-1.78584e-08,-2.0944,2.6929e-08,1.5708,0.785398,-0.000935433,0.00081247,0.000258854,0.00118997,-0.00032594,-3.08904e-05,0.0014735,0,0,0,0,0,0,0,-0.101307,-10.1892,-0.532163,21.4676,1.07973,1.28195,0.0523779,-0.150545,-1.0385,-0.0558448,2.98132,0.358064,-0.392582,0.0797614
5623959,0,-1.57063,-0.522851,-1.78069e-05,-2.09654,-0.000229105,1.57132,0.785163,-1.5708,-0.523598,-1.78584e-08,-2.0944,2.6929e-08,1.5708,0.785398,-6.68099e-05,0.00109846,0.00202861,-0.00032031,-0.000217293,-2.05936e-05,-0.000441818,0,0,0,0,0,0,0,-0.125111,-10.213,-0.611508,21.5152,1.07973,1.28195,0.09083,-0.149657,-1.03946,-0.0548139,2.98123,0.358059,-0.392614,0.0797213
5623960,0,-1.57063,-0.522854,-2.33752e-05,-2.09654,-0.000225944,1.57132,0.785166,-1.5708,-0.523598,-1.78584e-08,-2.0944,2.6929e-08,1.5708,0.785398,-4.454e-05,-0.000381318,-0.000503634,-0.00021354,9.24968e-05,0.00022363,0.000892249,0,0,0,0,0,0,0,-0.125111,-10.1654,-0.532163,21.5152,1.07332,1.27554,0.0587866,-0.149841,-1.04186,-0.0555862,2.98194,0.358024,-0.392561,0.0797163
5623961,0,-1.57063,-0.522854,-1.92959e-05,-2.09654,-0.000227713,1.57132,0.785163,-1.5708,-0.523598,-1.78584e-08,-2.0944,2.6929e-08,1.5708,0.785398,-2.96933e-05,-0.000254212,0.000313858,-0.00014236,0.000265115,-8.82724e-05,-0.000354603,0,0,0,0,0,0,0,-0.125111,-10.1654,-0.559934,21.5152,1.06783,1.28195,0.0844213,-0.150101,-1.0434,-0.0565528,2.9826,0.357996,-0.392471,0.0797139
5623962,0,-1.57063,-0.522855,-2.26651e-05,-2.09654,-0.000230439,1.57132,0.785161,-1.5708,-0.523598,-1.78584e-08,-2.0944,2.6929e-08,1.5708,0.785398,0.000629818,-0.000819089,-0.000440375,0.00101872,-0.000467517,0.000178511,-0.00118584,0,0,0,0,0,0,0,-0.152882,-10.1377,-0.532163,21.4676,1.08522,1.27554,0.110056,-0.150058,-1.04257,-0.0570753,2.98212,0.357969,-0.392451,0.0796981
5623963,0,-1.57063,-0.522852,-2.31386e-05,-2.09654,-0.000225574,1.57132,0.785166,-1.5708,-0.523598,-1.78584e-08,-2.0944,2.6929e-08,1.5708,0.785398,0.000976691,0.000660367,-0.000293583,0.000122333,0.000332582,0.000119007,0.00110831,0,0,0,0,0,0,0,-0.176685,-10.1892,-0.532163,21.4914,1.06783,1.27554,0.0587866,-0.150049,-1.04035,-0.0575489,2.98068,0.357924,-0.392516,0.0796856
5623964,0,-1.57063,-0.522855,-2.32964e-05,-2.09654,-0.000228403,1.57132,0.785162,-1.5708,-0.523598,-1.78584e-08,-2.0944,2.6929e-08,1.5708,0.785398,9.43153e-05,-0.000766181,-0.000195722,-0.000475257,1.8271e-05,7.93381e-05,-0.000685278,0,0,0,0,0,0,0,-0.152882,-10.1377,-0.532163,21.5152,1.07332,1.27554,0.0972387,-0.150071,-1.03862,-0.0579414,2.97947,0.35789,-0.39256,0.0796946
5623965,0,-1.57063,-0.522853,-2.50195e-05,-2.09654,-0.000225337,1.57132,0.785166,-1.5708,-0.523598,-1.78584e-08,-2.0944,2.6929e-08,1.5708,0.785398,6.28769e-05,0.000138826,-0.000687293,0.000796786,0.000215631,5.28921e-05,0.000729942,0,0,0,0,0,0,0,-0.152882,-10.1654,-0.508359,21.4676,1.06783,1.27554,0.0651953,-0.149763,-1.03719,-0.0578055,2.97857,0.357884,-0.392569,0.0797146
5623966,0,-1.57063,-0.522857,-2.29065e-05,-2.09655,-0.000225128,1.57132,0.785163,-1.5708,-0.523598,-1.78584e-08,-2.0944,2.6929e-08,1.5708,0.785398,4.19179e-05,-0.00111387,-0.000458196,-0.00123205,-5.96964e-05,3.52614e-05,-0.000225448,0,0,0,0,0,0,0,-0.152882,-10.1139,-0.508359,21.543,1.07332,1.27554,0.0844213,-0.148909,-1.03539,-0.0568238,2.97761,0.357906,-0.392576,0.0797357
5623967,0,-1.57063,-0.522853,-2.60031e-05,-2.09655,-0.000224855,1.57132,0.785163,-1.5708,-0.523598,-1.78584e-08,-2.0944,2.6929e-08,1.5708,0.785398,0.000584757,0.000463843,-0.000862276,-0.00137818,-3.97976e-05,-0.000213851,-0.000150299,0,0,0,0,0,0,0,-0.176685,-10.1654,-0.484555,21.5668,1.07332,1.28195,0.0844213,-0.14781,-1.03442,-0.0553648,2.97766,0.357962,-0.392475,0.0797544
5623968,0,-1.57063,-0.522852,-2.48081e-05,-2.09654,-0.000224764,1.57132,0.785161,-1.5708,-0.523598,-1.78584e-08,-2.0944,2.6929e-08,1.5708,0.785398,0.00103945,0.00086604,-1.80385e-05,0.000287641,-2.65317e-05,9.47914e-05,-0.00104964,0,0,0,0,0,0,0,-0.204456,-10.1892,-0.508359,21.5152,1.07332,1.27554,0.110056,-0.147088,-1.03587,-0.0542251,2.97925,0.358029,-0.392246,0.0797766
5623969,0,-1.57063,-0.522852,-2.49665e-05,-2.09654,-0.00022793,1.57132,0.785161,-1.5708,-0.523598,-1.78584e-08,-2.0944,2.6929e-08,1.5708,0.785398,4.33541e-05,0.00057736,-1.20257e-05,0.000191761,-1.76878e-05,6.31942e-05,-0.000462398,0,0,0,0,0,0,0,-0.176685,-10.1892,-0.508359,21.5152,1.07332,1.27554,0.103647,-0.147126,-1.03909,-0.0539649,2.98128,0.358062,-0.392034,0.0798217
5623970,0,-1.57063,-0.522852,-1.97296e-05,-2.09654,-0.000226501,1.57132,0.785169,-1.5708,-0.523598,-1.78584e-08,-2.0944,2.6929e-08,1.5708,0.785398,2.89027e-05,0.000384907,0.00175522,0.000684653,-0.000249151,4.21295e-05,0.00209923,0,0,0,0,0,0,0,-0.176685,-10.1892,-0.583737,21.4914,1.07973,1.27554,0.038645,-0.148018,-1.04212,-0.054901,2.98263,0.358039,-0.391932,0.079914
5623971,0,-1.57063,-0.522852,-2.5037e-05,-2.09654,-0.000225076,1.57132,0.785163,-1.5708,-0.523598,-1.78584e-08,-2.0944,2.6929e-08,1.5708,0.785398,1.92685e-05,0.000256605,-0.000593091,0.000456435,7.12584e-05,-0.000446632,-0.000295933,0,0,0,0,0,0,0,-0.176685,-10.1892,-0.508359,21.4914,1.07332,1.28836,0.0844213,-0.149464,-1.04406,-0.0566711,2.98306,0.357975,-0.391939,0.080039
5623972,0,-1.57063,-0.522853,-2.50428e-05,-2.09654,-0.000224228,1.57132,0.785165,-1.5708,-0.523598,-1.78584e-08,-2.0944,2.6929e-08,1.5708,0.785398,-0.000543966,-0.000385742,-0.000395394,-0.000252522,0.000250956,0.000176964,0.000277429,0,0,0,0,0,0,0,-0.152882,-10.1654,-0.508359,21.5152,1.06783,1.27554,0.071604,-0.150276,-1.0447,-0.0574273,2.98277,0.357936,-0.391996,0.0801433
5623973,0,-1.57063,-0.522852,-2.33743e-05,-2.09654,-0.000227344,1.57132,0.78516,-1.5708,-0.523598,-1.78584e-08,-2.0944,2.6929e-08,1.5708,0.785398,0.000194168,0.00029965,0.000293216,-0.000168348,0.000167304,0.000117976,-0.00147656,0,0,0,0,0,0,0,-0.176685,-10.1892,-0.532163,21.5152,1.06783,1.27554,0.116465,-0.150289,-1.04455,-0.0569147,2.98234,0.357945,-0.392034,0.080209
5623974,0,-1.57063,-0.522853,-2.3375e-05,-2.09655,-0.000225797,1.57132,0.785163,-1.5708,-0.523598,-1.78584e-08,-2.0944,2.6929e-08,1.5708,0.785398,0.000779059,-0.000357045,0.000195477,0.00531311,-9.19145e-05,7.86505e-05,-3.49373e-05,0,0,0,0,0,0,0,-0.204456,-10.1654,-0.532163,21.543,1.07332,1.27554,0.09083,-0.150637,-1.04242,-0.056775,2.98021,0.357899,-0.392243,0.0802616
5623975,0,-1.57063,-0.522852,-2.14264e-05,-2.09655,-0.000225078,1.57133,0.785162,-1.5708,-0.523598,-1.78584e-08,-2.0944,2.6929e-08,1.5708,0.785398,-0.000687053,0.000318782,0.000779932,0.00404832,-6.12763e-05,0.000289793,-0.00026065,0,0,0,0,0,0,0,-0.152882,-10.1892,-0.559934,21.543,1.07332,1.26913,0.0972387,-0.151575,-1.03623,-0.057399,2.97407,0.357722,-0.392892,0.0803326
5623976,0,-1.57063,-0.522855,-2.33753e-05,-2.09654,-0.000225551,1.57132,0.785166,-1.5708,-0.523598,-1.78584e-08,-2.0944,2.6929e-08,1.5708,0.785398,-0.000458035,-0.000993905,-0.000129659,0.00372818,-0.00027821,-0.000281523,0.00101303,0,0,0,0,0,0,0,-0.152882,-10.1377,-0.532163,21.5152,1.07973,1.28195,0.0651953,-0.152372,-1.02698,-0.0578802,2.96515,0.357482,-0.39385,0.0804345
5623977,0,-1.57063,-0.522853,-2.14265e-05,-2.09655,-0.000228667,1.57132,0.785164,-1.5708,-0.523598,-1.78584e-08,-2.0944,2.6929e-08,1.5708,0.785398,-0.000305357,-1.29891e-05,0.000563175,0.0021206,-0.000185473,4.96771e-05,0.00115007,0,0,0,0,0,0,0,-0.152882,-10.1654,-0.559934,21.543,1.07973,1.27554,0.0523779,-0.152712,-1.01716,-0.0578086,2.95629,0.357266,-0.394798,0.0805557
5623978,0,-1.57063,-0.522852,-2.12448e-05,-2.09655,-0.000225798,1.57132,0.78516,-1.5708,-0.523598,-1.78584e-08,-2.0944,2.6929e-08,1.5708,0.785398,-0.000203571,0.000548153,-0.000274164,0.00162731,0.00011371,-0.0004416,-0.00113216,0,0,0,0,0,0,0,-0.152882,-10.1892,-0.532163,21.543,1.07332,1.28836,0.103647,-0.152824,-1.00996,-0.0574881,2.9499,0.357125,-0.395491,0.0806644
5623979,0,-1.57063,-0.522852,-2.43356e-05,-2.09654,-0.000225079,1.57132,0.785165,-1.5708,-0.523598,-1.78584e-08,-2.0944,2.6929e-08,1.5708,0.785398,0.000421098,0.000365435,-0.000739588,0.00300829,7.58068e-05,-5.7041e-05,0.000669381,0,0,0,0,0,0,0,-0.176685,-10.1892,-0.508359,21.4676,1.07332,1.28195,0.0651953,-0.152629,-1.0066,-0.0566991,2.94645,0.35707,-0.395895,0.0807396
5623980,0,-1.57063,-0.522852,-2.11898e-05,-2.09654,-0.000224228,1.57132,0.785156,-1.5708,-0.523598,-1.78584e-08,-2.0944,2.6929e-08,1.5708,0.785398,0.000930346,0.000243623,0.000713367,0.00101204,0.000253988,0.000199332,-0.00168998,0,0,0,0,0,0,0,-0.204456,-10.1892,-0.559934,21.5152,1.06783,1.27554,0.122873,-0.152638,-1.00562,-0.0560958,2.94483,0.357051,-0.396108,0.0807935
5623981,0,-1.57063,-0.522853,-2.66373e-05,-2.09655,-0.000227344,1.57132,0.785165,-1.5708,-0.523598,-1.78584e-08,-2.0944,2.6929e-08,1.5708,0.785398,-0.000586195,-0.000394396,-0.00128766,-0.000441634,0.000169326,-0.000104471,0.00100958,0,0,0,0,0,0,0,-0.152882,-10.1654,-0.484555,21.5668,1.06783,1.28195,0.0651953,-0.152965,-1.00658,-0.0559001,2.94536,0.357072,-0.396067,0.0808477
5623982,0,-1.57063,-0.522855,-2.14002e-05,-2.09655,-0.000224577,1.57132,0.785166,-1.5708,-0.523598,-1.78584e-08,-2.0944,2.6929e-08,1.5708,0.785398,-0.000390797,-0.000912545,0.000904798,0.000329965,0.000316334,0.00040507,0.000910412,0,0,0,0,0,0,0,-0.152882,-10.1377,-0.559934,21.543,1.06233,1.26913,0.0587866,-0.152874,-1.00852,-0.055167,2.94785,0.357159,-0.395775,0.0809148
5623983,0,-1.57063,-0.522853,-2.5037e-05,-2.09654,-0.000228986,1.57132,0.785166,-1.5708,-0.523598,-1.78584e-08,-2.0944,2.6929e-08,1.5708,0.785398,-0.000260531,4.12507e-05,-0.000603227,0.0020339,-0.00043337,-0.000204671,0.000369582,0,0,0,0,0,0,0,-0.152882,-10.1654,-0.508359,21.4676,1.07973,1.28195,0.0651953,-0.152589,-1.00976,-0.0542881,2.95051,0.357248,-0.395443,0.0809772
5623984,0,-1.57063,-0.522853,-2.33724e-05,-2.09654,-0.000225904,1.57132,0.785163,-1.5708,-0.523598,-1.78584e-08,-2.0944,2.6929e-08,1.5708,0.785398,-0.000823301,2.75005e-05,0.00015466,0.000280318,-5.15547e-05,0.000100912,-0.000703047,0,0,0,0,0,0,0,-0.125111,-10.1654,-0.532163,21.5152,1.07332,1.27554,0.09083,-0.152156,-1.01082,-0.0533005,2.9528,0.357319,-0.395167,0.0810019
5623985,0,-1.57063,-0.522855,-2.50448e-05,-2.09654,-0.000229022,1.57132,0.785161,-1.5708,-0.523598,-1.78584e-08,-2.0944,2.6929e-08,1.5708,0.785398,0.000100746,-0.00063128,-0.000453705,0.000215387,-0.000271729,-0.000170085,-0.00118078,0,0,0,0,0,0,0,-0.152882,-10.1377,-0.508359,21.5152,1.07973,1.28195,0.110056,-0.151481,-1.01255,-0.0520439,2.95547,0.357404,-0.394858,0.0809873
5623986,0,-1.57063,-0.522853,-2.29149e-05,-2.09654,-0.000229112,1.57132,0.785166,-1.5708,-0.523598,-1.78584e-08,-2.0944,2.6929e-08,1.5708,0.785398,6.71642e-05,0.00022876,-0.00030247,0.000164973,5.62064e-05,-0.00011339,0.00111169,0,0,0,0,0,0,0,-0.152882,-10.1654,-0.508359,21.5152,1.07332,1.28195,0.0587866,-0.150912,-1.01481,-0.0509474,2.95866,0.357499,-0.394486,0.0809672
5623987,0,-1.57063,-0.522857,-2.2665e-05,-2.09654,-0.000225573,1.57132,0.785161,-1.5708,-0.523598,-1.78584e-08,-2.0944,2.6929e-08,1.5708,0.785398,0.000601588,-0.00105392,0.000355165,0.00123964,0.000240921,-7.55931e-05,-0.000920387,0,0,0,0,0,0,0,-0.176685,-10.1139,-0.532163,21.4676,1.06783,1.28195,0.103647,-0.150859,-1.01674,-0.0505485,2.96159,0.357565,-0.394134,0.0809653
5623988,0,-1.57063,-0.522852,-2.4809e-05,-2.09654,-0.000225207,1.57132,0.785166,-1.5708,-0.523598,-1.78584e-08,-2.0944,2.6929e-08,1.5708,0.785398,0.000401059,0.00106063,-0.000320035,0.000281643,-4.28362e-05,0.000186964,0.00203127,0,0,0,0,0,0,0,-0.176685,-10.1892,-0.508359,21.4914,1.07332,1.27554,0.0322363,-0.151519,-1.01825,-0.0511271,2.96389,0.357582,-0.393845,0.0809777
5623989,0,-1.57063,-0.522853,-2.13476e-05,-2.09654,-0.000228077,1.57132,0.785163,-1.5708,-0.523598,-1.78584e-08,-2.0944,2.6929e-08,1.5708,0.785398,-0.000289439,0.000150272,0.000993069,-0.00036003,-2.85575e-05,0.000124642,-0.000341244,0,0,0,0,0,0,0,-0.152882,-10.1654,-0.559934,21.5152,1.07332,1.27554,0.0780126,-0.152582,-1.0214,-0.0522953,2.96681,0.357589,-0.393515,0.0809887
5623990,0,-1.57063,-0.52285,-2.50195e-05,-2.09654,-0.000228424,1.57132,0.785165,-1.5708,-0.523598,-1.78584e-08,-2.0944,2.6929e-08,1.5708,0.785398,-0.000842574,0.0012138,-0.00054438,-0.000233255,0.000184412,8.30949e-05,0.000247222,0,0,0,0,0,0,0,-0.125111,-10.213,-0.508359,21.5152,1.06783,1.27554,0.0651953,-0.153437,-1.02697,-0.0532947,2.97097,0.357633,-0.393078,0.0809658
5623991,0,-1.57063,-0.522853,-2.33666e-05,-2.09655,-0.000224937,1.57132,0.785163,-1.5708,-0.523598,-1.78584e-08,-2.0944,2.6929e-08,1.5708,0.785398,-0.000561716,-0.000304421,0.000193892,-0.000800043,0.000326392,-0.000181962,-0.000547262,0,0,0,0,0,0,0,-0.125111,-10.1654,-0.532163,21.543,1.06233,1.28195,0.0844213,-0.153491,-1.0336,-0.0532781,2.97574,0.357727,-0.392583,0.080893
5623992,0,-1.57063,-0.522852,-2.50428e-05,-2.09655,-0.000224588,1.57132,0.785164,-1.5708,-0.523598,-1.78584e-08,-2.0944,2.6929e-08,1.5708,0.785398,0.000275137,0.000353865,-0.000427551,-0.000529557,1.41441e-05,0.00035341,-0.000127483,0,0,0,0,0,0,0,-0.152882,-10.1892,-0.508359,21.543,1.06783,1.26913,0.0780126,-0.153081,-1.03963,-0.0526549,2.98035,0.35783,-0.392091,0.0807837
5623993,0,-1.57063,-0.52285,-2.33743e-05,-2.09654,-0.000224268,1.57132,0.785169,-1.5708,-0.523598,-1.78584e-08,-2.0944,2.6929e-08,1.5708,0.785398,0.000183425,0.000792722,0.000271778,0.00029943,9.42943e-06,-0.000239111,0.00137307,0,0,0,0,0,0,0,-0.152882,-10.213,-0.532163,21.5152,1.06783,1.28195,0.038645,-0.152887,-1.04481,-0.0523245,2.98438,0.357889,-0.391665,0.0806595
5623994,0,-1.57063,-0.52285,-2.50454e-05,-2.09655,-0.000225484,1.57132,0.785161,-1.5708,-0.523598,-1.78584e-08,-2.0944,2.6929e-08,1.5708,0.785398,0.000122283,0.000528481,-0.000375626,-0.000447853,-0.000434523,-0.000159408,-0.00149212,0,0,0,0,0,0,0,-0.152882,-10.213,-0.508359,21.543,1.07973,1.28195,0.103647,-0.152967,-1.04977,-0.052363,2.98787,0.357899,-0.391322,0.0805196
5623995,0,-1.57063,-0.522853,-2.14264e-05,-2.09655,-0.000227322,1.57132,0.785169,-1.5708,-0.523598,-1.78584e-08,-2.0944,2.6929e-08,1.5708,0.785398,8.1522e-05,-0.000761303,0.000956008,-0.000296963,0.000151127,-0.000106272,0.00165011,0,0,0,0,0,0,0,-0.152882,-10.1654,-0.559934,21.543,1.06783,1.28195,0.0322363,-0.153345,-1.05342,-0.0528675,2.99057,0.357868,-0.391055,0.0803549
5623996,0,-1.57063,-0.52285,-1.92959e-05,-2.09654,-0.00022518,1.57132,0.785161,-1.5708,-0.523598,-1.78584e-08,-2.0944,2.6929e-08,1.5708,0.785398,-0.000595266,0.000606089,0.000637339,0.000452842,0.000100752,-7.08478e-05,-0.00178214,0,0,0,0,0,0,0,-0.125111,-10.213,-0.559934,21.5152,1.06783,1.28195,0.110056,-0.154157,-1.05488,-0.0541527,2.99207,0.357793,-0.390888,0.0801699
5623997,0,-1.57063,-0.522853,-2.07163e-05,-2.09655,-0.000223855,1.57132,0.785161,-1.5708,-0.523598,-1.78584e-08,-2.0944,2.6929e-08,1.5708,0.785398,-0.000396844,-0.000709565,0.000424893,-0.000346816,0.000270618,-4.72319e-05,-0.000950735,0,0,0,0,0,0,0,-0.125111,-10.1654,-0.559934,21.543,1.06233,1.28195,0.103647,-0.155002,-1.05487,-0.0557001,2.99258,0.357695,-0.390813,0.0799688
5623998,0,-1.57063,-0.522853,-2.4809e-05,-2.09655,-0.000228746,1.57132,0.785164,-1.5708,-0.523598,-1.78584e-08,-2.0944,2.6929e-08,1.5708,0.785398,-0.000264563,-0.000473043,-0.000923164,-0.000230533,-0.000463848,0.00044323,0.000315613,0,0,0,0,0,0,0,-0.125111,-10.1654,-0.508359,21.543,1.07973,1.26913,0.0780126,-0.155151,-1.05352,-0.0563589,2.99239,0.357612,-0.390789,0.0797841
5623999,0,-1.57063,-0.522853,-2.49668e-05,-2.09654,-0.000226536,1.57132,0.78516,-1.5708,-0.523598,-1.78584e-08,-2.0944,2.6929e-08,1.5708,0.785398,0.000473239,-0.000315362,-0.000615443,0.000496433,-0.000309232,-0.000179231,-2.69505e-05,0,0,0,0,0,0,0,-0.152882,-10.1654,-0.508359,21.5152,1.07973,1.28195,0.0844213,-0.154397,-1.05097,-0.0556611,2.99156,0.357552,-0.390821,0.0796488
5624000,0,-1.57063,-0.522852,-2.3349e-05,-2.09654,-0.000227673,1.57132,0.785165,-1.5708,-0.523598,-1.78584e-08,-2.0944,2.6929e-08,1.5708,0.785398,0.000872305,0.000346571,0.000146517,0.00144496,0.000234655,0.00035523,0.000931469,0,0,0,0,0,0,0,-0.176685,-10.1892,-0.532163,21.4676,1.06783,1.26913,0.0587866,-0.153627,-1.04802,-0.054802,2.99,0.357473,-0.390953,0.079563
5624001,0,-1.57063,-0.522855,-2.14177e-05,-2.09655,-0.000225297,1.57132,0.785162,-1.5708,-0.523598,-1.78584e-08,-2.0944,2.6929e-08,1.5708,0.785398,0.00123115,-0.000975379,0.000747292,-0.000799645,0.000156437,0.00023682,-0.000803174,0,0,0,0,0,0,0,-0.204456,-10.1377,-0.559934,21.543,1.06783,1.26913,0.0972387,-0.154028,-1.04498,-0.0555272,2.98806,0.357337,-0.391149,0.0795112
5624002,0,-1.57064,-0.522853,-2.12419e-05,-2.09655,-0.000225115,1.57132,0.785163,-1.5708,-0.523598,-1.78584e-08,-2.0944,2.6929e-08,1.5708,0.785398,-0.00159208,-6.38652e-07,-0.000151419,-0.000532883,-9.91595e-05,-0.000554197,-6.07318e-05,0,0,0,0,0,0,0,-0.101307,-10.1654,-0.532163,21.543,1.07332,1.28836,0.0844213,-0.154996,-1.04241,-0.0571116,2.98679,0.357203,-0.391274,0.079475
5624003,0,-1.57063,-0.522853,-2.26642e-05,-2.09654,-0.000225563,1.57132,0.785162,-1.5708,-0.523598,-1.78584e-08,-2.0944,2.6929e-08,1.5708,0.785398,-0.000504578,-4.25768e-07,-0.000100946,0.00029452,-0.000303465,0.000105253,-0.000515206,0,0,0,0,0,0,0,-0.125111,-10.1654,-0.532163,21.5152,1.07973,1.27554,0.0972387,-0.154934,-1.04107,-0.0573838,2.98651,0.357151,-0.391301,0.0794528
5624004,0,-1.57063,-0.522852,-2.31383e-05,-2.09654,-0.000224763,1.57132,0.785161,-1.5708,-0.523598,-1.78584e-08,-2.0944,2.6929e-08,1.5708,0.785398,0.000313229,0.000556528,-6.72975e-05,0.000753279,3.50488e-05,0.000307528,0.000368606,0,0,0,0,0,0,0,-0.152882,-10.1892,-0.532163,21.4914,1.07332,1.26913,0.0780126,-0.154083,-1.04085,-0.0566015,2.98649,0.357146,-0.391332,0.0794579
5624005,0,-1.57063,-0.522853,-2.49667e-05,-2.09654,-0.000226056,1.57132,0.785169,-1.5708,-0.523598,-1.78584e-08,-2.0944,2.6929e-08,1.5708,0.785398,0.000765631,-0.000185793,-0.000601677,-5.45356e-05,-0.000417444,-3.23403e-05,0.00217852,0,0,0,0,0,0,0,-0.176685,-10.1654,-0.508359,21.5152,1.08522,1.27554,0.0258276,-0.153426,-1.04122,-0.0559826,2.98639,0.357136,-0.391402,0.0794954
5624006,0,-1.57063,-0.522852,-2.50194e-05,-2.09654,-0.000224724,1.57132,0.78516,-1.5708,-0.523598,-1.78584e-08,-2.0944,2.6929e-08,1.5708,0.785398,0.000510421,0.00043295,-0.000401118,0.000520523,0.000162514,-2.15602e-05,-0.00166723,0,0,0,0,0,0,0,-0.176685,-10.1892,-0.508359,21.4914,1.07332,1.27554,0.110056,-0.153028,-1.04184,-0.0555297,2.98633,0.357129,-0.391478,0.0795314
5624007,0,-1.57063,-0.52285,-2.67074e-05,-2.09655,-0.000225433,1.57132,0.785164,-1.5708,-0.523598,-1.78584e-08,-2.0944,2.6929e-08,1.5708,0.785398,0.00034028,0.000845445,-0.000824224,-0.00085936,-0.000129016,-1.43735e-05,7.53083e-05,0,0,0,0,0,0,0,-0.176685,-10.213,-0.484555,21.543,1.07973,1.27554,0.0780126,-0.15263,-1.0436,-0.0548698,2.9869,0.35716,-0.391498,0.0795326
5624008,0,-1.57063,-0.522853,-2.33724e-05,-2.09654,-0.000225432,1.57132,0.78516,-1.5708,-0.523598,-1.78584e-08,-2.0944,2.6929e-08,1.5708,0.785398,-0.000979572,-0.000549994,0.000564141,0.000633557,-8.6011e-05,-9.58232e-06,-0.00137395,0,0,0,0,0,0,0,-0.125111,-10.1654,-0.532163,21.4914,1.07973,1.27554,0.116465,-0.152068,-1.04614,-0.0539081,2.98802,0.357237,-0.391463,0.0795171
5624009,0,-1.57063,-0.522852,-2.33743e-05,-2.09654,-0.000224719,1.57132,0.785163,-1.5708,-0.523598,-1.78584e-08,-2.0944,2.6929e-08,1.5708,0.785398,-3.43423e-06,0.000190149,0.000376094,0.0004224,0.000180018,-6.38821e-06,3.34703e-05,0,0,0,0,0,0,0,-0.152882,-10.1892,-0.532163,21.4914,1.07332,1.27554,0.09083,-0.151663,-1.04726,-0.0532849,2.98835,0.357316,-0.391493,0.07952
5624010,0,-1.57063,-0.522853,-2.50454e-05,-2.09654,-0.000225431,1.57132,0.785168,-1.5708,-0.523598,-1.78584e-08,-2.0944,2.6929e-08,1.5708,0.785398,-0.000651903,-0.000430046,-0.000306082,-0.00027519,-0.000117347,0.000470459,0.00168383,0,0,0,0,0,0,0,-0.125111,-10.1654,-0.508359,21.5152,1.07973,1.26272,0.0459692,-0.151452,-1.04699,-0.0530276,2.98787,0.357387,-0.391593,0.079566
5624011,0,-1.57063,-0.522855,-2.33752e-05,-2.09654,-0.000223498,1.57132,0.785162,-1.5708,-0.523598,-1.78584e-08,-2.0944,2.6929e-08,1.5708,0.785398,0.000215012,-0.000936311,0.000352757,-0.000183444,0.000566029,7.62804e-05,-0.000776321,0,0,0,0,0,0,0,-0.152882,-10.1377,-0.532163,21.5152,1.06233,1.26913,0.0972387,-0.151229,-1.04568,-0.0527567,2.9871,0.357463,-0.391706,0.0796402
5624012,0,-1.57063,-0.522852,-2.29152e-05,-2.09655,-0.000224109,1.57132,0.785166,-1.5708,-0.523598,-1.78584e-08,-2.0944,2.6929e-08,1.5708,0.785398,0.000700153,0.000582219,-0.000321641,-0.000771898,0.000173902,5.08536e-05,0.000906606,0,0,0,0,0,0,0,-0.176685,-10.1892,-0.508359,21.543,1.06783,1.26913,0.0587866,-0.151357,-1.04414,-0.0529248,2.98655,0.357527,-0.391795,0.0797109
5624013,0,-1.57063,-0.52285,-2.6006e-05,-2.09655,-0.000224719,1.57132,0.78516,-1.5708,-0.523598,-1.78584e-08,-2.0944,2.6929e-08,1.5708,0.785398,0.000466769,0.000944958,-0.000771239,-0.00051459,-8.75158e-05,-0.000440815,-0.00153183,0,0,0,0,0,0,0,-0.176685,-10.213,-0.484555,21.543,1.07332,1.28195,0.116465,-0.151707,-1.04503,-0.0532154,2.98738,0.357592,-0.391779,0.0797708
5624014,0,-1.57063,-0.522853,-2.31386e-05,-2.09655,-0.000224109,1.57133,0.785167,-1.5708,-0.523598,-1.78584e-08,-2.0944,2.6929e-08,1.5708,0.785398,-0.000895247,-0.000483652,0.000599465,-0.00145668,0.000145107,0.000180841,0.00135237,0,0,0,0,0,0,0,-0.125111,-10.1654,-0.532163,21.5906,1.06783,1.26913,0.0523779,-0.151806,-1.04815,-0.0530436,2.98957,0.357678,-0.391657,0.0798255
5624015,0,-1.57063,-0.52285,-2.13476e-05,-2.09655,-0.000228627,1.57132,0.785163,-1.5708,-0.523598,-1.78584e-08,-2.0944,2.6929e-08,1.5708,0.785398,0.000609595,0.000791189,0.00104926,0.000142511,-0.000344072,0.000120561,-0.000285213,0,0,0,0,0,0,0,-0.176685,-10.213,-0.559934,21.543,1.07973,1.26913,0.0844213,-0.152209,-1.05135,-0.053427,2.99199,0.357739,-0.391526,0.0798849
5624016,0,-1.57063,-0.522853,-2.12185e-05,-2.09654,-0.00022898,1.57132,0.785166,-1.5708,-0.523598,-1.78584e-08,-2.0944,2.6929e-08,1.5708,0.785398,-0.000800029,-0.000586164,4.98907e-05,0.00130144,7.9778e-06,-0.000156985,0.000759294,0,0,0,0,0,0,0,-0.125111,-10.1654,-0.532163,21.4914,1.07332,1.27554,0.0587866,-0.15315,-1.05307,-0.0547083,2.99322,0.357734,-0.391543,0.079937
5624017,0,-1.57063,-0.522855,-2.59972e-05,-2.09654,-0.000225529,1.57132,0.785167,-1.5708,-0.523598,-1.78584e-08,-2.0944,2.6929e-08,1.5708,0.785398,0.000116261,-0.00104039,-0.00108036,0.000310816,0.000208769,-0.000104657,0.000743555,0,0,0,0,0,0,0,-0.152882,-10.1377,-0.484555,21.5152,1.06783,1.27554,0.0523779,-0.153488,-1.0515,-0.0551152,2.99212,0.357699,-0.391794,0.0799549
5624018,0,-1.57063,-0.522853,-2.48061e-05,-2.09654,-0.000224582,1.57132,0.785161,-1.5708,-0.523598,-1.78584e-08,-2.0944,2.6929e-08,1.5708,0.785398,0.000634319,-4.39796e-05,-0.00016343,0.000764025,0.000139179,-0.00030713,-0.00164053,0,0,0,0,0,0,0,-0.176685,-10.1654,-0.508359,21.4914,1.06783,1.28195,0.110056,-0.153041,-1.04738,-0.0542439,2.98952,0.357664,-0.39217,0.0799209
5624019,0,-1.57063,-0.522853,-2.32954e-05,-2.09655,-0.000227462,1.57132,0.785166,-1.5708,-0.523598,-1.78584e-08,-2.0944,2.6929e-08,1.5708,0.785398,-0.000783546,-2.93197e-05,0.000447858,-0.00125389,9.27862e-05,-0.000204753,0.000567828,0,0,0,0,0,0,0,-0.125111,-10.1654,-0.532163,21.5668,1.06783,1.28195,0.0651953,-0.152679,-1.04396,-0.0534299,2.98745,0.357628,-0.392477,0.0798482
5624020,0,-1.57063,-0.522853,-2.33487e-05,-2.09655,-0.000226549,1.57132,0.78516,-1.5708,-0.523598,-1.78584e-08,-2.0944,2.6929e-08,1.5708,0.785398,0.00012725,-1.95465e-05,0.000298572,-0.000835923,-0.000378952,-0.00061122,-0.000570884,0,0,0,0,0,0,0,-0.152882,-10.1654,-0.532163,21.5668,1.07973,1.29476,0.09083,-0.152616,-1.04292,-0.0531727,2.98723,0.357609,-0.392576,0.0797719
5624021,0,-1.57063,-0.522853,-2.67073e-05,-2.09655,-0.000226414,1.57132,0.785164,-1.5708,-0.523598,-1.78584e-08,-2.0944,2.6929e-08,1.5708,0.785398,-0.000564781,-1.3031e-05,-0.000914576,-4.69246e-07,-0.000456085,6.72378e-05,0.000331487,0,0,0,0,0,0,0,-0.125111,-10.1654,-0.484555,21.543,1.08522,1.28195,0.071604,-0.152378,-1.04341,-0.0527393,2.98821,0.357619,-0.392529,0.0797025
5624022,0,-1.57064,-0.522852,-2.50428e-05,-2.09654,-0.000225555,1.57132,0.785166,-1.5708,-0.523598,-1.78584e-08,-2.0944,2.6929e-08,1.5708,0.785398,-0.000933332,0.000548125,-5.29052e-05,0.00120611,-0.000100606,0.000519543,0.00069571,0,0,0,0,0,0,0,-0.101307,-10.1892,-0.508359,21.4914,1.07973,1.26913,0.0587866,-0.151355,-1.04406,-0.0511986,2.98889,0.35766,-0.39251,0.0796354
5624023,0,-1.57063,-0.522852,-2.33743e-05,-2.09654,-0.00022476,1.57132,0.785161,-1.5708,-0.523598,-1.78584e-08,-2.0944,2.6929e-08,1.5708,0.785398,0.000584204,0.000922228,0.000521542,0.000247264,0.000170288,-0.000128356,-0.00119771,0,0,0,0,0,0,0,-0.152882,-10.213,-0.532163,21.5152,1.07332,1.28195,0.103647,-0.150253,-1.0451,-0.0496232,2.98904,0.357705,-0.392561,0.079565
5624024,0,-1.57063,-0.522851,-2.50454e-05,-2.09654,-0.000228641,1.57132,0.785165,-1.5708,-0.523598,-1.78584e-08,-2.0944,2.6929e-08,1.5708,0.785398,0.000946281,0.000614819,-0.000209117,0.000164843,-0.000123834,-8.55706e-05,0.000388324,0,0,0,0,0,0,0,-0.176685,-10.213,-0.508359,21.5152,1.07973,1.28195,0.071604,-0.150198,-1.0473,-0.04954,2.98949,0.357717,-0.392592,0.0794956
5624025,0,-1.57063,-0.522852,-2.12447e-05,-2.09655,-0.000225178,1.57132,0.78516,-1.5708,-0.523598,-1.78584e-08,-2.0944,2.6929e-08,1.5708,0.785398,-0.000575572,-0.000146933,0.0004174,-0.00109653,0.000358254,-5.7047e-05,-0.00140263,0,0,0,0,0,0,0,-0.125111,-10.1892,-0.532163,21.5668,1.06783,1.28195,0.116465,-0.150819,-1.05003,-0.0503841,2.99054,0.357725,-0.392534,0.0794408
5624026,0,-1.57063,-0.522852,-2.05346e-05,-2.09654,-0.000225788,1.57132,0.785163,-1.5708,-0.523598,-1.78584e-08,-2.0944,2.6929e-08,1.5708,0.785398,0.0002659,-9.79551e-05,0.000278267,0.000475406,-0.000201974,0.000674045,0.00120114,0,0,0,0,0,0,0,-0.152882,-10.1892,-0.532163,21.5152,1.07973,1.26272,0.0587866,-0.151471,-1.05188,-0.0513553,2.99159,0.357747,-0.392433,0.0794135
5624027,0,-1.57064,-0.522852,-2.24284e-05,-2.09655,-0.00022555,1.57132,0.785163,-1.5708,-0.523598,-1.78584e-08,-2.0944,2.6929e-08,1.5708,0.785398,-0.00102916,-6.53034e-05,0.000185511,-0.0014463,-0.000134649,0.000212005,8.86857e-05,0,0,0,0,0,0,0,-0.101307,-10.1892,-0.532163,21.5906,1.07973,1.26913,0.0780126,-0.151885,-1.05266,-0.0521239,2.99236,0.357785,-0.392341,0.0794197
5624028,0,-1.57063,-0.52285,-2.64006e-05,-2.09655,-0.000225471,1.57132,0.785165,-1.5708,-0.523598,-1.78584e-08,-2.0944,2.6929e-08,1.5708,0.785398,0.00052032,0.000513276,-0.00098995,0.000149424,-8.97661e-05,-0.000333381,0.000533842,0,0,0,0,0,0,0,-0.152882,-10.213,-0.484555,21.543,1.07973,1.28195,0.0651953,-0.151634,-1.05357,-0.0519954,2.99342,0.357866,-0.392228,0.0794391
5624029,0,-1.57063,-0.522852,-2.11396e-05,-2.09654,-0.000223511,1.57132,0.785167,-1.5708,-0.523598,-1.78584e-08,-2.0944,2.6929e-08,1.5708,0.785398,-0.000302734,-0.000214628,0.000453657,0.00130604,0.000584416,0.000252464,0.000830612,0,0,0,0,0,0,0,-0.125111,-10.1892,-0.532163,21.4914,1.06233,1.26913,0.0523779,-0.150947,-1.05409,-0.0511922,2.99399,0.357955,-0.39219,0.0794467
5624030,0,-1.57063,-0.522852,-2.06812e-05,-2.09654,-0.000224723,1.57132,0.785158,-1.5708,-0.523598,-1.78584e-08,-2.0944,2.6929e-08,1.5708,0.785398,0.0010046,-0.000143085,0.000952052,0.000313883,-1.72904e-05,-0.000306409,-0.00253192,0,0,0,0,0,0,0,-0.176685,-10.1892,-0.559934,21.5152,1.07332,1.28195,0.135691,-0.15095,-1.05281,-0.0513916,2.99304,0.357974,-0.392325,0.0794269
5624031,0,-1.57063,-0.522858,-2.84166e-05,-2.09654,-0.00022472,1.57132,0.785166,-1.5708,-0.523598,-1.78584e-08,-2.0944,2.6929e-08,1.5708,0.785398,0.000669735,-0.00130182,-0.00177815,0.000209255,-1.15269e-05,3.30864e-05,0.000922999,0,0,0,0,0,0,0,-0.176685,-10.1377,-0.456784,21.5152,1.07332,1.27554,0.0651953,-0.151585,-1.04963,-0.0524272,2.99105,0.357937,-0.392548,0.0793904
5624032,0,-1.57063,-0.522854,-2.32925e-05,-2.09654,-0.000224109,1.57132,0.785163,-1.5708,-0.523598,-1.78584e-08,-2.0944,2.6929e-08,1.5708,0.785398,-0.000110322,-0.000218263,0.000577804,0.000696315,0.000195766,2.20576e-05,-0.000334103,0,0,0,0,0,0,0,-0.152882,-10.1654,-0.532163,21.4914,1.06783,1.27554,0.09083,-0.151786,-1.04502,-0.0526424,2.98846,0.357899,-0.392803,0.0793704
5624033,0,-1.57063,-0.522856,-1.92683e-05,-2.09655,-0.000225431,1.57132,0.785165,-1.5708,-0.523598,-1.78584e-08,-2.0944,2.6929e-08,1.5708,0.785398,-0.000723162,-0.000795123,0.00103482,-0.000742216,-0.000310299,-0.000460013,0.00171004,0,0,0,0,0,0,0,-0.125111,-10.1377,-0.559934,21.543,1.07973,1.28836,0.038645,-0.151857,-1.04042,-0.0527422,2.98605,0.357865,-0.393028,0.0793781
5624034,0,-1.57063,-0.522854,-2.26559e-05,-2.09654,-0.000225431,1.57132,0.785162,-1.5708,-0.523598,-1.78584e-08,-2.0944,2.6929e-08,1.5708,0.785398,0.000167506,0.000119532,4.02639e-05,0.000154804,-0.000206866,-6.93163e-05,-0.000555391,0,0,0,0,0,0,0,-0.152882,-10.1654,-0.532163,21.5152,1.07973,1.28195,0.0844213,-0.152214,-1.03723,-0.0534637,2.98469,0.357836,-0.39314,0.0793916
5624035,0,-1.57063,-0.522854,-2.4806e-05,-2.09655,-0.000224109,1.57132,0.785164,-1.5708,-0.523598,-1.78584e-08,-2.0944,2.6929e-08,1.5708,0.785398,0.000668483,7.9688e-05,-0.000529969,-0.000546412,0.000302899,-4.62108e-05,-0.000132902,0,0,0,0,0,0,0,-0.176685,-10.1654,-0.508359,21.543,1.06783,1.28195,0.0780126,-0.15248,-1.03604,-0.0540198,2.9845,0.357835,-0.393133,0.0793798
5624036,0,-1.57063,-0.522853,-2.32954e-05,-2.09655,-0.000227915,1.57132,0.785161,-1.5708,-0.523598,-1.78584e-08,-2.0944,2.6929e-08,1.5708,0.785398,-0.000111157,5.31253e-05,0.000203499,-0.000364274,-1.51795e-06,0.000206552,-0.00103804,0,0,0,0,0,0,0,-0.152882,-10.1654,-0.532163,21.543,1.07332,1.27554,0.103647,-0.152551,-1.03673,-0.0541412,2.9853,0.357867,-0.393027,0.0793415
5624037,0,-1.57063,-0.522855,-2.33487e-05,-2.09655,-0.000229692,1.57132,0.785161,-1.5708,-0.523598,-1.78584e-08,-2.0944,2.6929e-08,1.5708,0.785398,-7.41045e-05,-0.000614197,0.000135666,-0.000799662,-0.000238371,-0.000337017,-0.000692025,0,0,0,0,0,0,0,-0.152882,-10.1377,-0.532163,21.5668,1.07973,1.28836,0.103647,-0.152529,-1.03806,-0.0541015,2.98665,0.357917,-0.392857,0.0793033
5624038,0,-1.57063,-0.522852,-2.33664e-05,-2.09654,-0.000226139,1.57133,0.785169,-1.5708,-0.523598,-1.78584e-08,-2.0944,2.6929e-08,1.5708,0.785398,-4.9403e-05,0.000796961,9.0444e-05,0.000673318,7.8445e-05,0.00025004,0.00194615,0,0,0,0,0,0,0,-0.152882,-10.1892,-0.532163,21.5152,1.07332,1.27554,0.038645,-0.152453,-1.03942,-0.0540191,2.98801,0.357968,-0.392684,0.079297
5624039,0,-1.57063,-0.522855,-2.33724e-05,-2.09655,-0.000224582,1.57132,0.785161,-1.5708,-0.523598,-1.78584e-08,-2.0944,2.6929e-08,1.5708,0.785398,-3.29354e-05,-0.000675118,6.0296e-05,-0.000757547,0.000255747,0.000404052,-0.00111007,0,0,0,0,0,0,0,-0.152882,-10.1377,-0.532163,21.5668,1.06783,1.26913,0.103647,-0.152325,-1.04082,-0.0538619,2.98914,0.358015,-0.392548,0.0793203
5624040,0,-1.57063,-0.522853,-2.33743e-05,-2.09654,-0.000225589,1.57132,0.785164,-1.5708,-0.523598,-1.78584e-08,-2.0944,2.6929e-08,1.5708,0.785398,-0.000671571,0.000199535,4.01973e-05,0.000701395,-0.000270311,-0.00020535,0.00115883,0,0,0,0,0,0,0,-0.125111,-10.1654,-0.532163,21.5152,1.07973,1.28195,0.0523779,-0.152015,-1.0416,-0.0534762,2.98985,0.358059,-0.392462,0.0793427
5624041,0,-1.57063,-0.522852,-2.29149e-05,-2.09654,-0.000225484,1.57132,0.78516,-1.5708,-0.523598,-1.78584e-08,-2.0944,2.6929e-08,1.5708,0.785398,-0.000447714,0.000689835,-0.000530014,0.000467596,-0.000180208,-0.0001369,-0.00136368,0,0,0,0,0,0,0,-0.125111,-10.1892,-0.508359,21.5152,1.07973,1.28195,0.110056,-0.151186,-1.04218,-0.052403,2.99017,0.358115,-0.392435,0.0793538
5624042,0,-1.57063,-0.522853,-2.43355e-05,-2.09654,-0.000225449,1.57132,0.785162,-1.5708,-0.523598,-1.78584e-08,-2.0944,2.6929e-08,1.5708,0.785398,-0.000298476,-9.69218e-05,-0.000353342,-0.000337883,-0.000120138,-9.12665e-05,-0.000197042,0,0,0,0,0,0,0,-0.125111,-10.1654,-0.508359,21.543,1.07973,1.28195,0.09083,-0.149808,-1.04335,-0.0505632,2.99055,0.358198,-0.392417,0.0793585
5624043,0,-1.57063,-0.522852,-2.31386e-05,-2.09654,-0.00022731,1.57132,0.785162,-1.5708,-0.523598,-1.78584e-08,-2.0944,2.6929e-08,1.5708,0.785398,-0.000198984,0.000492197,0.00032125,0.000424359,0.000360717,0.000176515,-0.00036872,0,0,0,0,0,0,0,-0.125111,-10.1892,-0.532163,21.5152,1.06783,1.27554,0.0972387,-0.14847,-1.04472,-0.0488176,2.99111,0.35829,-0.392375,0.07938
5624044,0,-1.57063,-0.52285,-2.49668e-05,-2.09654,-0.000225176,1.57132,0.785166,-1.5708,-0.523598,-1.78584e-08,-2.0944,2.6929e-08,1.5708,0.785398,0.00107377,0.000884944,-0.000342645,0.000282906,0.000240478,0.000117676,0.00117834,0,0,0,0,0,0,0,-0.176685,-10.213,-0.508359,21.5152,1.06783,1.27554,0.0587866,-0.147827,-1.04646,-0.0480714,2.99178,0.35835,-0.392328,0.0794415
5624045,0,-1.57063,-0.522853,-2.14002e-05,-2.09654,-0.000224464,1.57132,0.785166,-1.5708,-0.523598,-1.78584e-08,-2.0944,2.6929e-08,1.5708,0.785398,-0.000490579,-0.000523662,0.000977996,0.000745416,0.000160319,7.84509e-05,0.000548201,0,0,0,0,0,0,0,-0.125111,-10.1654,-0.559934,21.4914,1.06783,1.27554,0.0651953,-0.148029,-1.04796,-0.0485206,2.99212,0.358354,-0.392319,0.0795323
5624046,0,-1.57063,-0.522852,-2.14177e-05,-2.09654,-0.000224838,1.57132,0.78516,-1.5708,-0.523598,-1.78584e-08,-2.0944,2.6929e-08,1.5708,0.785398,0.000879373,0.000207704,0.000651997,-5.98681e-05,-9.65713e-05,-0.000185058,-0.0015334,0,0,0,0,0,0,0,-0.176685,-10.1892,-0.559934,21.5152,1.07332,1.28195,0.116465,-0.149038,-1.04797,-0.0502256,2.99172,0.358293,-0.392368,0.0796186
5624047,0,-1.57063,-0.522853,-2.12419e-05,-2.09654,-0.000224759,1.57132,0.785166,-1.5708,-0.523598,-1.78584e-08,-2.0944,2.6929e-08,1.5708,0.785398,-0.000620177,-0.000418342,-0.000214949,-3.99121e-05,-6.43809e-05,0.000113987,0.00111396,0,0,0,0,0,0,0,-0.125111,-10.1654,-0.532163,21.5152,1.07332,1.27554,0.0587866,-0.150291,-1.04712,-0.0523652,2.9911,0.35821,-0.392411,0.0796914
5624048,0,-1.57064,-0.522853,-2.22041e-05,-2.09654,-0.000224122,1.57132,0.785161,-1.5708,-0.523598,-1.78584e-08,-2.0944,2.6929e-08,1.5708,0.785398,-0.000970263,-0.000278895,-0.000700111,-2.6608e-05,0.00016053,0.00031335,-0.00115623,0,0,0,0,0,0,0,-0.101307,-10.1654,-0.508359,21.5152,1.06783,1.26913,0.110056,-0.150426,-1.04583,-0.052945,2.99047,0.358177,-0.392434,0.0797593
5624049,0,-1.57063,-0.522853,-2.04793e-05,-2.09655,-0.000225435,1.57132,0.785165,-1.5708,-0.523598,-1.78584e-08,-2.0944,2.6929e-08,1.5708,0.785398,0.000559584,-0.00018593,0.000739685,-0.00122416,-0.00033379,-2.84589e-05,0.000653333,0,0,0,0,0,0,0,-0.152882,-10.1654,-0.559934,21.5668,1.07973,1.27554,0.071604,-0.149642,-1.04456,-0.0522813,2.99016,0.358191,-0.392413,0.0798287
5624050,0,-1.57063,-0.522852,-2.30596e-05,-2.09654,-0.00022472,1.57132,0.785165,-1.5708,-0.523598,-1.78584e-08,-2.0944,2.6929e-08,1.5708,0.785398,-0.000276558,0.000432859,-0.000156491,0.00150394,1.48326e-05,-1.89726e-05,0.000435555,0,0,0,0,0,0,0,-0.125111,-10.1892,-0.532163,21.4676,1.07332,1.27554,0.071604,-0.1492,-1.04395,-0.0521626,2.99025,0.35819,-0.392367,0.079913
