shamilmamedov/beam_handling/log/param_estimation_ICRA/ocp_Xdown_15cm_0.35s_2.csv
duration, success rate, q[0], q[1], q[2], q[3], q[4], q[5], q[6],q_d[0], q_d[1], q_d[2], q_d[3], q_d[4], q_d[5], q_d[6],dq[0], dq[1], dq[2], dq[3], dq[4], dq[5], dq[6],dq_d[0], dq_d[1], dq_d[2], dq_d[3], dq_d[4], dq_d[5], dq_d[6],tau_J[0], tau_J[1], tau_J[2], tau_J[3], tau_J[4], tau_J[5], tau_J[6],tau_ext_hat_filtered[0], tau_ext_hat_filtered[1], tau_ext_hat_filtered[2], tau_ext_hat_filtered[3], tau_ext_hat_filtered[4], tau_ext_hat_filtered[5], tau_ext_hat_filtered[6]
2116129,0,-1.57093,-0.522755,-0.000645383,-2.09574,-1.57075,1.57154,0.785856,-1.5708,-0.523599,-4.27164e-08,-2.09439,-1.5708,1.5708,0.785399,-0.000511597,-0.000454329,-0.00107728,0.00080489,0.000467871,9.25692e-05,0.000916788,0,0,0,0,0,0,0,0.0732535,-10.2924,1.03491,20.7218,-0.848372,-0.57932,-0.271719,0.0711036,-1.17534,0.832212,2.21075,-0.267427,-0.573906,-0.310471
2116130,1,-1.57093,-0.522752,-0.00063962,-2.09575,-1.57075,1.57154,0.78585,-1.5708,-0.523599,-4.27164e-08,-2.09439,-1.5708,1.5708,0.785399,0.000215747,0.000810738,0.00104558,-2.02186e-05,-0.000298438,-0.000175646,-0.00132159,0,0,0,0,0,0,0,0.0494498,-10.34,0.959536,20.7456,-0.831892,-0.572911,-0.219534,0.0719241,-1.17315,0.833473,2.20952,-0.267363,-0.57373,-0.309955
2116131,1,-1.57094,-0.522753,-0.000641132,-2.09574,-1.57075,1.57155,0.785855,-1.5708,-0.523599,-4.27164e-08,-2.09439,-1.5708,1.5708,0.785399,-0.00161941,-1.632e-05,0.000140634,-1.34791e-05,4.49209e-06,0.000120262,-0.000168982,0,0,0,0,0,0,0,0.124828,-10.3162,0.98334,20.7456,-0.837385,-0.57932,-0.23876,0.0725123,-1.1728,0.8343,2.20929,-0.267372,-0.573619,-0.309472
2116132,1,-1.57093,-0.522753,-0.00064108,-2.09575,-1.57075,1.57154,0.785854,-1.5708,-0.523599,-4.27164e-08,-2.09439,-1.5708,1.5708,0.785399,0.000683634,-1.088e-05,9.40522e-05,-0.000565798,2.99473e-06,-0.000157185,0.000395972,0,0,0,0,0,0,0,0.0494498,-10.3162,0.98334,20.7694,-0.837385,-0.572911,-0.252493,0.0730059,-1.17366,0.834851,2.20995,-0.267443,-0.573544,-0.308997
2116133,1,-1.57093,-0.522759,-0.000641062,-2.09574,-1.57075,1.57155,0.785852,-1.5708,-0.523599,-4.27164e-08,-2.09439,-1.5708,1.5708,0.785399,-0.000101056,-0.00177049,6.29235e-05,0.000736425,-0.000404905,0.000369928,-0.000244645,0,0,0,0,0,0,0,0.0732535,-10.2408,0.98334,20.7218,-0.826399,-0.585729,-0.23876,0.0732955,-1.17318,0.835054,2.21017,-0.26752,-0.573493,-0.308525
2116134,1,-1.57093,-0.522752,-0.000643005,-2.09574,-1.57075,1.57155,0.785852,-1.5708,-0.523599,-4.27164e-08,-2.09439,-1.5708,1.5708,0.785399,0.00104625,0.00113972,-0.000607498,-6.58618e-05,-0.000269936,9.25982e-06,0.000108171,0,0,0,0,0,0,0,0.0256461,-10.34,1.01111,20.7456,-0.826399,-0.57932,-0.246084,0.0732432,-1.17114,0.834817,2.20954,-0.267576,-0.573486,-0.308065
2116135,1,-1.57093,-0.522753,-0.000641054,-2.09574,-1.57075,1.57155,0.785851,-1.5708,-0.523599,-4.27164e-08,-2.09439,-1.5708,1.5708,0.785399,0.000697502,0.000203003,0.00024474,0.000512904,2.34929e-05,0.000243532,-0.000199154,0,0,0,0,0,0,0,0.0256461,-10.3162,0.98334,20.7218,-0.831892,-0.585729,-0.23876,0.0728142,-1.17065,0.83424,2.20941,-0.267646,-0.573567,-0.307609
2116136,1,-1.57093,-0.522755,-0.000643003,-2.09574,-1.57076,1.57154,0.785856,-1.5708,-0.523599,-4.27164e-08,-2.09439,-1.5708,1.5708,0.785399,-0.000648623,-0.000421477,-0.00048636,0.00154836,1.5662e-05,-7.50042e-05,0.00156265,0,0,0,0,0,0,0,0.0732535,-10.2924,1.01111,20.6702,-0.831892,-0.57932,-0.284536,0.0722701,-1.1709,0.833609,2.20921,-0.267699,-0.573687,-0.307159
2116137,1,-1.57093,-0.522756,-0.000641053,-2.09574,-1.57075,1.57154,0.785853,-1.5708,-0.523599,-4.27164e-08,-2.09439,-1.5708,1.5708,0.785399,0.000124397,0.000275828,0.000325444,-0.000174185,1.04413e-05,0.000187356,-0.000145027,0,0,0,0,0,0,0,0.0494498,-10.3162,0.98334,20.7218,-0.831892,-0.585729,-0.252493,0.0721282,-1.17012,0.833513,2.20815,-0.267699,-0.573747,-0.306735
2116138,1,-1.57093,-0.522754,-0.000641053,-2.09574,-1.57075,1.57154,0.785852,-1.5708,-0.523599,-4.27164e-08,-2.09439,-1.5708,1.5708,0.785399,-0.000473881,0.000183885,0.000217015,-0.000116123,6.96087e-06,-0.000112455,-0.000334043,0,0,0,0,0,0,0,0.0732535,-10.3162,0.98334,20.7218,-0.831892,-0.57932,-0.246084,0.0720504,-1.17009,0.833474,2.20762,-0.267712,-0.573816,-0.306358
2116139,1,-1.57093,-0.522754,-0.000641053,-2.09574,-1.57075,1.57154,0.785854,-1.5708,-0.523599,-4.27164e-08,-2.09439,-1.5708,1.5708,0.785399,-0.000965534,0.00012259,0.000144716,-7.74154e-05,4.64058e-06,-0.000312329,0.000252022,0,0,0,0,0,0,0,0.101024,-10.3162,0.98334,20.7218,-0.831892,-0.572911,-0.258901,0.0720666,-1.17132,0.833493,2.20804,-0.267758,-0.573892,-0.306028
2116140,1,-1.57093,-0.522755,-0.000641053,-2.09574,-1.57075,1.57154,0.785858,-1.5708,-0.523599,-4.27164e-08,-2.09439,-1.5708,1.5708,0.785399,0.000562736,-0.000475085,9.65073e-05,-5.16102e-05,0.000206544,-0.000208219,0.00159217,0,0,0,0,0,0,0,0.0494498,-10.2924,0.98334,20.7218,-0.837385,-0.572911,-0.297354,0.0722616,-1.1725,0.833674,2.2086,-0.267805,-0.573946,-0.305735
2116141,1,-1.57093,-0.522755,-0.000643002,-2.09575,-1.57075,1.57155,0.785856,-1.5708,-0.523599,-4.27164e-08,-2.09439,-1.5708,1.5708,0.785399,-0.000181654,-0.000316724,-0.000585254,-0.000591219,0.000341147,9.85461e-05,0.000586728,0,0,0,0,0,0,0,0.0732535,-10.2924,1.01111,20.7456,-0.842879,-0.57932,-0.284536,0.0723768,-1.17293,0.833749,2.20897,-0.267852,-0.573997,-0.305499
2116142,1,-1.57093,-0.522753,-0.000639383,-2.09574,-1.57075,1.57154,0.785858,-1.5708,-0.523599,-4.27164e-08,-2.09439,-1.5708,1.5708,0.785399,0.000435709,0.000345663,0.000816274,0.000719478,2.39806e-05,-0.000171662,0.00086587,0,0,0,0,0,0,0,0.0494498,-10.3162,0.959536,20.698,-0.837385,-0.572911,-0.297354,0.0722664,-1.17312,0.833533,2.20924,-0.267908,-0.574073,-0.305354
2116143,1,-1.57093,-0.522753,-0.000641053,-2.09574,-1.57075,1.57154,0.785857,-1.5708,-0.523599,-4.27164e-08,-2.09439,-1.5708,1.5708,0.785399,-0.000915953,0.000230442,-1.26171e-05,-0.000633972,-0.000187463,-0.000114441,-0.000846907,0,0,0,0,0,0,0,0.101024,-10.3162,0.98334,20.7456,-0.831892,-0.572911,-0.258901,0.0718526,-1.17393,0.832815,2.20958,-0.267987,-0.574198,-0.305321
2116144,1,-1.57093,-0.522755,-0.000641053,-2.09574,-1.57075,1.57154,0.785859,-1.5708,-0.523599,-4.27164e-08,-2.09439,-1.5708,1.5708,0.785399,0.00059579,-0.000403184,-8.402e-06,-0.000422648,7.84749e-05,0.000161065,0.000859549,0,0,0,0,0,0,0,0.0494498,-10.2924,0.98334,20.7456,-0.837385,-0.57932,-0.297354,0.0714959,-1.17525,0.832104,2.21024,-0.268087,-0.574312,-0.305393
2116145,1,-1.57093,-0.522755,-0.000643002,-2.09574,-1.57076,1.57154,0.785857,-1.5708,-0.523599,-4.27164e-08,-2.09439,-1.5708,1.5708,0.785399,-0.000159618,-0.000268789,-0.000655208,0.000275047,-0.000151134,0.000344736,9.83147e-05,0,0,0,0,0,0,0,0.0732535,-10.2924,1.01111,20.7218,-0.831892,-0.585729,-0.284536,0.0713909,-1.17592,0.831771,2.21069,-0.268177,-0.574373,-0.305554
2116146,1,-1.57093,-0.522753,-0.000641053,-2.09574,-1.57075,1.57154,0.785856,-1.5708,-0.523599,-4.27164e-08,-2.09439,-1.5708,1.5708,0.785399,0.0004504,0.000377619,0.000212814,0.000740176,-0.000100756,-0.000244894,-0.000171816,0,0,0,0,0,0,0,0.0494498,-10.3162,0.98334,20.698,-0.831892,-0.572911,-0.278127,0.0714051,-1.17573,0.831654,2.21039,-0.268233,-0.574408,-0.305798
2116147,1,-1.57093,-0.522755,-0.000643002,-2.09574,-1.57075,1.57154,0.785854,-1.5708,-0.523599,-4.27164e-08,-2.09439,-1.5708,1.5708,0.785399,0.000300266,-0.000305066,-0.000507734,0.000493451,-6.71706e-05,7.40962e-05,-0.000826621,0,0,0,0,0,0,0,0.0494498,-10.2924,1.01111,20.698,-0.831892,-0.57932,-0.258901,0.0713092,-1.17517,0.831421,2.20944,-0.26826,-0.574459,-0.306116
2116148,1,-1.57093,-0.522755,-0.000643002,-2.09574,-1.57075,1.57155,0.785856,-1.5708,-0.523599,-4.27164e-08,-2.09439,-1.5708,1.5708,0.785399,-0.000356634,-0.000203377,-0.000338486,-0.000227845,-0.000248231,-0.000187962,0.000398355,0,0,0,0,0,0,0,0.0732535,-10.2924,1.01111,20.7218,-0.826399,-0.572911,-0.284536,0.0713379,-1.17421,0.831418,2.20819,-0.268266,-0.574483,-0.306477
2116149,1,-1.57093,-0.522755,-0.000641053,-2.09575,-1.57075,1.57155,0.78586,-1.5708,-0.523599,-4.27164e-08,-2.09439,-1.5708,1.5708,0.785399,-0.000237756,-0.000135585,0.000423959,-0.00126552,3.79632e-05,-0.000125308,0.00026557,0,0,0,0,0,0,0,0.0732535,-10.2924,0.98334,20.7694,-0.831892,-0.572911,-0.284536,0.0716095,-1.17364,0.831764,2.20757,-0.268286,-0.574465,-0.30685
2116150,1,-1.57093,-0.522755,-0.000643002,-2.09574,-1.57075,1.57154,0.785854,-1.5708,-0.523599,-4.27164e-08,-2.09439,-1.5708,1.5708,0.785399,0.00095512,-9.03899e-05,-0.000366973,-0.00084368,0.00043221,0.00015382,-0.00100975,0,0,0,0,0,0,0,0.0256461,-10.2924,1.01111,20.7694,-0.842879,-0.57932,-0.252493,0.0715412,-1.17429,0.83165,2.20823,-0.268357,-0.574498,-0.307229
2116151,1,-1.57093,-0.522755,-0.000639383,-2.09574,-1.57075,1.57154,0.785857,-1.5708,-0.523599,-4.27164e-08,-2.09439,-1.5708,1.5708,0.785399,-0.000476877,-6.02599e-05,0.000961778,-5.64153e-06,-0.000118761,-0.000134812,0.000513629,0,0,0,0,0,0,0,0.0732535,-10.2924,0.959536,20.7456,-0.831892,-0.572911,-0.284536,0.0708736,-1.1755,0.830728,2.20942,-0.268457,-0.574616,-0.307613
2116152,1,-1.57093,-0.522755,-0.000643002,-2.09575,-1.57075,1.57154,0.785858,-1.5708,-0.523599,-4.27164e-08,-2.09439,-1.5708,1.5708,0.785399,0.000238894,-4.01733e-05,-0.000565239,-3.76102e-06,-7.91741e-05,0.000147484,-0.000132298,0,0,0,0,0,0,0,0.0494498,-10.2924,1.01111,20.7456,-0.831892,-0.57932,-0.271719,0.0700195,-1.17631,0.829516,2.21018,-0.268542,-0.574753,-0.307987
2116153,1,-1.57093,-0.522753,-0.000641053,-2.09575,-1.57075,1.57154,0.785857,-1.5708,-0.523599,-4.27164e-08,-2.09439,-1.5708,1.5708,0.785399,0.000159262,0.00053003,0.000272788,-0.00120893,-0.000256233,9.83229e-05,0.00014916,0,0,0,0,0,0,0,0.0494498,-10.3162,0.98334,20.7972,-0.826399,-0.57932,-0.278127,0.0693514,-1.17739,0.828625,2.21098,-0.268617,-0.574862,-0.308347
2116154,1,-1.57093,-0.522753,-0.000641053,-2.09575,-1.57075,1.57154,0.785853,-1.5708,-0.523599,-4.27164e-08,-2.09439,-1.5708,1.5708,0.785399,0.000662987,0.000353353,0.000181859,-0.000156342,3.26284e-05,6.55486e-05,-0.000849996,0,0,0,0,0,0,0,0.0256461,-10.3162,0.98334,20.7694,-0.831892,-0.57932,-0.252493,0.0685312,-1.17973,0.827637,2.21255,-0.268713,-0.575004,-0.308695
2116155,1,-1.57093,-0.522753,-0.000639383,-2.09574,-1.57076,1.57154,0.785859,-1.5708,-0.523599,-4.27164e-08,-2.09439,-1.5708,1.5708,0.785399,-0.000671633,0.000235569,0.000678052,0.000452584,-0.000181698,-0.00019366,0.00133221,0,0,0,0,0,0,0,0.0732535,-10.3162,0.959536,20.7456,-0.826399,-0.572911,-0.303762,0.0674296,-1.18216,0.826249,2.214,-0.268797,-0.575191,-0.309026
2116156,1,-1.57093,-0.522753,-0.000637712,-2.09575,-1.57075,1.57154,0.78586,-1.5708,-0.523599,-4.27164e-08,-2.09439,-1.5708,1.5708,0.785399,0.000109057,0.000157046,0.00100885,-0.000255089,0.000285769,-0.000129107,0.000413421,0,0,0,0,0,0,0,0.0494498,-10.3162,0.935733,20.7694,-0.837385,-0.572911,-0.290945,0.0662087,-1.18356,0.824539,2.21463,-0.268841,-0.575384,-0.309345
2116157,1,-1.57093,-0.522753,-0.000643002,-2.09575,-1.57075,1.57154,0.785859,-1.5708,-0.523599,-4.27164e-08,-2.09439,-1.5708,1.5708,0.785399,7.27046e-05,0.000104697,-0.00109067,-0.000170059,-0.000216388,-0.00032343,-0.000673822,0,0,0,0,0,0,0,0.0494498,-10.3162,1.01111,20.7694,-0.826399,-0.566503,-0.26531,0.0652227,-1.1843,0.823099,2.21493,-0.268854,-0.575523,-0.309676
2116158,1,-1.57093,-0.522755,-0.000641053,-2.09574,-1.57076,1.57154,0.785855,-1.5708,-0.523599,-4.27164e-08,-2.09439,-1.5708,1.5708,0.785399,-0.000508342,-0.000487014,-7.75012e-05,0.000443439,5.91915e-05,0.000259098,-0.000686574,0,0,0,0,0,0,0,0.0732535,-10.2924,0.98334,20.7456,-0.831892,-0.57932,-0.258901,0.0651898,-1.18403,0.823092,2.21479,-0.268811,-0.57549,-0.310032
2116159,1,-1.57093,-0.522753,-0.000641053,-2.09574,-1.57075,1.57154,0.785858,-1.5708,-0.523599,-4.27164e-08,-2.09439,-1.5708,1.5708,0.785399,0.000217917,0.000232136,-5.16674e-05,0.000852438,-0.000163989,-0.000301986,0.000966438,0,0,0,0,0,0,0,0.0494498,-10.3162,0.98334,20.7218,-0.826399,-0.566503,-0.297354,0.0657849,-1.18226,0.82398,2.21371,-0.268702,-0.575332,-0.310391
2116160,1,-1.57093,-0.522753,-0.000643002,-2.09575,-1.57075,1.57154,0.785856,-1.5708,-0.523599,-4.27164e-08,-2.09439,-1.5708,1.5708,0.785399,-0.000411534,0.000154757,-0.000684059,-0.000545332,9.41242e-05,0.000510753,-6.77849e-05,0,0,0,0,0,0,0,0.0732535,-10.3162,1.01111,20.7694,-0.831892,-0.585729,-0.278127,0.0664784,-1.18036,0.82501,2.21242,-0.268573,-0.575151,-0.310737
2116161,1,-1.57093,-0.522757,-0.000641053,-2.09575,-1.57075,1.57155,0.785854,-1.5708,-0.523599,-4.27164e-08,-2.09439,-1.5708,1.5708,0.785399,-0.000274356,-0.00045364,0.000193575,-0.000363555,6.27495e-05,0.000103143,-0.000519908,0,0,0,0,0,0,0,0.0732535,-10.2924,0.98334,20.7694,-0.831892,-0.57932,-0.26531,0.0673304,-1.17919,0.826282,2.21183,-0.268461,-0.574951,-0.311079
2116162,1,-1.57093,-0.522754,-0.000644673,-2.09575,-1.57076,1.57155,0.785856,-1.5708,-0.523599,-4.27164e-08,-2.09439,-1.5708,1.5708,0.785399,-0.000182904,0.000254385,-0.00107738,-0.000891984,4.1833e-05,-0.000168597,0.000128113,0,0,0,0,0,0,0,0.0732535,-10.3162,1.03491,20.7972,-0.831892,-0.572911,-0.278127,0.0683214,-1.17857,0.82775,2.21203,-0.268374,-0.574739,-0.311419
2116163,1,-1.57093,-0.522755,-0.000643002,-2.09575,-1.57076,1.57155,0.785858,-1.5708,-0.523599,-4.27164e-08,-2.09439,-1.5708,1.5708,0.785399,-0.000121936,-0.000387222,-0.000161439,0.00061177,0.000231339,-0.000112398,0.000797485,0,0,0,0,0,0,0,0.0732535,-10.2924,1.01111,20.7456,-0.837385,-0.572911,-0.297354,0.0694747,-1.17821,0.829489,2.21255,-0.268297,-0.574513,-0.311745
2116164,1,-1.57093,-0.522752,-0.000644673,-2.09574,-1.57075,1.57154,0.785856,-1.5708,-0.523599,-4.27164e-08,-2.09439,-1.5708,1.5708,0.785399,-8.12906e-05,0.000855476,-0.00698525,0.000407847,-0.000252675,0.000399786,5.6939e-05,0,0,0,0,0,0,0,0.0732535,-10.34,1.03491,20.7456,-0.826399,-0.585729,-0.284536,0.0723109,-1.17779,0.83401,2.21274,-0.268154,-0.574041,-0.312069
2116165,1,-1.57093,-0.522753,-0.000641053,-2.09575,-1.57075,1.57154,0.785854,-1.5708,-0.523599,-4.27164e-08,-2.09439,-1.5708,1.5708,0.785399,0.000502618,1.35054e-05,-0.00397714,-0.000934528,3.50006e-05,-0.000445553,-0.000911476,0,0,0,0,0,0,0,0.0494498,-10.3162,0.98334,20.7972,-0.831892,-0.566503,-0.258901,0.0783897,-1.17824,0.843948,2.21322,-0.267917,-0.57309,-0.312407
2116166,1,-1.57093,-0.522753,-0.000643002,-2.09574,-1.57075,1.57155,0.785858,-1.5708,-0.523599,-4.27164e-08,-2.09439,-1.5708,1.5708,0.785399,-0.000221733,9.00357e-06,-0.00369609,0.00114022,-0.000383567,0.000177683,0.000816503,0,0,0,0,0,0,0,0.0732535,-10.3162,1.01111,20.7218,-0.820906,-0.57932,-0.297354,0.0858514,-1.17908,0.856274,2.21397,-0.267645,-0.571934,-0.312753
2116167,1,-1.57093,-0.522753,-0.000643002,-2.09574,-1.57075,1.57154,0.785856,-1.5708,-0.523599,-4.27164e-08,-2.09439,-1.5708,1.5708,0.785399,-0.000147822,6.00238e-06,-0.00276035,0.000760146,-0.000255712,-0.000356263,-0.000167742,0,0,0,0,0,0,0,0.0732535,-10.3162,1.01111,20.7218,-0.820906,-0.566503,-0.278127,0.0924427,-1.17863,0.867155,2.21373,-0.267358,-0.570904,-0.313098
2116168,1,-1.57093,-0.522752,-0.000641053,-2.09575,-1.57075,1.57154,0.785859,-1.5708,-0.523599,-4.27164e-08,-2.09439,-1.5708,1.5708,0.785399,0.00101508,0.000560814,-0.00141284,-5.00479e-05,0.000236427,0.000237209,0.00107497,0,0,0,0,0,0,0,0.0256461,-10.34,0.98334,20.7456,-0.831892,-0.57932,-0.310171,0.0969185,-1.17777,0.874642,2.21294,-0.267105,-0.570196,-0.313448
2116169,1,-1.57093,-0.522755,-0.000644673,-2.09575,-1.57075,1.57154,0.785856,-1.5708,-0.523599,-4.27164e-08,-2.09439,-1.5708,1.5708,0.785399,0.000119905,-0.000739748,-0.00231498,-0.000590177,0.000157618,0.00015814,-0.000232791,0,0,0,0,0,0,0,0.0494498,-10.2924,1.03491,20.7694,-0.831892,-0.57932,-0.284536,0.0987201,-1.17747,0.87798,2.21267,-0.266945,-0.569894,-0.313813
2116170,1,-1.57093,-0.522755,-0.000639383,-2.09574,-1.57075,1.57154,0.785857,-1.5708,-0.523599,-4.27164e-08,-2.09439,-1.5708,1.5708,0.785399,0.000636749,-0.000493165,9.4922e-05,0.000720172,0.00051198,-0.000131933,8.21648e-05,0,0,0,0,0,0,0,0.0256461,-10.2924,0.959536,20.7218,-0.842879,-0.572911,-0.290945,0.0983263,-1.17636,0.877853,2.21233,-0.26685,-0.569909,-0.314212
2116171,1,-1.57093,-0.522753,-0.000641053,-2.09574,-1.57075,1.57154,0.785855,-1.5708,-0.523599,-4.27164e-08,-2.09439,-1.5708,1.5708,0.785399,-0.000132313,0.000228035,-0.000587278,0.000480115,-0.000472482,0.000149404,-0.0006573,0,0,0,0,0,0,0,0.0494498,-10.3162,0.98334,20.7218,-0.820906,-0.57932,-0.271719,0.0959168,-1.1742,0.874474,2.21132,-0.2668,-0.570216,-0.314644
2116172,1,-1.57093,-0.522752,-0.000641053,-2.09574,-1.57075,1.57154,0.785856,-1.5708,-0.523599,-4.27164e-08,-2.09439,-1.5708,1.5708,0.785399,-8.82085e-05,0.000708835,-0.000461829,0.000320077,9.19128e-05,9.96026e-05,3.65177e-05,0,0,0,0,0,0,0,0.0494498,-10.34,0.98334,20.7218,-0.831892,-0.57932,-0.284536,0.0923443,-1.17299,0.869191,2.21044,-0.2668,-0.570715,-0.315088
2116173,1,-1.57094,-0.522755,-0.000643002,-2.09575,-1.57075,1.57154,0.785856,-1.5708,-0.523599,-4.27164e-08,-2.09439,-1.5708,1.5708,0.785399,-0.00182204,-0.000641067,-0.00101023,-0.000900239,6.12752e-05,-0.000408316,2.43451e-05,0,0,0,0,0,0,0,0.124828,-10.2924,1.01111,20.7694,-0.831892,-0.566503,-0.284536,0.0891317,-1.1732,0.864269,2.21037,-0.266833,-0.571177,-0.31552
2116174,1,-1.57093,-0.522752,-0.000644673,-2.09574,-1.57075,1.57154,0.785856,-1.5708,-0.523599,-4.27164e-08,-2.09439,-1.5708,1.5708,0.785399,0.00175497,0.000686246,-0.00126985,0.00171989,-0.0001626,-3.48518e-05,-0.000221129,0,0,0,0,0,0,0,-0.00212494,-10.34,1.03491,20.6702,-0.826399,-0.572911,-0.278127,0.0866528,-1.17353,0.860359,2.21045,-0.266858,-0.571527,-0.315938
2116175,1,-1.57093,-0.522752,-0.000641053,-2.09574,-1.57075,1.57154,0.78586,-1.5708,-0.523599,-4.27164e-08,-2.09439,-1.5708,1.5708,0.785399,-3.64472e-05,0.000457497,0.000330197,-0.000616644,-0.0001084,0.000214124,0.000327299,0,0,0,0,0,0,0,0.0494498,-10.34,0.98334,20.7456,-0.826399,-0.57932,-0.290945,0.0837351,-1.17423,0.855971,2.21036,-0.266888,-0.571943,-0.316344
2116176,1,-1.57093,-0.522753,-0.000643184,-2.09574,-1.57075,1.57155,0.785861,-1.5708,-0.523599,-4.27164e-08,-2.09439,-1.5708,1.5708,0.785399,-0.00123072,-0.000251814,0.000197884,0.000702528,-7.22668e-05,0.00014275,-1.91598e-05,0,0,0,0,0,0,0,0.101024,-10.3162,0.98334,20.698,-0.826399,-0.57932,-0.284536,0.080179,-1.17546,0.85065,2.21043,-0.266944,-0.572461,-0.316734
2116177,1,-1.57093,-0.522753,-0.000643712,-2.09574,-1.57075,1.57154,0.785859,-1.5708,-0.523599,-4.27164e-08,-2.09439,-1.5708,1.5708,0.785399,0.000385943,-0.000167876,-0.000534376,0.000468352,-4.81779e-05,9.51664e-05,0.000224586,0,0,0,0,0,0,0,0.0494498,-10.3162,1.01111,20.698,-0.826399,-0.57932,-0.290945,0.0769106,-1.17571,0.845585,2.21,-0.266973,-0.572928,-0.317118
2116178,1,-1.57093,-0.522753,-0.00063962,-2.09574,-1.57075,1.57154,0.785859,-1.5708,-0.523599,-4.27164e-08,-2.09439,-1.5708,1.5708,0.785399,0.000814107,-0.000111917,0.000837661,-0.000801389,0.000171332,-0.000173915,-0.000324994,0,0,0,0,0,0,0,0.0256461,-10.3162,0.959536,20.7456,-0.831892,-0.572911,-0.278127,0.073551,-1.17523,0.840408,2.20926,-0.266992,-0.573406,-0.3175
2116179,1,-1.57093,-0.522753,-0.000641132,-2.09574,-1.57075,1.57154,0.785858,-1.5708,-0.523599,-4.27164e-08,-2.09439,-1.5708,1.5708,0.785399,-0.0012205,-7.46115e-05,-7.75632e-06,0.00122898,0.000114221,-0.000115943,0.000258055,0,0,0,0,0,0,0,0.101024,-10.3162,0.98334,20.6702,-0.831892,-0.572911,-0.290945,0.0699399,-1.17481,0.834879,2.20868,-0.267023,-0.573924,-0.317879
2116180,1,-1.57093,-0.522755,-0.000644699,-2.09574,-1.57075,1.57154,0.785858,-1.5708,-0.523599,-4.27164e-08,-2.09439,-1.5708,1.5708,0.785399,-0.000164052,-0.000606553,-0.00121864,0.00137613,-0.000330754,-7.72954e-05,0.000172037,0,0,0,0,0,0,0,0.0732535,-10.2924,1.03491,20.6464,-0.820906,-0.572911,-0.290945,0.0674505,-1.17319,0.830905,2.20706,-0.266986,-0.574262,-0.318256
2116181,1,-1.57093,-0.522753,-0.000643011,-2.09574,-1.57075,1.57154,0.78586,-1.5708,-0.523599,-4.27164e-08,-2.09439,-1.5708,1.5708,0.785399,0.000447444,0.000152443,-0.000260891,-0.00140263,-1.70518e-05,0.000185829,-0.000122668,0,0,0,0,0,0,0,0.0494498,-10.3162,1.01111,20.7456,-0.826399,-0.57932,-0.284536,0.0662472,-1.171,0.828889,2.20496,-0.266893,-0.574401,-0.318632
2116182,1,-1.57093,-0.522753,-0.000643005,-2.09575,-1.57075,1.57155,0.785855,-1.5708,-0.523599,-4.27164e-08,-2.09439,-1.5708,1.5708,0.785399,-0.000258516,0.000101629,-0.000177887,-0.00214151,-1.13679e-05,0.000361245,-0.00103121,0,0,0,0,0,0,0,0.0732535,-10.3162,1.01111,20.7972,-0.826399,-0.585729,-0.258901,0.0652197,-1.17136,0.827324,2.20503,-0.266875,-0.574536,-0.318998
2116183,1,-1.57093,-0.522753,-0.000643003,-2.09574,-1.57075,1.57155,0.785857,-1.5708,-0.523599,-4.27164e-08,-2.09439,-1.5708,1.5708,0.785399,-0.000821958,6.77526e-05,-0.000121561,-0.000221249,-7.57859e-06,-0.000233888,0.00026196,0,0,0,0,0,0,0,0.101024,-10.3162,1.01111,20.7456,-0.826399,-0.572911,-0.284536,0.0643223,-1.17431,0.826002,2.20725,-0.266932,-0.574686,-0.319338
2116184,1,-1.57093,-0.522752,-0.000643003,-2.09574,-1.57075,1.57155,0.785859,-1.5708,-0.523599,-4.27164e-08,-2.09439,-1.5708,1.5708,0.785399,0.000658454,0.00060198,-8.32677e-05,0.000409313,0.000198398,8.14336e-05,0.000886717,0,0,0,0,0,0,0,0.0494498,-10.34,1.01111,20.7218,-0.831892,-0.57932,-0.303762,0.063618,-1.17759,0.824931,2.20943,-0.266975,-0.574829,-0.319645
2116185,1,-1.57093,-0.522748,-0.000643002,-2.09574,-1.57075,1.57154,0.785856,-1.5708,-0.523599,-4.27164e-08,-2.09439,-1.5708,1.5708,0.785399,-0.000767457,0.00160775,-5.71822e-05,-0.000283937,-7.11851e-05,-0.00018307,-0.000358291,0,0,0,0,0,0,0,0.101024,-10.3916,1.01111,20.7456,-0.826399,-0.572911,-0.278127,0.0628203,-1.18157,0.823755,2.21126,-0.266999,-0.575015,-0.31993
2116186,1,-1.57094,-0.522755,-0.000643002,-2.09574,-1.57075,1.57154,0.785856,-1.5708,-0.523599,-4.27164e-08,-2.09439,-1.5708,1.5708,0.785399,-0.00106845,-0.00124822,-3.93743e-05,0.000367521,-0.000488266,-0.000122047,-0.000238861,0,0,0,0,0,0,0,0.124828,-10.2924,1.01111,20.7218,-0.814497,-0.572911,-0.278127,0.0624145,-1.18548,0.823059,2.21268,-0.266993,-0.575157,-0.320212
2116187,1,-1.57093,-0.522752,-0.000641053,-2.09574,-1.57075,1.57154,0.785856,-1.5708,-0.523599,-4.27164e-08,-2.09439,-1.5708,1.5708,0.785399,0.00105094,0.000281478,0.000622425,0.000245014,0.0005222,-8.13644e-05,7.81183e-05,0,0,0,0,0,0,0,0.0494498,-10.34,0.98334,20.7218,-0.837385,-0.572911,-0.284536,0.0621317,-1.18658,0.822343,2.21257,-0.266922,-0.575257,-0.320499
2116188,1,-1.57093,-0.522755,-0.000643002,-2.09574,-1.57075,1.57154,0.78586,-1.5708,-0.523599,-4.27164e-08,-2.09439,-1.5708,1.5708,0.785399,0.000700625,-0.000925972,-0.000235369,-0.000393469,-5.87679e-05,-0.000291602,0.000289438,0,0,0,0,0,0,0,0.0494498,-10.2924,1.01111,20.7456,-0.826399,-0.566503,-0.290945,0.0610578,-1.18546,0.820457,2.21135,-0.266829,-0.575448,-0.320781
2116189,1,-1.57093,-0.522757,-0.000641053,-2.09574,-1.57076,1.57154,0.78586,-1.5708,-0.523599,-4.27164e-08,-2.09439,-1.5708,1.5708,0.785399,0.000467084,-0.00126693,0.000492173,-0.000819125,-3.91786e-05,4.29577e-05,0.000905035,0,0,0,0,0,0,0,0.0494498,-10.2646,0.98334,20.7694,-0.826399,-0.572911,-0.310171,0.0594734,-1.18287,0.817899,2.20983,-0.26674,-0.575681,-0.321058
2116190,1,-1.57093,-0.522755,-0.000643002,-2.09574,-1.57075,1.57154,0.785859,-1.5708,-0.523599,-4.27164e-08,-2.09439,-1.5708,1.5708,0.785399,0.000311389,-0.000195005,-0.000321895,0.000567541,-2.61191e-05,0.000265997,0.000365998,0,0,0,0,0,0,0,0.0494498,-10.2924,1.01111,20.7218,-0.826399,-0.57932,-0.303762,0.0579787,-1.17904,0.815508,2.208,-0.26664,-0.575868,-0.321348
2116191,1,-1.57093,-0.52275,-0.000641053,-2.09575,-1.57075,1.57154,0.785857,-1.5708,-0.523599,-4.27164e-08,-2.09439,-1.5708,1.5708,0.785399,-0.000998833,0.00163323,0.00043472,-0.000735263,0.000389488,-6.00273e-05,-0.000230719,0,0,0,0,0,0,0,0.101024,-10.3678,0.98334,20.7694,-0.837385,-0.572911,-0.290945,0.0570273,-1.17713,0.813956,2.20698,-0.26655,-0.575985,-0.321667
2116192,1,-1.57093,-0.522757,-0.000641053,-2.09574,-1.57075,1.57154,0.785862,-1.5708,-0.523599,-4.27164e-08,-2.09439,-1.5708,1.5708,0.785399,0.000540537,-0.000674415,0.00028959,0.000623448,-0.000350693,-4.00182e-05,0.000320905,0,0,0,0,0,0,0,0.0494498,-10.2924,0.98334,20.7218,-0.820906,-0.572911,-0.303762,0.0565611,-1.17816,0.81311,2.20723,-0.266493,-0.57606,-0.322019
2116193,1,-1.57093,-0.522758,-0.000639383,-2.09575,-1.57075,1.57154,0.785857,-1.5708,-0.523599,-4.27164e-08,-2.09439,-1.5708,1.5708,0.785399,0.00091717,-0.00109922,0.000749705,-0.000697992,0.000376556,0.00021068,-0.000735499,0,0,0,0,0,0,0,0.0256461,-10.2646,0.959536,20.7694,-0.837385,-0.57932,-0.278127,0.0557253,-1.17834,0.811698,2.20709,-0.266439,-0.576176,-0.322409
2116194,1,-1.57093,-0.522752,-0.000644673,-2.09574,-1.57075,1.57154,0.785863,-1.5708,-0.523599,-4.27164e-08,-2.09439,-1.5708,1.5708,0.785399,-0.000502177,0.00103042,-0.00126356,-0.000465328,0.000454488,-9.69055e-05,0.000696462,0,0,0,0,0,0,0,0.0732535,-10.34,1.03491,20.7694,-0.842879,-0.572911,-0.310171,0.0548931,-1.17762,0.810366,2.20679,-0.266386,-0.576269,-0.322823
2116195,1,-1.57093,-0.522755,-0.000641053,-2.09574,-1.57075,1.57154,0.785858,-1.5708,-0.523599,-4.27164e-08,-2.09439,-1.5708,1.5708,0.785399,0.000222027,-0.000426676,0.000363959,0.000803405,9.95416e-05,0.000172755,-0.000485128,0,0,0,0,0,0,0,0.0494498,-10.2924,0.98334,20.7218,-0.837385,-0.57932,-0.284536,0.0550089,-1.17807,0.81054,2.20711,-0.266342,-0.576226,-0.323245
2116196,1,-1.57093,-0.522753,-0.000643002,-2.09574,-1.57075,1.57154,0.785862,-1.5708,-0.523599,-4.27164e-08,-2.09439,-1.5708,1.5708,0.785399,-0.000408794,0.000272361,-0.000407045,-0.00057802,0.000473262,0.00011517,0.000388658,0,0,0,0,0,0,0,0.0732535,-10.3162,1.01111,20.7694,-0.848372,-0.57932,-0.303762,0.0556437,-1.1786,0.811501,2.20727,-0.266302,-0.576108,-0.323675
2116197,1,-1.57093,-0.522752,-0.000639383,-2.09575,-1.57075,1.57154,0.785858,-1.5708,-0.523599,-4.27164e-08,-2.09439,-1.5708,1.5708,0.785399,0.000841095,0.000738386,0.000935009,-0.000385347,-0.000498294,-0.000160579,-0.000215612,0,0,0,0,0,0,0,0.0256461,-10.34,0.959536,20.7694,-0.826399,-0.572911,-0.290945,0.0559662,-1.17987,0.812031,2.2079,-0.266322,-0.576051,-0.324108
2116198,1,-1.57093,-0.522753,-0.000643184,-2.09574,-1.57075,1.57154,0.785858,-1.5708,-0.523599,-4.27164e-08,-2.09439,-1.5708,1.5708,0.785399,3.91782e-06,-6.45545e-05,6.64879e-05,0.000299914,-0.000128745,-0.000344411,-0.000143742,0,0,0,0,0,0,0,0.0494498,-10.3162,0.98334,20.7456,-0.831892,-0.566503,-0.290945,0.0555882,-1.18216,0.811585,2.20912,-0.266415,-0.576112,-0.324538
2116199,1,-1.57093,-0.522753,-0.000643712,-2.09574,-1.57075,1.57154,0.785859,-1.5708,-0.523599,-4.27164e-08,-2.09439,-1.5708,1.5708,0.785399,-0.00120381,-4.30363e-05,-0.000605318,0.00131357,0.000321071,-0.000229608,0.00037889,0,0,0,0,0,0,0,0.101024,-10.3162,1.01111,20.698,-0.842879,-0.566503,-0.303762,0.0555386,-1.18318,0.811565,2.20938,-0.266479,-0.576103,-0.32497
2116200,1,-1.57093,-0.522757,-0.00064129,-2.09574,-1.57075,1.57154,0.785857,-1.5708,-0.523599,-4.27164e-08,-2.09439,-1.5708,1.5708,0.785399,0.000403883,-0.000585503,0.000246046,-0.000237913,-0.000192854,8.42872e-05,-0.000222124,0,0,0,0,0,0,0,0.0494498,-10.2924,0.98334,20.7456,-0.831892,-0.572911,-0.290945,0.0564318,-1.18208,0.81282,2.20831,-0.26648,-0.575916,-0.325403
2116201,1,-1.57093,-0.522756,-0.000641132,-2.09575,-1.57075,1.57154,0.785859,-1.5708,-0.523599,-4.27164e-08,-2.09439,-1.5708,1.5708,0.785399,0.000826067,-0.000390335,0.000164014,-0.000158609,7.48813e-05,5.61914e-05,0.000326635,0,0,0,0,0,0,0,0.0256461,-10.2924,0.98334,20.7456,-0.837385,-0.572911,-0.303762,0.0569767,-1.17992,0.813578,2.20695,-0.266493,-0.575752,-0.325837
2116202,1,-1.57093,-0.522754,-0.00064108,-2.09575,-1.57075,1.57154,0.785857,-1.5708,-0.523599,-4.27164e-08,-2.09439,-1.5708,1.5708,0.785399,-6.10033e-06,0.000296588,0.00010933,-0.000662551,-0.00035698,0.00027482,-0.000256961,0,0,0,0,0,0,0,0.0494498,-10.3162,0.98334,20.7694,-0.826399,-0.57932,-0.290945,0.05672,-1.17835,0.813273,2.20631,-0.266567,-0.5757,-0.326267
2116203,1,-1.57093,-0.52275,-0.000641062,-2.09575,-1.57075,1.57154,0.785857,-1.5708,-0.523599,-4.27164e-08,-2.09439,-1.5708,1.5708,0.785399,-4.06689e-06,0.00140415,7.28773e-05,-0.000441701,-3.45363e-05,-0.000528864,-0.000171308,0,0,0,0,0,0,0,0.0494498,-10.3678,0.98334,20.7694,-0.831892,-0.560094,-0.290945,0.056333,-1.1794,0.812878,2.20724,-0.266702,-0.575688,-0.326687
2116204,1,-1.57093,-0.522755,-0.000641056,-2.09575,-1.57075,1.57154,0.785856,-1.5708,-0.523599,-4.27164e-08,-2.09439,-1.5708,1.5708,0.785399,0.000554101,-0.000827137,4.85778e-05,-0.000294467,-0.000226475,-0.000115217,-0.000351564,0,0,0,0,0,0,0,0.0256461,-10.2924,0.98334,20.7694,-0.826399,-0.566503,-0.284536,0.0560077,-1.18231,0.812644,2.20919,-0.266864,-0.575673,-0.327092
2116205,1,-1.57093,-0.522755,-0.000643003,-2.09574,-1.57076,1.57154,0.785856,-1.5708,-0.523599,-4.27164e-08,-2.09439,-1.5708,1.5708,0.785399,-0.000187411,-0.000551425,-0.000617234,0.000360501,-0.000150983,0.000397907,-0.000471735,0,0,0,0,0,0,0,0.0494498,-10.2924,1.01111,20.7456,-0.826399,-0.57932,-0.278127,0.0558673,-1.18338,0.812707,2.21023,-0.26697,-0.575588,-0.327484
2116206,1,-1.57093,-0.522752,-0.000643003,-2.09574,-1.57075,1.57154,0.785858,-1.5708,-0.523599,-4.27164e-08,-2.09439,-1.5708,1.5708,0.785399,-0.000124941,0.000746008,-0.000411493,0.000240334,-0.000100655,0.000265271,0.000397587,0,0,0,0,0,0,0,0.0494498,-10.34,1.01111,20.7456,-0.826399,-0.57932,-0.297354,0.0562893,-1.18264,0.813632,2.21016,-0.266994,-0.575387,-0.32785
2116207,1,-1.57093,-0.522755,-0.000643002,-2.09575,-1.57075,1.57154,0.785854,-1.5708,-0.523599,-4.27164e-08,-2.09439,-1.5708,1.5708,0.785399,0.000473518,-0.000616286,-0.000274332,0.000160222,-6.71036e-05,-6.05115e-05,-0.0011591,0,0,0,0,0,0,0,0.0256461,-10.2924,1.01111,20.7456,-0.826399,-0.572911,-0.258901,0.056987,-1.18199,0.815053,2.20988,-0.266975,-0.575145,-0.328178
2116208,1,-1.57093,-0.522755,-0.000637713,-2.09575,-1.57075,1.57154,0.785853,-1.5708,-0.523599,-4.27164e-08,-2.09439,-1.5708,1.5708,0.785399,0.000315679,-0.000410857,0.00158035,-0.000449997,0.000565616,0.000197018,-0.00101009,0,0,0,0,0,0,0,0.0256461,-10.2924,0.935733,20.7694,-0.842879,-0.57932,-0.252493,0.0568896,-1.1808,0.815338,2.20942,-0.266952,-0.57502,-0.328465
2116209,1,-1.57093,-0.522753,-0.000643002,-2.09575,-1.57075,1.57154,0.785851,-1.5708,-0.523599,-4.27164e-08,-2.09439,-1.5708,1.5708,0.785399,-0.00155279,0.000282907,-0.000709674,0.000256814,-2.98238e-05,-0.000106014,-0.00118202,0,0,0,0,0,0,0,0.101024,-10.3162,1.01111,20.7456,-0.831892,-0.572911,-0.23876,0.0562506,-1.17938,0.814725,2.20903,-0.26694,-0.574979,-0.328682
2116210,1,-1.57093,-0.522757,-0.000644673,-2.09575,-1.57076,1.57154,0.785854,-1.5708,-0.523599,-4.27164e-08,-2.09439,-1.5708,1.5708,0.785399,0.000728048,-0.00101782,-0.00102993,0.000171209,-1.98826e-05,-7.06758e-05,-4.20276e-05,0,0,0,0,0,0,0,0.0256461,-10.2646,1.03491,20.7456,-0.831892,-0.572911,-0.258901,0.0565666,-1.17788,0.815478,2.20859,-0.2669,-0.574803,-0.328792
2116211,1,-1.57093,-0.522752,-0.000643002,-2.09575,-1.57076,1.57154,0.785852,-1.5708,-0.523599,-4.27164e-08,-2.09439,-1.5708,1.5708,0.785399,-0.000628259,0.00108469,-0.000129809,-0.000442672,-0.000216706,0.000190242,-0.000502736,0,0,0,0,0,0,0,0.0732535,-10.34,1.01111,20.7694,-0.826399,-0.57932,-0.246084,0.0576556,-1.17659,0.817494,2.20825,-0.266843,-0.574524,-0.328776
2116212,1,-1.57093,-0.522752,-0.000639383,-2.09574,-1.57075,1.57154,0.785851,-1.5708,-0.523599,-4.27164e-08,-2.09439,-1.5708,1.5708,0.785399,0.000137973,0.000723127,0.00111989,0.000818509,5.89801e-05,-0.000110531,-0.000606425,0,0,0,0,0,0,0,0.0494498,-10.34,0.959536,20.7218,-0.831892,-0.572911,-0.23876,0.058211,-1.17743,0.818784,2.20884,-0.266835,-0.574367,-0.328633
2116213,1,-1.57093,-0.522757,-0.000643002,-2.09574,-1.57075,1.57154,0.785853,-1.5708,-0.523599,-4.27164e-08,-2.09439,-1.5708,1.5708,0.785399,-0.00046483,-0.00128115,-0.000459836,-0.000567951,-0.00016413,-0.000548405,0.000104343,0,0,0,0,0,0,0,0.0732535,-10.2646,1.01111,20.7694,-0.826399,-0.560094,-0.252493,0.058054,-1.17873,0.818925,2.20953,-0.266852,-0.574337,-0.328374
2116214,1,-1.57093,-0.522753,-0.000641053,-2.09575,-1.57075,1.57154,0.785854,-1.5708,-0.523599,-4.27164e-08,-2.09439,-1.5708,1.5708,0.785399,0.000246925,0.000352324,0.000343056,-0.000378634,9.40302e-05,0.000346473,0.00054428,0,0,0,0,0,0,0,0.0494498,-10.3162,0.98334,20.7694,-0.831892,-0.57932,-0.26531,0.0578096,-1.17858,0.818851,2.2098,-0.266859,-0.574303,-0.32801
2116215,1,-1.57094,-0.522757,-0.000641053,-2.09574,-1.57076,1.57154,0.785852,-1.5708,-0.523599,-4.27164e-08,-2.09439,-1.5708,1.5708,0.785399,-0.00159862,-0.000971543,0.000228704,0.000304389,6.26868e-05,0.000230982,-0.000349224,0,0,0,0,0,0,0,0.124828,-10.2646,0.98334,20.7456,-0.831892,-0.57932,-0.246084,0.0577569,-1.17769,0.818933,2.20993,-0.266853,-0.574234,-0.327566
2116216,1,-1.57093,-0.52275,-0.000644673,-2.09574,-1.57075,1.57154,0.785854,-1.5708,-0.523599,-4.27164e-08,-2.09439,-1.5708,1.5708,0.785399,0.00069749,0.00176516,-0.00105396,0.000759738,4.17912e-05,-8.33708e-05,0.000479261,0,0,0,0,0,0,0,0.0494498,-10.3678,1.03491,20.7218,-0.831892,-0.572911,-0.26531,0.0581644,-1.17706,0.819578,2.2099,-0.266824,-0.574116,-0.327068
2116217,1,-1.57093,-0.522753,-0.000643002,-2.09574,-1.57075,1.57154,0.785855,-1.5708,-0.523599,-4.27164e-08,-2.09439,-1.5708,1.5708,0.785399,0.000464994,-2.96551e-05,-0.000145826,0.00171292,-0.000616399,0.000181778,-0.000663837,0,0,0,0,0,0,0,0.0494498,-10.3162,1.01111,20.6702,-0.814497,-0.57932,-0.23876,0.0587595,-1.17759,0.820613,2.2097,-0.266771,-0.574005,-0.326535
2116218,1,-1.57093,-0.52275,-0.000641053,-2.09574,-1.57075,1.57154,0.785853,-1.5708,-0.523599,-4.27164e-08,-2.09439,-1.5708,1.5708,0.785399,0.000309996,0.00118666,0.000552396,-0.000621293,2.98767e-05,-0.000116173,-0.00017129,0,0,0,0,0,0,0,0.0494498,-10.3678,0.98334,20.7456,-0.826399,-0.572911,-0.246084,0.0587081,-1.17902,0.820811,2.20947,-0.266725,-0.57402,-0.325975
2116219,1,-1.57093,-0.522759,-0.000641053,-2.09574,-1.57075,1.57154,0.785858,-1.5708,-0.523599,-4.27164e-08,-2.09439,-1.5708,1.5708,0.785399,-0.000350148,-0.00217856,0.000368264,0.000699429,0.000223368,-7.74489e-05,0.00178468,0,0,0,0,0,0,0,0.0732535,-10.2408,0.98334,20.698,-0.831892,-0.572911,-0.297354,0.0580083,-1.1796,0.81995,2.20909,-0.266688,-0.574128,-0.325388
2116220,1,-1.57093,-0.522752,-0.000641053,-2.09574,-1.57076,1.57154,0.785854,-1.5708,-0.523599,-4.27164e-08,-2.09439,-1.5708,1.5708,0.785399,-0.000233432,0.000867677,0.000245509,-0.000647338,0.000148912,-5.16326e-05,2.99054e-06,0,0,0,0,0,0,0,0.0732535,-10.34,0.98334,20.7456,-0.831892,-0.572911,-0.26531,0.0572807,-1.17816,0.818848,2.20817,-0.266634,-0.574216,-0.324797
2116221,1,-1.57093,-0.522752,-0.000643002,-2.09574,-1.57075,1.57154,0.785856,-1.5708,-0.523599,-4.27164e-08,-2.09439,-1.5708,1.5708,0.785399,0.000958003,0.000578451,-0.000485941,0.000125253,-0.000104176,-3.44217e-05,0.000714071,0,0,0,0,0,0,0,0.0256461,-10.34,1.01111,20.7218,-0.826399,-0.572911,-0.284536,0.0567204,-1.17773,0.817996,2.20798,-0.266602,-0.574288,-0.324238
2116222,1,-1.57093,-0.522755,-0.000643002,-2.09574,-1.57075,1.57154,0.785856,-1.5708,-0.523599,-4.27164e-08,-2.09439,-1.5708,1.5708,0.785399,8.18564e-05,-0.00072799,-0.000323961,0.00128993,0.000337451,-2.29478e-05,-0.000710748,0,0,0,0,0,0,0,0.0494498,-10.2924,1.01111,20.6702,-0.837385,-0.572911,-0.252493,0.0563136,-1.17835,0.817527,2.20812,-0.266574,-0.574344,-0.323736
2116223,1,-1.57093,-0.522756,-0.000643002,-2.09574,-1.57075,1.57154,0.785855,-1.5708,-0.523599,-4.27164e-08,-2.09439,-1.5708,1.5708,0.785399,5.45709e-05,7.14854e-05,-0.000215974,0.000210338,0.000428418,-1.52985e-05,8.86087e-07,0,0,0,0,0,0,0,0.0494498,-10.3162,1.01111,20.698,-0.842879,-0.572911,-0.26531,0.0562435,-1.17731,0.817598,2.20704,-0.266494,-0.574323,-0.3233
2116224,1,-1.57093,-0.522754,-0.000643002,-2.09574,-1.57075,1.57154,0.785861,-1.5708,-0.523599,-4.27164e-08,-2.09439,-1.5708,1.5708,0.785399,-0.000520431,4.76569e-05,-0.000143983,0.00134665,-0.000121289,0.000464519,0.000950026,0,0,0,0,0,0,0,0.0732535,-10.3162,1.01111,20.6464,-0.831892,-0.585729,-0.290945,0.0565391,-1.17558,0.818188,2.20531,-0.266397,-0.574235,-0.322909
2116225,1,-1.57093,-0.522755,-0.000641053,-2.09574,-1.57075,1.57154,0.785856,-1.5708,-0.523599,-4.27164e-08,-2.09439,-1.5708,1.5708,0.785399,-0.000996568,-0.000525041,0.000553626,-0.00086547,-8.08596e-05,-0.000402398,-0.000316085,0,0,0,0,0,0,0,0.101024,-10.2924,0.98334,20.7218,-0.831892,-0.566503,-0.26531,0.0571214,-1.17402,0.819094,2.20363,-0.266324,-0.574113,-0.322555
2116226,1,-1.57094,-0.522754,-0.000637712,-2.09574,-1.57075,1.57154,0.785856,-1.5708,-0.523599,-4.27164e-08,-2.09439,-1.5708,1.5708,0.785399,-0.00122119,0.000206785,0.00148271,-0.00057698,-5.39064e-05,-3.09061e-05,0.000263995,0,0,0,0,0,0,0,0.124828,-10.3162,0.935733,20.7218,-0.831892,-0.572911,-0.278127,0.0576105,-1.17326,0.819588,2.20284,-0.266322,-0.574022,-0.322245
2116227,1,-1.57093,-0.52275,-0.000641053,-2.09574,-1.57075,1.57154,0.785857,-1.5708,-0.523599,-4.27164e-08,-2.09439,-1.5708,1.5708,0.785399,0.000949111,0.00134428,-0.000125152,-0.000384653,-3.59376e-05,-2.06041e-05,0.000413355,0,0,0,0,0,0,0,0.0494498,-10.3678,0.98334,20.7218,-0.831892,-0.572911,-0.284536,0.0575108,-1.17501,0.819039,2.20368,-0.266419,-0.574059,-0.321974
2116228,1,-1.57093,-0.522753,-0.000643002,-2.09574,-1.57076,1.57154,0.785858,-1.5708,-0.523599,-4.27164e-08,-2.09439,-1.5708,1.5708,0.785399,7.59285e-05,-0.000310238,-0.000733049,-0.000813248,-0.000227409,-1.37361e-05,0.000750288,0,0,0,0,0,0,0,0.0732535,-10.3162,1.01111,20.7456,-0.826399,-0.572911,-0.297354,0.0572038,-1.17902,0.818292,2.20571,-0.266571,-0.574159,-0.321746
2116229,1,-1.57093,-0.522755,-0.000639383,-2.09574,-1.57075,1.57154,0.785859,-1.5708,-0.523599,-4.27164e-08,-2.09439,-1.5708,1.5708,0.785399,0.000607431,-0.000763637,0.000717727,1.46469e-05,-0.000151606,0.000228202,-0.000211885,0,0,0,0,0,0,0,0.0494498,-10.2924,0.959536,20.7218,-0.826399,-0.57932,-0.278127,0.0570263,-1.18202,0.817806,2.20732,-0.2667,-0.574228,-0.321583
2116230,1,-1.57093,-0.522752,-0.000641053,-2.09575,-1.57076,1.57154,0.785854,-1.5708,-0.523599,-4.27164e-08,-2.09439,-1.5708,1.5708,0.785399,0.000404954,0.000604533,-7.83275e-05,-0.000547047,-0.000101071,-8.52246e-05,-0.00109069,0,0,0,0,0,0,0,0.0494498,-10.34,0.98334,20.7456,-0.826399,-0.572911,-0.252493,0.0565384,-1.18316,0.81681,2.20798,-0.266791,-0.574323,-0.321492
2116231,1,-1.57093,-0.522755,-0.000641053,-2.09574,-1.57075,1.57154,0.785858,-1.5708,-0.523599,-4.27164e-08,-2.09439,-1.5708,1.5708,0.785399,0.000269969,-0.000710602,-5.22183e-05,0.00139854,0.000339521,0.000180543,0.000697025,0,0,0,0,0,0,0,0.0494498,-10.2924,0.98334,20.6702,-0.837385,-0.57932,-0.290945,0.0559397,-1.1834,0.815634,2.20781,-0.266835,-0.574428,-0.321453
2116232,1,-1.57093,-0.522753,-0.000643002,-2.09574,-1.57075,1.57155,0.785854,-1.5708,-0.523599,-4.27164e-08,-2.09439,-1.5708,1.5708,0.785399,-0.000376832,8.30772e-05,-0.000684426,-0.000830878,0.000226347,0.000357721,-0.000484752,0,0,0,0,0,0,0,0.0732535,-10.3162,1.01111,20.7456,-0.837385,-0.585729,-0.26531,0.0559413,-1.18241,0.815326,2.20668,-0.266813,-0.574432,-0.321437
2116233,1,-1.57093,-0.522755,-0.000643002,-2.09574,-1.57075,1.57154,0.785855,-1.5708,-0.523599,-4.27164e-08,-2.09439,-1.5708,1.5708,0.785399,-0.000251222,-0.000501427,-0.000456284,-0.00111073,-5.25525e-05,-0.000236237,-8.58091e-05,0,0,0,0,0,0,0,0.0732535,-10.2924,1.01111,20.7694,-0.831892,-0.572911,-0.271719,0.056846,-1.18147,0.816352,2.20587,-0.266781,-0.574306,-0.321431
2116234,1,-1.57093,-0.522755,-0.000643002,-2.09574,-1.57076,1.57154,0.785853,-1.5708,-0.523599,-4.27164e-08,-2.09439,-1.5708,1.5708,0.785399,-0.000167481,-0.000334285,-0.000304189,-0.000740487,-3.5035e-05,-0.000157492,-0.000769283,0,0,0,0,0,0,0,0.0732535,-10.2924,1.01111,20.7694,-0.831892,-0.572911,-0.252493,0.0583076,-1.1812,0.818215,2.20603,-0.266779,-0.574108,-0.321423
2116235,1,-1.57093,-0.522753,-0.000641053,-2.09574,-1.57075,1.57154,0.785859,-1.5708,-0.523599,-4.27164e-08,-2.09439,-1.5708,1.5708,0.785399,-0.000761268,0.000333955,0.000446821,-0.000493658,0.000180094,-0.000104994,0.00043658,0,0,0,0,0,0,0,0.101024,-10.3162,0.98334,20.7694,-0.837385,-0.572911,-0.278127,0.0597154,-1.18138,0.819954,2.20664,-0.266803,-0.573931,-0.321399
2116236,1,-1.57093,-0.522757,-0.000641053,-2.09575,-1.57075,1.57154,0.785856,-1.5708,-0.523599,-4.27164e-08,-2.09439,-1.5708,1.5708,0.785399,0.000142102,-0.000983789,0.000297881,-0.000978719,0.000323513,-6.99963e-05,5.36947e-05,0,0,0,0,0,0,0,0.0732535,-10.2646,0.98334,20.7972,-0.842879,-0.572911,-0.271719,0.0606416,-1.18178,0.820878,2.20743,-0.266856,-0.573837,-0.32135
2116237,1,-1.57093,-0.522755,-0.000646621,-2.09574,-1.57075,1.57154,0.785852,-1.5708,-0.523599,-4.27164e-08,-2.09439,-1.5708,1.5708,0.785399,-0.000554879,-6.24535e-06,-0.00165745,0.000553946,-0.000191226,-4.66642e-05,-0.00118491,0,0,0,0,0,0,0,0.101024,-10.2924,1.06269,20.7456,-0.831892,-0.572911,-0.23876,0.061593,-1.18125,0.821803,2.20776,-0.266897,-0.573734,-0.321286
2116238,1,-1.57093,-0.522752,-0.000641053,-2.09575,-1.57075,1.57154,0.785854,-1.5708,-0.523599,-4.27164e-08,-2.09439,-1.5708,1.5708,0.785399,0.000279694,0.00110946,0.000751071,-0.000187514,-0.000127484,-3.11095e-05,-4.39525e-05,0,0,0,0,0,0,0,0.0732535,-10.34,0.98334,20.7694,-0.831892,-0.572911,-0.258901,0.0628976,-1.18093,0.823324,2.20781,-0.26692,-0.573586,-0.321201
2116239,1,-1.57093,-0.522753,-0.000639383,-2.09574,-1.57075,1.57154,0.785857,-1.5708,-0.523599,-4.27164e-08,-2.09439,-1.5708,1.5708,0.785399,0.000186463,0.000182828,0.00105753,0.00154543,-8.49892e-05,-2.07396e-05,-2.93017e-05,0,0,0,0,0,0,0,0.0732535,-10.3162,0.959536,20.698,-0.831892,-0.572911,-0.258901,0.0632353,-1.18186,0.823428,2.20786,-0.266972,-0.57361,-0.32107
2116240,1,-1.57093,-0.522755,-0.000643002,-2.09574,-1.57075,1.57154,0.785859,-1.5708,-0.523599,-4.27164e-08,-2.09439,-1.5708,1.5708,0.785399,0.000124309,-0.000434926,-0.000501408,-8.33397e-05,0.000146791,-0.000488544,0.00140462,0,0,0,0,0,0,0,0.0732535,-10.2924,1.01111,20.7456,-0.837385,-0.560094,-0.297354,0.0625382,-1.18205,0.821929,2.20711,-0.267025,-0.573784,-0.320896
2116241,1,-1.57093,-0.522757,-0.000641053,-2.09575,-1.57075,1.57154,0.785853,-1.5708,-0.523597,-2.54272e-06,-2.09439,-1.5708,1.5708,0.785399,8.28724e-05,-0.000939565,0.000315342,-0.000612372,-0.000512491,0.000386381,-0.000962459,-0.00327632,0.00177864,-0.0025,0.00165757,-0.00155807,0.005,0.000207453,0.0732535,-10.2646,0.98334,20.7694,-0.820906,-0.57932,-0.246084,0.0619879,-1.18048,0.82061,2.2058,-0.267058,-0.5739,-0.320701
2116242,1,-1.57093,-0.522753,-0.000643002,-2.09574,-1.57075,1.57154,0.785856,-1.57081,-0.523593,-7.54272e-06,-2.09439,-1.5708,1.57081,0.785399,5.52483e-05,0.000580049,-0.000439386,0.000148564,0.000268691,2.02281e-05,0.000545156,-0.00655263,0.00355727,-0.005,0.00331513,-0.00311614,0.01,0.000414907,0.0732535,-10.3162,1.01111,20.7456,-0.837385,-0.572911,-0.278127,0.0617744,-1.17857,0.819809,2.20488,-0.267092,-0.573941,-0.320508
2116243,1,-1.57093,-0.522753,-0.000641053,-2.09574,-1.57075,1.57154,0.785854,-1.57082,-0.523588,-1.50427e-05,-2.09439,-1.57081,1.57083,0.7854,0.000593644,0.0003867,0.00035669,-0.000457769,0.000179127,-0.000223874,-0.000111281,-0.00982895,0.00533591,-0.0075,0.0049727,-0.00467421,0.015,0.00062236,0.0494498,-10.3162,0.98334,20.7694,-0.837385,-0.566503,-0.26531,0.0616203,-1.17821,0.819188,2.20492,-0.267149,-0.573979,-0.320314
2116244,1,-1.57094,-0.522754,-0.000643075,-2.09574,-1.57075,1.57154,0.785853,-1.57083,-0.523581,-2.50427e-05,-2.09438,-1.57081,1.57085,0.785401,-0.00275237,0.00157716,-0.00316635,-0.000305179,0.000526319,8.81099e-05,-0.000548905,-0.0131053,0.00711455,-0.01,0.00663027,-0.00623228,0.02,0.000829814,0.0494498,-10.2408,0.860354,20.7694,-0.848372,-0.572911,-0.252493,0.0627718,-1.18055,0.820594,2.20639,-0.267216,-0.57384,-0.320117
2116245,1,-1.57094,-0.522757,-0.000640176,-2.09574,-1.57075,1.57154,0.785859,-1.57085,-0.523572,-3.75427e-05,-2.09437,-1.57082,1.57087,0.785402,-0.00150717,-0.000316505,-0.00153804,-0.000853067,0.00184285,5.874e-05,0.00153293,-0.0163816,0.00889318,-0.0125,0.00828783,-0.00779035,0.025,0.00103727,-0.252064,-10.0385,0.404117,20.7972,-0.888655,-0.572911,-0.303762,0.0669211,-1.18463,0.82638,2.20899,-0.267254,-0.573253,-0.319916
2116246,1,-1.57093,-0.522754,-0.000651493,-2.09574,-1.57075,1.57154,0.785851,-1.57087,-0.523561,-5.25427e-05,-2.09436,-1.57083,1.5709,0.785403,0.00315051,-0.00198135,-0.00469232,-0.000568711,0.00204237,-0.000944184,-0.0016229,-0.0196579,0.0106718,-0.015,0.0099454,-0.00934842,0.03,0.00124472,-0.732105,-9.80838,-0.0283176,20.7972,-0.910628,-0.546361,-0.232351,0.072405,-1.18629,0.834257,2.21101,-0.267279,-0.572379,-0.319732
2116247,1,-1.57093,-0.522749,-0.000663652,-2.09574,-1.57075,1.57154,0.78586,-1.57089,-0.523549,-7.00427e-05,-2.09435,-1.57084,1.57094,0.785405,0.00149803,0.000791174,-0.00657866,-0.00149276,0.00159894,-0.000629456,0.00108821,-0.0229342,0.0124505,-0.0175,0.011603,-0.0109065,0.035,0.00145217,-1.16057,-9.60605,-0.508359,20.8448,-0.917036,-0.546361,-0.290945,0.0774749,-1.1846,0.842249,2.21222,-0.267363,-0.571362,-0.319575
2116248,1,-1.57094,-0.522746,-0.000684625,-2.09574,-1.57075,1.57155,0.785854,-1.57091,-0.523535,-9.00427e-05,-2.09434,-1.57085,1.57098,0.785406,0.000762608,1.71994e-05,-0.0130486,-0.000995177,0.00126941,-0.000419637,-0.00168203,-0.0262105,0.0142291,-0.02,0.0132605,-0.0124646,0.04,0.00165963,-1.48986,-9.40768,-0.913022,20.8448,-0.922529,-0.546361,-0.225942,0.0841517,-1.18304,0.853843,2.21444,-0.267532,-0.569788,-0.319423
2116249,1,-1.57094,-0.522731,-0.000704824,-2.09574,-1.57075,1.57155,0.785856,-1.57094,-0.523519,-0.000112543,-2.09432,-1.57087,1.57102,0.785408,-0.000645071,0.00296879,-0.0144953,0.000450173,-1.43767e-06,-8.49092e-06,0.000574069,-0.0294868,0.0160077,-0.0225,0.0149181,-0.0140226,0.045,0.00186708,-1.91832,-9.35611,-1.34546,20.7972,-0.899641,-0.553685,-0.271719,0.0946394,-1.18308,0.872588,2.21807,-0.267728,-0.567191,-0.319256
2116250,1,-1.57095,-0.522717,-0.000730523,-2.09574,-1.57076,1.57155,0.785853,-1.57098,-0.523501,-0.000137543,-2.0943,-1.57088,1.57107,0.78541,-0.00423322,0.00439351,-0.0179655,-0.000256697,0.000643302,0.000706416,-0.000329364,-0.0327632,0.0177864,-0.025,0.0165757,-0.0155807,0.05,0.00207453,-2.24761,-9.28073,-1.67474,20.821,-0.917036,-0.572911,-0.252493,0.108799,-1.18651,0.898294,2.22359,-0.267944,-0.56349,-0.319047
2116251,1,-1.57097,-0.522709,-0.000744881,-2.09573,-1.57076,1.57157,0.785855,-1.57102,-0.52348,-0.000167543,-2.09428,-1.5709,1.57113,0.785413,-0.00783278,0.00660241,-0.0144878,0.00103529,0.000191509,0.00702825,0.000492501,-0.0384892,0.0208342,-0.03,0.0194205,-0.0182686,0.06,0.0023951,-2.54912,-9.12601,-2.12701,20.7694,-0.910628,-0.624181,-0.271719,0.124322,-1.19543,0.927176,2.23199,-0.268247,-0.559007,-0.318789
2116252,1,-1.57099,-0.522704,-0.000768636,-2.09573,-1.57076,1.57157,0.785862,-1.57106,-0.523456,-0.000202543,-2.09426,-1.57092,1.5712,0.785415,-0.0112893,0.00718245,-0.0123255,-0.000516229,-0.00346327,0.00870924,0.00151513,-0.0442153,0.023882,-0.035,0.0222653,-0.0209564,0.07,0.00271567,-2.79906,-8.92368,-2.43249,20.821,-0.939009,-0.598546,-0.303762,0.136572,-1.20955,0.951759,2.2433,-0.268728,-0.554472,-0.31849
2116253,1,-1.571,-0.522697,-0.000793579,-2.09572,-1.57076,1.57157,0.785863,-1.57111,-0.523429,-0.000242543,-2.09424,-1.57094,1.57128,0.785418,-0.0113322,0.0053503,-0.0148267,0.00151696,-0.00164453,0.00783057,0.00101009,-0.0499414,0.0269298,-0.04,0.0251101,-0.0236443,0.08,0.00303624,-3.02916,-8.74911,-2.6864,20.8725,-0.96739,-0.507909,-0.303762,0.142251,-1.22436,0.966957,2.25572,-0.269397,-0.550323,-0.318188
2116254,1,-1.57103,-0.522691,-0.000813524,-2.09572,-1.57075,1.57158,0.785864,-1.57116,-0.523399,-0.000287543,-2.09421,-1.57097,1.57137,0.785422,-0.0159266,0.00778645,-0.019336,0.00320875,0.000715837,0.00802565,0.000910749,-0.0556675,0.0299776,-0.045,0.0279549,-0.0263321,0.09,0.0033568,-3.17992,-8.47141,-3.09106,20.9201,-1.02415,-0.431005,-0.310171,0.142822,-1.23416,0.975389,2.26635,-0.270136,-0.546136,-0.317957
2116255,1,-1.57105,-0.522676,-0.000840874,-2.09571,-1.57075,1.57158,0.785868,-1.57123,-0.523366,-0.000337543,-2.09418,-1.571,1.57147,0.785425,-0.0210077,0.00853395,-0.0236228,0.0027509,-0.00189688,0.00836143,0.00182787,-0.0613936,0.0330254,-0.05,0.0307997,-0.02902,0.1,0.00367737,-3.53301,-8.26907,-3.59887,21.0431,-1.0919,-0.353185,-0.34313,0.142794,-1.23885,0.983992,2.275,-0.270873,-0.54105,-0.317836
2116256,1,-1.57108,-0.522654,-0.000886735,-2.09571,-1.57075,1.5716,0.785863,-1.57129,-0.52333,-0.000392543,-2.09414,-1.57103,1.57158,0.785429,-0.0201053,0.0153764,-0.0295068,0.00394945,-0.000358532,0.00940204,-0.000239482,-0.0671197,0.0360732,-0.055,0.0336445,-0.0317078,0.11,0.00399794,-4.08843,-8.06674,-4.00354,21.1185,-1.13127,-0.295507,-0.303762,0.144946,-1.24453,0.997167,2.28502,-0.271729,-0.53452,-0.317841
2116257,1,-1.57112,-0.522627,-0.000931706,-2.0957,-1.57076,1.57161,0.785864,-1.57137,-0.523291,-0.000452543,-2.09411,-1.57107,1.5717,0.785434,-0.0273872,0.017789,-0.0340977,0.00639661,0.000601583,0.0106106,7.7704e-05,-0.0728458,0.039121,-0.06,0.0364894,-0.0343957,0.12,0.0043185,-4.46532,-7.88821,-4.53515,21.1185,-1.16514,-0.250646,-0.310171,0.149611,-1.25796,1.01595,2.2995,-0.272908,-0.526353,-0.317977
2116258,1,-1.57116,-0.522597,-0.00098194,-2.09568,-1.57077,1.57164,0.785859,-1.57144,-0.523249,-0.000517543,-2.09407,-1.5711,1.57183,0.785438,-0.0322932,0.0206515,-0.0370761,0.0135181,-0.00553955,0.017114,-0.00160971,-0.0785718,0.0421688,-0.065,0.0393342,-0.0370835,0.13,0.00463907,-4.86998,-7.76126,-5.09057,21.0431,-1.14317,-0.23142,-0.26531,0.156972,-1.27728,1.04045,2.31612,-0.274386,-0.516352,-0.318237
2116259,1,-1.57122,-0.522567,-0.00103885,-2.09566,-1.57078,1.57168,0.78586,-1.57153,-0.523204,-0.000587543,-2.09403,-1.57114,1.57197,0.785443,-0.0395118,0.0249561,-0.0428077,0.0150629,-0.0086118,0.0262698,-0.000835781,-0.0842979,0.0452167,-0.07,0.042179,-0.0397714,0.14,0.00495964,-5.24688,-7.5867,-5.52301,21.0947,-1.15416,-0.205785,-0.271719,0.166677,-1.29747,1.06971,2.3309,-0.276001,-0.504491,-0.318584
2116260,1,-1.57128,-0.522535,-0.00109558,-2.09565,-1.57079,1.57173,0.785855,-1.57162,-0.523155,-0.000662543,-2.09398,-1.57119,1.57212,0.785449,-0.0456409,0.0281223,-0.046144,0.0159994,-0.0120476,0.034485,-0.00225261,-0.090024,0.0482645,-0.075,0.0450238,-0.0424592,0.15,0.0052802,-5.59996,-7.40817,-5.97925,21.1701,-1.13676,-0.225011,-0.225942,0.178008,-1.31942,1.10257,2.34483,-0.277743,-0.490913,-0.318944
2116261,1,-1.57134,-0.522509,-0.00114733,-2.09563,-1.5708,1.5718,0.785849,-1.57172,-0.523103,-0.000745043,-2.09393,-1.57123,1.57229,0.785454,-0.0533871,0.0287218,-0.047565,0.0180161,-0.00864052,0.0427062,-0.00340061,-0.0975663,0.0521734,-0.0825,0.04868,-0.046191,0.164879,0.0056568,-5.8261,-7.15427,-6.48309,21.1939,-1.14866,-0.295507,-0.174673,0.189047,-1.34255,1.13589,2.35945,-0.279687,-0.475913,-0.319246
2116262,1,-1.57142,-0.522479,-0.00120567,-2.09562,-1.57081,1.57188,0.785843,-1.57182,-0.523047,-0.000835043,-2.09388,-1.57128,1.57247,0.78546,-0.0565398,0.0262338,-0.0504072,0.0165179,-0.0103419,0.0522303,-0.00419985,-0.105109,0.0560822,-0.09,0.0523363,-0.0499227,0.179759,0.0060334,-6.00463,-6.90433,-6.91552,21.3446,-1.17155,-0.340367,-0.122488,0.196356,-1.35979,1.16411,2.37339,-0.281859,-0.459998,-0.319417
2116263,1,-1.57149,-0.52245,-0.00127689,-2.09559,-1.57082,1.57196,0.785844,-1.57193,-0.522987,-0.000932543,-2.09382,-1.57134,1.57266,0.785467,-0.0619697,0.0244072,-0.057498,0.0205294,-0.0105673,0.0665488,-0.0015792,-0.112651,0.0599911,-0.0975,0.0559925,-0.0536545,0.194638,0.00641,-6.17919,-6.65042,-7.14166,21.416,-1.22191,-0.321141,-0.155447,0.197993,-1.36146,1.18424,2.3836,-0.284153,-0.443572,-0.319363
2116264,1,-1.57158,-0.522417,-0.00134311,-2.09557,-1.57083,1.57205,0.785845,-1.57205,-0.522923,-0.00103754,-2.09376,-1.57139,1.57287,0.785474,-0.0712792,0.0262915,-0.0648323,0.0224861,-0.0113802,0.0753492,-0.000340723,-0.120193,0.0639,-0.105,0.0596487,-0.0573862,0.209518,0.0067866,-6.25853,-6.39651,-7.52252,21.543,-1.26127,-0.257054,-0.174673,0.196506,-1.34265,1.19995,2.38762,-0.286372,-0.42649,-0.319001
2116265,1,-1.57168,-0.52238,-0.00141497,-2.09555,-1.57084,1.57217,0.785846,-1.57218,-0.522855,-0.00115004,-2.0937,-1.57145,1.57309,0.785481,-0.0801676,0.0300869,-0.068177,0.0250584,-0.0109717,0.0871973,-0.000939225,-0.127735,0.0678089,-0.1125,0.0633049,-0.061118,0.224397,0.00716319,-6.38152,-6.1188,-8.00256,21.6144,-1.32902,-0.186559,-0.155447,0.195633,-1.30844,1.21615,2.38727,-0.288516,-0.408451,-0.318306
2116266,1,-1.57177,-0.522329,-0.00150698,-2.09552,-1.57086,1.5723,0.785849,-1.57232,-0.522784,-0.00127004,-2.09363,-1.57152,1.57333,0.785488,-0.0825197,0.0367734,-0.0785315,0.0269506,-0.0155792,0.106379,0.000323286,-0.135278,0.0717178,-0.12,0.0669611,-0.0648497,0.239277,0.00753979,-6.687,-5.99185,-8.40722,21.6898,-1.39769,-0.147191,-0.181082,0.195806,-1.27076,1.23326,2.38786,-0.290815,-0.389653,-0.317284
2116267,1,-1.57187,-0.522273,-0.00160412,-2.09548,-1.57088,1.57246,0.785846,-1.57246,-0.522708,-0.00139754,-2.09356,-1.57159,1.57359,0.785496,-0.0900958,0.0416888,-0.0860367,0.0327401,-0.0141098,0.119903,-0.000971271,-0.14282,0.0756267,-0.1275,0.0706174,-0.0685815,0.254156,0.00791639,-7.04009,-5.86887,-8.83966,21.7176,-1.47093,-0.199376,-0.149038,0.196582,-1.23973,1.25115,2.3933,-0.293473,-0.370345,-0.315968
2116268,1,-1.572,-0.522211,-0.00170138,-2.09544,-1.57091,1.57264,0.785846,-1.57261,-0.522629,-0.00153254,-2.09349,-1.57166,1.57386,0.785504,-0.102685,0.0467474,-0.0918329,0.037427,-0.0196376,0.136038,-0.000647514,-0.150362,0.0795356,-0.135,0.0742736,-0.0723132,0.269036,0.00829299,-7.19085,-5.81729,-9.39508,21.7176,-1.49382,-0.295507,-0.149038,0.199206,-1.21774,1.27122,2.40326,-0.296559,-0.350379,-0.314404
2116269,1,-1.57212,-0.522154,-0.00181129,-2.09539,-1.57094,1.57283,0.785843,-1.57277,-0.522545,-0.00167504,-2.09341,-1.57174,1.57414,0.785513,-0.107541,0.0512,-0.0978919,0.0425374,-0.0188344,0.155858,-0.00165238,-0.157904,0.0834445,-0.1425,0.0779298,-0.076045,0.283915,0.00866959,-7.44078,-5.66653,-9.90289,21.6422,-1.52128,-0.366002,-0.116079,0.203708,-1.20297,1.29255,2.41583,-0.300126,-0.329843,-0.312626
2116270,1,-1.57225,-0.522094,-0.00193619,-2.09535,-1.57099,1.57305,0.785845,-1.57293,-0.522458,-0.00182504,-2.09333,-1.57182,1.57444,0.785522,-0.114097,0.0541801,-0.107632,0.0408128,-0.0244983,0.181872,-0.000389509,-0.165447,0.0873534,-0.15,0.081586,-0.0797767,0.298794,0.00904619,-7.82164,-5.51181,-10.1806,21.789,-1.5048,-0.392553,-0.135305,0.207767,-1.1944,1.31164,2.43136,-0.304309,-0.309345,-0.310647
2116271,1,-1.57239,-0.522035,-0.00205013,-2.0953,-1.57103,1.57328,0.785847,-1.57311,-0.522366,-0.00198503,-2.09324,-1.5719,1.57476,0.785532,-0.121579,0.0576269,-0.108081,0.0424031,-0.0332458,0.20042,0.000486312,-0.174037,0.0917964,-0.15999,0.0857532,-0.0842096,0.31596,0.00944466,-7.9724,-5.28568,-10.6091,21.8405,-1.48741,-0.475866,-0.155447,0.208241,-1.19172,1.324,2.45201,-0.309246,-0.289633,-0.30846
2116272,1,-1.57254,-0.521973,-0.00216004,-2.09525,-1.57109,1.57354,0.785843,-1.57329,-0.52227,-0.00215501,-2.09315,-1.57199,1.57509,0.785541,-0.130932,0.0583005,-0.112219,0.046217,-0.0390812,0.217053,-0.000896495,-0.182627,0.0962395,-0.16998,0.0899203,-0.0886425,0.333126,0.00984314,-8.07158,-5.08334,-11.0931,21.9159,-1.48741,-0.514318,-0.122488,0.201738,-1.19059,1.32393,2.47673,-0.314913,-0.271332,-0.306088
2116273,1,-1.57269,-0.521905,-0.00228846,-2.0952,-1.57114,1.5738,0.78584,-1.57348,-0.522169,-0.00233498,-2.09306,-1.57208,1.57544,0.785552,-0.139108,0.0631294,-0.118648,0.0489996,-0.042364,0.231396,-0.0015471,-0.191218,0.100682,-0.17997,0.0940874,-0.0930753,0.350292,0.0102416,-8.27391,-4.93259,-11.343,21.9873,-1.51579,-0.463048,-0.0968531,0.187934,-1.18513,1.31019,2.50222,-0.321115,-0.254498,-0.303579
2116274,1,-1.57286,-0.521834,-0.00241376,-2.09514,-1.5712,1.57409,0.785839,-1.57368,-0.522064,-0.00252494,-2.09296,-1.57218,1.57581,0.785562,-0.149964,0.0674593,-0.124447,0.0471785,-0.043979,0.246215,-0.00150612,-0.199808,0.105126,-0.18996,0.0982545,-0.0975082,0.367458,0.0106401,-8.42467,-4.80563,-11.7993,22.0905,-1.57255,-0.398961,-0.0840357,0.16966,-1.17738,1.28667,2.52993,-0.32778,-0.238726,-0.300931
2116275,1,-1.57303,-0.521752,-0.00255097,-2.09508,-1.57126,1.5744,0.785838,-1.57389,-0.521954,-0.00272489,-2.09286,-1.57228,1.57619,0.785573,-0.158934,0.0720155,-0.133081,0.0509789,-0.0543073,0.264497,-0.00124144,-0.208399,0.109569,-0.19995,0.102422,-0.101941,0.384623,0.0110386,-8.627,-4.75406,-12.3824,22.1143,-1.63481,-0.373326,-0.077627,0.150037,-1.17231,1.25798,2.56322,-0.334917,-0.223522,-0.298103
2116276,1,-1.57319,-0.521668,-0.00270513,-2.09501,-1.57133,1.57473,0.785842,-1.57411,-0.52184,-0.00293483,-2.09275,-1.57239,1.57659,0.785585,-0.157818,0.0800648,-0.140174,0.0573153,-0.057446,0.283626,0.00035917,-0.216989,0.114012,-0.20994,0.106589,-0.106374,0.401789,0.0114371,-9.18242,-4.65488,-12.9141,22.1143,-1.69157,-0.398961,-0.10967,0.128785,-1.17207,1.2245,2.60158,-0.342482,-0.208843,-0.295073
2116277,1,-1.57337,-0.521578,-0.00287181,-2.09494,-1.5714,1.57508,0.785842,-1.57433,-0.521722,-0.00315476,-2.09264,-1.5725,1.57701,0.785597,-0.1635,0.0845987,-0.150183,0.0634607,-0.0664012,0.304599,0.000239447,-0.22558,0.118455,-0.21993,0.110756,-0.110807,0.418955,0.0118355,-9.61089,-4.6033,-13.4219,22.0627,-1.70805,-0.475866,-0.10967,0.102445,-1.17701,1.18252,2.64209,-0.350465,-0.195094,-0.291872
2116278,1,-1.57358,-0.521477,-0.00303346,-2.09486,-1.57148,1.57545,0.785847,-1.57457,-0.521599,-0.00338468,-2.09253,-1.57261,1.57745,0.785609,-0.175064,0.0894842,-0.154387,0.0659509,-0.0682146,0.326362,0.000871708,-0.23417,0.122898,-0.22992,0.114923,-0.11524,0.436121,0.012234,-9.8886,-4.62711,-14.0527,22.0905,-1.72545,-0.57932,-0.128897,0.0703666,-1.18485,1.13147,2.6824,-0.358851,-0.182278,-0.288561
2116279,1,-1.57378,-0.521379,-0.00321922,-2.09478,-1.57156,1.57585,0.785845,-1.57481,-0.521472,-0.00362459,-2.09241,-1.57273,1.5779,0.785621,-0.183663,0.0939699,-0.16168,0.0731825,-0.074244,0.347884,-0.000605656,-0.242761,0.127341,-0.23991,0.11909,-0.119673,0.453287,0.0126325,-10.1901,-4.55173,-14.5089,22.0151,-1.74193,-0.707494,-0.0968531,0.0338571,-1.19236,1.07248,2.72104,-0.367617,-0.170202,-0.28521
2116280,1,-1.57399,-0.521269,-0.00340208,-2.09469,-1.57166,1.57627,0.785843,-1.57506,-0.52134,-0.00387449,-2.09229,-1.57286,1.57837,0.785635,-0.185439,0.10206,-0.167693,0.0793715,-0.0797041,0.369808,-0.00111585,-0.251351,0.131784,-0.2499,0.123257,-0.124105,0.470453,0.013031,-10.571,-4.55173,-14.9413,22.0389,-1.73094,-0.766088,-0.077627,-0.00840191,-1.19865,1.00356,2.75662,-0.376748,-0.159198,-0.281869
2116281,1,-1.5742,-0.521163,-0.00359027,-2.0946,-1.57175,1.5767,0.785844,-1.57532,-0.521203,-0.00413438,-2.09216,-1.57299,1.57886,0.785648,-0.192058,0.102125,-0.171576,0.0843536,-0.0832751,0.39245,-0.00026918,-0.260345,0.136498,-0.25989,0.127696,-0.128867,0.488346,0.0134316,-10.8963,-4.42477,-15.3976,22.0627,-1.71995,-0.823766,-0.0904444,-0.0603288,-1.20203,0.919519,2.78766,-0.386253,-0.150019,-0.278554
2116282,1,-1.57443,-0.52105,-0.00378061,-2.0945,-1.57186,1.57715,0.785843,-1.57559,-0.521062,-0.00440426,-2.09203,-1.57312,1.57937,0.785662,-0.203754,0.104643,-0.175082,0.0895264,-0.091623,0.410922,-0.000654172,-0.269339,0.141213,-0.26988,0.132134,-0.133629,0.50624,0.0138322,-11.1264,-4.40097,-15.826,22.0151,-1.69707,-0.817357,-0.077627,-0.123502,-1.19505,0.817657,2.8114,-0.396029,-0.142954,-0.275262
2116283,1,-1.57466,-0.520937,-0.00398224,-2.0944,-1.57196,1.57762,0.785842,-1.57587,-0.520916,-0.00468413,-2.09189,-1.57326,1.57989,0.785676,-0.209761,0.106945,-0.187237,0.0909354,-0.0963667,0.428375,-0.000673473,-0.278332,0.145928,-0.27987,0.136573,-0.138391,0.524134,0.0142328,-11.3525,-4.27402,-16.1553,22.0627,-1.70805,-0.759679,-0.0712183,-0.194326,-1.17294,0.702814,2.82723,-0.40587,-0.137417,-0.271987
2116284,1,-1.57489,-0.520813,-0.00419913,-2.09429,-1.57207,1.57811,0.785843,-1.57616,-0.520766,-0.00497399,-2.09175,-1.5734,1.58043,0.785691,-0.220229,0.111531,-0.193253,0.0966634,-0.0994001,0.44756,-0.000211623,-0.287326,0.150642,-0.28986,0.141011,-0.143153,0.542028,0.0146334,-11.5549,-4.25021,-16.4092,22.0389,-1.74193,-0.740453,-0.077627,-0.267941,-1.13832,0.582628,2.83785,-0.415647,-0.132578,-0.268706
2116285,1,-1.57513,-0.520687,-0.00441386,-2.09417,-1.57218,1.57863,0.785847,-1.57645,-0.52061,-0.00527384,-2.0916,-1.57355,1.58099,0.785706,-0.230143,0.116065,-0.196735,0.102652,-0.101988,0.468361,9.62768e-05,-0.296319,0.155357,-0.29985,0.14545,-0.147915,0.559922,0.015034,-11.654,-4.14706,-16.7108,21.9635,-1.75932,-0.759679,-0.0840357,-0.34305,-1.09508,0.459015,2.84484,-0.425341,-0.128132,-0.265415
2116286,1,-1.57539,-0.52055,-0.00465189,-2.09406,-1.57229,1.57918,0.785851,-1.57676,-0.52045,-0.00558368,-2.09145,-1.5737,1.58157,0.785721,-0.244632,0.120835,-0.212558,0.108612,-0.103339,0.487483,0.00101362,-0.305313,0.160072,-0.30984,0.149888,-0.152677,0.577815,0.0154346,-11.654,-4.09946,-16.8377,21.9635,-1.80418,-0.868627,-0.10967,-0.41703,-1.04616,0.335539,2.84848,-0.434897,-0.1236,-0.262124
2116287,1,-1.57566,-0.520405,-0.00489361,-2.09393,-1.57241,1.57974,0.785849,-1.57707,-0.520285,-0.00590351,-2.0913,-1.57386,1.58217,0.785737,-0.253495,0.12923,-0.221113,0.114575,-0.104315,0.506501,-3.633e-05,-0.314307,0.164786,-0.31983,0.154327,-0.157439,0.595709,0.0158352,-11.7056,-4.12326,-16.9647,21.8882,-1.84996,-0.90067,-0.0904444,-0.483739,-0.996479,0.221561,2.85042,-0.444237,-0.118067,-0.258859
2116288,1,-1.57592,-0.520256,-0.00513656,-2.09379,-1.57253,1.58032,0.785857,-1.5774,-0.520116,-0.00623333,-2.09114,-1.57402,1.58278,0.785753,-0.258123,0.131866,-0.227225,0.120286,-0.109616,0.541489,0.00139993,-0.3233,0.169501,-0.32982,0.158765,-0.162201,0.613603,0.0162358,-11.781,-4.14706,-17.0916,21.7652,-1.88933,-0.90067,-0.128897,-0.544541,-0.950435,0.11572,2.85229,-0.453492,-0.111963,-0.255656
2116289,1,-1.5762,-0.520107,-0.00538953,-2.09366,-1.57266,1.58093,0.785862,-1.57773,-0.519942,-0.00657314,-2.09098,-1.57419,1.58341,0.78577,-0.266576,0.141894,-0.235865,0.124422,-0.115459,0.558472,0.00117065,-0.332294,0.174216,-0.33981,0.163204,-0.166963,0.631497,0.0166364,-11.781,-4.14706,-17.2939,21.7652,-1.88933,-0.933629,-0.135305,-0.606023,-0.910729,0.00891916,2.85529,-0.46292,-0.106556,-0.252546
2116290,1,-1.57649,-0.519951,-0.00565337,-2.09352,-1.5728,1.58156,0.785862,-1.57807,-0.519763,-0.00692294,-2.09081,-1.57436,1.58406,0.785787,-0.272039,0.144825,-0.242505,0.130314,-0.124582,0.572655,0.000543073,-0.341287,0.17893,-0.3498,0.167642,-0.171725,0.649391,0.0170371,-11.8326,-4.17484,-17.4447,21.789,-1.88383,-0.965673,-0.128897,-0.670691,-0.880077,-0.102357,2.86089,-0.472704,-0.102262,-0.249552
2116291,1,-1.57678,-0.519792,-0.00593464,-2.09337,-1.57295,1.5822,0.785861,-1.57842,-0.519579,-0.00728273,-2.09064,-1.57454,1.58473,0.785804,-0.281685,0.145018,-0.255058,0.136197,-0.131559,0.592558,-0.00129946,-0.350129,0.183705,-0.35979,0.172163,-0.176586,0.667099,0.0174296,-12.0349,-4.12326,-17.4725,21.7414,-1.87193,-1.02976,-0.0840357,-0.737156,-0.851285,-0.216438,2.86581,-0.482719,-0.0987079,-0.246711
2116292,1,-1.57709,-0.519629,-0.00622105,-2.09322,-1.5731,1.58286,0.785863,-1.57878,-0.51939,-0.00765251,-2.09046,-1.57472,1.58541,0.785822,-0.290752,0.149093,-0.266386,0.13777,-0.138026,0.607255,-0.00062895,-0.358972,0.188479,-0.36978,0.176684,-0.181447,0.684808,0.017822,-12.0349,-4.09946,-17.651,21.8167,-1.83256,-1.05539,-0.0904444,-0.801031,-0.814578,-0.327159,2.86644,-0.492697,-0.0951253,-0.244029
2116293,1,-1.57741,-0.519459,-0.00651614,-2.09306,-1.57326,1.58353,0.785867,-1.57915,-0.519197,-0.00803228,-2.09028,-1.5749,1.58611,0.78584,-0.296823,0.152928,-0.274684,0.148394,-0.146849,0.623135,-0.0004193,-0.367814,0.193253,-0.37977,0.181205,-0.186309,0.702516,0.0182145,-12.0349,-4.12326,-17.7502,21.7652,-1.7932,-0.984899,-0.0904444,-0.860004,-0.768576,-0.430992,2.86248,-0.502498,-0.0911714,-0.241459
2116294,1,-1.57772,-0.51929,-0.00681986,-2.09289,-1.57342,1.58421,0.785871,-1.57952,-0.518999,-0.00842204,-2.09009,-1.5751,1.58684,0.785859,-0.300883,0.15747,-0.283835,0.152159,-0.150659,0.638845,0.00443043,-0.376656,0.198027,-0.38976,0.185726,-0.19117,0.720225,0.018607,-12.2095,-4.07169,-17.8018,21.7652,-1.80968,-0.940038,-0.0904444,-0.916849,-0.714139,-0.531742,2.85313,-0.512057,-0.0872666,-0.238963
2116295,1,-1.57805,-0.519113,-0.00714026,-2.09272,-1.57359,1.58494,0.785871,-1.57991,-0.518796,-0.00882179,-2.0899,-1.57529,1.58757,0.785878,-0.308774,0.162157,-0.295136,0.154929,-0.155131,0.659892,0.00188806,-0.385498,0.202802,-0.39975,0.190247,-0.196031,0.737933,0.0189995,-12.3126,-4.07169,-17.8533,21.7652,-1.80968,-1.02335,-0.0510767,-0.973991,-0.655405,-0.632537,2.84078,-0.521423,-0.083737,-0.236523
2116296,1,-1.57839,-0.518925,-0.00746094,-2.09254,-1.57375,1.58566,0.78587,-1.5803,-0.518589,-0.00923153,-2.08971,-1.57549,1.58833,0.785897,-0.321631,0.16994,-0.303849,0.159688,-0.156149,0.69572,0.000603643,-0.39434,0.207576,-0.40974,0.194767,-0.200892,0.755642,0.019392,-12.3364,-4.12326,-17.9803,21.6422,-1.87834,-1.13321,-0.0254419,-1.03063,-0.600504,-0.732001,2.83074,-0.530685,-0.0805811,-0.234095
2116297,1,-1.57873,-0.518725,-0.00780497,-2.09236,-1.57392,1.58641,0.785878,-1.58071,-0.518376,-0.00965126,-2.08951,-1.5757,1.5891,0.785917,-0.330464,0.178008,-0.313882,0.164895,-0.162928,0.714906,0.00109793,-0.403182,0.21235,-0.41973,0.199288,-0.205754,0.77335,0.0197845,-12.3602,-4.27402,-17.9525,21.5906,-1.9232,-1.13962,-0.0382593,-1.08536,-0.557616,-0.828258,2.82671,-0.539901,-0.0778924,-0.231611
2116298,1,-1.57909,-0.518522,-0.00814548,-2.09217,-1.57411,1.58716,0.785882,-1.58112,-0.518159,-0.010081,-2.0893,-1.57591,1.58989,0.785937,-0.334808,0.182631,-0.319737,0.173416,-0.171832,0.717711,0.000422818,-0.412024,0.217125,-0.42972,0.203809,-0.210615,0.791059,0.020177,-12.3126,-4.37717,-18.0041,21.5152,-1.97447,-1.01694,-0.0254419,-1.13919,-0.528269,-0.92288,2.82793,-0.549152,-0.0758555,-0.229001
2116299,1,-1.57945,-0.51831,-0.00850456,-2.09198,-1.5743,1.58794,0.785893,-1.58154,-0.517937,-0.0105207,-2.0891,-1.57612,1.5907,0.785958,-0.338857,0.190278,-0.333716,0.175153,-0.180455,0.735195,0.00673842,-0.420866,0.221899,-0.43971,0.20833,-0.215476,0.808767,0.0205695,-12.3364,-4.52792,-17.9525,21.5906,-1.99095,-0.972081,-0.0712183,-1.19414,-0.509442,-1.01838,2.83208,-0.558557,-0.0744969,-0.226232
2116300,1,-1.57982,-0.518105,-0.00887612,-2.09178,-1.5745,1.58874,0.785894,-1.58197,-0.517711,-0.0109704,-2.08888,-1.57634,1.59153,0.785979,-0.35173,0.196682,-0.345436,0.17857,-0.188138,0.753044,0.0028017,-0.429708,0.226673,-0.4497,0.212851,-0.220337,0.826475,0.020962,-12.4634,-4.5795,-17.9287,21.5906,-1.96806,-0.972081,-0.0126246,-1.248,-0.502808,-1.11095,2.84096,-0.568241,-0.0732983,-0.223304
2116301,1,-1.5802,-0.517888,-0.00925398,-2.09158,-1.5747,1.58956,0.785894,-1.58241,-0.517479,-0.0114301,-2.08867,-1.57657,1.59237,0.786,-0.360113,0.200779,-0.356745,0.184974,-0.18863,0.776295,0.00380486,-0.437907,0.231335,-0.45969,0.217306,-0.225152,0.843502,0.0213431,-12.4872,-4.62711,-17.8533,21.543,-1.95158,-1.04899,0.071604,-1.29644,-0.507528,-1.19442,2.85499,-0.578169,-0.0715143,-0.220252
2116302,1,-1.58059,-0.517674,-0.00965023,-2.09137,-1.5749,1.59039,0.785899,-1.58285,-0.517243,-0.0118998,-2.08844,-1.5768,1.59323,0.786022,-0.372703,0.209733,-0.36886,0.19212,-0.189867,0.792603,0.00296038,-0.446106,0.235996,-0.46968,0.221761,-0.229968,0.860528,0.0217242,-12.3602,-4.67868,-17.8018,21.6144,-1.91771,-1.00412,0.0780126,-1.33739,-0.519071,-1.2661,2.87103,-0.588205,-0.0687622,-0.217065
2116303,1,-1.581,-0.517448,-0.0100468,-2.09116,-1.57511,1.59124,0.785906,-1.58331,-0.517003,-0.0123794,-2.08822,-1.57703,1.59411,0.786044,-0.381242,0.212126,-0.369916,0.199361,-0.194349,0.807692,0.00642128,-0.454305,0.240658,-0.47967,0.226216,-0.234783,0.877554,0.0221053,-12.3126,-4.75406,-17.7502,21.543,-1.90581,-0.887853,0.0972387,-1.37267,-0.533531,-1.32924,2.88588,-0.598266,-0.0652707,-0.213662
2116304,1,-1.5814,-0.517214,-0.0104664,-2.09094,-1.57533,1.59211,0.785919,-1.58377,-0.516757,-0.0128691,-2.08799,-1.57727,1.595,0.786066,-0.399162,0.218182,-0.382858,0.20616,-0.199081,0.825892,0.00527878,-0.462504,0.24532,-0.48966,0.230672,-0.239598,0.894581,0.0224863,-12.3364,-4.88101,-17.6748,21.5668,-1.86644,-0.952855,0.09083,-1.40456,-0.544695,-1.38842,2.89599,-0.608225,-0.0612746,-0.20997
2116305,1,-1.58181,-0.516969,-0.0109049,-2.09072,-1.57555,1.59302,0.785923,-1.58424,-0.516507,-0.0133687,-2.08775,-1.57752,1.59592,0.786089,-0.40014,0.224937,-0.400335,0.210707,-0.209488,0.84959,0.00290281,-0.470702,0.249981,-0.49965,0.235127,-0.244413,0.911607,0.0228674,-12.4634,-5.10715,-17.524,21.5906,-1.88383,-1.09385,0.122873,-1.4304,-0.551612,-1.4394,2.90124,-0.617828,-0.0563212,-0.205949
2116306,1,-1.58224,-0.516726,-0.011337,-2.09049,-1.57578,1.59393,0.785934,-1.58472,-0.516253,-0.0138784,-2.08751,-1.57777,1.59684,0.786113,-0.406403,0.229197,-0.413602,0.218107,-0.212242,0.870449,0.00686937,-0.478901,0.254643,-0.50964,0.239582,-0.249229,0.928633,0.0232485,-12.4872,-5.2103,-17.4963,21.5668,-1.90581,-1.14603,0.129282,-1.44926,-0.557254,-1.47842,2.90355,-0.62691,-0.0503731,-0.201589
2116307,1,-1.58268,-0.516471,-0.0117847,-2.09025,-1.576,1.59486,0.785953,-1.58521,-0.515994,-0.014398,-2.08727,-1.57802,1.59779,0.786136,-0.414076,0.24285,-0.419141,0.22388,-0.218514,0.886308,0.0128503,-0.4871,0.259305,-0.51963,0.244037,-0.254044,0.94566,0.0236296,-12.388,-5.38882,-17.4725,21.543,-1.95158,-1.08103,0.0523779,-1.46559,-0.566894,-1.51055,2.90527,-0.635611,-0.0443205,-0.196894
2116308,1,-1.58311,-0.516212,-0.0122427,-2.09001,-1.57623,1.59581,0.78597,-1.5857,-0.51573,-0.0149276,-2.08702,-1.57828,1.59875,0.78616,-0.419702,0.248837,-0.442857,0.22582,-0.218543,0.903483,0.0157325,-0.495299,0.263966,-0.52962,0.248492,-0.258859,0.962686,0.0240107,-12.5387,-5.58719,-17.4963,21.4914,-2.00834,-1.07462,0.0130102,-1.48083,-0.591028,-1.53738,2.91194,-0.644235,-0.0385816,-0.191889
2116309,1,-1.58356,-0.51596,-0.0127221,-2.08978,-1.57646,1.59676,0.785985,-1.5862,-0.515461,-0.0154672,-2.08677,-1.57854,1.59973,0.786185,-0.424045,0.24843,-0.458915,0.227527,-0.223672,0.91721,0.0165785,-0.503497,0.268628,-0.53961,0.252947,-0.263674,0.979712,0.0243917,-12.7133,-5.58719,-17.524,21.543,-2.05321,-1.01694,0.00660151,-1.49048,-0.62839,-1.55144,2.92555,-0.652854,-0.0323737,-0.18671
2116310,1,-1.584,-0.515702,-0.0132143,-2.08954,-1.57671,1.59774,0.786,-1.58672,-0.515188,-0.0160168,-2.08651,-1.57881,1.60073,0.786209,-0.434583,0.25206,-0.465014,0.229447,-0.233915,0.93512,0.0172816,-0.511696,0.27329,-0.5496,0.257402,-0.26849,0.996739,0.0247728,-12.9434,-5.61496,-17.4725,21.5906,-2.05321,-0.965673,0.000192821,-1.49387,-0.666252,-1.55216,2.94254,-0.661469,-0.0253207,-0.181535
2116311,1,-1.58446,-0.515433,-0.0137095,-2.08929,-1.57697,1.59875,0.786008,-1.58724,-0.51491,-0.0165764,-2.08625,-1.57909,1.60174,0.786235,-0.444458,0.256421,-0.476051,0.23428,-0.236505,0.953535,0.015401,-0.518868,0.277698,-0.55959,0.261678,-0.273162,1.01281,0.0251453,-12.9156,-5.58719,-17.4725,21.6144,-2.04771,-0.984899,0.0587866,-1.4955,-0.698176,-1.54768,2.96026,-0.670224,-0.0179278,-0.176483
2116312,1,-1.58493,-0.51515,-0.0142228,-2.08904,-1.57721,1.59976,0.786026,-1.58776,-0.514628,-0.017146,-2.08598,-1.57936,1.60277,0.78626,-0.452357,0.267091,-0.487071,0.235835,-0.240914,0.971957,0.0166557,-0.52604,0.282106,-0.56958,0.265953,-0.277834,1.02888,0.0255178,-12.9672,-5.69034,-17.3971,21.7652,-2.07609,-0.946447,0.0523779,-1.49797,-0.729078,-1.54237,2.98021,-0.6793,-0.0105289,-0.17159
2116313,1,-1.58543,-0.514875,-0.0147452,-2.08878,-1.57746,1.60082,0.786044,-1.58829,-0.514341,-0.0177256,-2.08571,-1.57965,1.60382,0.786286,-0.466598,0.268893,-0.496548,0.240889,-0.24247,0.99572,0.017048,-0.533212,0.286514,-0.57957,0.270228,-0.282507,1.04495,0.0258902,-12.8165,-5.69034,-17.3455,21.7414,-2.06419,-1.0618,0.0587866,-1.5017,-0.76517,-1.53692,3.00476,-0.688804,-0.00320313,-0.166828
2116314,1,-1.58592,-0.514577,-0.0152748,-2.08851,-1.57773,1.60188,0.786067,-1.58884,-0.51405,-0.0183151,-2.08544,-1.57993,1.60488,0.786312,-0.467484,0.274486,-0.50654,0.249126,-0.248006,1.01627,0.0180953,-0.540384,0.290922,-0.58956,0.274503,-0.287179,1.06102,0.0262627,-12.7649,-5.89267,-17.2424,21.6422,-2.04771,-1.20371,0.0459692,-1.5082,-0.801558,-1.53389,3.03016,-0.698632,0.00379544,-0.162188
2116315,1,-1.58642,-0.514287,-0.015827,-2.08826,-1.578,1.60296,0.786091,-1.58938,-0.513755,-0.0189147,-2.08516,-1.58023,1.60595,0.786339,-0.478353,0.27887,-0.522631,0.251689,-0.258049,1.03436,0.0193035,-0.547556,0.29533,-0.59955,0.278778,-0.291852,1.07708,0.0266352,-12.7887,-6.0712,-17.167,21.6898,-2.00834,-1.28061,0.0194189,-1.51852,-0.832332,-1.53457,3.05198,-0.708579,0.0101706,-0.157674
2116316,1,-1.58691,-0.51399,-0.0163843,-2.08799,-1.57827,1.60406,0.786108,-1.58994,-0.513455,-0.0195242,-2.08488,-1.58052,1.60705,0.786366,-0.480926,0.284707,-0.533732,0.259209,-0.262929,1.05045,0.0173594,-0.554728,0.299738,-0.60954,0.283053,-0.296524,1.09315,0.0270076,-12.8918,-6.24576,-17.0162,21.6898,-2.02482,-1.26139,0.0651953,-1.53073,-0.857788,-1.5357,3.06984,-0.718458,0.0159457,-0.153287
2116317,1,-1.58744,-0.513689,-0.0169464,-2.08771,-1.57855,1.60514,0.786136,-1.5905,-0.513151,-0.0201438,-2.08459,-1.58082,1.60816,0.786393,-0.491299,0.288565,-0.544902,0.265398,-0.26765,1.06232,0.0183367,-0.5619,0.304146,-0.61953,0.287328,-0.301196,1.10922,0.0273801,-12.8165,-6.27353,-17.0678,21.7414,-2.03673,-1.15885,0.0587866,-1.54411,-0.877453,-1.53624,3.08276,-0.728139,0.0210608,-0.149039
2116318,1,-1.58795,-0.513382,-0.0175248,-2.08745,-1.57883,1.60624,0.786164,-1.59107,-0.512843,-0.0207733,-2.0843,-1.58113,1.60928,0.786421,-0.5026,0.294232,-0.556189,0.262575,-0.270377,1.07114,0.0242207,-0.569072,0.308554,-0.62952,0.291603,-0.305869,1.12529,0.0277526,-12.7411,-6.39651,-17.0678,21.8644,-2.06419,-1.10666,0.0322363,-1.55722,-0.893042,-1.53481,3.0926,-0.73767,0.0257644,-0.144899
2116319,1,-1.58849,-0.513079,-0.0181026,-2.08717,-1.57912,1.60735,0.786186,-1.59164,-0.51253,-0.0214128,-2.084,-1.58144,1.61042,0.786449,-0.512833,0.295304,-0.561635,0.267342,-0.275196,1.08134,0.0258203,-0.576244,0.312963,-0.63951,0.295878,-0.310541,1.14136,0.028125,-12.5903,-6.42429,-17.0162,21.9397,-2.12095,-1.06821,0.0780126,-1.56853,-0.907167,-1.53039,3.1036,-0.74724,0.0304835,-0.140836
2116320,1,-1.58902,-0.512771,-0.0187082,-2.08689,-1.5794,1.60848,0.786218,-1.59223,-0.512212,-0.0220623,-2.0837,-1.58175,1.61158,0.786478,-0.522284,0.29879,-0.576404,0.276701,-0.275313,1.08156,0.0301259,-0.583416,0.317371,-0.6495,0.300154,-0.315214,1.15743,0.0284975,-12.5903,-6.52347,-16.9131,21.9873,-2.17772,-1.0618,0.0459692,-1.57773,-0.914101,-1.52385,3.1129,-0.756846,0.0355849,-0.136863
2116321,1,-1.58957,-0.512449,-0.0193215,-2.0866,-1.57971,1.60964,0.786249,-1.59282,-0.511891,-0.0227218,-2.0834,-1.58207,1.61275,0.786506,-0.530596,0.306243,-0.578703,0.279778,-0.279155,1.09924,0.0283157,-0.58935,0.321417,-0.65949,0.304154,-0.31967,1.17234,0.028862,-12.5387,-6.702,-16.8139,22.0151,-2.13286,-1.17807,0.0194189,-1.5854,-0.911121,-1.51668,3.11708,-0.766501,0.0411824,-0.132984
2116322,1,-1.59012,-0.512122,-0.0199465,-2.08631,-1.58001,1.6108,0.786278,-1.59341,-0.511565,-0.0233913,-2.08309,-1.5824,1.61394,0.786536,-0.542092,0.313453,-0.592888,0.282411,-0.286619,1.11615,0.0270714,-0.595283,0.325464,-0.66948,0.308155,-0.324127,1.18725,0.0292266,-12.5625,-6.82895,-16.7385,22.1381,-2.08708,-1.28061,-0.0126246,-1.59388,-0.908139,-1.5122,3.12079,-0.776445,0.046713,-0.129186
2116323,1,-1.5907,-0.51179,-0.0205854,-2.08601,-1.58031,1.61199,0.786314,-1.59401,-0.511236,-0.0240707,-2.08278,-1.58273,1.61514,0.786565,-0.551515,0.319785,-0.603216,0.287267,-0.295338,1.13344,0.0262939,-0.601217,0.329511,-0.67947,0.312155,-0.328584,1.20215,0.0295911,-12.3364,-6.97971,-16.7108,22.1619,-2.08159,-1.31357,-0.0510767,-1.60204,-0.914332,-1.50819,3.12914,-0.786691,0.0519307,-0.125492
2116324,1,-1.59129,-0.511453,-0.0212286,-2.08571,-1.58062,1.6132,0.78635,-1.59462,-0.510902,-0.0247602,-2.08246,-1.58306,1.61636,0.786595,-0.561272,0.323457,-0.612038,0.292474,-0.295848,1.14524,0.0310213,-0.607151,0.333557,-0.68946,0.316156,-0.333041,1.21706,0.0299556,-12.1579,-7.13046,-16.6116,22.2373,-2.08708,-1.40329,-0.10967,-1.60826,-0.92925,-1.50201,3.14173,-0.797041,0.0567854,-0.121989
2116325,1,-1.59186,-0.51111,-0.02189,-2.0854,-1.58093,1.61443,0.786375,-1.59523,-0.510565,-0.0254596,-2.08214,-1.5834,1.61759,0.786626,-0.562532,0.327101,-0.622885,0.297995,-0.297265,1.17762,0.0302366,-0.613084,0.337604,-0.69945,0.320156,-0.337498,1.23197,0.0303201,-12.1341,-7.28122,-16.433,22.2611,-2.08159,-1.72556,-0.0510767,-1.61544,-0.946848,-1.49785,3.15525,-0.80739,0.0605904,-0.118825
2116326,1,-1.59245,-0.510772,-0.0225551,-2.08511,-1.58125,1.61565,0.786412,-1.59585,-0.510223,-0.0261691,-2.08182,-1.58374,1.61884,0.786656,-0.567119,0.331107,-0.652918,0.296271,-0.299345,1.18438,0.0333275,-0.619018,0.341651,-0.70944,0.324157,-0.341955,1.24688,0.0306847,-11.9318,-7.3566,-16.2307,22.4118,-2.05321,-1.6807,-0.0840357,-1.6221,-0.964419,-1.49203,3.16947,-0.817617,0.0632186,-0.116112
2116327,1,-1.59307,-0.510426,-0.0232189,-2.0848,-1.58158,1.61684,0.786456,-1.59648,-0.509877,-0.0268885,-2.08149,-1.58409,1.6201,0.786687,-0.580958,0.336755,-0.656857,0.29787,-0.308217,1.18749,0.0378943,-0.624952,0.345697,-0.71943,0.328157,-0.346412,1.26179,0.0310492,-11.7056,-7.40817,-16.1791,22.388,-2.0706,-1.23575,-0.181082,-1.62036,-0.985244,-1.47212,3.18856,-0.827612,0.0655867,-0.113833
2116328,1,-1.59366,-0.510078,-0.0239065,-2.08449,-1.5819,1.61807,0.786494,-1.59711,-0.509528,-0.0276179,-2.08116,-1.58444,1.62138,0.786719,-0.592173,0.341844,-0.66302,0.301613,-0.30946,1.19228,0.0378923,-0.630885,0.349744,-0.72942,0.332158,-0.350869,1.27669,0.0314137,-11.5787,-7.48355,-16.1038,22.4118,-2.11546,-0.959264,-0.193899,-1.60948,-1.01199,-1.43922,3.21462,-0.83747,0.0679225,-0.111967
2116329,1,-1.59427,-0.509726,-0.0245988,-2.08416,-1.58223,1.61936,0.786529,-1.59775,-0.509174,-0.0283573,-2.08082,-1.58479,1.62267,0.786751,-0.596448,0.344366,-0.67355,0.305549,-0.310985,1.21323,0.0316717,-0.636819,0.353791,-0.73941,0.336158,-0.355326,1.2916,0.0317783,-11.5549,-7.53513,-15.9768,22.388,-2.13286,-1.13321,-0.161856,-1.59546,-1.04195,-1.40424,3.24509,-0.847327,0.0698941,-0.110601
2116330,1,-1.59489,-0.509359,-0.0253151,-2.08384,-1.58254,1.62064,0.786557,-1.59839,-0.508816,-0.0291067,-2.08048,-1.58515,1.62397,0.786783,-0.593249,0.350927,-0.685932,0.312559,-0.318032,1.22585,0.0300028,-0.642752,0.357837,-0.7494,0.340159,-0.359783,1.30651,0.0321428,-11.4517,-7.73746,-15.8776,22.3603,-2.21159,-1.28061,-0.077627,-1.58432,-1.07111,-1.37536,3.2761,-0.857214,0.0712048,-0.109811
2116331,1,-1.59553,-0.509006,-0.0260346,-2.08352,-1.58288,1.62194,0.786602,-1.59904,-0.508455,-0.0298661,-2.08014,-1.58552,1.6253,0.786815,-0.606985,0.351799,-0.691633,0.310705,-0.326256,1.2363,0.0343511,-0.647383,0.361441,-0.75939,0.343806,-0.363958,1.32009,0.0324993,-11.2533,-7.78903,-15.9768,22.3365,-2.26835,-1.37766,-0.135305,-1.57967,-1.09798,-1.35705,3.30604,-0.867207,0.0715561,-0.109533
2116332,1,-1.59617,-0.508634,-0.0267541,-2.08318,-1.58323,1.62322,0.78665,-1.59969,-0.50809,-0.0306355,-2.07979,-1.58588,1.62663,0.786848,-0.615137,0.353842,-0.700511,0.320175,-0.334294,1.27317,0.038313,-0.652014,0.365045,-0.76938,0.347453,-0.368133,1.33366,0.0328558,-11.1502,-7.93979,-16.0046,22.1381,-2.27385,-1.29343,-0.219534,-1.58067,-1.11801,-1.34927,3.33288,-0.877331,0.0708433,-0.109642
2116333,1,-1.5968,-0.508256,-0.0274953,-2.08285,-1.58358,1.62453,0.786688,-1.60034,-0.507721,-0.0314149,-2.07944,-1.58626,1.62798,0.786881,-0.618237,0.360755,-0.712255,0.324905,-0.338139,1.28014,0.0367606,-0.656644,0.368649,-0.77937,0.351101,-0.372307,1.34724,0.0332123,-11.3287,-8.14212,-16.0046,22.1381,-2.21159,-1.27421,-0.18749,-1.58595,-1.12774,-1.35092,3.35313,-0.887547,0.0688949,-0.110113
2116334,1,-1.59743,-0.507882,-0.0282243,-2.08251,-1.58394,1.62588,0.786729,-1.60101,-0.507349,-0.0322042,-2.07908,-1.58663,1.62934,0.786915,-0.614788,0.362858,-0.71967,0.334725,-0.349271,1.29563,0.0354547,-0.661275,0.372252,-0.78936,0.354748,-0.376482,1.36081,0.0335688,-11.5549,-8.2175,-16.0284,22.0151,-2.15483,-1.36484,-0.149038,-1.59749,-1.12876,-1.36402,3.3649,-0.897889,0.0654405,-0.110979
2116335,1,-1.59806,-0.507498,-0.0289718,-2.08216,-1.58431,1.62719,0.786748,-1.60167,-0.506973,-0.0330036,-2.07872,-1.58701,1.63071,0.786949,-0.625143,0.367228,-0.734562,0.340662,-0.35231,1.30882,0.0286311,-0.665905,0.375856,-0.79935,0.358395,-0.380657,1.37439,0.0339252,-11.7294,-8.41983,-16.1038,21.9397,-2.13835,-1.28061,0.0523779,-1.61603,-1.12031,-1.38862,3.36627,-0.908234,0.0605925,-0.112218
2116336,1,-1.59871,-0.507124,-0.0297211,-2.08182,-1.58466,1.62854,0.786782,-1.60234,-0.506593,-0.0338129,-2.07836,-1.5874,1.6321,0.786983,-0.631783,0.373457,-0.739026,0.340607,-0.35146,1.32014,0.0289685,-0.670536,0.37946,-0.80934,0.362042,-0.384832,1.38796,0.0342817,-11.781,-8.47141,-16.2585,21.9159,-2.1942,-1.17167,0.129282,-1.6379,-1.10663,-1.41905,3.36029,-0.918486,0.0550302,-0.113641
2116337,1,-1.59936,-0.506741,-0.030475,-2.08146,-1.58503,1.62987,0.786827,-1.60302,-0.50621,-0.0346323,-2.078,-1.58779,1.6335,0.787018,-0.636159,0.376224,-0.747974,0.346366,-0.356208,1.34904,0.033754,-0.675167,0.383064,-0.81933,0.36569,-0.389007,1.40154,0.0346382,-11.8326,-8.49521,-16.3815,21.7652,-2.21159,-1.00412,0.0780126,-1.6632,-1.09591,-1.4553,3.35331,-0.928814,0.0488399,-0.114905
2116338,1,-1.6,-0.506366,-0.0312456,-2.08111,-1.58541,1.63124,0.786868,-1.6037,-0.505824,-0.0354616,-2.07763,-1.58818,1.63492,0.787053,-0.639558,0.385225,-0.750755,0.353731,-0.366083,1.35689,0.0366166,-0.679797,0.386667,-0.82932,0.369337,-0.393182,1.41512,0.0349947,-11.9318,-8.44363,-16.4608,21.789,-2.21159,-0.972081,0.0322363,-1.69652,-1.09125,-1.50368,3.34661,-0.939344,0.0415427,-0.115717
2116339,1,-1.60066,-0.505983,-0.0320278,-2.08074,-1.58579,1.63265,0.786908,-1.60438,-0.505433,-0.0363009,-2.07725,-1.58858,1.63634,0.787088,-0.638513,0.382784,-0.76133,0.359755,-0.36786,1.36738,0.0379071,-0.684428,0.390271,-0.83931,0.372984,-0.397357,1.42869,0.0353512,-11.9833,-8.44363,-16.4092,21.6422,-2.24547,-1.10026,0.00660151,-1.74095,-1.08944,-1.56839,3.3373,-0.950068,0.033166,-0.115982
2116340,1,-1.60132,-0.505591,-0.0328252,-2.08037,-1.58617,1.63406,0.786942,-1.60507,-0.505039,-0.0371502,-2.07688,-1.58898,1.63779,0.787124,-0.646821,0.385758,-0.767776,0.361536,-0.368381,1.37918,0.0377154,-0.689058,0.393875,-0.8493,0.376632,-0.401532,1.44227,0.0357077,-11.9833,-8.49521,-16.3339,21.5906,-2.29033,-1.21653,0.0130102,-1.79537,-1.08157,-1.64766,3.32215,-0.96093,0.0243533,-0.115774
2116341,1,-1.602,-0.505185,-0.0336367,-2.08,-1.58655,1.63548,0.786974,-1.60576,-0.504642,-0.0380093,-2.0765,-1.58938,1.63924,0.78716,-0.65917,0.39432,-0.777167,0.3672,-0.373244,1.38144,0.036031,-0.692514,0.396975,-0.859101,0.379862,-0.405347,1.45428,0.0360576,-11.8048,-8.67374,-16.3061,21.5152,-2.35258,-1.24216,0.0587866,-1.85349,-1.06846,-1.73279,3.30327,-0.971941,0.0160751,-0.115182
2116342,1,-1.60268,-0.504782,-0.0344393,-2.07961,-1.58694,1.63691,0.787015,-1.60646,-0.504242,-0.0388782,-2.07611,-1.58979,1.64071,0.787196,-0.667371,0.393085,-0.780647,0.374832,-0.374555,1.38595,0.038459,-0.695969,0.400074,-0.868902,0.383093,-0.409163,1.4663,0.0364075,-11.654,-8.74911,-16.3339,21.4676,-2.33061,-1.02976,0.00660151,-1.90905,-1.05383,-1.81572,3.28216,-0.983121,0.00906028,-0.114252
2116343,1,-1.60336,-0.504372,-0.035281,-2.07923,-1.58733,1.63834,0.78704,-1.60716,-0.503839,-0.0397569,-2.07573,-1.59021,1.64219,0.787233,-0.672322,0.395319,-0.792368,0.378918,-0.38007,1.40583,0.0353438,-0.699424,0.403173,-0.878703,0.386323,-0.412978,1.47831,0.0367574,-11.5787,-8.87607,-16.2069,21.4438,-2.33061,-0.959264,0.0844213,-1.96047,-1.03087,-1.89487,3.2549,-0.994399,0.00337583,-0.113048
2116344,1,-1.60404,-0.503975,-0.0361292,-2.07884,-1.58774,1.63982,0.787081,-1.60786,-0.503433,-0.0406454,-2.07534,-1.59062,1.64368,0.78727,-0.669538,0.397077,-0.803216,0.385808,-0.391224,1.41965,0.0377405,-0.702879,0.406273,-0.888504,0.389554,-0.416794,1.49033,0.0371074,-11.5033,-8.89987,-15.8776,21.416,-2.25645,-0.933629,0.0459692,-2.00917,-0.99536,-1.97137,3.21954,-1.00568,-0.00129511,-0.111631
2116345,1,-1.60475,-0.50357,-0.0370026,-2.07845,-1.58814,1.64128,0.787117,-1.60857,-0.503024,-0.0415437,-2.07495,-1.59104,1.64518,0.787307,-0.675709,0.397311,-0.820558,0.384596,-0.39199,1.43598,0.0380504,-0.706334,0.409372,-0.898305,0.392784,-0.420609,1.50234,0.0374573,-11.2018,-8.89987,-15.5483,21.4676,-2.25096,-0.836583,0.038645,-2.05466,-0.948961,-2.04272,3.17806,-1.01685,-0.00487951,-0.110015
2116346,1,-1.60548,-0.503175,-0.0378829,-2.07806,-1.58854,1.64277,0.787156,-1.60928,-0.502611,-0.0424518,-2.07455,-1.59147,1.64669,0.787345,-0.69654,0.394154,-0.83421,0.392182,-0.393026,1.44797,0.0397035,-0.709789,0.412472,-0.908106,0.396015,-0.424425,1.51436,0.0378072,-10.5194,-8.8483,-15.2706,21.4676,-2.24547,-0.791722,-0.00621587,-2.08805,-0.889055,-2.09615,3.13133,-1.02761,-0.00597315,-0.108238
2116347,1,-1.60621,-0.50278,-0.0387865,-2.07766,-1.58896,1.6443,0.7872,-1.60999,-0.502196,-0.0433697,-2.07415,-1.5919,1.64822,0.787383,-0.707843,0.39014,-0.863508,0.393727,-0.396415,1.46645,0.0460059,-0.713244,0.415571,-0.917907,0.399245,-0.42824,1.52638,0.0381571,-10.0156,-8.74911,-14.7112,21.5152,-2.26835,-0.842992,-0.0712183,-2.09346,-0.80627,-2.1103,3.07605,-1.03738,-0.0021366,-0.106405
2116348,1,-1.60692,-0.502369,-0.0397042,-2.07724,-1.58937,1.64582,0.787236,-1.61071,-0.501777,-0.0442974,-2.07375,-1.59233,1.64976,0.787422,-0.712329,0.394937,-0.881069,0.401182,-0.400954,1.47694,0.0435816,-0.7167,0.418671,-0.927708,0.402476,-0.432056,1.53839,0.038507,-9.71404,-8.82449,-14.1796,21.4676,-2.27934,-0.991307,-0.0584009,-2.06132,-0.699099,-2.07159,3.01157,-1.04583,0.0079487,-0.104646
2116349,1,-1.60766,-0.50195,-0.0406296,-2.07685,-1.58978,1.64734,0.787266,-1.61143,-0.501355,-0.0452349,-2.07334,-1.59277,1.65131,0.787461,-0.720396,0.403389,-0.900939,0.398988,-0.404998,1.48369,0.0390925,-0.720155,0.42177,-0.937509,0.405706,-0.435871,1.55041,0.0388569,-9.38475,-8.97525,-13.8265,21.5906,-2.26286,-1.02335,0.0194189,-1.99457,-0.585619,-1.98326,2.94637,-1.05324,0.0234809,-0.103041
2116350,1,-1.60839,-0.50152,-0.041547,-2.07643,-1.59021,1.64884,0.787309,-1.61215,-0.50093,-0.0461822,-2.07293,-1.5932,1.65287,0.7875,-0.719434,0.409331,-0.911038,0.401962,-0.410926,1.50735,0.0453085,-0.72361,0.42487,-0.94731,0.408937,-0.439687,1.56242,0.0392068,-9.18242,-9.17758,-13.6242,21.6144,-2.27385,-0.92722,-0.0254419,-1.90417,-0.489741,-1.86029,2.89255,-1.06029,0.0422285,-0.101571
2116351,1,-1.60911,-0.501097,-0.0424923,-2.07603,-1.59063,1.65036,0.787345,-1.61288,-0.500503,-0.0471384,-2.07252,-1.59365,1.65444,0.78754,-0.716813,0.414855,-0.9174,0.407025,-0.415275,1.51276,0.0436106,-0.726028,0.427417,-0.956171,0.4117,-0.443036,1.57272,0.0395574,-9.2578,-9.37991,-13.5211,21.6898,-2.30772,-0.785314,-0.0318506,-1.80766,-0.422005,-1.72773,2.85461,-1.06756,0.0610741,-0.100183
2116352,1,-1.60984,-0.500662,-0.0434205,-2.07561,-1.59106,1.65192,0.787388,-1.61361,-0.500073,-0.0481034,-2.07211,-1.59409,1.65603,0.787579,-0.708431,0.422997,-0.923061,0.410842,-0.423445,1.51243,0.0428941,-0.728447,0.429963,-0.965033,0.414462,-0.446384,1.58302,0.039908,-9.40856,-9.63382,-13.6758,21.7652,-2.32512,-0.759679,-0.0584009,-1.72349,-0.383665,-1.61224,2.83107,-1.07555,0.0773049,-0.0988581
2116353,1,-1.61056,-0.500222,-0.044356,-2.07521,-1.59152,1.65352,0.787432,-1.61434,-0.49964,-0.0490773,-2.07169,-1.59454,1.65762,0.78762,-0.713024,0.426902,-0.919651,0.408126,-0.427932,1.54378,0.0435191,-0.730866,0.43251,-0.973895,0.417225,-0.449733,1.59332,0.0402585,-9.61089,-9.78458,-14.0051,21.9397,-2.27385,-1.22934,-0.103262,-1.66534,-0.376531,-1.53392,2.82272,-1.0847,0.089089,-0.0976018
2116354,1,-1.61128,-0.499786,-0.045319,-2.0748,-1.59196,1.65512,0.787473,-1.61507,-0.499205,-0.0500601,-2.07127,-1.595,1.65922,0.78766,-0.710512,0.427111,-0.929463,0.41172,-0.429689,1.55888,0.041638,-0.733284,0.435057,-0.982756,0.419988,-0.453082,1.60362,0.0406091,-10.0671,-9.9631,-14.1558,22.0389,-2.26286,-1.46738,-0.0968531,-1.63897,-0.395183,-1.50207,2.82869,-1.09513,0.0954207,-0.0964811
2116355,1,-1.612,-0.499349,-0.0462768,-2.07438,-1.59242,1.65668,0.78752,-1.61581,-0.498768,-0.0510517,-2.07085,-1.59545,1.66084,0.787701,-0.715341,0.426161,-0.945639,0.411911,-0.436719,1.58743,0.0418632,-0.735703,0.437604,-0.991618,0.422751,-0.456431,1.61392,0.0409596,-10.3448,-10.1377,-14.1796,22.0627,-2.1942,-1.30076,-0.135305,-1.63747,-0.424215,-1.50676,2.8427,-1.10638,0.0968955,-0.0956082
2116356,1,-1.61273,-0.498915,-0.0472324,-2.07397,-1.59287,1.65829,0.787568,-1.61654,-0.498328,-0.0520522,-2.07042,-1.59591,1.66246,0.787743,-0.718042,0.438797,-0.948461,0.421344,-0.442532,1.59011,0.0423222,-0.738121,0.440151,-1.00048,0.425513,-0.459779,1.62422,0.0413102,-10.4678,-10.2924,-14.4097,22.1381,-2.13286,-1.31998,-0.181082,-1.65049,-0.457048,-1.53223,2.8603,-1.11788,0.0947121,-0.0950472
2116357,1,-1.61344,-0.498469,-0.0481927,-2.07354,-1.59334,1.65993,0.787617,-1.61728,-0.497885,-0.0530615,-2.06999,-1.59638,1.6641,0.787784,-0.713484,0.444048,-0.937403,0.420486,-0.445631,1.59431,0.0418493,-0.74054,0.442698,-1.00934,0.428276,-0.463128,1.63451,0.0416607,-10.7971,-10.4154,-14.3582,22.1381,-2.10448,-1.39048,-0.206716,-1.68192,-0.502604,-1.5839,2.88316,-1.12967,0.0884102,-0.0948175
2116358,1,-1.61413,-0.498019,-0.0491682,-2.07312,-1.5938,1.66158,0.787654,-1.61803,-0.49744,-0.0540797,-2.06956,-1.59684,1.66574,0.787826,-0.710441,0.445723,-0.942645,0.423337,-0.44832,1.61047,0.041646,-0.742959,0.445244,-1.0182,0.431039,-0.466477,1.64481,0.0420113,-11.174,-10.5701,-14.2312,22.1619,-2.1887,-1.66056,-0.10967,-1.74324,-0.56448,-1.67823,2.91296,-1.14201,0.0766091,-0.0949727
2116359,1,-1.61487,-0.497587,-0.0501582,-2.0727,-1.59425,1.66322,0.787711,-1.61877,-0.496992,-0.0551068,-2.06913,-1.59731,1.6674,0.787869,-0.721564,0.443745,-0.954367,0.425019,-0.445695,1.6161,0.0483065,-0.745377,0.447791,-1.02706,0.433802,-0.469826,1.65511,0.0423619,-10.9756,-10.5701,-14.1558,22.2889,-2.29033,-1.56443,-0.193899,-1.82937,-0.630751,-1.80718,2.94562,-1.1546,0.0602482,-0.0955592
2116360,1,-1.61563,-0.497126,-0.0511363,-2.07227,-1.59471,1.66486,0.787766,-1.61952,-0.496541,-0.0561427,-2.06869,-1.59779,1.66906,0.787911,-0.726044,0.449435,-0.967654,0.422728,-0.445372,1.62116,0.0513754,-0.747796,0.450338,-1.03593,0.436565,-0.473174,1.66541,0.0427124,-10.5948,-10.7962,-14.1558,22.2889,-2.32512,-1.35203,-0.225942,-1.92112,-0.692,-1.94216,2.97852,-1.16698,0.0422753,-0.0965426
2116361,1,-1.61634,-0.496667,-0.0521539,-2.07183,-1.59517,1.66649,0.78782,-1.62027,-0.496089,-0.0571861,-2.06825,-1.59826,1.67073,0.787954,-0.719163,0.448963,-0.980194,0.424155,-0.458533,1.61705,0.0532214,-0.749335,0.452302,-1.04338,0.438812,-0.475892,1.67387,0.0430711,-10.6702,-10.8954,-13.9257,22.2889,-2.3361,-1.06821,-0.246084,-2.00655,-0.749298,-2.06466,3.01383,-1.17908,0.0247055,-0.0978841
2116362,1,-1.61706,-0.496213,-0.0531619,-2.07142,-1.59563,1.66817,0.787863,-1.62102,-0.495635,-0.0582369,-2.06781,-1.59874,1.67242,0.787998,-0.718978,0.452255,-0.992252,0.424749,-0.462642,1.62989,0.0460386,-0.750874,0.454266,-1.05083,0.441059,-0.47861,1.68233,0.0434299,-10.8963,-11.0224,-13.6996,22.4634,-2.30772,-1.06821,-0.161856,-2.08429,-0.802529,-2.17163,3.05141,-1.19097,0.00822853,-0.0995939
2116363,1,-1.61779,-0.495758,-0.0541729,-2.07098,-1.5961,1.66984,0.787908,-1.62177,-0.495179,-0.0592952,-2.06737,-1.59922,1.67411,0.788042,-0.722387,0.448141,-0.990592,0.429898,-0.45855,1.64757,0.0461725,-0.752414,0.45623,-1.05829,0.443306,-0.481329,1.69079,0.0437886,-10.8963,-11.0739,-13.7512,22.388,-2.34709,-1.04899,-0.0904444,-2.158,-0.845611,-2.26889,3.08693,-1.20269,-0.00722448,-0.101676
2116364,1,-1.61852,-0.495305,-0.0552145,-2.07054,-1.59656,1.67153,0.787952,-1.62253,-0.49472,-0.060361,-2.06692,-1.59971,1.67581,0.788086,-0.728215,0.449164,-1.00241,0.430156,-0.462461,1.65002,0.045897,-0.753953,0.458193,-1.06574,0.445553,-0.484047,1.69925,0.0441473,-10.7455,-11.0739,-13.6242,22.3603,-2.3361,-1.04258,-0.00621587,-2.23065,-0.870209,-2.36241,3.11511,-1.21426,-0.0217414,-0.104041
2116365,1,-1.61927,-0.494844,-0.0562334,-2.07011,-1.59702,1.67324,0.78799,-1.62328,-0.49426,-0.0614342,-2.06648,-1.60019,1.67751,0.78813,-0.736106,0.450416,-0.995532,0.432164,-0.459124,1.66072,0.0396953,-0.755492,0.460157,-1.0732,0.4478,-0.486765,1.70771,0.044506,-10.3686,-11.1255,-13.4219,22.388,-2.3361,-0.984899,0.122873,-2.30248,-0.876097,-2.45418,3.13553,-1.22578,-0.0351212,-0.10646
2116366,1,-1.62001,-0.494377,-0.0572837,-2.06965,-1.5975,1.67494,0.788032,-1.62404,-0.493798,-0.0625148,-2.06603,-1.60068,1.67923,0.788175,-0.740162,0.455156,-1.0056,0.434146,-0.466726,1.67557,0.0382893,-0.757031,0.462121,-1.08065,0.450047,-0.489483,1.71617,0.0448648,-9.96398,-11.3001,-13.0648,22.2611,-2.21709,-1.01053,0.162241,-2.37509,-0.871882,-2.54775,3.15185,-1.23741,-0.0476427,-0.108618
2116367,1,-1.62075,-0.493923,-0.0583522,-2.06921,-1.59797,1.67665,0.788075,-1.6248,-0.493334,-0.0636029,-2.06557,-1.60117,1.68096,0.78822,-0.742236,0.454925,-1.02456,0.437454,-0.464349,1.67805,0.0385356,-0.758571,0.464085,-1.08811,0.452294,-0.492201,1.72463,0.0452235,-9.71404,-11.3279,-12.6363,22.1897,-2.16032,-0.894261,0.16865,-2.44356,-0.863756,-2.63575,3.16611,-1.24896,-0.0587113,-0.110197
2116368,1,-1.62148,-0.493452,-0.0594223,-2.06877,-1.59843,1.67839,0.788105,-1.62556,-0.492868,-0.0646985,-2.06512,-1.60167,1.68269,0.788266,-0.738702,0.458031,-1.04559,0.433873,-0.462076,1.71039,0.0351084,-0.76011,0.466049,-1.09556,0.454541,-0.494919,1.73309,0.0455822,-9.66246,-11.427,-12.1563,22.2135,-2.23997,-0.75327,0.265696,-2.49749,-0.854763,-2.70124,3.18026,-1.26,-0.0669362,-0.110993
2116369,1,-1.62222,-0.493006,-0.0605067,-2.06833,-1.5989,1.6801,0.78815,-1.62632,-0.4924,-0.0658015,-2.06466,-1.60217,1.68443,0.788312,-0.746748,0.456137,-1.05172,0.444152,-0.461991,1.71821,0.0399444,-0.761649,0.468013,-1.10302,0.456788,-0.497637,1.74155,0.045941,-9.38475,-11.3001,-11.827,22.2611,-2.30223,-0.598546,0.181467,-2.53332,-0.844061,-2.73809,3.19381,-1.27026,-0.0719464,-0.11091
2116370,1,-1.623,-0.492552,-0.0615831,-2.06787,-1.59936,1.68183,0.788186,-1.62708,-0.49193,-0.066912,-2.0642,-1.60267,1.68618,0.788358,-0.745891,0.455192,-1.06161,0.449855,-0.454216,1.70948,0.0401952,-0.763189,0.469976,-1.11047,0.459035,-0.500355,1.75001,0.0462997,-8.82933,-11.1771,-11.5493,22.1897,-2.43773,-0.437413,0.162241,-2.55343,-0.821133,-2.75116,3.19888,-1.27966,-0.0737951,-0.109934
2116371,1,-1.62377,-0.492079,-0.0627018,-2.06741,-1.59983,1.68357,0.788225,-1.62785,-0.491459,-0.0680283,-2.06374,-1.60317,1.68794,0.788405,-0.758772,0.455653,-1.07823,0.450326,-0.46253,1.7196,0.0408267,-0.764032,0.471357,-1.11629,0.460706,-0.502219,1.75651,0.0466605,-8.32549,-11.2247,-11.0415,22.0627,-2.4716,-0.463048,0.122873,-2.55667,-0.779104,-2.7405,3.19114,-1.28834,-0.0717942,-0.108147
2116372,1,-1.62455,-0.491607,-0.0638383,-2.06696,-1.60031,1.68533,0.788267,-1.62861,-0.490986,-0.0691504,-2.06328,-1.60367,1.6897,0.788452,-0.764103,0.458346,-1.08895,0.449707,-0.471872,1.72528,0.0392153,-0.764875,0.472738,-1.12211,0.462377,-0.504082,1.76301,0.0470213,-7.9724,-11.3755,-10.4345,21.9873,-2.42033,-0.560094,0.0194189,-2.53761,-0.724701,-2.69935,3.17622,-1.29652,-0.0650651,-0.105669
2116373,1,-1.62534,-0.491131,-0.0649557,-2.0665,-1.60081,1.68708,0.788308,-1.62938,-0.490512,-0.0702783,-2.06282,-1.60418,1.69147,0.788499,-0.773207,0.461933,-1.10389,0.451022,-0.474044,1.77073,0.0355935,-0.765718,0.474119,-1.12793,0.464048,-0.505946,1.76951,0.0473821,-7.54393,-11.5302,-10.0298,21.9159,-2.31871,-0.701085,-0.0318506,-2.49573,-0.669838,-2.62732,3.16164,-1.30443,-0.0540616,-0.102688
2116374,1,-1.62612,-0.490661,-0.0661186,-2.06604,-1.6013,1.68885,0.788361,-1.63014,-0.490036,-0.0714121,-2.06235,-1.60469,1.69325,0.788547,-0.777305,0.475397,-1.12277,0.450475,-0.482443,1.77051,0.0419353,-0.766562,0.4755,-1.13375,0.465719,-0.507809,1.77601,0.0477429,-7.21465,-11.6809,-9.47046,21.9397,-2.18321,-0.798131,-0.200308,-2.43258,-0.632053,-2.52564,3.15593,-1.31225,-0.0398496,-0.0994693
2116375,1,-1.62691,-0.490179,-0.0672618,-2.06559,-1.6018,1.69064,0.7884,-1.63091,-0.489559,-0.0725516,-2.06188,-1.6052,1.69503,0.788595,-0.783638,0.477402,-1.12928,0.4493,-0.481009,1.76083,0.0408063,-0.767405,0.476882,-1.13957,0.46739,-0.509673,1.78251,0.0481037,-6.83776,-11.9071,-8.99041,21.8882,-2.13286,-0.842992,-0.219534,-2.34931,-0.627325,-2.39517,3.16679,-1.32011,-0.0230331,-0.0963071
2116376,1,-1.62772,-0.489693,-0.0684033,-2.06512,-1.60229,1.69243,0.788442,-1.63168,-0.489081,-0.073697,-2.06141,-1.60571,1.69682,0.788644,-0.792012,0.47918,-1.131,0.455585,-0.489145,1.77807,0.0437194,-0.768248,0.478263,-1.14539,0.469061,-0.511536,1.78901,0.0484645,-6.35772,-12.1848,-8.86346,21.8405,-2.08708,-1.17807,-0.200308,-2.25279,-0.650554,-2.24735,3.19118,-1.32796,-0.00484268,-0.0935571
2116377,1,-1.62849,-0.489222,-0.0695653,-2.06465,-1.60278,1.69424,0.788503,-1.63245,-0.488602,-0.0748482,-2.06094,-1.60622,1.69861,0.788692,-0.791429,0.478435,-1.14059,0.462745,-0.494315,1.7822,0.0513962,-0.769092,0.479644,-1.15121,0.470732,-0.5134,1.79551,0.0488254,-6.28234,-12.3633,-8.73651,21.789,-2.0706,-1.4097,-0.329397,-2.15237,-0.681585,-2.09776,3.21643,-1.33548,0.0128065,-0.091529
2116378,1,-1.62926,-0.488738,-0.0707065,-2.06418,-1.60328,1.696,0.788546,-1.63322,-0.488121,-0.0760053,-2.06047,-1.60674,1.70041,0.788742,-0.782928,0.477746,-1.13964,0.466508,-0.49113,1.75962,0.0492797,-0.769935,0.481025,-1.15703,0.472403,-0.515264,1.80202,0.0491862,-6.43309,-12.5656,-8.63733,21.7652,-2.08159,-0.965673,-0.252493,-2.05746,-0.703821,-1.96063,3.23198,-1.34252,0.0280204,-0.0904129
2116379,1,-1.63002,-0.488253,-0.0718589,-2.06371,-1.60379,1.69776,0.788605,-1.63399,-0.487638,-0.0771681,-2.06,-1.60725,1.70222,0.788791,-0.761662,0.476524,-1.14729,0.465957,-0.501897,1.74823,0.0476818,-0.770778,0.482406,-1.16285,0.474074,-0.517127,1.80852,0.049547,-6.687,-12.6926,-8.68493,21.7652,-2.08708,-0.656224,-0.290945,-1.98131,-0.711276,-1.85362,3.23548,-1.34934,0.0388699,-0.0902946
2116380,1,-1.63078,-0.487774,-0.0730315,-2.06323,-1.6043,1.69956,0.788656,-1.63476,-0.487154,-0.0783368,-2.05952,-1.60777,1.70404,0.788841,-0.760866,0.475397,-1.15042,0.469742,-0.497694,1.7529,0.0477581,-0.771622,0.483787,-1.16867,0.475745,-0.518991,1.81502,0.0499078,-7.0877,-12.8195,-8.63733,21.7414,-2.10997,-0.572911,-0.23876,-1.93313,-0.704409,-1.78766,3.22895,-1.35622,0.0445034,-0.0911457
2116381,1,-1.63155,-0.487285,-0.0741917,-2.06275,-1.60481,1.70138,0.788698,-1.63553,-0.48667,-0.0795095,-2.05904,-1.60829,1.70586,0.788891,-0.763094,0.480356,-1.15041,0.468426,-0.503294,1.77987,0.0437997,-0.771958,0.484594,-1.17269,0.476802,-0.519969,1.81944,0.0502548,-7.26622,-12.9703,-8.55798,21.7176,-2.15483,-0.97849,-0.0712183,-1.91256,-0.688924,-1.76142,3.21622,-1.3632,0.0454475,-0.092864
2116382,1,-1.63234,-0.486795,-0.075385,-2.06227,-1.60531,1.70321,0.788761,-1.63631,-0.486184,-0.0806862,-2.05857,-1.60881,1.70768,0.788942,-0.763737,0.482122,-1.15476,0.470814,-0.502244,1.78633,0.0494895,-0.772295,0.485402,-1.1767,0.477859,-0.520948,1.82386,0.0506017,-7.11547,-13.0973,-8.33185,21.5906,-2.22258,-1.1204,-0.116079,-1.91567,-0.675986,-1.76885,3.20334,-1.37035,0.0423958,-0.0952179
2116383,1,-1.63315,-0.486292,-0.0765428,-2.06178,-1.60583,1.70503,0.788821,-1.63708,-0.485698,-0.0818669,-2.05809,-1.60934,1.70951,0.788993,-0.771811,0.48437,-1.16026,0.473974,-0.506667,1.78515,0.0520615,-0.772632,0.486209,-1.18072,0.478916,-0.521926,1.82828,0.0509487,-6.76238,-13.2996,-8.35565,21.5152,-2.25096,-1.06821,-0.135305,-1.93409,-0.670194,-1.79756,3.19243,-1.37762,0.0365019,-0.0978837
2116384,1,-1.63391,-0.485797,-0.077743,-2.0613,-1.60635,1.70682,0.788884,-1.63785,-0.485211,-0.0830516,-2.05761,-1.60986,1.71134,0.789044,-0.7718,0.48438,-1.17593,0.471554,-0.512586,1.7859,0.0565056,-0.772969,0.487017,-1.18473,0.479974,-0.522904,1.83271,0.0512956,-6.86156,-13.4265,-8.05414,21.6898,-2.23997,-0.823766,-0.213125,-1.95427,-0.669612,-1.82802,3.18283,-1.38488,0.029691,-0.100627
