shamilmamedov/beam_handling/log/param_estimation_ICRA/ocp_rotZ_30deg_0.35s_2.csv
duration, success rate, q[0], q[1], q[2], q[3], q[4], q[5], q[6],q_d[0], q_d[1], q_d[2], q_d[3], q_d[4], q_d[5], q_d[6],dq[0], dq[1], dq[2], dq[3], dq[4], dq[5], dq[6],dq_d[0], dq_d[1], dq_d[2], dq_d[3], dq_d[4], dq_d[5], dq_d[6],tau_J[0], tau_J[1], tau_J[2], tau_J[3], tau_J[4], tau_J[5], tau_J[6],tau_ext_hat_filtered[0], tau_ext_hat_filtered[1], tau_ext_hat_filtered[2], tau_ext_hat_filtered[3], tau_ext_hat_filtered[4], tau_ext_hat_filtered[5], tau_ext_hat_filtered[6]
749217,0,-1.5703,-0.523402,0.000141152,-2.09649,-0.00156538,1.56987,0.784882,-1.5708,-0.523599,-4.46417e-08,-2.0944,-9.22069e-08,1.5708,0.785398,0.000216836,2.68943e-05,-0.000602777,0.00165278,-0.000456261,-0.000206661,0.000364674,0,0,0,0,0,0,0,-0.632923,-9.45529,-0.81384,21.416,1.92201,2.37692,0.291331,-0.625498,-0.338915,-0.358794,2.95447,1.19464,0.705187,0.306745
749218,1,-1.5703,-0.523402,0.000140519,-2.0965,-0.00156344,1.56987,0.784881,-1.5708,-0.523599,-4.46417e-08,-2.0944,-9.22069e-08,1.5708,0.785398,0.000144558,1.79296e-05,-0.000401851,-0.0012182,0.000340086,-0.000137774,5.75729e-06,0,0,0,0,0,0,0,-0.632923,-9.45529,-0.81384,21.5152,1.90462,2.37692,0.297739,-0.62551,-0.337585,-0.358806,2.95298,1.19458,0.704986,0.306807
749219,1,-1.57029,-0.5234,0.000141978,-2.0965,-0.00156222,1.56987,0.784877,-1.5708,-0.523599,-4.46417e-08,-2.0944,-9.22069e-08,1.5708,0.785398,0.000653184,0.000661567,0.000288911,-0.000255321,0.000633625,0.000382869,-0.00121686,0,0,0,0,0,0,0,-0.656727,-9.48306,-0.837644,21.4914,1.89363,2.3641,0.330698,-0.625611,-0.337697,-0.358798,2.95264,1.19456,0.704912,0.306818
749220,1,-1.5703,-0.5234,0.000140237,-2.0965,-0.00156344,1.56987,0.784877,-1.5708,-0.523599,-4.46417e-08,-2.0944,-9.22069e-08,1.5708,0.785398,-0.00077097,-0.000208569,-0.000364205,-0.000170214,1.55158e-05,1.78868e-05,-0.0010486,0,0,0,0,0,0,0,-0.605152,-9.45529,-0.81384,21.4914,1.90462,2.37051,0.337107,-0.625934,-0.339172,-0.359055,2.95335,1.19456,0.704945,0.306797
749221,1,-1.5703,-0.523401,0.000141884,-2.0965,-0.00156477,1.56987,0.784884,-1.5708,-0.523599,-4.46417e-08,-2.0944,-9.22069e-08,1.5708,0.785398,0.000135634,-0.000139046,0.000314009,-0.0013199,-0.000430466,-0.000225434,0.00194579,0,0,0,0,0,0,0,-0.632923,-9.45529,-0.837644,21.543,1.91652,2.37692,0.265696,-0.62605,-0.340573,-0.359044,2.9543,1.19457,0.705009,0.306786
749222,1,-1.57029,-0.523398,0.000143547,-2.0965,-0.00156477,1.56987,0.784877,-1.5708,-0.523599,-4.46417e-08,-2.0944,-9.22069e-08,1.5708,0.785398,0.000647235,0.00111373,0.000766151,0.000326491,-0.000286977,-0.00015029,-0.000126961,0,0,0,0,0,0,0,-0.656727,-9.50687,-0.861447,21.4914,1.91652,2.37692,0.304148,-0.626547,-0.342424,-0.359613,2.95574,1.19455,0.705115,0.306804
749223,1,-1.5703,-0.523398,0.000141874,-2.0965,-0.00156344,1.56987,0.784872,-1.5708,-0.523599,-4.46417e-08,-2.0944,-9.22069e-08,1.5708,0.785398,-0.000774936,0.000185674,-4.60445e-05,-0.000339151,0.000249491,-0.000100193,-0.00130534,0,0,0,0,0,0,0,-0.605152,-9.48306,-0.837644,21.5152,1.90462,2.37692,0.337107,-0.627554,-0.345166,-0.360937,2.95744,1.19452,0.70522,0.306815
749224,1,-1.57029,-0.523399,0.000140203,-2.0965,-0.00156344,1.56987,0.784879,-1.5708,-0.523599,-4.46417e-08,-2.0944,-9.22069e-08,1.5708,0.785398,0.00124661,-0.000525831,-0.000587508,0.000330711,0.000166328,0.000170564,0.000350474,0,0,0,0,0,0,0,-0.680531,-9.45529,-0.81384,21.4914,1.90462,2.37051,0.304148,-0.628262,-0.346953,-0.361774,2.95842,1.19449,0.705255,0.306811
749225,1,-1.5703,-0.5234,0.000145674,-2.0965,-0.00156477,1.56987,0.784878,-1.5708,-0.523599,-4.46417e-08,-2.0944,-9.22069e-08,1.5708,0.785398,-0.000282548,-0.000907366,0.000721952,0.000220474,-0.000329924,0.000351068,-0.000241069,0,0,0,0,0,0,0,-0.632923,-9.43149,-0.861447,21.4914,1.91652,2.3641,0.316965,-0.628871,-0.345868,-0.362346,2.95785,1.19444,0.705162,0.306818
749226,1,-1.5703,-0.523401,0.000142583,-2.0965,-0.00156416,1.56987,0.784879,-1.5708,-0.523599,-4.46417e-08,-2.0944,-9.22069e-08,1.5708,0.785398,-0.000188365,-4.80989e-05,-7.55108e-05,0.000703795,0.00937921,-3.31362e-06,7.66465e-05,0,0,0,0,0,0,0,-0.632923,-9.45529,-0.837644,21.4676,1.91103,2.37051,0.310557,-0.629657,-0.342459,-0.363147,2.9559,1.19433,0.704952,0.306838
749227,1,-1.5703,-0.523399,0.000140439,-2.0965,-0.00156283,1.56987,0.784878,-1.5708,-0.523599,-4.46417e-08,-2.0944,-9.22069e-08,1.5708,0.785398,-0.000775191,-3.20659e-05,-0.000607152,-0.00129404,0.00747659,-2.20908e-06,0.000525816,0,0,0,0,0,0,0,-0.605152,-9.45529,-0.81384,21.543,1.89913,2.37051,0.297739,-0.630024,-0.339324,-0.36333,2.95403,1.19418,0.704768,0.306859
749228,1,-1.5703,-0.523399,0.000141952,-2.0965,-0.00156477,1.56987,0.784879,-1.5708,-0.523599,-4.46417e-08,-2.0944,-9.22069e-08,1.5708,0.785398,-0.000516794,-2.13773e-05,0.000152044,0.000900544,0.00492737,-0.000238832,0.000113185,0,0,0,0,0,0,0,-0.605152,-9.45529,-0.837644,21.4676,1.91652,2.37692,0.304148,-0.629666,-0.337673,-0.362471,2.95305,1.19404,0.704677,0.306878
749229,1,-1.5703,-0.523399,0.000141899,-2.0965,-0.00156416,1.56987,0.784874,-1.5708,-0.523599,-4.46417e-08,-2.0944,-9.22069e-08,1.5708,0.785398,0.000305085,-1.42515e-05,0.000101362,-0.000513261,0.00392879,-0.000159221,-0.000907888,0,0,0,0,0,0,0,-0.632923,-9.45529,-0.837644,21.5152,1.91103,2.37692,0.330698,-0.629249,-0.336721,-0.361607,2.95246,1.19392,0.704606,0.306895
749230,1,-1.57029,-0.523402,0.000143552,-2.0965,-0.00156416,1.56987,0.784874,-1.5708,-0.523599,-4.46417e-08,-2.0944,-9.22069e-08,1.5708,0.785398,0.000760202,-0.000566313,0.000624387,-0.000342174,0.00294951,-0.000106147,-0.000333991,0,0,0,0,0,0,0,-0.656727,-9.43149,-0.861447,21.5152,1.91103,2.37692,0.323374,-0.629615,-0.335988,-0.361921,2.95217,1.1938,0.704557,0.306923
749231,1,-1.5703,-0.523402,0.000138256,-2.0965,-0.00156538,1.56986,0.784876,-1.5708,-0.523599,-4.46417e-08,-2.0944,-9.22069e-08,1.5708,0.785398,-5.00108e-05,0.00017927,-0.00134698,-0.000228116,0.00180718,-0.000545483,0.000489416,0,0,0,0,0,0,0,-0.632923,-9.45529,-0.786069,21.5152,1.92201,2.38973,0.304148,-0.630285,-0.335504,-0.362638,2.95235,1.19373,0.704556,0.306984
749232,1,-1.5703,-0.523398,0.000140203,-2.0965,-0.00156283,1.56987,0.784879,-1.5708,-0.523599,-4.46417e-08,-2.0944,-9.22069e-08,1.5708,0.785398,-3.33405e-05,0.000769127,-0.000248373,0.000961546,0.0022383,-0.000126296,0.000326277,0,0,0,0,0,0,0,-0.632923,-9.48306,-0.81384,21.4676,1.89913,2.38333,0.304148,-0.630142,-0.335876,-0.362096,2.95281,1.19374,0.70457,0.307076
749233,1,-1.5703,-0.523401,0.000143543,-2.0965,-0.00156344,1.56987,0.78488,-1.5708,-0.523599,-4.46417e-08,-2.0944,-9.22069e-08,1.5708,0.785398,-0.000671841,-0.000136862,0.000948042,0.000641031,0.0014281,0.000153161,0.000217518,0,0,0,0,0,0,0,-0.605152,-9.45529,-0.861447,21.4676,1.90462,2.37692,0.304148,-0.629624,-0.336758,-0.361069,2.95302,1.19379,0.704543,0.307182
749234,1,-1.5703,-0.523399,0.000144003,-2.0965,-0.00156344,1.56987,0.784879,-1.5708,-0.523599,-4.46417e-08,-2.0944,-9.22069e-08,1.5708,0.785398,-0.000447894,-9.12416e-05,7.52161e-05,-0.00133588,0.00105658,0.000339467,-9.23468e-05,0,0,0,0,0,0,0,-0.605152,-9.45529,-0.837644,21.543,1.90462,2.37051,0.310557,-0.629412,-0.337425,-0.360712,2.95314,1.19386,0.704524,0.307288
749235,1,-1.5703,-0.523403,0.000141094,-2.0965,-0.00156477,1.56987,0.784878,-1.5708,-0.523599,-4.46417e-08,-2.0944,-9.22069e-08,1.5708,0.785398,0.000351018,-0.00061764,-0.00115628,0.000872649,0.000341965,-1.10479e-05,-0.000536282,0,0,0,0,0,0,0,-0.632923,-9.43149,-0.786069,21.4676,1.91652,2.37692,0.323374,-0.628984,-0.337625,-0.360125,2.95347,1.19394,0.704561,0.307382
749236,1,-1.5703,-0.523399,0.000141149,-2.0965,-0.00156538,1.56987,0.784877,-1.5708,-0.523599,-4.46417e-08,-2.0944,-9.22069e-08,1.5708,0.785398,0.000234012,0.000145052,-0.000121241,0.000581766,8.33156e-05,-0.000244724,0.000354555,0,0,0,0,0,0,0,-0.632923,-9.45529,-0.81384,21.4676,1.92201,2.38333,0.304148,-0.628171,-0.336718,-0.35885,2.95317,1.19404,0.704548,0.307468
749237,1,-1.5703,-0.523399,0.000145808,-2.09649,-0.00156283,1.56987,0.78488,-1.5708,-0.523599,-4.46417e-08,-2.0944,-9.22069e-08,1.5708,0.785398,-0.000493606,9.67014e-05,0.00168241,0.000944656,0.000947346,0.000311568,0.000473729,0,0,0,0,0,0,0,-0.605152,-9.45529,-0.889218,21.4438,1.89913,2.37051,0.297739,-0.627884,-0.335315,-0.358359,2.9522,1.1941,0.704463,0.307562
749238,1,-1.5703,-0.523397,0.000143648,-2.0965,-0.00156283,1.56987,0.784883,-1.5708,-0.523599,-4.46417e-08,-2.0944,-9.22069e-08,1.5708,0.785398,-0.000329071,0.000714082,0.000471993,-0.00104067,0.000664633,0.000207712,0.0010279,0,0,0,0,0,0,0,-0.605152,-9.48306,-0.861447,21.5152,1.89913,2.37051,0.278513,-0.628536,-0.335153,-0.35948,2.9518,1.19413,0.704427,0.307658
749239,1,-1.5703,-0.523402,0.000138288,-2.0965,-0.00156283,1.56987,0.784876,-1.5708,-0.523599,-4.46417e-08,-2.0944,-9.22069e-08,1.5708,0.785398,-0.00021938,-0.000730372,-0.00144858,-0.00134339,0.000467891,0.000138475,-0.00073889,0,0,0,0,0,0,0,-0.605152,-9.43149,-0.786069,21.543,1.89913,2.37051,0.316965,-0.628865,-0.336793,-0.360252,2.95293,1.1942,0.704556,0.307721
749240,1,-1.5703,-0.523399,0.000143555,-2.0965,-0.00156416,1.56987,0.784875,-1.5708,-0.523599,-4.46417e-08,-2.0944,-9.22069e-08,1.5708,0.785398,0.00050336,6.98976e-05,0.000797521,0.000867644,-0.000110281,9.23166e-05,-0.00123858,0,0,0,0,0,0,0,-0.632923,-9.45529,-0.861447,21.4676,1.91103,2.37051,0.337107,-0.628428,-0.338383,-0.359853,2.9545,1.1943,0.704748,0.307734
749241,1,-1.5703,-0.523397,0.000141877,-2.0965,-0.00156538,1.56987,0.784874,-1.5708,-0.523599,-4.46417e-08,-2.0944,-9.22069e-08,1.5708,0.785398,-0.000870852,0.000696212,-2.51315e-05,0.000578429,-0.000466471,6.15444e-05,-0.00058836,0,0,0,0,0,0,0,-0.581349,-9.48306,-0.837644,21.4676,1.92201,2.37051,0.330698,-0.628076,-0.339182,-0.359615,2.95526,1.19435,0.704831,0.307731
749242,1,-1.5703,-0.523403,0.000138255,-2.0965,-0.00156416,1.56987,0.78488,-1.5708,-0.523599,-4.46417e-08,-2.0944,-9.22069e-08,1.5708,0.785398,0.000625858,-0.000742284,-0.00122318,0.00038562,0.000106384,-0.000196329,0.00106582,0,0,0,0,0,0,0,-0.632923,-9.43149,-0.786069,21.4676,1.91103,2.37692,0.291331,-0.627466,-0.339516,-0.359042,2.95525,1.19439,0.704807,0.307755
749243,1,-1.5703,-0.523401,0.000141873,-2.0965,-0.00156344,1.56987,0.784883,-1.5708,-0.523599,-4.46417e-08,-2.0944,-9.22069e-08,1.5708,0.785398,-0.000232376,-0.000494856,0.000390972,0.00025708,0.000316129,-0.000130886,0.00142262,0,0,0,0,0,0,0,-0.605152,-9.43149,-0.837644,21.4676,1.90462,2.37692,0.272104,-0.626473,-0.338352,-0.357839,2.95441,1.19442,0.704713,0.30781
749244,1,-1.57029,-0.523399,0.000145492,-2.0965,-0.00156416,1.56987,0.78488,-1.5708,-0.523599,-4.46417e-08,-2.0944,-9.22069e-08,1.5708,0.785398,0.00105151,0.000226908,0.00146707,-0.00159185,-2.07207e-05,0.00038746,-0.000238378,0,0,0,0,0,0,0,-0.656727,-9.45529,-0.889218,21.543,1.91103,2.3641,0.304148,-0.626437,-0.336959,-0.358054,2.95383,1.19441,0.704665,0.307866
749245,1,-1.5703,-0.523403,0.000143543,-2.0965,-0.00156477,1.56987,0.784877,-1.5708,-0.523599,-4.46417e-08,-2.0944,-9.22069e-08,1.5708,0.785398,-0.00106223,-0.00040554,0.000328436,0.000702004,-0.00021285,-0.00045377,-0.00137962,0,0,0,0,0,0,0,-0.581349,-9.43149,-0.861447,21.4676,1.91652,2.38333,0.337107,-0.627557,-0.336785,-0.360104,2.9543,1.19438,0.704719,0.307888
749246,1,-1.57029,-0.523397,0.000141873,-2.0965,-0.00156416,1.56987,0.784876,-1.5708,-0.523599,-4.46417e-08,-2.0944,-9.22069e-08,1.5708,0.785398,0.0016119,0.000936066,-0.000337855,-8.88096e-05,6.48611e-05,-6.51543e-05,-0.00115711,0,0,0,0,0,0,0,-0.680531,-9.48306,-0.837644,21.4914,1.91103,2.37692,0.343516,-0.628637,-0.337301,-0.36214,2.95498,1.19436,0.704779,0.307882
749247,1,-1.5703,-0.523403,0.000142333,-2.09649,-0.00156344,1.56987,0.784877,-1.5708,-0.523599,-4.46417e-08,-2.0944,-9.22069e-08,1.5708,0.785398,-0.000688641,-0.000582382,-0.000782049,0.00105442,0.000283083,-0.000280795,0.000686658,0,0,0,0,0,0,0,-0.605152,-9.43149,-0.81384,21.4438,1.90462,2.38333,0.304148,-0.629018,-0.337991,-0.363001,2.95528,1.19437,0.70479,0.307893
749248,1,-1.5703,-0.523398,0.000138964,-2.09649,-0.00156344,1.56987,0.784881,-1.5708,-0.523599,-4.46417e-08,-2.0944,-9.22069e-08,1.5708,0.785398,-0.000459094,0.000818171,-0.00117098,0.000702945,0.000190584,0.000287521,0.00093249,0,0,0,0,0,0,0,-0.605152,-9.48306,-0.786069,21.4438,1.90462,2.37051,0.291331,-0.62807,-0.33816,-0.361807,2.95481,1.19442,0.704728,0.307944
749249,1,-1.5703,-0.523401,0.00014378,-2.0965,-0.00156283,1.56987,0.784876,-1.5708,-0.523599,-4.46417e-08,-2.0944,-9.22069e-08,1.5708,0.785398,-0.00141969,-0.000660978,0.000982585,-0.000644994,0.000331903,0.00042904,-9.04171e-05,0,0,0,0,0,0,0,-0.557545,-9.43149,-0.861447,21.4914,1.89913,2.3641,0.310557,-0.626069,-0.338168,-0.359175,2.9541,1.19452,0.704656,0.308015
749250,1,-1.5703,-0.5234,0.000141952,-2.0965,-0.00156416,1.56987,0.784875,-1.5708,-0.523599,-4.46417e-08,-2.0944,-9.22069e-08,1.5708,0.785398,0.00081678,-0.000440652,9.82445e-05,0.000126816,-0.000218493,-0.000188691,-0.00104362,0,0,0,0,0,0,0,-0.632923,-9.43149,-0.837644,21.4676,1.91103,2.37692,0.337107,-0.624557,-0.337786,-0.357449,2.95359,1.19458,0.704632,0.308085
749251,1,-1.57029,-0.523404,0.000141899,-2.0965,-0.00156416,1.56987,0.784878,-1.5708,-0.523599,-4.46417e-08,-2.0944,-9.22069e-08,1.5708,0.785398,0.00110133,-0.00085058,6.54964e-05,-0.00102908,-0.000144876,0.000348924,5.02371e-05,0,0,0,0,0,0,0,-0.656727,-9.40768,-0.837644,21.5152,1.91103,2.3641,0.316965,-0.624337,-0.336419,-0.357574,2.95311,1.19458,0.704637,0.308162
749252,1,-1.5703,-0.5234,0.000143552,-2.0965,-0.00156344,1.56987,0.784883,-1.5708,-0.523599,-4.46417e-08,-2.0944,-9.22069e-08,1.5708,0.785398,-0.00102902,0.00119618,0.000600476,-0.000129241,0.000141364,-4.74321e-06,0.00145765,0,0,0,0,0,0,0,-0.581349,-9.48306,-0.861447,21.4914,1.90462,2.37051,0.278513,-0.624864,-0.335859,-0.358707,2.95334,1.19454,0.704705,0.308267
749253,1,-1.5703,-0.523403,0.000141876,-2.0965,-0.00156477,1.56987,0.784884,-1.5708,-0.523599,-4.46417e-08,-2.0944,-9.22069e-08,1.5708,0.785398,-0.000686011,-0.00040897,-0.000156494,0.000470651,-0.000346125,-0.00047788,0.00120912,0,0,0,0,0,0,0,-0.581349,-9.43149,-0.837644,21.4676,1.91652,2.38333,0.272104,-0.624995,-0.336948,-0.359411,2.95425,1.19453,0.704797,0.308382
749254,1,-1.57029,-0.5234,0.000140203,-2.0965,-0.00156416,1.56987,0.784879,-1.5708,-0.523599,-4.46417e-08,-2.0944,-9.22069e-08,1.5708,0.785398,0.0013059,0.000284166,-0.000661142,-0.000243045,-2.6968e-05,0.000156131,0.000331364,0,0,0,0,0,0,0,-0.656727,-9.45529,-0.81384,21.4914,1.91103,2.37051,0.284922,-0.624568,-0.338095,-0.359331,2.95487,1.19453,0.70484,0.308454
749255,1,-1.57029,-0.523401,0.000141873,-2.0965,-0.00156344,1.56987,0.784873,-1.5708,-0.523599,-4.46417e-08,-2.0944,-9.22069e-08,1.5708,0.785398,0.000870598,-0.000367368,0.000116051,0.000394782,0.000219629,-0.000133271,-0.00242395,0,0,0,0,0,0,0,-0.656727,-9.43149,-0.837644,21.4676,1.90462,2.37692,0.356333,-0.624467,-0.338576,-0.359493,2.95504,1.19451,0.704842,0.308448
749256,1,-1.5703,-0.523401,0.000143543,-2.0965,-0.00156344,1.56987,0.784878,-1.5708,-0.523599,-4.46417e-08,-2.0944,-9.22069e-08,1.5708,0.785398,-0.000626027,0.0003119,0.000634179,-0.000850436,0.000146606,-8.88476e-05,-0.000395262,0,0,0,0,0,0,0,-0.605152,-9.45529,-0.861447,21.5152,1.90462,2.37692,0.323374,-0.624937,-0.338899,-0.360382,2.95519,1.19446,0.704851,0.308389
749257,1,-1.5703,-0.523399,0.000143543,-2.0965,-0.00156344,1.56987,0.784881,-1.5708,-0.523599,-4.46417e-08,-2.0944,-9.22069e-08,1.5708,0.785398,-0.000417351,0.000207933,0.000422786,-1.01452e-05,9.78769e-05,0.000178127,0.000685928,0,0,0,0,0,0,0,-0.605152,-9.45529,-0.861447,21.4914,1.90462,2.37051,0.297739,-0.625414,-0.339876,-0.361429,2.95585,1.19444,0.704911,0.30834
749258,1,-1.57029,-0.523397,0.000144003,-2.0965,-0.00156477,1.56987,0.78488,-1.5708,-0.523599,-4.46417e-08,-2.0944,-9.22069e-08,1.5708,0.785398,-0.000278234,0.000788236,-0.000274955,-6.76347e-06,-0.000375453,0.000118751,0.000219926,0,0,0,0,0,0,0,-0.605152,-9.48306,-0.837644,21.4914,1.91652,2.37051,0.304148,-0.625446,-0.341785,-0.361959,2.95693,1.19444,0.704997,0.308325
749259,1,-1.57029,-0.5234,0.000142583,-2.0965,-0.00156416,1.56987,0.784881,-1.5708,-0.523599,-4.46417e-08,-2.0944,-9.22069e-08,1.5708,0.785398,0.000464124,-0.000680935,-0.000183303,-4.50898e-06,-4.6773e-05,7.91676e-05,0.000383976,0,0,0,0,0,0,0,-0.632923,-9.43149,-0.837644,21.4914,1.91103,2.37051,0.297739,-0.625052,-0.343509,-0.361848,2.95775,1.19444,0.705046,0.308324
749260,1,-1.57029,-0.523399,0.00014378,-2.0965,-0.00156344,1.56987,0.784881,-1.5708,-0.523599,-4.46417e-08,-2.0944,-9.22069e-08,1.5708,0.785398,0.000309416,0.000102855,0.00043461,0.000553806,0.000206236,-0.000421939,0.000255984,0,0,0,0,0,0,0,-0.632923,-9.45529,-0.861447,21.4676,1.90462,2.38333,0.297739,-0.624813,-0.343654,-0.361879,2.95771,1.19443,0.705017,0.308317
749261,1,-1.57029,-0.523399,0.000140281,-2.0965,-0.00156222,1.56987,0.784877,-1.5708,-0.523599,-4.46417e-08,-2.0944,-9.22069e-08,1.5708,0.785398,0.000206278,0.000718184,-0.000823884,0.000369204,0.000544436,0.000193425,-0.00105005,0,0,0,0,0,0,0,-0.632923,-9.48306,-0.81384,21.4676,1.89363,2.37051,0.330698,-0.624785,-0.343149,-0.362126,2.95711,1.19439,0.704934,0.308293
749262,1,-1.57029,-0.523399,0.000141899,-2.0965,-0.00156416,1.56987,0.784877,-1.5708,-0.523599,-4.46417e-08,-2.0944,-9.22069e-08,1.5708,0.785398,0.00069433,-0.000170825,7.55599e-06,0.000246136,-0.00028127,0.00012895,-0.00093739,0,0,0,0,0,0,0,-0.656727,-9.45529,-0.837644,21.4676,1.91103,2.37051,0.337107,-0.624618,-0.34315,-0.362031,2.95653,1.19435,0.704846,0.308258
749263,1,-1.5703,-0.523402,0.000143552,-2.0965,-0.00156344,1.56987,0.78488,-1.5708,-0.523599,-4.46417e-08,-2.0944,-9.22069e-08,1.5708,0.785398,-0.000743539,-0.00122751,0.000561849,-0.000392721,4.98708e-05,-0.000151392,0.000595776,0,0,0,0,0,0,0,-0.605152,-9.40768,-0.861447,21.4914,1.90462,2.37692,0.304148,-0.624551,-0.342117,-0.362036,2.95562,1.1943,0.70475,0.308245
749264,1,-1.5703,-0.523403,0.000142336,-2.0965,-0.00156344,1.56987,0.784882,-1.5708,-0.523599,-4.46417e-08,-2.0944,-9.22069e-08,1.5708,0.785398,-0.0010525,-0.000261526,-0.000739058,0.000294998,3.32659e-05,-0.000100928,0.00110926,0,0,0,0,0,0,0,-0.581349,-9.43149,-0.81384,21.4676,1.90462,2.37692,0.284922,-0.624125,-0.3393,-0.36165,2.95417,1.19424,0.704641,0.308272
749265,1,-1.5703,-0.523402,0.000144254,-2.0965,-0.00156416,1.56987,0.784881,-1.5708,-0.523599,-4.46417e-08,-2.0944,-9.22069e-08,1.5708,0.785398,0.000504756,0.000382461,0.000620919,-0.000360147,-0.000215168,-6.72855e-05,0.000264789,0,0,0,0,0,0,0,-0.632923,-9.45529,-0.861447,21.4914,1.91103,2.37692,0.297739,-0.623195,-0.336789,-0.36062,2.95299,1.19422,0.704566,0.308315
749266,1,-1.5703,-0.523401,0.00014378,-2.0965,-0.00156416,1.56987,0.78488,-1.5708,-0.523599,-4.46417e-08,-2.0944,-9.22069e-08,1.5708,0.785398,-0.000869922,-0.000301838,0.000413946,-0.00079691,-0.000143435,-0.000282216,-0.000298192,0,0,0,0,0,0,0,-0.581349,-9.43149,-0.861447,21.5152,1.91103,2.38333,0.310557,-0.622674,-0.336104,-0.360243,2.95289,1.19419,0.704592,0.308346
749267,1,-1.5703,-0.523402,0.000143622,-2.0965,-0.00156477,1.56987,0.784873,-1.5708,-0.523599,-4.46417e-08,-2.0944,-9.22069e-08,1.5708,0.785398,0.000626478,-0.000758037,0.000275964,0.000582351,-0.000299066,0.000286574,-0.0014195,0,0,0,0,0,0,0,-0.632923,-9.40768,-0.861447,21.4676,1.91652,2.37051,0.343516,-0.622691,-0.335609,-0.360739,2.95308,1.19414,0.704659,0.308352
749268,1,-1.57029,-0.523399,0.000143569,-2.0965,-0.00156416,1.56987,0.784876,-1.5708,-0.523599,-4.46417e-08,-2.0944,-9.22069e-08,1.5708,0.785398,0.000974464,0.00125788,0.000183976,0.000388234,4.07927e-06,0.000428408,-0.000471614,0,0,0,0,0,0,0,-0.656727,-9.48306,-0.861447,21.4676,1.91103,2.3641,0.330698,-0.623269,-0.334832,-0.361999,2.95283,1.19407,0.704672,0.308357
749269,1,-1.5703,-0.523399,0.000141881,-2.0965,-0.00156283,1.56987,0.784881,-1.5708,-0.523599,-4.46417e-08,-2.0944,-9.22069e-08,1.5708,0.785398,-0.0011136,0.000188973,-0.000434161,0.000258823,-0.0090003,-0.000189112,0.00114365,0,0,0,0,0,0,0,-0.581349,-9.45529,-0.837644,21.4676,1.89913,2.37692,0.291331,-0.623762,-0.335588,-0.36309,2.95291,1.19404,0.704663,0.308406
749270,1,-1.5703,-0.523397,0.000143546,-2.0965,-0.00156344,1.56987,0.784883,-1.5708,-0.523599,-4.46417e-08,-2.0944,-9.22069e-08,1.5708,0.785398,0.000464029,0.000775596,0.000267371,0.000172548,-0.00699064,-0.000363434,0.00123715,0,0,0,0,0,0,0,-0.632923,-9.48306,-0.861447,21.4676,1.90462,2.38333,0.278513,-0.623305,-0.337796,-0.362917,2.95363,1.19415,0.70467,0.308509
749271,1,-1.5703,-0.523399,0.000141874,-2.0965,-0.00156477,1.56987,0.784881,-1.5708,-0.523599,-4.46417e-08,-2.0944,-9.22069e-08,1.5708,0.785398,-0.000340261,-0.00013255,-0.000378565,0.000115032,-0.00569147,0.000232429,0.000112692,0,0,0,0,0,0,0,-0.605152,-9.45529,-0.837644,21.4676,1.91652,2.37051,0.297739,-0.622403,-0.340207,-0.36218,2.95453,1.19432,0.704685,0.308617
749272,1,-1.5703,-0.523397,0.000140203,-2.0965,-0.00156344,1.56987,0.78488,-1.5708,-0.523599,-4.46417e-08,-2.0944,-9.22069e-08,1.5708,0.785398,-0.000226841,0.000561247,-0.000809188,7.66882e-05,-0.00379618,0.000154952,-0.000162231,0,0,0,0,0,0,0,-0.605152,-9.48306,-0.81384,21.4676,1.90462,2.37051,0.304148,-0.621123,-0.342216,-0.360865,2.95525,1.19449,0.704701,0.308676
749273,1,-1.5703,-0.523402,0.000141873,-2.0965,-0.00156477,1.56987,0.784878,-1.5708,-0.523599,-4.46417e-08,-2.0944,-9.22069e-08,1.5708,0.785398,0.000498387,-0.000832261,1.73531e-05,-0.000505687,-0.00330361,-0.000134057,-0.000820231,0,0,0,0,0,0,0,-0.632923,-9.43149,-0.837644,21.4914,1.91652,2.37692,0.323374,-0.619631,-0.343401,-0.359154,2.95568,1.19465,0.704727,0.308676
749274,1,-1.5703,-0.5234,0.000143543,-2.0965,-0.00156477,1.56987,0.784873,-1.5708,-0.523599,-4.46417e-08,-2.0944,-9.22069e-08,1.5708,0.785398,-0.000874168,0.000651585,0.000568381,-0.000337124,-0.00245141,0.000385346,-0.00105545,0,0,0,0,0,0,0,-0.581349,-9.48306,-0.861447,21.4914,1.91652,2.3641,0.337107,-0.618705,-0.343899,-0.358247,2.95603,1.19475,0.70478,0.308643
749275,1,-1.57029,-0.523402,0.000141873,-2.09649,-0.00156344,1.56987,0.784877,-1.5708,-0.523599,-4.46417e-08,-2.0944,-9.22069e-08,1.5708,0.785398,0.00118046,-0.000215224,-0.000177892,0.000888874,-0.00138022,-0.00021782,0.00099179,0,0,0,0,0,0,0,-0.656727,-9.45529,-0.837644,21.4438,1.90462,2.37692,0.291331,-0.618514,-0.344168,-0.358424,2.95617,1.19478,0.70482,0.308615
749276,1,-1.5703,-0.523401,0.000138253,-2.0965,-0.00156416,1.56987,0.784882,-1.5708,-0.523599,-4.46417e-08,-2.0944,-9.22069e-08,1.5708,0.785398,-0.000419453,-0.000700295,-0.00132502,-0.00107785,-0.00129757,9.21454e-05,0.00137327,0,0,0,0,0,0,0,-0.605152,-9.43149,-0.786069,21.5152,1.91103,2.37051,0.272104,-0.618446,-0.343542,-0.358621,2.9557,1.19478,0.704809,0.308608
749277,1,-1.5703,-0.523401,0.000143543,-2.0965,-0.00156416,1.56987,0.784883,-1.5708,-0.523599,-4.46417e-08,-2.0944,-9.22069e-08,1.5708,0.785398,0.000369979,8.99489e-05,0.000879891,0.000395055,-0.000970097,-0.000175929,0.000678154,0,0,0,0,0,0,0,-0.632923,-9.45529,-0.861447,21.4676,1.91103,2.37692,0.278513,-0.618171,-0.342085,-0.358367,2.95498,1.19476,0.704793,0.308589
749278,1,-1.5703,-0.5234,0.000141873,-2.0965,-0.00156283,1.56987,0.784878,-1.5708,-0.523599,-4.46417e-08,-2.0944,-9.22069e-08,1.5708,0.785398,-0.000959774,0.00070958,2.97821e-05,-0.00149987,-0.000284709,-0.000354645,-0.000259974,0,0,0,0,0,0,0,-0.581349,-9.48306,-0.837644,21.543,1.89913,2.38333,0.297739,-0.618181,-0.341828,-0.358575,2.95503,1.19473,0.704851,0.308519
749279,1,-1.5703,-0.523398,0.000141873,-2.0965,-0.00156538,1.56987,0.784875,-1.5708,-0.523599,-4.46417e-08,-2.0944,-9.22069e-08,1.5708,0.785398,0.000566577,0.00102987,1.98547e-05,0.000763326,-0.00109661,9.29122e-07,-0.00186874,0,0,0,0,0,0,0,-0.632923,-9.50687,-0.837644,21.4676,1.92201,2.37692,0.343516,-0.618398,-0.344038,-0.359148,2.95631,1.19471,0.705005,0.308385
749280,1,-1.5703,-0.523405,0.000140202,-2.0965,-0.00156538,1.56987,0.784878,-1.5708,-0.523599,-4.46417e-08,-2.0944,-9.22069e-08,1.5708,0.785398,-0.000271896,-0.00163347,-0.000543575,-0.00125435,-0.000775389,6.19415e-07,-0.000499839,0,0,0,0,0,0,0,-0.605152,-9.40768,-0.81384,21.543,1.92201,2.37692,0.323374,-0.618504,-0.346238,-0.359505,2.95752,1.19469,0.705154,0.308216
749281,1,-1.5703,-0.5234,0.000141873,-2.0965,-0.00156416,1.56987,0.784882,-1.5708,-0.523599,-4.46417e-08,-2.0944,-9.22069e-08,1.5708,0.785398,-0.000181264,2.46419e-05,0.000194428,0.000927002,-0.000143263,0.000237772,0.000853568,0,0,0,0,0,0,0,-0.605152,-9.45529,-0.837644,21.4676,1.91103,2.37051,0.291331,-0.61843,-0.345638,-0.359551,2.95739,1.19467,0.705203,0.308066
749282,1,-1.5703,-0.523402,0.000141873,-2.0965,-0.00156416,1.56987,0.784884,-1.5708,-0.523599,-4.46417e-08,-2.0944,-9.22069e-08,1.5708,0.785398,0.000528771,-0.0010972,0.000129619,-0.00170205,-0.000120438,-7.88444e-05,0.00151848,0,0,0,0,0,0,0,-0.632923,-9.40768,-0.837644,21.5668,1.91103,2.37692,0.265696,-0.618514,-0.343234,-0.359823,2.95649,1.19464,0.705193,0.307955
749283,0.99,-1.5703,-0.523399,0.000141873,-2.0965,-0.00156477,1.56986,0.78488,-1.5708,-0.523599,-4.46417e-08,-2.0944,-9.22069e-08,1.5708,0.785398,-0.0002971,0.00038216,8.64126e-05,0.00118535,-0.000302439,-0.000527281,-0.000411833,0,0,0,0,0,0,0,-0.605152,-9.45529,-0.837644,21.4676,1.91652,2.38973,0.304148,-0.618983,-0.340709,-0.360633,2.95565,1.1946,0.705184,0.30785
749284,0.99,-1.5703,-0.5234,0.000141873,-2.0965,-0.00156538,1.56987,0.784877,-1.5708,-0.523599,-4.46417e-08,-2.0944,-9.22069e-08,1.5708,0.785398,-0.000198067,-0.000302039,5.76084e-05,0.000233422,-0.000419099,0.000123197,-0.0012579,0,0,0,0,0,0,0,-0.605152,-9.43149,-0.837644,21.4914,1.92201,2.37692,0.330698,-0.619376,-0.33845,-0.361347,2.95462,1.19458,0.705136,0.307713
749285,0.99,-1.5703,-0.5234,0.000140202,-2.0965,-0.00156538,1.56987,0.784877,-1.5708,-0.523599,-4.46417e-08,-2.0944,-9.22069e-08,1.5708,0.785398,0.00051757,-0.000201359,-0.000518406,0.000712427,-0.000289916,8.21316e-05,-0.0008386,0,0,0,0,0,0,0,-0.632923,-9.43149,-0.81384,21.4676,1.92201,2.37692,0.330698,-0.619516,-0.336161,-0.361672,2.95313,1.19457,0.705027,0.307556
749286,0.99,-1.5703,-0.523399,0.000145674,-2.0965,-0.00156283,1.56987,0.784884,-1.5708,-0.523599,-4.46417e-08,-2.0944,-9.22069e-08,1.5708,0.785398,-0.000304568,0.000422573,0.00076802,0.000474951,0.000646546,0.000292113,0.00161107,0,0,0,0,0,0,0,-0.605152,-9.45529,-0.861447,21.4676,1.89913,2.37051,0.272104,-0.619697,-0.33415,-0.362004,2.95157,1.19459,0.704905,0.307427
749287,0.99,-1.5703,-0.5234,0.000144253,-2.0965,-0.00156344,1.56987,0.784882,-1.5708,-0.523599,-4.46417e-08,-2.0944,-9.22069e-08,1.5708,0.785398,0.000446569,-0.000275097,0.000512013,-0.000240178,0.000221664,0.000194742,0.000361972,0,0,0,0,0,0,0,-0.632923,-9.43149,-0.861447,21.4914,1.90462,2.37051,0.291331,-0.620338,-0.333103,-0.36305,2.95049,1.1946,0.704821,0.307337
749288,0.99,-1.57029,-0.523401,0.000140439,-2.09649,-0.00156538,1.56986,0.784877,-1.5708,-0.523599,-4.46417e-08,-2.0944,-9.22069e-08,1.5708,0.785398,0.00141134,0.000373414,-0.000772282,0.000953505,-0.000500921,-0.000582249,-0.00121675,0,0,0,0,0,0,0,-0.680531,-9.45529,-0.81384,21.4438,1.92201,2.38973,0.330698,-0.621419,-0.332732,-0.364656,2.9499,1.19461,0.704786,0.30725
749289,0.99,-1.5703,-0.523399,0.000143622,-2.0965,-0.00156477,1.56987,0.784882,-1.5708,-0.523599,-4.46417e-08,-2.0944,-9.22069e-08,1.5708,0.785398,-0.00137916,0.000248943,0.000598769,-0.000477954,0.00929144,-0.000150807,0.000646897,0,0,0,0,0,0,0,-0.581349,-9.45529,-0.861447,21.4914,1.91652,2.38333,0.291331,-0.622352,-0.333038,-0.365886,2.94964,1.19459,0.704801,0.307147
749290,0.99,-1.5703,-0.523397,0.000143569,-2.0965,-0.00156416,1.56987,0.784879,-1.5708,-0.523599,-4.46417e-08,-2.0944,-9.22069e-08,1.5708,0.785398,0.000286987,0.000815576,0.00039918,-0.000875448,0.00718069,0.00037418,-0.000518171,0,0,0,0,0,0,0,-0.632923,-9.48306,-0.861447,21.5152,1.91103,2.37051,0.316965,-0.62303,-0.33499,-0.366772,2.95042,1.19455,0.704955,0.307036
749291,0.99,-1.5703,-0.523397,0.000140211,-2.0965,-0.00156344,1.56987,0.784877,-1.5708,-0.523599,-4.46417e-08,-2.0944,-9.22069e-08,1.5708,0.785398,-0.000458289,0.000543717,-0.000847504,0.000529992,0.00561169,0.000249453,-0.000854074,0,0,0,0,0,0,0,-0.605152,-9.48306,-0.81384,21.4676,1.90462,2.37051,0.330698,-0.623432,-0.338503,-0.367288,2.95213,1.1945,0.705222,0.306927
749292,0.99,-1.5703,-0.523399,0.000140205,-2.0965,-0.00156344,1.56987,0.784882,-1.5708,-0.523599,-4.46417e-08,-2.0944,-9.22069e-08,1.5708,0.785398,0.000344088,-0.000287136,-0.000565003,-0.000203484,0.00418153,-7.10567e-05,0.00088868,0,0,0,0,0,0,0,-0.632923,-9.45529,-0.81384,21.4914,1.90462,2.37692,0.291331,-0.623119,-0.341571,-0.366677,2.95348,1.1945,0.705447,0.306839
749293,0.99,-1.5703,-0.523395,0.000141874,-2.0965,-0.00156416,1.56987,0.784878,-1.5708,-0.523599,-4.46417e-08,-2.0944,-9.22069e-08,1.5708,0.785398,-0.000420222,0.001015,0.000180143,-0.000135656,0.00288063,-4.73712e-05,0.000592453,0,0,0,0,0,0,0,-0.605152,-9.50687,-0.837644,21.4914,1.91103,2.37692,0.291331,-0.622402,-0.343775,-0.365446,2.95441,1.19453,0.705621,0.306788
749294,0.99,-1.5703,-0.523397,0.000141873,-2.0965,-0.00156477,1.56987,0.78487,-1.5708,-0.523599,-4.46417e-08,-2.0944,-9.22069e-08,1.5708,0.785398,0.000369466,0.000119856,0.000120096,0.000466375,0.0019647,-3.15808e-05,-0.00201253,0,0,0,0,0,0,0,-0.632923,-9.48306,-0.837644,21.4676,1.91652,2.37692,0.356333,-0.621941,-0.346052,-0.364647,2.95537,1.19456,0.705772,0.30676
749295,0.99,-1.5703,-0.523399,0.000141873,-2.09649,-0.00156416,1.56987,0.784877,-1.5708,-0.523599,-4.46417e-08,-2.0944,-9.22069e-08,1.5708,0.785398,0.000246311,-0.00056971,8.00637e-05,0.00151734,0.00169905,0.000216305,-0.000120983,0,0,0,0,0,0,0,-0.632923,-9.45529,-0.837644,21.416,1.91103,2.37051,0.323374,-0.621941,-0.346628,-0.364548,2.95515,1.19459,0.705789,0.306751
749296,0.99,-1.5703,-0.523399,0.000141873,-2.0965,-0.00156416,1.56987,0.784876,-1.5708,-0.523599,-4.46417e-08,-2.0944,-9.22069e-08,1.5708,0.785398,0.000164207,-0.000379807,5.33758e-05,-0.000194864,0.00127205,-0.000330514,-0.000589282,0,0,0,0,0,0,0,-0.632923,-9.45529,-0.837644,21.4676,1.91103,2.38333,0.337107,-0.622249,-0.344389,-0.364883,2.95326,1.19459,0.70565,0.306795
749297,0.99,-1.57029,-0.5234,0.000143543,-2.0965,-0.00156283,1.56987,0.784881,-1.5708,-0.523599,-4.46417e-08,-2.0944,-9.22069e-08,1.5708,0.785398,0.000666283,-0.000810016,0.000592396,-0.000686722,0.00139335,0.000491734,0.00106521,0,0,0,0,0,0,0,-0.656727,-9.43149,-0.861447,21.4914,1.89913,2.3641,0.297739,-0.622889,-0.341137,-0.36569,2.95125,1.1946,0.705524,0.306913
749298,0.99,-1.5703,-0.5234,0.000140202,-2.0965,-0.00156416,1.56987,0.784882,-1.5708,-0.523599,-4.46417e-08,-2.0944,-9.22069e-08,1.5708,0.785398,-0.000112623,-0.000540011,-0.000718693,9.89976e-05,0.000566473,0.000327823,0.000947497,0,0,0,0,0,0,0,-0.632923,-9.43149,-0.81384,21.4676,1.91103,2.3641,0.291331,-0.623642,-0.337851,-0.36662,2.94976,1.19463,0.705464,0.307091
749299,0.99,-1.57029,-0.523397,0.000145492,-2.0965,-0.00156283,1.56987,0.784882,-1.5708,-0.523599,-4.46417e-08,-2.0944,-9.22069e-08,1.5708,0.785398,0.00048173,0.000846419,0.00128411,-0.000490814,0.000877245,-1.88106e-05,0.000869024,0,0,0,0,0,0,0,-0.656727,-9.48306,-0.889218,21.4914,1.89913,2.37051,0.284922,-0.624285,-0.335736,-0.367352,2.94898,1.19467,0.705446,0.307288
749300,0.99,-1.5703,-0.523401,0.000141873,-2.09649,-0.00156416,1.56987,0.784877,-1.5708,-0.523599,-4.46417e-08,-2.0944,-9.22069e-08,1.5708,0.785398,-0.000885273,-8.53349e-05,-0.000350353,0.000786415,0.000188111,-0.000249899,-0.00111607,0,0,0,0,0,0,0,-0.605152,-9.45529,-0.837644,21.4438,1.91103,2.37692,0.330698,-0.624908,-0.335738,-0.368103,2.94908,1.19472,0.705461,0.307457
749301,0.99,-1.5703,-0.523399,0.000140202,-2.09649,-0.00156416,1.56987,0.784876,-1.5708,-0.523599,-4.46417e-08,-2.0944,-9.22069e-08,1.5708,0.785398,-0.000590182,-5.68899e-05,-0.000790381,0.00117389,0.000158475,-0.000403958,-0.00121877,0,0,0,0,0,0,0,-0.605152,-9.45529,-0.81384,21.416,1.91103,2.38333,0.343516,-0.62459,-0.335894,-0.367542,2.94875,1.19479,0.705403,0.30758
749302,0.99,-1.5703,-0.523403,0.000141873,-2.09649,-0.00156477,1.56987,0.78488,-1.5708,-0.523599,-4.46417e-08,-2.0944,-9.22069e-08,1.5708,0.785398,-0.000393455,-0.000594739,2.98914e-05,0.00013298,-7.29997e-05,0.000205412,0.000408193,0,0,0,0,0,0,0,-0.605152,-9.43149,-0.837644,21.4438,1.91652,2.37051,0.310557,-0.62316,-0.334783,-0.365378,2.94736,1.19488,0.705244,0.307687
749303,0.99,-1.5703,-0.523405,0.000140202,-2.0965,-0.00156283,1.56987,0.784883,-1.5708,-0.523599,-4.46417e-08,-2.0944,-9.22069e-08,1.5708,0.785398,0.000387311,-0.000953304,-0.000536884,-0.000468159,0.000614194,-0.000100417,0.00145892,0,0,0,0,0,0,0,-0.632923,-9.40768,-0.81384,21.4676,1.89913,2.37692,0.278513,-0.621714,-0.332702,-0.363179,2.94569,1.19496,0.705093,0.30782
749304,0.99,-1.5703,-0.523401,0.000143543,-2.0965,-0.00156416,1.56987,0.784882,-1.5708,-0.523599,-4.46417e-08,-2.0944,-9.22069e-08,1.5708,0.785398,-0.000391407,-7.87243e-05,0.000755701,-0.000868918,-1.73963e-05,0.000407773,0.000497898,0,0,0,0,0,0,0,-0.605152,-9.43149,-0.861447,21.4914,1.91103,2.3641,0.291331,-0.620855,-0.330747,-0.361827,2.94466,1.19502,0.70504,0.307964
749305,0.99,-1.5703,-0.523403,0.000140202,-2.0965,-0.00156477,1.56987,0.78488,-1.5708,-0.523599,-4.46417e-08,-2.0944,-9.22069e-08,1.5708,0.785398,0.000388676,-5.24828e-05,-0.000609823,-0.00113609,-0.000204585,3.44897e-05,-0.000380145,0,0,0,0,0,0,0,-0.632923,-9.43149,-0.81384,21.5152,1.91652,2.37051,0.310557,-0.620544,-0.330556,-0.361308,2.94507,1.19509,0.705129,0.308077
749306,0.99,-1.5703,-0.523402,0.000143543,-2.0965,-0.00156283,1.56987,0.784877,-1.5708,-0.523599,-4.46417e-08,-2.0944,-9.22069e-08,1.5708,0.785398,0.000259117,0.000521823,0.000707075,0.00035623,0.000515717,-0.000214366,-0.00123677,0,0,0,0,0,0,0,-0.632923,-9.45529,-0.861447,21.4676,1.89913,2.37692,0.337107,-0.620663,-0.332279,-0.361397,2.94657,1.19514,0.705296,0.308143
749307,0.99,-1.5703,-0.5234,0.000141873,-2.0965,-0.00156416,1.56987,0.78488,-1.5708,-0.523599,-4.46417e-08,-2.0944,-9.22069e-08,1.5708,0.785398,-0.00103368,0.000347882,-8.54286e-05,-0.00152575,-9.11128e-05,9.44484e-05,0.000158828,0,0,0,0,0,0,0,-0.581349,-9.45529,-0.837644,21.543,1.91103,2.37051,0.310557,-0.620974,-0.33541,-0.36181,2.94865,1.19519,0.705486,0.308187
749308,0.99,-1.57029,-0.523401,0.000145492,-2.0965,-0.00156344,1.56987,0.78488,-1.5708,-0.523599,-4.46417e-08,-2.0944,-9.22069e-08,1.5708,0.785398,0.00107412,0.000231922,0.00114947,0.000189259,0.000181031,6.29656e-05,0.000343244,0,0,0,0,0,0,0,-0.656727,-9.45529,-0.889218,21.4914,1.90462,2.37051,0.304148,-0.62149,-0.339337,-0.362642,2.95115,1.19523,0.70569,0.308242
749309,0.99,-1.5703,-0.523396,0.000141873,-2.0965,-0.00156416,1.56987,0.78488,-1.5708,-0.523599,-4.46417e-08,-2.0944,-9.22069e-08,1.5708,0.785398,0.000159266,0.00136104,-0.00044011,-0.00108025,-0.000113361,-0.000195382,0.00022883,0,0,0,0,0,0,0,-0.632923,-9.50687,-0.837644,21.543,1.91103,2.37692,0.304148,-0.622544,-0.343867,-0.364257,2.95389,1.19523,0.705886,0.308313
749310,0.99,-1.5703,-0.523397,0.000141873,-2.09649,-0.00156416,1.56987,0.78488,-1.5708,-0.523599,-4.46417e-08,-2.0944,-9.22069e-08,1.5708,0.785398,-0.000543436,0.000350548,-0.000293407,0.00159988,-7.30912e-05,-0.000367614,0.000152553,0,0,0,0,0,0,0,-0.605152,-9.48306,-0.837644,21.4438,1.91103,2.38333,0.304148,-0.623223,-0.348713,-0.365274,2.95638,1.19523,0.706023,0.308381
749311,0.99,-1.5703,-0.523399,0.000143543,-2.09649,-0.00156344,1.56987,0.78488,-1.5708,-0.523599,-4.46417e-08,-2.0944,-9.22069e-08,1.5708,0.785398,0.000287323,-0.000415915,0.000361207,0.00106659,0.000190494,-0.000245076,-0.000135657,0,0,0,0,0,0,0,-0.632923,-9.45529,-0.861447,21.4438,1.90462,2.38333,0.310557,-0.623149,-0.351066,-0.365207,2.95688,1.1952,0.705961,0.308428
749312,0.99,-1.5703,-0.523399,0.000141873,-2.0965,-0.00156222,1.56987,0.784877,-1.5708,-0.523599,-4.46417e-08,-2.0944,-9.22069e-08,1.5708,0.785398,0.000191549,-0.000277277,-0.000316007,0.000154246,0.000535293,7.39752e-05,-0.000836423,0,0,0,0,0,0,0,-0.632923,-9.45529,-0.837644,21.4676,1.89363,2.37692,0.330698,-0.6231,-0.34985,-0.365183,2.95519,1.19513,0.705725,0.308455
749313,0.99,-1.5703,-0.5234,0.000141873,-2.0965,-0.00156416,1.56987,0.784877,-1.5708,-0.523599,-4.46417e-08,-2.0944,-9.22069e-08,1.5708,0.785398,-0.000521915,-0.000741663,-0.000210671,0.000102831,-0.00028635,4.93168e-05,-0.000794974,0,0,0,0,0,0,0,-0.605152,-9.43149,-0.837644,21.4676,1.91103,2.37692,0.337107,-0.622905,-0.346813,-0.364937,2.95283,1.19506,0.705483,0.308478
749314,0.99,-1.5703,-0.5234,0.000140202,-2.0965,-0.00156477,1.56987,0.784882,-1.5708,-0.523599,-4.46417e-08,-2.0944,-9.22069e-08,1.5708,0.785398,-0.000347943,-0.000494442,-0.00069726,6.85539e-05,-0.000393565,3.28778e-05,0.0014028,0,0,0,0,0,0,0,-0.605152,-9.43149,-0.81384,21.4676,1.91652,2.37692,0.284922,-0.622057,-0.342925,-0.363777,2.9504,1.195,0.705283,0.308525
749315,0.99,-1.5703,-0.523399,0.000141873,-2.0965,-0.00156416,1.56987,0.784884,-1.5708,-0.523599,-4.46417e-08,-2.0944,-9.22069e-08,1.5708,0.785398,0.000417652,0.000876798,9.19723e-05,-0.000511109,-5.8337e-05,2.19186e-05,0.00164727,0,0,0,0,0,0,0,-0.632923,-9.48306,-0.837644,21.4914,1.91103,2.37692,0.265696,-0.620944,-0.340097,-0.362232,2.94877,1.19497,0.705179,0.308605
749316,0.99,-1.5703,-0.5234,0.000140202,-2.09649,-0.00156477,1.56987,0.784882,-1.5708,-0.523599,-4.46417e-08,-2.0944,-9.22069e-08,1.5708,0.785398,-0.000371179,0.000584532,-0.000495497,0.000772884,-0.0002419,1.46124e-05,0.000148747,0,0,0,0,0,0,0,-0.605152,-9.48306,-0.81384,21.4438,1.91652,2.37692,0.291331,-0.620089,-0.340027,-0.361023,2.94852,1.19495,0.705193,0.308675
749317,0.99,-1.5703,-0.523403,0.000140202,-2.0965,-0.00156344,1.56987,0.784877,-1.5708,-0.523599,-4.46417e-08,-2.0944,-9.22069e-08,1.5708,0.785398,-0.000247453,-0.00137355,-0.000330331,-0.000598368,0.000279874,9.74158e-06,-0.00159626,0,0,0,0,0,0,0,-0.605152,-9.40768,-0.81384,21.4914,1.90462,2.37692,0.337107,-0.619233,-0.340435,-0.359801,2.94846,1.19495,0.70523,0.30868
749318,0.99,-1.57029,-0.523401,0.000140202,-2.09649,-0.00156283,1.56987,0.784879,-1.5708,-0.523599,-4.46417e-08,-2.0944,-9.22069e-08,1.5708,0.785398,0.00104146,0.000197924,-0.000220221,0.000714712,0.000390282,6.49439e-06,-0.000318185,0,0,0,0,0,0,0,-0.656727,-9.45529,-0.81384,21.4438,1.89913,2.37692,0.316965,-0.61859,-0.339153,-0.358823,2.94767,1.19495,0.705232,0.308626
749319,0.99,-1.5703,-0.523402,0.000144003,-2.0965,-0.00156344,1.56987,0.78488,-1.5708,-0.523599,-4.46417e-08,-2.0944,-9.22069e-08,1.5708,0.785398,0.000137493,0.000131949,0.000409998,-0.000637149,5.69239e-05,0.000241689,0.000262594,0,0,0,0,0,0,0,-0.632923,-9.45529,-0.837644,21.4914,1.90462,2.37051,0.304148,-0.618804,-0.337856,-0.358962,2.94691,1.1949,0.705243,0.308568
749320,0.99,-1.5703,-0.523402,0.000140912,-2.0965,-0.00156416,1.56987,0.78488,-1.5708,-0.523599,-4.46417e-08,-2.0944,-9.22069e-08,1.5708,0.785398,9.16619e-05,8.79662e-05,-0.00028348,-0.000424766,-0.00019927,-0.000313592,0.0011245,0,0,0,0,0,0,0,-0.632923,-9.45529,-0.81384,21.4914,1.91103,2.38333,0.278513,-0.619541,-0.338061,-0.359801,2.94705,1.19484,0.705331,0.308531
749321,0.99,-1.5703,-0.523401,0.000140621,-2.0965,-0.00156344,1.56987,0.784881,-1.5708,-0.523599,-4.46417e-08,-2.0944,-9.22069e-08,1.5708,0.785398,-0.000588506,-0.000498168,-0.000838601,-0.0014896,0.000104617,0.000503015,0.000512307,0,0,0,0,0,0,0,-0.605152,-9.43149,-0.786069,21.543,1.90462,2.3641,0.284922,-0.619791,-0.339191,-0.359898,2.9481,1.19482,0.705513,0.30849
749322,0.99,-1.5703,-0.523403,0.000142662,-2.0965,-0.00156477,1.56987,0.784877,-1.5708,-0.523599,-4.46417e-08,-2.0944,-9.22069e-08,1.5708,0.785398,-0.000392337,-0.000332112,0.000647359,0.000213357,-0.000370986,0.000572703,-0.00135388,0,0,0,0,0,0,0,-0.605152,-9.43149,-0.837644,21.4914,1.91652,2.35769,0.330698,-0.619407,-0.340011,-0.359078,2.94931,1.19483,0.705708,0.308409
749323,0.99,-1.57029,-0.5234,0.000142136,-2.0965,-0.00156283,1.56987,0.784874,-1.5708,-0.523599,-4.46417e-08,-2.0944,-9.22069e-08,1.5708,0.785398,0.000944868,0.000335404,0.000431573,0.00069905,0.000396995,-0.000567634,-0.00185202,0,0,0,0,0,0,0,-0.656727,-9.45529,-0.837644,21.4676,1.89913,2.38333,0.356333,-0.619546,-0.339958,-0.359042,2.94979,1.19481,0.705792,0.308296
749324,0.99,-1.5703,-0.523402,0.00014196,-2.09649,-0.00156283,1.56987,0.784878,-1.5708,-0.523599,-4.46417e-08,-2.0944,-9.22069e-08,1.5708,0.785398,7.30998e-05,-0.000890021,0.000287715,0.00102285,0.000264708,9.62952e-05,-1.39799e-05,0,0,0,0,0,0,0,-0.632923,-9.40768,-0.837644,21.4438,1.89913,2.37051,0.323374,-0.620682,-0.338655,-0.360384,2.949,1.1947,0.705706,0.308207
749325,0.99,-1.5703,-0.523399,0.000143572,-2.0965,-0.00156477,1.56987,0.784882,-1.5708,-0.523599,-4.46417e-08,-2.0944,-9.22069e-08,1.5708,0.785398,4.87332e-05,0.000520276,0.000748622,0.000125085,-0.000467755,-0.000410521,0.00117747,0,0,0,0,0,0,0,-0.632923,-9.45529,-0.861447,21.4676,1.91652,2.38333,0.291331,-0.622195,-0.336386,-0.362242,2.94737,1.19454,0.705516,0.30819
749326,0.99,-1.57029,-0.5234,0.000141882,-2.0965,-0.00156416,1.56987,0.78488,-1.5708,-0.523599,-4.46417e-08,-2.0944,-9.22069e-08,1.5708,0.785398,0.00114611,-0.000209961,-5.77306e-05,-0.000473422,-0.000108361,0.000201037,0.000310265,0,0,0,0,0,0,0,-0.680531,-9.43149,-0.837644,21.4914,1.91103,2.37051,0.304148,-0.623845,-0.335033,-0.364274,2.94631,1.19438,0.705376,0.308241
749327,0.99,-1.5703,-0.5234,0.000141876,-2.0965,-0.00156416,1.56987,0.784877,-1.5708,-0.523599,-4.46417e-08,-2.0944,-9.22069e-08,1.5708,0.785398,-0.000349549,-0.000139974,-3.84871e-05,-0.000315615,-7.22222e-05,0.000134025,-0.000776501,0,0,0,0,0,0,0,-0.632923,-9.43149,-0.837644,21.4914,1.91103,2.37051,0.330698,-0.625333,-0.334897,-0.36596,2.94626,1.19426,0.705341,0.308316
749328,0.99,-1.5703,-0.523399,0.000141874,-2.0965,-0.00156344,1.56987,0.784877,-1.5708,-0.523599,-4.46417e-08,-2.0944,-9.22069e-08,1.5708,0.785398,-0.000233033,0.000463496,-2.56581e-05,-0.000767222,0.000189225,-0.000148009,-0.000517667,0,0,0,0,0,0,0,-0.632923,-9.45529,-0.837644,21.5152,1.90462,2.37692,0.330698,-0.62607,-0.335679,-0.366522,2.94701,1.19421,0.705392,0.308394
749329,0.99,-1.5703,-0.523396,0.000140203,-2.0965,-0.00156416,1.56987,0.784877,-1.57079,-0.5236,-2.54464e-06,-2.0944,-2.88433e-06,1.5708,0.785393,-0.000804969,0.00207224,-0.000573917,-0.000511481,-0.000111199,-9.86727e-05,-0.00058247,0.00375,-0.000288337,-0.0025,3.02246e-05,-0.00279212,-0.00019393,-0.005,-0.605152,-9.53067,-0.81384,21.5152,1.91103,2.37692,0.337107,-0.625797,-0.339248,-0.365659,2.94928,1.19424,0.705568,0.308496
749330,0.99,-1.5703,-0.523401,0.000145492,-2.0965,-0.00156283,1.56987,0.78488,-1.57079,-0.5236,-7.54464e-06,-2.0944,-8.46857e-06,1.57079,0.785383,-0.000536646,-0.00093856,0.00138063,0.000772636,0.000366685,0.000171577,0.00083239,0.0075,-0.000576674,-0.005,6.04492e-05,-0.00558424,-0.00038786,-0.01,-0.605152,-9.43149,-0.889218,21.4676,1.89913,2.37051,0.304148,-0.62505,-0.344284,-0.364226,2.95208,1.19432,0.705767,0.308643
749331,0.99,-1.5703,-0.523401,0.000143543,-2.0965,-0.00156477,1.56987,0.784882,-1.57077,-0.523601,-1.50446e-05,-2.0944,-1.68449e-05,1.57079,0.785368,-0.000357764,-0.000625706,0.000270804,-0.000598533,-0.000399797,-0.000360333,0.00102964,0.01125,-0.000865011,-0.0075,9.06738e-05,-0.00837637,-0.000581791,-0.015,-0.605152,-9.43149,-0.861447,21.5152,1.91652,2.38333,0.291331,-0.62475,-0.346234,-0.363666,2.9532,1.19433,0.705821,0.308833
749332,0.99,-1.57029,-0.523401,0.000141413,-2.0965,-0.00156283,1.56987,0.784878,-1.57076,-0.523602,-2.50446e-05,-2.0944,-2.80134e-05,1.57079,0.785348,0.000967917,0.000139674,-0.00610297,0.00015779,0.000377733,-2.86315e-06,0.000449071,0.015,-0.00115335,-0.01,0.000120898,-0.0111685,-0.000775721,-0.02,-0.656727,-9.45529,-0.861447,21.4914,1.89913,2.37692,0.297739,-0.623296,-0.34542,-0.361232,2.95304,1.19437,0.705791,0.309022
749333,0.99,-1.5703,-0.523402,0.00014414,-2.0965,-0.00156227,1.56987,0.784877,-1.57074,-0.523604,-3.75446e-05,-2.0944,-4.1974e-05,1.57079,0.785323,-0.000355347,0.00129954,-0.00585347,0.000105193,0.00150644,-1.90877e-06,-0.00816421,0.01875,-0.00144169,-0.0125,0.000151123,-0.0139606,-0.000969651,-0.025,-0.478199,-9.50687,-0.940793,21.4914,1.86525,2.37692,0.265696,-0.61789,-0.345476,-0.352303,2.95307,1.19459,0.705789,0.309158
749334,0.99,-1.57029,-0.523401,0.000138472,-2.0965,-0.00156337,1.56987,0.78488,-1.57072,-0.523605,-5.25446e-05,-2.0944,-5.87268e-05,1.57079,0.785293,0.00152284,-0.000406777,-0.00707206,-0.00169311,0.00205545,0.000236086,-0.00383951,0.0225,-0.00173002,-0.015,0.000181348,-0.0167527,-0.00116358,-0.03,-0.402821,-9.58224,-0.964597,21.5668,1.83687,2.37051,0.200693,-0.608881,-0.347473,-0.337565,2.95397,1.19496,0.705882,0.309212
749335,0.99,-1.57029,-0.5234,0.000133253,-2.0965,-0.00156357,1.56987,0.784877,-1.57069,-0.523607,-7.00446e-05,-2.09439,-7.82716e-05,1.57079,0.785258,0.0028324,0.00068221,-0.00739805,7.76866e-05,0.00177721,-7.9968e-05,-0.00810829,0.02625,-0.00201836,-0.0175,0.000211572,-0.0195449,-0.00135751,-0.035,-0.327442,-9.63382,-1.01617,21.5152,1.82588,2.37692,0.207102,-0.59857,-0.350203,-0.320858,2.95555,1.19531,0.706065,0.30913
749336,0.99,-1.57027,-0.523402,0.000121967,-2.0965,-0.00156663,1.56987,0.784877,-1.57066,-0.52361,-9.00446e-05,-2.09439,-0.000100609,1.57079,0.785218,0.00882841,0.000821845,-0.00953718,-0.00115463,0.00138826,0.000184047,-0.0053008,0.03,-0.0023067,-0.02,0.000241797,-0.022337,-0.00155144,-0.04,-0.327442,-9.65762,-0.988401,21.5668,1.82039,2.37051,0.181467,-0.589259,-0.353614,-0.305671,2.9575,1.19544,0.70628,0.308832
749337,0.99,-1.57026,-0.5234,0.000115622,-2.09649,-0.00156847,1.56987,0.78488,-1.57063,-0.523612,-0.000112545,-2.09439,-0.000125738,1.57079,0.785173,0.00996377,0.0021688,-0.00861742,0.000993481,0.000722054,0.000122698,-0.00247197,0.03375,-0.00259503,-0.0225,0.000272021,-0.0251291,-0.00174537,-0.045,-0.327442,-9.733,-1.06378,21.4914,1.82588,2.37051,0.135691,-0.583024,-0.358955,-0.295064,2.96,1.19518,0.706492,0.308263
749338,0.99,-1.57025,-0.523407,0.000104711,-2.0965,-0.00156826,1.56987,0.784877,-1.57059,-0.523615,-0.000137545,-2.09439,-0.000153659,1.57078,0.785123,0.00980759,-0.0029067,-0.00857326,-0.000544105,0.000684821,-0.00015556,-0.00212313,0.0375,-0.00288337,-0.025,0.000302246,-0.0279212,-0.0019393,-0.05,-0.279835,-9.68539,-1.11535,21.543,1.82039,2.37692,0.135691,-0.580274,-0.36309,-0.290266,2.96147,1.19448,0.706577,0.307366
749339,0.99,-1.57024,-0.523402,9.32937e-05,-2.09649,-0.00157098,1.56987,0.784871,-1.57055,-0.523619,-0.000167545,-2.09439,-0.000185881,1.57078,0.785063,0.0119762,-0.000515642,-0.00916584,0.000843689,0.000659998,0.000371011,-0.0022804,0.045,-0.00337844,-0.03,0.000354141,-0.0322219,-0.00223801,-0.06,-0.204456,-9.76077,-1.14312,21.4914,1.8149,2.3641,0.149424,-0.580016,-0.361657,-0.290567,2.96014,1.19335,0.706424,0.306077
749340,0.99,-1.57023,-0.523407,7.81858e-05,-2.0965,-0.00157016,1.56987,0.784867,-1.57049,-0.523622,-0.000202545,-2.09439,-0.000222403,1.57078,0.784993,0.0148366,-0.00124918,-0.010227,-0.00120078,0.00108426,0.000247341,-0.00492151,0.0525,-0.00387351,-0.035,0.000406037,-0.0365225,-0.00253671,-0.07,-0.176685,-9.733,-1.14312,21.5668,1.7975,2.3641,0.110056,-0.581651,-0.357137,-0.295217,2.95731,1.19186,0.706148,0.304386
749341,0.99,-1.57022,-0.523404,6.41677e-05,-2.0965,-0.00157194,1.56987,0.784865,-1.57043,-0.523627,-0.000242545,-2.09439,-0.000263226,1.57078,0.784913,0.0146192,0.000738593,-0.0103724,-0.000243707,0.00238435,0.000402253,-0.00646972,0.06,-0.00436858,-0.04,0.000457932,-0.0408231,-0.00283542,-0.08,-0.0497324,-9.80838,-1.16693,21.543,1.75264,2.35769,0.0523779,-0.584583,-0.354424,-0.303404,2.9554,1.19011,0.705936,0.302322
749342,0.99,-1.5702,-0.523402,4.2354e-05,-2.0965,-0.00157424,1.56987,0.784866,-1.57037,-0.523632,-0.000287545,-2.09439,-0.00030835,1.57077,0.784823,0.0183415,-0.000952235,-0.0147746,-0.000162471,0.00264073,0.000505527,-0.00995826,0.0675,-0.00486365,-0.045,0.000509827,-0.0451238,-0.00313413,-0.09,0.0494498,-9.88773,-1.14312,21.543,1.72426,2.35128,-0.0712183,-0.587142,-0.354587,-0.312733,2.9547,1.18815,0.705789,0.299866
749343,0.99,-1.57017,-0.523407,1.81353e-05,-2.0965,-0.0015799,1.56987,0.784852,-1.57029,-0.523637,-0.000337545,-2.09439,-0.000357775,1.57077,0.784723,0.0206282,-0.00100581,-0.0168227,-0.000665126,-0.00210623,0.000811736,-0.0106951,0.075,-0.00535873,-0.05,0.000561722,-0.0494244,-0.00343283,-0.1,0.176403,-9.88773,-1.16693,21.5668,1.70137,2.33847,-0.128897,-0.587539,-0.355684,-0.320327,2.9541,1.186,0.705604,0.296921
749344,0.99,-1.57013,-0.52341,-1.96801e-05,-2.0965,-0.00158907,1.56987,0.784835,-1.57021,-0.523643,-0.000392545,-2.09439,-0.0004115,1.57077,0.784613,0.0268108,-0.00234852,-0.0201724,0.00224419,-0.00542361,0.00101588,-0.0104407,0.0825,-0.0058538,-0.055,0.000613618,-0.0537251,-0.00373154,-0.11,0.251781,-9.9631,-1.11535,21.5906,1.67299,2.32565,-0.206716,-0.585559,-0.354985,-0.325595,2.95209,1.18361,0.705216,0.293324
749345,0.99,-1.57008,-0.523409,-5.66451e-05,-2.0965,-0.00160277,1.56987,0.78481,-1.57012,-0.523649,-0.000452545,-2.09439,-0.000469525,1.57076,0.784493,0.0319655,-0.00167072,-0.0245095,0.0017665,-0.00890958,0.000914609,-0.0147313,0.09,-0.00634887,-0.06,0.000665513,-0.0580257,-0.00403025,-0.12,0.303356,-10.1139,-1.11535,21.5906,1.67299,2.31924,-0.290945,-0.581927,-0.351086,-0.32923,2.94736,1.18088,0.704453,0.28891
749346,0.99,-1.57003,-0.523413,-9.73055e-05,-2.0965,-0.0016195,1.56987,0.784768,-1.57002,-0.523656,-0.000517545,-2.09439,-0.000531852,1.57076,0.784363,0.0384786,-0.00304105,-0.0295783,-0.000382798,-0.0113352,0.00108446,-0.0263375,0.0975,-0.00684394,-0.065,0.000717408,-0.0623263,-0.00432895,-0.13,0.378734,-10.1892,-1.16693,21.666,1.6675,2.30642,-0.278127,-0.576698,-0.345767,-0.330847,2.94135,1.1778,0.703442,0.283536
749347,0.99,-1.56997,-0.523421,-0.000146154,-2.0965,-0.00163868,1.56988,0.784726,-1.56992,-0.523663,-0.000587545,-2.09439,-0.000598479,1.57075,0.784223,0.046254,-0.00528459,-0.0348395,-0.000659928,-0.00882515,0.00119769,-0.0360976,0.105,-0.00733901,-0.07,0.000769303,-0.066627,-0.00462766,-0.14,0.454113,-10.213,-1.16693,21.6898,1.67299,2.2936,-0.362356,-0.56999,-0.339638,-0.33018,2.9356,1.17441,0.702378,0.277105
749348,0.99,-1.56991,-0.523422,-0.000199116,-2.0965,-0.00166278,1.56988,0.784679,-1.5698,-0.523671,-0.000662545,-2.09439,-0.000669406,1.57075,0.784073,0.0510324,-0.00246431,-0.0413465,-0.00208913,-0.0167665,0.00151054,-0.0426933,0.1125,-0.00783408,-0.075,0.000821198,-0.0709276,-0.00492637,-0.15,0.581066,-10.2924,-1.19073,21.7652,1.69039,2.27438,-0.465811,-0.561416,-0.333912,-0.326466,2.93109,1.17075,0.701345,0.269588
749349,0.99,-1.56984,-0.52343,-0.000259477,-2.0965,-0.00168934,1.56988,0.784619,-1.56968,-0.52368,-0.000745045,-2.09439,-0.000745361,1.57074,0.783908,0.0572989,-0.00482602,-0.0442004,0.000456032,-0.0172484,0.00124438,-0.0521969,0.123566,-0.00847064,-0.0825,0.000887925,-0.0759543,-0.0052755,-0.165,0.755627,-10.3162,-1.16693,21.6898,1.69039,2.26797,-0.562856,-0.550146,-0.331302,-0.318902,2.92857,1.16694,0.700319,0.260951
749350,0.99,-1.56976,-0.523434,-0.000325452,-2.0965,-0.00172061,1.56988,0.784538,-1.56954,-0.523689,-0.000835045,-2.09439,-0.000826342,1.57074,0.783728,0.0640414,-0.00526639,-0.0494486,-0.00139506,-0.0260711,0.00130431,-0.0623025,0.134632,-0.00910721,-0.09,0.000954652,-0.080981,-0.00562464,-0.18,0.831005,-10.3916,-1.14312,21.7652,1.662,2.25515,-0.5949,-0.536827,-0.32985,-0.309108,2.92655,1.16301,0.699107,0.251116
749351,0.99,-1.56967,-0.523438,-0.000395889,-2.0965,-0.00175572,1.56988,0.784451,-1.5694,-0.523699,-0.000932545,-2.09439,-0.000912349,1.57073,0.783533,0.0713029,-0.00253892,-0.0557342,0.00088132,-0.0331462,0.00185288,-0.0738842,0.145698,-0.00974377,-0.0975,0.00102138,-0.0860077,-0.00597377,-0.195,0.934154,-10.4669,-1.14312,21.6898,1.64461,2.2286,-0.640676,-0.521738,-0.330125,-0.297872,2.92501,1.15902,0.697656,0.240011
749352,0.99,-1.56957,-0.523435,-0.00047458,-2.0965,-0.00179819,1.56988,0.78435,-1.56924,-0.523709,-0.00103754,-2.09438,-0.00100338,1.57073,0.783323,0.078728,0.00189006,-0.066987,0.000623636,-0.0337096,0.00170997,-0.0865366,0.156764,-0.0103803,-0.105,0.00108811,-0.0910344,-0.00632291,-0.21,1.08491,-10.6455,-1.11535,21.6898,1.62813,2.21578,-0.698355,-0.502739,-0.339562,-0.281859,2.92661,1.15514,0.696094,0.227615
749353,0.99,-1.56948,-0.523439,-0.000556197,-2.09649,-0.00184679,1.56989,0.784235,-1.56907,-0.52372,-0.00115004,-2.09438,-0.00109944,1.57072,0.783098,0.0853748,-0.000578569,-0.0709623,0.000442825,-0.0390914,0.00256414,-0.0953943,0.16783,-0.0110169,-0.1125,0.00115483,-0.0960611,-0.00667204,-0.225,1.31105,-10.7209,-1.16693,21.6898,1.61623,2.17733,-0.763357,-0.47789,-0.361757,-0.258078,2.93263,1.15142,0.694497,0.21394
749354,0.99,-1.56936,-0.523444,-0.000647036,-2.09649,-0.00189934,1.56989,0.784104,-1.5689,-0.523732,-0.00127004,-2.09438,-0.00120053,1.57071,0.782858,0.0970743,-0.00181189,-0.0803323,0.000315517,-0.0427895,0.00170942,-0.107703,0.178896,-0.0116535,-0.12,0.00122156,-0.101088,-0.00702118,-0.24,1.41023,-10.82,-1.2185,21.6898,1.59426,2.17733,-0.841177,-0.448377,-0.390465,-0.228495,2.94075,1.14774,0.692732,0.199012
749355,0.99,-1.56922,-0.523449,-0.000747619,-2.09649,-0.00195926,1.56989,0.783952,-1.56871,-0.523744,-0.00139754,-2.09438,-0.00130665,1.5707,0.782603,0.111662,-0.00331404,-0.087636,-0.000424044,-0.050046,0.00137697,-0.123015,0.189962,-0.01229,-0.1275,0.00128829,-0.106115,-0.00737031,-0.255,1.38642,-10.8954,-1.26611,21.7176,1.56587,2.17092,-0.866812,-0.417339,-0.418553,-0.197451,2.94829,1.14389,0.690637,0.182866
749356,0.99,-1.56909,-0.523458,-0.000855982,-2.09649,-0.00202948,1.56989,0.783777,-1.5685,-0.523757,-0.00153254,-2.09438,-0.00141779,1.5707,0.782333,0.11835,-0.00665791,-0.0915523,-0.0013849,-0.0559563,0.0013927,-0.141615,0.201028,-0.0129266,-0.135,0.00135501,-0.111141,-0.00771945,-0.27,1.48561,-10.8716,-1.36926,21.7652,1.54848,2.15811,-0.821951,-0.387733,-0.441845,-0.169335,2.95397,1.13969,0.688164,0.165549
749357,0.99,-1.56893,-0.523467,-0.000979095,-2.09648,-0.00210975,1.56989,0.783588,-1.56829,-0.52377,-0.00167504,-2.09438,-0.00153396,1.57069,0.782048,0.128798,-0.00839545,-0.101773,0.000198921,-0.062478,0.000928467,-0.158524,0.212093,-0.0135631,-0.1425,0.00142174,-0.116168,-0.00806858,-0.285,1.53718,-10.8716,-1.31769,21.7176,1.59426,2.15811,-0.808218,-0.359661,-0.456236,-0.145112,2.95601,1.13511,0.685197,0.147158
749358,0.99,-1.56877,-0.52347,-0.00109691,-2.09648,-0.00219671,1.56989,0.783393,-1.56807,-0.523785,-0.00182504,-2.09438,-0.00165515,1.57068,0.781748,0.138783,-0.00408377,-0.108483,0.000788651,-0.0718846,0.000856337,-0.173019,0.223159,-0.0141997,-0.15,0.00148847,-0.121195,-0.00841772,-0.3,1.64033,-10.9748,-1.42083,21.6898,1.63362,2.1517,-0.886038,-0.331155,-0.464527,-0.122222,2.95482,1.13026,0.681717,0.127883
749359,0.99,-1.56859,-0.523472,-0.00122111,-2.09648,-0.00229135,1.56989,0.783172,-1.56783,-0.5238,-0.00198474,-2.09437,-0.00178162,1.57067,0.781428,0.147484,-0.00420575,-0.113516,-0.000675841,-0.0773306,9.61736e-05,-0.185585,0.236507,-0.0149256,-0.159698,0.00156456,-0.12647,-0.00878416,-0.319892,1.68794,-11.0739,-1.52002,21.7414,1.63362,2.16452,-0.918997,-0.302021,-0.476157,-0.10062,2.95433,1.12529,0.677998,0.107938
749360,0.99,-1.56841,-0.523477,-0.00135432,-2.09647,-0.00239123,1.56989,0.782938,-1.56758,-0.523815,-0.00215414,-2.09437,-0.00191337,1.57066,0.781088,0.153185,-0.00431576,-0.119993,-0.000446948,-0.0818862,-0.000173243,-0.200167,0.249855,-0.0156515,-0.169395,0.00164065,-0.131746,-0.00915059,-0.339784,1.73951,-11.1771,-1.52002,21.7414,1.64461,2.17092,-0.95104,-0.272312,-0.49511,-0.0812131,2.95688,1.12034,0.674285,0.0874404
749361,0.99,-1.56821,-0.523479,-0.00149524,-2.09647,-0.00249518,1.56989,0.782693,-1.56732,-0.523832,-0.00233323,-2.09437,-0.00205039,1.57065,0.780729,0.169236,-0.00195218,-0.126816,0.000261557,-0.0887485,0.00083394,-0.210814,0.263203,-0.0163774,-0.179093,0.00171675,-0.137022,-0.00951703,-0.359676,1.71571,-11.2525,-1.57159,21.7176,1.62264,2.14529,-0.976675,-0.242362,-0.521101,-0.0647076,2.96223,1.11545,0.670606,0.0664513
749362,0.99,-1.568,-0.523487,-0.00164,-2.09647,-0.00261241,1.5699,0.782425,-1.56704,-0.523849,-0.00252202,-2.09437,-0.00219269,1.57064,0.780349,0.178077,-0.00137333,-0.134685,0.00175418,-0.0942022,0.00174275,-0.227807,0.27655,-0.0171034,-0.188791,0.00179284,-0.142298,-0.00988347,-0.379568,1.81489,-11.2763,-1.77392,21.789,1.61073,2.11325,-1.00963,-0.213865,-0.554798,-0.0527847,2.96983,1.11059,0.666888,0.0450321
749363,0.99,-1.56778,-0.52349,-0.00179746,-2.09646,-0.00273319,1.5699,0.782141,-1.56675,-0.523866,-0.00272051,-2.09437,-0.00234026,1.57063,0.77995,0.18871,-0.000180636,-0.142149,0.00384508,-0.106928,0.00234863,-0.247961,0.289898,-0.0178293,-0.198488,0.00186893,-0.147574,-0.0102499,-0.399459,1.89027,-11.3279,-1.92468,21.8167,1.59426,2.0812,-1.10668,-0.186494,-0.594932,-0.0445717,2.97821,1.10576,0.662955,0.0232371
749364,0.99,-1.56754,-0.523496,-0.00197769,-2.09646,-0.00286537,1.5699,0.78184,-1.56645,-0.523885,-0.0029287,-2.09437,-0.00249311,1.57062,0.77953,0.204804,-0.00184546,-0.152767,0.00318615,-0.113924,0.0013284,-0.268003,0.303246,-0.0185552,-0.208186,0.00194503,-0.152849,-0.0106163,-0.419351,1.76332,-11.4032,-1.97625,21.9397,1.61073,2.08761,-1.24218,-0.159362,-0.638163,-0.0385468,2.98585,1.10103,0.658661,0.00108565
749365,0.99,-1.56728,-0.523497,-0.00215789,-2.09645,-0.00299454,1.5699,0.78151,-1.56613,-0.523904,-0.00314658,-2.09436,-0.00265124,1.57061,0.779091,0.220728,0.00121291,-0.159191,0.00696774,-0.117061,0.000885597,-0.289167,0.316594,-0.0192811,-0.217884,0.00202112,-0.158125,-0.0109828,-0.439243,1.68794,-11.5302,-2.10321,21.8882,1.57686,2.08761,-1.28795,-0.134483,-0.682297,-0.0367987,2.99217,1.09624,0.653972,-0.0214917
749366,0.99,-1.56702,-0.523506,-0.00235115,-2.09645,-0.0031297,1.5699,0.781158,-1.5658,-0.523924,-0.00337416,-2.09436,-0.00281464,1.5706,0.778632,0.237895,0.0015274,-0.166061,0.00469688,-0.124992,0.00130247,-0.310912,0.329941,-0.020007,-0.227581,0.00209721,-0.163401,-0.0113492,-0.459135,1.73951,-11.5778,-2.28174,21.9159,1.56038,2.06838,-1.33922,-0.115835,-0.728872,-0.0443341,2.99817,1.09117,0.648973,-0.0446234
749367,0.99,-1.56673,-0.523508,-0.00256824,-2.09644,-0.00327631,1.5699,0.78078,-1.56546,-0.523945,-0.00361144,-2.09436,-0.00298331,1.57059,0.778153,0.253377,0.00257818,-0.179857,0.00611664,-0.130963,0.000868316,-0.336338,0.343289,-0.0207329,-0.237279,0.0021733,-0.168677,-0.0117157,-0.479027,1.53718,-11.6571,-2.23016,21.9397,1.54848,2.06838,-1.37127,-0.104387,-0.779934,-0.0619536,3.00573,1.08581,0.643867,-0.0684176
749368,0.99,-1.56643,-0.523518,-0.00276961,-2.09643,-0.00342788,1.5699,0.780377,-1.5651,-0.523967,-0.00385842,-2.09436,-0.00315727,1.57058,0.777654,0.265221,0.00149669,-0.187941,0.00778026,-0.135996,0.000578878,-0.3512,0.356637,-0.0214588,-0.246977,0.0022494,-0.173953,-0.0120821,-0.498919,1.66413,-11.6571,-2.40869,21.9397,1.54848,2.06838,-1.39141,-0.0965426,-0.833396,-0.0840845,3.01414,1.08026,0.638647,-0.0929517
749369,0.99,-1.56613,-0.523526,-0.00298753,-2.09643,-0.00358071,1.5699,0.779963,-1.56473,-0.523989,-0.00411538,-2.09435,-0.00333645,1.57056,0.777135,0.27751,-0.000473765,-0.197809,0.00841378,-0.138725,-8.87994e-05,-0.37223,0.371228,-0.0222324,-0.256967,0.00233049,-0.179187,-0.0124456,-0.518909,1.68794,-11.7325,-2.53564,21.9635,1.5201,2.0812,-1.44268,-0.0890355,-0.883599,-0.106362,3.02046,1.0746,0.633117,-0.118253
749370,0.99,-1.5658,-0.523536,-0.00322811,-2.09642,-0.00374847,1.5699,0.779514,-1.56435,-0.524012,-0.00438234,-2.09435,-0.00352087,1.57055,0.776596,0.293451,-0.00268724,-0.215428,0.00586042,-0.146487,0.000415518,-0.396728,0.385819,-0.023006,-0.266957,0.00241158,-0.184421,-0.0128092,-0.538899,1.64033,-11.7801,-2.58325,21.9873,1.52651,2.06838,-1.44909,-0.0787208,-0.92619,-0.124336,3.02355,1.06892,0.627302,-0.1443
749371,0.99,-1.56546,-0.523541,-0.00347347,-2.09642,-0.00392484,1.5699,0.779048,-1.56395,-0.524036,-0.00465929,-2.09435,-0.00371053,1.57054,0.776037,0.314048,-0.00363145,-0.224889,0.00714479,-0.15315,0.00075173,-0.428308,0.40041,-0.0237796,-0.276947,0.00249267,-0.189655,-0.0131727,-0.558889,1.56495,-11.8595,-2.58325,22.0151,1.54848,2.05557,-1.42345,-0.0643239,-0.960476,-0.135358,3.02418,1.06333,0.621366,-0.171023
749372,0.99,-1.56511,-0.523554,-0.00372634,-2.09641,-0.00410557,1.5699,0.778542,-1.56353,-0.52406,-0.00494622,-2.09435,-0.00390542,1.57052,0.775459,0.32284,-0.00494778,-0.230282,0.00549118,-0.162374,0.000738512,-0.452575,0.415002,-0.0245532,-0.286937,0.00257376,-0.194889,-0.0135363,-0.578879,1.71571,-11.7801,-2.63482,22.0151,1.56038,2.04916,-1.33281,-0.0492416,-0.987583,-0.144487,3.02317,1.05773,0.615381,-0.198267
749373,0.99,-1.56473,-0.523557,-0.003987,-2.09639,-0.00428423,1.5699,0.778007,-1.5631,-0.524085,-0.00524315,-2.09434,-0.00410554,1.57051,0.77486,0.340486,-0.000831935,-0.23852,0.0102247,-0.164398,0.000254983,-0.480684,0.429593,-0.0253268,-0.296927,0.00265486,-0.200123,-0.0138998,-0.598869,1.73951,-11.9071,-2.65863,21.8882,1.56587,2.05557,-1.22936,-0.0368319,-1.01168,-0.157871,3.02169,1.05205,0.609357,-0.225796
749374,0.99,-1.56435,-0.52357,-0.00426843,-2.09639,-0.00446563,1.5699,0.777469,-1.56266,-0.524112,-0.00555007,-2.09434,-0.0043109,1.5705,0.774241,0.356232,-0.00514023,-0.250751,0.00747995,-0.17069,0.000169988,-0.498748,0.444184,-0.0261004,-0.306917,0.00273595,-0.205358,-0.0142634,-0.618859,1.73951,-11.8595,-2.53564,21.8882,1.57137,2.05557,-1.17718,-0.0280849,-1.03606,-0.177246,3.02018,1.04624,0.603277,-0.253295
749375,0.99,-1.56395,-0.523573,-0.00453943,-2.09638,-0.00464874,1.5699,0.7769,-1.5622,-0.524138,-0.00586698,-2.09434,-0.00452149,1.57048,0.773602,0.367224,-0.00425009,-0.252218,0.00604108,-0.1776,-0.000124033,-0.523252,0.458775,-0.026874,-0.316907,0.00281704,-0.210592,-0.0146269,-0.638849,1.89027,-11.9825,-2.61102,21.8644,1.52651,2.06198,-1.19732,-0.0232648,-1.0602,-0.203195,3.01923,1.04035,0.597276,-0.280403
749376,0.99,-1.56353,-0.523582,-0.0048216,-2.09638,-0.00482845,1.5699,0.776299,-1.56172,-0.524166,-0.00619387,-2.09434,-0.00473732,1.57047,0.772943,0.38046,-0.00601196,-0.260947,0.00263737,-0.181621,0.000392029,-0.547407,0.473366,-0.0276476,-0.326897,0.00289813,-0.215826,-0.0149905,-0.658839,1.99342,-12.0102,-2.63482,21.9397,1.45784,2.04916,-1.20373,-0.0228929,-1.08548,-0.237555,3.02114,1.03444,0.59166,-0.306812
749377,0.99,-1.56309,-0.523592,-0.00513133,-2.09637,-0.00502907,1.5699,0.775683,-1.56124,-0.524194,-0.00653076,-2.09433,-0.00495838,1.57045,0.772264,0.400042,-0.00477294,-0.276892,0.00491503,-0.18736,0.00100734,-0.566239,0.487957,-0.0284212,-0.336887,0.00297922,-0.22106,-0.015354,-0.678829,1.94184,-12.0102,-2.48407,21.8167,1.43587,2.02902,-1.21013,-0.0251408,-1.11388,-0.277443,3.02679,1.02854,0.58652,-0.332371
749378,0.99,-1.56263,-0.523605,-0.00543965,-2.09636,-0.00523859,1.5699,0.775043,-1.56073,-0.524224,-0.00687764,-2.09433,-0.00518467,1.57044,0.771565,0.416087,-0.00757576,-0.286678,0.0065241,-0.193124,-7.44266e-05,-0.583992,0.502549,-0.0291948,-0.346877,0.00306032,-0.226294,-0.0157175,-0.698819,1.91804,-11.9825,-2.4563,21.8167,1.44686,2.04916,-1.21013,-0.0269638,-1.14309,-0.316914,3.03323,1.02257,0.581537,-0.357056
749379,0.99,-1.56217,-0.523617,-0.00575909,-2.09636,-0.00544799,1.5699,0.774385,-1.56022,-0.524254,-0.0072345,-2.09433,-0.00541598,1.57042,0.770847,0.429062,-0.00630182,-0.290213,0.00846263,-0.197686,-4.96178e-05,-0.609801,0.517539,-0.0299829,-0.356867,0.00314292,-0.23131,-0.0160659,-0.718809,2.01722,-11.9586,-2.4563,21.789,1.46974,2.04916,-1.21013,-0.028992,-1.16945,-0.35658,3.03693,1.01633,0.576346,-0.380868
749380,0.99,-1.56168,-0.52363,-0.00609198,-2.09635,-0.00566634,1.5699,0.773697,-1.55968,-0.524284,-0.00760136,-2.09432,-0.00565231,1.5704,0.770108,0.449948,-0.00731587,-0.301342,0.0103281,-0.201604,-0.000270437,-0.635555,0.532529,-0.0307709,-0.366857,0.00322553,-0.236325,-0.0164142,-0.738799,1.91804,-11.9825,-2.35711,21.7414,1.5201,2.05557,-1.24218,-0.0342648,-1.1924,-0.401158,3.03676,1.00963,0.570822,-0.403807
749381,0.99,-1.56119,-0.523639,-0.00643007,-2.09635,-0.0058824,1.5699,0.772981,-1.55914,-0.524316,-0.00797821,-2.09432,-0.00589365,1.57039,0.769349,0.457292,-0.00748825,-0.311994,0.00579476,-0.208031,0.000803053,-0.65695,0.547519,-0.031559,-0.376847,0.00330813,-0.24134,-0.0167626,-0.758789,2.01722,-12.034,-2.30554,21.8167,1.532,2.02902,-1.22295,-0.0416588,-1.21411,-0.448759,3.03439,1.00262,0.565157,-0.425923
749382,0.99,-1.56069,-0.523653,-0.00677703,-2.09634,-0.00610285,1.5699,0.772263,-1.55857,-0.524348,-0.00836504,-2.09432,-0.00614,1.57037,0.76857,0.469503,-0.00831749,-0.321993,0.00740155,-0.207169,0.00172216,-0.681316,0.562509,-0.032347,-0.386837,0.00339074,-0.246356,-0.0171109,-0.778779,2.11641,-12.0578,-2.38092,21.8167,1.5201,1.99697,-1.24218,-0.0454692,-1.23716,-0.491351,3.03258,0.995764,0.559672,-0.447316
749383,1,-1.56016,-0.523668,-0.00714364,-2.09634,-0.00633281,1.5699,0.771521,-1.558,-0.524381,-0.00876187,-2.09431,-0.00639137,1.57035,0.767772,0.491143,-0.0125416,-0.346616,0.00804383,-0.214953,0.00209754,-0.69319,0.577499,-0.033135,-0.396827,0.00347334,-0.251371,-0.0174593,-0.798769,2.04103,-12.0578,-2.23016,21.8405,1.48622,1.97134,-1.26781,-0.040489,-1.25846,-0.520578,3.02988,0.989355,0.554244,-0.468098
749384,1,-1.55962,-0.523679,-0.00752625,-2.09634,-0.00656547,1.5699,0.770765,-1.5574,-0.524415,-0.00916869,-2.09431,-0.00664776,1.57033,0.766953,0.514902,-0.0107395,-0.354818,0.00553205,-0.222011,0.00187308,-0.711462,0.592489,-0.0339231,-0.406817,0.00355595,-0.256387,-0.0178076,-0.818759,2.0926,-12.1372,-2.05163,21.8644,1.46974,1.95852,-1.33281,-0.0268691,-1.27517,-0.534303,3.02495,0.983385,0.548705,-0.488347
749385,1,-1.55906,-0.523697,-0.00791223,-2.09633,-0.00679834,1.5699,0.769978,-1.5568,-0.52445,-0.00958549,-2.09431,-0.00690916,1.57032,0.766114,0.5294,-0.0120648,-0.365149,0.00367595,-0.221131,0.00148608,-0.733435,0.607479,-0.0347111,-0.416807,0.00363855,-0.261402,-0.018156,-0.838749,2.14418,-12.1094,-1.95245,21.8882,1.42397,1.95211,-1.33922,-0.0108334,-1.29229,-0.540744,3.0214,0.977609,0.543313,-0.508121
749386,1,-1.55848,-0.523713,-0.00831,-2.09632,-0.00704122,1.5699,0.769173,-1.55617,-0.524486,-0.0100123,-2.0943,-0.00717558,1.5703,0.765255,0.5502,-0.0116503,-0.379343,0.00694732,-0.22867,0.000516001,-0.752653,0.622469,-0.0354991,-0.426797,0.00372116,-0.266417,-0.0185043,-0.858739,2.19575,-12.1372,-1.8493,21.8405,1.45784,1.96493,-1.37859,0.00396823,-1.31262,-0.545698,3.02056,0.971808,0.538119,-0.527518
749387,1,-1.55789,-0.523729,-0.00872559,-2.09631,-0.00728089,1.5699,0.768339,-1.55554,-0.524522,-0.0104491,-2.0943,-0.00744701,1.57028,0.764377,0.56319,-0.0119333,-0.390201,0.00822689,-0.235444,-0.000130717,-0.776747,0.637459,-0.0362872,-0.436787,0.00380376,-0.271433,-0.0188527,-0.878729,2.0926,-12.1372,-1.69854,21.8405,1.40199,1.97775,-1.27422,0.0186366,-1.33449,-0.54794,3.01998,0.965938,0.532818,-0.546651
749388,1,-1.55727,-0.523751,-0.00914924,-2.09631,-0.00754304,1.56989,0.767488,-1.55488,-0.524559,-0.0108959,-2.0943,-0.00772346,1.57026,0.763478,0.578284,-0.0133972,-0.404144,0.00916523,-0.247077,-0.000799222,-0.798111,0.652449,-0.0370752,-0.446777,0.00388637,-0.276448,-0.019201,-0.898719,1.96565,-12.0856,-1.62317,21.8405,1.41298,1.99697,-1.2614,0.0356566,-1.35608,-0.54453,3.01781,0.960101,0.527222,-0.565561
749389,1,-1.55664,-0.523772,-0.00956975,-2.09631,-0.00779689,1.56989,0.766625,-1.55422,-0.524597,-0.0113526,-2.09429,-0.0080046,1.57024,0.762559,0.59513,-0.0137991,-0.409851,0.00574934,-0.244721,-0.000295456,-0.835377,0.667439,-0.0378512,-0.456767,0.0039677,-0.281137,-0.0195267,-0.918709,1.91804,-12.0578,-1.5954,21.8882,1.36171,1.99057,-1.24859,0.0549016,-1.37706,-0.536133,3.01479,0.954322,0.521489,-0.584163
749390,1,-1.556,-0.523796,-0.0100075,-2.09631,-0.00806868,1.56989,0.765728,-1.55353,-0.524635,-0.0118194,-2.09429,-0.00829042,1.57022,0.76162,0.611521,-0.0164608,-0.415825,0.00645836,-0.251765,0.00146454,-0.855831,0.682429,-0.0386271,-0.466757,0.00404904,-0.285825,-0.0198523,-0.938699,1.84266,-12.0578,-1.5954,21.9397,1.41847,1.9457,-1.24859,0.0709157,-1.39757,-0.530928,3.01248,0.948345,0.515857,-0.602313
749391,1,-1.55533,-0.523818,-0.010457,-2.0963,-0.00834249,1.56989,0.764816,-1.55284,-0.524675,-0.0122961,-2.09428,-0.00858094,1.5702,0.760662,0.626341,-0.0185349,-0.429529,0.00500131,-0.255669,0.00240052,-0.87576,0.697419,-0.0394031,-0.476747,0.00413038,-0.290514,-0.020178,-0.958689,1.73951,-12.0578,-1.52002,21.9397,1.44686,1.90725,-1.28795,0.0810048,-1.41487,-0.532878,3.01015,0.942013,0.510283,-0.619929
749392,1,-1.55467,-0.523843,-0.0109157,-2.0963,-0.00861871,1.56989,0.763875,-1.55212,-0.524715,-0.0127829,-2.09428,-0.00887614,1.57018,0.759683,0.636549,-0.0201271,-0.431798,0.00329919,-0.26626,0.00254978,-0.906806,0.712409,-0.040179,-0.486737,0.00421172,-0.295202,-0.0205036,-0.978679,1.68794,-12.0578,-1.49621,21.9635,1.42397,1.88162,-1.14513,0.0871818,-1.4275,-0.539253,3.00753,0.935499,0.504702,-0.637005
749393,1,-1.55398,-0.52386,-0.0113844,-2.0963,-0.00890978,1.56988,0.76292,-1.5514,-0.524756,-0.0132796,-2.09427,-0.00917603,1.57016,0.758684,0.64675,-0.0195368,-0.441578,0.00259081,-0.269615,0.000750417,-0.918087,0.727399,-0.0409549,-0.496727,0.00429306,-0.299891,-0.0208293,-0.998669,1.66413,-12.1372,-1.42083,21.9635,1.42397,1.90725,-1.04809,0.0910926,-1.4384,-0.548534,3.00648,0.929033,0.499214,-0.653507
749394,1,-1.55327,-0.523885,-0.0118684,-2.09629,-0.00918839,1.56988,0.761933,-1.55065,-0.524798,-0.0137863,-2.09427,-0.00948061,1.57014,0.757666,0.661936,-0.0210623,-0.4516,0.00434077,-0.274819,0.000262919,-0.934624,0.742389,-0.0417309,-0.506717,0.00437439,-0.304579,-0.0211549,-1.01866,1.76332,-12.1372,-1.2185,21.8644,1.39009,1.91366,-1.01604,0.0946597,-1.4501,-0.557948,3.00745,0.922724,0.493786,-0.669309
749395,1,-1.55257,-0.52391,-0.0123583,-2.09629,-0.00947943,1.56988,0.760935,-1.5499,-0.52484,-0.014303,-2.09427,-0.00978988,1.57012,0.756627,0.675087,-0.0190266,-0.454647,0.00367079,-0.276362,0.000649997,-0.957951,0.757379,-0.0425068,-0.516707,0.00445573,-0.309268,-0.0214806,-1.03865,1.91804,-12.1372,-1.14312,21.8405,1.37911,1.90084,-0.957449,0.0973432,-1.46394,-0.567597,3.00977,0.916481,0.488309,-0.684204
749396,1,-1.55184,-0.523945,-0.0128584,-2.09629,-0.00977306,1.56987,0.759921,-1.54913,-0.524883,-0.0148297,-2.09426,-0.0101038,1.57009,0.755568,0.689887,-0.0266541,-0.467181,0.00149867,-0.286625,-0.000278745,-0.972562,0.772369,-0.0432828,-0.526697,0.00453707,-0.313957,-0.0218062,-1.05864,2.0688,-12.0102,-0.964597,21.8882,1.36171,1.92007,-1.08654,0.097292,-1.47825,-0.579917,3.01265,0.910169,0.482769,-0.698012
749397,1,-1.5511,-0.523974,-0.0133809,-2.09629,-0.0100692,1.56987,0.758887,-1.54834,-0.524928,-0.0153664,-2.09426,-0.0104225,1.57007,0.75449,0.710013,-0.0272428,-0.488767,0.00279337,-0.288129,0.00171304,-0.997379,0.787359,-0.0440587,-0.536687,0.00461841,-0.318645,-0.0221319,-1.07863,2.0688,-11.9586,-0.81384,21.8167,1.29946,1.8688,-1.12591,0.0982969,-1.48623,-0.588174,3.01338,0.903887,0.477058,-0.710713
749398,1,-1.55034,-0.524005,-0.0139301,-2.09629,-0.0103709,1.56987,0.757819,-1.54754,-0.524972,-0.0159131,-2.09425,-0.0107458,1.57005,0.753391,0.730767,-0.0277014,-0.505312,0.00260473,-0.290923,0.00260009,-1.03126,0.802349,-0.0448347,-0.546677,0.00469975,-0.323334,-0.0224575,-1.09862,2.0926,-11.9071,-0.611508,21.789,1.29396,1.82943,-1.16436,0.105734,-1.48675,-0.582228,3.01055,0.897771,0.471065,-0.722479
749399,1,-1.54956,-0.524032,-0.0144762,-2.09629,-0.0106851,1.56987,0.756731,-1.54672,-0.525018,-0.0164697,-2.09425,-0.0110734,1.57003,0.752273,0.743664,-0.0255726,-0.514812,0.00180614,-0.295931,0.00197075,-1.04768,0.817021,-0.0455774,-0.556667,0.0047776,-0.32763,-0.0227559,-1.11861,2.16798,-11.9586,-0.409177,21.789,1.34523,1.82302,-1.28795,0.120149,-1.48706,-0.560544,3.00687,0.891791,0.464931,-0.733525
749400,1,-1.54879,-0.524063,-0.0150343,-2.09629,-0.011002,1.56987,0.755626,-1.54589,-0.525064,-0.0170364,-2.09424,-0.0114054,1.57,0.751134,0.757614,-0.0259209,-0.523153,0.00125633,-0.299516,0.00226327,-1.06662,0.831693,-0.0463202,-0.566657,0.00485546,-0.331926,-0.0230543,-1.1386,2.37031,-11.9348,-0.357602,21.789,1.40199,1.79739,-1.2614,0.13905,-1.49399,-0.528264,3.00575,0.885853,0.45886,-0.744091
749401,1,-1.54799,-0.524093,-0.0155987,-2.09628,-0.0113291,1.56986,0.754496,-1.54504,-0.525111,-0.017613,-2.09424,-0.0117416,1.56998,0.749975,0.769412,-0.0249334,-0.548387,0.000876733,-0.31058,0.00127149,-1.07883,0.846365,-0.0470629,-0.576647,0.00493332,-0.336222,-0.0233527,-1.15859,2.46949,-11.9586,-0.230649,21.789,1.45784,1.8038,-1.33281,0.16489,-1.51014,-0.483056,3.00857,0.880173,0.452924,-0.754466
749402,1,-1.54719,-0.524132,-0.0161768,-2.09628,-0.0116526,1.56986,0.753355,-1.54418,-0.525159,-0.0181997,-2.09423,-0.0120821,1.56996,0.748797,0.78978,-0.0267164,-0.56049,0.000613873,-0.314491,0.00227181,-1.09564,0.861037,-0.0478057,-0.586637,0.00501117,-0.340518,-0.0236511,-1.17858,2.62422,-11.8833,-0.1275,21.789,1.50911,1.76535,-1.29436,0.202985,-1.53429,-0.417095,3.01472,0.875151,0.447063,-0.764897
749403,1,-1.54637,-0.524166,-0.0167682,-2.09629,-0.0119791,1.56986,0.752181,-1.5433,-0.525208,-0.0187963,-2.09423,-0.0124269,1.56993,0.747598,0.80495,-0.0266643,-0.568785,-0.00133195,-0.315467,0.00412549,-1.11491,0.875709,-0.0485484,-0.596627,0.00508903,-0.344814,-0.0239494,-1.19857,2.7234,-11.8595,-0.179074,21.8644,1.50911,1.69485,-1.26781,0.249504,-1.5636,-0.336338,3.02319,0.87074,0.441182,-0.7755
749404,1,-1.54551,-0.5242,-0.0173718,-2.09629,-0.0123129,1.56986,0.750993,-1.54241,-0.525257,-0.0194029,-2.09422,-0.012776,1.56991,0.74638,0.822964,-0.0299301,-0.576465,-0.000871439,-0.320679,0.00468311,-1.13247,0.89038,-0.0492911,-0.606617,0.00516689,-0.34911,-0.0242478,-1.21856,2.59645,-11.8317,-0.202878,21.8644,1.49172,1.64266,-1.31359,0.295601,-1.59428,-0.255205,3.03275,0.866623,0.435123,-0.786256
749405,1,-1.54466,-0.524229,-0.0179856,-2.09628,-0.0126461,1.56985,0.749797,-1.54151,-0.525307,-0.0200195,-2.09422,-0.0131294,1.56988,0.745141,0.838781,-0.0292362,-0.589085,-1.17506e-05,-0.322216,0.00430887,-1.15957,0.905052,-0.0500339,-0.616607,0.00524474,-0.353406,-0.0245462,-1.23855,2.59645,-11.9348,-0.282224,21.8405,1.41298,1.61062,-1.255,0.336862,-1.6224,-0.181341,3.04138,0.862625,0.428608,-0.797104
749406,1,-1.54378,-0.524269,-0.0186033,-2.09628,-0.0129947,1.56984,0.748583,-1.54059,-0.525358,-0.0206461,-2.09421,-0.0134871,1.56986,0.743883,0.852603,-0.0321344,-0.595335,1.46362e-06,-0.329995,0.00121106,-1.17347,0.919724,-0.0507766,-0.626597,0.0053226,-0.357702,-0.0248446,-1.25854,2.52107,-11.9071,-0.432981,21.8405,1.39559,1.65548,-1.29436,0.372744,-1.64613,-0.116283,3.04779,0.858678,0.421446,-0.807994
749407,1,-1.54287,-0.524301,-0.0192136,-2.09627,-0.0133386,1.56983,0.747354,-1.53965,-0.525409,-0.0212827,-2.09421,-0.0138491,1.56983,0.742604,0.868053,-0.0323393,-0.596638,0.00288481,-0.336117,-0.00593601,-1.20213,0.934396,-0.0515194,-0.636587,0.00540046,-0.361998,-0.025143,-1.27853,2.31874,-11.9586,-0.611508,21.7176,1.36812,1.70767,-1.22295,0.400805,-1.66411,-0.0648602,3.05123,0.854559,0.413594,-0.818836
749408,1,-1.54197,-0.52434,-0.0198437,-2.09627,-0.0137015,1.56982,0.746091,-1.5387,-0.525462,-0.0219293,-2.0942,-0.0142154,1.56981,0.741306,0.883569,-0.031111,-0.602092,0.00496353,-0.341252,-0.00832286,-1.22065,0.949068,-0.0522621,-0.646577,0.00547831,-0.366294,-0.0254414,-1.29852,2.16798,-11.9348,-0.81384,21.7176,1.35072,1.68844,-1.14513,0.416431,-1.67725,-0.0348404,3.05139,0.849929,0.405115,-0.829511
749409,1,-1.54104,-0.524384,-0.0204787,-2.09627,-0.0140623,1.56981,0.744794,-1.53774,-0.525515,-0.0225859,-2.0942,-0.0145856,1.56978,0.739988,0.899327,-0.0345339,-0.611556,0.00300906,-0.344303,-0.0104329,-1.23856,0.962976,-0.0529549,-0.656567,0.00555093,-0.370157,-0.0257097,-1.31784,2.0688,-11.8595,-0.988401,21.7414,1.31685,1.67471,-0.963857,0.419208,-1.68789,-0.0266143,3.04919,0.844683,0.396224,-0.839892
749410,1,-1.54012,-0.524428,-0.021134,-2.09627,-0.014426,1.5698,0.743507,-1.53677,-0.525568,-0.0232524,-2.09419,-0.0149596,1.56976,0.738651,0.908199,-0.0402,-0.626971,0.00219867,-0.349859,-0.0108347,-1.25161,0.976884,-0.0536476,-0.666557,0.00562355,-0.37402,-0.025978,-1.33716,1.96565,-11.7801,-1.03998,21.7414,1.36812,1.62985,-0.892446,0.416043,-1.69227,-0.0293561,3.04423,0.839073,0.387084,-0.849798
749411,1,-1.53917,-0.524464,-0.0217981,-2.09628,-0.0147959,1.56979,0.742186,-1.53577,-0.525623,-0.023929,-2.09418,-0.0153375,1.56973,0.737294,0.911865,-0.0418574,-0.637869,-0.000709791,-0.355407,-0.0112254,-1.26412,0.990792,-0.0543404,-0.676547,0.00569617,-0.377883,-0.0262464,-1.35649,2.01722,-11.8079,-1.14312,21.8405,1.35072,1.58499,-0.841177,0.418498,-1.68602,-0.0262615,3.03589,0.833633,0.377782,-0.858988
749412,1,-1.5382,-0.524508,-0.0224627,-2.09627,-0.015174,1.56978,0.740872,-1.53477,-0.525678,-0.0246155,-2.09418,-0.0157192,1.5697,0.735918,0.928219,-0.041938,-0.643197,0.00323781,-0.369593,-0.0129772,-1.26882,1.0047,-0.0550331,-0.686537,0.00576879,-0.381747,-0.0265147,-1.37581,2.04103,-11.7563,-1.11535,21.8167,1.39559,1.57217,-1.09386,0.431211,-1.67176,-0.0110864,3.02538,0.82866,0.368329,-0.867189
749413,1,-1.53723,-0.52455,-0.0231444,-2.09627,-0.015546,1.56977,0.739534,-1.53375,-0.525733,-0.025312,-2.09417,-0.0161048,1.56968,0.734523,0.945853,-0.0400599,-0.649115,0.00193682,-0.363706,-0.00563188,-1.29632,1.01861,-0.0557259,-0.696527,0.0058414,-0.38561,-0.026783,-1.39513,1.99342,-11.7801,-1.16693,21.8405,1.32234,1.4559,-1.16436,0.446816,-1.65619,0.0058942,3.0143,0.823868,0.358567,-0.874276
749414,1,-1.53624,-0.524586,-0.0238288,-2.09627,-0.0159353,1.56977,0.738151,-1.53272,-0.52579,-0.0260185,-2.09417,-0.0164943,1.56965,0.733109,0.954059,-0.0375401,-0.659986,0.00154253,-0.371446,-0.00656833,-1.31961,1.03251,-0.0564186,-0.706517,0.00591402,-0.389473,-0.0270514,-1.41445,2.01722,-11.8595,-1.16693,21.8405,1.32784,1.37899,-1.15154,0.459582,-1.64837,0.0171812,3.00614,0.819049,0.348521,-0.880458
749415,1,-1.53526,-0.52463,-0.0245288,-2.09627,-0.0163225,1.56975,0.736773,-1.53167,-0.525847,-0.0267351,-2.09416,-0.0168877,1.56962,0.731675,0.960269,-0.0413997,-0.672924,0.00242326,-0.367982,-0.00549411,-1.33747,1.04642,-0.0571114,-0.716507,0.00598664,-0.393337,-0.0273197,-1.43377,2.16798,-11.8317,-1.09155,21.789,1.31685,1.37899,-1.21013,0.474467,-1.65126,0.0299924,3.00237,0.814434,0.338203,-0.886113
749416,1,-1.53424,-0.524679,-0.0252408,-2.09626,-0.0167172,1.56972,0.735348,-1.53061,-0.525905,-0.0274615,-2.09415,-0.0172849,1.56959,0.730222,0.971704,-0.0453077,-0.681949,0.00342731,-0.3721,-0.00711011,-1.36486,1.06033,-0.0578042,-0.726497,0.00605926,-0.3972,-0.027588,-1.4531,2.16798,-11.7563,-1.16693,21.7176,1.37361,1.44949,-1.13872,0.497465,-1.65562,0.0527163,2.99856,0.81017,0.327237,-0.89156
749417,1,-1.53321,-0.524729,-0.0259582,-2.09627,-0.0171124,1.56969,0.733905,-1.52954,-0.525963,-0.028198,-2.09415,-0.0176859,1.56957,0.728749,0.989284,-0.0481634,-0.695889,0.00183409,-0.380702,-0.0167314,-1.38191,1.07424,-0.0584969,-0.736487,0.00613187,-0.401063,-0.0278563,-1.47242,2.16798,-11.6809,-1.09155,21.7414,1.43587,1.62985,-1.14513,0.527901,-1.65289,0.0848869,2.99142,0.806169,0.315523,-0.896963
749418,1,-1.53218,-0.524781,-0.026691,-2.09627,-0.0175141,1.56967,0.732461,-1.52845,-0.526022,-0.0289445,-2.09414,-0.0180908,1.56954,0.727258,0.999958,-0.0469661,-0.706634,0.000745429,-0.385516,-0.0176248,-1.40133,1.08815,-0.0591897,-0.746477,0.00620449,-0.404927,-0.0281247,-1.49174,2.29493,-11.6056,-1.16693,21.7652,1.46974,1.65548,-1.08013,0.563305,-1.64523,0.123995,2.98334,0.802461,0.303618,-0.902349
749419,1,-1.53112,-0.52483,-0.0274047,-2.09627,-0.0179189,1.56966,0.730984,-1.52735,-0.526082,-0.029701,-2.09414,-0.0184992,1.56951,0.725748,1.01657,-0.0478343,-0.721241,0.000556591,-0.387135,-0.0183763,-1.42941,1.10094,-0.0598192,-0.756467,0.00627048,-0.408333,-0.0283613,-1.50943,2.0926,-11.5778,-1.39306,21.7652,1.47524,1.55294,-1.06731,0.602903,-1.63943,0.169576,2.97782,0.799219,0.29213,-0.907679
749420,1,-1.53003,-0.52488,-0.028142,-2.09627,-0.0183184,1.56965,0.729529,-1.52623,-0.526143,-0.0304674,-2.09413,-0.0189109,1.56948,0.724221,1.06235,-0.0486757,-0.720197,-0.000790636,-0.392648,-0.0155942,-1.44425,1.11373,-0.0604487,-0.766457,0.00633646,-0.411739,-0.0285979,-1.52712,1.76332,-11.554,-1.54779,21.8167,1.44136,1.47512,-1.23577,0.634897,-1.63847,0.206119,2.97599,0.796005,0.281238,-0.912805
749421,1,-1.52892,-0.524926,-0.0288716,-2.09626,-0.0187253,1.56964,0.728027,-1.52511,-0.526204,-0.0312439,-2.09412,-0.0193261,1.56945,0.722676,1.08149,-0.0475727,-0.711335,0.00015607,-0.393799,-0.0147443,-1.45389,1.12652,-0.0610782,-0.776447,0.00640245,-0.415146,-0.0288344,-1.54482,1.438,-11.6056,-1.90088,21.789,1.33425,1.42385,-1.28063,0.634646,-1.64325,0.199145,2.97812,0.791673,0.270755,-0.917578
749422,1,-1.5278,-0.524975,-0.0296048,-2.09625,-0.0191328,1.56961,0.726504,-1.52397,-0.526265,-0.0320303,-2.09412,-0.0197446,1.56942,0.721114,1.08847,-0.0482232,-0.719094,0.00300607,-0.39748,-0.0182124,-1.46615,1.13931,-0.0617077,-0.786437,0.00646844,-0.418552,-0.029071,-1.56251,1.18409,-11.6056,-2.23016,21.666,1.27199,1.48153,-1.35845,0.594765,-1.65358,0.135992,2.98301,0.785781,0.260331,-0.922124
749423,1,-1.52668,-0.525025,-0.0303542,-2.09626,-0.0195363,1.56959,0.724979,-1.52282,-0.526328,-0.0328267,-2.09411,-0.0201666,1.56939,0.719534,1.10186,-0.0461696,-0.722526,-0.000297134,-0.404795,-0.0195606,-1.48316,1.1521,-0.0623372,-0.796427,0.00653442,-0.421958,-0.0293076,-1.5802,1.00953,-11.5778,-2.58325,21.7652,1.21523,1.51449,-1.32,0.529748,-1.6699,0.0352545,2.99016,0.778887,0.249891,-0.926757
749424,1,-1.52554,-0.525082,-0.0311208,-2.09626,-0.0199605,1.56958,0.723382,-1.52165,-0.526391,-0.0336332,-2.0941,-0.0205919,1.56937,0.717936,1.11708,-0.0520728,-0.732094,0.000929687,-0.406627,-0.0166397,-1.51002,1.16489,-0.0629667,-0.806417,0.00660041,-0.425364,-0.0295442,-1.59789,0.858776,-11.5024,-2.86493,21.7176,1.21523,1.44308,-0.938223,0.45239,-1.69073,-0.0849533,2.99946,0.771473,0.239551,-0.931715
749425,1,-1.52437,-0.525141,-0.031909,-2.09625,-0.0203887,1.56956,0.721808,-1.52047,-0.526454,-0.0344496,-2.0941,-0.0210207,1.56934,0.71632,1.12896,-0.0568576,-0.745753,0.00128002,-0.412061,-0.019509,-1.52937,1.17768,-0.0635962,-0.816407,0.0066664,-0.428771,-0.0297808,-1.61558,0.60487,-11.4032,-2.83716,21.6898,1.29396,1.50167,-0.782583,0.372226,-1.70512,-0.21022,3.00595,0.76378,0.229039,-0.936958
749426,1,-1.52322,-0.525203,-0.0326995,-2.09626,-0.0208162,1.56954,0.720205,-1.51928,-0.526518,-0.035276,-2.09409,-0.0214529,1.56931,0.714687,1.13899,-0.0608277,-0.756398,-0.000345119,-0.417177,-0.020918,-1.5498,1.19047,-0.0642257,-0.826397,0.00673238,-0.432177,-0.0300174,-1.63328,0.553295,-11.2763,-2.98791,21.7414,1.29396,1.54653,-0.718496,0.299264,-1.7036,-0.325475,3.00539,0.756175,0.218162,-0.942061
749427,1,-1.52205,-0.525257,-0.0334951,-2.09625,-0.021254,1.5695,0.718588,-1.51808,-0.526583,-0.0361124,-2.09408,-0.0218885,1.56928,0.713036,1.13832,-0.0608057,-0.768854,-0.000224109,-0.415634,-0.0242303,-1.57096,1.20326,-0.0648552,-0.836387,0.00679837,-0.435583,-0.030254,-1.65097,0.628673,-11.2763,-3.01568,21.7414,1.27748,1.65548,-0.847585,0.242254,-1.68799,-0.418303,2.99919,0.749176,0.207213,-0.946493
749428,1,-1.52088,-0.525315,-0.0343136,-2.09625,-0.0216856,1.56948,0.716967,-1.51686,-0.526649,-0.0369587,-2.09408,-0.0223275,1.56924,0.711367,1.13661,-0.0615683,-0.783658,0.00161831,-0.420692,-0.021409,-1.55975,1.21605,-0.0654847,-0.846377,0.00686436,-0.438989,-0.0304905,-1.66866,0.656444,-11.2525,-2.91253,21.666,1.28298,1.62985,-0.938223,0.211162,-1.66487,-0.475422,2.9897,0.743351,0.196504,-0.94999
749429,1,-1.51968,-0.525365,-0.0351259,-2.09624,-0.0221144,1.56948,0.715285,-1.51564,-0.526715,-0.0378149,-2.09407,-0.0227694,1.56921,0.709683,1.14838,-0.0591878,-0.786774,0.00228866,-0.424792,-0.0157937,-1.59164,1.22744,-0.0660405,-0.856164,0.00692262,-0.441924,-0.0306943,-1.68415,0.680248,-11.3517,-3.11487,21.6144,1.20333,1.50167,-0.841177,0.208172,-1.64103,-0.494469,2.97852,0.738859,0.186118,-0.952588
749430,1,-1.51845,-0.525421,-0.0359511,-2.09624,-0.0225481,1.56945,0.713603,-1.5144,-0.526781,-0.0386808,-2.09406,-0.0232142,1.56918,0.707983,1.17062,-0.0596216,-0.798416,0.00457413,-0.438083,-0.0174935,-1.61556,1.23884,-0.0665963,-0.865951,0.00698088,-0.444858,-0.0308982,-1.69964,0.581066,-11.3755,-3.11487,21.6144,1.17586,1.5209,-0.989492,0.220763,-1.62235,-0.492492,2.96738,0.735178,0.176014,-0.954347
749431,1,-1.51722,-0.525482,-0.0368072,-2.09624,-0.0229959,1.56942,0.711929,-1.51315,-0.526849,-0.0395566,-2.09406,-0.023662,1.56915,0.706268,1.18637,-0.0583009,-0.807898,0.00658397,-0.434112,-0.0182512,-1.63377,1.25023,-0.0671521,-0.875738,0.00703914,-0.447792,-0.031102,-1.71512,0.426342,-11.3279,-2.9403,21.6144,1.22072,1.52731,-1.10668,0.235364,-1.61122,-0.486818,2.95697,0.731608,0.166097,-0.955329
749432,1,-1.51598,-0.525545,-0.0376498,-2.09624,-0.0234661,1.5694,0.710209,-1.51189,-0.526916,-0.0404421,-2.09405,-0.0241128,1.56912,0.704538,1.19505,-0.0602747,-0.818282,0.00244148,-0.437909,-0.0188984,-1.65954,1.26163,-0.0677079,-0.885525,0.00709741,-0.450727,-0.0313058,-1.73061,0.553295,-11.2763,-2.98791,21.7176,1.33425,1.54013,-1.16436,0.24764,-1.60816,-0.48253,2.94844,0.727847,0.156489,-0.955801
749433,1,-1.51477,-0.525615,-0.0385172,-2.09625,-0.0239251,1.56937,0.70851,-1.51061,-0.526985,-0.0413374,-2.09404,-0.0245664,1.56909,0.702792,1.19534,-0.0605368,-0.827693,-0.000343635,-0.440619,-0.0220381,-1.67286,1.27302,-0.0682637,-0.895313,0.00715567,-0.453661,-0.0315096,-1.7461,0.957958,-11.1493,-2.96411,21.8167,1.44686,1.50167,-1.22936,0.261479,-1.61384,-0.474858,2.94495,0.724201,0.14764,-0.95617
749434,1,-1.51352,-0.525671,-0.0394182,-2.09624,-0.0243819,1.56936,0.706772,-1.50933,-0.527053,-0.0422425,-2.09403,-0.025023,1.56906,0.70103,1.21227,-0.0563644,-0.845182,0.00328196,-0.445021,-0.0170316,-1.70049,1.28442,-0.0688195,-0.9051,0.00721393,-0.456595,-0.0317134,-1.76159,1.08491,-11.2009,-2.73797,21.8167,1.5146,1.3854,-1.23577,0.282758,-1.63032,-0.456138,2.94836,0.721204,0.139717,-0.95681
749435,1,-1.51225,-0.525732,-0.0403127,-2.09624,-0.0248316,1.56934,0.704973,-1.50803,-0.527123,-0.0431574,-2.09403,-0.0254825,1.56903,0.699253,1.21956,-0.0578654,-0.859119,0.00330455,-0.442274,-0.0178983,-1.7284,1.29582,-0.0693753,-0.914887,0.00727219,-0.45953,-0.0319172,-1.77707,1.10871,-11.2009,-2.48407,21.789,1.39559,1.3854,-0.898855,0.314233,-1.65815,-0.421962,2.95711,0.719196,0.132326,-0.957987
749436,1,-1.51099,-0.525791,-0.0412236,-2.09623,-0.0252845,1.5693,0.703245,-1.50673,-0.527193,-0.0440821,-2.09402,-0.025945,1.56899,0.69746,1.23157,-0.0588033,-0.870044,0.0042237,-0.444308,-0.0276798,-1.73213,1.30721,-0.0699311,-0.924674,0.00733045,-0.462464,-0.032121,-1.79256,1.18409,-11.2009,-2.38092,21.7176,1.37911,1.50808,-0.989492,0.355867,-1.69223,-0.372361,2.96836,0.718221,0.125109,-0.959704
749437,1,-1.50971,-0.525851,-0.0421495,-2.09622,-0.0257379,1.56927,0.701459,-1.50541,-0.527263,-0.0450165,-2.09401,-0.0264104,1.56896,0.695652,1.24017,-0.0594583,-0.903198,0.00604813,-0.447311,-0.0245274,-1.74323,1.31861,-0.070487,-0.934461,0.00738871,-0.465398,-0.0323248,-1.80805,1.28724,-11.2009,-2.25396,21.5906,1.30586,1.48794,-1.00323,0.411414,-1.72658,-0.301386,2.97957,0.718326,0.117943,-0.961725
749438,1,-1.50842,-0.525914,-0.0430804,-2.09623,-0.0262111,1.56925,0.699667,-1.50408,-0.527334,-0.0459608,-2.094,-0.0268787,1.56893,0.693829,1.24992,-0.0588741,-0.920342,0.00302267,-0.452828,-0.0270887,-1.76322,1.33,-0.0710428,-0.944248,0.00744698,-0.468333,-0.0325286,-1.82353,1.53718,-11.1255,-2.17859,21.6422,1.41847,1.46871,-1.16436,0.489271,-1.76022,-0.19538,2.99026,0.719779,0.110902,-0.963879
749439,1,-1.50714,-0.525974,-0.0440329,-2.09622,-0.0266777,1.56922,0.697857,-1.50274,-0.527406,-0.046914,-2.094,-0.0273495,1.5689,0.691992,1.27294,-0.0595291,-0.928939,0.00216286,-0.449892,-0.0292431,-1.78924,1.33978,-0.0715167,-0.95322,0.00749666,-0.470786,-0.032699,-1.83649,1.51338,-11.1255,-2.0794,21.6422,1.47524,1.4559,-1.0609,0.584514,-1.79603,-0.06113,3.00293,0.722299,0.104291,-0.966107
749440,1,-1.50579,-0.526047,-0.0449571,-2.09622,-0.0271426,1.5692,0.695991,-1.50139,-0.527478,-0.0478762,-2.09399,-0.0278228,1.56886,0.690143,1.29094,-0.0644187,-0.925504,0.00155272,-0.458037,-0.0269148,-1.81302,1.34957,-0.0719907,-0.962191,0.00754634,-0.47324,-0.0328694,-1.84944,0.934154,-10.947,-2.35711,21.6422,1.43038,1.46231,-0.679128,0.675574,-1.83159,0.0688472,3.01752,0.724863,0.0980617,-0.968341
749441,1,-1.50441,-0.526117,-0.0459109,-2.09622,-0.027606,1.56915,0.694152,-1.50003,-0.52755,-0.0488474,-2.09398,-0.0282985,1.56883,0.68828,1.32731,-0.0689311,-0.928663,0.00176787,-0.460511,-0.0315176,-1.82683,1.35935,-0.0724647,-0.971163,0.00759603,-0.475693,-0.0330398,-1.86239,-0.00212494,-10.8478,-2.50787,21.6144,1.40199,1.64266,-0.530813,0.738691,-1.8576,0.159237,3.02997,0.726336,0.0917474,-0.970288
749442,1,-1.50304,-0.526195,-0.0468534,-2.09621,-0.0280772,1.56911,0.692297,-1.49866,-0.527623,-0.0498275,-2.09397,-0.0287766,1.5688,0.686405,1.33501,-0.0716838,-0.926644,0.00658069,-0.463003,-0.030074,-1.83119,1.36914,-0.0729387,-0.980134,0.00764571,-0.478147,-0.0332103,-1.87534,-0.379017,-10.6455,-3.03949,21.5152,1.42397,1.70126,-0.575674,0.760153,-1.86617,0.190543,3.03564,0.725975,0.0849318,-0.97138
749443,1,-1.50168,-0.526264,-0.0477859,-2.09621,-0.0285499,1.56909,0.690423,-1.49728,-0.527697,-0.0508166,-2.09397,-0.0292572,1.56876,0.684517,1.33375,-0.0711554,-0.931163,0.0079605,-0.464166,-0.0294713,-1.86273,1.37892,-0.0734127,-0.989105,0.0076954,-0.4806,-0.0333807,-1.88829,-0.430592,-10.5423,-3.72583,21.5152,1.39559,1.64907,-0.711172,0.74588,-1.85652,0.170231,3.03186,0.724015,0.0775055,-0.971172
749444,1,-1.5003,-0.526329,-0.0487625,-2.09621,-0.0290211,1.56906,0.688577,-1.49589,-0.52777,-0.0518147,-2.09396,-0.0297403,1.56873,0.682616,1.35297,-0.0681539,-0.943187,0.00515409,-0.465708,-0.0283154,-1.85943,1.3887,-0.0738866,-0.998077,0.00774508,-0.483053,-0.0335511,-1.90124,-0.78368,-10.5423,-3.84881,21.543,1.39009,1.56576,-0.925405,0.710995,-1.83909,0.119396,3.02291,0.721313,0.0700195,-0.969597
749445,1,-1.49889,-0.526402,-0.0497288,-2.09621,-0.0294773,1.56904,0.68665,-1.49449,-0.527845,-0.0528217,-2.09395,-0.0302258,1.5687,0.680701,1.36884,-0.0692126,-0.952295,0.00628926,-0.463837,-0.0205644,-1.87798,1.39849,-0.0743606,-1.00705,0.00779477,-0.485507,-0.0337215,-1.91419,-1.26372,-10.4154,-3.92816,21.5668,1.17586,1.41745,-0.782583,0.663411,-1.82595,0.0514308,3.01538,0.718352,0.0630486,-0.966951
749446,1,-1.49749,-0.526472,-0.0507067,-2.09622,-0.0299241,1.56902,0.684742,-1.49309,-0.52792,-0.0538377,-2.09394,-0.0307137,1.56866,0.678774,1.37438,-0.0675916,-0.961613,0.0018485,-0.455614,-0.0238081,-1.88893,1.40827,-0.0748346,-1.01602,0.00784445,-0.48796,-0.0338919,-1.92714,-1.61681,-10.3916,-4.05114,21.6898,0.881059,1.37899,-0.588491,0.607534,-1.82165,-0.0257018,3.01232,0.715247,0.056709,-0.963666
749447,1,-1.49608,-0.526544,-0.0517131,-2.0962,-0.030396,1.56898,0.682817,-1.49167,-0.527995,-0.0548627,-2.09393,-0.0312041,1.56863,0.676834,1.37918,-0.0696775,-0.967386,0.00571501,-0.458528,-0.0289495,-1.90494,1.41805,-0.0753086,-1.02499,0.00789414,-0.490414,-0.0340623,-1.94009,-1.58904,-10.3678,-3.92816,21.5152,0.841692,1.41745,-0.627859,0.549758,-1.82585,-0.102975,3.01448,0.711934,0.0509646,-0.959938
749448,1,-1.49467,-0.526619,-0.0527083,-2.09619,-0.0308794,1.56894,0.680859,-1.49024,-0.528071,-0.0558967,-2.09393,-0.031697,1.56859,0.674881,1.3818,-0.072591,-0.977769,0.0082057,-0.465779,-0.0286217,-1.91667,1.42784,-0.0757826,-1.03396,0.00794382,-0.492867,-0.0342327,-1.95304,-1.23595,-10.2924,-3.92816,21.4676,0.915849,1.46871,-0.582083,0.496348,-1.83051,-0.172216,3.01731,0.708142,0.045311,-0.95571
749449,1,-1.49326,-0.526691,-0.0536979,-2.09618,-0.0313703,1.56889,0.678927,-1.4888,-0.528147,-0.0569383,-2.09392,-0.0321918,1.56856,0.672918,1.38864,-0.0708158,-0.976513,0.0118628,-0.469813,-0.0334937,-1.9335,1.43584,-0.0761685,-1.04165,0.00798427,-0.494834,-0.0343693,-1.96329,-1.16057,-10.2408,-4.1781,21.3446,1.1191,1.6683,-0.647085,0.449353,-1.82847,-0.231566,3.01571,0.703578,0.0391932,-0.950906
749450,1,-1.49179,-0.526773,-0.0546843,-2.09618,-0.0318567,1.56883,0.676927,-1.48736,-0.528223,-0.0579877,-2.09391,-0.0326886,1.56853,0.670944,1.40389,-0.0754085,-0.976301,0.00740332,-0.473959,-0.0403132,-1.95349,1.44385,-0.0765544,-1.04933,0.00802473,-0.496801,-0.0345059,-1.97353,-1.46209,-10.0623,-4.4082,21.3922,1.24361,1.84225,-0.485037,0.401489,-1.82055,-0.292732,3.0106,0.697942,0.0328492,-0.945475
749451,1,-1.4903,-0.526856,-0.0557067,-2.09618,-0.0323482,1.56879,0.674957,-1.48591,-0.5283,-0.0590447,-2.0939,-0.0331874,1.56849,0.668961,1.45859,-0.075199,-0.984687,0.00612004,-0.4775,-0.0390751,-1.95642,1.45186,-0.0769403,-1.05702,0.00806518,-0.498768,-0.0346426,-1.98377,-2.14446,-9.91153,-4.4082,21.4914,1.37361,1.85507,-0.497854,0.334732,-1.80997,-0.379445,3.00619,0.690762,0.0270481,-0.939326
749452,1,-1.48882,-0.526932,-0.0567146,-2.09618,-0.03283,1.56877,0.672963,-1.48445,-0.528378,-0.0601094,-2.09389,-0.0336881,1.56846,0.666967,1.4651,-0.0757078,-0.988343,0.00235624,-0.473584,-0.0373712,-1.96594,1.45986,-0.0773262,-1.06471,0.00810564,-0.500735,-0.0347792,-1.99402,-2.12066,-9.85995,-4.73748,21.5906,1.34523,1.70767,-0.685537,0.234733,-1.80204,-0.507899,3.00677,0.681881,0.0224635,-0.932356
749453,1,-1.48737,-0.527,-0.0577142,-2.09618,-0.0333323,1.56875,0.670957,-1.48298,-0.528455,-0.0611818,-2.09389,-0.0341908,1.56842,0.664962,1.45877,-0.0732528,-0.990394,0.00081159,-0.478318,-0.0285453,-1.97486,1.46787,-0.0777122,-1.07239,0.00814609,-0.502702,-0.0349158,-2.00426,-1.64061,-9.93533,-5.01519,21.6422,1.36171,1.46871,-0.879629,0.110648,-1.80234,-0.665978,3.01502,0.672275,0.019379,-0.924703
749454,1,-1.48591,-0.527069,-0.0587653,-2.09617,-0.0338207,1.56873,0.668976,-1.4815,-0.528534,-0.0622619,-2.09388,-0.0346955,1.56839,0.662948,1.45525,-0.0678809,-1.00244,0.00456951,-0.479315,-0.0219311,-1.97869,1.47588,-0.0780981,-1.08008,0.00818654,-0.504669,-0.0350524,-2.0145,-1.48986,-10.0385,-4.83667,21.6144,1.32234,1.33413,-1.00963,-0.0137346,-1.81564,-0.82443,3.03103,0.66345,0.0174322,-0.916849
749455,1,-1.48441,-0.527139,-0.059834,-2.09616,-0.0342965,1.56869,0.666927,-1.48002,-0.528612,-0.0633496,-2.09387,-0.0352022,1.56835,0.660923,1.4577,-0.0653725,-1.01683,0.00522194,-0.479608,-0.0220424,-1.99558,1.48388,-0.078484,-1.08776,0.008227,-0.506636,-0.035189,-2.02474,-1.64061,-10.0901,-4.55896,21.543,1.16396,1.33413,-0.801809,-0.118648,-1.84504,-0.957527,3.0531,0.656419,0.0158758,-0.909426
749456,1,-1.48294,-0.52721,-0.0608956,-2.09615,-0.0347864,1.56864,0.66489,-1.47853,-0.528691,-0.0644451,-2.09386,-0.0357108,1.56832,0.658888,1.46286,-0.0668169,-1.0326,0.0050666,-0.485059,-0.0329369,-2.04916,1.49189,-0.0788699,-1.09545,0.00826745,-0.508603,-0.0353257,-2.03499,-1.41448,-10.1377,-4.28125,21.4914,1.1017,1.50808,-0.491445,-0.193748,-1.88759,-1.05029,3.07932,0.65155,0.0143091,-0.902842
749457,1,-1.48145,-0.527294,-0.0619909,-2.09614,-0.0352832,1.56859,0.66286,-1.47703,-0.52877,-0.0655482,-2.09385,-0.0362213,1.56828,0.656843,1.47421,-0.071907,-1.04961,0.00901585,-0.481211,-0.0337633,-2.0268,1.49989,-0.0792559,-1.10313,0.00830791,-0.51057,-0.0354623,-2.04523,-1.03362,-10.0107,-3.82501,21.3922,1.09072,1.62985,-0.504263,-0.23737,-1.93083,-1.09877,3.10462,0.648534,0.0124594,-0.89701
749458,1,-1.47997,-0.527374,-0.0630785,-2.09613,-0.0357918,1.56857,0.660813,-1.47552,-0.52885,-0.066659,-2.09385,-0.0367339,1.56824,0.654787,1.47951,-0.0744144,-1.05674,0.0115212,-0.4877,-0.0299756,-2.02936,1.5079,-0.0796418,-1.11082,0.00834836,-0.512537,-0.0355989,-2.05547,-0.557545,-9.93533,-3.39654,21.3169,1.06783,1.51449,-0.634268,-0.253919,-1.95929,-1.10844,3.12097,0.646599,0.0098052,-0.89153
749459,1,-1.47847,-0.527469,-0.0641753,-2.09613,-0.0362907,1.56853,0.658767,-1.47401,-0.52893,-0.0677759,-2.09384,-0.0372479,1.56821,0.652724,1.48838,-0.0807905,-1.06297,0.00533402,-0.494418,-0.0329882,-2.04012,1.51401,-0.079935,-1.11687,0.0083791,-0.514015,-0.0357015,-2.06295,-0.529774,-9.65762,-3.14264,21.4438,1.09072,1.54653,-0.569265,-0.251809,-1.96584,-1.0923,3.12589,0.645054,0.00629499,-0.88607
749460,1,-1.47694,-0.527562,-0.0652657,-2.09613,-0.036798,1.56849,0.65667,-1.47249,-0.52901,-0.0688988,-2.09383,-0.0377634,1.56817,0.650654,1.4967,-0.0866114,-1.07282,0.0040232,-0.498045,-0.0377299,-2.05241,1.52011,-0.0802282,-1.12292,0.00840983,-0.515492,-0.0358041,-2.07044,-0.755909,-9.45529,-3.14264,21.4438,1.1191,1.64266,-0.26531,-0.238797,-1.94932,-1.06253,3.12249,0.643514,0.00246557,-0.880492
749461,1,-1.4754,-0.52765,-0.0663542,-2.09612,-0.0373028,1.56844,0.654548,-1.47096,-0.52909,-0.0700278,-2.09382,-0.0382803,1.56814,0.648576,1.50303,-0.089103,-1.07564,0.00672438,-0.50876,-0.0414072,-2.06314,1.52622,-0.0805215,-1.12897,0.00844057,-0.51697,-0.0359068,-2.07792,-0.910633,-9.32834,-3.19421,21.416,1.15846,1.75253,-0.0126246,-0.220049,-1.90949,-1.02684,3.11204,0.641747,-0.00140931,-0.874601
749462,1,-1.4739,-0.527732,-0.0674744,-2.09611,-0.0378336,1.56839,0.652497,-1.46943,-0.529171,-0.0711628,-2.09381,-0.0387988,1.5681,0.646491,1.49524,-0.0878004,-1.08074,0.00804028,-0.515762,-0.0429237,-2.06377,1.53232,-0.0808147,-1.13502,0.00847131,-0.518447,-0.0360094,-2.0854,-0.605152,-9.32834,-3.16644,21.416,1.35622,1.83584,-0.258901,-0.197048,-1.85188,-0.988273,3.09528,0.639792,-0.00525359,-0.867935
749463,1,-1.47241,-0.527809,-0.0685733,-2.0961,-0.0383617,1.56836,0.650415,-1.46789,-0.529252,-0.0723039,-2.0938,-0.0393187,1.56806,0.644398,1.48246,-0.085565,-1.08673,0.00600084,-0.514474,-0.0357111,-2.05133,1.53843,-0.0811079,-1.14107,0.00850204,-0.519924,-0.036112,-2.09288,-0.0497324,-9.37991,-3.29339,21.416,1.39009,1.69485,-0.440176,-0.163737,-1.78914,-0.939953,3.0766,0.638225,-0.00866708,-0.860131
749464,1,-1.47087,-0.527883,-0.0697127,-2.0961,-0.0388784,1.56834,0.648338,-1.46634,-0.529334,-0.073451,-2.09379,-0.0398401,1.56803,0.642297,1.47866,-0.0791343,-1.09624,0.002161,-0.512733,-0.0296403,-2.02504,1.54453,-0.0814011,-1.14712,0.00853278,-0.521402,-0.0362146,-2.10036,-0.279835,-9.53067,-3.21801,21.5152,1.39009,1.5209,-0.569265,-0.112128,-1.73833,-0.871689,3.06394,0.637828,-0.011014,-0.851336
749465,1,-1.46929,-0.527961,-0.0708592,-2.0961,-0.039396,1.56831,0.646208,-1.46479,-0.529415,-0.0746042,-2.09379,-0.040363,1.56799,0.64019,1.51054,-0.0764852,-1.09924,0.00059461,-0.510823,-0.0292999,-2.0543,1.55064,-0.0816943,-1.15317,0.00856352,-0.522879,-0.0363172,-2.10784,-0.859058,-9.60605,-3.16644,21.5668,1.27748,1.44949,-0.440176,-0.049851,-1.7149,-0.792533,3.06516,0.638559,-0.0119142,-0.841956
749466,1,-1.46771,-0.528031,-0.0719606,-2.09608,-0.0399313,1.56828,0.644052,-1.46324,-0.529497,-0.0757634,-2.09378,-0.0408873,1.56796,0.638074,1.53809,-0.0766091,-1.09958,0.00474997,-0.514526,-0.0290857,-2.09567,1.55674,-0.0819876,-1.15922,0.00859425,-0.524356,-0.0364198,-2.11532,-1.16057,-9.733,-3.49572,21.3922,1.25459,1.37258,-0.206716,-0.00284204,-1.7205,-0.734892,3.08046,0.639236,-0.0118442,-0.832215
749467,1,-1.46617,-0.528111,-0.0731038,-2.09606,-0.0404711,1.56822,0.641982,-1.46167,-0.52958,-0.0769286,-2.09377,-0.0414132,1.56792,0.635951,1.55079,-0.0758533,-1.10933,0.00745264,-0.524276,-0.033779,-2.08497,1.56285,-0.0822808,-1.16527,0.00862499,-0.525834,-0.0365224,-2.1228,-1.28753,-9.76077,-3.59887,21.2177,1.30586,1.55294,-0.510671,0.0120151,-1.74452,-0.719345,3.1028,0.638884,-0.0118218,-0.822083
749468,1,-1.4646,-0.528204,-0.0742219,-2.09605,-0.0410108,1.56818,0.63989,-1.46011,-0.529662,-0.0781,-2.09376,-0.0419405,1.56788,0.633821,1.54948,-0.0828776,-1.13059,0.0068837,-0.52921,-0.0398486,-2.0729,1.56895,-0.082574,-1.17132,0.00865573,-0.527311,-0.036625,-2.13028,-1.28753,-9.58224,-3.87658,21.1423,1.31136,1.69485,-0.970266,0.00634913,-1.77247,-0.728354,3.12471,0.63785,-0.0124037,-0.811637
749469,1,-1.46299,-0.528309,-0.0753709,-2.09605,-0.0415244,1.56814,0.63778,-1.45853,-0.529745,-0.0792754,-2.09375,-0.0424688,1.56785,0.631686,1.59301,-0.088579,-1.13375,0.00677042,-0.523724,-0.0393774,-2.08884,1.57307,-0.0827712,-1.17548,0.0086764,-0.528297,-0.0366935,-2.13505,-1.64061,-9.25296,-3.92816,21.1939,1.18135,1.71408,-1.03527,-0.00859028,-1.78845,-0.74503,3.13998,0.636498,-0.013636,-0.801374
