shamilmamedov/beam_handling/log/param_estimation_ICRA/ocp_Z_35cm_0.61s_1.csv
duration, success rate, q[0], q[1], q[2], q[3], q[4], q[5], q[6],q_d[0], q_d[1], q_d[2], q_d[3], q_d[4], q_d[5], q_d[6],dq[0], dq[1], dq[2], dq[3], dq[4], dq[5], dq[6],dq_d[0], dq_d[1], dq_d[2], dq_d[3], dq_d[4], dq_d[5], dq_d[6],tau_J[0], tau_J[1], tau_J[2], tau_J[3], tau_J[4], tau_J[5], tau_J[6],tau_ext_hat_filtered[0], tau_ext_hat_filtered[1], tau_ext_hat_filtered[2], tau_ext_hat_filtered[3], tau_ext_hat_filtered[4], tau_ext_hat_filtered[5], tau_ext_hat_filtered[6]
1648238,0,-1.57035,-0.52288,-9.42513e-05,-2.09704,-0.00150413,1.57128,0.78576,-1.5708,-0.523599,-4.6624e-08,-2.0944,-1.23432e-07,1.5708,0.785398,0.00101234,-0.000742304,-0.000145502,0.000384499,-6.01499e-05,1.00088e-05,0.000944173,0,0,0,0,0,0,0,-0.50597,-10.1139,-0.432981,22.1897,1.85976,1.32131,-0.278127,-0.47358,-0.999187,0.0446939,3.64059,1.14431,-0.340776,-0.246018
1648239,1,-1.57035,-0.522878,-9.78706e-05,-2.09704,-0.00150261,1.57128,0.785755,-1.5708,-0.523599,-4.6624e-08,-2.0944,-1.23432e-07,1.5708,0.785398,2.52787e-05,6.19427e-05,-0.00130343,0.000256332,-0.00024355,-0.000468045,-0.00106597,0,0,0,0,0,0,0,-0.478199,-10.1377,-0.381406,22.1897,1.86525,1.33413,-0.232351,-0.473807,-0.998109,0.0441059,3.64072,1.14422,-0.340839,-0.245995
1648240,1,-1.57035,-0.522878,-9.25809e-05,-2.09704,-0.00150449,1.57128,0.785756,-1.5708,-0.523599,-4.6624e-08,-2.0944,-1.23432e-07,1.5708,0.785398,1.68525e-05,4.12951e-05,0.000894286,-0.000385924,4.10836e-05,-0.000549389,-0.000202022,0,0,0,0,0,0,0,-0.478199,-10.1377,-0.456784,22.2135,1.85976,1.34054,-0.246084,-0.47344,-0.997004,0.044484,3.64055,1.14417,-0.340953,-0.246035
1648241,1,-1.57035,-0.52288,-9.42513e-05,-2.09704,-0.00150593,1.57128,0.785758,-1.5708,-0.523599,-4.6624e-08,-2.0944,-1.23432e-07,1.5708,0.785398,1.1235e-05,-0.000529282,3.93788e-05,0.000299529,-0.000176061,-0.000128901,0.000340037,0,0,0,0,0,0,0,-0.478199,-10.1139,-0.432981,22.1897,1.86525,1.33413,-0.258901,-0.473223,-0.996326,0.0445947,3.64058,1.14414,-0.341047,-0.246105
1648242,1,-1.57035,-0.522881,-9.78706e-05,-2.09704,-0.00150559,1.57128,0.785754,-1.5708,-0.523599,-4.6624e-08,-2.0944,-1.23432e-07,1.5708,0.785398,7.49e-06,-0.000909667,-0.00118017,0.0008493,8.60762e-05,0.000388784,-0.000994012,0,0,0,0,0,0,0,-0.478199,-10.0901,-0.381406,22.1619,1.85976,1.32131,-0.225942,-0.472913,-0.994344,0.0448677,3.63979,1.14411,-0.341202,-0.246192
1648243,1,-1.57036,-0.52288,-9.42513e-05,-2.09704,-0.00150249,1.57128,0.785755,-1.5708,-0.523599,-4.6624e-08,-2.0944,-1.23432e-07,1.5708,0.785398,-0.000551819,-4.96324e-05,0.000419644,-8.34138e-05,5.73841e-05,2.18305e-05,-0.000425316,0,0,0,0,0,0,0,-0.454395,-10.1139,-0.432981,22.1897,1.85976,1.32772,-0.232351,-0.471985,-0.991134,0.0461259,3.63813,1.14411,-0.341425,-0.246288
1648244,1,-1.57035,-0.52288,-9.42513e-05,-2.09704,-0.00150206,1.57128,0.785754,-1.5708,-0.523599,-4.6624e-08,-2.0944,-1.23432e-07,1.5708,0.785398,0.000188933,-3.30883e-05,0.000279762,-5.56092e-05,-0.000165194,-0.000460164,-0.000520903,0,0,0,0,0,0,0,-0.478199,-10.1139,-0.432981,22.1897,1.86525,1.34054,-0.225942,-0.471204,-0.988875,0.0471523,3.63703,1.14414,-0.341588,-0.246359
1648245,1,-1.57035,-0.522874,-9.59218e-05,-2.09704,-0.00150369,1.57128,0.785754,-1.5708,-0.523599,-4.6624e-08,-2.0944,-1.23432e-07,1.5708,0.785398,0.00133238,0.00174118,-0.000370304,-0.0011507,0.000296771,0.000405301,-0.000347269,0,0,0,0,0,0,0,-0.529774,-10.1892,-0.409177,22.2373,1.85426,1.32131,-0.225942,-0.471201,-0.989906,0.0471305,3.63785,1.14417,-0.341572,-0.246375
1648246,1,-1.57035,-0.522878,-9.59218e-05,-2.09704,-0.00150145,1.57128,0.785757,-1.5708,-0.523599,-4.6624e-08,-2.0944,-1.23432e-07,1.5708,0.785398,-0.000318172,-4.56399e-05,-0.000246869,0.000996107,0.000197848,-0.000204517,0.000751832,0,0,0,0,0,0,0,-0.478199,-10.1377,-0.409177,22.1619,1.85426,1.33413,-0.252493,-0.471595,-0.994013,0.046755,3.64027,1.14422,-0.341419,-0.246329
1648247,1,-1.57035,-0.52288,-9.42513e-05,-2.09704,-0.00150451,1.57128,0.785758,-1.5708,-0.523599,-4.6624e-08,-2.0944,-1.23432e-07,1.5708,0.785398,-0.000212114,-0.000587239,0.000392233,-0.00109917,-7.15521e-05,0.000338373,0.000975939,0,0,0,0,0,0,0,-0.478199,-10.1139,-0.432981,22.2373,1.85976,1.32131,-0.26531,-0.471835,-0.997451,0.046679,3.6423,1.14427,-0.341294,-0.246234
1648248,1,-1.57035,-0.522878,-9.42513e-05,-2.09704,-0.00150274,1.57128,0.785758,-1.5708,-0.523599,-4.6624e-08,-2.0944,-1.23432e-07,1.5708,0.785398,-0.00014141,0.00016532,0.000261488,0.000380846,-0.000251152,-0.000249136,0.000650626,0,0,0,0,0,0,0,-0.478199,-10.1377,-0.432981,22.1897,1.86525,1.33413,-0.26531,-0.472044,-0.998884,0.0465863,3.64353,1.1443,-0.341217,-0.246127
1648249,1,-1.57035,-0.52288,-9.25809e-05,-2.09704,-0.00150072,1.57128,0.785761,-1.5708,-0.523599,-4.6624e-08,-2.0944,-1.23432e-07,1.5708,0.785398,0.00055534,-0.000446599,0.000731138,0.000253897,0.000239466,0.000308627,0.00114583,0,0,0,0,0,0,0,-0.50597,-10.1139,-0.456784,22.1897,1.85426,1.32131,-0.284536,-0.472681,-0.999118,0.0458535,3.64415,1.1443,-0.341194,-0.246045
1648250,1,-1.57035,-0.522876,-9.59218e-05,-2.09704,-0.00150229,1.57128,0.785758,-1.5708,-0.523599,-4.6624e-08,-2.0944,-1.23432e-07,1.5708,0.785398,-0.000279386,0.000908693,-0.000626199,-0.000944359,-0.000450707,-3.16074e-05,5.18082e-05,0,0,0,0,0,0,0,-0.478199,-10.1654,-0.409177,22.2373,1.87074,1.32772,-0.26531,-0.473518,-0.999318,0.0448798,3.64469,1.14428,-0.341186,-0.246023
1648251,1,-1.57035,-0.522878,-9.42513e-05,-2.09704,-0.00150037,1.57128,0.785757,-1.5708,-0.523599,-4.6624e-08,-2.0944,-1.23432e-07,1.5708,0.785398,0.000463356,-4.38184e-05,0.000139346,0.00113367,0.00030988,-2.10716e-05,-0.000440179,0,0,0,0,0,0,0,-0.50597,-10.1377,-0.432981,22.1619,1.85426,1.32772,-0.252493,-0.473967,-1.00051,0.0445619,3.6457,1.1443,-0.341148,-0.246086
1648252,1,-1.57035,-0.52288,-9.25809e-05,-2.09704,-0.00150034,1.57128,0.785758,-1.5708,-0.523599,-4.6624e-08,-2.0944,-1.23432e-07,1.5708,0.785398,-0.00034071,-0.000586024,0.000649709,0.00131259,0.000206587,-1.40477e-05,-5.60938e-05,0,0,0,0,0,0,0,-0.478199,-10.1139,-0.456784,22.1381,1.85426,1.32772,-0.258901,-0.474369,-1.00036,0.0443521,3.64554,1.1443,-0.341234,-0.246227
1648253,1,-1.57035,-0.522878,-9.42513e-05,-2.09704,-0.00150033,1.57128,0.785752,-1.5708,-0.523599,-4.6624e-08,-2.0944,-1.23432e-07,1.5708,0.785398,0.000422474,0.000166129,-0.000123672,-0.00144499,0.000137724,-9.36516e-06,-0.00197018,0,0,0,0,0,0,0,-0.50597,-10.1377,-0.432981,22.2373,1.85426,1.32772,-0.206716,-0.475021,-0.9986,0.0437557,3.64444,1.14427,-0.341398,-0.24642
1648254,1,-1.57035,-0.522876,-9.42513e-05,-2.09704,-0.00150033,1.57128,0.785752,-1.5708,-0.523599,-4.6624e-08,-2.0944,-1.23432e-07,1.5708,0.785398,-0.000367964,0.000760367,-8.24483e-05,-0.000963327,9.18163e-05,0.000231115,-0.00131345,0,0,0,0,0,0,0,-0.478199,-10.1654,-0.432981,22.2373,1.85426,1.32131,-0.206716,-0.475496,-0.998824,0.0434226,3.64499,1.14429,-0.341385,-0.246619
1648255,1,-1.57035,-0.522876,-9.42513e-05,-2.09704,-0.00150474,1.57128,0.785756,-1.5708,-0.523599,-4.6624e-08,-2.0944,-1.23432e-07,1.5708,0.785398,-0.000245309,0.000506911,-5.49655e-05,0.00112102,-0.00034569,-0.000320641,0.000582428,0,0,0,0,0,0,0,-0.478199,-10.1654,-0.432981,22.1619,1.86525,1.33413,-0.246084,-0.475504,-1.00132,0.0437618,3.6469,1.14434,-0.341254,-0.246764
1648256,1,-1.57035,-0.522878,-9.25809e-05,-2.09704,-0.001502,1.57128,0.785755,-1.5708,-0.523599,-4.6624e-08,-2.0944,-1.23432e-07,1.5708,0.785398,-0.00016354,-0.000311673,0.000520168,-0.000459079,-2.70096e-05,2.35984e-05,-0.000120341,0,0,0,0,0,0,0,-0.478199,-10.1377,-0.456784,22.2135,1.85976,1.32772,-0.232351,-0.475339,-1.00339,0.0442849,3.64824,1.14437,-0.341195,-0.246819
1648257,1,-1.57035,-0.522878,-9.59218e-05,-2.09704,-0.0015019,1.57128,0.785757,-1.5708,-0.523599,-4.6624e-08,-2.0944,-1.23432e-07,1.5708,0.785398,-0.000665838,-0.000207782,-0.000766845,0.000250759,-0.000221457,0.000253091,0.000665758,0,0,0,0,0,0,0,-0.454395,-10.1377,-0.409177,22.1897,1.86525,1.32131,-0.252493,-0.475026,-1.00388,0.0449433,3.64873,1.1444,-0.341208,-0.246802
1648258,1,-1.57035,-0.522881,-9.42513e-05,-2.09704,-0.00150166,1.57128,0.785758,-1.5708,-0.523599,-4.6624e-08,-2.0944,-1.23432e-07,1.5708,0.785398,0.00011292,-0.00125215,4.55819e-05,0.000816787,-0.000147638,-6.86315e-05,0.000918557,0,0,0,0,0,0,0,-0.478199,-10.0901,-0.432981,22.1619,1.86525,1.32772,-0.26531,-0.474293,-1.0021,0.0461688,3.64803,1.14442,-0.341315,-0.246741
1648259,1,-1.57035,-0.522878,-9.25809e-05,-2.09704,-0.00150159,1.57128,0.785758,-1.5708,-0.523599,-4.6624e-08,-2.0944,-1.23432e-07,1.5708,0.785398,0.000724893,0.00027886,0.0005872,-0.00121871,-9.84253e-05,0.000191605,0.000375012,0,0,0,0,0,0,0,-0.50597,-10.1377,-0.456784,22.2373,1.86525,1.32131,-0.258901,-0.474002,-0.998902,0.0467517,3.64667,1.14442,-0.341474,-0.246664
1648260,1,-1.57035,-0.52288,-9.25809e-05,-2.09704,-0.00150415,1.57128,0.785758,-1.5708,-0.523599,-4.6624e-08,-2.0944,-1.23432e-07,1.5708,0.785398,-0.000166351,-0.000370905,0.000391467,0.000301148,0.000137834,-0.00058434,0.000487367,0,0,0,0,0,0,0,-0.478199,-10.1139,-0.456784,22.1897,1.85976,1.34054,-0.26531,-0.474713,-0.996769,0.0458517,3.64617,1.1444,-0.341549,-0.246601
1648261,1,-1.57035,-0.52288,-9.59218e-05,-2.09704,-0.00150079,1.57128,0.785757,-1.5708,-0.523599,-4.6624e-08,-2.0944,-1.23432e-07,1.5708,0.785398,0.000538712,-0.00024727,-0.000852646,0.000200766,0.00049879,0.000559875,-0.000149807,0,0,0,0,0,0,0,-0.50597,-10.1139,-0.409177,22.1897,1.84877,1.31491,-0.252493,-0.475548,-0.995348,0.0447778,3.64604,1.14439,-0.341595,-0.246579
1648262,1,-1.57035,-0.522878,-9.63819e-05,-2.09704,-0.00150068,1.57128,0.785757,-1.5708,-0.523599,-4.6624e-08,-2.0944,-1.23432e-07,1.5708,0.785398,-0.000290472,0.000391965,-1.16188e-05,-0.00097978,0.000129076,0.000135891,-9.9871e-05,0,0,0,0,0,0,0,-0.478199,-10.1377,-0.432981,22.2373,1.85426,1.32131,-0.252493,-0.475842,-0.994535,0.0445652,3.64612,1.14442,-0.34163,-0.246609
1648263,1,-1.57035,-0.522878,-9.32911e-05,-2.09704,-0.00150425,1.57128,0.785755,-1.5708,-0.523599,-4.6624e-08,-2.0944,-1.23432e-07,1.5708,0.785398,-0.000193648,0.00026131,0.000549066,0.00111005,-0.0001174,-0.000384124,-0.000812566,0,0,0,0,0,0,0,-0.478199,-10.1377,-0.456784,22.1619,1.85976,1.33413,-0.232351,-0.475912,-0.995178,0.0446473,3.64689,1.14446,-0.341623,-0.246678
1648264,1,-1.57036,-0.522878,-9.61585e-05,-2.09704,-0.00150143,1.57128,0.785753,-1.5708,-0.523599,-4.6624e-08,-2.0944,-1.23432e-07,1.5708,0.785398,-0.00068591,0.000174207,-0.00074758,0.000740034,0.000125184,0.000218635,-0.00125379,0,0,0,0,0,0,0,-0.454395,-10.1377,-0.409177,22.1619,1.85426,1.32131,-0.213125,-0.475785,-0.995977,0.0449092,3.64728,1.14449,-0.341682,-0.246765
1648265,1,-1.57035,-0.522878,-9.43302e-05,-2.09704,-0.00150191,1.57128,0.785754,-1.5708,-0.523599,-4.6624e-08,-2.0944,-1.23432e-07,1.5708,0.785398,0.000749152,0.000116138,5.84254e-05,-0.000156258,-0.000323445,0.000145757,-0.00036114,0,0,0,0,0,0,0,-0.50597,-10.1377,-0.432981,22.1897,1.86525,1.32131,-0.225942,-0.475338,-0.996396,0.0456302,3.64713,1.1445,-0.341803,-0.246833
1648266,1,-1.57036,-0.522878,-9.06584e-05,-2.09704,-0.00150167,1.57128,0.785753,-1.5708,-0.523599,-4.6624e-08,-2.0944,-1.23432e-07,1.5708,0.785398,-0.000706991,7.74252e-05,0.00124538,-0.000104172,-0.00021563,9.71713e-05,-0.000478119,0,0,0,0,0,0,0,-0.454395,-10.1377,-0.484555,22.1897,1.86525,1.32131,-0.219534,-0.475372,-0.997058,0.0456149,3.64729,1.1445,-0.34189,-0.246838
1648267,1,-1.57036,-0.522878,-9.25897e-05,-2.09704,-0.00150417,1.57128,0.785752,-1.5708,-0.523599,-4.6624e-08,-2.0944,-1.23432e-07,1.5708,0.785398,-0.000471327,5.16168e-05,0.000180637,0.000580166,5.96972e-05,-0.000409937,-0.000793464,0,0,0,0,0,0,0,-0.454395,-10.1377,-0.456784,22.1619,1.85976,1.33413,-0.206716,-0.475977,-0.997728,0.0445648,3.64763,1.14448,-0.341955,-0.246762
1648268,1,-1.57036,-0.52288,-9.42543e-05,-2.09704,-0.0015014,1.57128,0.785755,-1.5708,-0.523599,-4.6624e-08,-2.0944,-1.23432e-07,1.5708,0.785398,-0.000314218,-0.000522401,-0.000436387,0.000386777,0.000243249,0.000438785,0.000657819,0,0,0,0,0,0,0,-0.454395,-10.1139,-0.432981,22.1619,1.85426,1.31491,-0.23876,-0.476223,-0.997492,0.0438808,3.6474,1.14447,-0.342064,-0.246605
1648269,1,-1.57036,-0.522878,-9.42523e-05,-2.09704,-0.0015051,1.57128,0.785755,-1.5708,-0.523599,-4.6624e-08,-2.0944,-1.23432e-07,1.5708,0.785398,-0.000209479,0.000208545,-0.000290925,-0.0020622,-0.000244735,-0.000182194,0.000201187,0,0,0,0,0,0,0,-0.454395,-10.1377,-0.432981,22.2611,1.86525,1.32772,-0.232351,-0.475774,-0.997138,0.0441717,3.6474,1.1445,-0.34213,-0.246371
1648270,1,-1.57035,-0.522876,-9.59221e-05,-2.09704,-0.00150151,1.57128,0.785754,-1.5708,-0.523599,-4.6624e-08,-2.0944,-1.23432e-07,1.5708,0.785398,0.00106677,0.000788644,-0.000750762,0.000295637,0.000243744,0.000353255,-0.000103234,0,0,0,0,0,0,0,-0.50597,-10.1654,-0.409177,22.1897,1.85426,1.31491,-0.225942,-0.475092,-0.998715,0.0448627,3.6489,1.14457,-0.342044,-0.246078
1648271,1,-1.57036,-0.522874,-9.59219e-05,-2.09704,-0.00150011,1.57128,0.785758,-1.5708,-0.523599,-4.6624e-08,-2.0944,-1.23432e-07,1.5708,0.785398,-0.000495243,0.00108257,-0.000500508,-0.000916533,0.000365947,-0.000476573,0.00138924,0,0,0,0,0,0,0,-0.454395,-10.1892,-0.409177,22.2373,1.84877,1.33413,-0.26531,-0.474417,-1.00256,0.0456761,3.65154,1.14465,-0.34188,-0.245749
1648272,1,-1.57035,-0.522876,-9.42514e-05,-2.09704,-0.00150046,1.57128,0.785758,-1.5708,-0.523599,-4.6624e-08,-2.0944,-1.23432e-07,1.5708,0.785398,0.00022665,0.000164904,0.00022314,0.000502602,4.05139e-05,0.000157002,0.000926159,0,0,0,0,0,0,0,-0.478199,-10.1654,-0.432981,22.1897,1.85426,1.32131,-0.26531,-0.473756,-1.00717,0.0464941,3.6543,1.14472,-0.341733,-0.245413
1648273,1,-1.57036,-0.522876,-9.78706e-05,-2.09704,-0.00150159,1.57128,0.785757,-1.5708,-0.523599,-4.6624e-08,-2.0944,-1.23432e-07,1.5708,0.785398,-0.000405712,0.000109936,-0.00105767,0.000335068,-0.000379892,-0.00037005,0.000142722,0,0,0,0,0,0,0,-0.454395,-10.1654,-0.381406,22.1897,1.86525,1.33413,-0.252493,-0.473089,-1.01028,0.0472957,3.65598,1.14475,-0.341695,-0.245115
1648274,1,-1.57035,-0.522878,-9.06321e-05,-2.09703,-0.00150034,1.57128,0.785755,-1.5708,-0.523599,-4.6624e-08,-2.0944,-1.23432e-07,1.5708,0.785398,0.000286337,-0.000576323,0.00170774,0.00198662,0.00015364,-0.0002467,-0.000413478,0,0,0,0,0,0,0,-0.478199,-10.1377,-0.484555,22.1143,1.85426,1.33413,-0.23876,-0.47275,-1.01021,0.0475868,3.65552,1.14471,-0.341853,-0.244889
1648275,1,-1.57036,-0.522878,-9.42513e-05,-2.09704,-0.00150353,1.57128,0.785753,-1.5708,-0.523599,-4.6624e-08,-2.0944,-1.23432e-07,1.5708,0.785398,-0.000365921,-0.000384215,-6.79318e-05,-0.000438827,0.000102427,7.28924e-05,-0.000987729,0,0,0,0,0,0,0,-0.454395,-10.1377,-0.432981,22.1897,1.85426,1.32772,-0.219534,-0.473333,-1.00725,0.0464205,3.65325,1.14458,-0.342154,-0.244727
1648276,1,-1.57036,-0.52288,-9.42513e-05,-2.09704,-0.00150261,1.57128,0.785752,-1.5708,-0.523599,-4.6624e-08,-2.0944,-1.23432e-07,1.5708,0.785398,-0.000243947,-0.000812956,-4.52878e-05,-0.000849363,-0.000338617,0.000285954,-0.0011332,0,0,0,0,0,0,0,-0.454395,-10.1139,-0.432981,22.2135,1.86525,1.32131,-0.206716,-0.474053,-1.00352,0.0449567,3.65102,1.14446,-0.342396,-0.2446
1648277,1,-1.57036,-0.522876,-9.25809e-05,-2.09704,-0.00150068,1.57128,0.785753,-1.5708,-0.523599,-4.6624e-08,-2.0944,-1.23432e-07,1.5708,0.785398,-0.000162631,0.000664456,0.00052662,-9.43014e-06,0.000181157,-0.000284082,-0.00051811,0,0,0,0,0,0,0,-0.454395,-10.1654,-0.456784,22.1897,1.85426,1.33413,-0.213125,-0.474368,-1.00102,0.0440186,3.65001,1.14439,-0.342485,-0.244462
1648278,1,-1.57036,-0.52288,-9.25809e-05,-2.09704,-0.00150486,1.57128,0.785755,-1.5708,-0.523599,-4.6624e-08,-2.0944,-1.23432e-07,1.5708,0.785398,-0.000108421,-0.000763456,0.00035108,-6.28676e-06,-0.00028613,0.00028533,0.00036667,0,0,0,0,0,0,0,-0.454395,-10.1139,-0.456784,22.1897,1.86525,1.32131,-0.232351,-0.474749,-0.999785,0.0428971,3.64971,1.14433,-0.342504,-0.24427
1648279,1,-1.57035,-0.522878,-9.59218e-05,-2.09704,-0.00150265,1.57128,0.785757,-1.5708,-0.523599,-4.6624e-08,-2.0944,-1.23432e-07,1.5708,0.785398,0.000484531,4.78416e-05,-0.000879571,0.00120223,-0.000190753,-4.7139e-05,0.000990432,0,0,0,0,0,0,0,-0.478199,-10.1377,-0.409177,22.1381,1.86525,1.32772,-0.252493,-0.474998,-0.998257,0.0419687,3.64895,1.14426,-0.342574,-0.24402
1648280,1,-1.57036,-0.522878,-9.78706e-05,-2.09704,-0.00150069,1.57128,0.78576,-1.5708,-0.523599,-4.6624e-08,-2.0944,-1.23432e-07,1.5708,0.785398,-0.000790603,3.18944e-05,-0.00123599,-0.000404936,0.000279732,0.000205933,0.00160972,0,0,0,0,0,0,0,-0.430592,-10.1377,-0.381406,22.1897,1.85426,1.32131,-0.278127,-0.474288,-0.996577,0.0425536,3.64775,1.14424,-0.342695,-0.243744
1648281,1,-1.57035,-0.52288,-9.42513e-05,-2.09704,-0.00150106,1.57128,0.785758,-1.5708,-0.523599,-4.6624e-08,-2.0944,-1.23432e-07,1.5708,0.785398,0.000586555,-0.000535549,0.00038243,-0.000826769,-1.69624e-05,-0.00010007,0.000598431,0,0,0,0,0,0,0,-0.478199,-10.1139,-0.432981,22.2135,1.85976,1.32772,-0.26531,-0.472863,-0.99588,0.0442444,3.64722,1.14427,-0.342745,-0.243492
1648282,1,-1.57036,-0.522874,-9.63819e-05,-2.09704,-0.00150098,1.57128,0.78576,-1.5708,-0.523599,-4.6624e-08,-2.0944,-1.23432e-07,1.5708,0.785398,-0.000165775,0.00140621,0.000254953,5.63239e-06,-1.13083e-05,-0.000304072,0.000873672,0,0,0,0,0,0,0,-0.454395,-10.1892,-0.432981,22.1897,1.85976,1.33413,-0.278127,-0.472049,-0.996872,0.0450247,3.64794,1.1443,-0.342675,-0.243305
1648283,1,-1.57035,-0.522878,-9.49615e-05,-2.09704,-0.00150095,1.57128,0.785758,-1.5708,-0.523599,-4.6624e-08,-2.0944,-1.23432e-07,1.5708,0.785398,-0.000110517,-0.000268956,0.000169969,3.75493e-06,-7.53885e-06,0.000272003,0.00010773,0,0,0,0,0,0,0,-0.454395,-10.1377,-0.432981,22.1897,1.85976,1.32131,-0.26531,-0.471934,-0.999561,0.0447297,3.64943,1.14431,-0.342551,-0.243213
1648284,1,-1.57035,-0.522878,-9.8289e-05,-2.09704,-0.00150353,1.57128,0.785756,-1.5708,-0.523599,-4.6624e-08,-2.0944,-1.23432e-07,1.5708,0.785398,-7.36778e-05,-0.000179304,-0.000443499,2.50329e-06,0.000198425,-5.60237e-05,-0.000640257,0,0,0,0,0,0,0,-0.454395,-10.1377,-0.409177,22.1897,1.85426,1.32772,-0.246084,-0.47181,-1.00177,0.0444175,3.65054,1.14433,-0.342467,-0.24323
1648285,1,-1.57035,-0.522876,-9.50404e-05,-2.09704,-0.0015052,1.57128,0.785758,-1.5708,-0.523599,-4.6624e-08,-2.0944,-1.23432e-07,1.5708,0.785398,0.000507693,0.000530078,0.000261146,0.000651283,-7.11674e-05,-0.000274708,0.000285239,0,0,0,0,0,0,0,-0.478199,-10.1654,-0.432981,22.1619,1.85976,1.33413,-0.26531,-0.471663,-1.0028,0.0441856,3.65089,1.14432,-0.342449,-0.243343
1648286,1,-1.57036,-0.522878,-9.61848e-05,-2.09704,-0.00150175,1.57128,0.785756,-1.5708,-0.523599,-4.6624e-08,-2.0944,-1.23432e-07,1.5708,0.785398,-0.00021835,-0.000296229,-0.000382715,0.000434189,0.000156006,5.42202e-05,-0.000521917,0,0,0,0,0,0,0,-0.454395,-10.1377,-0.409177,22.1619,1.85426,1.32772,-0.246084,-0.471641,-1.00328,0.0438398,3.65068,1.1443,-0.342488,-0.243521
1648287,1,-1.57035,-0.522874,-9.60095e-05,-2.09704,-0.00150263,1.57128,0.785755,-1.5708,-0.523599,-4.6624e-08,-2.0944,-1.23432e-07,1.5708,0.785398,0.000411245,0.00100894,-0.000255143,0.000846271,-0.000506348,-0.000201212,-0.000856571,0,0,0,0,0,0,0,-0.478199,-10.1892,-0.409177,22.1381,1.87074,1.33413,-0.232351,-0.471489,-1.00354,0.0437516,3.65003,1.14427,-0.342566,-0.243742
1648288,1,-1.57035,-0.522878,-9.78998e-05,-2.09704,-0.00150048,1.57128,0.785754,-1.5708,-0.523599,-4.6624e-08,-2.0944,-1.23432e-07,1.5708,0.785398,0.000274164,-0.000533799,-0.000819709,-0.00119906,0.000272786,-0.000134141,-0.000808406,0,0,0,0,0,0,0,-0.478199,-10.1377,-0.381406,22.2135,1.85426,1.33413,-0.225942,-0.471094,-1.00434,0.0441501,3.64971,1.14426,-0.342593,-0.243977
1648289,1,-1.57036,-0.52288,-9.25906e-05,-2.09704,-0.0015016,1.57128,0.785756,-1.5708,-0.523599,-4.6624e-08,-2.0944,-1.23432e-07,1.5708,0.785398,-0.000374036,-0.000912678,0.00121676,-0.00135618,-0.000225043,0.00038529,0.000207048,0,0,0,0,0,0,0,-0.454395,-10.1139,-0.456784,22.2373,1.86525,1.32131,-0.246084,-0.470836,-1.00501,0.0444026,3.65011,1.14428,-0.342491,-0.244186
1648290,1,-1.57035,-0.52288,-9.42546e-05,-2.09704,-0.00150095,1.57128,0.785757,-1.5708,-0.523599,-4.6624e-08,-2.0944,-1.23432e-07,1.5708,0.785398,0.000307455,-0.000608452,0.000254365,0.00141593,5.34215e-05,1.95012e-05,0.000375391,0,0,0,0,0,0,0,-0.478199,-10.1139,-0.432981,22.1381,1.85976,1.32772,-0.252493,-0.471217,-1.00391,0.0436384,3.65012,1.14427,-0.342387,-0.244346
1648291,1,-1.57036,-0.52288,-9.42524e-05,-2.09704,-0.00150094,1.57128,0.785758,-1.5708,-0.523599,-4.6624e-08,-2.0944,-1.23432e-07,1.5708,0.785398,-0.000351842,-0.000405635,0.000169576,-0.000262474,3.56144e-05,1.30008e-05,0.000487619,0,0,0,0,0,0,0,-0.454395,-10.1139,-0.432981,22.1897,1.85976,1.32772,-0.258901,-0.471926,-1.001,0.0423611,3.64884,1.14423,-0.342415,-0.244467
1648292,1,-1.57036,-0.52288,-9.59221e-05,-2.09704,-0.00150094,1.57128,0.785758,-1.5708,-0.523599,-4.6624e-08,-2.0944,-1.23432e-07,1.5708,0.785398,-0.000234562,-0.000270423,-0.000443761,0.00103144,2.37429e-05,-0.000228692,0.00032508,0,0,0,0,0,0,0,-0.454395,-10.1139,-0.409177,22.1381,1.85976,1.33413,-0.258901,-0.472144,-0.997731,0.0418187,3.64698,1.1442,-0.342516,-0.244576
1648293,1,-1.57035,-0.522881,-9.2581e-05,-2.09704,-0.00150155,1.57128,0.785758,-1.5708,-0.523599,-4.6624e-08,-2.0944,-1.23432e-07,1.5708,0.785398,0.000400438,-0.000737094,0.000817783,0.000687629,-0.000187622,8.48978e-05,0.00021672,0,0,0,0,0,0,0,-0.478199,-10.0901,-0.456784,22.1381,1.86525,1.32772,-0.258901,-0.47209,-0.994291,0.0416933,3.64473,1.14417,-0.342664,-0.244692
1648294,1,-1.57035,-0.522878,-9.59218e-05,-2.09704,-0.00150033,1.57128,0.785753,-1.5708,-0.523599,-4.6624e-08,-2.0944,-1.23432e-07,1.5708,0.785398,0.000916572,0.000622228,-0.000568435,-0.00130482,0.00028182,-0.00018076,-0.00131358,0,0,0,0,0,0,0,-0.50597,-10.1377,-0.409177,22.2135,1.85426,1.33413,-0.219534,-0.472457,-0.991821,0.0410423,3.643,1.14414,-0.34276,-0.244822
1648295,1,-1.57036,-0.52288,-9.42514e-05,-2.09704,-0.00150094,1.57128,0.785755,-1.5708,-0.523599,-4.6624e-08,-2.0944,-1.23432e-07,1.5708,0.785398,-0.000595377,-0.000141993,0.000177855,-0.000869879,-1.55707e-05,0.000354211,-0.000401004,0,0,0,0,0,0,0,-0.454395,-10.1139,-0.432981,22.2135,1.85976,1.32131,-0.232351,-0.472866,-0.992402,0.0404362,3.64342,1.14416,-0.34264,-0.244955
1648296,1,-1.57036,-0.522876,-9.59218e-05,-2.09704,-0.00150474,1.57128,0.785753,-1.5708,-0.523599,-4.6624e-08,-2.0944,-1.23432e-07,1.5708,0.785398,-0.000396918,0.00111176,-0.000438242,-0.00113673,-0.000213831,-0.000475936,-0.000979413,0,0,0,0,0,0,0,-0.454395,-10.1654,-0.409177,22.2373,1.86525,1.34054,-0.213125,-0.472608,-0.995888,0.0407871,3.64581,1.14425,-0.342333,-0.245061
1648297,1,-1.57035,-0.52288,-9.42513e-05,-2.09704,-0.00150139,1.57128,0.785754,-1.5708,-0.523599,-4.6624e-08,-2.0944,-1.23432e-07,1.5708,0.785398,0.0002922,-0.00046525,0.000264651,-0.000757821,0.000264347,-0.000317291,-0.000178224,0,0,0,0,0,0,0,-0.478199,-10.1139,-0.432981,22.2373,1.85426,1.34054,-0.225942,-0.47195,-1.00078,0.0416831,3.64918,1.14439,-0.341938,-0.245109
1648298,1,-1.57035,-0.522876,-9.42513e-05,-2.09704,-0.00150388,1.57128,0.785755,-1.5708,-0.523599,-4.6624e-08,-2.0944,-1.23432e-07,1.5708,0.785398,0.000844413,0.000896259,0.000176434,0.00060841,0.000176231,2.58317e-05,0.000118543,0,0,0,0,0,0,0,-0.50597,-10.1654,-0.432981,22.1897,1.85426,1.33413,-0.232351,-0.471795,-1.00507,0.041918,3.65213,1.14448,-0.341587,-0.245081
1648299,1,-1.57035,-0.522878,-9.25809e-05,-2.09704,-0.00150212,1.57128,0.785753,-1.5708,-0.523599,-4.6624e-08,-2.0944,-1.23432e-07,1.5708,0.785398,-8.66712e-05,-5.21078e-05,0.000674435,-0.000708017,-8.59629e-05,1.72212e-05,-0.000395689,0,0,0,0,0,0,0,-0.478199,-10.1377,-0.456784,22.2373,1.85976,1.33413,-0.219534,-0.472421,-1.00827,0.0410885,3.65413,1.1445,-0.341339,-0.244976
1648300,1,-1.57035,-0.522874,-9.42513e-05,-2.09704,-0.00150194,1.57128,0.785757,-1.5708,-0.523599,-4.6624e-08,-2.0944,-1.23432e-07,1.5708,0.785398,-5.77808e-05,0.00117169,-0.000107189,8.48004e-05,-0.000260759,0.000486199,0.00095691,0,0,0,0,0,0,0,-0.478199,-10.1892,-0.432981,22.2135,1.86525,1.32131,-0.252493,-0.473189,-1.01131,0.0400368,3.65586,1.1445,-0.341129,-0.244807
1648301,1,-1.57036,-0.522876,-9.42513e-05,-2.09704,-0.00150046,1.57128,0.785754,-1.5708,-0.523599,-4.6624e-08,-2.0944,-1.23432e-07,1.5708,0.785398,-0.000595332,0.000224313,-7.14593e-05,0.000613346,0.000233062,0.000324132,-0.000345404,0,0,0,0,0,0,0,-0.454395,-10.1654,-0.432981,22.1897,1.85426,1.32131,-0.225942,-0.47338,-1.01421,0.0397853,3.65725,1.14452,-0.340978,-0.244597
1648302,1,-1.57035,-0.522878,-9.42513e-05,-2.09704,-0.00150037,1.57128,0.785758,-1.5708,-0.523599,-4.6624e-08,-2.0944,-1.23432e-07,1.5708,0.785398,0.000809537,-0.000500072,-4.76395e-05,0.00105851,0.000155374,-2.12706e-05,0.000990434,0,0,0,0,0,0,0,-0.50597,-10.1377,-0.432981,22.1619,1.85426,1.32772,-0.258901,-0.473146,-1.0151,0.0401752,3.65716,1.14452,-0.340987,-0.244372
1648303,1,-1.57035,-0.52288,-9.42513e-05,-2.09704,-0.00150476,1.57128,0.785761,-1.5708,-0.523599,-4.6624e-08,-2.0944,-1.23432e-07,1.5708,0.785398,-0.000109922,-0.000890193,-3.17597e-05,-0.000500752,-0.000303318,-0.000251539,0.00160972,0,0,0,0,0,0,0,-0.478199,-10.1139,-0.432981,22.2135,1.86525,1.33413,-0.284536,-0.473048,-1.0128,0.0404418,3.65545,1.14448,-0.341136,-0.24415
1648304,1,-1.57036,-0.522878,-9.25809e-05,-2.09704,-0.00150007,1.57128,0.785759,-1.5708,-0.523599,-4.6624e-08,-2.0944,-1.23432e-07,1.5708,0.785398,-0.000630093,-3.66502e-05,0.000535639,0.000222977,0.000645498,0.000307025,0.000598432,0,0,0,0,0,0,0,-0.454395,-10.1377,-0.456784,22.1897,1.84236,1.32131,-0.271719,-0.47301,-1.00904,0.0405922,3.6534,1.14442,-0.341293,-0.243969
1648305,1,-1.57035,-0.52288,-9.42513e-05,-2.09704,-0.0015019,1.57128,0.785761,-1.5708,-0.523599,-4.6624e-08,-2.0944,-1.23432e-07,1.5708,0.785398,0.000786363,-0.000581245,-0.000199719,0.00135508,-0.000417378,0.000204683,0.000873673,0,0,0,0,0,0,0,-0.50597,-10.1139,-0.432981,22.1381,1.86525,1.32131,-0.284536,-0.473008,-1.00496,0.0406251,3.65121,1.14436,-0.34147,-0.243875
1648306,1,-1.57036,-0.522878,-9.59218e-05,-2.09704,-0.00149983,1.57128,0.785755,-1.5708,-0.523599,-4.6624e-08,-2.0944,-1.23432e-07,1.5708,0.785398,-0.000682183,0.000169315,-0.000689958,-0.000303041,0.000332099,0.000373814,-0.00135033,0,0,0,0,0,0,0,-0.454395,-10.1377,-0.409177,22.1897,1.84877,1.31491,-0.232351,-0.472828,-1.00094,0.0409725,3.64878,1.14429,-0.341694,-0.243896
1648307,1,-1.57035,-0.522878,-9.59218e-05,-2.09704,-0.00150417,1.57128,0.785753,-1.5708,-0.523599,-4.6624e-08,-2.0944,-1.23432e-07,1.5708,0.785398,0.000102023,0.000112877,-0.000459972,0.000447587,-0.000185501,1.18507e-05,-0.00137494,0,0,0,0,0,0,0,-0.478199,-10.1377,-0.409177,22.1619,1.85976,1.32131,-0.219534,-0.471994,-0.998393,0.0423344,3.64713,1.14426,-0.341867,-0.244019
1648308,1,-1.57035,-0.522878,-9.25809e-05,-2.09704,-0.00150201,1.57128,0.785755,-1.5708,-0.523599,-4.6624e-08,-2.0944,-1.23432e-07,1.5708,0.785398,6.80154e-05,7.52511e-05,0.000806976,0.000855203,-0.000123668,-0.000229458,-0.000441908,0,0,0,0,0,0,0,-0.478199,-10.1377,-0.456784,22.1381,1.85976,1.32772,-0.232351,-0.471217,-0.997211,0.0436127,3.64615,1.14424,-0.342003,-0.244182
1648309,1,-1.57035,-0.522878,-9.42513e-05,-2.09704,-0.0015013,1.57128,0.785754,-1.5708,-0.523599,-4.6624e-08,-2.0944,-1.23432e-07,1.5708,0.785398,4.53436e-05,5.01674e-05,-1.88281e-05,-0.000636291,-8.24451e-05,-0.000390331,-0.000531964,0,0,0,0,0,0,0,-0.478199,-10.1377,-0.432981,22.1897,1.85976,1.33413,-0.225942,-0.471223,-0.99673,0.043707,3.64554,1.14419,-0.342116,-0.244321
1648310,1,-1.57036,-0.522878,-9.59218e-05,-2.09704,-0.00150106,1.57128,0.785757,-1.5708,-0.523599,-4.6624e-08,-2.0944,-1.23432e-07,1.5708,0.785398,-0.000526583,3.34449e-05,-0.000569364,0.00022542,-5.49634e-05,-0.000260221,0.000628701,0,0,0,0,0,0,0,-0.454395,-10.1377,-0.409177,22.1619,1.85976,1.33413,-0.252493,-0.471262,-0.997173,0.0437221,3.64569,1.14415,-0.342143,-0.244412
1648311,1,-1.57036,-0.52288,-9.95411e-05,-2.09704,-0.00149904,1.57128,0.785755,-1.5708,-0.523599,-4.6624e-08,-2.0944,-1.23432e-07,1.5708,0.785398,-0.000907867,-0.000534515,-0.001586,-0.000499334,0.000607618,6.38784e-05,-0.000326851,0,0,0,0,0,0,0,-0.430592,-10.1139,-0.357602,22.1897,1.84236,1.32772,-0.232351,-0.470151,-0.997815,0.0454242,3.64614,1.14418,-0.342111,-0.244461
1648312,1,-1.57036,-0.522878,-9.59218e-05,-2.09704,-0.00150095,1.57128,0.78576,-1.5708,-0.523599,-4.6624e-08,-2.0944,-1.23432e-07,1.5708,0.785398,-4.84328e-05,0.000200468,0.000149091,-0.000332889,-0.000239181,4.25856e-05,0.00147752,0,0,0,0,0,0,0,-0.454395,-10.1377,-0.409177,22.1897,1.85976,1.32772,-0.278127,-0.468125,-0.998334,0.0484742,3.64668,1.14425,-0.342042,-0.244482
1648313,1,-1.57035,-0.52288,-9.78706e-05,-2.09704,-0.00150033,1.57128,0.785758,-1.5708,-0.523599,-4.6624e-08,-2.0944,-1.23432e-07,1.5708,0.785398,0.000524523,-0.000423166,-0.00055022,-0.000221926,4.39962e-05,-0.000208969,0.000272937,0,0,0,0,0,0,0,-0.478199,-10.1139,-0.381406,22.1897,1.85426,1.33413,-0.258901,-0.466617,-0.999008,0.0508054,3.64743,1.14429,-0.341941,-0.244488
1648314,1,-1.57035,-0.522878,-9.59218e-05,-2.09704,-0.00150352,1.57128,0.785758,-1.5708,-0.523599,-4.6624e-08,-2.0944,-1.23432e-07,1.5708,0.785398,0.000349682,0.000274701,0.000282801,-0.000147951,2.93308e-05,-0.000376671,0.000419317,0,0,0,0,0,0,0,-0.478199,-10.1377,-0.409177,22.1897,1.85426,1.34054,-0.26531,-0.466225,-0.999691,0.0516001,3.64818,1.14426,-0.341831,-0.24451
1648315,1,-1.57036,-0.522876,-9.59218e-05,-2.09704,-0.001502,1.57128,0.785758,-1.5708,-0.523599,-4.6624e-08,-2.0944,-1.23432e-07,1.5708,0.785398,-0.00032369,0.000832748,0.000188534,-9.86338e-05,-0.000183897,0.000223604,4.21856e-05,0,0,0,0,0,0,0,-0.454395,-10.1654,-0.409177,22.1897,1.85976,1.32772,-0.258901,-0.466617,-1.00121,0.0512822,3.64923,1.14419,-0.341698,-0.244572
1648316,1,-1.57035,-0.522878,-9.59218e-05,-2.09704,-0.00150129,1.57128,0.785757,-1.5708,-0.523599,-4.6624e-08,-2.0944,-1.23432e-07,1.5708,0.785398,0.000341018,-9.44486e-05,0.000125689,-0.00117938,-0.000122598,0.000149069,-0.000209235,0,0,0,0,0,0,0,-0.478199,-10.1377,-0.409177,22.2373,1.85976,1.32772,-0.252493,-0.467376,-1.00403,0.0503929,3.65091,1.14411,-0.341506,-0.244679
1648317,1,-1.57036,-0.52288,-9.42513e-05,-2.09703,-0.00150364,1.57128,0.785757,-1.5708,-0.523599,-4.6624e-08,-2.0944,-1.23432e-07,1.5708,0.785398,-0.000329466,-0.000619778,0.000640605,0.00209061,0.000121719,-0.00013798,-0.00013949,0,0,0,0,0,0,0,-0.454395,-10.1139,-0.432981,22.1143,1.85426,1.33413,-0.252493,-0.468371,-1.00564,0.0491288,3.65188,1.14402,-0.341373,-0.24483
1648318,1,-1.57035,-0.522878,-9.59218e-05,-2.09704,-0.00150143,1.57128,0.785753,-1.5708,-0.523599,-4.6624e-08,-2.0944,-1.23432e-07,1.5708,0.785398,0.000337168,0.000143627,-0.000129742,0.000280115,8.11458e-05,-9.19864e-05,-0.0013137,0,0,0,0,0,0,0,-0.478199,-10.1377,-0.409177,22.1619,1.85426,1.33413,-0.219534,-0.469483,-1.00438,0.0476721,3.6508,1.14387,-0.341433,-0.245012
1648319,1,-1.57036,-0.522878,-9.25809e-05,-2.09704,-0.00149937,1.57127,0.785754,-1.5708,-0.523599,-4.6624e-08,-2.0944,-1.23432e-07,1.5708,0.785398,-0.000332033,9.57512e-05,0.00102713,0.000186743,0.000494907,-0.000536042,-0.000638439,0,0,0,0,0,0,0,-0.454395,-10.1377,-0.456784,22.1619,1.84236,1.34695,-0.225942,-0.470614,-1.00249,0.0461609,3.64909,1.14372,-0.341542,-0.245195
1648320,1,-1.57036,-0.522881,-9.42513e-05,-2.09704,-0.00150106,1.57128,0.785756,-1.5708,-0.523599,-4.6624e-08,-2.0944,-1.23432e-07,1.5708,0.785398,-0.000221356,-0.00104979,0.000127941,-0.000525118,-0.000314322,0.000117356,0.000320359,0,0,0,0,0,0,0,-0.454395,-10.0901,-0.432981,22.1897,1.85976,1.33413,-0.246084,-0.471718,-1.00089,0.0445783,3.64787,1.14357,-0.341565,-0.245338
1648321,1,-1.57035,-0.522876,-9.59218e-05,-2.09704,-0.00150037,1.57128,0.785755,-1.5708,-0.523599,-4.6624e-08,-2.0944,-1.23432e-07,1.5708,0.785398,0.00105885,0.00106338,-0.000471518,-0.000350079,-6.09762e-06,7.82376e-05,-5.76944e-05,0,0,0,0,0,0,0,-0.50597,-10.1654,-0.409177,22.1897,1.85426,1.33413,-0.23876,-0.472546,-0.999815,0.0433854,3.64731,1.14344,-0.341482,-0.245424
1648322,1,-1.57035,-0.522876,-9.42513e-05,-2.09704,-0.00150292,1.57128,0.785758,-1.5708,-0.523599,-4.6624e-08,-2.0944,-1.23432e-07,1.5708,0.785398,0.000705903,0.000708919,0.000242467,0.000416228,0.000199385,5.21584e-05,0.000707522,0,0,0,0,0,0,0,-0.50597,-10.1654,-0.432981,22.1619,1.84877,1.33413,-0.258901,-0.473288,-1.00098,0.0424958,3.64788,1.14332,-0.341294,-0.245459
1648323,1,-1.57036,-0.522874,-9.78706e-05,-2.09704,-0.00150459,1.57128,0.785759,-1.5708,-0.523599,-4.6624e-08,-2.0944,-1.23432e-07,1.5708,0.785398,-0.000735823,0.00102942,-0.00104478,-0.00148575,-7.05269e-05,3.47723e-05,0.000946399,0,0,0,0,0,0,0,-0.454395,-10.1892,-0.381406,22.2373,1.85426,1.33413,-0.271719,-0.473629,-1.00469,0.0423131,3.64963,1.14324,-0.341009,-0.245466
1648324,1,-1.57035,-0.52288,-9.25809e-05,-2.09704,-0.00150297,1.57128,0.785758,-1.5708,-0.523599,-4.6624e-08,-2.0944,-1.23432e-07,1.5708,0.785398,6.62632e-05,-0.00107695,0.00106672,0.000123122,-0.000453919,0.00026054,0.000156215,0,0,0,0,0,0,0,-0.478199,-10.1139,-0.456784,22.1897,1.86525,1.32772,-0.258901,-0.473267,-1.00868,0.0431066,3.6518,1.1432,-0.340668,-0.245481
1648325,1,-1.57035,-0.522878,-9.42513e-05,-2.09704,-0.00150141,1.57128,0.785753,-1.5708,-0.523599,-4.6624e-08,-2.0944,-1.23432e-07,1.5708,0.785398,0.000693789,-0.000161158,0.000154333,-0.00047473,-9.91621e-05,0.000411053,-0.00135392,0,0,0,0,0,0,0,-0.50597,-10.1377,-0.432981,22.2135,1.85976,1.32131,-0.219534,-0.473304,-1.01007,0.0432496,3.65287,1.14313,-0.340413,-0.245529
1648326,1,-1.57035,-0.522881,-9.42513e-05,-2.09704,-0.00150048,1.57128,0.785754,-1.5708,-0.523599,-4.6624e-08,-2.0944,-1.23432e-07,1.5708,0.785398,-0.000187087,-0.00122106,0.000102888,-0.000316487,0.000137342,0.000274035,-0.000665254,0,0,0,0,0,0,0,-0.478199,-10.0901,-0.432981,22.2135,1.85426,1.32131,-0.225942,-0.473923,-1.00872,0.042562,3.65265,1.14303,-0.340277,-0.245603
1648327,1,-1.57036,-0.522881,-9.78706e-05,-2.09704,-0.00150099,1.57128,0.785752,-1.5708,-0.523599,-4.6624e-08,-2.0944,-1.23432e-07,1.5708,0.785398,-0.000681537,-0.000814042,-0.00113783,0.000345821,-0.000111889,0.000420049,-0.00115558,0,0,0,0,0,0,0,-0.454395,-10.0901,-0.381406,22.1897,1.85976,1.31491,-0.206716,-0.473855,-1.00524,0.0429054,3.65138,1.14295,-0.340257,-0.245669
1648328,1,-1.57035,-0.522878,-9.06321e-05,-2.09704,-0.00150095,1.57128,0.785754,-1.5708,-0.523599,-4.6624e-08,-2.0944,-1.23432e-07,1.5708,0.785398,0.000752067,0.000570929,0.0016543,-0.000326265,-7.45926e-05,4.26737e-05,-5.83093e-05,0,0,0,0,0,0,0,-0.50597,-10.1377,-0.484555,22.2135,1.85976,1.32131,-0.225942,-0.473384,-1.00138,0.0438302,3.64975,1.1429,-0.340322,-0.24568
1648329,1,-1.57035,-0.52288,-9.25809e-05,-2.09704,-0.00150094,1.57128,0.785755,-1.5708,-0.523599,-4.6624e-08,-2.0944,-1.23432e-07,1.5708,0.785398,-0.000148235,-0.000176192,0.00045325,0.000988916,-4.97284e-05,-0.000683628,0.000198486,0,0,0,0,0,0,0,-0.478199,-10.1139,-0.456784,22.1619,1.85976,1.34054,-0.232351,-0.473921,-0.999132,0.0432314,3.6487,1.14282,-0.340407,-0.245602
1648330,1,-1.57035,-0.52288,-9.59218e-05,-2.09704,-0.00150033,1.57128,0.785755,-1.5708,-0.523599,-4.6624e-08,-2.0944,-1.23432e-07,1.5708,0.785398,-9.88234e-05,-0.000117462,-0.000811457,9.66338e-06,0.000170298,-0.000218393,0.000369683,0,0,0,0,0,0,0,-0.478199,-10.1139,-0.409177,22.1897,1.85426,1.33413,-0.23876,-0.474676,-0.997601,0.0422866,3.64777,1.14273,-0.340526,-0.245445
1648331,1,-1.57036,-0.522878,-9.42513e-05,-2.09704,-0.00150094,1.57128,0.785758,-1.5708,-0.523599,-4.6624e-08,-2.0944,-1.23432e-07,1.5708,0.785398,-0.000622694,0.000478504,1.58405e-05,0.000656056,-8.99184e-05,9.17637e-05,0.0012298,0,0,0,0,0,0,0,-0.454395,-10.1377,-0.432981,22.1619,1.85976,1.32772,-0.26531,-0.474401,-0.996551,0.0428578,3.64691,1.1427,-0.340652,-0.245243
1648332,1,-1.57035,-0.522881,-9.42513e-05,-2.09704,-0.00150155,1.57128,0.785759,-1.5708,-0.523599,-4.6624e-08,-2.0944,-1.23432e-07,1.5708,0.785398,0.000791296,-0.000794621,1.05603e-05,0.000437371,-0.000263396,6.11758e-05,0.00105723,0,0,0,0,0,0,0,-0.50597,-10.0901,-0.432981,22.1619,1.86525,1.32772,-0.271719,-0.473773,-0.995748,0.0439438,3.64606,1.14269,-0.340782,-0.245027
1648333,1,-1.57035,-0.52288,-9.78706e-05,-2.09704,-0.00150352,1.57128,0.785757,-1.5708,-0.523599,-4.6624e-08,-2.0944,-1.23432e-07,1.5708,0.785398,-0.000122083,0.000583877,-0.00119939,-0.000358033,0.000231304,-0.000196575,-7.25997e-06,0,0,0,0,0,0,0,-0.478199,-10.1377,-0.381406,22.1897,1.85426,1.33413,-0.252493,-0.473211,-0.994876,0.0450182,3.64528,1.14268,-0.340893,-0.244846
1648334,1,-1.57035,-0.522877,-9.06321e-05,-2.09704,-0.00150078,1.57128,0.785753,-1.5708,-0.523599,-4.6624e-08,-2.0944,-1.23432e-07,1.5708,0.785398,-8.13885e-05,0.00103886,0.00784289,-0.000795501,0.000357653,-0.00013105,-0.0014629,0,0,0,0,0,0,0,-0.478199,-10.1654,-0.484555,22.2135,1.84877,1.33413,-0.213125,-0.474509,-0.996125,0.0431364,3.64597,1.14264,-0.340857,-0.244714
1648335,1,-1.57035,-0.522878,-9.78706e-05,-2.09704,-0.0015019,1.57128,0.785755,-1.5708,-0.523599,-4.6624e-08,-2.0944,-1.23432e-07,1.5708,0.785398,-5.4259e-05,4.29627e-05,0.00333487,2.6478e-05,-0.000371916,0.000149992,-2.58323e-05,0,0,0,0,0,0,0,-0.478199,-10.1377,-0.381406,22.1897,1.86525,1.32772,-0.23876,-0.480002,-0.999572,0.0344441,3.64818,1.14244,-0.340682,-0.244598
1648336,1,-1.57035,-0.522881,-9.25809e-05,-2.09704,-0.00150105,1.57128,0.785752,-1.5708,-0.523599,-4.6624e-08,-2.0944,-1.23432e-07,1.5708,0.785398,-3.61727e-05,-0.00108498,0.00437584,0.000667266,-4.44937e-05,9.99948e-05,-0.00120402,0,0,0,0,0,0,0,-0.478199,-10.0901,-0.456784,22.1619,1.85976,1.32772,-0.206716,-0.487722,-1.00139,0.0221298,3.64961,1.14212,-0.34057,-0.244476
1648337,1,-1.57035,-0.522878,-9.42513e-05,-2.09704,-0.00149975,1.57128,0.785755,-1.5708,-0.523599,-4.6624e-08,-2.0944,-1.23432e-07,1.5708,0.785398,0.00183192,0.000390302,0.00265243,0.00100166,0.000377239,-0.000170696,0.000146758,0,0,0,0,0,0,0,-0.557545,-10.1377,-0.432981,22.1381,1.84877,1.33413,-0.232351,-0.495397,-1.00009,0.0100749,3.64911,1.14177,-0.340623,-0.244333
1648338,1,-1.57035,-0.522876,-9.59218e-05,-2.09704,-0.00150095,1.57128,0.785753,-1.5708,-0.523599,-4.6624e-08,-2.0944,-1.23432e-07,1.5708,0.785398,-0.000634756,0.000909816,0.00143048,0.000110959,-0.000155409,0.000360921,-0.000376879,0,0,0,0,0,0,0,-0.478199,-10.1654,-0.409177,22.1619,1.85976,1.32131,-0.219534,-0.50178,-0.998797,0.000377417,3.64814,1.14146,-0.340728,-0.244154
1648339,1,-1.57035,-0.52288,-9.42513e-05,-2.09704,-0.00150414,1.57128,0.785753,-1.5708,-0.523599,-4.6624e-08,-2.0944,-1.23432e-07,1.5708,0.785398,-0.000423171,-0.000599882,0.00167472,7.39724e-05,-0.000103606,3.25488e-06,-0.000251253,0,0,0,0,0,0,0,-0.478199,-10.1139,-0.432981,22.1619,1.85976,1.32772,-0.219534,-0.505258,-0.998883,-0.00468985,3.64772,1.1413,-0.340779,-0.243942
1648340,1,-1.57035,-0.52288,-9.25809e-05,-2.09704,-0.001502,1.57128,0.785755,-1.5708,-0.523599,-4.6624e-08,-2.0944,-1.23432e-07,1.5708,0.785398,-0.000282114,-0.000399921,0.00179649,-0.000600299,-6.90705e-05,0.000239529,0.000307216,0,0,0,0,0,0,0,-0.478199,-10.1139,-0.456784,22.1897,1.85976,1.32131,-0.232351,-0.506279,-0.998557,-0.00597823,3.64737,1.14127,-0.340793,-0.243696
1648341,1,-1.57036,-0.52288,-9.78706e-05,-2.09704,-0.00150571,1.57128,0.785753,-1.5708,-0.523599,-4.6624e-08,-2.0944,-1.23432e-07,1.5708,0.785398,-0.000744888,-0.000266614,-0.000473184,-0.000957011,-0.000452948,-7.7673e-05,-0.000507266,0,0,0,0,0,0,0,-0.454395,-10.1139,-0.381406,22.2135,1.87074,1.32772,-0.213125,-0.505347,-0.997868,-0.00424364,3.64734,1.14134,-0.340746,-0.243417
1648342,1,-1.57035,-0.522878,-9.42513e-05,-2.09704,-0.00150334,1.57128,0.785759,-1.5708,-0.523599,-4.6624e-08,-2.0944,-1.23432e-07,1.5708,0.785398,6.022e-05,0.000379069,0.000960266,-0.000638008,-0.000301965,-5.1782e-05,0.00183196,0,0,0,0,0,0,0,-0.478199,-10.1377,-0.432981,22.2135,1.87074,1.32772,-0.271719,-0.502515,-0.99822,0.00045513,3.6482,1.14154,-0.340609,-0.243112
1648343,1,-1.57035,-0.52288,-9.42513e-05,-2.09704,-0.00150392,1.57128,0.78576,-1.5708,-0.523599,-4.6624e-08,-2.0944,-1.23432e-07,1.5708,0.785398,4.01467e-05,-0.000304099,0.00069215,0.000781088,0.000409041,-0.00027188,0.00145867,0,0,0,0,0,0,0,-0.478199,-10.1139,-0.432981,22.1619,1.85426,1.33413,-0.278127,-0.499132,-0.999102,0.00609388,3.64922,1.14177,-0.340481,-0.242797
1648344,1,-1.57035,-0.522878,-9.25809e-05,-2.09704,-0.00150152,1.57128,0.785758,-1.5708,-0.523599,-4.6624e-08,-2.0944,-1.23432e-07,1.5708,0.785398,2.67644e-05,0.000354079,0.00105722,-0.000128889,0.000272694,-0.000181254,0.000497727,0,0,0,0,0,0,0,-0.478199,-10.1377,-0.456784,22.1897,1.85426,1.33413,-0.26531,-0.496182,-0.999411,0.0111352,3.64951,1.14198,-0.340445,-0.242527
1648345,1,-1.57036,-0.52288,-9.25809e-05,-2.09704,-0.00150453,1.57128,0.78576,-1.5708,-0.523599,-4.6624e-08,-2.0944,-1.23432e-07,1.5708,0.785398,-0.000538969,-0.000320759,0.00073405,-8.59259e-05,-2.16544e-05,0.000116523,0.000806536,0,0,0,0,0,0,0,-0.454395,-10.1139,-0.456784,22.1897,1.85976,1.32772,-0.278127,-0.493554,-0.999453,0.0156233,3.64947,1.14216,-0.340447,-0.242351
1648346,1,-1.57035,-0.522876,-9.59218e-05,-2.09704,-0.00150336,1.57128,0.785758,-1.5708,-0.523599,-4.6624e-08,-2.0944,-1.23432e-07,1.5708,0.785398,-0.000359313,0.000992586,-0.000602331,-0.000614096,-0.000421337,0.000315041,6.29725e-05,0,0,0,0,0,0,0,-0.454395,-10.1654,-0.409177,22.2135,1.87074,1.32131,-0.26531,-0.490569,-1.00025,0.0205035,3.64986,1.14238,-0.34041,-0.242294
1648347,1,-1.57035,-0.522878,-9.59218e-05,-2.09704,-0.00150011,1.57128,0.785758,-1.5708,-0.523599,-4.6624e-08,-2.0944,-1.23432e-07,1.5708,0.785398,-0.000239542,1.21103e-05,-0.00038511,0.000147415,0.000532911,-2.73315e-05,4.19817e-05,0,0,0,0,0,0,0,-0.454395,-10.1377,-0.409177,22.1897,1.84877,1.32772,-0.26531,-0.486753,-1.00223,0.0265427,3.65084,1.14264,-0.340331,-0.242358
1648348,1,-1.57036,-0.522876,-9.78706e-05,-2.09704,-0.00150488,1.57128,0.78576,-1.5708,-0.523599,-4.6624e-08,-2.0944,-1.23432e-07,1.5708,0.785398,-0.000159695,0.000657688,-0.000894021,9.82765e-05,-0.000255078,-1.8221e-05,0.000502706,0,0,0,0,0,0,0,-0.454395,-10.1654,-0.381406,22.1897,1.86525,1.32772,-0.278127,-0.482431,-1.00445,0.0333153,3.6518,1.14292,-0.34027,-0.242533
1648349,1,-1.57036,-0.522881,-9.25809e-05,-2.09704,-0.00150266,1.57128,0.785757,-1.5708,-0.523599,-4.6624e-08,-2.0944,-1.23432e-07,1.5708,0.785398,-0.000106463,-0.00132478,0.00117647,6.55176e-05,-0.000170052,-1.21473e-05,-0.000614299,0,0,0,0,0,0,0,-0.454395,-10.0901,-0.456784,22.1897,1.86525,1.32772,-0.252493,-0.47853,-1.0052,0.039392,3.65195,1.14317,-0.340284,-0.242799
1648350,1,-1.57035,-0.522878,-9.25809e-05,-2.09704,-0.0015007,1.57128,0.785753,-1.57079,-0.523597,-2.54662e-06,-2.0944,-1.64752e-06,1.5708,0.785399,0.000485837,0.000230438,-0.00550712,-0.000513134,0.000293533,-8.09823e-06,-0.00163024,0.00304939,0.001875,-0.0025,-0.003125,-0.00152409,0.005,0.00102661,-0.478199,-10.1377,-0.456784,22.2135,1.85426,1.32772,-0.219534,-0.474443,-1.00401,0.045825,3.65131,1.14341,-0.340353,-0.243144
1648351,1,-1.57036,-0.522878,-9.59218e-05,-2.09704,-0.00150106,1.57128,0.785755,-1.57079,-0.523593,-7.54662e-06,-2.0944,-4.69571e-06,1.57081,0.785401,-0.000232921,0.000153625,-0.0053047,0.000864337,-7.76178e-06,-5.39882e-06,-0.000612106,0.00609879,0.00375,-0.005,-0.00625,-0.00304819,0.01,0.00205323,-0.454395,-10.1377,-0.409177,22.1619,1.85976,1.32772,-0.232351,-0.467564,-1.00266,0.0568197,3.65052,1.14377,-0.340428,-0.24354
1648352,1,-1.57035,-0.52288,-9.25809e-05,-2.09704,-0.00149976,1.57128,0.785753,-1.57078,-0.523587,-1.50466e-05,-2.09441,-9.26799e-06,1.57083,0.785404,0.000401531,-0.000454395,-0.00281259,0.000576225,0.000401727,-3.59921e-06,-0.00112015,0.00914818,0.005625,-0.0075,-0.009375,-0.00457228,0.015,0.00307984,-0.478199,-10.1139,-0.456784,22.1619,1.84877,1.32772,-0.213125,-0.458541,-1.00134,0.071253,3.64931,1.14421,-0.340555,-0.243922
1648353,1,-1.57035,-0.522879,-9.6842e-05,-2.09704,-0.00150221,1.57128,0.785753,-1.57077,-0.52358,-2.50466e-05,-2.09443,-1.53644e-05,1.57085,0.785409,0.000267688,0.00175895,-0.00524971,-0.000319056,0.000505177,-0.000477117,-0.000509406,0.0121976,0.0075,-0.01,-0.0125,-0.00609637,0.02,0.00410645,-0.478199,-9.93533,-0.456784,22.0627,1.84236,1.34054,-0.219534,-0.449865,-1.00081,0.085128,3.64829,1.14463,-0.340676,-0.244229
1648354,1,-1.57035,-0.522888,-9.21256e-05,-2.09704,-0.00150402,1.57128,0.785758,-1.57075,-0.523571,-3.75466e-05,-2.09444,-2.29848e-05,1.57087,0.785414,-0.00158478,-0.0019464,-0.00294901,-0.000801877,-0.00814672,-0.000318078,0.00135582,0.015247,0.009375,-0.0125,-0.015625,-0.00762046,0.025,0.00513307,-0.402821,-9.37991,-0.635312,21.666,1.82039,1.34054,-0.26531,-0.441584,-1.00163,0.0981465,3.64835,1.14505,-0.340683,-0.244429
1648355,1,-1.57035,-0.522882,-0.000101763,-2.09703,-0.00150168,1.57128,0.785753,-1.57073,-0.523559,-5.25466e-05,-2.09446,-3.21294e-05,1.5709,0.78542,0.000982924,-6.82548e-05,-0.00452456,0.00247773,-0.00495131,-0.00116149,-0.000791543,0.0182964,0.01125,-0.015,-0.01875,-0.00914456,0.03,0.00615968,-0.355213,-8.8483,-0.686887,21.0947,1.78652,1.36618,-0.219534,-0.433869,-0.999769,0.109784,3.64727,1.14544,-0.340731,-0.244524
1648356,1,-1.57034,-0.522868,-0.000111545,-2.09703,-0.001499,1.57128,0.785755,-1.57071,-0.523546,-7.00466e-05,-2.09448,-4.2798e-05,1.57094,0.785427,0.00577494,0.00205013,-0.00513905,0.00241598,-0.00743309,-0.00196112,-5.29774e-05,0.0213458,0.013125,-0.0175,-0.021875,-0.0106687,0.035,0.00718629,-0.430592,-8.32065,-0.762265,20.5988,1.75813,1.39822,-0.232351,-0.428369,-0.995051,0.117936,3.64351,1.14562,-0.340917,-0.244541
1648357,1,-1.57033,-0.522851,-0.000119801,-2.09703,-0.00150357,1.57128,0.785753,-1.57069,-0.523531,-9.00466e-05,-2.09451,-5.49908e-05,1.57098,0.785435,0.00747404,0.00571628,-0.00560056,0.00408428,-0.00618163,-0.00154477,-0.000510036,0.0243952,0.015,-0.02,-0.025,-0.0121927,0.04,0.0082129,-0.430592,-7.86441,-0.837644,19.9997,1.76912,1.40463,-0.219534,-0.426638,-0.992733,0.12076,3.63834,1.14544,-0.341046,-0.244474
1648358,1,-1.57033,-0.522824,-0.000133299,-2.09704,-0.00150408,1.57128,0.785756,-1.57066,-0.523514,-0.000112547,-2.09454,-6.87076e-05,1.57102,0.785445,0.00438153,0.0120378,-0.00719684,0.000401831,-0.00453214,-0.00174192,0.00064332,0.0274445,0.016875,-0.0225,-0.028125,-0.0137168,0.045,0.00923952,-0.379017,-7.55893,-0.861447,19.603,1.76363,1.42385,-0.246084,-0.427307,-1.00085,0.119898,3.63523,1.14499,-0.340673,-0.244319
1648359,1,-1.57033,-0.522801,-0.000143257,-2.09705,-0.00150252,1.57128,0.78576,-1.57063,-0.523496,-0.000137547,-2.09457,-8.39485e-05,1.57107,0.785455,0.00933815,0.015573,-0.00765242,-2.93916e-05,-0.00283804,-0.001636,0.000666239,0.0304939,0.01875,-0.025,-0.03125,-0.0152409,0.05,0.0102661,-0.355213,-7.20584,-0.913022,19.2301,1.74623,1.43667,-0.252493,-0.428154,-1.02721,0.118095,3.6382,1.14444,-0.33927,-0.24409
1648360,1,-1.57032,-0.522779,-0.000153146,-2.09706,-0.00150335,1.57129,0.785761,-1.57059,-0.523473,-0.000167075,-2.0946,-0.00010163,1.57113,0.785467,0.00904846,0.0175834,-0.00741981,-0.00362419,-0.00247504,-0.00061595,0.0002068,0.0358261,0.0225,-0.029528,-0.0375,-0.0176816,0.06,0.011887,-0.303639,-6.82895,-0.988401,18.881,1.75264,1.42385,-0.246084,-0.429824,-1.07137,0.114298,3.64752,1.14378,-0.33663,-0.243814
1648361,1,-1.57031,-0.522762,-0.000165239,-2.09707,-0.00150024,1.5713,0.785757,-1.57055,-0.523447,-0.000201131,-2.09465,-0.000121752,1.5712,0.78548,0.0082363,0.015902,-0.00786328,-0.00851498,-0.000858111,-0.000647992,-0.00108284,0.0411582,0.02625,-0.034056,-0.04375,-0.0201223,0.07,0.013508,-0.22826,-6.44809,-1.03998,18.635,1.72426,1.43026,-0.213125,-0.432419,-1.12535,0.107878,3.66058,1.14302,-0.332774,-0.243526
1648362,1,-1.5703,-0.522748,-0.000178152,-2.09708,-0.00150284,1.5713,0.785756,-1.57051,-0.523417,-0.000239715,-2.0947,-0.000144315,1.57128,0.785495,0.00960235,0.0141005,-0.010114,-0.00974259,-0.000563056,0.00115654,-0.0023834,0.0464904,0.03,-0.038584,-0.05,-0.022563,0.08,0.0151289,-0.22826,-6.04343,-1.14312,18.4327,1.71877,1.51449,-0.168264,-0.434256,-1.17727,0.100731,3.67287,1.14219,-0.32793,-0.24325
1648363,1,-1.57028,-0.522728,-0.000195413,-2.0971,-0.00150395,1.57131,0.785752,-1.57045,-0.523383,-0.000282827,-2.09475,-0.000169319,1.57137,0.785512,0.00985398,0.0177182,-0.0145739,-0.0141615,-0.00420308,0.00241549,-0.00328436,0.0518226,0.03375,-0.043112,-0.05625,-0.0250037,0.09,0.0167498,-0.204456,-5.58719,-1.26611,18.1113,1.69039,1.61062,-0.122488,-0.433127,-1.22025,0.0961065,3.68098,1.14137,-0.322364,-0.242954
1648364,1,-1.57026,-0.522707,-0.00021811,-2.09711,-0.00150603,1.57131,0.785754,-1.5704,-0.523346,-0.000330466,-2.09482,-0.000196763,1.57147,0.78553,0.0149999,0.0185855,-0.0185294,-0.0157653,-0.00245813,0.00147636,-0.00147749,0.0571547,0.0375,-0.04764,-0.0625,-0.0274444,0.1,0.0183707,-0.252064,-4.90482,-1.36926,17.5876,1.6675,1.75894,-0.141714,-0.427428,-1.25644,0.0968201,3.6855,1.14062,-0.315987,-0.242544
1648365,1,-1.57024,-0.522683,-0.000250496,-2.09713,-0.00150765,1.57132,0.785754,-1.57033,-0.523304,-0.000382634,-2.09489,-0.000226649,1.57158,0.78555,0.0183354,0.0200652,-0.0251525,-0.0177533,-0.00443668,0.00711816,-0.00122236,0.0624869,0.04125,-0.0521679,-0.06875,-0.029885,0.11,0.0199916,-0.279835,-4.09946,-1.44464,16.9449,1.61073,1.87521,-0.135305,-0.417153,-1.28625,0.103653,3.6858,1.1399,-0.308721,-0.241933
1648366,1,-1.5702,-0.522648,-0.000289723,-2.09716,-0.00150535,1.57134,0.785757,-1.57027,-0.523259,-0.00043933,-2.09496,-0.000258974,1.5717,0.785572,0.0259527,0.0233562,-0.0302263,-0.0215055,-0.000905363,0.0125231,-0.000814903,0.067819,0.045,-0.0566959,-0.075,-0.0323257,0.12,0.0216125,-0.402821,-3.36551,-1.52002,16.2467,1.53749,1.95852,-0.135305,-0.403103,-1.30911,0.116295,3.68057,1.1391,-0.300502,-0.241087
1648367,1,-1.57016,-0.522604,-0.00033123,-2.0972,-0.00150997,1.57136,0.785761,-1.57019,-0.523211,-0.000500554,-2.09504,-0.000293741,1.57183,0.785595,0.0312628,0.0279734,-0.0339875,-0.0269345,-0.00348538,0.0183511,0.000440075,0.0731512,0.04875,-0.0612239,-0.08125,-0.0347664,0.13,0.0232334,-0.379017,-2.70694,-1.5954,15.6516,1.47524,1.99697,-0.161856,-0.387611,-1.32965,0.131989,3.67183,1.13806,-0.290932,-0.239993
1648368,1,-1.57013,-0.522551,-0.000381099,-2.09724,-0.00151131,1.5714,0.785763,-1.57011,-0.523158,-0.000566306,-2.09513,-0.000330948,1.57197,0.78562,0.0344965,0.0336343,-0.0379009,-0.0314804,-0.00118714,0.0231429,-0.000181334,0.0784833,0.0525,-0.0657519,-0.0875,-0.0372071,0.14,0.0248543,-0.327442,-2.15152,-1.62317,15.0525,1.42397,2.0162,-0.149038,-0.372707,-1.3548,0.147767,3.66307,1.13665,-0.279494,-0.23866
1648369,1,-1.57009,-0.522494,-0.000430971,-2.09729,-0.00151944,1.57145,0.785768,-1.57003,-0.523102,-0.000636586,-2.09522,-0.000370596,1.57212,0.785647,0.0355176,0.0422007,-0.0433658,-0.040852,-0.00577972,0.0338227,0.000116469,0.0838155,0.05625,-0.0702799,-0.09375,-0.0396478,0.15,0.0264752,-0.204456,-1.67148,-1.67474,14.5804,1.41847,1.96493,-0.155447,-0.357276,-1.39311,0.164595,3.65864,1.13494,-0.265723,-0.23713
1648370,1,-1.57004,-0.522452,-0.000482322,-2.09734,-0.00152875,1.57152,0.785763,-1.56994,-0.52304,-0.000712866,-2.09533,-0.000413262,1.57229,0.785675,0.0370952,0.0427383,-0.0430494,-0.0460245,-0.004667,0.0428347,-0.00209249,0.0908067,0.061875,-0.0762795,-0.103125,-0.042666,0.165,0.0284338,-0.101307,-1.06448,-1.77392,14.1599,1.41847,1.88162,-0.0968531,-0.33997,-1.44775,0.183339,3.66049,1.13297,-0.249503,-0.235448
1648371,1,-1.56998,-0.522407,-0.00053908,-2.0974,-0.00153885,1.5716,0.785759,-1.56984,-0.522972,-0.000795145,-2.09544,-0.000458946,1.57247,0.785705,0.043756,0.0411973,-0.0494497,-0.0493852,-0.00392518,0.055078,-0.00380249,0.0977978,0.0675,-0.0822791,-0.1125,-0.0456841,0.18,0.0303924,-0.101307,-0.509064,-1.8493,13.8623,1.42397,1.77816,-0.0318506,-0.322019,-1.50487,0.20141,3.66151,1.13057,-0.231628,-0.233637
1648372,1,-1.56991,-0.522364,-0.000597083,-2.09747,-0.00154718,1.57169,0.785754,-1.56974,-0.522899,-0.000883423,-2.09556,-0.000507648,1.57266,0.785738,0.0537371,0.0400892,-0.0514876,-0.0550193,-0.00732169,0.0658522,-0.00589193,0.104789,0.073125,-0.0882787,-0.121875,-0.0487023,0.195,0.0323511,-0.176685,0.0463562,-1.92468,13.7116,1.41298,1.73971,0.0587866,-0.306443,-1.54492,0.214724,3.6514,1.12743,-0.213307,-0.231651
1648373,1,-1.56985,-0.522325,-0.000660404,-2.09755,-0.00155741,1.57178,0.785757,-1.56963,-0.522821,-0.000977702,-2.09569,-0.000559368,1.57287,0.785772,0.0540883,0.0418263,-0.0549005,-0.0638584,-0.0047646,0.0758215,0.00032693,0.11178,0.07875,-0.0942783,-0.13125,-0.0517204,0.21,0.0343097,-0.101307,0.7565,-2.05163,13.5132,1.39009,1.79098,0.071604,-0.295365,-1.56047,0.220392,3.62738,1.12347,-0.195155,-0.229356
1648374,1,-1.56977,-0.522283,-0.000732636,-2.09763,-0.00156754,1.57189,0.785756,-1.56951,-0.522736,-0.00107798,-2.09583,-0.000614107,1.5731,0.785808,0.065868,0.0432481,-0.061352,-0.0674691,-0.00596199,0.0842717,-9.999e-05,0.118771,0.084375,-0.100278,-0.140625,-0.0547386,0.225,0.0362683,-0.125111,1.61343,-2.15478,13.0887,1.32784,1.93289,0.09083,-0.288239,-1.55376,0.219126,3.59177,1.11881,-0.17728,-0.226601
1648375,1,-1.56968,-0.522224,-0.000820912,-2.09771,-0.00158356,1.572,0.785762,-1.56938,-0.522646,-0.00118426,-2.09598,-0.000671864,1.57334,0.785847,0.0769495,0.0496471,-0.0684532,-0.0762942,-0.00851957,0.0965349,0.00545373,0.125763,0.09,-0.106277,-0.15,-0.0577568,0.24,0.0382269,-0.204456,2.39896,-2.15478,12.4936,1.30586,2.07479,0.0780126,-0.285042,-1.53122,0.211913,3.54797,1.11351,-0.159588,-0.223275
1648376,1,-1.56958,-0.522152,-0.000908503,-2.09781,-0.00159745,1.57216,0.785767,-1.56925,-0.522551,-0.00129653,-2.09614,-0.000732639,1.57359,0.785887,0.0837502,0.0554742,-0.0757292,-0.084034,-0.00847338,0.111713,0.00820336,0.132754,0.095625,-0.112277,-0.159375,-0.0607749,0.255,0.0401855,-0.252064,3.1329,-2.20636,11.9223,1.23171,2.05557,0.0972387,-0.285493,-1.50416,0.200143,3.50176,1.10768,-0.141597,-0.219338
1648377,1,-1.56948,-0.522064,-0.000999482,-2.09793,-0.0016178,1.57233,0.785773,-1.56911,-0.522449,-0.00141481,-2.09631,-0.000796432,1.57386,0.785929,0.0885984,0.0674594,-0.0812654,-0.0906563,-0.0140354,0.135175,0.010057,0.139745,0.10125,-0.118277,-0.16875,-0.0637931,0.27,0.0421441,-0.279835,3.68832,-2.25396,11.3749,1.17586,1.95211,0.122873,-0.28681,-1.48563,0.187753,3.45885,1.10155,-0.122841,-0.21482
1648378,1,-1.56937,-0.521977,-0.00109928,-2.09805,-0.00163256,1.57254,0.785784,-1.56896,-0.522342,-0.00153909,-2.09649,-0.000863243,1.57415,0.785973,0.0969289,0.0725002,-0.0856604,-0.0988585,-0.012105,0.159867,0.0129751,0.146736,0.106875,-0.124276,-0.178125,-0.0668113,0.285,0.0441027,-0.252064,4.26755,-2.28174,10.9543,1.08522,1.77175,0.110056,-0.287605,-1.48359,0.176262,3.42145,1.09522,-0.103344,-0.209765
1648379,1,-1.56925,-0.521887,-0.00119821,-2.09819,-0.00166001,1.57276,0.785799,-1.56881,-0.52223,-0.00166936,-2.09668,-0.000933072,1.57445,0.786019,0.102601,0.0764981,-0.0879963,-0.108026,-0.0187805,0.182081,0.0152096,0.153727,0.1125,-0.130276,-0.1875,-0.0698294,0.3,0.0460613,-0.176685,4.82297,-2.35711,10.5536,1.08522,1.62344,0.09083,-0.28949,-1.49431,0.162867,3.38748,1.08852,-0.0835457,-0.204214
1648380,1,-1.56914,-0.521805,-0.00130056,-2.09833,-0.00169092,1.57299,0.78581,-1.56865,-0.52211,-0.00180666,-2.09688,-0.00100634,1.57477,0.786067,0.105448,0.078137,-0.0892183,-0.121803,-0.0236056,0.201155,0.0152052,0.161866,0.119954,-0.137296,-0.199509,-0.0732695,0.31999,0.0482125,-0.0497324,5.42996,-2.4563,10.3553,1.07973,1.51449,0.116465,-0.293908,-1.50802,0.144478,3.35422,1.08129,-0.0638781,-0.198237
1648381,1,-1.56901,-0.521723,-0.00141072,-2.09849,-0.00172441,1.57325,0.785826,-1.56848,-0.521983,-0.00195098,-2.09709,-0.00108305,1.57511,0.786118,0.115338,0.0760184,-0.0964417,-0.133319,-0.0275905,0.222408,0.0193852,0.170004,0.127408,-0.144317,-0.211519,-0.0767097,0.33998,0.0503638,-0.125111,6.03696,-2.55945,10.1807,1.08522,1.46871,0.155832,-0.300582,-1.51371,0.120707,3.31944,1.07354,-0.0446901,-0.191929
1648382,1,-1.56887,-0.521641,-0.00152403,-2.09865,-0.00176596,1.57352,0.785834,-1.5683,-0.521848,-0.00210231,-2.09731,-0.0011632,1.57547,0.78617,0.125513,0.0801216,-0.104396,-0.145319,-0.0306475,0.234482,0.0155818,0.178142,0.134862,-0.151337,-0.223528,-0.0801498,0.35997,0.052515,-0.176685,6.64395,-2.6864,10.0339,1.1017,1.51449,0.259287,-0.308596,-1.50251,0.0935148,3.28092,1.06527,-0.0263072,-0.185357
1648383,1,-1.56871,-0.521554,-0.00164368,-2.09882,-0.00181248,1.5738,0.785849,-1.56811,-0.521705,-0.00226067,-2.09755,-0.00124679,1.57585,0.786225,0.136351,0.0854536,-0.109679,-0.151549,-0.0325232,0.251611,0.0188449,0.18628,0.142315,-0.158358,-0.235538,-0.0835899,0.37996,0.0546662,-0.327442,7.32632,-2.83716,9.78397,1.1136,1.63626,0.330698,-0.317949,-1.47519,0.0640028,3.23865,1.05652,-0.00886565,-0.178485
1648384,1,-1.56854,-0.521466,-0.00177359,-2.099,-0.00186077,1.57409,0.78587,-1.56792,-0.521556,-0.00242605,-2.09779,-0.00133382,1.57625,0.786282,0.146732,0.0872868,-0.115144,-0.161881,-0.0378661,0.268269,0.0186305,0.194418,0.149769,-0.165378,-0.247547,-0.08703,0.39995,0.0568175,-0.50597,8.23483,-2.9403,9.38724,1.09621,1.78457,0.349924,-0.330132,-1.43389,0.0305399,3.19204,1.04726,0.0075177,-0.171183
1648385,1,-1.56836,-0.52135,-0.00191397,-2.09918,-0.00191275,1.57442,0.785892,-1.56771,-0.521398,-0.00259845,-2.09805,-0.00142429,1.57667,0.786341,0.156553,0.0972378,-0.123682,-0.1694,-0.0402555,0.286481,0.017397,0.202557,0.157223,-0.172399,-0.259557,-0.0904701,0.41994,0.0589687,-0.632923,8.94498,-2.98791,8.81595,1.03945,1.92007,0.394785,-0.345529,-1.38116,-0.00704167,3.14113,1.03759,0.0229863,-0.163309
1648386,1,-1.56819,-0.521227,-0.00205523,-2.09938,-0.00196558,1.57477,0.785913,-1.5675,-0.521234,-0.00277787,-2.09833,-0.0015182,1.57711,0.786402,0.163478,0.103684,-0.128003,-0.18302,-0.0418792,0.309698,0.0215603,0.210695,0.164677,-0.179419,-0.271566,-0.0939102,0.43993,0.06112,-0.632923,9.67892,-3.11487,8.29227,0.966203,1.93289,0.434153,-0.362741,-1.32624,-0.0464358,3.08984,1.02772,0.0381768,-0.154777
1648387,1,-1.568,-0.52109,-0.00220987,-2.09961,-0.00202566,1.57515,0.785943,-1.56728,-0.521062,-0.00296431,-2.09861,-0.00161555,1.57757,0.786465,0.173973,0.112458,-0.139986,-0.194289,-0.0484749,0.334867,0.0222784,0.218833,0.172131,-0.18644,-0.283575,-0.0973504,0.45992,0.0632712,-0.632923,10.2581,-3.14264,7.82016,0.921343,1.84866,0.407602,-0.379724,-1.27768,-0.0845083,3.04247,1.01786,0.0537971,-0.145547
1648388,1,-1.56781,-0.520951,-0.00238119,-2.09984,-0.0020902,1.57557,0.785975,-1.56706,-0.520882,-0.00315777,-2.0989,-0.00171634,1.57805,0.78653,0.179749,0.122402,-0.146679,-0.208249,-0.0532021,0.36361,0.026508,0.226971,0.179585,-0.19346,-0.295585,-0.10079,0.47991,0.0654224,-0.605152,10.8136,-3.11487,7.42344,0.875566,1.62344,0.401194,-0.393586,-1.24153,-0.116883,3.002,1.0082,0.0702702,-0.13563
1648389,1,-1.5676,-0.520805,-0.00254649,-2.10009,-0.00216078,1.576,0.786017,-1.56682,-0.520695,-0.00335825,-2.09921,-0.00182057,1.57855,0.786598,0.186806,0.126747,-0.156826,-0.22067,-0.0573332,0.388227,0.0311601,0.23511,0.187038,-0.200481,-0.307594,-0.104231,0.4999,0.0675737,-0.557545,11.3452,-3.14264,7.12589,0.841692,1.43667,0.349924,-0.401718,-1.21888,-0.14008,2.96886,0.998811,0.0875569,-0.125117
1648390,1,-1.56739,-0.52066,-0.00271988,-2.10035,-0.00223669,1.57646,0.78606,-1.56658,-0.5205,-0.0035665,-2.09953,-0.00192845,1.57907,0.786668,0.191895,0.133924,-0.160452,-0.233661,-0.0620071,0.406938,0.0345355,0.243969,0.194528,-0.208255,-0.320084,-0.107882,0.51989,0.0698478,-0.478199,11.853,-3.16644,6.85215,0.841692,1.33413,0.304148,-0.403524,-1.2033,-0.153984,2.94026,0.989592,0.105212,-0.114161
1648391,1,-1.56716,-0.520516,-0.00289289,-2.10062,-0.00231826,1.57693,0.786093,-1.56633,-0.520298,-0.00378253,-2.09986,-0.00203999,1.57961,0.78674,0.20522,0.135285,-0.164577,-0.242544,-0.0662836,0.428566,0.0372514,0.252828,0.202018,-0.216028,-0.332574,-0.111533,0.53988,0.0721219,-0.529774,12.3806,-3.29339,6.5546,0.859087,1.3085,0.375559,-0.40291,-1.18421,-0.164902,2.91106,0.980195,0.122494,-0.102939
1648392,1,-1.56691,-0.520371,-0.00308395,-2.1009,-0.00240797,1.57742,0.786132,-1.56606,-0.520089,-0.00400633,-2.10021,-0.00215517,1.58017,0.786814,0.217403,0.138667,-0.173659,-0.253237,-0.0688223,0.445184,0.0399181,0.261688,0.209508,-0.223802,-0.345064,-0.115184,0.55987,0.074396,-0.680531,12.94,-3.3172,6.32846,0.881059,1.36618,0.434153,-0.405457,-1.1483,-0.180652,2.87411,0.970196,0.138514,-0.0916071
1648393,1,-1.56667,-0.520221,-0.00327777,-2.10118,-0.00250229,1.57792,0.786178,-1.56579,-0.519872,-0.00423791,-2.10057,-0.00227401,1.58075,0.786891,0.228009,0.145768,-0.17455,-0.265713,-0.0748644,0.466556,0.039158,0.270547,0.216998,-0.231576,-0.357554,-0.118835,0.57986,0.0766701,-0.78368,13.4439,-3.44415,6.1301,0.892961,1.50808,0.44697,-0.414482,-1.09051,-0.205522,2.82677,0.959449,0.152928,-0.0802045
1648394,1,-1.5664,-0.520054,-0.00348132,-2.10149,-0.0026004,1.57846,0.786223,-1.56551,-0.519647,-0.00447726,-2.10094,-0.00239649,1.58135,0.78697,0.242931,0.149945,-0.182051,-0.274614,-0.079753,0.48341,0.0370802,0.279406,0.224488,-0.23935,-0.370044,-0.122486,0.59985,0.0789442,-0.934437,13.8485,-3.5711,5.93174,0.892961,1.61703,0.49824,-0.432818,-1.0143,-0.2434,2.7708,0.947986,0.165943,-0.0686671
1648395,1,-1.56613,-0.519884,-0.00369488,-2.10181,-0.00270205,1.57902,0.78628,-1.56523,-0.519415,-0.00472438,-2.10132,-0.00252263,1.58196,0.787051,0.248992,0.155427,-0.190556,-0.287842,-0.088166,0.503198,0.0391117,0.288265,0.231978,-0.247124,-0.382534,-0.126138,0.61984,0.0812183,-0.958241,14.1501,-3.5711,5.88016,0.909441,1.64907,0.453379,-0.459393,-0.921318,-0.292349,2.70696,0.936018,0.177903,-0.0569418
1648396,1,-1.56584,-0.519701,-0.00391436,-2.10214,-0.00280639,1.57961,0.78634,-1.56493,-0.519176,-0.00497928,-2.10171,-0.00265242,1.5826,0.787135,0.258672,0.165166,-0.197021,-0.3025,-0.096676,0.52603,0.0447733,0.297125,0.239468,-0.254897,-0.395024,-0.129789,0.63983,0.0834924,-1.109,14.3286,-3.67425,5.78098,0.887468,1.60421,0.42042,-0.488974,-0.818211,-0.344822,2.63935,0.924014,0.189494,-0.045024
1648397,1,-1.56557,-0.519508,-0.00414017,-2.10248,-0.002911,1.58023,0.786394,-1.56462,-0.518929,-0.00524195,-2.10212,-0.00278586,1.58326,0.78722,0.26247,0.173226,-0.20628,-0.315313,-0.098411,0.550828,0.0466014,0.305984,0.246958,-0.262671,-0.407514,-0.13344,0.65982,0.0857665,-0.958241,14.4555,-3.74963,5.6818,0.847185,1.57858,0.44697,-0.516915,-0.716589,-0.394462,2.57438,0.912415,0.201401,-0.0329841
1648398,1,-1.56526,-0.51931,-0.00437866,-2.10284,-0.00302026,1.58087,0.786466,-1.56431,-0.518675,-0.0055124,-2.10254,-0.00292295,1.58394,0.787309,0.274415,0.183194,-0.215686,-0.334543,-0.101702,0.57198,0.0525118,0.314843,0.254448,-0.270445,-0.420004,-0.137091,0.67981,0.0880406,-1.06139,14.5309,-3.72583,5.63419,0.841692,1.49526,0.36915,-0.539927,-0.62586,-0.436534,2.5174,0.901471,0.21411,-0.0209375
1648399,1,-1.56497,-0.519103,-0.0046236,-2.10321,-0.00313241,1.58154,0.786535,-1.56398,-0.518413,-0.00579062,-2.10297,-0.00306369,1.58464,0.787399,0.277645,0.187323,-0.22245,-0.348876,-0.103283,0.608016,0.0580813,0.323703,0.261938,-0.278219,-0.432494,-0.140742,0.6998,0.0903147,-0.958241,14.5825,-3.69806,5.63419,0.802324,1.33413,0.36915,-0.556869,-0.549239,-0.469445,2.47118,0.891241,0.227774,-0.00900172
1648400,1,-1.56465,-0.518891,-0.00487096,-2.10359,-0.00324921,1.58224,0.78661,-1.56365,-0.518143,-0.00607713,-2.10342,-0.00320815,1.58536,0.787491,0.29187,0.200968,-0.229382,-0.357733,-0.109057,0.631353,0.0622639,0.332975,0.269428,-0.286517,-0.444984,-0.14446,0.71979,0.0926466,-1.03362,14.6579,-3.72583,5.55881,0.784929,1.12814,0.36915,-0.569271,-0.48407,-0.495605,2.43296,0.881546,0.241753,0.0026944
1648401,1,-1.56432,-0.518686,-0.00513498,-2.10398,-0.00337074,1.58293,0.786687,-1.56331,-0.517866,-0.00637195,-2.10388,-0.00335633,1.5861,0.787586,0.304405,0.206621,-0.241636,-0.372606,-0.115646,0.654128,0.0706425,0.342247,0.276918,-0.294815,-0.457474,-0.148177,0.73978,0.0949786,-1.06139,14.8602,-3.69806,5.55881,0.71718,1.10159,0.356333,-0.58002,-0.429047,-0.51849,2.39954,0.8721,0.255263,0.0140634
1648402,1,-1.56398,-0.518456,-0.00539722,-2.10438,-0.00349502,1.58364,0.786768,-1.56296,-0.517582,-0.00667506,-2.10435,-0.00350822,1.58686,0.787684,0.316033,0.213691,-0.248212,-0.379962,-0.119483,0.672039,0.0711915,0.351519,0.284408,-0.303113,-0.469964,-0.151895,0.75977,0.0973105,-1.18834,14.9356,-3.72583,5.43583,0.700701,1.28836,0.36915,-0.590965,-0.378962,-0.539816,2.36756,0.862642,0.267696,0.0250587
1648403,1,-1.56363,-0.51823,-0.00567703,-2.10479,-0.00362522,1.58437,0.786847,-1.5626,-0.51729,-0.00698647,-2.10483,-0.00366384,1.58764,0.787783,0.326079,0.219137,-0.255489,-0.389048,-0.126518,0.685722,0.0754368,0.36079,0.291898,-0.311411,-0.482454,-0.155612,0.77976,0.0996425,-1.21215,15.011,-3.72583,5.28507,0.688799,1.48794,0.394785,-0.603564,-0.323288,-0.561675,2.33101,0.852858,0.278496,0.0356586
1648404,1,-1.56328,-0.517988,-0.00595871,-2.10521,-0.00376808,1.58512,0.786931,-1.56223,-0.516991,-0.00730618,-2.10532,-0.00382316,1.58844,0.787885,0.332442,0.226813,-0.262757,-0.398187,-0.136358,0.708146,0.0786889,0.370062,0.299388,-0.319709,-0.494944,-0.159329,0.79975,0.101974,-1.23595,15.0348,-3.77343,5.13431,0.71718,1.49526,0.434153,-0.617936,-0.255677,-0.584841,2.2858,0.842597,0.2876,0.0458812
1648405,1,-1.56291,-0.517734,-0.00624759,-2.10564,-0.00391053,1.58591,0.787014,-1.56185,-0.516684,-0.00763419,-2.10583,-0.00398621,1.58926,0.78799,0.348355,0.233583,-0.272864,-0.410343,-0.134555,0.733718,0.0793492,0.379334,0.306878,-0.328007,-0.507434,-0.163047,0.81974,0.104306,-1.28753,15.0348,-3.77343,5.0867,0.71718,1.44308,0.52479,-0.633288,-0.176139,-0.608315,2.23176,0.831906,0.295379,0.0557816
1648406,1,-1.56253,-0.517476,-0.00654757,-2.10608,-0.00405388,1.5867,0.787099,-1.56146,-0.516369,-0.00797049,-2.10635,-0.00415298,1.5901,0.788096,0.354935,0.24265,-0.277338,-0.418824,-0.137367,0.766101,0.0810877,0.388606,0.314368,-0.336305,-0.519924,-0.166764,0.83973,0.106638,-1.41448,14.9872,-3.87658,4.98752,0.71718,1.47512,0.588877,-0.650758,-0.0878228,-0.633458,2.17008,0.820796,0.302102,0.065475
1648407,1,-1.56214,-0.517202,-0.0068609,-2.10654,-0.0042007,1.58752,0.787197,-1.56106,-0.516047,-0.00831509,-2.10688,-0.00432346,1.59096,0.788205,0.362794,0.252433,-0.283782,-0.423813,-0.141997,0.782119,0.0848539,0.397878,0.321858,-0.344603,-0.532414,-0.170482,0.85972,0.10897,-1.41448,14.9078,-3.87658,4.83677,0.745561,1.50167,0.582468,-0.670868,0.00603122,-0.661589,2.10068,0.809301,0.307757,0.0751454
1648408,1,-1.56176,-0.51692,-0.00717904,-2.10701,-0.00434897,1.58838,0.787302,-1.56065,-0.515718,-0.00866799,-2.10743,-0.00449766,1.59184,0.788317,0.369878,0.263792,-0.293103,-0.433897,-0.13917,0.802906,0.0882791,0.40715,0.329348,-0.352901,-0.544904,-0.174199,0.87971,0.111302,-1.31133,14.8086,-3.92816,4.78916,0.757463,1.39181,0.563242,-0.691685,0.100369,-0.690549,2.02465,0.797565,0.312568,0.0849653
1648409,1,-1.56137,-0.516625,-0.00751343,-2.10747,-0.0044989,1.58926,0.787409,-1.56024,-0.515381,-0.00902919,-2.10799,-0.00467557,1.59274,0.78843,0.377535,0.274748,-0.303169,-0.443759,-0.13968,0.832455,0.0962255,0.416422,0.336838,-0.361199,-0.557394,-0.177917,0.8997,0.113634,-1.18834,14.7332,-3.84881,4.59079,0.745561,1.173,0.518381,-0.70989,0.187492,-0.715544,1.94608,0.785861,0.317005,0.0949958
1648410,1,-1.56096,-0.516321,-0.00784416,-2.10796,-0.00464029,1.59016,0.78752,-1.55981,-0.515037,-0.00939902,-2.10856,-0.00485719,1.59366,0.788546,0.391474,0.282722,-0.31305,-0.453937,-0.137543,0.851923,0.101526,0.42587,0.344328,-0.369829,-0.569884,-0.181613,0.91969,0.115978,-1.08519,14.6579,-3.82501,4.41623,0.643938,1.08236,0.485422,-0.724134,0.263777,-0.73431,1.8678,0.774369,0.321172,0.105191
1648411,1,-1.56055,-0.51601,-0.00820137,-2.10846,-0.00478662,1.59107,0.787627,-1.55938,-0.514685,-0.00977748,-2.10914,-0.00504249,1.5946,0.788665,0.403861,0.290161,-0.325811,-0.470331,-0.139951,0.863569,0.100163,0.435318,0.351818,-0.37846,-0.582374,-0.185308,0.93968,0.118322,-1.16057,14.5309,-3.69806,4.28928,0.524919,1.18582,0.472605,-0.735591,0.330403,-0.747878,1.792,0.763075,0.325184,0.115454
1648412,1,-1.56011,-0.515702,-0.00855989,-2.10896,-0.00494602,1.59199,0.787741,-1.55893,-0.514326,-0.0101646,-2.10973,-0.0052315,1.59556,0.788785,0.410853,0.294424,-0.332774,-0.480369,-0.147198,0.888337,0.103666,0.444766,0.359308,-0.38709,-0.594864,-0.189004,0.95967,0.120666,-1.23595,14.5547,-3.67425,4.06711,0.502947,1.20504,0.459788,-0.744474,0.391507,-0.756557,1.71993,0.751915,0.3292,0.125669
1648413,1,-1.55968,-0.515388,-0.00893109,-2.1095,-0.00511746,1.59296,0.787859,-1.55848,-0.513959,-0.0105603,-2.11034,-0.0054242,1.59654,0.788908,0.418809,0.304741,-0.346533,-0.49491,-0.153335,0.906766,0.111049,0.454214,0.366798,-0.39572,-0.607354,-0.1927,0.97966,0.123009,-1.26372,14.5825,-3.5711,4.01554,0.524919,1.18582,0.44697,-0.74886,0.45102,-0.758273,1.65055,0.740842,0.33313,0.135716
1648414,1,-1.55924,-0.515062,-0.00929955,-2.11004,-0.00529073,1.59393,0.787977,-1.55801,-0.513585,-0.0109646,-2.11096,-0.00562059,1.59754,0.789034,0.418879,0.308411,-0.346893,-0.510705,-0.157368,0.92965,0.116085,0.463662,0.374288,-0.404351,-0.619844,-0.196395,0.99965,0.125353,-1.06139,14.6579,-3.5711,4.04331,0.570696,1.21145,0.459788,-0.747033,0.508325,-0.751611,1.58482,0.729879,0.337113,0.145495
1648415,1,-1.55878,-0.514724,-0.00968166,-2.1106,-0.00546047,1.59492,0.788095,-1.55754,-0.513203,-0.0113776,-2.11159,-0.00582069,1.59856,0.789161,0.428532,0.316867,-0.361752,-0.522309,-0.159769,0.948944,0.113522,0.47311,0.381778,-0.412981,-0.632334,-0.200091,1.01964,0.127697,-1.08519,14.6301,-3.51953,4.14249,0.587175,1.23068,0.49824,-0.738916,0.564236,-0.737487,1.52313,0.719057,0.341288,0.154945
1648416,1,-1.55832,-0.514371,-0.0100806,-2.11117,-0.00563404,1.59594,0.788215,-1.55706,-0.512814,-0.0117992,-2.11224,-0.00602447,1.5996,0.789291,0.442382,0.329801,-0.371556,-0.547751,-0.167335,0.965799,0.113319,0.482558,0.389268,-0.421612,-0.644824,-0.203787,1.03963,0.130041,-1.13677,14.4555,-3.39654,4.24167,0.610063,1.2499,0.504648,-0.72551,0.611471,-0.716584,1.47038,0.708512,0.346214,0.164084
1648417,1,-1.55784,-0.514009,-0.0104856,-2.11176,-0.00581051,1.59696,0.788338,-1.55657,-0.512417,-0.0122295,-2.1129,-0.00623195,1.60066,0.789424,0.451331,0.342013,-0.382383,-0.561262,-0.168206,0.993252,0.116806,0.492006,0.396758,-0.430242,-0.657314,-0.207483,1.05962,0.132385,-1.18834,14.2532,-3.39654,4.38846,0.62105,1.27554,0.537607,-0.709302,0.633182,-0.690944,1.43678,0.69845,0.352864,0.172997
1648418,1,-1.55737,-0.51363,-0.0108867,-2.11236,-0.00599549,1.59802,0.788465,-1.55606,-0.512013,-0.0126683,-2.11357,-0.00644313,1.60174,0.789558,0.46215,0.362785,-0.387976,-0.573726,-0.17251,1.0078,0.120063,0.501454,0.404248,-0.438872,-0.669804,-0.211178,1.07961,0.134729,-1.109,14.0231,-3.36877,4.51542,0.638445,1.26913,0.556833,-0.693431,0.616855,-0.664554,1.42659,0.688887,0.361452,0.181773
1648419,1,-1.55688,-0.513246,-0.0113027,-2.11296,-0.00618636,1.59909,0.7886,-1.55555,-0.511601,-0.0131159,-2.11425,-0.00665801,1.60284,0.789695,0.468208,0.37081,-0.397205,-0.582891,-0.182072,1.02518,0.12042,0.510902,0.411738,-0.447503,-0.682294,-0.214874,1.0996,0.137072,-1.08519,13.797,-3.34497,4.6146,0.599077,1.29476,0.504648,-0.679818,0.560649,-0.640468,1.43659,0.679727,0.371548,0.190501
1648420,1,-1.55638,-0.51286,-0.0117184,-2.1136,-0.00637301,1.60019,0.788731,-1.55503,-0.511182,-0.0135722,-2.11494,-0.0068765,1.60396,0.789835,0.476989,0.372503,-0.41054,-0.60333,-0.185302,1.04219,0.123669,0.52034,0.419228,-0.45631,-0.694784,-0.218495,1.11959,0.139399,-0.958241,13.7454,-3.39654,4.78916,0.513933,1.30117,0.485422,-0.666425,0.482146,-0.61624,1.45786,0.670969,0.382522,0.199198
1648421,1,-1.55587,-0.512477,-0.0121515,-2.11427,-0.0065631,1.60131,0.788869,-1.5545,-0.510755,-0.0140373,-2.11565,-0.00709862,1.6051,0.789977,0.492392,0.375413,-0.416021,-0.618674,-0.183382,1.0704,0.133141,0.529778,0.426718,-0.465117,-0.707274,-0.222115,1.13958,0.141726,-1.18834,13.7732,-3.34497,4.93595,0.45717,1.32772,0.440561,-0.652868,0.406376,-0.591308,1.48132,0.662441,0.393825,0.20778
1648422,1,-1.55534,-0.512083,-0.0125949,-2.11494,-0.00675395,1.60244,0.789005,-1.55396,-0.510321,-0.0145112,-2.11637,-0.00732435,1.60626,0.790121,0.49918,0.379274,-0.422329,-0.635916,-0.18431,1.09232,0.133038,0.539215,0.434208,-0.473924,-0.719764,-0.225736,1.15957,0.144053,-1.31133,13.8485,-3.3172,5.0867,0.435198,1.30117,0.440561,-0.643927,0.348692,-0.572624,1.50149,0.653687,0.405017,0.216146
1648423,1,-1.55481,-0.511678,-0.0130326,-2.11562,-0.00695326,1.60359,0.789137,-1.55342,-0.509879,-0.0149939,-2.1171,-0.00755371,1.60744,0.790267,0.514995,0.38512,-0.428439,-0.644909,-0.187937,1.10997,0.135067,0.548653,0.441698,-0.482731,-0.732254,-0.229356,1.17956,0.14638,-1.31133,13.9755,-3.39654,5.11051,0.412309,1.33413,0.49824,-0.643511,0.315529,-0.565926,1.51453,0.644305,0.415681,0.224219
1648424,1,-1.55428,-0.511267,-0.0135021,-2.11631,-0.00716234,1.60475,0.78927,-1.55286,-0.50943,-0.0154855,-2.11785,-0.00778669,1.60864,0.790416,0.520629,0.392613,-0.440312,-0.65543,-0.201749,1.12908,0.13255,0.558091,0.449188,-0.491537,-0.744744,-0.232976,1.19955,0.148707,-1.31133,13.9755,-3.39654,5.0867,0.451677,1.36618,0.556833,-0.651222,0.307711,-0.570271,1.51735,0.63416,0.425422,0.231979
1648425,1,-1.55373,-0.510839,-0.0139861,-2.11702,-0.00738069,1.60593,0.789407,-1.55229,-0.508973,-0.0159858,-2.1186,-0.00802328,1.60986,0.790567,0.527556,0.402624,-0.450963,-0.670892,-0.209987,1.14067,0.132012,0.567528,0.456678,-0.500344,-0.757234,-0.236597,1.21954,0.151034,-1.41448,13.8723,-3.34497,4.98752,0.50844,1.34695,0.569651,-0.660909,0.317976,-0.576836,1.51185,0.623567,0.434367,0.239493
1648426,1,-1.55317,-0.510416,-0.0144651,-2.11776,-0.00760223,1.60714,0.789552,-1.55171,-0.508509,-0.016495,-2.11937,-0.0082635,1.6111,0.79072,0.541133,0.412199,-0.459476,-0.685544,-0.21195,1.1504,0.133139,0.576966,0.464168,-0.509151,-0.769724,-0.240217,1.23953,0.153361,-1.46209,13.8485,-3.29339,4.98752,0.485552,1.3854,0.550425,-0.668664,0.332771,-0.579968,1.5057,0.612899,0.443377,0.24689
1648427,1,-1.55262,-0.50997,-0.0149634,-2.11848,-0.00782138,1.60834,0.789684,-1.55113,-0.508037,-0.0170129,-2.12016,-0.00850734,1.61235,0.790876,0.547375,0.421523,-0.468173,-0.69572,-0.216273,1.1657,0.135228,0.586404,0.471658,-0.517958,-0.782214,-0.243838,1.25952,0.155688,-1.31133,13.7454,-3.21801,4.83677,0.462663,1.41745,0.615427,-0.675993,0.343611,-0.581393,1.50324,0.602229,0.452975,0.254274
1648428,1,-1.55204,-0.50952,-0.0154573,-2.11922,-0.00804549,1.6096,0.78983,-1.55053,-0.507558,-0.0175397,-2.12095,-0.0087548,1.61363,0.791034,0.549303,0.42989,-0.475007,-0.702013,-0.221321,1.18737,0.134289,0.595842,0.479148,-0.526765,-0.794704,-0.247458,1.27951,0.158015,-1.18834,13.6978,-3.16644,4.6622,0.462663,1.21145,0.615427,-0.681853,0.352178,-0.580246,1.50072,0.591584,0.462711,0.26168
1648429,1,-1.55147,-0.509081,-0.0159616,-2.11997,-0.00826738,1.61088,0.789978,-1.54993,-0.507072,-0.0180753,-2.12176,-0.00900587,1.61493,0.791194,0.555266,0.43433,-0.484552,-0.717095,-0.224771,1.2166,0.134895,0.605279,0.486638,-0.535572,-0.807194,-0.251079,1.2995,0.160342,-0.986012,13.7454,-3.16644,4.59079,0.406816,1.02468,0.588877,-0.683002,0.365693,-0.573202,1.49182,0.581045,0.471723,0.269133
1648430,1,-1.55088,-0.508624,-0.0164814,-2.12074,-0.00849435,1.61216,0.790127,-1.54931,-0.506578,-0.0186197,-2.12258,-0.00926047,1.61625,0.791357,0.56499,0.440122,-0.495168,-0.724848,-0.227067,1.24047,0.140212,0.61456,0.493815,-0.544429,-0.819684,-0.254592,1.31949,0.162635,-0.910633,13.7732,-3.19421,4.51542,0.327165,0.934962,0.595286,-0.678304,0.391615,-0.559043,1.47244,0.570611,0.479235,0.276634
1648431,1,-1.55029,-0.508178,-0.0170205,-2.12151,-0.00874484,1.61347,0.790287,-1.54869,-0.506077,-0.019173,-2.12341,-0.00951857,1.61759,0.791522,0.574032,0.450916,-0.509516,-0.73657,-0.2328,1.25622,0.15015,0.62384,0.500991,-0.553286,-0.832174,-0.258104,1.33948,0.164928,-0.934437,13.9993,-3.09106,4.41623,0.378435,0.825099,0.52479,-0.667479,0.4307,-0.53689,1.44194,0.560176,0.48477,0.284143
1648432,1,-1.54967,-0.507712,-0.0175672,-2.1223,-0.00900447,1.6148,0.790462,-1.54805,-0.505569,-0.0197351,-2.12425,-0.00978019,1.61895,0.791689,0.58551,0.453624,-0.515588,-0.753728,-0.242669,1.28639,0.156056,0.633121,0.508168,-0.562144,-0.844664,-0.261617,1.35947,0.167221,-0.958241,14.0509,-2.98791,4.41623,0.513933,0.554103,0.362742,-0.651718,0.477995,-0.508056,1.40411,0.549673,0.488375,0.291606
1648433,1,-1.54905,-0.507234,-0.0181026,-2.1231,-0.00925275,1.61613,0.79063,-1.54741,-0.505053,-0.0203061,-2.12511,-0.0100453,1.62033,0.791858,0.594381,0.46077,-0.521,-0.763018,-0.241869,1.29733,0.156176,0.642401,0.515344,-0.571001,-0.857154,-0.26513,1.37946,0.169514,-0.882862,14.0231,-3.14264,4.34085,0.547807,0.721644,0.297739,-0.636328,0.533297,-0.480303,1.36175,0.53902,0.490053,0.298887
1648434,1,-1.54843,-0.506741,-0.0186582,-2.1239,-0.00950613,1.61748,0.79079,-1.54676,-0.504531,-0.020886,-2.12598,-0.010314,1.62173,0.79203,0.607768,0.471942,-0.528222,-0.788543,-0.243816,1.30517,0.158477,0.651681,0.522521,-0.579858,-0.869644,-0.268642,1.39945,0.171807,-0.934437,13.8723,-3.19421,4.14249,0.599077,0.941371,0.316965,-0.627088,0.590084,-0.462009,1.32117,0.528261,0.490379,0.305748
1648435,1,-1.54779,-0.506241,-0.0192273,-2.12471,-0.00976188,1.61886,0.790969,-1.5461,-0.504001,-0.0214747,-2.12686,-0.0105861,1.62315,0.792204,0.612863,0.478492,-0.53982,-0.797468,-0.248865,1.3367,0.16786,0.660962,0.529697,-0.588715,-0.882134,-0.272155,1.41944,0.1741,-1.00982,13.7454,-3.11487,4.06711,0.60457,0.882777,0.252878,-0.624281,0.63615,-0.453499,1.29083,0.517742,0.490393,0.311952
1648436,1,-1.54716,-0.505744,-0.019784,-2.12556,-0.0100127,1.62027,0.791141,-1.54543,-0.503464,-0.0220723,-2.12776,-0.0108618,1.62459,0.792381,0.617862,0.491431,-0.547481,-0.816792,-0.24471,1.35955,0.166583,0.670242,0.536873,-0.597572,-0.894624,-0.275668,1.43943,0.176393,-0.934437,13.6978,-3.29339,4.28928,0.45717,0.754603,0.284922,-0.622852,0.667391,-0.447962,1.2712,0.507876,0.490318,0.317321
1648437,1,-1.5465,-0.505249,-0.020367,-2.12641,-0.0102701,1.62169,0.79132,-1.54475,-0.50292,-0.0226787,-2.12866,-0.011141,1.62605,0.792559,0.629878,0.493034,-0.55184,-0.828063,-0.252903,1.35483,0.172389,0.679523,0.54405,-0.606429,-0.907114,-0.279181,1.45942,0.178686,-0.934437,13.7216,-3.39654,4.51542,0.36104,0.612697,0.272104,-0.621633,0.685632,-0.444211,1.26025,0.4987,0.490299,0.32179
1648438,1,-1.54582,-0.50474,-0.0209566,-2.12729,-0.0105288,1.62313,0.79152,-1.54406,-0.502369,-0.023294,-2.12958,-0.0114237,1.62753,0.79274,0.641248,0.497296,-0.580064,-0.840529,-0.25516,1.37529,0.182545,0.688803,0.551226,-0.615287,-0.919604,-0.282693,1.47941,0.180979,-1.03362,13.7454,-3.29339,4.68998,0.332659,0.689601,0.116465,-0.619202,0.703275,-0.439496,1.25223,0.48995,0.490179,0.325369
1648439,1,-1.54516,-0.504229,-0.021545,-2.12819,-0.0107945,1.62458,0.791716,-1.54336,-0.501811,-0.0239181,-2.13052,-0.0117099,1.62903,0.792924,0.651365,0.505524,-0.582929,-0.856604,-0.255653,1.39381,0.188047,0.698083,0.558403,-0.624144,-0.932094,-0.286206,1.4994,0.183272,-0.882862,13.7216,-3.44415,4.96372,0.298784,0.831508,0.09083,-0.610523,0.729758,-0.425379,1.24197,0.481437,0.489399,0.328011
1648440,1,-1.54448,-0.503695,-0.0221611,-2.12908,-0.0110747,1.62604,0.791894,-1.54266,-0.501246,-0.0245511,-2.13146,-0.0119995,1.63055,0.793109,0.656738,0.514021,-0.586846,-0.869718,-0.260943,1.41652,0.184261,0.707093,0.564844,-0.632947,-0.944158,-0.289591,1.51835,0.185521,-0.755909,13.5708,-3.36877,5.0629,0.372942,0.902003,0.181467,-0.598977,0.760658,-0.407326,1.23151,0.472884,0.487926,0.329651
1648441,1,-1.54378,-0.503146,-0.0227832,-2.12999,-0.0113583,1.62752,0.792072,-1.54194,-0.500674,-0.0251928,-2.13242,-0.0122924,1.63208,0.793297,0.677162,0.521504,-0.600179,-0.881538,-0.260909,1.43444,0.179524,0.716102,0.571285,-0.64175,-0.956222,-0.292977,1.53731,0.187769,-0.882862,13.3923,-3.14264,5.0867,0.412309,1.05032,0.330698,-0.591561,0.791795,-0.396185,1.22233,0.463969,0.485908,0.33032
1648442,1,-1.54308,-0.502592,-0.0234055,-2.13091,-0.0116241,1.62902,0.792231,-1.54121,-0.500097,-0.0258434,-2.13339,-0.0125888,1.63364,0.793487,0.680548,0.532217,-0.608667,-0.891594,-0.265273,1.47719,0.17132,0.725111,0.577726,-0.650553,-0.968286,-0.296362,1.55626,0.190017,-0.882862,13.1146,-3.16644,5.16208,0.327165,1.07595,0.628245,-0.589451,0.822229,-0.393119,1.21264,0.454664,0.483218,0.330218
1648443,1,-1.54236,-0.502028,-0.024027,-2.13185,-0.0118942,1.63053,0.792413,-1.54048,-0.499513,-0.0265027,-2.13437,-0.0128885,1.63522,0.793679,0.683809,0.538693,-0.607159,-0.901339,-0.263946,1.48651,0.17236,0.73412,0.584168,-0.659356,-0.98035,-0.299748,1.57521,0.192265,-0.831288,12.8369,-3.19421,5.0629,0.293291,1.30117,0.744517,-0.591324,0.852314,-0.397123,1.19975,0.445069,0.479716,0.329784
1648444,1,-1.54165,-0.501461,-0.0246586,-2.1328,-0.0121779,1.63209,0.792604,-1.53974,-0.498922,-0.0271709,-2.13536,-0.0131917,1.63681,0.793874,0.69478,0.546076,-0.61368,-0.913693,-0.267455,1.49929,0.177971,0.74313,0.590609,-0.668159,-0.992414,-0.303133,1.59417,0.194513,-0.807484,12.4838,-3.16644,5.03513,0.298784,1.36618,0.738108,-0.598729,0.884285,-0.411855,1.18266,0.435061,0.475899,0.329669
1648445,1,-1.54094,-0.50089,-0.025311,-2.13374,-0.0124679,1.63364,0.792797,-1.53898,-0.498325,-0.0278479,-2.13636,-0.0134982,1.63842,0.794071,0.695916,0.553063,-0.620893,-0.92449,-0.276105,1.52027,0.183354,0.752139,0.59705,-0.676962,-1.00448,-0.306519,1.61312,0.196761,-0.529774,12.2061,-3.11487,4.93595,0.276811,1.34695,0.685923,-0.61137,0.919292,-0.437068,1.16205,0.424595,0.472564,0.330425
1648446,1,-1.54021,-0.500321,-0.0259598,-2.1347,-0.0127578,1.63523,0.793002,-1.53822,-0.497721,-0.0285336,-2.13738,-0.0138081,1.64005,0.79427,0.704985,0.557256,-0.635684,-0.930362,-0.280102,1.53524,0.185806,0.761148,0.603492,-0.685766,-1.01654,-0.309904,1.63207,0.199009,-0.402821,12.0791,-3.11487,4.81296,0.282305,1.2499,0.531199,-0.622544,0.961106,-0.463033,1.13529,0.413885,0.469859,0.332273
1648447,1,-1.53946,-0.499741,-0.0266387,-2.13567,-0.0130398,1.63684,0.793181,-1.53745,-0.497111,-0.0292282,-2.13841,-0.0141214,1.64171,0.794471,0.725094,0.563906,-0.652684,-0.960415,-0.274776,1.55123,0.189323,0.770157,0.609933,-0.694569,-1.02861,-0.313289,1.65103,0.201257,-0.50597,11.8252,-2.98791,4.83677,0.140398,1.25631,0.57606,-0.627542,1.00931,-0.481454,1.10449,0.403123,0.468252,0.335125
1648448,1,-1.5387,-0.499145,-0.0273207,-2.13667,-0.0133359,1.63846,0.793375,-1.53667,-0.496495,-0.0299316,-2.13945,-0.0144381,1.64338,0.794674,0.736848,0.572049,-0.658613,-0.970444,-0.287529,1.5769,0.191293,0.779167,0.616374,-0.703372,-1.04067,-0.316675,1.66998,0.203506,-0.632923,11.5237,-2.88873,4.93595,0.157793,1.19863,0.52479,-0.629292,1.05291,-0.494304,1.07986,0.392356,0.468743,0.338758
1648449,1,-1.53794,-0.498538,-0.0279969,-2.13769,-0.0136449,1.64011,0.793571,-1.53589,-0.495872,-0.0306437,-2.1405,-0.0147581,1.64506,0.79488,0.745772,0.593189,-0.664632,-0.982875,-0.290953,1.59363,0.193571,0.788176,0.622815,-0.712175,-1.05273,-0.32006,1.68893,0.205754,-0.708302,11.1429,-2.86493,5.13431,0.186174,1.16659,0.479014,-0.63328,1.07683,-0.509065,1.06764,0.381455,0.47144,0.342986
1648450,1,-1.53717,-0.497919,-0.0286846,-2.1387,-0.0139638,1.64176,0.793766,-1.53509,-0.495244,-0.0313646,-2.14156,-0.0150814,1.64677,0.795088,0.753633,0.597765,-0.665862,-0.995864,-0.299275,1.61264,0.19787,0.796829,0.628049,-0.720835,-1.06374,-0.323307,1.70548,0.207948,-0.680531,10.8413,-2.88873,5.33664,0.298784,1.2499,0.453379,-0.643369,1.07031,-0.532076,1.06934,0.370277,0.475935,0.347633
1648451,1,-1.53638,-0.497296,-0.0293777,-2.13974,-0.0142742,1.64343,0.79397,-1.53428,-0.494611,-0.0320941,-2.14264,-0.015408,1.64849,0.795298,0.760505,0.603791,-0.67707,-1.01156,-0.301852,1.62452,0.201517,0.805482,0.633282,-0.729496,-1.07475,-0.326554,1.72203,0.210143,-0.605152,10.5636,-2.81335,5.60642,0.36104,1.3854,0.394785,-0.659775,1.04072,-0.564443,1.08166,0.358856,0.481801,0.352464
1648452,1,-1.5356,-0.496674,-0.0300815,-2.14082,-0.0145851,1.64514,0.794173,-1.53347,-0.493972,-0.0328322,-2.14373,-0.0157378,1.65023,0.795511,0.765972,0.611581,-0.68466,-1.0286,-0.308987,1.64703,0.206716,0.814135,0.638515,-0.738157,-1.08575,-0.329801,1.73857,0.212337,-0.632923,10.4367,-2.91253,6.03092,0.350054,1.4559,0.375559,-0.677736,0.999859,-0.599802,1.10108,0.347525,0.488845,0.357223
1648453,1,-1.5348,-0.496039,-0.0308126,-2.1419,-0.0149033,1.64685,0.794366,-1.53265,-0.493329,-0.033579,-2.14482,-0.0160708,1.65199,0.795725,0.767697,0.613481,-0.70226,-1.04752,-0.314614,1.66953,0.203877,0.822788,0.643749,-0.746817,-1.09676,-0.333047,1.75512,0.214531,-0.656727,10.159,-2.76178,6.35227,0.293291,1.37258,0.44697,-0.688973,0.953463,-0.626662,1.12713,0.336847,0.497165,0.361667
1648454,1,-1.53399,-0.495407,-0.0315437,-2.143,-0.015227,1.64859,0.794567,-1.53182,-0.49268,-0.0343345,-2.14593,-0.0164071,1.65376,0.795942,0.794348,0.618672,-0.719726,-1.05732,-0.317587,1.67711,0.202475,0.831441,0.648982,-0.755478,-1.10777,-0.336294,1.77167,0.216726,-0.78368,9.90506,-2.65863,6.72519,0.276811,1.29476,0.504648,-0.688637,0.910815,-0.636841,1.15642,0.32704,0.506556,0.365657
1648455,1,-1.53318,-0.494781,-0.0322809,-2.14409,-0.0155465,1.65032,0.794767,-1.53098,-0.492025,-0.0350987,-2.14705,-0.0167467,1.65555,0.796161,0.796321,0.620947,-0.723741,-1.0664,-0.318303,1.71011,0.20077,0.840093,0.654215,-0.764138,-1.11877,-0.339541,1.78821,0.21892,-0.632923,9.57578,-2.63482,7.05051,0.220049,1.17941,0.588877,-0.681327,0.883295,-0.634869,1.18125,0.3177,0.516098,0.369242
1648456,1,-1.53236,-0.494158,-0.033022,-2.1452,-0.0158782,1.65209,0.794983,-1.53013,-0.491366,-0.0358715,-2.14818,-0.0170895,1.65735,0.796382,0.802927,0.619969,-0.743333,-1.07667,-0.329478,1.72416,0.202995,0.848746,0.659449,-0.772799,-1.12978,-0.342787,1.80476,0.221114,-0.581349,9.44882,-2.61102,7.1973,0.242937,1.11441,0.569651,-0.668497,0.883432,-0.623318,1.19261,0.308511,0.524428,0.372566
1648457,1,-1.53152,-0.493532,-0.0337807,-2.14632,-0.0162216,1.65394,0.795212,-1.52927,-0.490701,-0.0366529,-2.14932,-0.0174355,1.65917,0.796605,0.813687,0.624862,-0.745539,-1.08249,-0.333069,1.75131,0.211467,0.857399,0.664682,-0.781459,-1.14078,-0.346034,1.82131,0.223309,-0.755909,9.27426,-2.50787,7.32425,0.304277,0.651149,0.504648,-0.648292,0.919258,-0.600783,1.18496,0.29936,0.530518,0.37579
1648458,1,-1.53066,-0.492898,-0.0345468,-2.14743,-0.0165467,1.65573,0.79545,-1.5284,-0.490031,-0.037443,-2.15047,-0.0177848,1.66101,0.796831,0.82245,0.623224,-0.746996,-1.08665,-0.333,1.76426,0.221417,0.866052,0.669915,-0.79012,-1.15179,-0.349281,1.83785,0.225503,-0.910633,9.17111,-2.50787,7.29648,0.26491,0.670375,0.349924,-0.628767,0.993662,-0.579318,1.15478,0.28981,0.533399,0.37903
1648459,1,-1.5298,-0.492241,-0.0352986,-2.14855,-0.0168797,1.65754,0.795684,-1.52753,-0.489356,-0.0382418,-2.15163,-0.0181373,1.66286,0.797058,0.841073,0.63247,-0.74835,-1.09171,-0.329004,1.78034,0.223987,0.874705,0.675149,-0.798781,-1.1628,-0.352528,1.8544,0.227698,-1.03362,8.79422,-2.65863,7.1973,0.259416,0.767421,0.284922,-0.622689,1.10437,-0.576907,1.10129,0.279326,0.532303,0.382253
1648460,1,-1.52892,-0.491582,-0.0360811,-2.14967,-0.0172311,1.65937,0.795921,-1.52665,-0.488677,-0.039049,-2.15281,-0.0184929,1.66473,0.797288,0.8558,0.641001,-0.755265,-1.10143,-0.338594,1.83418,0.231781,0.88294,0.678799,-0.807223,-1.17224,-0.355631,1.86786,0.22983,-1.28753,8.46494,-2.65863,7.05051,0.293291,0.748195,0.213511,-0.638627,1.23552,-0.604151,1.0309,0.267743,0.527151,0.385275
1648461,1,-1.52804,-0.490909,-0.0368725,-2.15081,-0.0175745,1.66125,0.796163,-1.52575,-0.487995,-0.0398647,-2.15399,-0.0188517,1.66661,0.79752,0.864624,0.647677,-0.759241,-1.10788,-0.339031,1.84443,0.236272,0.891174,0.68245,-0.815666,-1.18169,-0.358735,1.88132,0.231963,-1.38671,8.06027,-2.65863,6.89975,0.298784,0.580653,0.162241,-0.676703,1.36932,-0.660133,0.951753,0.255337,0.518342,0.387839
1648462,1,-1.52717,-0.490232,-0.0376584,-2.15199,-0.0179108,1.66314,0.796396,-1.52485,-0.487309,-0.0406888,-2.15518,-0.0192135,1.66851,0.797754,0.863526,0.655839,-0.767006,-1.12265,-0.337336,1.84898,0.234528,0.899409,0.686101,-0.824109,-1.19114,-0.361838,1.89478,0.234096,-1.18834,7.67941,-2.6864,7.02671,0.168779,0.651149,0.265696,-0.728411,1.49418,-0.7334,0.871929,0.24262,0.507138,0.389701
1648463,1,-1.52628,-0.489543,-0.038491,-2.15315,-0.0182648,1.665,0.796661,-1.52395,-0.486619,-0.0415214,-2.15638,-0.0195784,1.67042,0.79799,0.865694,0.663884,-0.780334,-1.1328,-0.347643,1.85784,0.242573,0.907644,0.689752,-0.832552,-1.20059,-0.364942,1.90823,0.236229,-1.109,7.22714,-2.30554,7.22507,0.174272,0.837916,0.116465,-0.779693,1.59917,-0.805338,0.800877,0.230222,0.495242,0.390721
1648464,1,-1.52539,-0.488847,-0.0393281,-2.15435,-0.0186216,1.66689,0.79691,-1.52303,-0.485926,-0.0423624,-2.15759,-0.0199465,1.67234,0.798229,0.872473,0.671388,-0.800657,-1.14566,-0.343448,1.86064,0.245683,0.915879,0.693403,-0.840995,-1.21004,-0.368045,1.92169,0.238361,-0.986012,6.56857,-1.8255,7.66941,0.197161,1.08236,0.143015,-0.816508,1.67771,-0.856262,0.744317,0.218607,0.483869,0.390848
1648465,1,-1.52452,-0.488146,-0.0401592,-2.15556,-0.0189737,1.66881,0.797159,-1.52211,-0.485229,-0.0432118,-2.15881,-0.0203176,1.67427,0.798469,0.868564,0.679721,-0.803461,-1.18896,-0.34098,1.87269,0.24662,0.924113,0.697054,-0.849438,-1.21948,-0.371149,1.93515,0.240494,-0.478199,5.78702,-1.72235,8.41526,0.174272,1.19223,0.233652,-0.832175,1.71793,-0.876274,0.715096,0.20814,0.475148,0.390049
1648466,1,-1.52364,-0.487434,-0.0410154,-2.15678,-0.0193251,1.67072,0.797409,-1.52117,-0.484528,-0.0440697,-2.16004,-0.0206919,1.67622,0.798712,0.865335,0.688299,-0.819513,-1.19741,-0.346517,1.88145,0.24876,0.932348,0.700704,-0.85788,-1.22893,-0.374252,1.94861,0.242627,-0.00212494,4.94992,-1.42083,8.96274,0.202654,1.33413,0.349924,-0.824793,1.70558,-0.863601,0.728804,0.199208,0.471434,0.388389
1648467,1,-1.52274,-0.486722,-0.041865,-2.15801,-0.019693,1.67268,0.797648,-1.52023,-0.483824,-0.044936,-2.16128,-0.0210692,1.67818,0.798957,0.881441,0.710359,-0.830784,-1.203,-0.352703,1.89744,0.247606,0.940583,0.704355,-0.866323,-1.23838,-0.377356,1.96207,0.244759,0.124828,4.11679,-1.14312,9.38724,0.225542,1.34695,0.621836,-0.795294,1.63785,-0.820034,0.782192,0.191693,0.472559,0.386123
1648468,1,-1.52182,-0.486003,-0.0427411,-2.15922,-0.0200667,1.67459,0.797897,-1.51929,-0.483116,-0.0458108,-2.16252,-0.0214497,1.68016,0.799204,0.890057,0.716056,-0.840064,-1.20671,-0.359913,1.90343,0.240023,0.948817,0.708006,-0.874766,-1.24783,-0.380459,1.97553,0.246892,0.200207,3.48599,-0.889218,9.60941,0.24843,1.53372,0.712473,-0.752374,1.52097,-0.756841,0.860868,0.184965,0.476883,0.383734
1648469,1,-1.52088,-0.4853,-0.0436078,-2.16045,-0.0204376,1.67652,0.798158,-1.51833,-0.482404,-0.046694,-2.16378,-0.0218333,1.68215,0.799453,0.905756,0.710113,-0.841439,-1.20687,-0.365748,1.90914,0.243573,0.957052,0.711657,-0.883209,-1.25727,-0.383563,1.98898,0.249025,0.227978,3.15671,-0.81384,9.58561,0.287798,1.82302,0.666697,-0.708898,1.38601,-0.692034,0.943384,0.178206,0.482434,0.38184
1648470,1,-1.51994,-0.4846,-0.0445013,-2.16168,-0.0208167,1.6785,0.798407,-1.51736,-0.48169,-0.0475854,-2.16505,-0.0222198,1.68415,0.799704,0.920126,0.706476,-0.849198,-1.21428,-0.370446,1.91633,0.245513,0.964826,0.713606,-0.891374,-1.26494,-0.386519,1.99901,0.251088,0.0494498,2.97818,-0.734494,9.41105,0.270403,1.92007,0.660288,-0.676249,1.27798,-0.642083,1.0062,0.170667,0.48746,0.380902
1648471,1,-1.51899,-0.483888,-0.0453908,-2.16292,-0.0211931,1.68047,0.798679,-1.51639,-0.480975,-0.0484849,-2.16632,-0.0226093,1.68616,0.799957,0.926004,0.705789,-0.854377,-1.22196,-0.371324,1.9361,0.256878,0.9726,0.715555,-0.899538,-1.27261,-0.389476,2.00904,0.25315,0.0494498,2.82742,-0.837644,9.48642,0.242937,1.88162,0.485422,-0.658408,1.21919,-0.612822,1.03954,0.16213,0.491563,0.381073
1648472,1,-1.51804,-0.483157,-0.0462816,-2.1642,-0.0215734,1.68251,0.79894,-1.51541,-0.480257,-0.0493926,-2.1676,-0.0230017,1.68818,0.800212,0.950859,0.713286,-0.866134,-1.23136,-0.368451,1.9603,0.254825,0.980374,0.717504,-0.907703,-1.28028,-0.392432,2.01907,0.255213,-0.00212494,2.54971,-0.964597,9.73636,0.197161,1.50167,0.44697,-0.654942,1.20412,-0.60298,1.04691,0.152735,0.495195,0.382244
1648473,1,-1.51705,-0.482439,-0.0471958,-2.16547,-0.0219563,1.68452,0.799206,-1.51442,-0.479538,-0.0503085,-2.16889,-0.0233971,1.6902,0.800469,0.959662,0.708045,-0.879507,-1.23827,-0.379687,1.95123,0.256636,0.988148,0.719453,-0.915868,-1.28795,-0.395389,2.0291,0.257276,-0.327442,2.19662,-1.01617,10.0815,0.157793,1.25631,0.284922,-0.664578,1.22073,-0.609257,1.03517,0.142629,0.49883,0.384128
1648474,1,-1.51605,-0.481695,-0.0481207,-2.16679,-0.0223374,1.68653,0.799479,-1.51343,-0.478816,-0.0512325,-2.17018,-0.0237954,1.69224,0.800729,0.967642,0.717643,-0.888448,-1.26165,-0.381614,1.96073,0.26257,0.995922,0.721402,-0.924032,-1.29562,-0.398345,2.03913,0.259339,-0.656727,1.43887,-1.09155,10.8274,0.095537,1.31491,0.162241,-0.68076,1.25646,-0.622359,1.01523,0.132183,0.503211,0.386342
1648475,1,-1.5151,-0.480965,-0.0490199,-2.1681,-0.0227375,1.68857,0.799747,-1.51242,-0.478093,-0.0521647,-2.17149,-0.0241967,1.69429,0.80099,0.96898,0.725567,-0.89042,-1.27238,-0.387095,1.97862,0.264247,1.0037,0.723351,-0.932197,-1.30329,-0.401302,2.04916,0.261401,-0.402821,0.704926,-1.31769,11.2995,0.174272,1.36618,0.103647,-0.698278,1.28647,-0.636042,1.0045,0.121855,0.509243,0.38845
1648476,1,-1.51412,-0.480234,-0.0499577,-2.16941,-0.0231426,1.69059,0.800021,-1.51141,-0.477368,-0.0531051,-2.1728,-0.024601,1.69635,0.801254,0.967618,0.726327,-0.90037,-1.28336,-0.394606,1.99327,0.265828,1.01147,0.7253,-0.940362,-1.31096,-0.404258,2.05918,0.263464,-0.176685,0.0225525,-1.16693,11.7478,0.316179,1.3854,0.038645,-0.713306,1.29695,-0.646665,1.00998,0.111892,0.516679,0.390004
1648477,1,-1.51313,-0.479512,-0.0508928,-2.17073,-0.0235509,1.69272,0.80029,-1.51039,-0.476641,-0.0540536,-2.17412,-0.0250082,1.69842,0.801519,0.971086,0.722006,-0.912405,-1.28917,-0.396275,2.02654,0.260514,1.01924,0.727249,-0.948526,-1.31863,-0.407215,2.06921,0.265527,-0.0259286,-0.306732,-0.988401,12.1207,0.378435,0.761012,0.135691,-0.718254,1.30169,-0.645631,1.02207,0.102465,0.523978,0.390607
1648478,1,-1.51214,-0.478814,-0.0518475,-2.17205,-0.0239425,1.69482,0.800556,-1.50937,-0.475911,-0.0550103,-2.17544,-0.0254184,1.7005,0.801787,0.971363,0.714397,-0.918081,-1.29767,-0.397014,2.04182,0.258232,1.02702,0.729199,-0.956691,-1.3263,-0.410172,2.07924,0.26759,0.0732535,-0.433685,-0.81384,12.4182,0.282305,0.574244,0.226328,-0.708336,1.32524,-0.627665,1.02623,0.0936648,0.529131,0.390032
1648479,1,-1.51113,-0.478107,-0.0528193,-2.17336,-0.0243405,1.69685,0.800838,-1.50833,-0.47518,-0.0559751,-2.17678,-0.0258315,1.70259,0.802056,0.979819,0.702103,-0.928952,-1.29943,-0.401978,2.04905,0.265238,1.03479,0.731148,-0.964856,-1.33396,-0.413128,2.08927,0.269653,0.148632,-0.457489,-0.611508,12.2437,0.298784,0.914821,0.213511,-0.684766,1.39218,-0.59515,1.00947,0.0853276,0.530202,0.388332
1648480,1,-1.51013,-0.477398,-0.0537778,-2.17467,-0.0247519,1.69892,0.801122,-1.50729,-0.474449,-0.0569478,-2.17812,-0.0262474,1.70469,0.802328,0.985508,0.701881,-0.941787,-1.29414,-0.398425,2.04551,0.270439,1.04208,0.731437,-0.972692,-1.33982,-0.415935,2.09587,0.271635,0.32716,-0.636017,-0.456784,11.8985,0.310686,1.12814,0.194285,-0.649697,1.51727,-0.550515,0.962124,0.0770715,0.525932,0.385735
1648481,1,-1.50912,-0.476672,-0.0547463,-2.17599,-0.0251759,1.70101,0.801431,-1.50624,-0.473717,-0.0579283,-2.17946,-0.0266662,1.70679,0.802602,0.989337,0.713066,-0.946908,-1.29892,-0.407346,2.06739,0.286222,1.04937,0.731726,-0.980528,-1.34567,-0.418742,2.10247,0.273617,0.628673,-0.862152,-0.508359,11.8232,0.451677,0.960597,-0.0190333,-0.605109,1.68507,-0.495321,0.886955,0.0687153,0.516698,0.382471
1648482,1,-1.5081,-0.475927,-0.0557222,-2.17731,-0.0255856,1.70315,0.801722,-1.50518,-0.472985,-0.0589167,-2.18081,-0.0270877,1.7089,0.802877,0.988999,0.721524,-0.973267,-1.29733,-0.409015,2.08402,0.285017,1.05666,0.732016,-0.988364,-1.35152,-0.421549,2.10907,0.275599,0.831005,-1.24301,-0.357602,11.5494,0.469072,0.786647,-0.0254419,-0.547988,1.85937,-0.424619,0.797917,0.0606485,0.503994,0.37861
1648483,1,-1.50706,-0.475183,-0.0567045,-2.17864,-0.0259964,1.70526,0.802013,-1.50412,-0.472253,-0.0599129,-2.18217,-0.0275121,1.71101,0.803155,1.01064,0.726295,-0.971853,-1.32818,-0.404593,2.08768,0.283649,1.06394,0.732305,-0.9962,-1.35738,-0.424356,2.11567,0.277581,0.60487,-1.82224,-0.357602,11.6248,0.383928,0.973414,-0.0190333,-0.478659,2.0083,-0.337624,0.714209,0.0534074,0.48999,0.374072
1648484,1,-1.506,-0.47441,-0.0577049,-2.18,-0.0263975,1.70734,0.80232,-1.50305,-0.47152,-0.0609169,-2.18353,-0.0279392,1.71313,0.803434,1.02203,0.737294,-0.975174,-1.33588,-0.403406,2.0826,0.290655,1.07123,0.732595,-1.00404,-1.36323,-0.427163,2.12227,0.279564,0.350963,-2.81009,-0.329831,12.0453,0.287798,1.19223,-0.0968531,-0.414919,2.10599,-0.257167,0.658512,0.047011,0.477535,0.368888
1648485,1,-1.50494,-0.473641,-0.0586857,-2.18138,-0.0268077,1.70946,0.802624,-1.50197,-0.470787,-0.0619288,-2.1849,-0.0283692,1.71526,0.803716,1.03226,0.758297,-0.985023,-1.33917,-0.403503,2.08572,0.29386,1.07852,0.732884,-1.01187,-1.36908,-0.42997,2.12887,0.281546,0.124828,-3.84555,-0.508359,12.6166,0.270403,1.37899,-0.0648096,-0.370173,2.13246,-0.200598,0.641961,0.0411449,0.468265,0.363137
1648486,1,-1.50389,-0.472885,-0.0596761,-2.18275,-0.0272314,1.71157,0.802927,-1.50088,-0.470054,-0.0629485,-2.18628,-0.028802,1.7174,0.803999,1.02873,0.758524,-0.978984,-1.35107,-0.411981,2.10142,0.297017,1.08581,0.733173,-1.01971,-1.37494,-0.432777,2.13547,0.283528,0.227978,-4.78183,-0.889218,13.3902,0.287798,1.46231,-0.0904444,-0.343381,2.08446,-0.167092,0.661352,0.0356047,0.462226,0.356823
1648487,1,-1.50282,-0.472143,-0.0606731,-2.18414,-0.0276518,1.7137,0.803221,-1.49979,-0.469321,-0.0639761,-2.18766,-0.0292376,1.71954,0.804285,1.0383,0.748959,-1.00717,-1.35829,-0.409999,2.1111,0.28781,1.0931,0.733463,-1.02754,-1.38079,-0.435584,2.14208,0.28551,0.227978,-5.33725,-1.01617,14.1083,0.332659,1.54653,0.038645,-0.325744,1.99204,-0.1464,0.702276,0.0303331,0.45854,0.349909
1648488,1,-1.50175,-0.471415,-0.0616921,-2.18553,-0.0280628,1.71582,0.803512,-1.49869,-0.468587,-0.0650114,-2.18904,-0.029676,1.72169,0.804572,1.05277,0.745267,-1.00867,-1.36035,-0.411358,2.10321,0.292726,1.10038,0.733752,-1.03538,-1.38664,-0.438391,2.14868,0.287492,0.0494498,-5.69034,-0.988401,14.5328,0.253923,1.84225,0.213511,-0.308044,1.89948,-0.126418,0.744557,0.0251383,0.455914,0.342419
1648489,1,-1.50065,-0.470672,-0.062742,-2.1869,-0.0284651,1.71791,0.803798,-1.49758,-0.467853,-0.0660547,-2.19044,-0.0301172,1.72385,0.804862,1.05591,0.744753,-1.02197,-1.36389,-0.406494,2.10461,0.293294,1.10767,0.734042,-1.04322,-1.39249,-0.441198,2.15528,0.289475,-0.204456,-6.01962,-0.786069,14.7074,0.0845506,2.22219,0.407602,-0.290482,1.82976,-0.107403,0.776395,0.0196461,0.453739,0.33462
1648490,1,-1.49957,-0.469922,-0.0637815,-2.18829,-0.0288753,1.72004,0.804091,-1.49647,-0.46712,-0.0671053,-2.19183,-0.030561,1.726,0.805153,1.08543,0.74636,-1.03367,-1.36471,-0.398618,2.10678,0.291645,1.11446,0.732909,-1.05068,-1.39671,-0.443852,2.15876,0.291366,-0.152882,-6.39651,-0.456784,14.6796,0.0103929,2.44192,0.537607,-0.277362,1.78449,-0.094191,0.795419,0.013444,0.452241,0.327001
1648491,1,-1.4985,-0.46918,-0.0648337,-2.18966,-0.029296,1.72219,0.804372,-1.49535,-0.466388,-0.0681635,-2.19323,-0.0310075,1.72817,0.805446,1.08427,0.74675,-1.03868,-1.36508,-0.412863,2.13345,0.284998,1.12125,0.731776,-1.05815,-1.40092,-0.446506,2.16225,0.293257,0.275585,-6.7258,-0.1275,14.6082,0.0103929,2.19015,0.685923,-0.273245,1.75986,-0.091163,0.800744,0.00615266,0.451629,0.320145
1648492,1,-1.49744,-0.468425,-0.0658674,-2.19108,-0.0297131,1.72437,0.804667,-1.49422,-0.465657,-0.0692291,-2.19464,-0.0314567,1.73033,0.805742,1.06676,0.749453,-1.04278,-1.37594,-0.412027,2.14007,0.284517,1.12803,0.730643,-1.06562,-1.40513,-0.44916,2.16574,0.295148,0.957958,-7.05508,-0.000546589,15.1041,-0.0289747,1.90725,0.706064,-0.271329,1.74978,-0.091005,0.794366,-0.00204343,0.452166,0.31456
