shamilmamedov/beam_handling/log/param_estimation_ICRA/ocp_transY_15cm_0.58s_1.csv
duration, success rate, q[0], q[1], q[2], q[3], q[4], q[5], q[6],q_d[0], q_d[1], q_d[2], q_d[3], q_d[4], q_d[5], q_d[6],dq[0], dq[1], dq[2], dq[3], dq[4], dq[5], dq[6],dq_d[0], dq_d[1], dq_d[2], dq_d[3], dq_d[4], dq_d[5], dq_d[6],tau_J[0], tau_J[1], tau_J[2], tau_J[3], tau_J[4], tau_J[5], tau_J[6],tau_ext_hat_filtered[0], tau_ext_hat_filtered[1], tau_ext_hat_filtered[2], tau_ext_hat_filtered[3], tau_ext_hat_filtered[4], tau_ext_hat_filtered[5], tau_ext_hat_filtered[6]
1869202,0,-1.57035,-0.522968,0.000442983,-2.09646,-0.00118941,1.57076,0.785183,-1.57079,-0.523599,1.42015e-06,-2.0944,-7.93281e-07,1.5708,0.785397,0.000113847,0.000365614,-0.000237604,0.000162838,0.000217213,0.000317345,0.00119608,0,0,0,0,0,0,0,-0.557545,-10.0385,-1.03998,21.5152,1.64461,1.77175,0.116465,-0.556842,-0.896756,-0.575484,2.98951,0.934788,0.105576,0.133459
1869203,1,-1.57035,-0.522966,0.000445126,-2.09646,-0.00118941,1.57076,0.785184,-1.57079,-0.523599,1.42015e-06,-2.0944,-7.93281e-07,1.5708,0.785397,0.00063271,0.000800555,0.000398409,-0.000541055,0.000144809,0.000211564,0.000797388,0,0,0,0,0,0,0,-0.581349,-10.0623,-1.06378,21.543,1.64461,1.77175,0.116465,-0.556338,-0.898254,-0.574658,2.98999,0.934795,0.105702,0.133571
1869204,1,-1.57035,-0.522968,0.000445284,-2.09646,-0.00119073,1.57076,0.785186,-1.57079,-0.523599,1.42015e-06,-2.0944,-7.93281e-07,1.5708,0.785397,0.000421807,-2.31089e-05,0.000265606,0.000845722,-0.00034427,-9.63165e-05,0.00124367,0,0,0,0,0,0,0,-0.581349,-10.0385,-1.06378,21.4914,1.65651,1.77816,0.0972387,-0.556729,-0.90039,-0.575078,2.99071,0.934758,0.105828,0.133691
1869205,1,-1.57035,-0.522968,0.000447286,-2.09646,-0.00118941,1.57076,0.785182,-1.57079,-0.523599,1.42015e-06,-2.0944,-7.93281e-07,1.5708,0.785397,-0.000275608,-1.5406e-05,0.000826685,0.000563815,0.000211296,0.000173148,-0.000595041,0,0,0,0,0,0,0,-0.557545,-10.0385,-1.09155,21.4914,1.64461,1.77175,0.135691,-0.557737,-0.901287,-0.576412,2.99055,0.934674,0.105855,0.13377
1869206,1,-1.57035,-0.522969,0.000443224,-2.09646,-0.0011888,1.57076,0.78518,-1.57079,-0.523599,1.42015e-06,-2.0944,-7.93281e-07,1.5708,0.785397,0.000373074,-0.0012167,-9.84908e-05,-0.000830549,0.000344314,-0.000121927,-0.00114268,0,0,0,0,0,0,0,-0.581349,-9.98691,-1.06378,21.543,1.63912,1.77816,0.155832,-0.558863,-0.900144,-0.577981,2.98943,0.934575,0.105805,0.13378
1869207,1,-1.57035,-0.522969,0.000441309,-2.09646,-0.0011888,1.57076,0.785176,-1.57079,-0.523599,1.42015e-06,-2.0944,-7.93281e-07,1.5708,0.785397,-0.000308096,-0.000254319,-0.00117928,-0.0005537,0.000229543,-0.000318644,-0.000761786,0,0,0,0,0,0,0,-0.557545,-10.0107,-1.01617,21.543,1.63912,1.78457,0.155832,-0.559337,-0.897815,-0.578552,2.98829,0.934514,0.105795,0.133744
1869208,1,-1.57035,-0.522967,0.000443455,-2.09646,-0.00119002,1.57076,0.785182,-1.57079,-0.523599,1.42015e-06,-2.0944,-7.93281e-07,1.5708,0.785397,0.000351414,-0.000169546,-0.000229378,0.000280481,-0.000253872,2.49299e-05,0.000712846,0,0,0,0,0,0,0,-0.581349,-10.0107,-1.03998,21.5152,1.6501,1.77816,0.122873,-0.558815,-0.895613,-0.57754,2.98752,0.934497,0.105834,0.13371
1869209,1,-1.57035,-0.522967,0.000443614,-2.09646,-0.0011888,1.57076,0.785184,-1.57079,-0.523599,1.42015e-06,-2.0944,-7.93281e-07,1.5708,0.785397,-0.000322536,0.000536583,-0.000152918,0.000186987,0.000237653,1.66199e-05,0.000712589,0,0,0,0,0,0,0,-0.557545,-10.0385,-1.03998,21.5152,1.63912,1.77816,0.116465,-0.558018,-0.894376,-0.576046,2.98699,0.934477,0.105871,0.133704
1869210,1,-1.57035,-0.522966,0.000445337,-2.09646,-0.0011888,1.57076,0.785184,-1.57079,-0.523599,1.42015e-06,-2.0944,-7.93281e-07,1.5708,0.785397,-0.000215024,0.000914534,0.000454866,0.00068147,0.000158435,0.000248439,0.00047506,0,0,0,0,0,0,0,-0.557545,-10.0623,-1.06378,21.4914,1.63912,1.77175,0.116465,-0.55748,-0.894763,-0.574947,2.98683,0.934432,0.105901,0.133709
1869211,1,-1.57035,-0.522966,0.000442014,-2.09646,-0.00118941,1.57076,0.785183,-1.57079,-0.523599,1.42015e-06,-2.0944,-7.93281e-07,1.5708,0.785397,-0.000143349,0.000609689,-0.00081038,-0.000102499,-9.78271e-05,0.000165626,0.00102878,0,0,0,0,0,0,0,-0.557545,-10.0623,-1.01617,21.5152,1.64461,1.77175,0.0972387,-0.557044,-0.89687,-0.574021,2.9872,0.934373,0.105944,0.133693
1869212,1,-1.57035,-0.522971,0.00044536,-2.09646,-0.00118941,1.57076,0.785176,-1.57079,-0.523599,1.42015e-06,-2.0944,-7.93281e-07,1.5708,0.785397,-9.55661e-05,-0.00135678,0.000573371,-6.83324e-05,-6.5218e-05,-0.000126942,-0.00124692,0,0,0,0,0,0,0,-0.557545,-9.98691,-1.06378,21.5152,1.64461,1.77816,0.149424,-0.556626,-0.898514,-0.57311,2.98744,0.934299,0.105982,0.133628
1869213,1,-1.57035,-0.522971,0.000443692,-2.09646,-0.00119002,1.57076,0.785179,-1.57079,-0.523599,1.42015e-06,-2.0944,-7.93281e-07,1.5708,0.785397,0.000493101,-0.000904519,-0.000174565,0.000511257,-0.000246929,-8.46278e-05,-0.000831283,0,0,0,0,0,0,0,-0.581349,-9.98691,-1.03998,21.4914,1.6501,1.77816,0.149424,-0.556657,-0.897017,-0.572845,2.98643,0.934178,0.105942,0.13351
1869214,1,-1.57035,-0.52297,0.000447312,-2.09646,-0.00118941,1.57076,0.785178,-1.57079,-0.523599,1.42015e-06,-2.0944,-7.93281e-07,1.5708,0.785397,-0.000228078,-4.62006e-05,0.00109005,-0.000865588,3.8831e-05,0.00018094,-0.00102891,0,0,0,0,0,0,0,-0.557545,-10.0107,-1.09155,21.543,1.64461,1.77175,0.162241,-0.557384,-0.893763,-0.573608,2.9848,0.934016,0.105866,0.13338
1869215,1,-1.57035,-0.522968,0.000445363,-2.09646,-0.00119134,1.57076,0.785181,-1.57079,-0.523599,1.42015e-06,-2.0944,-7.93281e-07,1.5708,0.785397,-0.000801666,0.000618814,7.70856e-05,7.25554e-05,-0.000618373,-0.000116732,2.61391e-05,0,0,0,0,0,0,0,-0.529774,-10.0385,-1.06378,21.5152,1.662,1.77816,0.143015,-0.558325,-0.892256,-0.574809,2.98424,0.933873,0.105879,0.133287
1869216,1,-1.57035,-0.52297,0.000443693,-2.09646,-0.0011888,1.57076,0.785183,-1.57079,-0.523599,1.42015e-06,-2.0944,-7.93281e-07,1.5708,0.785397,0.000671982,-0.000237072,-0.000505422,-0.000601244,0.000435462,-0.00031518,0.000763411,0,0,0,0,0,0,0,-0.581349,-10.0107,-1.03998,21.543,1.63912,1.78457,0.122873,-0.558835,-0.892887,-0.575462,2.98482,0.933781,0.105978,0.133254
1869217,1,-1.57035,-0.522968,0.000443693,-2.09646,-0.00118941,1.57076,0.785182,-1.57079,-0.523599,1.42015e-06,-2.0944,-7.93281e-07,1.5708,0.785397,0.000447988,0.000491566,-0.000336948,0.000805597,8.68575e-05,0.000264598,0.000271582,0,0,0,0,0,0,0,-0.581349,-10.0385,-1.03998,21.4914,1.64461,1.77175,0.129282,-0.559006,-0.894095,-0.575486,2.98555,0.933716,0.106081,0.133268
1869218,1,-1.57035,-0.522968,0.000443693,-2.09646,-0.00119002,1.57076,0.785185,-1.57079,-0.523599,1.42015e-06,-2.0944,-7.93281e-07,1.5708,0.785397,-0.000258153,0.000327711,-0.000224632,-1.97474e-05,-0.000145545,-6.09605e-05,0.000893131,0,0,0,0,0,0,0,-0.557545,-10.0385,-1.03998,21.5152,1.6501,1.77816,0.110056,-0.559029,-0.895429,-0.575169,2.98599,0.933654,0.106139,0.1333
1869219,1,-1.57035,-0.522966,0.000447312,-2.09646,-0.00118941,1.57076,0.785179,-1.57079,-0.523599,1.42015e-06,-2.0944,-7.93281e-07,1.5708,0.785397,-0.00137853,0.000775286,0.00105667,-0.000662779,0.00010642,0.000196719,-0.000116656,0,0,0,0,0,0,0,-0.50597,-10.0623,-1.09155,21.543,1.64461,1.77175,0.129282,-0.558814,-0.897673,-0.574638,2.98679,0.933618,0.106217,0.133323
1869221,0.98,-1.57035,-0.522968,0.000443693,-2.09646,-0.00119073,1.57076,0.785178,-1.57079,-0.523599,1.42015e-06,-2.0944,-7.93281e-07,1.5708,0.785397,0.000191605,-0.00021224,-0.000736794,0.000355046,-0.000461328,-0.000149928,-0.00110301,0,0,0,0,0,0,0,-0.557545,-10.0385,-1.03998,21.5152,1.65651,1.77816,0.16865,-0.559174,-0.904513,-0.575412,2.9902,0.933564,0.10653,0.133306
1869222,0.97,-1.57035,-0.522968,0.000447312,-2.09646,-0.00119002,1.57076,0.785179,-1.57079,-0.523599,1.42015e-06,-2.0944,-7.93281e-07,1.5708,0.785397,0.000127737,-0.000141494,0.00071523,0.000236697,-7.01934e-05,-9.99523e-05,-0.000260621,0,0,0,0,0,0,0,-0.557545,-10.0385,-1.09155,21.5152,1.6501,1.77816,0.155832,-0.559484,-0.905691,-0.575994,2.99068,0.933504,0.106573,0.133319
1869223,0.97,-1.57035,-0.522968,0.000443693,-2.09646,-0.00119134,1.57076,0.785182,-1.57079,-0.523599,1.42015e-06,-2.0944,-7.93281e-07,1.5708,0.785397,-0.000564456,-9.43291e-05,-0.000729606,-0.000491816,-0.000487605,0.000170724,0.000809597,0,0,0,0,0,0,0,-0.529774,-10.0385,-1.03998,21.543,1.662,1.77175,0.129282,-0.559535,-0.905299,-0.576249,2.99035,0.933448,0.106546,0.133396
1869224,0.97,-1.57035,-0.522968,0.000443693,-2.09646,-0.00118819,1.57076,0.785184,-1.57079,-0.523599,1.42015e-06,-2.0944,-7.93281e-07,1.5708,0.785397,0.00027331,-6.28861e-05,-0.000486404,-0.000884689,0.000726091,-0.000123543,0.00101445,0,0,0,0,0,0,0,-0.557545,-10.0385,-1.03998,21.5668,1.63362,1.77816,0.116465,-0.558957,-0.904866,-0.575626,2.99028,0.933442,0.106554,0.133529
1869225,0.97,-1.57035,-0.522966,0.000441562,-2.09646,-0.00118819,1.57076,0.785185,-1.57079,-0.523599,1.42015e-06,-2.0944,-7.93281e-07,1.5708,0.785397,-0.000467407,0.000514888,-0.000324269,-3.29809e-05,0.000484061,-8.23619e-05,0.000913658,0,0,0,0,0,0,0,-0.529774,-10.0623,-1.03998,21.543,1.63362,1.77816,0.110056,-0.557901,-0.905184,-0.574288,2.99082,0.933479,0.106623,0.13368
1869226,0.97,-1.57035,-0.522968,0.000444653,-2.09646,-0.00119002,1.57076,0.785184,-1.57079,-0.523599,1.42015e-06,-2.0944,-7.93281e-07,1.5708,0.785397,-0.000311605,-0.000213553,0.000340632,0.00118444,-0.000287644,-5.4908e-05,0.000371747,0,0,0,0,0,0,0,-0.529774,-10.0385,-1.06378,21.4914,1.6501,1.77816,0.116465,-0.556857,-0.905439,-0.573035,2.99103,0.933495,0.106638,0.133805
1869227,0.97,-1.57035,-0.52297,0.000450695,-2.09646,-0.00119002,1.57076,0.78518,-1.57079,-0.523599,1.42015e-06,-2.0944,-7.93281e-07,1.5708,0.785397,-0.000207737,-0.000791983,0.00208313,-0.0004168,-0.000191763,0.000438113,1.04722e-05,0,0,0,0,0,0,0,-0.529774,-10.0107,-1.14312,21.543,1.6501,1.76535,0.122873,-0.556676,-0.903998,-0.573264,2.99004,0.933431,0.106527,0.133876
1869228,0.97,-1.57035,-0.52297,0.000445284,-2.09646,-0.00119073,1.57076,0.785178,-1.57079,-0.523599,1.42015e-06,-2.0944,-7.93281e-07,1.5708,0.785397,-0.000138491,-0.000527989,-0.000467288,-0.000277867,-0.000365201,-0.000182643,-0.00145108,0,0,0,0,0,0,0,-0.529774,-10.0107,-1.06378,21.543,1.65651,1.77816,0.162241,-0.557487,-0.901091,-0.575196,2.98854,0.933309,0.10638,0.133887
1869229,0.97,-1.57035,-0.522966,0.000441996,-2.09646,-0.00118941,1.57076,0.785179,-1.57079,-0.523599,1.42015e-06,-2.0944,-7.93281e-07,1.5708,0.785397,0.0011141,0.000854434,-0.00142515,0.000464369,0.000197342,0.000115597,-0.000730028,0,0,0,0,0,0,0,-0.581349,-10.0623,-1.01617,21.5152,1.64461,1.77175,0.155832,-0.557882,-0.898807,-0.576475,2.9875,0.93322,0.106273,0.133856
1869230,0.97,-1.57035,-0.522968,0.000445354,-2.09646,-0.00118941,1.57076,0.785182,-1.57079,-0.523599,1.42015e-06,-2.0944,-7.93281e-07,1.5708,0.785397,0.000742732,1.28104e-05,0.000163525,-0.000340034,0.000131561,-0.000397653,0.0002593,0,0,0,0,0,0,0,-0.581349,-10.0385,-1.06378,21.543,1.64461,1.78457,0.135691,-0.557698,-0.898431,-0.57663,2.98725,0.933175,0.106216,0.133832
1869231,0.97,-1.57035,-0.522972,0.00044536,-2.09646,-0.00118941,1.57076,0.785185,-1.57079,-0.523599,1.42015e-06,-2.0944,-7.93281e-07,1.5708,0.785397,-6.16571e-05,-0.00119789,0.000109016,0.000422924,8.77076e-05,-2.77432e-05,0.0011223,0,0,0,0,0,0,0,-0.557545,-9.98691,-1.06378,21.5152,1.64461,1.77816,0.110056,-0.557771,-0.898035,-0.57704,2.98703,0.93312,0.106165,0.133844
1869232,0.97,-1.57035,-0.522968,0.000445362,-2.09646,-0.00118941,1.57076,0.785184,-1.57079,-0.523599,1.42015e-06,-2.0944,-7.93281e-07,1.5708,0.785397,-4.11047e-05,0.000407835,7.26776e-05,0.00028195,5.84718e-05,-1.84955e-05,0.00146028,0,0,0,0,0,0,0,-0.557545,-10.0385,-1.06378,21.5152,1.64461,1.77816,0.09083,-0.557962,-0.896222,-0.577664,2.98612,0.933048,0.106067,0.133872
1869233,0.97,-1.57035,-0.522968,0.000443692,-2.09646,-0.00119002,1.57076,0.785182,-1.57079,-0.523599,1.42015e-06,-2.0944,-7.93281e-07,1.5708,0.785397,-2.74031e-05,0.00027189,-0.00050836,0.000187966,-0.000164469,0.000462388,-0.000213276,0,0,0,0,0,0,0,-0.557545,-10.0385,-1.03998,21.5152,1.6501,1.76535,0.122873,-0.557826,-0.895018,-0.57782,2.98534,0.932991,0.105972,0.133869
1869234,0.97,-1.57035,-0.52297,0.000448982,-2.09646,-0.00118941,1.57076,0.785184,-1.57079,-0.523599,1.42015e-06,-2.0944,-7.93281e-07,1.5708,0.785397,0.000538543,-0.000468354,0.00142433,0.000125311,9.38043e-05,7.08994e-05,0.000332534,0,0,0,0,0,0,0,-0.581349,-10.0107,-1.11535,21.5152,1.64461,1.77175,0.110056,-0.557866,-0.894792,-0.578209,2.98498,0.932938,0.105907,0.1338
1869235,0.97,-1.57035,-0.522968,0.000448982,-2.09646,-0.00119002,1.57076,0.785179,-1.57079,-0.523599,1.42015e-06,-2.0944,-7.93281e-07,1.5708,0.785397,-0.000197783,0.000337378,0.000949554,8.35406e-05,-0.000140914,4.72663e-05,-0.00171109,0,0,0,0,0,0,0,-0.557545,-10.0385,-1.11535,21.5152,1.6501,1.77175,0.162241,-0.558892,-0.894586,-0.580106,2.98473,0.932847,0.105849,0.13367
1869236,0.97,-1.57035,-0.52297,0.000445363,-2.09646,-0.00118682,1.57076,0.785179,-1.57079,-0.523599,1.42015e-06,-2.0944,-7.93281e-07,1.5708,0.785397,-0.000131855,-0.000424695,-0.00057339,0.000612506,-9.39429e-05,-0.000205848,-0.000903368,0,0,0,0,0,0,0,-0.557545,-10.0107,-1.06378,21.4914,1.6501,1.77816,0.155832,-0.560061,-0.894397,-0.582279,2.98449,0.932759,0.105786,0.133503
1869237,0.97,-1.57035,-0.522968,0.000443693,-2.09646,-0.00118773,1.57076,0.785179,-1.57079,-0.523599,1.42015e-06,-2.0944,-7.93281e-07,1.5708,0.785397,0.000468908,0.000366484,-0.000939072,-0.000148475,0.000344272,-0.000137232,-0.000839604,0,0,0,0,0,0,0,-0.581349,-10.0385,-1.03998,21.5152,1.63912,1.77816,0.162241,-0.560151,-0.89426,-0.582769,2.98418,0.932727,0.105721,0.133343
1869238,0.97,-1.57034,-0.522968,0.000447312,-2.09646,-0.00118905,1.57076,0.785184,-1.57079,-0.523599,1.42015e-06,-2.0944,-7.93281e-07,1.5708,0.785397,0.000869418,0.000244323,0.000580378,-9.89832e-05,2.60644e-05,0.000145871,0.00113568,0,0,0,0,0,0,0,-0.605152,-10.0385,-1.09155,21.5152,1.64461,1.77175,0.116465,-0.55983,-0.894981,-0.582448,2.98436,0.932725,0.105709,0.133242
1869239,0.97,-1.57035,-0.522968,0.000443693,-2.09646,-0.00118929,1.57076,0.785185,-1.57079,-0.523599,1.42015e-06,-2.0944,-7.93281e-07,1.5708,0.785397,-0.000534012,0.000162882,-0.000819507,-0.000715603,1.73763e-05,9.72473e-05,0.00123184,0,0,0,0,0,0,0,-0.557545,-10.0385,-1.03998,21.543,1.64461,1.77175,0.103647,-0.559687,-0.896869,-0.582263,2.98534,0.932727,0.105776,0.133209
1869240,0.97,-1.57035,-0.52297,0.000442022,-2.09646,-0.00119069,1.57076,0.785179,-1.57079,-0.523599,1.42015e-06,-2.0944,-7.93281e-07,1.5708,0.785397,0.000200804,-0.000541026,-0.00110315,0.000172545,-0.000429225,6.48315e-05,-0.000365567,0,0,0,0,0,0,0,-0.581349,-10.0107,-1.01617,21.5152,1.65651,1.77175,0.135691,-0.558874,-0.898664,-0.581006,2.98646,0.932763,0.105866,0.133194
1869241,0.97,-1.57035,-0.522968,0.000442022,-2.09646,-0.0011894,1.57076,0.785185,-1.57079,-0.523599,1.42015e-06,-2.0944,-7.93281e-07,1.5708,0.785397,0.000133869,0.00028893,-0.000735433,-0.000534584,0.000154659,-0.000194138,0.00118044,0,0,0,0,0,0,0,-0.581349,-10.0385,-1.01617,21.543,1.64461,1.77816,0.0972387,-0.557337,-0.899673,-0.578512,2.98724,0.932831,0.105931,0.133157
1869242,0.97,-1.57035,-0.52297,0.000447312,-2.09646,-0.0011894,1.57076,0.785177,-1.57079,-0.523599,1.42015e-06,-2.0944,-7.93281e-07,1.5708,0.785397,-0.00111718,-0.000456994,0.00127295,0.000850037,0.000103106,0.000107934,-0.00090846,0,0,0,0,0,0,0,-0.529774,-10.0107,-1.09155,21.4914,1.64461,1.77175,0.143015,-0.556085,-0.900037,-0.576389,2.98759,0.932883,0.105949,0.133088
1869243,0.97,-1.57034,-0.52297,0.000447312,-2.09646,-0.00119073,1.57076,0.785177,-1.57079,-0.523599,1.42015e-06,-2.0944,-7.93281e-07,1.5708,0.785397,0.000461639,-0.000304663,0.000848633,9.87925e-06,-0.000372072,-0.000165403,-0.00155508,0,0,0,0,0,0,0,-0.581349,-10.0107,-1.09155,21.5152,1.65651,1.77816,0.16865,-0.555978,-0.899204,-0.576104,2.98712,0.932874,0.105882,0.132988
1869244,0.97,-1.57035,-0.522968,0.000445363,-2.09646,-0.00119002,1.57076,0.785181,-1.57079,-0.523599,1.42015e-06,-2.0944,-7.93281e-07,1.5708,0.785397,-0.000249052,0.000446505,-8.38589e-05,6.58616e-06,-1.06891e-05,0.00012709,0.000183986,0,0,0,0,0,0,0,-0.557545,-10.0385,-1.06378,21.5152,1.6501,1.77175,0.135691,-0.55684,-0.898083,-0.577304,2.98643,0.932822,0.105789,0.132889
1869245,0.97,-1.57034,-0.522968,0.000445363,-2.09646,-0.00118819,1.57076,0.785181,-1.57079,-0.523599,1.42015e-06,-2.0944,-7.93281e-07,1.5708,0.785397,0.000947589,0.00029767,-5.59059e-05,4.39078e-06,0.000603226,-0.000152632,-0.00014861,0,0,0,0,0,0,0,-0.605152,-10.0385,-1.06378,21.5152,1.63362,1.77816,0.143015,-0.557864,-0.898285,-0.578634,2.98639,0.932782,0.105751,0.132832
1869246,0.97,-1.57035,-0.52297,0.000448982,-2.09646,-0.00119002,1.57076,0.785186,-1.57079,-0.523599,1.42015e-06,-2.0944,-7.93281e-07,1.5708,0.785397,-0.00113151,-0.000451167,0.00116916,2.92718e-06,-0.000208201,-0.000101755,0.00159635,0,0,0,0,0,0,0,-0.529774,-10.0107,-1.11535,21.5152,1.6501,1.77816,0.0972387,-0.558944,-0.898985,-0.580016,2.98661,0.932743,0.10574,0.132821
1869247,0.97,-1.57035,-0.522968,0.000445363,-2.09646,-0.00119002,1.57076,0.785184,-1.57079,-0.523599,1.42015e-06,-2.0944,-7.93281e-07,1.5708,0.785397,0.000452085,0.000348836,-0.000426989,-0.000647662,-0.000138801,-6.78365e-05,0.000352155,0,0,0,0,0,0,0,-0.581349,-10.0385,-1.06378,21.543,1.6501,1.77816,0.116465,-0.559924,-0.899495,-0.581367,2.98691,0.932707,0.105754,0.13283
1869248,0.97,-1.57035,-0.522968,0.000445363,-2.09646,-0.00119073,1.57076,0.785181,-1.57079,-0.523599,1.42015e-06,-2.0944,-7.93281e-07,1.5708,0.785397,-0.000905036,0.000232557,-0.000284659,0.00133146,-0.000329893,-4.52243e-05,0.00023477,0,0,0,0,0,0,0,-0.529774,-10.0385,-1.06378,21.4676,1.65651,1.77816,0.116465,-0.560196,-0.90022,-0.581736,2.98724,0.9327,0.105774,0.132813
1869249,0.97,-1.57035,-0.522968,0.000445363,-2.09646,-0.00118941,1.57076,0.785181,-1.57079,-0.523599,1.42015e-06,-2.0944,-7.93281e-07,1.5708,0.785397,-0.000603357,0.000155038,-0.000189773,-0.00143241,0.000220881,-3.01496e-05,-0.000555563,0,0,0,0,0,0,0,-0.529774,-10.0385,-1.06378,21.5668,1.64461,1.77816,0.135691,-0.559525,-0.901227,-0.580789,2.98752,0.932742,0.105792,0.132745
1869250,0.97,-1.57035,-0.52297,0.000440073,-2.09646,-0.00118941,1.57076,0.785179,-1.57079,-0.523599,1.42015e-06,-2.0944,-7.93281e-07,1.5708,0.785397,0.000804188,-0.000546255,-0.00188975,0.000808299,0.000147254,0.000217259,-0.00111636,0,0,0,0,0,0,0,-0.581349,-10.0107,-0.988401,21.4914,1.64461,1.77175,0.155832,-0.558147,-0.902024,-0.578792,2.98784,0.932828,0.105837,0.132633
1869251,0.97,-1.57035,-0.52297,0.000445363,-2.09646,-0.00119002,1.57076,0.785179,-1.57079,-0.523599,1.42015e-06,-2.0944,-7.93281e-07,1.5708,0.785397,-2.06869e-05,-0.00036417,0.000503402,0.000538866,-0.000105281,0.000144839,-0.0009816,0,0,0,0,0,0,0,-0.557545,-10.0107,-1.06378,21.4914,1.6501,1.77175,0.162241,-0.556741,-0.901197,-0.576579,2.98724,0.9329,0.105811,0.132509
1869252,0.97,-1.57035,-0.522968,0.000447312,-2.09646,-0.00119073,1.57076,0.785181,-1.57079,-0.523599,1.42015e-06,-2.0944,-7.93281e-07,1.5708,0.785397,-1.37912e-05,0.000406834,0.000985216,-0.000847182,-0.000307546,9.65597e-05,0.00104102,0,0,0,0,0,0,0,-0.557545,-10.0385,-1.09155,21.543,1.65651,1.77175,0.116465,-0.556354,-0.899709,-0.575881,2.98621,0.932915,0.105739,0.132428
1869253,0.97,-1.57035,-0.522968,0.000442022,-2.09646,-0.00119073,1.57076,0.785181,-1.57079,-0.523599,1.42015e-06,-2.0944,-7.93281e-07,1.5708,0.785397,-9.19417e-06,0.000271223,-0.00110643,0.000641638,-0.000205031,-0.000172986,-1.80626e-05,0,0,0,0,0,0,0,-0.557545,-10.0385,-1.01617,21.4914,1.65651,1.77816,0.135691,-0.556713,-0.899644,-0.57638,2.98604,0.932915,0.105735,0.132407
1869254,0.97,-1.57035,-0.522972,0.000440073,-2.09646,-0.00118941,1.57076,0.785183,-1.57079,-0.523599,1.42015e-06,-2.0944,-7.93281e-07,1.5708,0.785397,-0.000655743,-0.00102561,-0.00138723,-0.000778667,0.000304122,0.000122035,0.000462676,0,0,0,0,0,0,0,-0.529774,-9.98691,-0.988401,21.543,1.64461,1.77175,0.122873,-0.556214,-0.899766,-0.575563,2.98603,0.93297,0.105746,0.132412
1869255,0.97,-1.57034,-0.522969,0.000443693,-2.09646,-0.0011888,1.57076,0.785185,-1.57079,-0.523599,1.42015e-06,-2.0944,-7.93281e-07,1.5708,0.785397,0.00132608,-0.000683741,0.000281604,-0.000519111,0.000406199,-0.000156002,0.00102053,0,0,0,0,0,0,0,-0.605152,-9.98691,-1.03998,21.543,1.63912,1.77816,0.103647,-0.555186,-0.898532,-0.573833,2.98569,0.933056,0.105753,0.132417
1869256,0.97,-1.57035,-0.522969,0.000445363,-2.09646,-0.00118941,1.57076,0.785184,-1.57079,-0.523599,1.42015e-06,-2.0944,-7.93281e-07,1.5708,0.785397,-0.000879187,0.000100985,0.000744548,0.00030354,6.73486e-05,0.000133357,0.00115507,0,0,0,0,0,0,0,-0.529774,-10.0107,-1.06378,21.5152,1.64461,1.77175,0.09083,-0.55518,-0.896704,-0.573544,2.98529,0.933091,0.105761,0.13241
1869257,0.97,-1.57035,-0.522966,0.000443693,-2.09646,-0.00118941,1.57076,0.785186,-1.57079,-0.523599,1.42015e-06,-2.0944,-7.93281e-07,1.5708,0.785397,6.3489e-05,0.000716937,-6.04465e-05,0.00020236,4.4899e-05,0.000563623,0.000770046,0,0,0,0,0,0,0,-0.557545,-10.0385,-1.03998,21.5152,1.64461,1.75894,0.09083,-0.555884,-0.895927,-0.574384,2.98512,0.933081,0.105747,0.132354
1869258,0.97,-1.57035,-0.522967,0.000443693,-2.09646,-0.00119002,1.57076,0.785181,-1.57079,-0.523599,1.42015e-06,-2.0944,-7.93281e-07,1.5708,0.785397,4.2326e-05,0.000477958,-4.02977e-05,-0.000514707,-0.000173518,-0.000336328,-0.00141942,0,0,0,0,0,0,0,-0.557545,-10.0385,-1.03998,21.543,1.6501,1.77816,0.143015,-0.556521,-0.897147,-0.575157,2.98569,0.933072,0.105753,0.13221
1869259,0.97,-1.57035,-0.52297,0.000445363,-2.09646,-0.00119002,1.57076,0.785181,-1.57079,-0.523599,1.42015e-06,-2.0944,-7.93281e-07,1.5708,0.785397,-0.000621397,-0.000330975,0.000529947,0.000863288,-0.000115679,-0.000224219,-0.000946277,0,0,0,0,0,0,0,-0.529774,-10.0107,-1.06378,21.4914,1.6501,1.77816,0.143015,-0.557072,-0.898966,-0.575812,2.9865,0.933062,0.105761,0.131983
1869260,0.97,-1.57035,-0.52297,0.000443693,-2.09646,-0.00118941,1.57076,0.785179,-1.57079,-0.523599,1.42015e-06,-2.0944,-7.93281e-07,1.5708,0.785397,-0.000414264,-0.00022065,-0.000203514,0.000575525,0.000126331,8.78797e-05,-0.00110557,0,0,0,0,0,0,0,-0.529774,-10.0107,-1.03998,21.4914,1.64461,1.77175,0.155832,-0.557391,-0.899125,-0.57623,2.98628,0.933039,0.105669,0.131719
1869261,0.97,-1.57035,-0.522968,0.000443693,-2.09647,-0.00119002,1.57076,0.785181,-1.57079,-0.523599,1.42015e-06,-2.0944,-7.93281e-07,1.5708,0.785397,0.000373438,0.000502514,-0.000135676,-0.00193637,-0.00011923,5.85865e-05,-0.000262328,0,0,0,0,0,0,0,-0.557545,-10.0385,-1.03998,21.5906,1.6501,1.77175,0.143015,-0.557422,-0.898985,-0.576268,2.98604,0.933029,0.10559,0.131479
1869262,0.97,-1.57035,-0.52297,0.000445363,-2.09646,-0.0011888,1.57076,0.785183,-1.57079,-0.523599,1.42015e-06,-2.0944,-7.93281e-07,1.5708,0.785397,-0.000400655,-0.000314605,0.000466361,-0.000177287,0.000327415,0.000276417,0.0005711,0,0,0,0,0,0,0,-0.529774,-10.0107,-1.06378,21.543,1.63912,1.76535,0.122873,-0.55749,-0.900354,-0.576366,2.98722,0.933044,0.105658,0.131301
1869263,0.97,-1.57035,-0.522966,0.000443693,-2.09646,-0.00119073,1.57076,0.785183,-1.57079,-0.523599,1.42015e-06,-2.0944,-7.93281e-07,1.5708,0.785397,0.000939322,0.000439877,-0.000245904,-0.000675003,-0.000425984,-0.00029044,0.000380733,0,0,0,0,0,0,0,-0.581349,-10.0385,-1.03998,21.5668,1.65651,1.77816,0.122873,-0.557836,-0.902158,-0.576881,2.98894,0.933049,0.105773,0.131186
1869264,0.97,-1.57035,-0.522967,0.000443693,-2.09646,-0.00118941,1.57076,0.785179,-1.57079,-0.523599,1.42015e-06,-2.0944,-7.93281e-07,1.5708,0.785397,-0.000580211,0.000293252,-0.000163936,0.00010681,0.00015682,-0.000193627,-0.00120424,0,0,0,0,0,0,0,-0.529774,-10.0385,-1.03998,21.543,1.64461,1.77816,0.162241,-0.55817,-0.904002,-0.577338,2.99058,0.933044,0.105861,0.131109
1869265,0.97,-1.57035,-0.522968,0.000445363,-2.09646,-0.00119073,1.57076,0.785186,-1.57079,-0.523599,1.42015e-06,-2.0944,-7.93281e-07,1.5708,0.785397,-0.000386807,0.000195501,0.000447521,0.00072082,-0.000336262,-0.000366443,0.00160467,0,0,0,0,0,0,0,-0.529774,-10.0385,-1.06378,21.5152,1.65651,1.78457,0.0972387,-0.558134,-0.90549,-0.577311,2.99168,0.93304,0.105879,0.131059
1869266,0.97,-1.57035,-0.522964,0.000445363,-2.09646,-0.0011888,1.57076,0.785181,-1.57079,-0.523599,1.42015e-06,-2.0944,-7.93281e-07,1.5708,0.785397,0.000391742,0.00133676,0.000298347,-0.000169067,0.000420085,-0.000244296,0.000357704,0,0,0,0,0,0,0,-0.557545,-10.0901,-1.06378,21.543,1.63912,1.78457,0.116465,-0.558105,-0.906914,-0.577411,2.99233,0.933023,0.105841,0.131036
1869267,0.97,-1.57035,-0.522964,0.000443693,-2.09646,-0.00118941,1.57076,0.785178,-1.57079,-0.523599,1.42015e-06,-2.0944,-7.93281e-07,1.5708,0.785397,-0.000388452,0.000241559,-0.000357914,-0.000112711,7.66061e-05,7.44952e-05,-0.000236249,0,0,0,0,0,0,0,-0.529774,-10.0623,-1.03998,21.543,1.64461,1.77816,0.129282,-0.558177,-0.909391,-0.577693,2.99339,0.933008,0.105847,0.13101
1869268,0.97,-1.57035,-0.522967,0.000439892,-2.09646,-0.00119002,1.57076,0.785182,-1.57079,-0.523599,1.42015e-06,-2.0944,-7.93281e-07,1.5708,0.785397,0.000390646,-0.000395772,-0.000795421,-7.51409e-05,-0.00015238,4.96635e-05,7.98599e-05,0,0,0,0,0,0,0,-0.557545,-10.0385,-1.01617,21.543,1.6501,1.77816,0.122873,-0.557758,-0.911301,-0.577224,2.99428,0.933014,0.105874,0.130951
1869269,0.97,-1.57035,-0.522969,0.000442983,-2.09646,-0.00119002,1.57076,0.785179,-1.57079,-0.523599,1.42015e-06,-2.0944,-7.93281e-07,1.5708,0.785397,0.00026043,-0.00147027,2.65312e-05,-5.00939e-05,-0.000101587,-0.00020425,-0.00116746,0,0,0,0,0,0,0,-0.557545,-9.98691,-1.03998,21.543,1.6501,1.78457,0.155832,-0.557043,-0.910169,-0.576239,2.99389,0.933011,0.105839,0.130865
1869270,0.97,-1.57035,-0.522965,0.000439837,-2.09646,-0.00118941,1.57076,0.785181,-1.57079,-0.523599,1.42015e-06,-2.0944,-7.93281e-07,1.5708,0.785397,-0.000475994,0.000783055,-0.00118874,-0.000590208,0.000135726,0.000101192,-0.000303591,0,0,0,0,0,0,0,-0.529774,-10.0623,-0.988401,21.5668,1.64461,1.77816,0.143015,-0.556159,-0.90719,-0.574943,2.99283,0.933009,0.105788,0.130773
1869271,0.97,-1.57035,-0.522968,0.000445284,-2.09646,-0.00119073,1.57076,0.785179,-1.57079,-0.523599,1.42015e-06,-2.0944,-7.93281e-07,1.5708,0.785397,0.000889097,-3.47752e-05,0.000970746,0.00016334,-0.000350325,6.74615e-05,6.88734e-05,0,0,0,0,0,0,0,-0.581349,-10.0385,-1.06378,21.543,1.65651,1.77816,0.135691,-0.555319,-0.905437,-0.573668,2.99245,0.93302,0.105804,0.13071
1869272,0.97,-1.57035,-0.522968,0.000445337,-2.09646,-0.0011888,1.57076,0.785176,-1.57079,-0.523599,1.42015e-06,-2.0944,-7.93281e-07,1.5708,0.785397,-0.000613695,-0.000672797,0.000647164,0.000758507,0.00041071,4.49744e-05,-0.000462711,0,0,0,0,0,0,0,-0.529774,-10.0107,-1.06378,21.5152,1.63912,1.77816,0.149424,-0.555437,-0.903934,-0.573821,2.99199,0.932985,0.105802,0.130695
1869273,0.97,-1.57035,-0.522969,0.000445354,-2.09646,-0.00119002,1.57076,0.785183,-1.57079,-0.523599,1.42015e-06,-2.0944,-7.93281e-07,1.5708,0.785397,0.000797296,-0.000448532,0.000431442,-0.000143942,-0.000133095,-0.000207376,0.00114959,0,0,0,0,0,0,0,-0.581349,-10.0107,-1.06378,21.543,1.6501,1.78457,0.110056,-0.556396,-0.900936,-0.575273,2.99062,0.932895,0.10572,0.130723
1869274,0.96,-1.57035,-0.52297,0.000447309,-2.09646,-0.00119073,1.57076,0.785186,-1.57079,-0.523599,1.42015e-06,-2.0944,-7.93281e-07,1.5708,0.785397,0.000531531,-0.000299021,0.000937242,0.00111046,-0.000326089,0.000811185,0.00124111,0,0,0,0,0,0,0,-0.581349,-10.0107,-1.09155,21.4914,1.65651,1.75894,0.0972387,-0.55791,-0.897257,-0.577519,2.98881,0.932769,0.105598,0.130782
1869275,0.96,-1.57035,-0.52297,0.000445362,-2.09646,-0.00119073,1.57076,0.785182,-1.57079,-0.523599,1.42015e-06,-2.0944,-7.93281e-07,1.5708,0.785397,0.000354354,-0.000199347,-2.47858e-05,0.00074031,-0.000217392,-0.000171287,-0.000596747,0,0,0,0,0,0,0,-0.581349,-10.0107,-1.06378,21.4914,1.65651,1.77816,0.135691,-0.55974,-0.8935,-0.580162,2.98665,0.932625,0.105424,0.13083
1869276,0.96,-1.57035,-0.522966,0.000447312,-2.09646,-0.00119002,1.57076,0.785177,-1.57079,-0.523599,1.42015e-06,-2.0944,-7.93281e-07,1.5708,0.785397,-0.000320576,0.00107353,0.00063309,0.00105035,9.24307e-05,-0.000114191,-0.00185589,0,0,0,0,0,0,0,-0.557545,-10.0623,-1.09155,21.4676,1.6501,1.77816,0.175059,-0.561136,-0.890949,-0.582153,2.9847,0.932524,0.105242,0.130834
1869277,0.96,-1.57035,-0.522966,0.000445363,-2.09646,-0.00119073,1.57076,0.785179,-1.57079,-0.523599,1.42015e-06,-2.0944,-7.93281e-07,1.5708,0.785397,-0.000213717,0.000715685,-0.000227554,-0.000413389,-0.000175739,0.000161231,-0.000762544,0,0,0,0,0,0,0,-0.557545,-10.0623,-1.06378,21.5152,1.65651,1.77175,0.162241,-0.561745,-0.891391,-0.58304,2.98411,0.93251,0.105167,0.130823
1869278,0.96,-1.57035,-0.522964,0.000448982,-2.09646,-0.0011888,1.57076,0.78518,-1.57079,-0.523599,1.42015e-06,-2.0944,-7.93281e-07,1.5708,0.785397,0.000414334,0.000477123,0.00105472,0.000838031,0.000527101,-0.000129871,-0.000271004,0,0,0,0,0,0,0,-0.581349,-10.0623,-1.11535,21.4676,1.63912,1.77816,0.155832,-0.561984,-0.894159,-0.583435,2.98479,0.932562,0.105211,0.130859
1869279,0.96,-1.57035,-0.522967,0.000447312,-2.09646,-0.00118941,1.57076,0.785182,-1.57079,-0.523599,1.42015e-06,-2.0944,-7.93281e-07,1.5708,0.785397,-0.000280589,-0.00023873,0.000146337,-0.00120455,0.00014795,-0.00032394,0.000802675,0,0,0,0,0,0,0,-0.557545,-10.0385,-1.09155,21.543,1.64461,1.78457,0.129282,-0.562396,-0.89722,-0.584137,2.98593,0.932627,0.105327,0.130972
1869280,0.96,-1.57035,-0.522966,0.000445363,-2.09646,-0.00118941,1.57076,0.785173,-1.57079,-0.523599,1.42015e-06,-2.0944,-7.93281e-07,1.5708,0.785397,-0.000836674,0.000397659,-0.000552056,-0.00135985,9.86334e-05,-0.00021596,-0.00258446,0,0,0,0,0,0,0,-0.529774,-10.0623,-1.06378,21.5668,1.64461,1.78457,0.213511,-0.562247,-0.900491,-0.584116,2.98788,0.932741,0.105573,0.13115
1869281,0.96,-1.57035,-0.522971,0.000445363,-2.09646,-0.00118941,1.57076,0.785184,-1.57079,-0.523599,1.42015e-06,-2.0944,-7.93281e-07,1.5708,0.785397,9.18315e-05,-0.00149813,-0.000368037,-0.000349752,6.57556e-05,9.33857e-05,0.00187132,0,0,0,0,0,0,0,-0.557545,-9.98691,-1.06378,21.543,1.64461,1.77816,0.116465,-0.561003,-0.903129,-0.582562,2.99014,0.93291,0.105904,0.13139
1869282,0.96,-1.57035,-0.52297,0.000445363,-2.09646,-0.0011888,1.57076,0.785182,-1.57079,-0.523599,1.42015e-06,-2.0944,-7.93281e-07,1.5708,0.785397,6.1221e-05,-0.000441943,-0.000245358,0.000973258,0.000247288,0.000536975,0.000772829,0,0,0,0,0,0,0,-0.557545,-10.0107,-1.06378,21.4914,1.63912,1.76535,0.129282,-0.559459,-0.902602,-0.580557,2.99069,0.933039,0.106095,0.131703
1869283,0.96,-1.57034,-0.522968,0.000443693,-2.09646,-0.00119073,1.57076,0.785182,-1.57079,-0.523599,1.42015e-06,-2.0944,-7.93281e-07,1.5708,0.785397,0.00115444,0.000354985,-0.000720384,0.000648839,-0.000479402,-0.000116735,0.00146466,0,0,0,0,0,0,0,-0.605152,-10.0385,-1.03998,21.4914,1.65651,1.77816,0.103647,-0.55827,-0.900013,-0.578943,2.98947,0.933087,0.106088,0.132054
1869284,0.96,-1.57034,-0.52297,0.000442022,-2.09646,-0.00119073,1.57076,0.78518,-1.57079,-0.523599,1.42015e-06,-2.0944,-7.93281e-07,1.5708,0.785397,0.000212813,-0.000412957,-0.00103707,-0.000773867,-0.000319601,0.000159536,-0.000481625,0,0,0,0,0,0,0,-0.581349,-10.0107,-1.01617,21.543,1.65651,1.77175,0.143015,-0.557321,-0.898134,-0.577456,2.98822,0.933102,0.106041,0.132384
1869285,0.96,-1.57035,-0.52297,0.000445363,-2.09646,-0.00118941,1.57076,0.785181,-1.57079,-0.523599,1.42015e-06,-2.0944,-7.93281e-07,1.5708,0.785397,-0.000414936,-0.000275305,0.000422245,0.000133703,0.000227742,0.000106357,-4.98162e-05,0,0,0,0,0,0,0,-0.557545,-10.0107,-1.06378,21.5152,1.64461,1.77175,0.135691,-0.556405,-0.897062,-0.575903,2.98757,0.933135,0.106044,0.132657
1869286,0.96,-1.57034,-0.522968,0.000445363,-2.09646,-0.00119073,1.57076,0.785179,-1.57079,-0.523599,1.42015e-06,-2.0944,-7.93281e-07,1.5708,0.785397,0.000837,0.000466078,0.000281497,0.000645947,-0.000288981,-0.000403813,-0.00101655,0,0,0,0,0,0,0,-0.605152,-10.0385,-1.06378,21.4914,1.65651,1.78457,0.162241,-0.556088,-0.896381,-0.575243,2.98711,0.933156,0.106046,0.132881
1869287,0.96,-1.57035,-0.522968,0.000445363,-2.09646,-0.00119002,1.57076,0.785181,-1.57079,-0.523599,1.42015e-06,-2.0944,-7.93281e-07,1.5708,0.785397,-0.000555624,0.000310718,0.000187665,-0.000775794,4.47047e-05,-3.18497e-05,3.43735e-05,0,0,0,0,0,0,0,-0.557545,-10.0385,-1.06378,21.543,1.6501,1.77816,0.143015,-0.55656,-0.896892,-0.57572,2.9871,0.933158,0.106066,0.133086
1869288,0.96,-1.57035,-0.52297,0.000445363,-2.09646,-0.00118941,1.57076,0.785178,-1.57079,-0.523599,1.42015e-06,-2.0944,-7.93281e-07,1.5708,0.785397,0.000186396,-0.000442468,0.00012511,-0.00107401,0.000233254,-2.12332e-05,-0.00092652,0,0,0,0,0,0,0,-0.581349,-10.0107,-1.06378,21.5668,1.64461,1.77816,0.16865,-0.557189,-0.898636,-0.576426,2.98808,0.933188,0.106188,0.133293
1869289,0.95,-1.57035,-0.522968,0.000445363,-2.09646,-0.00119002,1.57076,0.785182,-1.57079,-0.523599,1.42015e-06,-2.0944,-7.93281e-07,1.5708,0.785397,-0.00163897,0.000354635,8.34065e-05,0.00104723,-4.79481e-05,0.000223203,0.000840382,0,0,0,0,0,0,0,-0.50597,-10.0385,-1.06378,21.4914,1.6501,1.77175,0.129282,-0.557425,-0.900254,-0.576632,2.98922,0.933252,0.106335,0.133518
1869290,0.95,-1.57035,-0.522966,0.000445363,-2.09646,-0.00118941,1.57076,0.785187,-1.57079,-0.523599,1.42015e-06,-2.0944,-7.93281e-07,1.5708,0.785397,0.000670589,0.000793235,5.56043e-05,0.000141343,0.000171485,0.000386161,0.00198441,0,0,0,0,0,0,0,-0.581349,-10.0623,-1.06378,21.5152,1.64461,1.76535,0.09083,-0.557222,-0.901656,-0.576284,2.98976,0.933317,0.106393,0.133764
1869291,0.95,-1.57035,-0.522968,0.000443693,-2.09646,-0.00118941,1.57076,0.78518,-1.57079,-0.523599,1.42015e-06,-2.0944,-7.93281e-07,1.5708,0.785397,-0.000109753,-2.79884e-05,-0.000519742,-0.000555385,0.000114323,0.000257441,0.000136144,0,0,0,0,0,0,0,-0.557545,-10.0385,-1.03998,21.543,1.64461,1.76535,0.122873,-0.557042,-0.903601,-0.575918,2.99031,0.93337,0.106418,0.133998
1869292,0.95,-1.57034,-0.522966,0.000445363,-2.09646,-0.0011888,1.57076,0.785184,-1.57079,-0.523599,1.42015e-06,-2.0944,-7.93281e-07,1.5708,0.785397,0.000483643,0.000538153,0.000210317,0.000279357,0.000279666,-6.57317e-05,0.00080284,0,0,0,0,0,0,0,-0.581349,-10.0623,-1.06378,21.5152,1.63912,1.77175,0.103647,-0.557084,-0.905733,-0.575764,2.99111,0.933406,0.106452,0.134167
1869293,0.95,-1.57035,-0.522968,0.000445363,-2.09646,-0.00119134,1.57076,0.785181,-1.57079,-0.523599,1.42015e-06,-2.0944,-7.93281e-07,1.5708,0.785397,-0.000234383,-0.000198043,0.000140211,0.00129986,-0.000661266,-4.38211e-05,-0.000922836,0,0,0,0,0,0,0,-0.557545,-10.0385,-1.06378,21.4676,1.662,1.77175,0.143015,-0.557416,-0.906898,-0.576005,2.99122,0.9334,0.1064,0.134248
1869294,0.95,-1.57035,-0.522968,0.000443693,-2.09646,-0.00119002,1.57076,0.785179,-1.57079,-0.523599,1.42015e-06,-2.0944,-7.93281e-07,1.5708,0.785397,0.000400557,-0.000132029,-0.000463338,-0.00145348,-3.48156e-08,-0.000266573,-0.0013273,0,0,0,0,0,0,0,-0.581349,-10.0385,-1.03998,21.5668,1.6501,1.77816,0.162241,-0.557849,-0.906825,-0.576387,2.99065,0.933373,0.106279,0.134249
1869295,0.95,-1.57035,-0.522968,0.000445363,-2.09646,-0.00118941,1.57076,0.785183,-1.57079,-0.523599,1.42015e-06,-2.0944,-7.93281e-07,1.5708,0.785397,0.000267038,-8.80192e-05,0.00024792,0.000794254,0.000203427,-0.000177715,0.000573195,0,0,0,0,0,0,0,-0.581349,-10.0385,-1.06378,21.4914,1.64461,1.77816,0.122873,-0.558278,-0.906401,-0.576708,2.99027,0.933359,0.106198,0.134212
1869296,0.95,-1.57034,-0.522972,0.000445363,-2.09646,-0.00118941,1.57076,0.78518,-1.57079,-0.523599,1.42015e-06,-2.0944,-7.93281e-07,1.5708,0.785397,0.000178025,-0.00126511,0.00016528,-0.00123373,0.000135618,0.000118882,-0.000838573,0,0,0,0,0,0,0,-0.581349,-9.98691,-1.06378,21.5668,1.64461,1.77175,0.155832,-0.558988,-0.905121,-0.577398,2.98979,0.933338,0.106131,0.134178
1869297,0.95,-1.57035,-0.522966,0.000443693,-2.09646,-0.0011888,1.57076,0.785186,-1.57079,-0.523599,1.42015e-06,-2.0944,-7.93281e-07,1.5708,0.785397,-0.00108774,0.000919834,-0.000446625,0.000383936,0.000293863,7.92547e-05,0.00161109,0,0,0,0,0,0,0,-0.529774,-10.0623,-1.03998,21.5152,1.63912,1.77175,0.0972387,-0.559458,-0.903414,-0.577776,2.98928,0.93333,0.106076,0.134157
1869298,0.95,-1.57035,-0.522968,0.000445363,-2.09646,-0.00118941,1.57076,0.785182,-1.57079,-0.523599,1.42015e-06,-2.0944,-7.93281e-07,1.5708,0.785397,-7.55477e-05,5.64109e-05,0.000259062,-0.000950469,-7.54208e-06,5.28365e-05,-0.000112735,0,0,0,0,0,0,0,-0.557545,-10.0385,-1.06378,21.5668,1.64461,1.77175,0.129282,-0.559221,-0.903378,-0.577212,2.98959,0.933359,0.106077,0.134139
1869299,0.95,-1.57035,-0.522968,0.000442022,-2.09646,-0.00119073,1.57076,0.785183,-1.57079,-0.523599,1.42015e-06,-2.0944,-7.93281e-07,1.5708,0.785397,-0.000699979,3.76073e-05,-0.000940916,0.00057278,-0.000445838,-0.000439494,0.000162203,0,0,0,0,0,0,0,-0.529774,-10.0385,-1.01617,21.5152,1.65651,1.78457,0.122873,-0.558504,-0.904473,-0.576004,2.99037,0.933403,0.106102,0.134101
1869300,0.95,-1.57035,-0.522964,0.000443693,-2.09646,-0.00119002,1.57076,0.785183,-1.57079,-0.523599,1.42015e-06,-2.0944,-7.93281e-07,1.5708,0.785397,0.000182961,0.0012315,-7.04654e-05,0.00149548,-5.98661e-05,0.000419081,0.000108135,0,0,0,0,0,0,0,-0.557545,-10.0901,-1.03998,21.4676,1.6501,1.76535,0.122873,-0.557459,-0.905519,-0.574301,2.99061,0.933434,0.106048,0.13403
1869301,0.95,-1.57035,-0.522966,0.000442022,-2.09646,-0.00119073,1.57076,0.785178,-1.57079,-0.523599,1.42015e-06,-2.0944,-7.93281e-07,1.5708,0.785397,-0.00052764,0.000171384,-0.000603789,-0.000116639,-0.00027727,-0.00019533,-0.00162333,0,0,0,0,0,0,0,-0.529774,-10.0623,-1.01617,21.5152,1.65651,1.77816,0.16865,-0.556381,-0.906899,-0.572522,2.99033,0.933452,0.105913,0.13393
1869302,0.95,-1.57035,-0.522972,0.000443693,-2.09646,-0.00119002,1.57076,0.785176,-1.57079,-0.523599,1.42015e-06,-2.0944,-7.93281e-07,1.5708,0.785397,0.000297854,-0.00164898,0.000154286,-0.00128419,5.25125e-05,-0.000367579,-0.000607503,0,0,0,0,0,0,0,-0.557545,-9.98691,-1.03998,21.5668,1.6501,1.78457,0.155832,-0.55559,-0.907476,-0.571176,2.99002,0.933473,0.105816,0.133824
1869303,0.95,-1.57034,-0.52297,0.000443693,-2.09646,-0.00119002,1.57076,0.785181,-1.57079,-0.523599,1.42015e-06,-2.0944,-7.93281e-07,1.5708,0.785397,0.00131219,-0.000542509,0.000102857,-0.000299312,3.50083e-05,0.000229665,0.000340983,0,0,0,0,0,0,0,-0.605152,-10.0107,-1.03998,21.543,1.6501,1.77175,0.135691,-0.555734,-0.905826,-0.571143,2.98956,0.93347,0.105783,0.133758
1869304,0.95,-1.57035,-0.522966,0.000445363,-2.09646,-0.00119002,1.57076,0.785177,-1.57079,-0.523599,1.42015e-06,-2.0944,-7.93281e-07,1.5708,0.785397,-0.000238828,0.000844753,0.000625384,-0.000199541,2.33389e-05,-8.42489e-05,-0.00123074,0,0,0,0,0,0,0,-0.557545,-10.0623,-1.06378,21.543,1.6501,1.77816,0.175059,-0.557009,-0.904047,-0.572678,2.98933,0.93343,0.105791,0.133756
1869305,0.95,-1.57035,-0.522972,0.000445363,-2.09646,-0.00119073,1.57076,0.785184,-1.57079,-0.523599,1.42015e-06,-2.0944,-7.93281e-07,1.5708,0.785397,-0.000808833,-0.00120007,0.000416922,-0.000689839,-0.0002218,-5.61659e-05,0.001587,0,0,0,0,0,0,0,-0.529774,-9.98691,-1.06378,21.5668,1.65651,1.77816,0.110056,-0.558442,-0.903469,-0.57454,2.98965,0.933401,0.105836,0.133818
1869306,0.95,-1.57035,-0.52297,0.000443233,-2.09646,-0.00119073,1.57076,0.785185,-1.57079,-0.523599,1.42015e-06,-2.0944,-7.93281e-07,1.5708,0.785397,0.000110392,-0.000243234,0.000277948,0.00186016,-0.000147866,-3.7444e-05,0.001058,0,0,0,0,0,0,0,-0.557545,-10.0107,-1.06378,21.4676,1.65651,1.77816,0.110056,-0.559447,-0.901756,-0.575945,2.98919,0.933384,0.105803,0.133929
1869307,0.95,-1.57035,-0.522968,0.000442983,-2.09647,-0.00119002,1.57076,0.785183,-1.57079,-0.523599,1.42015e-06,-2.0944,-7.93281e-07,1.5708,0.785397,7.35947e-05,0.000487458,-0.000371513,-0.00163676,0.000138781,-2.49626e-05,0.000230618,0,0,0,0,0,0,0,-0.557545,-10.0385,-1.03998,21.5906,1.6501,1.77816,0.122873,-0.560082,-0.899608,-0.576835,2.98817,0.933379,0.105706,0.134044
1869308,0.95,-1.57035,-0.52297,0.000445126,-2.09646,-0.00119002,1.57076,0.785176,-1.57079,-0.523599,1.42015e-06,-2.0944,-7.93281e-07,1.5708,0.785397,4.90631e-05,-0.000324642,0.000309137,2.24525e-05,9.25209e-05,-1.66418e-05,-0.00106696,0,0,0,0,0,0,0,-0.557545,-10.0107,-1.06378,21.543,1.6501,1.77816,0.155832,-0.560436,-0.899456,-0.577277,2.98834,0.933423,0.105722,0.134122
1869309,0.95,-1.57035,-0.522972,0.000447233,-2.09646,-0.00119002,1.57076,0.785181,-1.57079,-0.523599,1.42015e-06,-2.0944,-7.93281e-07,1.5708,0.785397,3.27088e-05,-0.00077324,0.000855705,-0.000541844,6.16806e-05,-1.10945e-05,3.46798e-05,0,0,0,0,0,0,0,-0.557545,-9.98691,-1.09155,21.5668,1.6501,1.77816,0.135691,-0.560946,-0.899623,-0.577997,2.98903,0.933483,0.105802,0.134166
1869310,0.95,-1.57035,-0.522972,0.000445337,-2.09646,-0.00118941,1.57076,0.785175,-1.57079,-0.523599,1.42015e-06,-2.0944,-7.93281e-07,1.5708,0.785397,2.18058e-05,-0.000515493,-7.9144e-05,0.000195583,0.000244571,-7.39634e-06,-0.000960224,0,0,0,0,0,0,0,-0.557545,-9.98691,-1.06378,21.543,1.64461,1.77816,0.162241,-0.561725,-0.898417,-0.579201,2.98912,0.933521,0.105839,0.134201
1869311,0.95,-1.57035,-0.52297,0.000448974,-2.09646,-0.00119002,1.57076,0.785178,-1.57079,-0.523599,1.42015e-06,-2.0944,-7.93281e-07,1.5708,0.785397,0.000571349,0.00021315,0.00115366,0.000780003,-4.04032e-05,0.000232428,-0.000402791,0,0,0,0,0,0,0,-0.581349,-10.0107,-1.11535,21.5152,1.6501,1.77175,0.155832,-0.562676,-0.896598,-0.580705,2.98869,0.933532,0.105813,0.134251
1869312,0.95,-1.57034,-0.522966,0.00044536,-2.09646,-0.00118941,1.57076,0.78518,-1.57079,-0.523599,1.42015e-06,-2.0944,-7.93281e-07,1.5708,0.785397,0.000380899,0.00134853,-0.000437317,0.000520002,0.000176515,-8.24069e-05,-3.11681e-05,0,0,0,0,0,0,0,-0.581349,-10.0623,-1.06378,21.5152,1.64461,1.77816,0.149424,-0.563823,-0.896131,-0.582487,2.98839,0.93352,0.105754,0.134342
1869313,0.95,-1.57035,-0.522973,0.000445362,-2.09646,-0.00118941,1.57076,0.785184,-1.57079,-0.523599,1.42015e-06,-2.0944,-7.93281e-07,1.5708,0.785397,-0.000302879,-0.00142103,-0.000291545,-0.000302946,0.000117677,-0.000292297,0.00143728,0,0,0,0,0,0,0,-0.557545,-9.9631,-1.06378,21.543,1.64461,1.78457,0.110056,-0.564392,-0.896876,-0.583382,2.98852,0.933528,0.10572,0.134481
1869314,0.95,-1.57034,-0.522968,0.000448982,-2.09646,-0.00119002,1.57076,0.785182,-1.57079,-0.523599,1.42015e-06,-2.0944,-7.93281e-07,1.5708,0.785397,0.000354893,0.000815883,0.00101206,0.00100446,-0.000124999,0.000279853,0.000246112,0,0,0,0,0,0,0,-0.581349,-10.0385,-1.11535,21.4914,1.6501,1.77175,0.129282,-0.564423,-0.896802,-0.583523,2.98839,0.933544,0.105684,0.134643
1869315,0.95,-1.57035,-0.522968,0.000445363,-2.09646,-0.00119073,1.57076,0.785185,-1.57079,-0.523597,1.41993e-06,-2.09439,-7.93203e-07,1.5708,0.785397,-0.000320217,0.000543922,-0.000531717,-0.000536785,-0.000320692,-5.07901e-05,0.00111351,4.60979e-08,0.001875,-2.21757e-07,0.00226388,7.77923e-08,0.000121617,4.80524e-08,-0.557545,-10.0385,-1.06378,21.543,1.65651,1.77816,0.103647,-0.564474,-0.897231,-0.583769,2.98849,0.933554,0.105669,0.134792
1869316,0.95,-1.57035,-0.52297,0.000445363,-2.09646,-0.0011888,1.57076,0.785183,-1.57079,-0.523593,1.41948e-06,-2.09439,-7.93047e-07,1.5708,0.785397,0.000343334,-0.000286999,-0.000354478,0.00140538,0.000430465,0.000203499,3.02635e-05,9.21959e-08,0.00375,-4.43514e-07,0.00452777,1.55585e-07,0.000243234,9.61048e-08,-0.581349,-10.0107,-1.06378,21.4676,1.63912,1.77175,0.122873,-0.564085,-0.898504,-0.583363,2.98891,0.933587,0.105682,0.134893
1869317,0.95,-1.57035,-0.522968,0.000443693,-2.09646,-0.00119002,1.57076,0.785182,-1.57079,-0.523587,1.41882e-06,-2.09438,-7.92814e-07,1.5708,0.785397,-0.000327923,-0.000191333,-0.000793131,-0.000826317,-0.000119924,0.000373025,-0.000454542,1.38294e-07,0.005625,-6.65271e-07,0.00679165,2.33377e-07,0.00036485,1.44157e-07,-0.557545,-10.0107,-1.03998,21.543,1.6501,1.76535,0.135691,-0.563055,-0.898748,-0.581947,2.9888,0.933643,0.105661,0.134922
1869318,0.95,-1.57035,-0.522968,0.000445363,-2.09646,-0.00118941,1.57076,0.785177,-1.57079,-0.52358,1.41793e-06,-2.09437,-7.92503e-07,1.5708,0.785397,0.000338197,0.00184655,2.80581e-05,9.8736e-05,0.000123501,-0.000463394,-0.00176109,1.84392e-07,0.0075,-8.87028e-07,0.00905553,3.11169e-07,0.000486467,1.9221e-07,-0.581349,-9.9631,-1.06378,21.5152,1.64461,1.78457,0.175059,-0.561786,-0.899967,-0.58012,2.98937,0.933725,0.105711,0.134889
1869319,0.95,-1.57035,-0.522969,0.000445363,-2.09646,-0.00119002,1.57076,0.785179,-1.57079,-0.523571,1.41682e-06,-2.09436,-7.92114e-07,1.5708,0.785397,-0.000331347,0.000415444,1.87054e-05,0.00214469,-0.000121116,0.00886621,-0.000699342,2.3049e-07,0.009375,-1.10879e-06,0.0113194,3.88961e-07,0.000608084,2.40262e-07,-0.557545,-9.78458,-1.06378,21.5668,1.6501,1.79098,0.162241,-0.560802,-0.902938,-0.578689,2.99031,0.933804,0.105698,0.13484
1869320,0.95,-1.57034,-0.522972,0.000445182,-2.09646,-0.00119134,1.57076,0.785178,-1.57079,-0.523559,1.41549e-06,-2.09435,-7.91647e-07,1.5708,0.785397,0.000892726,0.000482599,0.000662084,0.00266236,-0.000521554,0.00622046,-0.000703587,2.76588e-07,0.01125,-1.33054e-06,0.0135833,4.66754e-07,0.000729701,2.88314e-07,-0.605152,-9.50687,-1.09155,21.666,1.662,1.8038,0.16865,-0.56058,-0.903799,-0.578362,2.98877,0.93381,0.105274,0.134826
1869321,0.96,-1.57035,-0.522964,0.000442523,-2.09646,-0.00119134,1.57076,0.785181,-1.57079,-0.523546,1.41394e-06,-2.09433,-7.91103e-07,1.5708,0.785397,-0.000518473,0.00392218,-0.000208224,0.00267099,-0.000347703,0.00473526,0.000480378,3.22686e-07,0.013125,-1.5523e-06,0.0158472,5.44546e-07,0.000851317,3.36367e-07,-0.557545,-9.35611,-1.06378,21.789,1.662,1.8038,0.143015,-0.560987,-0.903539,-0.578921,2.98565,0.933761,0.104587,0.134888
1869322,0.97,-1.57034,-0.522951,0.000444416,-2.09645,-0.00119195,1.57076,0.785185,-1.57079,-0.523531,1.41216e-06,-2.09431,-7.9048e-07,1.5708,0.785397,0.000767975,0.00515557,-0.000138816,0.00543031,-0.000435252,0.00312333,0.00154095,3.68783e-07,0.015,-1.77406e-06,0.0181111,6.22338e-07,0.000972934,3.84419e-07,-0.605152,-9.28073,-1.06378,21.789,1.6675,1.81661,0.110056,-0.561326,-0.907107,-0.579297,2.98393,0.933732,0.103983,0.135035
1869323,0.97,-1.57035,-0.522937,0.000443377,-2.09644,-0.00119002,1.57076,0.785182,-1.57079,-0.523514,1.41017e-06,-2.09429,-7.8978e-07,1.5708,0.785397,-4.48287e-05,0.00591362,-0.000649356,0.00698881,0.000354092,0.00170105,7.78675e-05,4.14881e-07,0.016875,-1.99581e-06,0.0203749,7.0013e-07,0.00109455,4.32472e-07,-0.581349,-9.20535,-1.03998,21.8167,1.6501,1.83584,0.135691,-0.561331,-0.914268,-0.579006,2.9835,0.933724,0.103475,0.135232
1869324,0.97,-1.57035,-0.522925,0.000447207,-2.09643,-0.00119002,1.57076,0.785185,-1.57079,-0.523496,1.40795e-06,-2.09427,-7.89002e-07,1.5708,0.785397,-0.00123631,0.00580361,0.000773522,0.00926197,0.000236061,0.00185693,0.00100135,4.60979e-07,0.01875,-2.21757e-06,0.0226388,7.77923e-07,0.00121617,4.80524e-07,-0.529774,-9.1022,-1.09155,21.9159,1.6501,1.82302,0.110056,-0.560967,-0.921047,-0.578111,2.98256,0.933702,0.102939,0.135421
1869325,0.97,-1.57035,-0.522911,0.000441527,-2.09642,-0.00118941,1.57076,0.785179,-1.57079,-0.523473,1.40534e-06,-2.09424,-7.88102e-07,1.5708,0.785397,-0.000174594,0.00634226,-0.000690745,0.0103387,0.000360825,0.000237297,-0.000281871,5.41968e-07,0.0225,-2.60717e-06,0.0266162,9.00127e-07,0.00140722,5.5601e-07,-0.557545,-9.02682,-1.03998,21.9159,1.64461,1.85507,0.135691,-0.560192,-0.924241,-0.576717,2.98,0.933643,0.102312,0.135568
1869326,0.97,-1.57035,-0.5229,0.00044659,-2.09641,-0.00119002,1.57076,0.78518,-1.57079,-0.523447,1.40235e-06,-2.09421,-7.8708e-07,1.57081,0.785397,-0.00076601,0.00806819,0.000745929,0.00687451,3.70993e-05,0.000535159,-0.000459181,6.22957e-07,0.02625,-2.99677e-06,0.0305936,1.02233e-06,0.00159826,6.31496e-07,-0.529774,-8.87607,-1.09155,21.9635,1.6501,1.84866,0.143015,-0.559272,-0.925411,-0.575197,2.97802,0.933572,0.101839,0.135665
1869327,0.97,-1.57035,-0.522891,0.000443452,-2.09639,-0.00119195,1.57076,0.785178,-1.57079,-0.523417,1.39896e-06,-2.09418,-7.85935e-07,1.57081,0.785397,-0.000510673,0.00877985,-0.00070914,0.0084482,-0.000619527,0.000698833,-0.00125556,7.03945e-07,0.03,-3.38637e-06,0.0345709,1.14454e-06,0.00178931,7.06982e-07,-0.529774,-8.69754,-1.03998,21.9635,1.6675,1.84225,0.16865,-0.558295,-0.928544,-0.573712,2.98019,0.933563,0.101877,0.135729
1869328,0.97,-1.57035,-0.522882,0.000443152,-2.09639,-0.00119195,1.57076,0.785178,-1.57079,-0.523383,1.39519e-06,-2.09414,-7.84668e-07,1.57081,0.785397,0.000309165,0.00770142,8.40522e-05,0.00547543,-0.000413018,-0.000167662,-0.000837038,7.84934e-07,0.03375,-3.77598e-06,0.0385483,1.26674e-06,0.00198036,7.82468e-07,-0.557545,-8.44363,-1.06378,22.1381,1.6675,1.86148,0.16865,-0.557278,-0.93314,-0.572251,2.987,0.933641,0.10249,0.135794
1869329,0.97,-1.57035,-0.522865,0.000442496,-2.09637,-0.00119256,1.57076,0.785174,-1.57079,-0.523346,1.39102e-06,-2.0941,-7.83279e-07,1.57081,0.785397,-0.000443504,0.00968133,5.60348e-05,0.0101164,-0.000478796,-0.000561507,-0.000795384,8.65922e-07,0.0375,-4.16558e-06,0.0425257,1.38895e-06,0.00217141,8.57954e-07,-0.529774,-8.16592,-1.06378,22.1619,1.67299,1.87521,0.175059,-0.556564,-0.936203,-0.571273,2.99686,0.933772,0.103527,0.135904
1869330,0.97,-1.57035,-0.522841,0.000444226,-2.09635,-0.00119511,1.57075,0.785172,-1.57079,-0.523304,1.38646e-06,-2.09405,-7.81768e-07,1.57081,0.785397,0.000910757,0.0150404,0.00068697,0.0135686,-0.00116691,-0.0012796,-0.000767615,9.46911e-07,0.04125,-4.55518e-06,0.0465031,1.51115e-06,0.00236246,9.3344e-07,-0.581349,-7.91599,-1.09155,22.1897,1.69588,1.90084,0.181467,-0.556512,-0.938533,-0.571306,3.00814,0.933899,0.104714,0.136097
1869331,0.97,-1.57034,-0.522812,0.000444153,-2.09632,-0.00119633,1.57075,0.785175,-1.57079,-0.523259,1.38152e-06,-2.094,-7.80135e-07,1.57082,0.785397,0.00116398,0.0192318,0.00045798,0.0195491,-0.00118484,-0.00153202,0.000437692,1.0279e-06,0.045,-4.94478e-06,0.0504804,1.63335e-06,0.00255351,1.00893e-06,-0.605152,-7.66208,-1.09155,22.2135,1.70687,1.92007,0.155832,-0.557466,-0.944172,-0.572713,3.02011,0.933978,0.105813,0.136402
1869332,0.97,-1.57035,-0.522775,0.000445799,-2.09629,-0.00119633,1.57075,0.785175,-1.57079,-0.523211,1.37619e-06,-2.09395,-7.78379e-07,1.57082,0.785397,0.000219177,0.0230322,0.000862132,0.0245273,-0.000789893,-0.00218329,0.000291795,1.10889e-06,0.04875,-5.33438e-06,0.0544578,1.75556e-06,0.00274456,1.08441e-06,-0.581349,-7.43594,-1.11535,22.2135,1.70687,1.95211,0.155832,-0.559169,-0.954223,-0.575055,3.03159,0.93401,0.106639,0.13682
1869333,0.97,-1.57035,-0.522729,0.000442171,-2.09625,-0.00119511,1.57075,0.785174,-1.57079,-0.523158,1.37046e-06,-2.09389,-7.76502e-07,1.57082,0.785397,0.000146118,0.0275682,-0.000631671,0.0279325,-0.000119694,-0.00167425,-4.2829e-05,1.18988e-06,0.0525,-5.72398e-06,0.0584352,1.87776e-06,0.00293561,1.1599e-06,-0.581349,-7.28122,-1.06378,22.2135,1.69588,1.95852,0.162241,-0.560465,-0.967966,-0.576687,3.04188,0.934064,0.107159,0.137314
1869334,0.97,-1.57034,-0.522679,0.000443658,-2.09622,-0.0011945,1.57075,0.785172,-1.57079,-0.523102,1.36435e-06,-2.09383,-7.74502e-07,1.57083,0.785397,0.000654224,0.0352861,0.000785312,0.0331746,0.000123654,-0.00157691,-0.00169007,1.27087e-06,0.05625,-6.11358e-06,0.0624126,1.99997e-06,0.00312665,1.23538e-06,-0.605152,-7.18204,-1.11535,22.2373,1.69039,1.97134,0.207102,-0.560913,-0.988265,-0.576928,3.05276,0.934209,0.10757,0.137859
1869335,0.97,-1.57034,-0.522637,0.000443407,-2.09618,-0.00119317,1.57075,0.785175,-1.57079,-0.52304,1.35772e-06,-2.09376,-7.72355e-07,1.57083,0.785397,0.000436149,0.0371347,-0.00318247,0.0338159,0.000523246,-0.000803433,-0.000651992,1.37778e-06,0.0615113,-6.62791e-06,0.0676632,2.14624e-06,0.00335532,1.32573e-06,-0.605152,-6.92813,-1.09155,22.388,1.67848,1.96493,0.194285,-0.560218,-1.01763,-0.575191,3.06634,0.934498,0.108121,0.138462
1869336,0.97,-1.57034,-0.522595,0.00044388,-2.09614,-0.0011945,1.57075,0.785173,-1.57079,-0.522973,1.35058e-06,-2.09369,-7.70063e-07,1.57083,0.785397,0.000290766,0.0390434,-0.00238408,0.0375943,-9.1979e-05,-0.000290402,-0.00114674,1.4847e-06,0.0667727,-7.14223e-06,0.0729139,2.29251e-06,0.00358399,1.41608e-06,-0.605152,-6.702,-1.09155,22.4118,1.69039,1.95852,0.213511,-0.557317,-1.05147,-0.569788,3.08231,0.934973,0.108913,0.139141
1869337,0.97,-1.57034,-0.522551,0.000445526,-2.0961,-0.00119378,1.57074,0.785171,-1.57079,-0.522901,1.34292e-06,-2.09361,-7.67624e-07,1.57084,0.785397,0.000193844,0.040266,-0.000579784,0.0393885,0.00017604,-0.00161186,-0.000289774,1.59161e-06,0.072034,-7.65656e-06,0.0781646,2.43877e-06,0.00381266,1.50643e-06,-0.605152,-6.44809,-1.14312,22.4872,1.68398,1.99697,0.200693,-0.553137,-1.08176,-0.562295,3.09855,0.935549,0.109873,0.13992
1869338,0.96,-1.57034,-0.522505,0.000444869,-2.09605,-0.00119572,1.57074,0.785171,-1.57079,-0.522824,1.33475e-06,-2.09352,-7.65039e-07,1.57084,0.785397,0.000778843,0.0407198,-0.000534141,0.0438004,-0.0005269,-0.00225694,4.4176e-05,1.69853e-06,0.0772953,-8.17089e-06,0.0834153,2.58504e-06,0.00404133,1.59679e-06,-0.632923,-6.17038,-1.14312,22.5626,1.70137,2.02902,0.194285,-0.549888,-1.10177,-0.55626,3.11287,0.936069,0.110879,0.140819
1869339,0.96,-1.57034,-0.52245,0.00044632,-2.09599,-0.00119633,1.57074,0.785165,-1.57079,-0.522742,1.32606e-06,-2.09344,-7.62308e-07,1.57084,0.785397,0.000519229,0.0480279,9.00039e-05,0.0504462,-0.000554717,-0.00272201,-0.00190333,1.80545e-06,0.0825566,-8.68521e-06,0.0886659,2.73131e-06,0.00427,1.68714e-06,-0.632923,-5.91647,-1.16693,22.511,1.70687,2.06198,0.24647,-0.548291,-1.10984,-0.552791,3.12394,0.936461,0.111805,0.141831
1869340,0.96,-1.57034,-0.522389,0.000449866,-2.09592,-0.00120084,1.57073,0.785171,-1.57079,-0.522654,1.31687e-06,-2.09334,-7.5943e-07,1.57085,0.785397,0.00210939,0.0515899,0.00118339,0.0524267,-0.000810621,-0.00299898,0.000663894,1.91236e-06,0.087818,-9.19954e-06,0.0939166,2.87758e-06,0.00449867,1.77749e-06,-0.708302,-5.58719,-1.2185,22.5626,1.71877,2.09402,0.194285,-0.548751,-1.11155,-0.552418,3.13343,0.93673,0.112737,0.142965
1869341,0.96,-1.57034,-0.522315,0.000447893,-2.09585,-0.00119871,1.57073,0.785163,-1.57079,-0.522561,1.30715e-06,-2.09324,-7.56406e-07,1.57085,0.785397,0.00140626,0.0569905,7.70382e-05,0.0595891,-0.000540414,-0.00247217,-0.00220226,2.01928e-06,0.0930793,-9.71386e-06,0.0991673,3.02385e-06,0.00472734,1.86784e-06,-0.708302,-5.36105,-1.19073,22.511,1.71877,2.10684,0.265696,-0.551325,-1.11144,-0.555104,3.14333,0.936926,0.113855,0.144234
1869342,0.96,-1.57034,-0.522234,0.000449834,-2.09578,-0.001198,1.57073,0.785163,-1.57079,-0.522462,1.29692e-06,-2.09314,-7.53236e-07,1.57086,0.785397,0.00149432,0.0626708,0.000654265,0.0640622,-0.000360276,-0.00212143,-0.00146817,2.12619e-06,0.0983406,-1.02282e-05,0.104418,3.17012e-06,0.00495601,1.95819e-06,-0.732105,-5.2103,-1.2185,22.4872,1.71877,2.11965,0.265696,-0.554886,-1.11082,-0.559092,3.15366,0.93712,0.11517,0.145634
1869343,0.96,-1.57033,-0.522152,0.000446212,-2.0957,-0.00120025,1.57073,0.785165,-1.57079,-0.522359,1.28618e-06,-2.09303,-7.4992e-07,1.57086,0.785397,0.00155302,0.0654717,-0.00080528,0.0681472,-2.82507e-06,-0.000701164,-0.000266706,2.23311e-06,0.103602,-1.07425e-05,0.109669,3.31639e-06,0.00518468,2.04854e-06,-0.755909,-5.00797,-1.16693,22.4356,1.71236,2.10043,0.24647,-0.558373,-1.10988,-0.562741,3.16435,0.937377,0.116693,0.147183
1869344,0.96,-1.57034,-0.522062,0.000447881,-2.09562,-0.00119804,1.57073,0.785165,-1.57079,-0.52225,1.27492e-06,-2.09291,-7.46457e-07,1.57087,0.785397,0.000478538,0.0719363,-6.31405e-06,0.0718456,-1.88338e-06,-0.000466655,-0.000177804,2.34002e-06,0.108863,-1.12568e-05,0.114919,3.46266e-06,0.00541335,2.13889e-06,-0.732105,-4.85721,-1.19073,22.4872,1.71236,2.10043,0.24647,-0.561113,-1.10826,-0.565016,3.17591,0.937749,0.118515,0.148899
1869345,0.96,-1.57034,-0.521968,0.0004515,-2.09553,-0.00119989,1.57073,0.785164,-1.57079,-0.522135,1.26306e-06,-2.09279,-7.42837e-07,1.57088,0.785397,0.000319025,0.0759206,0.00118251,0.0754695,0.000202195,-0.000547872,-0.00849931,2.4657e-06,0.115182,-1.18614e-05,0.121091,3.62059e-06,0.00566025,2.23644e-06,-0.732105,-4.67868,-1.24231,22.511,1.70687,2.10684,0.219919,-0.563285,-1.10744,-0.566331,3.18963,0.93826,0.120757,0.150773
1869346,0.96,-1.57034,-0.521879,0.0004515,-2.09543,-0.00119629,1.57073,0.785161,-1.57079,-0.522013,1.2506e-06,-2.09266,-7.39058e-07,1.57088,0.785397,0.000212683,0.0809982,0.000773563,0.0811961,0.000541698,-0.000364805,-0.00719253,2.59138e-06,0.121501,-1.2466e-05,0.127263,3.77852e-06,0.00590716,2.334e-06,-0.732105,-4.45255,-1.24231,22.5348,1.69588,2.10684,0.240061,-0.565601,-1.10723,-0.56787,3.20556,0.938868,0.123406,0.152771
1869347,0.96,-1.57034,-0.521784,0.0004515,-2.09534,-0.00119357,1.57073,0.78516,-1.57079,-0.521885,1.23753e-06,-2.09253,-7.35122e-07,1.57089,0.785397,0.000141789,0.0860375,0.000504625,0.0877391,0.00100539,-0.000954948,-0.00680443,2.71705e-06,0.127819,-1.30705e-05,0.133435,3.93645e-06,0.00615406,2.43155e-06,-0.732105,-4.27402,-1.24231,22.6102,1.67848,2.12606,0.278513,-0.567921,-1.10535,-0.569382,3.22183,0.939504,0.12624,0.154839
1869348,0.96,-1.57033,-0.521683,0.000455119,-2.09522,-0.00119585,1.57073,0.785163,-1.57079,-0.521751,1.22385e-06,-2.09239,-7.31027e-07,1.57089,0.785397,0.00241458,0.0889544,0.00153453,0.0968698,-0.000177449,-0.000873742,-0.00426316,2.84273e-06,0.134138,-1.36751e-05,0.139607,4.09438e-06,0.00640096,2.5291e-06,-0.831288,-4.07169,-1.29388,22.4872,1.70137,2.13247,0.259287,-0.570703,-1.09745,-0.571379,3.23499,0.940022,0.128879,0.156955
1869349,0.96,-1.57032,-0.521573,0.00045679,-2.09511,-0.00119576,1.57072,0.785153,-1.57079,-0.521611,1.20957e-06,-2.09225,-7.26775e-07,1.5709,0.785397,0.00281614,0.0963034,0.0015736,0.101523,-0.0001183,-0.00200646,-0.0055449,2.9684e-06,0.140456,-1.42797e-05,0.145779,4.25231e-06,0.00664786,2.62666e-06,-0.882862,-3.94473,-1.31769,22.4634,1.70137,2.17092,0.323374,-0.575325,-1.08087,-0.575674,3.24297,0.940279,0.131097,0.159139
1869350,0.96,-1.57032,-0.521458,0.000455119,-2.09498,-0.00119695,1.57072,0.785155,-1.57079,-0.521464,1.19469e-06,-2.09209,-7.22365e-07,1.57091,0.785397,0.00252704,0.103094,0.000487577,0.109297,-0.000485767,-0.00204958,-0.00299407,3.09408e-06,0.146775,-1.48843e-05,0.151951,4.41024e-06,0.00689476,2.72421e-06,-0.910633,-3.7424,-1.29388,22.388,1.71236,2.19015,0.297739,-0.581495,-1.06024,-0.581704,3.24798,0.940334,0.133085,0.161427
1869351,0.96,-1.57032,-0.521331,0.000460409,-2.09486,-0.00119765,1.57072,0.785158,-1.57079,-0.521311,1.1792e-06,-2.09194,-7.17797e-07,1.57091,0.785397,0.00224151,0.111852,0.00208478,0.114685,-0.000561204,-0.00160364,-0.000994431,3.21975e-06,0.153094,-1.54888e-05,0.158123,4.56817e-06,0.00714166,2.82177e-06,-0.934437,-3.56784,-1.36926,22.3365,1.71877,2.19656,0.265696,-0.58809,-1.04233,-0.58785,3.2532,0.940322,0.135123,0.163858
1869352,0.96,-1.57032,-0.521201,0.00045679,-2.09472,-0.00119826,1.57072,0.785159,-1.57079,-0.521152,1.1631e-06,-2.09177,-7.1307e-07,1.57092,0.785397,0.00205115,0.115271,0.000180798,0.124719,-0.000577586,-0.000594296,-0.00032712,3.34543e-06,0.159412,-1.60934e-05,0.164295,4.7261e-06,0.00738856,2.91932e-06,-0.958241,-3.38931,-1.31769,22.2889,1.72426,2.18374,0.252878,-0.594588,-1.02785,-0.593403,3.25852,0.940296,0.137212,0.166427
1869353,0.96,-1.57032,-0.521054,0.000460869,-2.09458,-0.00120207,1.57072,0.785158,-1.57079,-0.520986,1.14641e-06,-2.0916,-7.08186e-07,1.57093,0.785397,0.000810621,0.124844,0.000768174,0.130562,-0.000588508,0.000315939,-0.000559602,3.4711e-06,0.165731,-1.6698e-05,0.170467,4.88403e-06,0.00763546,3.01687e-06,-0.934437,-3.38931,-1.34546,22.2889,1.72975,2.16452,0.259287,-0.600057,-1.01388,-0.597008,3.26198,0.940298,0.139185,0.169065
1869354,0.96,-1.57032,-0.520914,0.0004575,-2.09443,-0.00119871,1.57072,0.785161,-1.57079,-0.520814,1.1291e-06,-2.09142,-7.03144e-07,1.57094,0.785397,-1.63977e-05,0.132692,-0.000138978,0.139478,1.45623e-05,0.00021067,0.000260886,3.59678e-06,0.17205,-1.73025e-05,0.176639,5.04196e-06,0.00788236,3.11443e-06,-0.910633,-3.18698,-1.31769,22.2135,1.71877,2.16452,0.240061,-0.603674,-1.00274,-0.597564,3.26449,0.940409,0.141085,0.171709
1869355,0.96,-1.57032,-0.520763,0.000457486,-2.09427,-0.00119668,1.57072,0.785153,-1.57079,-0.520635,1.11113e-06,-2.09124,-6.9794e-07,1.57095,0.785397,-1.09318e-05,0.13456,-0.000650573,0.147038,0.000450518,0.00014048,-0.00225826,3.73548e-06,0.179053,-1.79698e-05,0.18345,5.20399e-06,0.00813567,3.21451e-06,-0.910633,-3.03622,-1.29388,22.1381,1.70687,2.16452,0.304148,-0.605245,-0.992733,-0.594849,3.26538,0.940637,0.142848,0.174308
1869356,0.96,-1.57031,-0.520605,0.000458039,-2.0941,-0.00119522,1.57072,0.785155,-1.57079,-0.520449,1.0925e-06,-2.09105,-6.92574e-07,1.57095,0.785397,0.00110634,0.13904,-0.000434548,0.149367,0.000707246,9.36782e-05,-0.00107473,3.87418e-06,0.186056,-1.8637e-05,0.190262,5.36602e-06,0.00838899,3.3146e-06,-0.958241,-2.88547,-1.29388,22.0627,1.69588,2.16452,0.291331,-0.605597,-0.97585,-0.590004,3.26241,0.940908,0.144391,0.176844
1869357,0.96,-1.57032,-0.520447,0.000461382,-2.09393,-0.00119382,1.57072,0.785149,-1.57079,-0.520256,1.07319e-06,-2.09085,-6.87046e-07,1.57096,0.785397,0.000737557,0.144315,0.00147292,0.156442,0.000912307,-0.000174888,-0.00268223,4.01289e-06,0.193059,-1.93042e-05,0.197074,5.52805e-06,0.0086423,3.41469e-06,-0.958241,-2.68314,-1.36926,22.0389,1.68398,2.17092,0.343516,-0.606634,-0.950196,-0.585843,3.2569,0.941154,0.145942,0.179359
1869358,0.96,-1.57032,-0.520279,0.000464534,-2.09375,-0.00119638,1.57072,0.785154,-1.57079,-0.520056,1.05322e-06,-2.09065,-6.81356e-07,1.57097,0.785397,-6.5107e-05,0.15243,0.00153829,0.16462,0.000811655,-0.000828655,-0.000117447,4.15159e-06,0.200063,-1.99715e-05,0.203886,5.69009e-06,0.00889561,3.51478e-06,-0.934437,-2.53238,-1.39306,22.0151,1.67848,2.19015,0.297739,-0.609432,-0.918711,-0.58416,3.25019,0.941311,0.147586,0.181919
1869359,0.96,-1.57031,-0.520105,0.000466977,-2.09357,-0.00119424,1.57072,0.785154,-1.57079,-0.519848,1.03258e-06,-2.09044,-6.75504e-07,1.57098,0.785397,0.000513407,0.15828,0.00167479,0.172771,0.000541103,-0.00150186,-9.68371e-05,4.29029e-06,0.207066,-2.06387e-05,0.210697,5.85212e-06,0.00914893,3.61486e-06,-0.958241,-2.35385,-1.42083,21.9159,1.67848,2.21578,0.297739,-0.613653,-0.884173,-0.584608,3.24212,0.941337,0.14922,0.184566
1869360,0.96,-1.57031,-0.519923,0.000467142,-2.09337,-0.00119546,1.57072,0.785158,-1.57079,-0.519634,1.01128e-06,-2.09022,-6.6949e-07,1.57099,0.785397,0.00210551,0.166955,0.00111626,0.177674,-0.000283524,-0.00100123,0.00110833,4.42899e-06,0.214069,-2.1306e-05,0.217509,6.01415e-06,0.00940224,3.71495e-06,-1.03362,-2.2269,-1.42083,21.8644,1.69588,2.21578,0.265696,-0.619076,-0.849648,-0.586742,3.23372,0.94123,0.150913,0.187299
1869361,0.96,-1.57031,-0.519736,0.000468867,-2.09317,-0.00119777,1.57072,0.785152,-1.57079,-0.519413,9.89304e-07,-2.09,-6.63314e-07,1.571,0.785397,0.000846861,0.171703,0.00130079,0.18256,-0.00103673,-0.000667483,-0.000220976,4.5677e-06,0.221072,-2.19732e-05,0.224321,6.17618e-06,0.00965555,3.81504e-06,-1.00982,-2.05234,-1.44464,21.8882,1.71877,2.21578,0.291331,-0.625499,-0.818264,-0.590149,3.22744,0.941062,0.152929,0.190076
1869362,0.96,-1.57031,-0.519539,0.000469345,-2.09296,-0.00120211,1.57072,0.785152,-1.57079,-0.519185,9.66663e-07,-2.08977,-6.56976e-07,1.57101,0.785397,0.00373879,0.181993,0.000310233,0.190352,-0.00109805,2.97337e-05,0.00031958,4.7064e-06,0.228076,-2.26404e-05,0.231133,6.33821e-06,0.00990886,3.91513e-06,-1.00982,-2.00076,-1.42083,21.8882,1.72975,2.20297,0.278513,-0.632559,-0.791794,-0.594207,3.22462,0.940921,0.155411,0.192852
1869363,0.96,-1.57031,-0.51933,0.000465982,-2.09275,-0.00120436,1.57072,0.785148,-1.57079,-0.51895,9.43356e-07,-2.08953,-6.50475e-07,1.57102,0.785397,0.00155062,0.189371,-0.000442903,0.198161,-0.00113894,-0.000454892,-0.000979607,4.8451e-06,0.235079,-2.33077e-05,0.237944,6.50025e-06,0.0101622,4.01521e-06,-0.958241,-1.94919,-1.39306,21.9397,1.74074,2.21578,0.310557,-0.639702,-0.772021,-0.597966,3.22521,0.940868,0.158279,0.195597
1869364,0.96,-1.57031,-0.519118,0.000465511,-2.09251,-0.00120349,1.57073,0.785151,-1.57079,-0.518708,9.19381e-07,-2.08928,-6.43813e-07,1.57103,0.785397,0.00123213,0.200027,-0.000295352,0.208701,-0.00035239,0.00112089,0.000291965,4.98381e-06,0.242082,-2.39749e-05,0.244756,6.66228e-06,0.0104155,4.1153e-06,-0.958241,-1.85001,-1.39306,21.789,1.72975,2.17733,0.284922,-0.64566,-0.759776,-0.599792,3.22802,0.940963,0.161308,0.1983
1869365,0.96,-1.57031,-0.518899,0.000468973,-2.09229,-0.00120239,1.57073,0.785147,-1.57079,-0.518459,8.94698e-07,-2.08903,-6.36989e-07,1.57104,0.785397,-0.000143411,0.208576,0.00100946,0.215092,0.000171975,0.00573093,-0.00123281,5.13095e-06,0.24946,-2.46828e-05,0.251983,6.8238e-06,0.010668,4.21508e-06,-0.910633,-1.77066,-1.44464,21.8405,1.71877,2.17733,0.323374,-0.650109,-0.755458,-0.599661,3.23206,0.941218,0.164266,0.200965
1869366,0.96,-1.57031,-0.518674,0.000468921,-2.09204,-0.00119988,1.57073,0.785144,-1.57079,-0.518202,8.69307e-07,-2.08877,-6.30004e-07,1.57105,0.785397,0.00112961,0.214249,0.000672928,0.221579,0.00096236,0.00376121,-0.00157033,5.2781e-06,0.256838,-2.53907e-05,0.259209,6.98533e-06,0.0109205,4.31485e-06,-0.958241,-1.69528,-1.44464,21.789,1.69588,2.19015,0.343516,-0.653967,-0.757397,-0.599168,3.23716,0.941596,0.167099,0.203606
1869367,0.96,-1.57031,-0.518439,0.000468903,-2.09179,-0.00119476,1.57073,0.785152,-1.57079,-0.517938,8.43209e-07,-2.08851,-6.22857e-07,1.57106,0.785397,0.000279956,0.221579,0.000448583,0.230736,0.00128583,0.00186952,0.00135875,5.42525e-06,0.264216,-2.60985e-05,0.266436,7.14686e-06,0.0111731,4.41462e-06,-0.934437,-1.72305,-1.44464,21.7176,1.67848,2.21578,0.278513,-0.657715,-0.760029,-0.599006,3.24187,0.942014,0.169799,0.206253
1869368,0.96,-1.57031,-0.518195,0.000470846,-2.09154,-0.00119248,1.57073,0.785152,-1.57079,-0.517666,8.16402e-07,-2.08823,-6.15549e-07,1.57107,0.785397,0.00145583,0.228621,0.000948643,0.235091,0.00126412,-0.000215466,0.000904443,5.5724e-06,0.271594,-2.68064e-05,0.273662,7.30838e-06,0.0114256,4.5144e-06,-0.986012,-1.69528,-1.47241,21.7414,1.6675,2.26156,0.278513,-0.661516,-0.760211,-0.599332,3.24548,0.942389,0.172439,0.208923
1869369,0.96,-1.57031,-0.517945,0.000470844,-2.09127,-0.00119396,1.57073,0.785155,-1.57079,-0.517387,7.88888e-07,-2.08795,-6.08079e-07,1.57109,0.785397,0.00101763,0.234378,0.000632409,0.245035,0.000232397,-0.000680513,0.00178871,5.71955e-06,0.278972,-2.75142e-05,0.280889,7.46991e-06,0.0116781,4.61417e-06,-0.986012,-1.69528,-1.47241,21.7652,1.68398,2.28079,0.24647,-0.665733,-0.756622,-0.600618,3.24795,0.942656,0.175137,0.211577
1869370,0.96,-1.57031,-0.517691,0.000471025,-2.091,-0.00119639,1.57073,0.785154,-1.57079,-0.517101,7.60666e-07,-2.08766,-6.00447e-07,1.5711,0.785397,0.000713732,0.241526,-0.000228023,0.253528,-0.000692779,-0.000796988,0.000954333,5.86669e-06,0.28635,-2.82221e-05,0.288115,7.63143e-06,0.0119306,4.71395e-06,-0.986012,-1.67148,-1.44464,21.7414,1.70687,2.2936,0.252878,-0.669886,-0.746063,-0.602094,3.24711,0.942773,0.177758,0.214143
1869371,0.96,-1.57031,-0.517422,0.000475354,-2.09072,-0.00119513,1.57073,0.785149,-1.57079,-0.516807,7.31736e-07,-2.08737,-5.92654e-07,1.57111,0.785397,-0.000147311,0.249632,0.0010544,0.257524,-5.49516e-05,-0.000195412,-0.00102588,6.01384e-06,0.293728,-2.893e-05,0.295341,7.79296e-06,0.0121831,4.81372e-06,-0.958241,-1.67148,-1.49621,21.789,1.69588,2.2872,0.297739,-0.673357,-0.729654,-0.602891,3.24332,0.942795,0.180356,0.21656
1869372,0.96,-1.57031,-0.517142,0.000473921,-2.09044,-0.00120146,1.57074,0.785149,-1.57079,-0.516506,7.02098e-07,-2.08707,-5.847e-07,1.57112,0.785397,-0.000635158,0.26288,0.000146113,0.269666,-0.0010878,0.000655718,-0.000921718,6.16099e-06,0.301106,-2.96378e-05,0.302568,7.95449e-06,0.0124357,4.9135e-06,-0.934437,-1.74686,-1.47241,21.8167,1.72426,2.26797,0.304148,-0.676098,-0.715495,-0.603054,3.24042,0.942828,0.183219,0.218824
1869373,0.96,-1.57031,-0.516854,0.000474,-2.09014,-0.00120252,1.57074,0.78514,-1.57079,-0.516197,6.71752e-07,-2.08676,-5.76584e-07,1.57114,0.785397,-0.000408543,0.269142,9.74023e-05,0.279044,-0.000725197,0.000729941,-0.00231023,6.30814e-06,0.308484,-3.03457e-05,0.309794,8.11601e-06,0.0126882,5.01327e-06,-0.934437,-1.87381,-1.47241,21.7652,1.72426,2.26156,0.349924,-0.677881,-0.70821,-0.602211,3.23887,0.942902,0.186227,0.220981
1869374,0.97,-1.57031,-0.51655,0.000472077,-2.08984,-0.00120227,1.57075,0.785142,-1.57079,-0.515881,6.40699e-07,-2.08644,-5.68306e-07,1.57115,0.785397,-0.000818002,0.280881,-0.000584684,0.287655,-0.000280014,0.00174891,-0.00530153,6.45529e-06,0.315862,-3.10536e-05,0.317021,8.27754e-06,0.0129407,5.11305e-06,-0.910633,-2.05234,-1.44464,21.7652,1.71877,2.2286,0.323374,-0.678611,-0.706841,-0.60011,3.23713,0.943012,0.189145,0.223099
1869375,0.97,-1.57031,-0.516254,0.000475705,-2.08953,-0.00120238,1.57075,0.785146,-1.57079,-0.515558,6.08914e-07,-2.08611,-5.59871e-07,1.57116,0.785397,-0.000536956,0.286143,0.000816633,0.293057,-0.000186676,0.000688496,-0.00369255,6.60722e-06,0.323352,-3.17844e-05,0.324482,8.43575e-06,0.0131881,5.21078e-06,-0.910633,-2.07614,-1.49621,21.8167,1.71877,2.24234,0.316965,-0.678827,-0.711172,-0.597555,3.2361,0.943182,0.192051,0.225251
1869376,0.97,-1.57031,-0.51595,0.000475708,-2.08921,-0.00120049,1.57076,0.78515,-1.57079,-0.515227,5.76399e-07,-2.08578,-5.51277e-07,1.57117,0.785397,0.000761938,0.288523,0.000544419,0.300406,0.000519809,0.00460758,-0.000622141,6.75915e-06,0.330842,-3.25153e-05,0.331944,8.59396e-06,0.0134354,5.30851e-06,-0.958241,-2.05234,-1.49621,21.7176,1.70137,2.26156,0.259287,-0.679834,-0.714657,-0.596477,3.23456,0.943353,0.194904,0.227455
1869377,0.97,-1.57031,-0.515625,0.000475709,-2.08888,-0.00119537,1.57076,0.78515,-1.57079,-0.514889,5.43153e-07,-2.08544,-5.42525e-07,1.57119,0.785397,-0.000600952,0.295087,0.000362944,0.30902,0.000990799,0.00349237,-0.000399903,6.91108e-06,0.338332,-3.32462e-05,0.339405,8.75218e-06,0.0136827,5.40623e-06,-0.910633,-2.07614,-1.49621,21.6422,1.68398,2.26156,0.252878,-0.682033,-0.707054,-0.59743,3.22852,0.943434,0.197413,0.229659
1869378,0.97,-1.57031,-0.515302,0.000475709,-2.08855,-0.00119503,1.57077,0.785145,-1.57079,-0.514543,5.09176e-07,-2.0851,-5.33614e-07,1.5712,0.785397,-0.0003971,0.305442,0.000241961,0.31644,0.000423174,0.00240637,-0.00185763,7.06301e-06,0.345822,-3.39771e-05,0.346866,8.91039e-06,0.0139301,5.50396e-06,-0.910633,-2.05234,-1.49621,21.6422,1.69039,2.26797,0.291331,-0.68447,-0.689651,-0.599059,3.21812,0.943435,0.199598,0.231781
1869379,0.97,-1.57031,-0.514968,0.00047209,-2.08822,-0.00119528,1.57077,0.785146,-1.57079,-0.51419,4.74468e-07,-2.08474,-5.24546e-07,1.57122,0.785397,0.00029473,0.312919,-0.00104512,0.320962,7.86655e-05,0.00620917,-0.00207566,7.21494e-06,0.353312,-3.47079e-05,0.354328,9.0686e-06,0.0141774,5.60169e-06,-0.934437,-2.05234,-1.44464,21.666,1.69588,2.28079,0.310557,-0.686467,-0.67193,-0.600314,3.20792,0.943446,0.201839,0.233781
1869380,0.97,-1.57031,-0.514624,0.00047617,-2.08788,-0.00119639,1.57078,0.785145,-1.57079,-0.513829,4.39029e-07,-2.08438,-5.15319e-07,1.57123,0.785397,0.000198475,0.319257,-4.71332e-05,0.327271,-0.000354457,0.00898006,-0.00124028,7.36687e-06,0.360802,-3.54388e-05,0.361789,9.22682e-06,0.0144248,5.69942e-06,-0.934437,-2.17532,-1.47241,21.7414,1.70687,2.2936,0.304148,-0.688094,-0.658265,-0.601166,3.20081,0.943525,0.204373,0.235679
1869381,0.97,-1.57031,-0.514272,0.00047688,-2.08752,-0.00119696,1.57078,0.785144,-1.57079,-0.513461,4.02859e-07,-2.08401,-5.05934e-07,1.57125,0.785397,-0.000423004,0.329044,-3.14227e-05,0.333306,-0.000439755,0.0112692,-0.000897254,7.5188e-06,0.368292,-3.61697e-05,0.36925,9.38503e-06,0.0146721,5.79715e-06,-0.910633,-2.25467,-1.47241,21.7652,1.71236,2.30001,0.304148,-0.689752,-0.64933,-0.602253,3.19746,0.943684,0.207246,0.237518
1869382,0.97,-1.57031,-0.513903,0.000477116,-2.08717,-0.00120207,1.57079,0.785145,-1.57079,-0.513085,3.65959e-07,-2.08363,-4.9639e-07,1.57126,0.785397,0.000275928,0.340133,-2.0949e-05,0.336672,-0.00093743,0.00971315,-0.000413611,7.67073e-06,0.375782,-3.69005e-05,0.376712,9.54324e-06,0.0149195,5.89488e-06,-0.934437,-2.35385,-1.47241,21.8405,1.72975,2.26797,0.297739,-0.691581,-0.651233,-0.603838,3.20106,0.943987,0.210742,0.239333
1869383,0.97,-1.57031,-0.513536,0.000477195,-2.0868,-0.00120374,1.57079,0.78515,-1.57079,-0.512702,3.28328e-07,-2.08325,-4.86689e-07,1.57128,0.785397,0.000184791,0.347704,-1.39663e-05,0.342611,-0.000828404,0.0127583,0.00134617,7.82266e-06,0.383272,-3.76314e-05,0.384173,9.70145e-06,0.0151668,5.9926e-06,-0.934437,-2.42923,-1.47241,21.9159,1.73525,2.24874,0.252878,-0.693649,-0.669678,-0.605944,3.21489,0.944507,0.215171,0.241144
1869384,0.97,-1.57031,-0.513152,0.000473142,-2.08644,-0.00120349,1.5708,0.785149,-1.57079,-0.512311,2.89965e-07,-2.08286,-4.76829e-07,1.57129,0.785397,-0.000432989,0.354723,-0.000658925,0.349609,-0.000348819,0.00947651,0.000630388,7.97459e-06,0.390762,-3.83623e-05,0.391634,9.85967e-06,0.0154141,6.09033e-06,-0.910633,-2.60776,-1.44464,22.0905,1.72975,2.24874,0.259287,-0.69566,-0.700833,-0.60809,3.23691,0.945236,0.22034,0.242921
1869385,0.97,-1.57031,-0.512769,0.000474571,-2.08606,-0.00120299,1.5708,0.785153,-1.57079,-0.511913,2.50863e-07,-2.08246,-4.66816e-07,1.57131,0.785397,0.000268624,0.362662,-0.000439284,0.357484,-2.90954e-05,0.00633384,0.00161869,8.12837e-06,0.398252,-3.91021e-05,0.399187,1.00129e-05,0.0156536,6.18496e-06,-0.934437,-2.73471,-1.44464,22.2135,1.72426,2.26797,0.226328,-0.697236,-0.737366,-0.609677,3.2628,0.946104,0.225863,0.244606
1869386,0.97,-1.57031,-0.51237,0.000471247,-2.08567,-0.00120045,1.5708,0.785149,-1.57079,-0.511507,2.11021e-07,-2.08205,-4.5665e-07,1.57132,0.785397,0.000179437,0.374559,-0.000849668,0.367583,-0.000222847,0.00358195,-0.000158285,8.28216e-06,0.405742,-3.98419e-05,0.406739,1.0166e-05,0.0158931,6.27958e-06,-0.934437,-2.8577,-1.42083,22.2889,1.72975,2.30001,0.259287,-0.698584,-0.777487,-0.610883,3.29031,0.947023,0.231482,0.24615
1869387,0.97,-1.57032,-0.511961,0.000474496,-2.08528,-0.00119879,1.5708,0.785147,-1.57079,-0.511094,1.7044e-07,-2.08164,-4.46331e-07,1.57134,0.785397,-0.00108654,0.382425,-9.63338e-06,0.369535,5.48856e-05,0.000898734,-0.00083013,8.43594e-06,0.413232,-4.05816e-05,0.414291,1.03192e-05,0.0161326,6.37421e-06,-0.882862,-2.93704,-1.44464,22.4634,1.72426,2.35128,0.278513,-0.699712,-0.824662,-0.611747,3.32077,0.947996,0.237266,0.247531
1869388,0.97,-1.57031,-0.511561,0.000473352,-2.08488,-0.0011997,1.5708,0.785145,-1.57079,-0.510673,1.29118e-07,-2.08122,-4.35859e-07,1.57136,0.785397,0.00103908,0.389378,-0.000563234,0.378213,0.00068085,-0.000517769,-0.00103754,8.58972e-06,0.420722,-4.13214e-05,0.421844,1.04724e-05,0.0163721,6.46883e-06,-0.958241,-2.90927,-1.42083,22.4634,1.70687,2.38973,0.291331,-0.700867,-0.878913,-0.612687,3.35556,0.949039,0.243432,0.248767
1869389,0.98,-1.57032,-0.511147,0.000471579,-2.08447,-0.00120258,1.57079,0.785139,-1.57079,-0.510245,8.7057e-08,-2.08079,-4.25233e-07,1.57137,0.785397,-0.00107037,0.396823,-0.0010251,0.382744,-0.00019036,0.0028868,-0.00263152,8.74351e-06,0.428212,-4.20612e-05,0.429396,1.06256e-05,0.0166116,6.56346e-06,-0.882862,-2.88547,-1.39306,22.511,1.72426,2.43551,0.343516,-0.70211,-0.935153,-0.61371,3.3929,0.950114,0.249895,0.249903
1869390,0.98,-1.57032,-0.510719,0.000468297,-2.08406,-0.00119909,1.5708,0.78514,-1.57079,-0.509809,4.4256e-08,-2.08035,-4.14454e-07,1.57139,0.785397,-0.000713467,0.410743,-0.00179703,0.39826,7.6544e-05,0.0022514,-0.00152227,8.89729e-06,0.435702,-4.2801e-05,0.436949,1.07788e-05,0.0168511,6.65808e-06,-0.882862,-2.88547,-1.34546,22.511,1.71877,2.44192,0.337107,-0.702364,-0.992149,-0.61323,3.43038,0.951206,0.256368,0.251003
1869391,0.98,-1.57032,-0.510298,0.000469987,-2.08364,-0.00120194,1.5708,0.785141,-1.57079,-0.509366,7.15203e-10,-2.0799,-4.03522e-07,1.57141,0.785397,-0.000475561,0.412197,-0.000641206,0.403326,-0.000152421,0.00623499,-0.000781454,9.05108e-06,0.443192,-4.35408e-05,0.444501,1.0932e-05,0.0170906,6.75271e-06,-0.882862,-2.78232,-1.36926,22.4872,1.72426,2.45474,0.330698,-0.701592,-1.04732,-0.611188,3.46446,0.952227,0.262477,0.252149
1869392,0.98,-1.57032,-0.509846,0.000462754,-2.08322,-0.00120268,1.5708,0.785142,-1.57079,-0.508915,-4.35654e-08,-2.07945,-3.92437e-07,1.57142,0.785397,-0.000316978,0.422996,-0.00284032,0.406338,-0.000101614,0.0111031,-0.000252675,9.20486e-06,0.450682,-4.42806e-05,0.452053,1.10852e-05,0.01733,6.84734e-06,-0.882862,-2.96085,-1.26611,22.4634,1.72426,2.41537,0.323374,-0.700447,-1.09605,-0.608473,3.49423,0.953157,0.268238,0.253391
1869393,0.98,-1.57032,-0.509403,0.000467865,-2.08278,-0.00120354,1.57081,0.785145,-1.57079,-0.508457,-8.85858e-08,-2.07899,-3.81199e-07,1.57144,0.785397,-0.000211271,0.42877,0.000519304,0.416277,-0.000271193,0.0139895,0.000778755,9.35865e-06,0.458172,-4.50204e-05,0.459606,1.12384e-05,0.0175695,6.94196e-06,-0.882862,-3.03622,-1.36926,22.4118,1.72975,2.38973,0.297739,-0.699458,-1.13944,-0.605862,3.52221,0.954058,0.273927,0.254741
1869394,0.98,-1.57032,-0.508948,0.000465485,-2.08234,-0.00119982,1.57082,0.785147,-1.57079,-0.507991,-1.34346e-07,-2.07853,-3.69807e-07,1.57146,0.785397,-0.00134724,0.437051,-0.00021061,0.424254,2.2655e-05,0.0106568,0.00122957,9.51243e-06,0.465662,-4.57602e-05,0.467158,1.13916e-05,0.017809,7.03659e-06,-0.831288,-3.03622,-1.34546,22.3127,1.72426,2.38333,0.278513,-0.699592,-1.17688,-0.604944,3.54747,0.954864,0.279436,0.25618
1869395,0.98,-1.57032,-0.508492,0.000461629,-2.08189,-0.00120258,1.57083,0.785139,-1.57079,-0.507518,-1.80844e-07,-2.07805,-3.58269e-07,1.57148,0.785397,-0.000898132,0.43852,-0.00134683,0.428086,-0.000188347,0.0134206,-0.00158904,9.66573e-06,0.473152,-4.64976e-05,0.474687,1.15387e-05,0.018039,7.12746e-06,-0.831288,-2.93704,-1.29388,22.1897,1.72975,2.3641,0.343516,-0.700246,-1.20394,-0.604949,3.56801,0.955563,0.284657,0.257648
1869396,0.98,-1.57032,-0.508032,0.00045942,-2.08143,-0.0012033,1.57085,0.78515,-1.57079,-0.507038,-2.28079e-07,-2.07757,-3.46583e-07,1.57149,0.785397,-0.00115555,0.444125,-0.000897888,0.43701,-0.000125565,0.0145643,0.00229664,9.81903e-06,0.480642,-4.72351e-05,0.482215,1.16858e-05,0.018269,7.21834e-06,-0.807484,-2.88547,-1.29388,22.0627,1.72975,2.37051,0.252878,-0.7004,-1.21516,-0.60433,3.5822,0.956195,0.289512,0.259097
1869397,0.98,-1.57032,-0.507573,0.000458683,-2.08096,-0.00120354,1.57086,0.785141,-1.57079,-0.506549,-2.76051e-07,-2.07708,-3.3475e-07,1.57151,0.785397,0.000992888,0.446831,-0.000598592,0.445739,-8.37099e-05,0.0145949,-0.00135183,9.97233e-06,0.488132,-4.79726e-05,0.489744,1.18329e-05,0.018499,7.30922e-06,-0.882862,-2.68314,-1.29388,21.9397,1.72975,2.39614,0.330698,-0.700845,-1.20546,-0.604136,3.58688,0.956665,0.293692,0.260509
1869398,0.98,-1.57032,-0.507104,0.000462239,-2.08048,-0.00120169,1.57088,0.785139,-1.57079,-0.506054,-3.24761e-07,-2.07658,-3.2277e-07,1.57153,0.785397,0.000105125,0.452104,0.000157751,0.454572,0.000588453,0.0147865,-0.00137647,1.01256e-05,0.495622,-4.871e-05,0.497273,1.19801e-05,0.0187291,7.4001e-06,-0.859058,-2.55618,-1.31769,21.7414,1.71236,2.42269,0.343516,-0.702761,-1.17257,-0.605973,3.57964,0.956865,0.296966,0.261866
1869399,0.98,-1.57032,-0.506625,0.000457577,-2.07999,-0.00120172,1.57089,0.785138,-1.57079,-0.505551,-3.74209e-07,-2.07608,-3.10643e-07,1.57155,0.785397,-0.00169315,0.45913,-0.00165807,0.468447,0.000392302,0.0200053,-0.000443324,1.02789e-05,0.503112,-4.94475e-05,0.504801,1.21272e-05,0.0189591,7.49098e-06,-0.78368,-2.40543,-1.24231,21.4914,1.71236,2.44192,0.330698,-0.705107,-1.11804,-0.608402,3.55922,0.956805,0.299157,0.263182
1869400,0.98,-1.57032,-0.506139,0.000463076,-2.07949,-0.00120173,1.57092,0.785144,-1.57079,-0.50504,-4.24394e-07,-2.07557,-2.98368e-07,1.57157,0.785397,-1.51339e-05,0.461561,0.000657857,0.47463,0.000261535,0.0212439,0.00116221,1.04322e-05,0.510602,-5.01849e-05,0.51233,1.22743e-05,0.0191891,7.58186e-06,-0.831288,-2.30228,-1.31769,21.416,1.71236,2.40255,0.291331,-0.706742,-1.0443,-0.609881,3.52502,0.95651,0.300153,0.264498
1869401,0.98,-1.57032,-0.505645,0.000459527,-2.07898,-0.00120427,1.57095,0.785143,-1.57079,-0.504522,-4.75316e-07,-2.07505,-2.85947e-07,1.57159,0.785397,0.000639529,0.474216,-0.000767854,0.482607,-0.000673354,0.0236966,0.0012493,1.05855e-05,0.518092,-5.09224e-05,0.519858,1.24214e-05,0.0194191,7.67274e-06,-0.859058,-2.2269,-1.26611,21.3446,1.73525,2.31924,0.278513,-0.708746,-0.958833,-0.611908,3.48129,0.956009,0.300378,0.265829
1869402,0.98,-1.57032,-0.505138,0.000455749,-2.07846,-0.00120366,1.57098,0.785149,-1.57079,-0.503996,-5.26976e-07,-2.07452,-2.73378e-07,1.57161,0.785397,-0.000223257,0.483286,-0.00106871,0.493312,-0.000245452,0.0249156,0.0020195,1.07388e-05,0.525582,-5.16598e-05,0.527387,1.25686e-05,0.0196491,7.76362e-06,-0.831288,-2.20309,-1.24231,21.1701,1.72975,2.24874,0.24647,-0.710968,-0.876429,-0.614111,3.43548,0.955453,0.300407,0.267148
1869403,0.98,-1.57032,-0.504637,0.000451428,-2.07793,-0.00120366,1.57101,0.785147,-1.57079,-0.503463,-5.79373e-07,-2.07398,-2.60663e-07,1.57163,0.785397,-0.00126246,0.497047,-0.0019189,0.500217,-0.000163635,0.0291133,0.00158356,1.08921e-05,0.533072,-5.23973e-05,0.534916,1.27157e-05,0.0198791,7.8545e-06,-0.78368,-2.15152,-1.19073,21.0947,1.72975,2.20938,0.240061,-0.71172,-0.809773,-0.614035,3.39306,0.955035,0.300478,0.268392
1869404,0.98,-1.57032,-0.504122,0.000454813,-2.0774,-0.00120305,1.57104,0.78515,-1.57079,-0.502923,-6.32508e-07,-2.07344,-2.478e-07,1.57165,0.785397,-0.000284826,0.499347,-7.28424e-05,0.50978,9.43607e-05,0.0268723,0.00129297,1.10454e-05,0.540562,-5.31348e-05,0.542444,1.28628e-05,0.0201091,7.94537e-06,-0.807484,-2.05234,-1.24231,21.0947,1.72426,2.19015,0.233652,-0.71101,-0.76113,-0.611798,3.35559,0.954803,0.300584,0.269497
1869405,0.98,-1.57033,-0.503601,0.000453064,-2.07685,-0.00120366,1.57107,0.78515,-1.57079,-0.502375,-6.86369e-07,-2.07289,-2.34797e-07,1.57167,0.785397,-0.00139631,0.50354,-0.000605374,0.516224,-0.000140543,0.0290454,0.000387195,1.11964e-05,0.548052,-5.38609e-05,0.549857,1.30032e-05,0.0203286,8.03212e-06,-0.755909,-1.92538,-1.2185,21.1423,1.72975,2.19656,0.24647,-0.710131,-0.718565,-0.609394,3.31896,0.954635,0.300415,0.270408
1869406,0.98,-1.57032,-0.503092,0.000451089,-2.07631,-0.00120366,1.57109,0.785144,-1.57079,-0.501819,-7.40956e-07,-2.07233,-2.21653e-07,1.57169,0.785397,-0.000281257,0.505542,-0.0010532,0.526049,-9.36956e-05,0.0245105,-0.00187815,1.13473e-05,0.555542,-5.4587e-05,0.55727,1.31437e-05,0.0205482,8.11886e-06,-0.78368,-1.72305,-1.19073,21.2455,1.72975,2.24234,0.304148,-0.709294,-0.667643,-0.607174,3.27789,0.954433,0.299634,0.271093
1869407,0.98,-1.57032,-0.50256,0.00045303,-2.07575,-0.00120305,1.57111,0.785145,-1.57079,-0.501256,-7.96269e-07,-2.07177,-2.08369e-07,1.57171,0.785397,0.000369308,0.511365,-5.25169e-05,0.532676,0.000140987,0.0260266,-0.000777424,1.14983e-05,0.563032,-5.53132e-05,0.564683,1.32841e-05,0.0207677,8.2056e-06,-0.807484,-1.6199,-1.2185,21.3446,1.72426,2.2936,0.291331,-0.708819,-0.601802,-0.605495,3.23038,0.954134,0.298164,0.271587
1869408,0.98,-1.57033,-0.502008,0.000448947,-2.07519,-0.00120427,1.57112,0.785144,-1.57079,-0.500686,-8.52308e-07,-2.0712,-1.94944e-07,1.57173,0.785397,-0.000310606,0.523712,-0.000684625,0.540242,-0.00031291,0.021042,-0.000993031,1.16492e-05,0.570522,-5.60393e-05,0.572096,1.34245e-05,0.0209872,8.29234e-06,-0.78368,-1.64767,-1.19073,21.3922,1.73525,2.38333,0.304148,-0.709165,-0.528168,-0.604972,3.18066,0.953778,0.296426,0.271983
1869409,0.98,-1.57033,-0.501452,0.000451855,-2.07462,-0.00120244,1.57114,0.785141,-1.57079,-0.500108,-9.09074e-07,-2.07062,-1.81379e-07,1.57175,0.785397,-0.00020707,0.535352,0.000750009,0.549349,0.000401745,0.0177561,-0.000424684,1.18002e-05,0.578012,-5.67654e-05,0.579509,1.35649e-05,0.0212068,8.37908e-06,-0.78368,-1.82224,-1.24231,21.4438,1.71877,2.46755,0.297739,-0.709954,-0.46356,-0.605121,3.13687,0.953498,0.295173,0.272374
1869410,0.98,-1.57032,-0.500877,0.000447999,-2.07404,-0.00120305,1.57115,0.785145,-1.57079,-0.499522,-9.66565e-07,-2.07003,-1.67674e-07,1.57177,0.785397,0.000975577,0.54581,-0.00070642,0.552881,6.43795e-05,0.0171864,0.00137837,1.19511e-05,0.585502,-5.74916e-05,0.586922,1.37054e-05,0.0214263,8.46582e-06,-0.831288,-2.00076,-1.19073,21.5668,1.72426,2.50601,0.252878,-0.711117,-0.420221,-0.605809,3.10506,0.953385,0.295069,0.272819
1869411,0.98,-1.57033,-0.500306,0.00044838,-2.07348,-0.00120427,1.57118,0.785147,-1.57079,-0.498929,-1.02478e-06,-2.06944,-1.53828e-07,1.5718,0.785397,-0.000463239,0.553611,-0.00102776,0.558717,-0.000363981,0.0192586,0.00163098,1.21021e-05,0.592992,-5.82177e-05,0.594335,1.38458e-05,0.0216458,8.55256e-06,-0.78368,-2.12772,-1.16693,21.7414,1.73525,2.48037,0.233652,-0.711961,-0.401468,-0.605931,3.08807,0.953535,0.296556,0.273315
1869412,0.98,-1.57032,-0.499724,0.000448604,-2.0729,-0.00120621,1.5712,0.785152,-1.57079,-0.498329,-1.08373e-06,-2.06883,-1.39842e-07,1.57182,0.785398,0.000804798,0.559123,-0.00012836,0.563251,-0.000886914,0.0219991,0.0018333,1.2253e-05,0.600482,-5.89438e-05,0.601748,1.39862e-05,0.0218654,8.6393e-06,-0.831288,-2.27847,-1.19073,21.8882,1.75264,2.41537,0.213511,-0.71202,-0.401499,-0.604838,3.08421,0.953975,0.299614,0.273798
1869413,0.98,-1.57033,-0.499126,0.000444781,-2.07231,-0.00120549,1.57122,0.785148,-1.57079,-0.497721,-1.1434e-06,-2.06822,-1.25715e-07,1.57184,0.785398,-0.00178352,0.569044,-0.0011992,0.566651,-0.000353917,0.0178765,-0.00071059,1.24039e-05,0.607972,-5.967e-05,0.609161,1.41266e-05,0.0220849,8.72604e-06,-0.732105,-2.37766,-1.14312,22.0905,1.74623,2.37692,0.265696,-0.711336,-0.41438,-0.602712,3.09158,0.954702,0.304109,0.27419
1869414,0.98,-1.57033,-0.498535,0.000446291,-2.07173,-0.00120621,1.57124,0.785139,-1.57079,-0.497105,-1.20379e-06,-2.06761,-1.11448e-07,1.57186,0.785398,1.74144e-05,0.574714,-0.000242653,0.573223,-0.000473304,0.0182066,-0.0023726,1.25549e-05,0.615462,-6.03961e-05,0.616574,1.42671e-05,0.0223044,8.81278e-06,-0.78368,-2.40543,-1.16693,22.2611,1.75264,2.37051,0.316965,-0.709627,-0.438186,-0.599226,3.10976,0.955736,0.309933,0.274456
1869415,0.98,-1.57032,-0.497934,0.000442436,-2.07113,-0.00120804,1.57125,0.785137,-1.57079,-0.496482,-1.2649e-06,-2.06698,-9.7048e-08,1.57188,0.785398,0.000568422,0.57967,-0.000718581,0.577416,-0.000925887,0.0165595,-0.0018191,1.2702e-05,0.622952,-6.11037e-05,0.623798,1.44004e-05,0.0225129,8.89515e-06,-0.807484,-2.40543,-1.14312,22.4118,1.76912,2.41537,0.323374,-0.707852,-0.466533,-0.595676,3.13554,0.956969,0.316653,0.274644
1869416,0.98,-1.57033,-0.49732,0.000445509,-2.07053,-0.00120926,1.57126,0.785137,-1.57079,-0.495852,-1.32671e-06,-2.06635,-8.25143e-08,1.57191,0.785398,-0.000177864,0.587355,7.77582e-05,0.581798,-0.00102416,0.0150405,-0.00121274,1.28491e-05,0.630442,-6.18114e-05,0.631022,1.45337e-05,0.0227214,8.97751e-06,-0.78368,-2.50461,-1.16693,22.4118,1.78011,2.47396,0.323374,-0.706828,-0.493774,-0.593156,3.16636,0.958319,0.323929,0.274849
1869417,0.98,-1.57032,-0.496697,0.000443846,-2.06992,-0.00120804,1.57127,0.785136,-1.57079,-0.495214,-1.38923e-06,-2.06572,-6.78472e-08,1.57193,0.785398,0.000438236,0.596117,5.18388e-05,0.593525,-0.000275872,0.00912672,-0.00107976,1.29962e-05,0.637932,-6.2519e-05,0.638247,1.46671e-05,0.0229298,9.05988e-06,-0.807484,-2.57999,-1.16693,22.4634,1.76912,2.53805,0.330698,-0.70644,-0.519724,-0.59154,3.20093,0.959757,0.331584,0.275151
1869418,0.98,-1.57032,-0.496065,0.000443292,-2.06929,-0.00120621,1.57127,0.785147,-1.57079,-0.494568,-1.45245e-06,-2.06507,-5.30468e-08,1.57195,0.785398,0.000292157,0.606656,3.45592e-05,0.602109,0.000426437,0.00529058,0.00168766,1.31433e-05,0.645422,-6.32266e-05,0.645471,1.48004e-05,0.0231383,9.14224e-06,-0.807484,-2.57999,-1.16693,22.3603,1.75264,2.58932,0.265696,-0.706602,-0.545811,-0.590632,3.23684,0.961197,0.339365,0.275594
1869419,0.98,-1.57032,-0.495428,0.000439487,-2.06866,-0.00120305,1.57128,0.785149,-1.57079,-0.493916,-1.51639e-06,-2.06442,-3.8113e-08,1.57198,0.785398,0.000194772,0.616282,-0.00118339,0.608399,0.00133545,0.00794758,0.00159982,1.32904e-05,0.652912,-6.39343e-05,0.652695,1.49338e-05,0.0233467,9.22461e-06,-0.807484,-2.63156,-1.11535,22.2611,1.72426,2.62228,0.252878,-0.706611,-0.575996,-0.589315,3.27399,0.962636,0.347273,0.276165
1869420,0.99,-1.57032,-0.494791,0.000439244,-2.06802,-0.00120244,1.57129,0.785151,-1.57079,-0.493255,-1.58103e-06,-2.06376,-2.30459e-08,1.572,0.785398,0.00133627,0.619488,-0.00013931,0.612796,0.00109375,0.00754168,0.00154126,1.34375e-05,0.660402,-6.46419e-05,0.659919,1.50671e-05,0.0235552,9.30697e-06,-0.859058,-2.57999,-1.14312,22.0905,1.71877,2.58932,0.240061,-0.706252,-0.610088,-0.587203,3.31276,0.964085,0.35545,0.276787
1869421,0.99,-1.57033,-0.494141,0.000440184,-2.06739,-0.00120244,1.5713,0.785145,-1.57079,-0.492587,-1.64638e-06,-2.06309,-7.84547e-09,1.57202,0.785398,-0.001522,0.638815,0.000463938,0.63102,0.000729168,0.0122612,7.8073e-05,1.35846e-05,0.667892,-6.53496e-05,0.667143,1.52004e-05,0.0237637,9.38934e-06,-0.755909,-2.45303,-1.16693,21.9873,1.71877,2.54446,0.265696,-0.705892,-0.646795,-0.584924,3.35098,0.965462,0.363682,0.277372
1869422,0.99,-1.57033,-0.493513,0.000436321,-2.06674,-0.00120244,1.57132,0.785143,-1.57079,-0.491912,-1.71244e-06,-2.06242,7.48831e-09,1.57205,0.785398,-0.00212829,0.63425,-0.00403397,0.63852,0.000486112,0.0162651,-0.00137211,1.37317e-05,0.675382,-6.60572e-05,0.674367,1.53338e-05,0.0239721,9.4717e-06,-0.708302,-2.09995,-1.11535,21.7652,1.71877,2.48037,0.304148,-0.70353,-0.681537,-0.579746,3.38263,0.966709,0.371227,0.27785
1869423,0.99,-1.57033,-0.492862,0.000434109,-2.06607,-0.00120682,1.57133,0.785134,-1.57079,-0.491229,-1.7792e-06,-2.06173,2.29554e-08,1.57207,0.785398,-0.00086205,0.637453,-0.00295071,0.646152,-0.00113399,0.0133944,-0.00308488,1.38788e-05,0.682872,-6.67648e-05,0.681591,1.54671e-05,0.0241806,9.55407e-06,-0.732105,-1.87381,-1.11535,21.5668,1.75813,2.44192,0.362742,-0.697382,-0.695807,-0.569053,3.3993,0.967768,0.377422,0.278197
1869424,0.99,-1.57033,-0.492202,0.000431702,-2.0654,-0.00120804,1.57135,0.785132,-1.57079,-0.490539,-1.84667e-06,-2.06105,3.85559e-08,1.5721,0.785398,-0.00682281,0.64336,-0.00272001,0.65678,-0.00116289,0.0161727,-0.0025313,1.40259e-05,0.690362,-6.74725e-05,0.688815,1.56005e-05,0.024389,9.63643e-06,-0.732105,-1.77066,-1.09155,21.3169,1.76912,2.39614,0.375559,-0.687921,-0.678686,-0.553882,3.39812,0.968607,0.382148,0.278487
1869425,0.99,-1.57033,-0.491517,0.000429507,-2.06471,-0.0012094,1.57136,0.785131,-1.57079,-0.489841,-1.91483e-06,-2.06035,5.42824e-08,1.57212,0.785398,-0.00506922,0.651685,-0.00260999,0.664529,-0.00016491,0.0155249,-0.00168754,1.4168e-05,0.697753,-6.81559e-05,0.695792,1.57265e-05,0.024586,9.71428e-06,-0.732105,-1.92538,-1.06378,20.9955,1.75264,2.42269,0.375559,-0.675505,-0.636927,-0.535263,3.38242,0.96932,0.385568,0.278846
1869426,0.99,-1.57033,-0.490819,0.000434533,-2.06402,-0.00120731,1.57138,0.785137,-1.57079,-0.489136,-1.98367e-06,-2.05965,7.01349e-08,1.57215,0.785398,-0.00256356,0.661271,0.000562579,0.683098,0.000941221,0.0167092,0.000807756,1.431e-05,0.705143,-6.88393e-05,0.702769,1.58525e-05,0.0247831,9.79212e-06,-0.78368,-2.05234,-1.16693,20.7972,1.72426,2.40896,0.323374,-0.66327,-0.579934,-0.517427,3.35488,0.969822,0.387706,0.279389
1869427,0.99,-1.57033,-0.490127,0.000435466,-2.06332,-0.00120828,1.5714,0.785142,-1.57079,-0.488423,-2.05319e-06,-2.05894,8.61134e-08,1.57217,0.785398,-0.00144511,0.668716,0.000849155,0.688802,0.00042403,0.0232563,0.00220002,1.44521e-05,0.712533,-6.95227e-05,0.709746,1.59785e-05,0.0249801,9.86997e-06,-0.807484,-2.20309,-1.19073,20.7218,1.72975,2.37051,0.278513,-0.655731,-0.514179,-0.506333,3.31618,0.969898,0.388443,0.280161
1869428,0.99,-1.57033,-0.489427,0.00043522,-2.0626,-0.00120585,1.57142,0.785139,-1.57079,-0.487703,-2.1234e-06,-2.05822,1.02218e-07,1.5722,0.785398,-0.00118307,0.676076,0.000504071,0.692355,0.0011304,0.0230833,0.000517242,1.45941e-05,0.719923,-7.02061e-05,0.716722,1.61046e-05,0.0251771,9.94781e-06,-0.807484,-2.2269,-1.19073,20.6464,1.70687,2.33847,0.304148,-0.653447,-0.447365,-0.502597,3.27171,0.969643,0.388293,0.281102
1869429,0.99,-1.57033,-0.488728,0.000437087,-2.06191,-0.00120722,1.57144,0.785145,-1.57079,-0.486976,-2.19429e-06,-2.0575,1.18449e-07,1.57222,0.785398,-0.00151027,0.679965,0.000939137,0.691503,0.000312789,0.017551,0.00248106,1.47362e-05,0.727313,-7.08895e-05,0.723699,1.62306e-05,0.0253741,1.00257e-05,-0.78368,-2.25467,-1.2185,20.7694,1.71877,2.32565,0.24647,-0.654579,-0.38711,-0.503628,3.23051,0.969343,0.388363,0.282116
1869430,0.99,-1.57033,-0.488005,0.000433441,-2.0612,-0.00120784,1.57146,0.78514,-1.57079,-0.486241,-2.26586e-06,-2.05677,1.34805e-07,1.57225,0.785398,-0.00178002,0.693622,-0.000615227,0.696237,5.07527e-06,0.0180717,-0.000244833,1.48783e-05,0.734703,-7.15729e-05,0.730676,1.63566e-05,0.0255711,1.01035e-05,-0.755909,-2.35385,-1.16693,20.821,1.72426,2.31924,0.297739,-0.657051,-0.341476,-0.50659,3.20046,0.969245,0.389581,0.283129
1869431,0.99,-1.57032,-0.487273,0.000432971,-2.06047,-0.00120648,1.57148,0.785137,-1.57079,-0.485499,-2.33812e-06,-2.05603,1.51288e-07,1.57227,0.785398,0.00048389,0.704009,0.000120491,0.700849,-0.000606968,0.021434,-0.00111266,1.50203e-05,0.742093,-7.22563e-05,0.737653,1.64826e-05,0.0257682,1.01813e-05,-0.831288,-2.42923,-1.19073,20.9955,1.74074,2.35769,0.323374,-0.659728,-0.321446,-0.509807,3.18694,0.96949,0.392278,0.284091
1869432,0.99,-1.57033,-0.48653,0.000432258,-2.05975,-0.00120603,1.5715,0.785133,-1.57079,-0.48475,-2.41106e-06,-2.05528,1.67896e-07,1.5723,0.785398,-0.00030372,0.717151,6.06998e-05,0.713046,-0.000608096,0.0191643,-0.00196247,1.51624e-05,0.749483,-7.29397e-05,0.744629,1.66086e-05,0.0259652,1.02592e-05,-0.807484,-2.73471,-1.19073,21.2177,1.74623,2.40255,0.356333,-0.662945,-0.331526,-0.513634,3.18937,0.970033,0.396122,0.285012
1869433,0.99,-1.57032,-0.485764,0.0004361,-2.05903,-0.00120765,1.57152,0.78514,-1.57079,-0.483993,-2.48468e-06,-2.05453,1.84631e-07,1.57233,0.785398,0.000302205,0.727833,0.00067536,0.712174,1.50378e-06,0.0184636,0.000861822,1.53045e-05,0.756873,-7.36231e-05,0.751606,1.67347e-05,0.0261622,1.0337e-05,-0.831288,-3.06003,-1.2185,21.543,1.73525,2.42269,0.297739,-0.66677,-0.371541,-0.51821,3.20606,0.970822,0.40089,0.285953
1869434,0.99,-1.57033,-0.485011,0.000437941,-2.05829,-0.0012092,1.57153,0.785141,-1.57079,-0.483229,-2.55899e-06,-2.05377,2.01492e-07,1.57235,0.785398,-0.000951249,0.735723,0.00155282,0.720485,-0.000202448,0.0176128,0.00104927,1.54465e-05,0.764264,-7.43065e-05,0.758583,1.68607e-05,0.0263592,1.04149e-05,-0.78368,-3.31393,-1.26611,21.6898,1.74074,2.45474,0.284922,-0.670983,-0.43892,-0.523421,3.23704,0.971871,0.406712,0.286953
1869435,0.99,-1.57032,-0.484246,0.000437901,-2.05755,-0.00120708,1.57155,0.785147,-1.57079,-0.482457,-2.63395e-06,-2.05301,2.18471e-07,1.57238,0.785398,0.000450137,0.742515,0.000470123,0.722691,0.000678837,0.0213843,0.00259838,1.55826e-05,0.771462,-7.49611e-05,0.765265,1.69793e-05,0.0265446,1.04881e-05,-0.831288,-3.31393,-1.24231,21.8882,1.71877,2.4996,0.233652,-0.675342,-0.523749,-0.52905,3.27873,0.973126,0.413389,0.287976
1869436,0.99,-1.57033,-0.483476,0.000436774,-2.0568,-0.00120901,1.57157,0.785145,-1.57079,-0.481678,-2.70956e-06,-2.05224,2.35569e-07,1.5724,0.785398,-0.000835523,0.748959,-0.000249607,0.731874,-0.000157794,0.020144,0.00125754,1.57187e-05,0.77866,-7.56157e-05,0.771948,1.70978e-05,0.0267299,1.05613e-05,-0.78368,-3.23856,-1.2185,22.0389,1.73525,2.52523,0.24647,-0.678929,-0.614034,-0.533738,3.32542,0.974508,0.42049,0.288928
1869437,0.99,-1.57033,-0.482702,0.000436496,-2.05605,-0.00120646,1.57159,0.785145,-1.57079,-0.480893,-2.78583e-06,-2.05146,2.52785e-07,1.57243,0.785398,-1.66967e-05,0.756527,0.00038575,0.738144,-0.000308646,0.019127,0.000838358,1.58547e-05,0.785858,-7.62703e-05,0.778631,1.72164e-05,0.0269153,1.06346e-05,-0.807484,-3.23856,-1.24231,22.0627,1.74074,2.55728,0.24647,-0.681159,-0.700673,-0.536634,3.37221,0.975923,0.427662,0.289717
1869438,1,-1.57033,-0.481929,0.000434175,-2.05528,-0.0012048,1.5716,0.785141,-1.57079,-0.480099,-2.86276e-06,-2.05067,2.7012e-07,1.57246,0.785398,-0.000580313,0.753767,-0.000303139,0.747645,-2.31371e-06,0.0171934,-0.00110261,1.59908e-05,0.793055,-7.69249e-05,0.785313,1.73349e-05,0.0271006,1.07078e-05,-0.78368,-3.1116,-1.2185,21.9397,1.73525,2.61587,0.291331,-0.682401,-0.770816,-0.538298,3.4125,0.977212,0.434464,0.290291
1869439,1,-1.57032,-0.481154,0.00043776,-2.05451,-0.00120262,1.57162,0.785136,-1.57079,-0.479299,-2.94034e-06,-2.04988,2.87574e-07,1.57249,0.785398,0.000160659,0.77532,0.0003521,0.771115,0.000608809,0.017726,-0.00219313,1.61269e-05,0.800253,-7.75795e-05,0.791996,1.74535e-05,0.027286,1.07811e-05,-0.807484,-3.03622,-1.24231,21.666,1.71877,2.62228,0.330698,-0.68306,-0.816222,-0.53924,3.4388,0.978176,0.44019,0.290654
1869440,1,-1.57032,-0.480368,0.000436267,-2.05371,-0.0012057,1.57164,0.78513,-1.57079,-0.478492,-3.01857e-06,-2.04908,3.05146e-07,1.57251,0.785398,0.000100148,0.773777,0.000232768,0.777851,0.000405873,0.0152523,-0.00241152,1.6263e-05,0.807451,-7.82341e-05,0.798679,1.75721e-05,0.0274713,1.08543e-05,-0.807484,-2.93704,-1.24231,21.3169,1.71877,2.5765,0.356333,-0.683562,-0.840852,-0.539965,3.448,0.978675,0.444386,0.290888
1869441,1,-1.57033,-0.479578,0.000439571,-2.0529,-0.00120221,1.57167,0.785129,-1.57079,-0.477677,-3.09746e-06,-2.04828,3.22836e-07,1.57254,0.785398,-0.000495265,0.775155,0.000710517,0.786685,0.000711391,0.0194561,-0.00160768,1.6399e-05,0.814649,-7.88887e-05,0.805362,1.76906e-05,0.0276567,1.09275e-05,-0.78368,-2.68314,-1.26611,20.8963,1.70687,2.48678,0.356333,-0.684205,-0.839171,-0.540971,3.43856,0.978687,0.447097,0.291096
1869442,1,-1.57033,-0.478796,0.000436314,-2.05209,-0.00120407,1.5717,0.785129,-1.57079,-0.476855,-3.177e-06,-2.04746,3.40646e-07,1.57257,0.785398,-0.000334091,0.774121,-8.42392e-05,0.79622,0.000677711,0.0282229,-0.00107179,1.65351e-05,0.821847,-7.95433e-05,0.812044,1.78092e-05,0.027842,1.10008e-05,-0.78368,-2.42923,-1.24231,20.4996,1.70137,2.37051,0.356333,-0.684756,-0.798149,-0.542074,3.40728,0.978239,0.448209,0.291351
1869443,1,-1.57033,-0.477992,0.000437916,-2.05126,-0.00120428,1.57174,0.785137,-1.57079,-0.476026,-3.2572e-06,-2.04665,3.58573e-07,1.5726,0.785398,-0.000225662,0.776901,-5.69885e-05,0.8051,0.000655258,0.0298436,0.000980895,1.66712e-05,0.829045,-8.01978e-05,0.818727,1.79278e-05,0.0280274,1.1074e-05,-0.78368,-2.25467,-1.24231,20.1267,1.69588,2.24874,0.310557,-0.684946,-0.713471,-0.542894,3.35271,0.977358,0.447468,0.291696
1869444,1,-1.57033,-0.477184,0.000445688,-2.05044,-0.00120578,1.57176,0.785135,-1.57079,-0.47519,-3.33805e-06,-2.04582,3.7662e-07,1.57263,0.785398,0.000404169,0.778449,0.00237424,0.811463,2.99377e-05,0.0280266,0.00065393,1.68073e-05,0.836243,-8.08524e-05,0.82541,1.80463e-05,0.0282128,1.11472e-05,-0.807484,-2.09995,-1.34546,19.9005,1.70687,2.20297,0.310557,-0.685716,-0.590009,-0.544811,3.27802,0.976079,0.445029,0.292144
1869445,1,-1.57032,-0.476382,0.000447537,-2.0496,-0.00120719,1.57179,0.785144,-1.57079,-0.474347,-3.41953e-06,-2.04499,3.94777e-07,1.57265,0.785398,0.000267795,0.785426,0.00213917,0.818661,-0.000420851,0.0300505,0.00257218,1.69366e-05,0.843176,-8.14746e-05,0.831761,1.81573e-05,0.0283863,1.12158e-05,-0.807484,-1.94919,-1.36926,19.726,1.71877,2.19656,0.252878,-0.688435,-0.440161,-0.549899,3.19025,0.974483,0.441372,0.292676
1869446,1,-1.57032,-0.475558,0.000449727,-2.04875,-0.00121099,1.57182,0.785146,-1.57079,-0.473497,-3.50162e-06,-2.04415,4.13045e-07,1.57268,0.785398,0.000177291,0.790146,0.00142576,0.823277,-0.00153518,0.0312931,0.00341021,1.70659e-05,0.850108,-8.20967e-05,0.838112,1.82684e-05,0.0285599,1.12844e-05,-0.807484,-1.87381,-1.36926,19.6546,1.75264,2.20938,0.207102,-0.692422,-0.279431,-0.557224,3.09737,0.972785,0.43701,0.293233
1869447,1,-1.57032,-0.47472,0.000448326,-2.04791,-0.00121161,1.57185,0.785145,-1.57079,-0.47264,-3.58434e-06,-2.04331,4.31425e-07,1.57271,0.785398,0.000674077,0.804817,0.00731132,0.824048,-0.0012269,0.0312448,0.00105277,1.71952e-05,0.85704,-8.27189e-05,0.844464,1.83794e-05,0.0287334,1.1353e-05,-0.831288,-2.05234,-1.36926,19.8014,1.75813,2.24874,0.240061,-0.698029,-0.128264,-0.56744,3.01038,0.971236,0.432797,0.29373
1869448,1,-1.57032,-0.473872,0.00044953,-2.04707,-0.00120846,1.57188,0.785148,-1.57079,-0.471776,-3.66768e-06,-2.04245,4.49915e-07,1.57274,0.785398,0.000448688,0.815287,0.00596092,0.832078,0.000233226,0.031247,0.00263463,1.73246e-05,0.863972,-8.3341e-05,0.850815,1.84904e-05,0.028907,1.14215e-05,-0.831288,-2.2269,-1.39306,20.0513,1.72975,2.2936,0.187876,-0.707047,-0.00884062,-0.583283,2.94059,0.970016,0.429671,0.294105
