shamilmamedov/beam_handling/log/param_estimation_ICRA/ocp_rotX_30deg_0.43s_1.csv
duration, success rate, q[0], q[1], q[2], q[3], q[4], q[5], q[6],q_d[0], q_d[1], q_d[2], q_d[3], q_d[4], q_d[5], q_d[6],dq[0], dq[1], dq[2], dq[3], dq[4], dq[5], dq[6],dq_d[0], dq_d[1], dq_d[2], dq_d[3], dq_d[4], dq_d[5], dq_d[6],tau_J[0], tau_J[1], tau_J[2], tau_J[3], tau_J[4], tau_J[5], tau_J[6],tau_ext_hat_filtered[0], tau_ext_hat_filtered[1], tau_ext_hat_filtered[2], tau_ext_hat_filtered[3], tau_ext_hat_filtered[4], tau_ext_hat_filtered[5], tau_ext_hat_filtered[6]
897319,0,-1.57032,-0.52286,0.000446505,-2.09591,-0.00147542,1.5697,0.785375,-1.5708,-0.523599,2.76071e-07,-2.0944,-1.13053e-06,1.5708,0.785398,-8.74659e-05,0.000241136,-0.000402979,0.00616331,-7.64733e-05,0.000136276,0.0012491,0,0,0,0,0,0,0,-0.529774,-10.1654,-0.913022,20.9439,1.85976,2.51882,0.0780126,-0.535328,-1.02092,-0.429461,2.39443,1.14121,0.850814,0.101945
897320,1,-1.57031,-0.52286,0.000443412,-2.09591,-0.00147386,1.5697,0.785375,-1.5708,-0.523599,2.76071e-07,-2.0944,-1.13053e-06,1.5708,0.785398,0.00114812,0.000160757,-0.000825464,0.0039885,-0.000254433,-0.000146508,0.000832734,0,0,0,0,0,0,0,-0.581349,-10.1654,-0.889218,20.9717,1.86525,2.52523,0.0780126,-0.535766,-1.01555,-0.430268,2.38854,1.14103,0.850084,0.101877
897321,1,-1.57032,-0.52286,0.000450358,-2.0959,-0.00147192,1.5697,0.785373,-1.5708,-0.523599,2.76071e-07,-2.0944,-1.13053e-06,1.5708,0.785398,-0.000441016,0.000107171,0.00121293,0.00426236,0.000237279,-9.76722e-05,-0.000156921,0,0,0,0,0,0,0,-0.529774,-10.1654,-0.964597,20.9201,1.85426,2.52523,0.0972387,-0.536074,-1.00777,-0.430756,2.38012,1.1408,0.849091,0.101815
897322,1,-1.57031,-0.522862,0.000447109,-2.09591,-0.0014761,1.5697,0.785372,-1.5708,-0.523599,2.76071e-07,-2.0944,-1.13053e-06,1.5708,0.785398,0.000912415,-0.000578166,0.000251807,0.00193285,-0.000248715,0.000172244,-0.000579332,0,0,0,0,0,0,0,-0.581349,-10.1377,-0.940793,20.9717,1.86525,2.51882,0.110056,-0.53695,-0.999879,-0.432128,2.37203,1.14058,0.848161,0.101734
897323,1,-1.57032,-0.52286,0.000444634,-2.0959,-0.00147586,1.5697,0.78537,-1.5708,-0.523599,2.76071e-07,-2.0944,-1.13053e-06,1.5708,0.785398,-0.00115496,0.00026417,-0.000481743,0.00271827,0.000241091,0.000114829,-0.000860939,0,0,0,0,0,0,0,-0.50597,-10.1654,-0.913022,20.9201,1.85426,2.51882,0.122873,-0.537726,-0.993261,-0.433419,2.36576,1.14043,0.847456,0.101638
897324,1,-1.57032,-0.522864,0.000442788,-2.09591,-0.00147558,1.5697,0.785368,-1.5708,-0.523599,2.76071e-07,-2.0944,-1.13053e-06,1.5708,0.785398,0.000436452,-0.00103031,-0.000877974,0.00142282,0.000364178,-0.000398165,-9.92414e-05,0,0,0,0,0,0,0,-0.557545,-10.1139,-0.889218,20.9439,1.84877,2.53164,0.110056,-0.537361,-0.988353,-0.433037,2.36162,1.14041,0.847006,0.101548
897325,1,-1.57032,-0.52286,0.000446349,-2.0959,-0.00147691,1.5697,0.785366,-1.5708,-0.523599,2.76071e-07,-2.0944,-1.13053e-06,1.5708,0.785398,-0.000358646,0.000519551,0.00062111,0.00163095,-0.000164116,0.000446634,-0.000540879,0,0,0,0,0,0,0,-0.529774,-10.1654,-0.940793,20.9201,1.85976,2.51242,0.122873,-0.536469,-0.985151,-0.431856,2.3595,1.14045,0.846796,0.101493
897326,1,-1.57032,-0.522862,0.00044271,-2.0959,-0.00147634,1.5697,0.785374,-1.5708,-0.523599,2.76071e-07,-2.0944,-1.13053e-06,1.5708,0.785398,-0.000239097,-0.000303247,-0.000792353,0.0011815,9.404e-05,6.03967e-05,0.00153829,0,0,0,0,0,0,0,-0.529774,-10.1377,-0.889218,20.9201,1.85426,2.51882,0.071604,-0.535696,-0.9843,-0.430868,2.35944,1.14054,0.846803,0.10149
897327,1,-1.57031,-0.522858,0.000440755,-2.09591,-0.00147316,1.5697,0.785375,-1.5708,-0.523599,2.76071e-07,-2.0944,-1.13053e-06,1.5708,0.785398,0.00104703,0.00100426,-0.00117785,-0.000348117,6.26933e-05,-0.000197094,0.000788165,0,0,0,0,0,0,0,-0.581349,-10.1892,-0.861447,20.9717,1.85426,2.52523,0.0780126,-0.53473,-0.986497,-0.429489,2.36171,1.14067,0.847043,0.101523
897328,1,-1.57032,-0.522862,0.000444832,-2.09591,-0.00147331,1.5697,0.785371,-1.5708,-0.523599,2.76071e-07,-2.0944,-1.13053e-06,1.5708,0.785398,-0.000508407,-0.000536918,-0.000135619,-0.000179094,-0.000365105,-0.000131396,-0.00089871,0,0,0,0,0,0,0,-0.529774,-10.1377,-0.889218,20.9717,1.86525,2.52523,0.116465,-0.533686,-0.99157,-0.427784,2.36639,1.14086,0.847535,0.101548
897329,1,-1.57032,-0.522858,0.000447031,-2.09591,-0.00147174,1.5697,0.785369,-1.5708,-0.523599,2.76071e-07,-2.0944,-1.13053e-06,1.5708,0.785398,-0.00089575,0.00084848,0.00111601,0.000569956,0.000163497,-8.75975e-05,-0.00131122,0,0,0,0,0,0,0,-0.50597,-10.1892,-0.940793,20.9439,1.85426,2.52523,0.135691,-0.533025,-0.997768,-0.426694,2.3722,1.14105,0.84815,0.101547
897330,1,-1.57032,-0.52286,0.000442938,-2.09591,-0.00147543,1.5697,0.785367,-1.5708,-0.523599,2.76071e-07,-2.0944,-1.13053e-06,1.5708,0.785398,-4.03549e-05,8.84161e-06,-0.000462417,-0.000239839,-9.44523e-05,-5.83984e-05,-0.000399427,0,0,0,0,0,0,0,-0.529774,-10.1654,-0.889218,20.9717,1.85976,2.52523,0.122873,-0.532837,-1.0042,-0.426479,2.37814,1.14123,0.848777,0.101549
897331,1,-1.57032,-0.52286,0.000446581,-2.09591,-0.00147523,1.5697,0.78537,-1.5708,-0.523599,2.76071e-07,-2.0944,-1.13053e-06,1.5708,0.785398,0.000622711,5.89441e-06,0.000248534,-0.000694352,0.000343933,0.000435786,-2.89256e-05,0,0,0,0,0,0,0,-0.557545,-10.1654,-0.913022,20.9955,1.84877,2.51242,0.116465,-0.533031,-1.01056,-0.426801,2.38414,1.14139,0.849413,0.101597
897332,1,-1.57032,-0.522862,0.000445108,-2.0959,-0.0014736,1.5697,0.785374,-1.5708,-0.523599,2.76071e-07,-2.0944,-1.13053e-06,1.5708,0.785398,0.00041514,-0.000645684,0.000165689,0.00187391,-0.000177612,5.31648e-05,0.00116751,0,0,0,0,0,0,0,-0.557545,-10.1377,-0.913022,20.8963,1.85976,2.51882,0.0844213,-0.533812,-1.01503,-0.427849,2.38904,1.14149,0.849943,0.101704
897333,1,-1.57032,-0.522864,0.000442946,-2.09591,-0.00147524,1.5697,0.78537,-1.5708,-0.523599,2.76071e-07,-2.0944,-1.13053e-06,1.5708,0.785398,-0.000372854,-0.000987268,-0.000446352,-0.000501389,8.50422e-05,-0.000201916,0.000303623,0,0,0,0,0,0,0,-0.529774,-10.1139,-0.889218,20.9717,1.85426,2.52523,0.0972387,-0.534745,-1.01622,-0.42904,2.39177,1.14153,0.850259,0.101844
897334,1,-1.57032,-0.52286,0.000444453,-2.09591,-0.00147218,1.5697,0.785372,-1.5708,-0.523599,2.76071e-07,-2.0944,-1.13053e-06,1.5708,0.785398,-0.000248569,0.000548247,0.000259244,0.000324784,0.000260145,-0.00013461,0.00115185,0,0,0,0,0,0,0,-0.529774,-10.1654,-0.913022,20.9439,1.84877,2.52523,0.071604,-0.535172,-1.01613,-0.429495,2.39369,1.14157,0.850498,0.10198
897335,1,-1.57032,-0.522862,0.000442728,-2.0959,-0.00147578,1.5697,0.785375,-1.5708,-0.523599,2.76071e-07,-2.0944,-1.13053e-06,1.5708,0.785398,-0.000722525,-0.000284116,-0.000383983,0.00133722,-0.000233471,-0.000564458,0.00100526,0,0,0,0,0,0,0,-0.50597,-10.1377,-0.889218,20.8963,1.85976,2.53805,0.0651953,-0.535091,-1.01667,-0.429267,2.3956,1.14161,0.850718,0.102079
897336,1,-1.57032,-0.522862,0.00044438,-2.0959,-0.00147338,1.5697,0.785367,-1.5708,-0.523599,2.76071e-07,-2.0944,-1.13053e-06,1.5708,0.785398,-0.000481683,-0.000189411,0.000300823,0.000896784,-0.000155647,0.000335771,-0.00221204,0,0,0,0,0,0,0,-0.50597,-10.1377,-0.913022,20.8963,1.85976,2.51882,0.143015,-0.534605,-1.01672,-0.428541,2.39656,1.14165,0.850837,0.102107
897337,1,-1.57032,-0.522862,0.000446323,-2.0959,-0.00147135,1.5697,0.78537,-1.5708,-0.523599,2.76071e-07,-2.0944,-1.13053e-06,1.5708,0.785398,0.00023569,-0.000126274,0.000850163,4.50224e-05,0.000303136,-1.35114e-05,-0.00072871,0,0,0,0,0,0,0,-0.529774,-10.1377,-0.940793,20.9201,1.84877,2.52523,0.122873,-0.534427,-1.01627,-0.428379,2.39693,1.14166,0.850913,0.102071
897338,1,-1.57032,-0.52286,0.000444372,-2.09591,-0.00147231,1.5697,0.785368,-1.5708,-0.523599,2.76071e-07,-2.0944,-1.13053e-06,1.5708,0.785398,0.000157127,0.000565431,-8.28387e-05,-0.00117343,-0.00020481,0.00046571,-0.000248448,0,0,0,0,0,0,0,-0.529774,-10.1654,-0.913022,20.9717,1.85976,2.51242,0.116465,-0.535003,-1.01729,-0.429389,2.3983,1.14165,0.851103,0.102037
897339,1,-1.57032,-0.522858,0.000444371,-2.09591,-0.001471,1.5697,0.785368,-1.5708,-0.523599,2.76071e-07,-2.0944,-1.13053e-06,1.5708,0.785398,0.000104751,0.000933766,-5.52258e-05,-0.000130433,0.000270361,7.31146e-05,-0.00064035,0,0,0,0,0,0,0,-0.529774,-10.1892,-0.913022,20.9439,1.84877,2.51882,0.129282,-0.535678,-1.02113,-0.430547,2.40143,1.14167,0.85146,0.102047
897340,1,-1.57032,-0.52286,0.000444831,-2.0959,-0.00147538,1.5697,0.785372,-1.5708,-0.523599,2.76071e-07,-2.0944,-1.13053e-06,1.5708,0.785398,6.9834e-05,6.56989e-05,-0.000593629,0.00102835,-0.00022666,4.87431e-05,0.000522536,0,0,0,0,0,0,0,-0.529774,-10.1654,-0.889218,20.8963,1.85976,2.51882,0.103647,-0.535897,-1.02607,-0.431005,2.40484,1.14171,0.851818,0.10211
897341,1,-1.57032,-0.52286,0.000439792,-2.0959,-0.00147324,1.5697,0.785375,-1.5708,-0.523599,2.76071e-07,-2.0944,-1.13053e-06,1.5708,0.785398,4.6556e-05,4.37993e-05,-0.00160218,0.000686823,-0.000151107,-0.000204864,0.00129779,0,0,0,0,0,0,0,-0.529774,-10.1654,-0.837644,20.8963,1.85976,2.52523,0.0780126,-0.535231,-1.02931,-0.430064,2.40672,1.14175,0.852012,0.102218
897342,1,-1.57032,-0.522862,0.000445068,-2.09591,-0.00147253,1.5697,0.785373,-1.5708,-0.523599,2.76071e-07,-2.0944,-1.13053e-06,1.5708,0.785398,3.10373e-05,-0.000620414,0.000138307,-0.000654798,-0.000100738,-0.000136576,0.00133991,0,0,0,0,0,0,0,-0.529774,-10.1377,-0.889218,20.9439,1.85976,2.52523,0.0651953,-0.533872,-1.03052,-0.427996,2.40739,1.14179,0.852103,0.102341
897343,1,-1.57032,-0.52286,0.000447109,-2.09591,-0.00147488,1.5697,0.785374,-1.5708,-0.523599,2.76071e-07,-2.0944,-1.13053e-06,1.5708,0.785398,-0.00053612,0.000236004,0.00129863,-0.000435824,0.000136292,-0.000328409,0.000418558,0,0,0,0,0,0,0,-0.50597,-10.1654,-0.940793,20.9439,1.85426,2.53164,0.0780126,-0.5331,-1.03103,-0.426872,2.40808,1.14182,0.85223,0.102435
897344,1,-1.57032,-0.52286,0.000444634,-2.0959,-0.00147709,1.5697,0.785369,-1.5708,-0.523599,2.76071e-07,-2.0944,-1.13053e-06,1.5708,0.785398,0.000849012,0.000157336,0.00021614,0.00138042,-0.00031604,1.84193e-05,-0.00161983,0,0,0,0,0,0,0,-0.557545,-10.1654,-0.913022,20.8725,1.86525,2.52523,0.129282,-0.533573,-1.03151,-0.427718,2.40874,1.1418,0.852363,0.10246
897345,1,-1.57032,-0.522862,0.000444919,-2.09591,-0.00147619,1.5697,0.78537,-1.5708,-0.523599,2.76071e-07,-2.0944,-1.13053e-06,1.5708,0.785398,0.000566008,-0.000544723,-0.000412719,-0.000749759,0.000196208,0.000486997,-0.00084253,0,0,0,0,0,0,0,-0.557545,-10.1377,-0.889218,20.9439,1.85426,2.51242,0.122873,-0.534672,-1.03137,-0.429407,2.40871,1.14175,0.852429,0.102423
897346,1,-1.57031,-0.522864,0.000445111,-2.0959,-0.00147311,1.5697,0.785367,-1.5708,-0.523599,2.76071e-07,-2.0944,-1.13053e-06,1.5708,0.785398,0.000934151,-0.000919961,0.000281666,5.72713e-05,0.000130805,0.000562024,-0.000561687,0,0,0,0,0,0,0,-0.581349,-10.1139,-0.913022,20.9201,1.85426,2.50601,0.122873,-0.535888,-1.03001,-0.431069,2.40813,1.14169,0.852464,0.10237
897347,1,-1.57031,-0.522862,0.000446566,-2.0959,-0.00147208,1.5697,0.785368,-1.5708,-0.523599,2.76071e-07,-2.0944,-1.13053e-06,1.5708,0.785398,0.000622767,-5.64952e-05,0.000837391,3.84049e-05,8.72035e-05,-0.000337394,-0.000611817,0,0,0,0,0,0,0,-0.581349,-10.1377,-0.940793,20.9201,1.85426,2.52523,0.129282,-0.537533,-1.02776,-0.433225,2.40726,1.14163,0.852475,0.102351
897348,1,-1.57032,-0.522862,0.000446402,-2.09591,-0.00147554,1.5697,0.785372,-1.5708,-0.523599,2.76071e-07,-2.0944,-1.13053e-06,1.5708,0.785398,-0.000791248,-3.76635e-05,0.000558261,-0.000531041,-0.000145315,-0.000462288,0.00172835,0,0,0,0,0,0,0,-0.529774,-10.1377,-0.940793,20.9439,1.85976,2.53164,0.071604,-0.539381,-1.02613,-0.435698,2.40672,1.14156,0.852497,0.102392
897349,1,-1.57032,-0.522858,0.000446529,-2.0959,-0.00147208,1.5697,0.785372,-1.5708,-0.523599,2.76071e-07,-2.0944,-1.13053e-06,1.5708,0.785398,-0.00108431,0.00118132,-0.00027744,0.000202911,0.000310024,0.000403885,0.00138959,0,0,0,0,0,0,0,-0.50597,-10.1892,-0.913022,20.9201,1.84877,2.51242,0.0651953,-0.540211,-1.02668,-0.436837,2.4072,1.14156,0.852587,0.102474
897350,1,-1.57032,-0.52286,0.000441471,-2.0959,-0.00147635,1.5697,0.785374,-1.5708,-0.523599,2.76071e-07,-2.0944,-1.13053e-06,1.5708,0.785398,0.000483552,0.000230733,-0.00139139,0.000135368,-0.000403669,3.18974e-05,0.000451678,0,0,0,0,0,0,0,-0.557545,-10.1654,-0.861447,20.9201,1.86525,2.51882,0.0780126,-0.539454,-1.02926,-0.435672,2.40835,1.14164,0.852702,0.102536
897351,1,-1.57032,-0.522862,0.00044294,-2.0959,-0.00147717,1.5697,0.785373,-1.5708,-0.523599,2.76071e-07,-2.0944,-1.13053e-06,1.5708,0.785398,-0.000327246,-0.000495792,-0.000277977,0.000647128,-0.000269112,2.12649e-05,-0.000173599,0,0,0,0,0,0,0,-0.529774,-10.1377,-0.889218,20.8963,1.86525,2.51882,0.09083,-0.537784,-1.03139,-0.433005,2.40893,1.14174,0.852745,0.102526
897352,1,-1.57032,-0.522862,0.000442781,-2.0959,-0.00147683,1.5697,0.785371,-1.5708,-0.523599,2.76071e-07,-2.0944,-1.13053e-06,1.5708,0.785398,-0.000218164,-0.000330528,-0.000185318,-0.00012534,2.40423e-05,0.000251536,-0.00106517,0,0,0,0,0,0,0,-0.529774,-10.1377,-0.889218,20.9201,1.85976,2.51242,0.116465,-0.536097,-1.03137,-0.43024,2.40834,1.14184,0.852687,0.102437
897353,1,-1.57032,-0.522862,0.000442727,-2.09591,-0.00147692,1.5697,0.78537,-1.5708,-0.523599,2.76071e-07,-2.0944,-1.13053e-06,1.5708,0.785398,-0.000145443,-0.000220352,-0.000123545,-0.000640332,1.60282e-05,0.00016769,-0.000947471,0,0,0,0,0,0,0,-0.529774,-10.1377,-0.889218,20.9439,1.85976,2.51242,0.122873,-0.534797,-1.03041,-0.428066,2.40751,1.14193,0.852617,0.102299
897354,1,-1.57032,-0.522858,0.000442891,-2.09591,-0.00147695,1.5697,0.785368,-1.5708,-0.523599,2.76071e-07,-2.0944,-1.13053e-06,1.5708,0.785398,-9.69617e-05,0.00105952,-0.000731977,-0.000426858,1.06854e-05,-0.000125565,-0.00137763,0,0,0,0,0,0,0,-0.529774,-10.1892,-0.861447,20.9439,1.85976,2.51882,0.143015,-0.53375,-1.03074,-0.426246,2.40766,1.14205,0.852628,0.102163
897355,1,-1.57032,-0.52286,0.000441465,-2.09591,-0.00147377,1.5697,0.785369,-1.5708,-0.523599,2.76071e-07,-2.0944,-1.13053e-06,1.5708,0.785398,-0.000621453,0.000149538,-0.000487985,-0.000934164,7.12363e-06,-0.000558428,0.00053964,0,0,0,0,0,0,0,-0.50597,-10.1654,-0.861447,20.9717,1.85976,2.53164,0.103647,-0.532564,-1.0333,-0.424183,2.40912,1.1422,0.85274,0.102077
897356,1,-1.57032,-0.52286,0.000444609,-2.0959,-0.0014727,1.5697,0.785376,-1.5708,-0.523599,2.76071e-07,-2.0944,-1.13053e-06,1.5708,0.785398,0.000792124,9.96918e-05,0.000881103,0.00114048,4.74909e-06,0.000339791,0.00178391,0,0,0,0,0,0,0,-0.557545,-10.1654,-0.913022,20.8963,1.85976,2.51242,0.0651953,-0.531811,-1.03603,-0.422747,2.41061,1.14233,0.852839,0.102069
897357,1,-1.57032,-0.52286,0.00044491,-2.09591,-0.00147555,1.5697,0.785373,-1.5708,-0.523599,2.76071e-07,-2.0944,-1.13053e-06,1.5708,0.785398,-0.000121531,6.64612e-05,3.05898e-05,-0.000353292,3.16606e-06,0.000226528,0.00023984,0,0,0,0,0,0,0,-0.529774,-10.1654,-0.889218,20.9439,1.85976,2.51242,0.09083,-0.532252,-1.03714,-0.423054,2.41094,1.14238,0.85281,0.102109
897358,1,-1.57032,-0.522858,0.000445568,-2.09591,-0.00147527,1.5697,0.78537,-1.5708,-0.523599,2.76071e-07,-2.0944,-1.13053e-06,1.5708,0.785398,-8.10209e-05,0.000601119,2.03932e-05,-0.000885132,0.000409012,0.000151018,0.000159893,0,0,0,0,0,0,0,-0.529774,-10.1892,-0.889218,20.9717,1.84877,2.51242,0.09083,-0.53315,-1.03805,-0.424036,2.41116,1.1424,0.852761,0.102136
897359,1,-1.57031,-0.522862,0.000447457,-2.0959,-0.001473,1.5697,0.785373,-1.5708,-0.523599,2.76071e-07,-2.0944,-1.13053e-06,1.5708,0.785398,0.00115241,-0.00080568,0.000570407,0.000616345,6.9224e-05,-0.000374039,0.000106596,0,0,0,0,0,0,0,-0.581349,-10.1377,-0.913022,20.9201,1.85426,2.52523,0.09083,-0.534255,-1.03888,-0.425289,2.41156,1.14241,0.852727,0.102125
897360,1,-1.57032,-0.52286,0.00044586,-2.0959,-0.00147204,1.5697,0.785371,-1.5708,-0.523599,2.76071e-07,-2.0944,-1.13053e-06,1.5708,0.785398,0.000211463,0.000112494,-0.00017654,0.000967714,4.61493e-05,0.000225359,-0.000878372,0,0,0,0,0,0,0,-0.557545,-10.1654,-0.889218,20.8963,1.85426,2.51242,0.116465,-0.53587,-1.03767,-0.427176,2.41069,1.14236,0.852569,0.102075
897361,1,-1.57032,-0.522862,0.000443754,-2.09591,-0.00147233,1.5697,0.78537,-1.5708,-0.523599,2.76071e-07,-2.0944,-1.13053e-06,1.5708,0.785398,-0.000508639,-0.000574618,-0.000117694,-0.000468477,-0.000172684,-0.000324479,-0.00082294,0,0,0,0,0,0,0,-0.529774,-10.1377,-0.889218,20.9439,1.85976,2.52523,0.122873,-0.537127,-1.035,-0.428482,2.40882,1.1423,0.852313,0.101997
897362,1,-1.57032,-0.52286,0.000444722,-2.09591,-0.00147162,1.5697,0.785376,-1.5708,-0.523599,2.76071e-07,-2.0944,-1.13053e-06,1.5708,0.785398,0.000310521,0.000266535,0.00047835,-0.000961929,8.83276e-05,2.10397e-05,0.00135024,0,0,0,0,0,0,0,-0.557545,-10.1654,-0.913022,20.9717,1.85426,2.51882,0.071604,-0.537757,-1.03297,-0.42891,2.40763,1.14227,0.852138,0.101923
897363,1,-1.57032,-0.522857,0.000442999,-2.0959,-0.00147478,1.5697,0.785374,-1.5708,-0.523599,2.76071e-07,-2.0944,-1.13053e-06,1.5708,0.785398,0.000207014,0.00129131,-0.000887526,0.000565142,5.88851e-05,1.40265e-05,0.000425445,0,0,0,0,0,0,0,-0.557545,-10.213,-0.861447,20.9201,1.85426,2.51882,0.0844213,-0.53815,-1.03322,-0.428958,2.40783,1.14228,0.85209,0.10187
897364,1,-1.57031,-0.52286,0.00044345,-2.0959,-0.00147386,1.5697,0.785371,-1.5708,-0.523599,2.76071e-07,-2.0944,-1.13053e-06,1.5708,0.785398,0.000694821,-0.000252748,5.79298e-05,0.000933575,-0.000367644,0.00024671,4.62712e-05,0,0,0,0,0,0,0,-0.581349,-10.1654,-0.889218,20.8963,1.86525,2.51242,0.09083,-0.538317,-1.03479,-0.428511,2.40823,1.14228,0.85203,0.101806
897365,1,-1.57032,-0.522858,0.00044295,-2.0959,-0.00147573,1.5697,0.78537,-1.5708,-0.523599,2.76071e-07,-2.0944,-1.13053e-06,1.5708,0.785398,-0.000743212,0.000388313,3.86199e-05,6.55726e-05,-4.16457e-05,-0.000310245,-0.000918588,0,0,0,0,0,0,0,-0.529774,-10.1892,-0.889218,20.9201,1.85976,2.52523,0.116465,-0.538404,-1.03549,-0.427857,2.40778,1.14227,0.851881,0.101708
897366,1,-1.57032,-0.522858,0.000444454,-2.09591,-0.00147533,1.5697,0.78537,-1.5708,-0.523599,2.76071e-07,-2.0944,-1.13053e-06,1.5708,0.785398,-0.00105229,0.000258876,0.000582559,-0.000513096,0.000379137,3.05292e-05,-0.000849751,0,0,0,0,0,0,0,-0.50597,-10.1892,-0.913022,20.9439,1.84877,2.51882,0.122873,-0.538276,-1.03605,-0.427024,2.40739,1.14229,0.851756,0.101588
897367,1,-1.57032,-0.522862,0.000442728,-2.09591,-0.00147363,1.5697,0.785367,-1.5708,-0.523599,2.76071e-07,-2.0944,-1.13053e-06,1.5708,0.785398,0.000504902,-0.00103384,-0.00016844,-0.000991677,-0.000154143,0.000257712,-0.000566501,0,0,0,0,0,0,0,-0.557545,-10.1377,-0.889218,20.9717,1.85976,2.51242,0.122873,-0.538026,-1.03663,-0.426169,2.40756,1.14233,0.851722,0.101482
897368,1,-1.57032,-0.52286,0.00044438,-2.0959,-0.00147525,1.5697,0.785368,-1.5708,-0.523599,2.76071e-07,-2.0944,-1.13053e-06,1.5708,0.785398,-0.000313013,-3.96142e-05,0.000444519,0.00110212,0.000100689,-0.00030291,0.00033441,0,0,0,0,0,0,0,-0.529774,-10.1654,-0.913022,20.8963,1.85426,2.52523,0.103647,-0.538072,-1.03571,-0.425763,2.40728,1.14236,0.851676,0.101424
897369,0.99,-1.57032,-0.522862,0.000446505,-2.09591,-0.00147538,1.5697,0.785369,-1.5708,-0.523599,2.76071e-07,-2.0944,-1.13053e-06,1.5708,0.785398,-0.000208675,-0.000676023,0.000296346,-0.0015853,0.000270576,-0.00020194,-0.000251778,0,0,0,0,0,0,0,-0.529774,-10.1377,-0.913022,20.9955,1.84877,2.52523,0.116465,-0.538371,-1.03375,-0.425774,2.40649,1.14235,0.851593,0.101423
897370,0.99,-1.57032,-0.52286,0.000447031,-2.0959,-0.00147562,1.5697,0.785373,-1.5708,-0.523599,2.76071e-07,-2.0944,-1.13053e-06,1.5708,0.785398,-0.000695929,0.000198932,0.000847178,0.00070637,0.000180384,-0.000134627,0.000781584,0,0,0,0,0,0,0,-0.50597,-10.1654,-0.940793,20.9201,1.84877,2.52523,0.09083,-0.538774,-1.03211,-0.426106,2.40602,1.14233,0.851549,0.101472
897371,0.99,-1.57032,-0.52286,0.000448688,-2.0959,-0.00147373,1.5697,0.785372,-1.5708,-0.523599,2.76071e-07,-2.0944,-1.13053e-06,1.5708,0.785398,-0.00111357,0.000132621,0.000564785,0.000470913,-0.000286645,0.000147608,0.000995774,0,0,0,0,0,0,0,-0.478199,-10.1654,-0.940793,20.9201,1.85976,2.51882,0.0780126,-0.539054,-1.03099,-0.426532,2.40554,1.14229,0.851491,0.101552
897372,0.99,-1.57032,-0.52286,0.000447109,-2.0959,-0.00147528,1.5697,0.785373,-1.5708,-0.523599,2.76071e-07,-2.0944,-1.13053e-06,1.5708,0.785398,0.000464048,8.84141e-05,0.000376524,0.000313942,1.23539e-05,0.000335764,0.000189131,0,0,0,0,0,0,0,-0.529774,-10.1654,-0.940793,20.9201,1.85426,2.51242,0.09083,-0.539174,-1.03022,-0.426983,2.40475,1.14223,0.85138,0.101631
897373,0.99,-1.57032,-0.522862,0.000446765,-2.09591,-0.001476,1.5697,0.785373,-1.5708,-0.523599,2.76071e-07,-2.0944,-1.13053e-06,1.5708,0.785398,-0.00089706,-0.000590671,-0.000398598,-0.000347517,8.23594e-06,0.000223843,0.000126087,0,0,0,0,0,0,0,-0.478199,-10.1377,-0.913022,20.9439,1.85426,2.51242,0.09083,-0.539059,-1.02946,-0.42723,2.40392,1.14217,0.851266,0.101672
897374,0.99,-1.57032,-0.522858,0.000445169,-2.0959,-0.00147304,1.5697,0.785375,-1.5708,-0.523599,2.76071e-07,-2.0944,-1.13053e-06,1.5708,0.785398,5.15733e-05,0.000812645,-0.000265732,0.000881946,5.49062e-06,-0.000562848,0.000558776,0,0,0,0,0,0,0,-0.50597,-10.1892,-0.913022,20.8963,1.85426,2.53164,0.0780126,-0.538274,-1.02888,-0.426622,2.40322,1.14213,0.851166,0.101663
897375,0.99,-1.57032,-0.52286,0.000445097,-2.09591,-0.00147525,1.5697,0.785371,-1.5708,-0.523599,2.76071e-07,-2.0944,-1.13053e-06,1.5708,0.785398,0.000591194,-1.50486e-05,-0.000733967,-0.00173209,3.66042e-06,-0.000137873,-0.00105164,0,0,0,0,0,0,0,-0.529774,-10.1654,-0.889218,20.9955,1.85426,2.52523,0.116465,-0.537082,-1.02972,-0.425464,2.40337,1.14212,0.851147,0.101605
897376,0.99,-1.57031,-0.522862,0.00044517,-2.09591,-0.00147721,1.5697,0.78537,-1.5708,-0.523599,2.76071e-07,-2.0944,-1.13053e-06,1.5708,0.785398,0.00160056,-0.000659646,6.75008e-05,-0.000597912,-0.000404461,-9.19155e-05,-0.00093845,0,0,0,0,0,0,0,-0.581349,-10.1377,-0.913022,20.9717,1.86525,2.52523,0.122873,-0.536406,-1.03152,-0.424956,2.40463,1.14211,0.851269,0.101512
897377,0.98,-1.57032,-0.522862,0.000442967,-2.0959,-0.00147807,1.5697,0.785372,-1.5708,-0.523599,2.76071e-07,-2.0944,-1.13053e-06,1.5708,0.785398,-0.000139389,-0.000439764,-0.000511811,0.000807818,-0.000473091,-0.000298636,8.64437e-05,0,0,0,0,0,0,0,-0.529774,-10.1377,-0.889218,20.9201,1.87074,2.53164,0.103647,-0.536406,-1.03195,-0.425321,2.40549,1.14206,0.851385,0.101418
897380,0.95,-1.57032,-0.522862,0.000440762,-2.0959,-0.00147696,1.5697,0.785371,-1.5708,-0.523599,2.76071e-07,-2.0944,-1.13053e-06,1.5708,0.785398,-0.000185659,-0.000274659,-0.000924998,0.00106426,-0.000102499,0.000491726,-0.000343612,0,0,0,0,0,0,0,-0.529774,-10.1377,-0.861447,20.8963,1.85976,2.51242,0.116465,-0.535889,-1.02931,-0.425507,2.40442,1.14197,0.851399,0.101323
897381,0.95,-1.57032,-0.52286,0.000444835,-2.0959,-0.00147438,1.5697,0.785376,-1.5708,-0.523599,2.76071e-07,-2.0944,-1.13053e-06,1.5708,0.785398,0.000525841,0.000466508,3.29488e-05,0.000152695,-0.000271783,9.04584e-05,0.00143244,0,0,0,0,0,0,0,-0.557545,-10.1654,-0.889218,20.9201,1.86525,2.51882,0.071604,-0.534851,-1.02736,-0.424164,2.40277,1.14197,0.851266,0.101355
897382,0.95,-1.57031,-0.522862,0.000441463,-2.0959,-0.0014721,1.5697,0.785367,-1.5708,-0.523599,2.76071e-07,-2.0944,-1.13053e-06,1.5708,0.785398,0.000907373,-0.000338609,-0.000627648,0.00186503,0.000225712,0.000297665,-0.000943913,0,0,0,0,0,0,0,-0.581349,-10.1377,-0.861447,20.8448,1.85426,2.51242,0.122873,-0.534284,-1.02575,-0.423301,2.401,1.14195,0.851103,0.101406
897383,0.95,-1.57032,-0.522862,0.000442938,-2.0959,-0.00147296,1.5697,0.785368,-1.5708,-0.523599,2.76071e-07,-2.0944,-1.13053e-06,1.5708,0.785398,-0.00115832,-0.000225739,0.000231182,-0.000519882,-0.000256426,-3.89159e-05,-0.00110399,0,0,0,0,0,0,0,-0.50597,-10.1377,-0.889218,20.9201,1.86525,2.51882,0.135691,-0.534067,-1.02384,-0.422795,2.39897,1.14193,0.850913,0.101454
897384,0.95,-1.57032,-0.522862,0.00044445,-2.09591,-0.00147543,1.5697,0.785373,-1.5708,-0.523599,2.76071e-07,-2.0944,-1.13053e-06,1.5708,0.785398,-0.000215403,-0.000150493,0.000710933,-0.0009034,3.24997e-05,0.000448774,0.000688158,0,0,0,0,0,0,0,-0.529774,-10.1377,-0.913022,20.9439,1.85976,2.50601,0.0972387,-0.533881,-1.02262,-0.422408,2.39784,1.14196,0.850828,0.101518
897385,0.95,-1.57032,-0.522862,0.000442727,-2.0959,-0.00147584,1.5697,0.785377,-1.5708,-0.523599,2.76071e-07,-2.0944,-1.13053e-06,1.5708,0.785398,0.000506012,-0.000100329,-8.28565e-05,0.000511357,0.000225117,-0.000175535,0.00188293,0,0,0,0,0,0,0,-0.557545,-10.1377,-0.889218,20.8963,1.85426,2.51882,0.0587866,-0.534126,-1.02261,-0.422704,2.39793,1.142,0.850864,0.101624
897386,0.95,-1.57032,-0.522862,0.00044484,-2.09591,-0.0014768,1.5697,0.785372,-1.5708,-0.523599,2.76071e-07,-2.0944,-1.13053e-06,1.5708,0.785398,0.000337341,-6.68857e-05,-5.52377e-05,-0.000772719,-5.33725e-05,-0.000117024,0.000543207,0,0,0,0,0,0,0,-0.557545,-10.1377,-0.889218,20.9439,1.85976,2.51882,0.0780126,-0.534796,-1.02304,-0.423474,2.39838,1.14204,0.85092,0.101735
897387,0.95,-1.57032,-0.522862,0.000445084,-2.0959,-0.00147691,1.5697,0.785374,-1.5708,-0.523599,2.76071e-07,-2.0944,-1.13053e-06,1.5708,0.785398,-0.000981532,-4.45904e-05,0.000519987,0.000598478,-3.55817e-05,0.000159343,0.000362138,0,0,0,0,0,0,0,-0.50597,-10.1377,-0.913022,20.8963,1.85976,2.51242,0.0780126,-0.535412,-1.02371,-0.4241,2.39896,1.14208,0.850974,0.101793
897388,0.95,-1.57032,-0.522862,0.000444609,-2.0959,-0.00147695,1.5697,0.785371,-1.5708,-0.523599,2.76071e-07,-2.0944,-1.13053e-06,1.5708,0.785398,-9.75425e-05,-2.9727e-05,0.000346658,0.000955797,-2.37211e-05,-0.00013113,-0.00118273,0,0,0,0,0,0,0,-0.529774,-10.1377,-0.913022,20.8725,1.85976,2.51882,0.116465,-0.535805,-1.02392,-0.424501,2.39897,1.14212,0.85095,0.101768
897389,0.95,-1.57032,-0.522862,0.00044445,-2.09591,-0.00147696,1.5697,0.785368,-1.5708,-0.523599,2.76071e-07,-2.0944,-1.13053e-06,1.5708,0.785398,-0.00062184,-1.9818e-05,0.000231105,-0.00103324,-1.58141e-05,-8.74201e-05,-0.000788486,0,0,0,0,0,0,0,-0.50597,-10.1377,-0.913022,20.9439,1.85976,2.51882,0.116465,-0.536046,-1.02386,-0.42479,2.39861,1.14217,0.850879,0.101678
897390,0.95,-1.57032,-0.52286,0.000446346,-2.09591,-0.00147377,1.5697,0.785364,-1.5708,-0.523599,2.76071e-07,-2.0944,-1.13053e-06,1.5708,0.785398,-0.00041456,0.000636402,0.000803684,-0.00133844,-1.05427e-05,-5.828e-05,-0.00123773,0,0,0,0,0,0,0,-0.50597,-10.1654,-0.940793,20.9717,1.85976,2.51882,0.135691,-0.536214,-1.02542,-0.425114,2.39957,1.14226,0.850942,0.10157
897391,0.95,-1.57032,-0.522858,0.000440761,-2.09591,-0.00147529,1.5697,0.785369,-1.5708,-0.523599,2.76071e-07,-2.0944,-1.13053e-06,1.5708,0.785398,-0.000276373,0.00098108,-0.00132025,-0.000242679,0.000196422,-0.000276212,-0.000350438,0,0,0,0,0,0,0,-0.50597,-10.1892,-0.861447,20.9439,1.85426,2.52523,0.122873,-0.535984,-1.02949,-0.424967,2.40221,1.1424,0.851165,0.101493
897392,0.95,-1.57032,-0.52286,0.000444834,-2.0959,-0.00147281,1.5697,0.785375,-1.5708,-0.523599,2.76071e-07,-2.0944,-1.13053e-06,1.5708,0.785398,0.00102218,9.72413e-05,-0.000230553,0.000395026,0.000130948,-0.000184142,0.00166525,0,0,0,0,0,0,0,-0.557545,-10.1654,-0.889218,20.9201,1.85426,2.52523,0.071604,-0.535188,-1.03422,-0.423902,2.40493,1.14255,0.851379,0.101478
897393,0.95,-1.57032,-0.522862,0.000443412,-2.09591,-0.00147259,1.5697,0.785374,-1.5708,-0.523599,2.76071e-07,-2.0944,-1.13053e-06,1.5708,0.785398,-0.000524975,-0.000584786,-0.000153702,-0.000293461,-0.000116152,0.000351957,0.00158488,0,0,0,0,0,0,0,-0.50597,-10.1377,-0.889218,20.9439,1.85976,2.51242,0.0587866,-0.534426,-1.03683,-0.42278,2.40625,1.14265,0.851465,0.101513
897394,0.95,-1.57032,-0.522864,0.000442938,-2.0959,-0.00147231,1.5697,0.785372,-1.5708,-0.523599,2.76071e-07,-2.0944,-1.13053e-06,1.5708,0.785398,0.000856443,-0.00094667,-0.000102468,0.0014748,-7.74346e-05,-0.00024008,-0.000367566,0,0,0,0,0,0,0,-0.557545,-10.1139,-0.889218,20.8725,1.85976,2.52523,0.0972387,-0.534006,-1.03578,-0.42216,2.40552,1.14268,0.851377,0.101538
897395,0.95,-1.57031,-0.522862,0.00044445,-2.09591,-0.00147222,1.5697,0.785373,-1.5708,-0.523599,2.76071e-07,-2.0944,-1.13053e-06,1.5708,0.785398,0.00112777,-7.43011e-05,0.0004885,-0.000687239,-5.1623e-05,-0.000160053,-7.68482e-06,0,0,0,0,0,0,0,-0.581349,-10.1377,-0.913022,20.9439,1.85976,2.52523,0.09083,-0.534364,-1.03214,-0.422607,2.4033,1.14264,0.851167,0.101509
897396,0.95,-1.57032,-0.522862,0.000442727,-2.09591,-0.00147219,1.5697,0.78537,-1.5708,-0.523599,2.76071e-07,-2.0944,-1.13053e-06,1.5708,0.785398,0.000195037,-4.95341e-05,-0.000231145,-0.000458159,-3.44154e-05,0.000130657,-0.00119192,0,0,0,0,0,0,0,-0.557545,-10.1377,-0.889218,20.9439,1.85976,2.51882,0.122873,-0.535522,-1.02907,-0.424106,2.40162,1.14257,0.851025,0.101432
897397,0.95,-1.57032,-0.522862,0.00044438,-2.09591,-0.00147476,1.5697,0.78537,-1.5708,-0.523599,2.76071e-07,-2.0944,-1.13053e-06,1.5708,0.785398,-0.000519589,-3.30227e-05,0.000402715,-0.00030544,0.000180507,0.000324463,-0.000794612,0,0,0,0,0,0,0,-0.529774,-10.1377,-0.913022,20.9439,1.85426,2.51242,0.122873,-0.536499,-1.0277,-0.425335,2.40114,1.14256,0.851004,0.10133
897398,0.95,-1.57032,-0.52286,0.000442704,-2.0959,-0.00147644,1.5697,0.785371,-1.5708,-0.523599,2.76071e-07,-2.0944,-1.13053e-06,1.5708,0.785398,0.000303221,0.000627599,-0.000288335,0.000353186,-8.31126e-05,-2.105e-05,0.000657053,0,0,0,0,0,0,0,-0.557545,-10.1654,-0.889218,20.9201,1.85976,2.51882,0.09083,-0.536941,-1.02749,-0.425818,2.40117,1.14258,0.851016,0.101242
897399,0.94,-1.57032,-0.52286,0.000444372,-2.09591,-0.00147679,1.5697,0.785372,-1.5708,-0.523599,2.76071e-07,-2.0944,-1.13053e-06,1.5708,0.785398,0.000202147,0.000418399,0.000364588,-0.00152778,-5.54084e-05,0.000223326,0.000200677,0,0,0,0,0,0,0,-0.557545,-10.1654,-0.913022,20.9955,1.85976,2.51242,0.0972387,-0.537221,-1.02889,-0.42602,2.40201,1.14262,0.851079,0.101192
897400,0.93,-1.57032,-0.522864,0.000444371,-2.0959,-0.00147371,1.5697,0.785371,-1.5708,-0.523599,2.76071e-07,-2.0944,-1.13053e-06,1.5708,0.785398,-0.00107166,-0.000927493,0.000243059,0.00130153,-3.69389e-05,-0.000325834,0.000608502,0,0,0,0,0,0,0,-0.50597,-10.1139,-0.913022,20.8963,1.85976,2.52523,0.0844213,-0.537403,-1.03035,-0.426095,2.403,1.14267,0.851147,0.101163
897401,0.93,-1.57032,-0.522864,0.000444371,-2.0959,-0.00147588,1.5697,0.785373,-1.5708,-0.523599,2.76071e-07,-2.0944,-1.13053e-06,1.5708,0.785398,-0.000157629,-0.000618329,0.000162039,0.000867686,-2.46259e-05,-0.000217223,0.000168309,0,0,0,0,0,0,0,-0.529774,-10.1139,-0.913022,20.8963,1.85976,2.52523,0.09083,-0.537236,-1.02871,-0.42578,2.40211,1.1427,0.851039,0.101128
897402,0.93,-1.57032,-0.522858,0.000440752,-2.0959,-0.00147341,1.5697,0.785371,-1.5708,-0.523599,2.76071e-07,-2.0944,-1.13053e-06,1.5708,0.785398,-0.000105086,0.00135102,-0.0010984,2.16455e-05,-1.64173e-05,9.25438e-05,-0.000599871,0,0,0,0,0,0,0,-0.529774,-10.1892,-0.861447,20.9201,1.85976,2.51882,0.110056,-0.536572,-1.02604,-0.424744,2.40026,1.14272,0.850831,0.101069
897403,0.93,-1.57032,-0.522862,0.000448451,-2.09591,-0.00147259,1.5697,0.785371,-1.5708,-0.523599,2.76071e-07,-2.0944,-1.13053e-06,1.5708,0.785398,-0.000626869,-0.000305747,0.00112377,-0.00174881,-1.09449e-05,6.16958e-05,-0.000637273,0,0,0,0,0,0,0,-0.50597,-10.1377,-0.940793,20.9955,1.85976,2.51882,0.116465,-0.535662,-1.02614,-0.423344,2.40006,1.1428,0.85078,0.100995
897404,0.93,-1.57032,-0.52286,0.000445541,-2.0959,-0.00147673,1.5697,0.785375,-1.5708,-0.523599,2.76071e-07,-2.0944,-1.13053e-06,1.5708,0.785398,0.000788513,0.000445783,-0.000457244,0.00115418,-0.000414198,4.11306e-05,0.000999305,0,0,0,0,0,0,0,-0.557545,-10.1654,-0.889218,20.8963,1.87074,2.51882,0.0780126,-0.535206,-1.02778,-0.422678,2.4011,1.14289,0.850858,0.100932
897405,0.93,-1.57032,-0.522862,0.000447267,-2.09591,-0.00147206,1.5697,0.785374,-1.5708,-0.523599,2.76071e-07,-2.0944,-1.13053e-06,1.5708,0.785398,-0.00068075,-0.000352425,0.000901597,-0.0015506,0.00053767,2.74204e-05,0.000191486,0,0,0,0,0,0,0,-0.50597,-10.1377,-0.940793,20.9955,1.84877,2.51882,0.09083,-0.535328,-1.02898,-0.422897,2.40202,1.14295,0.85093,0.100884
897406,0.93,-1.57032,-0.522862,0.000448766,-2.09591,-0.00147132,1.5697,0.785373,-1.5708,-0.523599,2.76071e-07,-2.0944,-1.13053e-06,1.5708,0.785398,0.000102978,-0.00023495,0.000601065,0.000172694,0.000358447,0.000255639,-0.000109702,0,0,0,0,0,0,0,-0.529774,-10.1377,-0.940793,20.9439,1.84877,2.51242,0.0972387,-0.535834,-1.02954,-0.423808,2.40285,1.143,0.851002,0.100831
897407,0.93,-1.57031,-0.52286,0.000443516,-2.09591,-0.00147169,1.5697,0.785373,-1.5708,-0.523599,2.76071e-07,-2.0944,-1.13053e-06,1.5708,0.785398,0.00127508,0.00049298,-0.000805716,0.000115129,3.55141e-05,-0.000541651,0.000876301,0,0,0,0,0,0,0,-0.581349,-10.1654,-0.889218,20.9439,1.85426,2.53164,0.071604,-0.536612,-1.02959,-0.425137,2.40345,1.14302,0.851047,0.100758
897408,0.93,-1.57032,-0.522862,0.000446592,-2.09591,-0.00147283,1.5697,0.785367,-1.5708,-0.523599,2.76071e-07,-2.0944,-1.13053e-06,1.5708,0.785398,-0.000356374,-0.00032096,0.000669282,7.67529e-05,-0.000383225,0.000350976,-0.000839953,0,0,0,0,0,0,0,-0.529774,-10.1377,-0.940793,20.9439,1.86525,2.51242,0.110056,-0.537353,-1.02943,-0.426288,2.40365,1.143,0.851036,0.10066
897409,0.93,-1.57032,-0.522858,0.000442791,-2.0959,-0.00147599,1.5697,0.785367,-1.5708,-0.523599,2.76071e-07,-2.0944,-1.13053e-06,1.5708,0.785398,-0.000237583,0.000992452,-0.000760238,0.000607981,-0.000255483,0.000233984,-0.00178067,0,0,0,0,0,0,0,-0.529774,-10.1892,-0.889218,20.9201,1.86525,2.51242,0.143015,-0.537616,-1.02934,-0.426764,2.40361,1.143,0.850982,0.100533
897410,0.93,-1.57032,-0.52286,0.000444401,-2.09591,-0.00147583,1.5697,0.785368,-1.5708,-0.523599,2.76071e-07,-2.0944,-1.13053e-06,1.5708,0.785398,-0.0007152,0.000104823,4.99866e-05,-0.000151492,0.000236579,-0.000318728,-0.000915847,0,0,0,0,0,0,0,-0.50597,-10.1654,-0.913022,20.9439,1.85426,2.52523,0.135691,-0.537015,-1.02992,-0.426071,2.40365,1.14304,0.850914,0.100411
897411,0.93,-1.57032,-0.522864,0.000448001,-2.09591,-0.00147486,1.5697,0.785376,-1.5708,-0.523599,2.76071e-07,-2.0944,-1.13053e-06,1.5708,0.785398,8.00117e-05,-0.00113654,0.00123975,-0.000100994,0.000598529,-0.000212486,0.00176302,0,0,0,0,0,0,0,-0.529774,-10.1139,-0.964597,20.9439,1.84236,2.52523,0.071604,-0.53636,-1.02987,-0.425437,2.40352,1.14308,0.850845,0.100354
897412,0.93,-1.57032,-0.522862,0.000444375,-2.09591,-0.00147569,1.5697,0.785373,-1.5708,-0.523599,2.76071e-07,-2.0944,-1.13053e-06,1.5708,0.785398,5.33412e-05,-0.000200884,-0.000379926,-6.73296e-05,0.00016166,9.57019e-05,0.000225914,0,0,0,0,0,0,0,-0.529774,-10.1377,-0.913022,20.9439,1.84877,2.51882,0.0972387,-0.536396,-1.02781,-0.425948,2.40274,1.14307,0.850753,0.100372
897413,0.93,-1.57032,-0.522862,0.000440753,-2.0959,-0.00147695,1.5697,0.785373,-1.5708,-0.523599,2.76071e-07,-2.0944,-1.13053e-06,1.5708,0.785398,3.55608e-05,-0.000133923,-0.00145971,0.000511926,-0.000299128,0.00030116,0.0013374,0,0,0,0,0,0,0,-0.529774,-10.1377,-0.861447,20.9201,1.85976,2.51242,0.0651953,-0.536069,-1.02508,-0.425874,2.40162,1.14304,0.850641,0.100414
897414,0.93,-1.57032,-0.522858,0.000444372,-2.09591,-0.00147377,1.5697,0.785375,-1.5708,-0.523599,2.76071e-07,-2.0944,-1.13053e-06,1.5708,0.785398,-0.000533105,0.00111714,0.000233286,-0.000215528,-0.000199418,-0.000273944,0.000654244,0,0,0,0,0,0,0,-0.50597,-10.1892,-0.913022,20.9439,1.85976,2.52523,0.071604,-0.534799,-1.02375,-0.424342,2.401,1.14305,0.850554,0.100434
897415,0.93,-1.57032,-0.522862,0.000442701,-2.09591,-0.00147148,1.5697,0.785373,-1.5708,-0.523599,2.76071e-07,-2.0944,-1.13053e-06,1.5708,0.785398,-0.000355403,-0.000461663,-0.000401288,-0.000143685,0.000273955,5.47293e-05,-0.000275914,0,0,0,0,0,0,0,-0.50597,-10.1377,-0.889218,20.9439,1.84877,2.51882,0.09083,-0.533322,-1.02431,-0.422572,2.4013,1.14307,0.85054,0.100401
897416,0.93,-1.57032,-0.52286,0.000444371,-2.0959,-0.00147174,1.5697,0.785369,-1.5708,-0.523599,2.76071e-07,-2.0944,-1.13053e-06,1.5708,0.785398,0.000319876,0.000341839,0.000289287,0.00101783,-2.08136e-05,0.000273845,-0.0016081,0,0,0,0,0,0,0,-0.529774,-10.1654,-0.913022,20.8963,1.85426,2.51242,0.129282,-0.532239,-1.02483,-0.421443,2.40155,1.14306,0.850522,0.100299
897417,0.93,-1.57032,-0.52286,0.000440752,-2.09591,-0.00147482,1.5697,0.78537,-1.5708,-0.523599,2.76071e-07,-2.0944,-1.13053e-06,1.5708,0.785398,0.000213251,0.000227892,-0.00101357,-0.000435068,-1.38757e-05,-0.000292154,-0.000834705,0,0,0,0,0,0,0,-0.529774,-10.1654,-0.861447,20.9439,1.85426,2.52523,0.122873,-0.531591,-1.02494,-0.420895,2.40139,1.14302,0.850464,0.100161
897418,0.93,-1.57032,-0.52286,0.000444371,-2.09591,-0.00147265,1.5697,0.785368,-1.5708,-0.523599,2.76071e-07,-2.0944,-1.13053e-06,1.5708,0.785398,-0.000414645,0.000151928,0.000530714,-0.000939659,-9.25047e-06,-0.00019477,-0.000319111,0,0,0,0,0,0,0,-0.50597,-10.1654,-0.913022,20.9717,1.85426,2.52523,0.116465,-0.531069,-1.02594,-0.420481,2.40194,1.14298,0.850485,0.100043
897419,0.93,-1.57032,-0.522864,0.000446502,-2.09591,-0.00147512,1.5697,0.785374,-1.5708,-0.523599,2.76071e-07,-2.0944,-1.13053e-06,1.5708,0.785398,0.000280382,-0.00110514,0.000353809,2.31743e-05,-6.16698e-06,-0.000129846,0.00121141,0,0,0,0,0,0,0,-0.529774,-10.1139,-0.913022,20.9439,1.85426,2.52523,0.0780126,-0.530941,-1.0267,-0.420706,2.40288,1.14293,0.850577,0.0999841
897420,0.93,-1.57032,-0.52286,0.000443411,-2.09591,-0.00147656,1.5697,0.785373,-1.5708,-0.523599,2.76071e-07,-2.0944,-1.13053e-06,1.5708,0.785398,-0.00036989,0.000469666,-0.000320939,1.54496e-05,-0.000207562,0.000388154,9.55317e-05,0,0,0,0,0,0,0,-0.50597,-10.1654,-0.889218,20.9439,1.85976,2.51242,0.0972387,-0.531185,-1.02603,-0.421528,2.40318,1.14284,0.850627,0.0999728
897421,0.93,-1.57032,-0.522862,0.000442937,-2.0959,-0.00147683,1.5697,0.785371,-1.5708,-0.523599,2.76071e-07,-2.0944,-1.13053e-06,1.5708,0.785398,0.000310218,-0.000336504,-0.000213959,0.000567112,-0.000138375,2.14101e-05,-0.00041103,0,0,0,0,0,0,0,-0.529774,-10.1377,-0.889218,20.9201,1.85976,2.51882,0.110056,-0.531204,-1.02494,-0.421991,2.40296,1.14275,0.850614,0.0999739
897422,0.93,-1.57031,-0.522862,0.000442961,-2.09591,-0.00147692,1.5697,0.785371,-1.5708,-0.523599,2.76071e-07,-2.0944,-1.13053e-06,1.5708,0.785398,0.00141324,-0.000224336,-0.000792254,-0.000178738,-9.22497e-05,0.000251632,0.000675416,0,0,0,0,0,0,0,-0.581349,-10.1377,-0.861447,20.9439,1.85976,2.51242,0.0844213,-0.531208,-1.02363,-0.42225,2.40237,1.14266,0.850554,0.0999749
897423,0.93,-1.57032,-0.52286,0.000443437,-2.09591,-0.00147315,1.5697,0.785371,-1.5708,-0.523599,2.76071e-07,-2.0944,-1.13053e-06,1.5708,0.785398,0.000385347,0.000500057,0.000121445,-0.000768772,0.000141951,-0.000544322,-0.000499159,0,0,0,0,0,0,0,-0.557545,-10.1654,-0.889218,20.9717,1.85426,2.53164,0.110056,-0.531608,-1.02288,-0.422811,2.4022,1.14257,0.85053,0.099979
897424,0.93,-1.57032,-0.52286,0.000446565,-2.09591,-0.0014759,1.5697,0.785371,-1.5708,-0.523599,2.76071e-07,-2.0944,-1.13053e-06,1.5708,0.785398,-0.000949528,0.000333371,0.00128739,0.000137099,-0.000108817,0.000349196,-0.000570131,0,0,0,0,0,0,0,-0.50597,-10.1654,-0.940793,20.9439,1.85976,2.51242,0.116465,-0.53239,-1.02385,-0.423899,2.40311,1.1425,0.850599,0.0999836
897425,0.93,-1.57032,-0.522862,0.000444453,-2.0959,-0.001476,1.5697,0.785371,-1.5708,-0.523599,2.76071e-07,-2.0944,-1.13053e-06,1.5708,0.785398,-7.62067e-05,-0.000427366,0.000208645,0.00120502,0.000130906,-4.56191e-06,-0.000380088,0,0,0,0,0,0,0,-0.529774,-10.1377,-0.913022,20.8963,1.85426,2.51882,0.116465,-0.533306,-1.02469,-0.425373,2.40368,1.14243,0.850619,0.0999962
897426,0.93,-1.57032,-0.522858,0.000446529,-2.09591,-0.00147365,1.5697,0.785373,-1.5708,-0.523599,2.76071e-07,-2.0944,-1.13053e-06,1.5708,0.785398,0.000598809,0.000921515,0.000139097,-0.000310275,-0.00011618,-0.0002404,0.000458685,0,0,0,0,0,0,0,-0.557545,-10.1892,-0.913022,20.9439,1.85976,2.52523,0.0972387,-0.53417,-1.02465,-0.426799,2.40341,1.14235,0.850546,0.100035
897427,0.93,-1.57032,-0.522862,0.00044342,-2.09591,-0.00147586,1.5697,0.785374,-1.5708,-0.523599,2.76071e-07,-2.0944,-1.13053e-06,1.5708,0.785398,-0.000250408,-0.000592083,-0.000464081,-0.00020685,-7.74532e-05,-0.000160267,0.000543149,0,0,0,0,0,0,0,-0.529774,-10.1377,-0.889218,20.9439,1.85976,2.52523,0.09083,-0.534743,-1.02508,-0.427679,2.40346,1.1423,0.85051,0.100103
897428,0.93,-1.57032,-0.522862,0.00044294,-2.0959,-0.0014734,1.5697,0.785374,-1.5708,-0.523599,2.76071e-07,-2.0944,-1.13053e-06,1.5708,0.785398,0.000482676,-0.000394722,-0.000309387,0.000418912,-5.16355e-05,0.000130514,0.000362099,0,0,0,0,0,0,0,-0.557545,-10.1377,-0.889218,20.9201,1.85976,2.51882,0.09083,-0.534759,-1.02488,-0.427627,2.4034,1.14228,0.850495,0.10018
897429,0.93,-1.57032,-0.52286,0.00044807,-2.0959,-0.00147456,1.5697,0.785372,-1.5708,-0.523599,2.76071e-07,-2.0944,-1.13053e-06,1.5708,0.785398,0.000321784,0.000386466,0.00155698,0.000279275,0.000372477,0.000324369,0.000716117,0,0,0,0,0,0,0,-0.557545,-10.1654,-0.964597,20.9201,1.84877,2.51242,0.0780126,-0.535033,-1.02365,-0.427888,2.40276,1.14225,0.850438,0.100243
897430,0.93,-1.57032,-0.52286,0.000444398,-2.09591,-0.00147277,1.5697,0.785369,-1.5708,-0.523599,2.76071e-07,-2.0944,-1.13053e-06,1.5708,0.785398,-0.000991903,0.000257644,-0.000168439,-0.000370629,4.48677e-05,-0.000258472,2.69375e-06,0,0,0,0,0,0,0,-0.50597,-10.1654,-0.913022,20.9439,1.85426,2.52523,0.09083,-0.535844,-1.02324,-0.42902,2.40246,1.14221,0.850404,0.100277
897431,0.93,-1.57032,-0.522864,0.000446329,-2.0959,-0.00147638,1.5697,0.785362,-1.5708,-0.523599,2.76071e-07,-2.0944,-1.13053e-06,1.5708,0.785398,-0.000104457,-0.00103466,0.000537321,0.000309726,-0.000376989,-0.000172315,-0.0024057,0,0,0,0,0,0,0,-0.529774,-10.1139,-0.940793,20.9201,1.86525,2.52523,0.155832,-0.536225,-1.02303,-0.429674,2.40239,1.14219,0.850404,0.100264
897432,0.93,-1.57032,-0.52286,0.000447993,-2.09591,-0.00147596,1.5697,0.785369,-1.5708,-0.523599,2.76071e-07,-2.0944,-1.13053e-06,1.5708,0.785398,-6.9638e-05,0.00051665,0.000915026,-0.000350328,0.000155575,0.000122482,-0.000383098,0,0,0,0,0,0,0,-0.529774,-10.1654,-0.964597,20.9439,1.85426,2.51882,0.122873,-0.53646,-1.02206,-0.430239,2.40206,1.14218,0.850403,0.100233
897433,0.93,-1.57032,-0.522862,0.000439082,-2.0959,-0.00147683,1.5697,0.785374,-1.5708,-0.523597,2.75899e-07,-2.09439,-1.12987e-06,1.57079,0.785398,0.000603189,-0.00030518,-0.00235965,0.00032326,-9.97339e-05,0.000319014,0.00116875,-2.10606e-07,0.001875,-1.71207e-07,0.00278203,6.62573e-07,-0.005,3.16085e-07,-0.557545,-10.1377,-0.837644,20.9201,1.85976,2.51242,0.0844213,-0.536443,-1.02145,-0.430391,2.40189,1.14219,0.850417,0.100244
897434,0.93,-1.57032,-0.52286,0.000444371,-2.0959,-0.00147373,1.5697,0.785374,-1.5708,-0.523593,2.75557e-07,-2.09439,-1.12854e-06,1.57078,0.785398,-0.0008043,0.00044616,0.00019014,0.000215507,-6.64893e-05,-2.4683e-05,0.000541811,-4.21212e-07,0.00375,-3.42414e-07,0.00556405,1.32515e-06,-0.01,6.3217e-07,-0.50597,-10.1654,-0.913022,20.9201,1.85976,2.51882,0.09083,-0.535267,-1.0214,-0.428679,2.40179,1.14225,0.850425,0.100305
897435,0.93,-1.57032,-0.522858,0.000442701,-2.09591,-0.00147589,1.5697,0.785372,-1.5708,-0.523587,2.75043e-07,-2.09438,-1.12655e-06,1.57077,0.785398,0.000670226,0.000854252,-0.000430052,-0.000413141,-4.43262e-05,-0.000253814,-0.00035087,-6.31817e-07,0.005625,-5.13621e-07,0.00834608,1.98772e-06,-0.015,9.48255e-07,-0.557545,-10.1892,-0.889218,20.9439,1.85976,2.52523,0.110056,-0.533716,-1.02256,-0.426381,2.40218,1.14234,0.85046,0.100384
897436,0.93,-1.57032,-0.522861,0.000444371,-2.0959,-0.00147661,1.5697,0.785374,-1.5708,-0.52358,2.74358e-07,-2.09437,-1.1239e-06,1.57075,0.785398,-0.000202797,0.00140005,0.000270111,-0.000275427,-2.95508e-05,-0.00858789,0.000715523,-8.42423e-07,0.0075,-6.84827e-07,0.0111281,2.65029e-06,-0.02,1.26434e-06,-0.529774,-10.0901,-0.913022,20.9439,1.85976,2.4996,0.0844213,-0.532771,-1.02647,-0.424971,2.40421,1.14242,0.850696,0.100467
897437,0.93,-1.57032,-0.522862,0.00044632,-2.09591,-0.00147487,1.5697,0.785374,-1.5708,-0.523571,2.73502e-07,-2.09435,-1.12059e-06,1.57072,0.785398,-0.00069201,0.000734656,0.000829688,-0.00315328,-0.000426602,-0.00905745,0.000239656,-1.05303e-06,0.009375,-8.56034e-07,0.0139101,3.31286e-06,-0.025,1.58042e-06,-0.50597,-9.93533,-0.940793,21.0709,1.87074,2.44192,0.09083,-0.532425,-1.03364,-0.424532,2.409,1.14252,0.85135,0.100553
897438,0.93,-1.57032,-0.522865,0.00044632,-2.09591,-0.00147328,1.5697,0.785367,-1.5708,-0.523559,2.72475e-07,-2.09434,-1.11661e-06,1.57069,0.785398,0.000745086,-0.00241531,0.000553125,-0.00497905,-8.09505e-05,-0.00531903,-0.00102702,-1.26363e-06,0.01125,-1.02724e-06,0.0166922,3.97544e-06,-0.03,1.89651e-06,-0.557545,-9.65762,-0.940793,21.1939,1.86525,2.39614,0.122873,-0.532791,-1.04148,-0.425324,2.41644,1.14264,0.852387,0.100625
897439,0.93,-1.57032,-0.522858,0.000442701,-2.09591,-0.00147295,1.5697,0.785373,-1.5708,-0.523546,2.71277e-07,-2.09432,-1.11198e-06,1.57066,0.785398,0.000496724,0.00165425,-0.000837676,-0.00317651,-5.3967e-05,-0.00309134,0.000739471,-1.47424e-06,0.013125,-1.19845e-06,0.0194742,4.63801e-06,-0.035,2.21259e-06,-0.557545,-9.50687,-0.889218,21.3169,1.86525,2.3641,0.0844213,-0.533644,-1.04781,-0.426818,2.42532,1.14282,0.853437,0.100675
897440,0.93,-1.57032,-0.52285,0.000442701,-2.09589,-0.00147345,1.56969,0.785373,-1.5708,-0.523531,2.69907e-07,-2.09429,-1.10668e-06,1.57062,0.785398,-0.000318465,0.00226108,-0.000558451,0.00174864,-0.000239429,-0.00237262,1.82628e-05,-1.68485e-06,0.015,-1.36965e-06,0.0222562,5.30058e-06,-0.04,2.52868e-06,-0.529774,-9.37991,-0.889218,21.2931,1.87074,2.35769,0.0972387,-0.533938,-1.05392,-0.427323,2.43397,1.14303,0.853986,0.10071
897441,0.93,-1.57032,-0.522833,0.000444371,-2.09589,-0.00147341,1.56969,0.785374,-1.5708,-0.523514,2.68366e-07,-2.09427,-1.10071e-06,1.57057,0.785398,0.000437304,0.005093,0.000184512,0.0023411,-0.000159619,-0.00128148,0.000486893,-1.89545e-06,0.016875,-1.54086e-06,0.0250382,5.96315e-06,-0.045,2.84476e-06,-0.557545,-9.35611,-0.913022,21.3922,1.87074,2.33847,0.0844213,-0.533583,-1.06042,-0.426746,2.44075,1.14322,0.853629,0.100726
897442,0.93,-1.57032,-0.522825,0.00044632,-2.09588,-0.00147599,1.56968,0.785374,-1.5708,-0.523496,2.66654e-07,-2.09424,-1.09409e-06,1.57052,0.785398,0.000291536,0.00459052,0.000772622,0.00464033,9.70378e-05,2.36112e-05,0.000324595,-2.10606e-06,0.01875,-1.71207e-06,0.0278203,6.62573e-06,-0.05,3.16085e-06,-0.557545,-9.22916,-0.940793,21.416,1.86525,2.30642,0.0844213,-0.533654,-1.06685,-0.426717,2.44552,1.14334,0.852283,0.10072
897443,0.93,-1.57032,-0.522816,0.000444371,-2.09587,-0.00147644,1.56968,0.785371,-1.5708,-0.523473,2.64645e-07,-2.09421,-1.08643e-06,1.57046,0.785398,-0.000455257,0.00788104,-0.000134533,0.00618413,0.000268142,-0.00313903,-0.000970398,-2.47193e-06,0.0224584,-2.0095e-06,0.0326533,7.65621e-06,-0.06,3.65245e-06,-0.529774,-9.12601,-0.913022,21.4438,1.85976,2.25515,0.116465,-0.534171,-1.07297,-0.427311,2.4489,1.14339,0.850029,0.100682
897444,0.93,-1.57031,-0.522807,0.00044799,-2.09586,-0.00147482,1.56967,0.785371,-1.5708,-0.523447,2.62338e-07,-2.09417,-1.07774e-06,1.57039,0.785398,0.000902922,0.0073843,0.00111674,0.00681644,-0.000228139,-0.00514928,-0.000646932,-2.83781e-06,0.0261668,-2.30692e-06,0.0374864,8.68669e-06,-0.07,4.14405e-06,-0.581349,-9.02682,-0.964597,21.4914,1.87074,2.19656,0.116465,-0.53483,-1.07926,-0.42809,2.45206,1.1434,0.847048,0.100622
897445,0.93,-1.57032,-0.522803,0.000444371,-2.09586,-0.00147326,1.56966,0.785369,-1.5708,-0.523417,2.59733e-07,-2.09413,-1.06803e-06,1.57031,0.785398,4.51357e-05,0.00764555,-0.000461934,0.00457868,5.13576e-05,-0.00740766,-0.00114336,-3.20368e-06,0.0298752,-2.60435e-06,0.0423194,9.71718e-06,-0.08,4.63565e-06,-0.557545,-8.82449,-0.913022,21.666,1.86525,2.15811,0.135691,-0.535784,-1.08528,-0.429237,2.45664,1.14338,0.843572,0.100575
897446,0.93,-1.57032,-0.522796,0.00044632,-2.09584,-0.00147355,1.56965,0.785369,-1.5708,-0.523383,2.56832e-07,-2.09408,-1.05728e-06,1.57022,0.785398,-0.000619523,0.00680202,0.000341658,0.00971555,-0.000169212,-0.0124728,-0.000524884,-3.56955e-06,0.0335836,-2.90178e-06,0.0471525,1.07477e-05,-0.09,5.12725e-06,-0.529774,-8.57059,-0.940793,21.6898,1.87074,2.0812,0.129282,-0.536335,-1.08789,-0.429772,2.46231,1.14337,0.839611,0.100572
897447,0.93,-1.57032,-0.52278,0.000444189,-2.09583,-0.00147599,1.56963,0.785373,-1.5708,-0.523346,2.53632e-07,-2.09403,-1.0455e-06,1.57012,0.785398,-0.000413016,0.0102821,0.000227772,0.00895579,-0.000960519,-0.0109177,0.000836872,-3.93543e-06,0.037292,-3.19921e-06,0.0519856,1.17781e-05,-0.1,5.61884e-06,-0.529774,-8.34445,-0.940793,21.7652,1.89363,1.98416,0.0972387,-0.536144,-1.0855,-0.429312,2.46787,1.14335,0.834953,0.100641
897448,0.93,-1.57032,-0.522766,0.000443479,-2.09581,-0.00147596,1.56961,0.785377,-1.5708,-0.523305,2.50136e-07,-2.09397,-1.03269e-06,1.57001,0.785398,0.00037427,0.0131328,0.000151848,0.0122616,-0.000640346,-0.0141511,0.00198207,-4.3013e-06,0.0410004,-3.49664e-06,0.0568186,1.28086e-05,-0.11,6.11044e-06,-0.557545,-7.99136,-0.940793,21.8167,1.89363,1.87521,0.0587866,-0.535737,-1.08238,-0.4286,2.47496,1.14335,0.829512,0.100791
897449,0.93,-1.57032,-0.522736,0.000441294,-2.09579,-0.00147594,1.56958,0.785373,-1.5708,-0.52326,2.46342e-07,-2.09391,-1.01885e-06,1.56989,0.785398,0.000249513,0.0185395,-0.000548382,0.0188601,-0.000426897,-0.0172282,0.000846661,-4.66717e-06,0.0447088,-3.79407e-06,0.0616517,1.38391e-05,-0.12,6.60204e-06,-0.557545,-7.76126,-0.913022,21.8167,1.89363,1.77816,0.071604,-0.535253,-1.083,-0.427666,2.48447,1.14336,0.823094,0.100976
897450,0.93,-1.57032,-0.5227,0.000441215,-2.09575,-0.00147848,1.56953,0.785373,-1.5708,-0.523212,2.4225e-07,-2.09385,-1.00398e-06,1.56976,0.785398,0.000166342,0.023813,-0.000365588,0.0242412,-0.00113231,-0.0256557,8.97228e-05,-5.03305e-06,0.0484171,-4.09149e-06,0.0664847,1.48696e-05,-0.13,7.09364e-06,-0.557545,-7.5867,-0.913022,21.789,1.91652,1.72048,0.0844213,-0.534397,-1.08952,-0.425967,2.4954,1.14337,0.815358,0.10113
897451,0.93,-1.57032,-0.522659,0.000439518,-2.09572,-0.00147848,1.56947,0.785373,-1.5708,-0.52316,2.37861e-07,-2.09377,-9.88083e-07,1.56962,0.785398,0.000110895,0.0249509,-0.000800537,0.0259045,-0.000754872,-0.0335595,-0.000414903,-5.39892e-06,0.0521255,-4.38892e-06,0.0713178,1.59001e-05,-0.14,7.58524e-06,-0.557545,-7.43594,-0.889218,21.8644,1.91652,1.70767,0.0972387,-0.533012,-1.10199,-0.423273,2.50783,1.1434,0.806247,0.101224
897452,0.93,-1.57032,-0.522618,0.00044118,-2.09568,-0.00147594,1.5694,0.785371,-1.5708,-0.523104,2.33175e-07,-2.0937,-9.71153e-07,1.56947,0.785398,0.00118755,0.0283018,2.31204e-05,0.0301166,0.000344462,-0.0448873,-0.00075132,-5.7648e-06,0.0558339,-4.68635e-06,0.0761509,1.69306e-05,-0.15,8.07684e-06,-0.605152,-7.25742,-0.913022,21.8167,1.89363,1.72048,0.110056,-0.531655,-1.11714,-0.420376,2.52199,1.14344,0.79593,0.101269
897453,0.93,-1.57032,-0.522578,0.000446467,-2.09563,-0.00147655,1.56932,0.785372,-1.5708,-0.523043,2.28101e-07,-2.09362,-9.53003e-07,1.56931,0.785398,-0.000971535,0.0301062,0.00177865,0.0326709,2.6191e-05,-0.0542836,-0.000263521,-6.24168e-06,0.0608613,-5.07402e-06,0.0824503,1.81493e-05,-0.165,8.65826e-06,-0.529774,-7.05508,-0.988401,21.789,1.89913,1.75894,0.103647,-0.531239,-1.13187,-0.418758,2.53774,1.14345,0.784603,0.101298
897454,0.93,-1.57032,-0.522539,0.000443125,-2.09559,-0.00147787,1.56922,0.785372,-1.5708,-0.522977,2.22639e-07,-2.09353,-9.33635e-07,1.56913,0.785398,-0.00064769,0.0334556,7.21437e-05,0.0378017,-0.000423349,-0.0650644,-0.00041304,-6.71856e-06,0.0658888,-5.46169e-06,0.0887498,1.93681e-05,-0.18,9.23969e-06,-0.529774,-6.80118,-0.940793,21.8882,1.91103,1.77816,0.110056,-0.531419,-1.14414,-0.418191,2.55452,1.14344,0.772445,0.101342
897455,0.93,-1.57032,-0.5225,0.000443124,-2.09553,-0.00147716,1.56911,0.785378,-1.5708,-0.522906,2.1679e-07,-2.09343,-9.13048e-07,1.56893,0.785398,0.00021782,0.0330372,4.80958e-05,0.0444712,-4.48736e-05,-0.0780881,0.00186087,-7.19545e-06,0.0709162,-5.84937e-06,0.0950493,2.05869e-05,-0.195,9.82111e-06,-0.557545,-6.55124,-0.940793,21.8882,1.90462,1.8038,0.0523779,-0.53124,-1.14945,-0.417205,2.5696,1.14339,0.759486,0.101409
897456,0.93,-1.57032,-0.522451,0.000444795,-2.09547,-0.00147716,1.56899,0.785377,-1.5708,-0.52283,2.10553e-07,-2.09333,-8.91243e-07,1.56872,0.785398,0.000145214,0.0405865,0.000588876,0.0479719,-2.99157e-05,-0.0919556,0.000765863,-7.67233e-06,0.0759436,-6.23704e-06,0.101349,2.18057e-05,-0.21,1.04025e-05,-0.557545,-6.37271,-0.964597,21.9397,1.90462,1.81661,0.0651953,-0.530921,-1.14621,-0.415939,2.58172,1.14323,0.745891,0.101486
897457,0.93,-1.57032,-0.522404,0.000446465,-2.0954,-0.00147909,1.56885,0.785368,-1.5708,-0.52275,2.03928e-07,-2.09322,-8.68218e-07,1.5685,0.785398,9.68091e-05,0.0455244,0.000949396,0.0522984,-0.000664204,-0.105574,-0.00115094,-8.14922e-06,0.080971,-6.62471e-06,0.107648,2.30244e-05,-0.225,1.0984e-05,-0.557545,-6.04343,-0.988401,21.9159,1.92201,1.79739,0.110056,-0.530988,-1.14231,-0.415218,2.59498,1.14302,0.732243,0.101545
897458,0.93,-1.57032,-0.522344,0.000446465,-2.09533,-0.00147848,1.56869,0.785371,-1.5708,-0.522664,1.96916e-07,-2.09311,-8.43975e-07,1.56826,0.785398,0.000621351,0.0490946,0.000632931,0.0583585,-0.000239352,-0.124562,0.000419503,-8.6261e-06,0.0859984,-7.01238e-06,0.113948,2.42432e-05,-0.24,1.15654e-05,-0.581349,-5.81729,-0.988401,21.9159,1.91652,1.77816,0.0780126,-0.531498,-1.14284,-0.415164,2.61215,1.14281,0.718991,0.101579
897459,0.93,-1.57032,-0.522273,0.000444335,-2.09525,-0.0014797,1.56852,0.785369,-1.5708,-0.522573,1.89516e-07,-2.09299,-8.18513e-07,1.568,0.785398,-0.000792192,0.055922,0.000421954,0.0646045,-0.000566469,-0.138892,-0.000195049,-9.10299e-06,0.0910258,-7.40005e-06,0.120247,2.5462e-05,-0.255,1.21468e-05,-0.529774,-5.63876,-0.988401,21.8405,1.92751,1.7333,0.09083,-0.531893,-1.14693,-0.414972,2.63247,1.1426,0.706209,0.101608
897460,0.93,-1.57032,-0.522197,0.000445573,-2.09516,-0.00148544,1.56832,0.785368,-1.5708,-0.522476,1.81728e-07,-2.09286,-7.91832e-07,1.56773,0.785398,0.000678298,0.0622697,0.000930916,0.0709895,-0.00122536,-0.159802,-0.000604751,-9.57987e-06,0.0960532,-7.78772e-06,0.126547,2.66807e-05,-0.27,1.27282e-05,-0.581349,-5.51181,-1.01617,21.8167,1.9504,1.70126,0.103647,-0.531809,-1.15629,-0.414147,2.65609,1.14243,0.693931,0.101646
897461,0.93,-1.57032,-0.522106,0.000442177,-2.09507,-0.0014827,1.56812,0.785371,-1.5708,-0.522375,1.73553e-07,-2.09273,-7.63933e-07,1.56745,0.785398,-0.000754227,0.0690137,-0.00114263,0.0755846,-0.000613454,-0.175281,-0.000165808,-1.00568e-05,0.101081,-8.1754e-06,0.132846,2.78995e-05,-0.285,1.33097e-05,-0.529774,-5.48801,-0.940793,21.789,1.9449,1.66189,0.0972387,-0.530977,-1.17368,-0.412245,2.68413,1.14234,0.682239,0.101707
897462,0.93,-1.57032,-0.522025,0.000442348,-2.09497,-0.0014858,1.56788,0.785374,-1.5708,-0.522269,1.64989e-07,-2.09259,-7.34815e-07,1.56715,0.785398,0.000146796,0.0724336,-0.000204939,0.0831751,-0.00061242,-0.193811,0.00131361,-1.05336e-05,0.106108,-8.56307e-06,0.139146,2.91183e-05,-0.3,1.38911e-05,-0.557545,-5.26187,-0.964597,21.7176,1.9504,1.69485,0.0587866,-0.528804,-1.19767,-0.408334,2.71592,1.14239,0.671033,0.101801
897463,0.93,-1.57032,-0.521939,0.000443519,-2.09487,-0.00148469,1.56764,0.785374,-1.5708,-0.522157,1.55977e-07,-2.09244,-7.04399e-07,1.56683,0.785398,-0.00055175,0.076183,0.000420186,0.0928238,0.00023598,-0.216084,0.000163666,-1.10861e-05,0.112043,-9.01221e-06,0.146444,3.04159e-05,-0.318709,1.45101e-05,-0.529774,-5.08334,-0.988401,21.7176,1.933,1.70126,0.0780126,-0.526004,-1.22036,-0.403512,2.74687,1.14248,0.659903,0.101913
897464,0.93,-1.57032,-0.521851,0.000440012,-2.09475,-0.00148375,1.56738,0.785373,-1.5708,-0.522039,1.46516e-07,-2.09229,-6.72685e-07,1.56649,0.785398,-0.000367833,0.0782595,-0.0008335,0.100873,0.000564221,-0.226192,-0.000602966,-1.16387e-05,0.117978,-9.46136e-06,0.153742,3.17134e-05,-0.337417,1.51291e-05,-0.529774,-4.88101,-0.940793,21.7176,1.92201,1.64907,0.0972387,-0.523185,-1.23211,-0.398725,2.77109,1.14246,0.648343,0.101998
897465,0.93,-1.57032,-0.521761,0.000441627,-2.09463,-0.00148125,1.5671,0.78537,-1.5708,-0.521915,1.36605e-07,-2.09213,-6.39674e-07,1.56613,0.785398,0.000404392,0.0813415,1.14523e-06,0.10813,0.000172697,-0.239532,-0.00135141,-1.21912e-05,0.123913,-9.9105e-06,0.161041,3.3011e-05,-0.356126,1.57481e-05,-0.557545,-4.73026,-0.964597,21.666,1.92751,1.62985,0.122873,-0.520306,-1.22683,-0.393852,2.78515,1.14228,0.635958,0.102037
897466,0.93,-1.57032,-0.521663,0.000444767,-2.0945,-0.00148022,1.5668,0.785374,-1.5708,-0.521785,1.26246e-07,-2.09196,-6.05366e-07,1.56576,0.785398,-0.000380019,0.0860044,0.001764,0.11087,0.000115131,-0.255749,0.000285853,-1.27437e-05,0.129848,-1.03596e-05,0.168339,3.43086e-05,-0.374835,1.63671e-05,-0.529774,-4.55173,-1.03998,21.7414,1.92751,1.64266,0.09083,-0.518341,-1.20591,-0.390402,2.79094,1.14195,0.622852,0.102066
897467,0.93,-1.57032,-0.521552,0.000444051,-2.09436,-0.00148368,1.56648,0.78538,-1.5708,-0.52165,1.15437e-07,-2.09178,-5.6976e-07,1.56537,0.785398,0.00095308,0.097214,0.001176,0.123642,-0.000126696,-0.276441,0.00212335,-1.32962e-05,0.135783,-1.08088e-05,0.175638,3.56062e-05,-0.393543,1.69862e-05,-0.581349,-4.42477,-1.03998,21.6144,1.933,1.64266,0.038645,-0.518047,-1.17927,-0.389612,2.79397,1.14151,0.609487,0.102139
897468,0.93,-1.57032,-0.52144,0.000445483,-2.09421,-0.00148524,1.56614,0.785379,-1.5708,-0.521508,1.04179e-07,-2.0916,-5.32856e-07,1.56495,0.785399,0.000635386,0.101678,0.00134081,0.134163,-0.000287915,-0.296597,0.0011443,-1.38487e-05,0.141719,-1.12579e-05,0.182936,3.69037e-05,-0.412252,1.76052e-05,-0.581349,-4.27402,-1.06378,21.5906,1.93849,1.62344,0.0459692,-0.519065,-1.15449,-0.390821,2.79595,1.14095,0.595971,0.102245
897469,0.94,-1.57031,-0.521314,0.000443733,-2.09405,-0.00148552,1.56579,0.785375,-1.5708,-0.52136,9.24719e-08,-2.09141,-4.94654e-07,1.56452,0.785399,0.00163002,0.109003,0.000337063,0.140527,-0.0012431,-0.310453,-0.000423929,-1.44012e-05,0.147654,-1.17071e-05,0.190234,3.82013e-05,-0.430961,1.82242e-05,-0.632923,-4.17484,-1.03998,21.4914,1.96687,1.57858,0.0780126,-0.520623,-1.13183,-0.392733,2.79592,1.14029,0.582228,0.102315
897470,0.94,-1.57032,-0.521181,0.000443706,-2.09389,-0.00148771,1.5654,0.785374,-1.5708,-0.521207,8.03157e-08,-2.09121,-4.55156e-07,1.56407,0.785399,-0.00067656,0.115275,0.000224709,0.148572,-0.0018799,-0.334367,-0.000519978,-1.49537e-05,0.153589,-1.21562e-05,0.197533,3.94989e-05,-0.449669,1.88432e-05,-0.557545,-4.09946,-1.03998,21.3684,1.99526,1.53372,0.0844213,-0.521582,-1.11236,-0.393683,2.7956,1.13966,0.568468,0.102309
897471,0.94,-1.57032,-0.521051,0.000443697,-2.09372,-0.00148804,1.565,0.785371,-1.5708,-0.521047,6.77103e-08,-2.09101,-4.14359e-07,1.5636,0.785399,0.000105772,0.118612,0.000149806,0.156766,-0.000405554,-0.355485,-0.000346652,-1.55062e-05,0.159524,-1.26054e-05,0.204831,4.07965e-05,-0.468378,1.94622e-05,-0.581349,-3.9725,-1.03998,21.2931,1.97237,1.54653,0.0844213,-0.521071,-1.09506,-0.392538,2.79569,1.13918,0.554866,0.102242
897472,0.94,-1.57032,-0.520916,0.000442024,-2.09354,-0.00148717,1.56458,0.785376,-1.5708,-0.520882,5.46558e-08,-2.0908,-3.72265e-07,1.56312,0.785399,7.05146e-05,0.12259,-0.000456941,0.164904,0.000339982,-0.375451,0.000718334,-1.60587e-05,0.165459,-1.30545e-05,0.21213,4.2094e-05,-0.487086,2.00812e-05,-0.581349,-3.77017,-1.01617,21.2693,1.95589,1.55294,0.0587866,-0.519364,-1.07377,-0.389693,2.7938,1.13881,0.541315,0.102139
897473,0.94,-1.57032,-0.520769,0.000443693,-2.09335,-0.00148556,1.56414,0.785376,-1.5708,-0.52071,4.11137e-08,-2.09058,-3.28861e-07,1.56261,0.785399,4.70098e-05,0.128674,0.000252184,0.170808,0.000870915,-0.399372,4.17162e-06,-1.66585e-05,0.171973,-1.35421e-05,0.220053,4.34037e-05,-0.507076,2.0706e-05,-0.581349,-3.69479,-1.03998,21.2693,1.93849,1.55294,0.071604,-0.517112,-1.0462,-0.386028,2.78947,1.13854,0.527846,0.10201
897474,0.94,-1.57032,-0.520621,0.000442022,-2.09316,-0.00148003,1.56368,0.785376,-1.5708,-0.520531,2.70839e-08,-2.09035,-2.84148e-07,1.56208,0.785399,0.000588152,0.133973,-0.000388689,0.17926,0.00139441,-0.417209,0.00024014,-1.72583e-05,0.178487,-1.40298e-05,0.227977,4.47133e-05,-0.527066,2.13308e-05,-0.605152,-3.54007,-1.01617,21.2177,1.91652,1.54013,0.0651953,-0.514848,-1.01504,-0.382311,2.7846,1.13833,0.514671,0.101856
897475,0.94,-1.57031,-0.520464,0.000443693,-2.09295,-0.00147523,1.56319,0.785373,-1.5708,-0.520346,1.25666e-08,-2.09011,-2.38125e-07,1.56154,0.785399,0.00104172,0.145025,0.000297686,0.186919,0.00218422,-0.436413,-0.0010267,-1.78582e-05,0.185,-1.45174e-05,0.2359,4.60229e-05,-0.547056,2.19556e-05,-0.632923,-3.44089,-1.03998,21.2177,1.88265,1.57858,0.0972387,-0.513067,-0.985785,-0.379169,2.78133,1.13815,0.501884,0.101681
897476,0.94,-1.57032,-0.520303,0.000442022,-2.09274,-0.0014755,1.56269,0.785368,-1.5708,-0.520155,-2.43843e-09,-2.08987,-1.90793e-07,1.56097,0.785399,-0.000511949,0.150331,-0.000358355,0.19722,0.0012527,-0.472015,-0.00115919,-1.8458e-05,0.191514,-1.5005e-05,0.243824,4.73326e-05,-0.567046,2.25803e-05,-0.581349,-3.31393,-1.01617,21.1939,1.88814,1.62985,0.110056,-0.51161,-0.964039,-0.376356,2.78155,1.13795,0.489657,0.101511
897477,0.95,-1.57031,-0.520136,0.000442022,-2.09252,-0.00147793,1.56216,0.785368,-1.5708,-0.519957,-1.7931e-08,-2.08962,-1.4215e-07,1.56038,0.785399,0.000865126,0.156855,-0.000238903,0.202969,-1.258e-05,-0.485857,-0.000535431,-1.90578e-05,0.198028,-1.54926e-05,0.251747,4.86422e-05,-0.587036,2.32051e-05,-0.632923,-3.16318,-1.01617,21.2455,1.91103,1.62985,0.103647,-0.509928,-0.949055,-0.373124,2.78509,1.13768,0.478156,0.101387
897478,0.96,-1.57031,-0.519957,0.000448982,-2.0923,-0.00148094,1.56161,0.78537,-1.5708,-0.519752,-3.39112e-08,-2.08936,-9.21985e-08,1.55978,0.785399,0.000576751,0.161193,0.00216078,0.21148,-0.00102564,-0.505583,-0.000594313,-1.96577e-05,0.204542,-1.59802e-05,0.259671,4.99519e-05,-0.607026,2.38299e-05,-0.632923,-3.1116,-1.11535,21.2693,1.93849,1.62344,0.110056,-0.508944,-0.936313,-0.370871,2.7903,1.13728,0.467281,0.101348
897479,0.97,-1.57031,-0.519773,0.000443233,-2.09205,-0.00148164,1.56105,0.785376,-1.5708,-0.519541,-5.03791e-08,-2.08909,-4.0937e-08,1.55915,0.785399,0.000384501,0.169253,-0.00290888,0.222551,-0.000921118,-0.525422,0.0012653,-2.02575e-05,0.211056,-1.64678e-05,0.267594,5.12615e-05,-0.627016,2.44547e-05,-0.632923,-3.01242,-1.06378,21.2177,1.9449,1.61703,0.0651953,-0.508476,-0.922079,-0.36928,2.79485,1.13675,0.456744,0.1014
897480,0.98,-1.57031,-0.519578,0.000446142,-2.09181,-0.00148666,1.56045,0.785373,-1.5708,-0.519324,-6.73345e-08,-2.08881,1.16341e-08,1.5585,0.785399,0.000813146,0.173506,-0.000994741,0.228372,-0.00122443,-0.548764,0.000606177,-2.08573e-05,0.21757,-1.69554e-05,0.275518,5.25711e-05,-0.647006,2.50794e-05,-0.656727,-2.96085,-1.11535,21.2455,1.96138,1.61703,0.071604,-0.506641,-0.904783,-0.365394,2.79739,1.13621,0.446418,0.101516
897481,0.98,-1.57031,-0.519386,0.000444235,-2.09156,-0.00148651,1.55984,0.785373,-1.5708,-0.519099,-8.47776e-08,-2.08853,6.55149e-08,1.55783,0.785399,0.00109891,0.179724,-0.00141641,0.240698,-0.000409386,-0.565646,-7.05999e-05,-2.14571e-05,0.224084,-1.74431e-05,0.283441,5.38808e-05,-0.666996,2.57042e-05,-0.680531,-2.90927,-1.09155,21.3169,1.9504,1.57858,0.0844213,-0.503991,-0.882637,-0.360045,2.79721,1.13567,0.436247,0.101649
897482,0.98,-1.57031,-0.519185,0.000447957,-2.09129,-0.00148432,1.55921,0.785372,-1.5708,-0.518869,-1.02708e-07,-2.08824,1.20705e-07,1.55715,0.785399,-0.000381018,0.182484,-0.000534787,0.247903,0.000574787,-0.584623,-0.000759143,-2.2057e-05,0.230598,-1.79307e-05,0.291365,5.51904e-05,-0.686986,2.6329e-05,-0.632923,-2.81009,-1.11535,21.2693,1.92751,1.57217,0.103647,-0.501644,-0.851373,-0.355105,2.79193,1.13509,0.425943,0.101764
897483,0.98,-1.57031,-0.518976,0.00044484,-2.09101,-0.00148124,1.55856,0.785374,-1.5708,-0.518631,-1.21147e-07,-2.08794,1.77177e-07,1.55644,0.785399,0.000859612,0.192086,-0.00102383,0.258678,0.000383191,-0.603869,0.00115542,-2.26815e-05,0.237427,-1.84384e-05,0.299614,5.64714e-05,-0.706976,2.69401e-05,-0.680531,-2.73471,-1.09155,21.2455,1.92751,1.5978,0.0587866,-0.499666,-0.810696,-0.350808,2.78125,1.13446,0.415362,0.101859
897484,0.98,-1.57031,-0.518761,0.000448158,-2.09073,-0.00147838,1.55789,0.785374,-1.5708,-0.518387,-1.40093e-07,-2.08763,2.34929e-07,1.55571,0.785399,0.000573075,0.196076,-0.000208614,0.267825,0.000865812,-0.623545,5.82011e-05,-2.3306e-05,0.244257,-1.89461e-05,0.307864,5.77525e-05,-0.726966,2.75512e-05,-0.680531,-2.65536,-1.11535,21.1939,1.91103,1.62344,0.0780126,-0.498472,-0.764454,-0.34771,2.76689,1.13376,0.404569,0.101946
897485,0.98,-1.57031,-0.518534,0.000444907,-2.09044,-0.00147611,1.5572,0.785376,-1.5708,-0.518136,-1.59546e-07,-2.08732,2.93963e-07,1.55497,0.785399,-0.000174762,0.204085,-0.000758041,0.273035,0.00122147,-0.639338,0.00149686,-2.39306e-05,0.251087,-1.94538e-05,0.316114,5.90335e-05,-0.746956,2.81623e-05,-0.656727,-2.65536,-1.09155,21.1701,1.89363,1.68844,0.038645,-0.498042,-0.715932,-0.345777,2.751,1.13301,0.393756,0.102011
897486,0.98,-1.57031,-0.518303,0.00044605,-2.09014,-0.00147722,1.55648,0.785372,-1.5708,-0.517878,-1.79508e-07,-2.08699,3.54277e-07,1.5542,0.785399,0.00164673,0.213618,4.83584e-06,0.283103,0.000407411,-0.663699,-0.000222795,-2.45551e-05,0.257916,-1.99615e-05,0.324364,6.03145e-05,-0.766946,2.87735e-05,-0.732105,-2.68314,-1.11535,21.1939,1.90462,1.68844,0.071604,-0.49829,-0.671578,-0.344863,2.73771,1.13227,0.383376,0.102033
897487,0.98,-1.57031,-0.518061,0.000449954,-2.08984,-0.00147718,1.55575,0.785369,-1.5708,-0.517613,-1.99977e-07,-2.08666,4.15873e-07,1.55341,0.785399,0.000541008,0.222596,0.000617876,0.287991,0.000271607,-0.6883,-0.0020474,-2.51796e-05,0.264746,-2.04692e-05,0.332614,6.15956e-05,-0.786936,2.93846e-05,-0.708302,-2.68314,-1.14312,21.1701,1.90462,1.74612,0.122873,-0.499788,-0.639667,-0.345711,2.73151,1.13156,0.373994,0.102014
897488,0.98,-1.57031,-0.517816,0.000444856,-2.08952,-0.0014791,1.55499,0.78537,-1.5708,-0.517342,-2.20954e-07,-2.08632,4.78749e-07,1.55261,0.785399,-0.000288942,0.232765,-0.000820729,0.297953,-0.000463188,-0.706163,-0.00112758,-2.58042e-05,0.271576,-2.09769e-05,0.340864,6.28766e-05,-0.806926,2.99957e-05,-0.680531,-2.73471,-1.09155,21.1423,1.92201,1.70126,0.116465,-0.5018,-0.625344,-0.347293,2.7351,1.13093,0.365992,0.101988
897489,0.98,-1.57031,-0.517562,0.000444544,-2.08921,-0.00147909,1.55422,0.78537,-1.5708,-0.517063,-2.42439e-07,-2.08597,5.42907e-07,1.55178,0.785399,-0.000192628,0.237874,-0.00121643,0.29927,-0.000308792,-0.725339,0.000197719,-2.64287e-05,0.278406,-2.14846e-05,0.349113,6.41576e-05,-0.826916,3.06068e-05,-0.680531,-2.75851,-1.06378,21.2693,1.92201,1.64907,0.09083,-0.502667,-0.628743,-0.347198,2.74897,1.13052,0.359457,0.102011
897490,0.98,-1.57031,-0.517293,0.000447039,-2.08888,-0.0014797,1.55344,0.785367,-1.5708,-0.516778,-2.64431e-07,-2.08561,6.08346e-07,1.55093,0.785399,-0.000685231,0.24506,-0.00017609,0.307117,-0.000409312,-0.74486,-0.000580264,-2.70532e-05,0.285235,-2.19923e-05,0.357363,6.54387e-05,-0.846906,3.1218e-05,-0.656727,-2.81009,-1.09155,21.2455,1.92751,1.58499,0.110056,-0.502351,-0.64525,-0.345382,2.7722,1.13036,0.354331,0.102113
897491,0.98,-1.57031,-0.517028,0.000446761,-2.08853,-0.00148092,1.55262,0.785368,-1.5708,-0.516486,-2.86931e-07,-2.08525,6.75065e-07,1.55006,0.785399,-0.00045682,0.252681,0.000428356,0.320761,-0.000679776,-0.764119,-0.000149484,-2.76778e-05,0.292065,-2.25e-05,0.365613,6.67197e-05,-0.866896,3.18291e-05,-0.656727,-2.81009,-1.11535,21.1423,1.93849,1.51449,0.103647,-0.501976,-0.667764,-0.343582,2.80017,1.13031,0.350037,0.102293
897492,0.98,-1.57031,-0.516745,0.000446111,-2.08819,-0.00148412,1.55179,0.78537,-1.5708,-0.516187,-3.09938e-07,-2.08487,7.43066e-07,1.54918,0.785399,0.00145869,0.26028,0.000277274,0.327593,-0.000453184,-0.784895,0.000612421,-2.83023e-05,0.298895,-2.30077e-05,0.373863,6.80007e-05,-0.886886,3.24402e-05,-0.732105,-2.90927,-1.11535,21.1939,1.93849,1.48153,0.0844213,-0.502649,-0.690532,-0.343318,2.8272,1.13022,0.345764,0.102547
897493,0.98,-1.57031,-0.516452,0.000444225,-2.08784,-0.00148016,1.55093,0.785365,-1.5708,-0.515881,-3.33459e-07,-2.08449,8.12295e-07,1.54827,0.785399,-0.000790777,0.277227,-0.000378185,0.339255,0.000308229,-0.809349,-0.00101587,-2.89334e-05,0.30583,-2.35207e-05,0.3822,6.92284e-05,-0.906552,3.30259e-05,-0.656727,-3.01242,-1.09155,21.1939,1.92201,1.49526,0.122873,-0.504179,-0.718873,-0.344145,2.85446,1.13009,0.341356,0.10287
897494,0.98,-1.57031,-0.516165,0.000444152,-2.08748,-0.00148067,1.55003,0.785368,-1.5708,-0.515569,-3.57493e-07,-2.0841,8.82751e-07,1.54734,0.785399,0.000679241,0.280441,-0.00025679,0.344069,-0.000201415,-0.846787,-0.000914608,-2.95646e-05,0.312766,-2.40338e-05,0.390538,7.0456e-05,-0.926218,3.36115e-05,-0.708302,-3.03622,-1.09155,21.2693,1.933,1.62344,0.129282,-0.50545,-0.760874,-0.344442,2.88625,1.13004,0.337186,0.103261
897495,0.98,-1.57031,-0.515864,0.000442179,-2.08711,-0.0014786,1.54912,0.785367,-1.5708,-0.515249,-3.8204e-07,-2.0837,9.54434e-07,1.5464,0.785399,-0.000196787,0.285185,-0.000824307,0.35374,0.000476075,-0.868975,-0.000135021,-3.01958e-05,0.319701,-2.45469e-05,0.398875,7.16836e-05,-0.945883,3.41972e-05,-0.680531,-3.06003,-1.06378,21.2177,1.91652,1.70126,0.116465,-0.506267,-0.809092,-0.343938,2.92112,1.13005,0.333464,0.103733
897496,0.98,-1.57031,-0.515555,0.000445791,-2.08673,-0.00147913,1.54821,0.78537,-1.5708,-0.514922,-4.071e-07,-2.08329,1.02735e-06,1.54543,0.785399,-0.000131191,0.295915,0.000654263,0.356704,0.000113933,-0.880395,0.00109678,-3.08269e-05,0.326637,-2.506e-05,0.407212,7.29113e-05,-0.965549,3.47828e-05,-0.680531,-3.0878,-1.11535,21.3446,1.92201,1.66189,0.0844213,-0.506983,-0.856071,-0.343233,2.95678,1.13007,0.330154,0.104289
897497,0.98,-1.57031,-0.515236,0.000449407,-2.08635,-0.00147717,1.54728,0.785369,-1.5708,-0.514589,-4.32673e-07,-2.08288,1.10148e-06,1.54445,0.785399,-0.000644273,0.29999,0.00164063,0.362882,0.000720215,-0.899203,0.000493828,-3.14581e-05,0.333572,-2.55731e-05,0.41555,7.41389e-05,-0.985215,3.53685e-05,-0.656727,-3.0878,-1.16693,21.4438,1.90462,1.62985,0.09083,-0.508333,-0.904023,-0.343654,2.99486,1.13015,0.327324,0.104908
897498,0.98,-1.57031,-0.514903,0.000446247,-2.08596,-0.00147787,1.5463,0.78537,-1.5708,-0.514248,-4.58759e-07,-2.08245,1.17685e-06,1.54344,0.785399,0.000127297,0.308296,-0.00067096,0.369204,0.000242784,-0.911743,0.000803937,-3.20892e-05,0.340508,-2.60862e-05,0.423887,7.53665e-05,-1.00488,3.59541e-05,-0.680531,-3.16318,-1.09155,21.5906,1.91103,1.69485,0.0780126,-0.510295,-0.951709,-0.345228,3.03507,1.13032,0.324885,0.105535
897499,0.99,-1.57031,-0.514565,0.000446957,-2.08556,-0.0014797,1.54531,0.78537,-1.5708,-0.513901,-4.85358e-07,-2.08202,1.25345e-06,1.54242,0.785399,8.48646e-05,0.313242,-0.000448414,0.37236,-0.000448495,-0.932279,0.000535958,-3.27204e-05,0.347443,-2.65992e-05,0.432225,7.65942e-05,-1.02455,3.65398e-05,-0.680531,-3.31393,-1.09155,21.7414,1.92751,1.65548,0.0780126,-0.511787,-0.997243,-0.346192,3.07675,1.1306,0.322738,0.106119
897500,1,-1.57031,-0.514225,0.000446734,-2.08516,-0.00148225,1.54433,0.785373,-1.5708,-0.513546,-5.12471e-07,-2.08158,1.33127e-06,1.54137,0.785399,5.65764e-05,0.317001,0.000257039,0.378383,-0.00114671,-0.949176,0.000119946,-3.33515e-05,0.354379,-2.71123e-05,0.440562,7.78218e-05,-1.04421,3.71254e-05,-0.680531,-3.38931,-1.11535,21.8405,1.9504,1.52731,0.0844213,-0.512819,-1.03818,-0.346533,3.11975,1.131,0.320947,0.106631
897501,1,-1.57031,-0.513872,0.000444432,-2.08474,-0.00148408,1.5433,0.785373,-1.5708,-0.513185,-5.40096e-07,-2.08113,1.41032e-06,1.54031,0.785399,3.77176e-05,0.327494,-0.000386076,0.385839,-0.00137482,-0.968995,-0.000157395,-3.39827e-05,0.361314,-2.76254e-05,0.448899,7.90494e-05,-1.06388,3.77111e-05,-0.680531,-3.49246,-1.09155,21.9159,1.96687,1.49526,0.09083,-0.513854,-1.07315,-0.346995,3.16317,1.13147,0.319384,0.10706
897502,1,-1.57031,-0.513518,0.000444403,-2.08432,-0.00148859,1.54227,0.785368,-1.5708,-0.512817,-5.68235e-07,-2.08068,1.49059e-06,1.53923,0.785399,0.000674759,0.332389,-0.000907465,0.396088,-0.00135736,-0.995519,-0.00105437,-3.46139e-05,0.36825,-2.81385e-05,0.457237,8.02771e-05,-1.08354,3.82967e-05,-0.708302,-3.46469,-1.06378,21.9635,1.97878,1.48153,0.116465,-0.514682,-1.10441,-0.347142,3.20624,1.13202,0.317754,0.107415
897503,1,-1.57031,-0.513149,0.000446992,-2.08388,-0.00148514,1.54121,0.785374,-1.5708,-0.512442,-5.9688e-07,-2.08021,1.57203e-06,1.53813,0.7854,-0.000756587,0.344183,4.42869e-05,0.409093,-0.000464096,-1.01855,0.00167068,-3.52372e-05,0.375123,-2.86452e-05,0.465471,8.14362e-05,-1.10222,3.88497e-05,-0.656727,-3.51627,-1.09155,21.8644,1.96687,1.43667,0.0523779,-0.515133,-1.13245,-0.34664,3.2466,1.13258,0.315657,0.107723
897504,1,-1.57031,-0.512776,0.000441456,-2.08344,-0.00148321,1.5401,0.785377,-1.5708,-0.51206,-6.26032e-07,-2.07974,1.65462e-06,1.537,0.7854,5.24209e-05,0.353346,-0.00117716,0.418092,9.75037e-05,-1.04053,0.00135114,-3.58605e-05,0.381996,-2.9152e-05,0.473705,8.25954e-05,-1.1209,3.94027e-05,-0.680531,-3.69479,-1.03998,21.8405,1.95589,1.51449,0.0459692,-0.515081,-1.16053,-0.345324,3.28342,1.13311,0.31281,0.108002
897505,1,-1.57032,-0.512394,0.000444436,-2.08299,-0.0014848,1.53899,0.785377,-1.5708,-0.511671,-6.5569e-07,-2.07925,1.73838e-06,1.53586,0.7854,-0.00172829,0.362598,0.000421453,0.429586,-0.000545349,-1.05481,0.000426045,-3.64839e-05,0.38887,-2.96587e-05,0.481939,8.37545e-05,-1.13958,3.99557e-05,-0.605152,-3.77017,-1.09155,21.7176,1.97237,1.53372,0.0587866,-0.5144,-1.19241,-0.343073,3.31739,1.13365,0.309093,0.108214
897506,1,-1.57032,-0.51201,0.000442274,-2.08253,-0.00148289,1.53786,0.785375,-1.5708,-0.511275,-6.85856e-07,-2.07876,1.82329e-06,1.53471,0.7854,-0.00115219,0.377128,-0.000368793,0.436697,0.000246785,-1.06694,0.000521389,-3.71072e-05,0.395743,-3.01654e-05,0.490173,8.49136e-05,-1.15825,4.05086e-05,-0.605152,-3.82175,-1.06378,21.6144,1.95589,1.52731,0.0523779,-0.513173,-1.23289,-0.340179,3.3503,1.13423,0.30454,0.108319
897507,1,-1.57032,-0.511615,0.000442203,-2.08206,-0.00148226,1.53671,0.785372,-1.5708,-0.510873,-7.16528e-07,-2.07827,1.90937e-06,1.53353,0.7854,-0.000768129,0.380123,-0.000245973,0.446492,0.000367974,-1.08659,-0.000364484,-3.77306e-05,0.402616,-3.06721e-05,0.498407,8.60728e-05,-1.17693,4.10616e-05,-0.605152,-3.84555,-1.06378,21.4914,1.9504,1.60421,0.071604,-0.51161,-1.28446,-0.336979,3.38376,1.13492,0.299348,0.108307
897508,1,-1.57032,-0.511212,0.00043689,-2.08157,-0.00147787,1.53554,0.785374,-1.5708,-0.510463,-7.47707e-07,-2.07776,1.9966e-06,1.53233,0.7854,-0.00162571,0.385508,-0.0019273,0.456499,0.00170338,-1.10632,0.000706446,-3.83539e-05,0.40949,-3.11789e-05,0.506641,8.72319e-05,-1.19561,4.16146e-05,-0.557545,-3.86935,-0.988401,21.2455,1.91103,1.70126,0.0459692,-0.509437,-1.33589,-0.332993,3.41343,1.13563,0.293507,0.108172
897509,1,-1.57032,-0.510814,0.000442171,-2.08107,-0.00147787,1.53437,0.785375,-1.5708,-0.510047,-7.79392e-07,-2.07724,2.08499e-06,1.53112,0.7854,-0.00108381,0.390591,0.000478307,0.462753,0.00113559,-1.12232,-0.000241113,-3.89772e-05,0.416363,-3.16856e-05,0.514875,8.83911e-05,-1.21429,4.21676e-05,-0.557545,-3.79398,-1.06378,21.0431,1.91103,1.44949,0.0651953,-0.506666,-1.37589,-0.328323,3.43498,1.13624,0.287098,0.107916
897510,1,-1.57033,-0.510399,0.000438828,-2.08058,-0.0014797,1.5332,0.785379,-1.5708,-0.509623,-8.11585e-07,-2.07672,2.17454e-06,1.52989,0.7854,-0.0036922,0.39844,-0.000794799,0.474997,0.000146705,-1.13445,0.000822602,-3.96006e-05,0.423236,-3.21923e-05,0.52311,8.95502e-05,-1.23296,4.27205e-05,-0.430592,-3.77017,-1.01617,20.9201,1.92751,1.18582,0.038645,-0.503629,-1.40266,-0.32373,3.4478,1.1367,0.280238,0.107551
897511,1,-1.57033,-0.509978,0.000438827,-2.08006,-0.00148412,1.53198,0.785382,-1.5708,-0.509193,-8.44284e-07,-2.07619,2.26525e-06,1.52863,0.7854,-0.00190466,0.404721,-0.000529901,0.486025,-0.000309097,-1.15556,0.00149784,-4.02239e-05,0.43011,-3.26991e-05,0.531344,9.07093e-05,-1.25164,4.32735e-05,-0.454395,-3.7186,-1.01617,20.6702,1.93849,1.16018,0.0130102,-0.499795,-1.41652,-0.318621,3.45058,1.13699,0.272545,0.107082
897512,1,-1.57033,-0.509546,0.000435207,-2.07953,-0.00148199,1.53072,0.785388,-1.5708,-0.508756,-8.7749e-07,-2.07565,2.35712e-06,1.52736,0.7854,-0.000712958,0.413754,-0.00155972,0.506036,-0.000206065,-1.21078,0.00289743,-4.08473e-05,0.436983,-3.32058e-05,0.539578,9.18685e-05,-1.27032,4.38265e-05,-0.478199,-3.86935,-0.964597,20.3727,1.93849,1.35977,-0.0382593,-0.495463,-1.41715,-0.31319,3.44138,1.13696,0.263676,0.106509
897513,1,-1.57033,-0.509111,0.000433537,-2.07899,-0.00148575,1.52949,0.785381,-1.5708,-0.508313,-9.11186e-07,-2.0751,2.45007e-06,1.52608,0.7854,-0.00103212,0.420306,-0.00159664,0.517227,-0.00162935,-1.22336,0.000744825,-4.14513e-05,0.44366,-3.36968e-05,0.547556,9.29499e-05,-1.2876,4.43424e-05,-0.454395,-3.92093,-0.940793,20.1981,1.97878,1.36618,-0.00621587,-0.49118,-1.40455,-0.307934,3.41869,1.13649,0.253625,0.105797
897514,1,-1.57033,-0.508671,0.000433537,-2.07843,-0.00149187,1.52822,0.785377,-1.5708,-0.507862,-9.45374e-07,-2.07455,2.5441e-06,1.52477,0.7854,-0.00328928,0.422971,-0.00106444,0.525217,-0.00213739,-1.23529,-0.00167359,-4.20553e-05,0.450337,-3.41878e-05,0.555535,9.40314e-05,-1.30489,4.48583e-05,-0.478199,-3.9725,-0.940793,20.0513,2.00716,1.44308,0.0523779,-0.486368,-1.378,-0.30219,3.3824,1.13571,0.242386,0.10488
897515,1,-1.57033,-0.508236,0.000434747,-2.07787,-0.00148838,1.52694,0.785377,-1.5708,-0.507405,-9.80053e-07,-2.07398,2.63921e-06,1.52345,0.7854,-0.00245602,0.426057,0.000403983,0.537078,6.70422e-05,-1.24715,-0.00135308,-4.26593e-05,0.457014,-3.46788e-05,0.563513,9.51128e-05,-1.32218,4.53742e-05,-0.478199,-3.82175,-0.988401,19.9244,1.96687,1.5914,0.0587866,-0.481203,-1.33356,-0.296551,3.33214,1.1348,0.229903,0.103749
897516,1,-1.57033,-0.507797,0.000432367,-2.07731,-0.00147483,1.52563,0.785381,-1.5708,-0.506942,-1.01522e-06,-2.07341,2.73541e-06,1.52211,0.7854,-0.00183473,0.425455,-0.000287498,0.538819,0.00360508,-1.26307,0.000318647,-4.32632e-05,0.463691,-3.51698e-05,0.571492,9.61943e-05,-1.33946,4.58901e-05,-0.478199,-3.64322,-0.964597,20.0751,1.87074,1.71408,0.0258276,-0.476987,-1.26709,-0.29282,3.2683,1.1338,0.216495,0.102475
897517,1,-1.57033,-0.507357,0.00043167,-2.07675,-0.00146512,1.5243,0.785379,-1.5708,-0.506471,-1.05088e-06,-2.07283,2.83268e-06,1.52075,0.7854,-0.00137118,0.428478,0.00036514,0.555867,0.00531951,-1.27576,0.000687149,-4.38672e-05,0.470369,-3.56608e-05,0.57947,9.72757e-05,-1.35675,4.64061e-05,-0.478199,-3.46469,-0.988401,20.2735,1.79201,1.81661,0.0130102,-0.474458,-1.17571,-0.291757,3.19147,1.13266,0.202666,0.101123
897518,1,-1.57033,-0.506895,0.00042967,-2.07617,-0.00146603,1.52298,0.785379,-1.5708,-0.505994,-1.08704e-06,-2.07225,2.93104e-06,1.51938,0.7854,-0.00102515,0.433808,-0.0040132,0.562571,0.0125647,-1.28512,-0.000253978,-4.44712e-05,0.477046,-3.61518e-05,0.587449,9.83572e-05,-1.37404,4.6922e-05,-0.478199,-3.46469,-0.940793,20.3727,1.803,1.77175,0.0322363,-0.472474,-1.06055,-0.291329,3.1015,1.13124,0.188653,0.0996899
897519,1,-1.57034,-0.50644,0.000429657,-2.07558,-0.00146649,1.52163,0.785373,-1.5708,-0.505511,-1.12368e-06,-2.07165,3.03048e-06,1.51799,0.7854,-0.00188032,0.437623,-0.00238058,0.563904,0.0079073,-1.30006,-0.00257682,-4.50752e-05,0.483723,-3.66428e-05,0.595428,9.94386e-05,-1.39133,4.74379e-05,-0.430592,-3.41708,-0.964597,20.5988,1.83687,1.76535,0.0972387,-0.469173,-0.932473,-0.288637,3.00527,1.12958,0.175217,0.0981774
897520,1,-1.57034,-0.505966,0.000425477,-2.075,-0.00146915,1.52028,0.785369,-1.5708,-0.50502,-1.16081e-06,-2.07105,3.131e-06,1.51658,0.7854,-0.000759187,0.449528,-0.00298992,0.5687,0.004606,-1.31859,-0.00314203,-4.56792e-05,0.4904,-3.71338e-05,0.603406,0.00010052,-1.40861,4.79538e-05,-0.454395,-3.49246,-0.913022,20.8448,1.87074,1.76535,0.135691,-0.464586,-0.810057,-0.283981,2.91628,1.12791,0.163653,0.0966739
897521,1,-1.57033,-0.505477,0.00041954,-2.0744,-0.00147255,1.5189,0.785361,-1.5708,-0.504523,-1.19844e-06,-2.07044,3.2326e-06,1.51515,0.7854,-0.00193786,0.4606,-0.00334703,0.572378,0.00225786,-1.32716,-0.00450219,-4.62832e-05,0.497077,-3.76248e-05,0.611385,0.000101602,-1.4259,4.84697e-05,-0.529774,-3.54007,-0.861447,21.0709,1.90462,1.72048,0.200693,-0.459213,-0.713715,-0.27831,2.84639,1.12646,0.154819,0.0953342
897522,1,-1.57033,-0.505006,0.000418768,-2.07381,-0.00147816,1.51749,0.785358,-1.5708,-0.504019,-1.23655e-06,-2.06982,3.33528e-06,1.51371,0.7854,-0.000939765,0.464748,-0.00234185,0.571291,0.00098889,-1.35031,-0.00300146,-4.68872e-05,0.503754,-3.81158e-05,0.619363,0.000102683,-1.44319,4.89856e-05,-0.557545,-3.41708,-0.861447,21.3922,1.92751,1.75253,0.200693,-0.453268,-0.653695,-0.271951,2.8022,1.12545,0.149078,0.0943163
897523,1,-1.57034,-0.50452,0.000418328,-2.07322,-0.00147919,1.51608,0.785362,-1.5708,-0.503509,-1.27514e-06,-2.06919,3.43896e-06,1.51225,0.7854,-0.00149923,0.466243,-0.000994495,0.577987,0.000907778,-1.37454,-0.000576818,-4.74627e-05,0.510128,-3.85836e-05,0.626965,0.000103681,-1.45884,4.94618e-05,-0.529774,-3.38931,-0.889218,21.666,1.92751,1.84225,0.162241,-0.448226,-0.62118,-0.266968,2.78201,1.12485,0.146383,0.0937479
897524,1,-1.57033,-0.504034,0.000419021,-2.07262,-0.00148207,1.51464,0.785358,-1.5708,-0.502993,-1.31419e-06,-2.06855,3.54364e-06,1.51078,0.7854,0.000596423,0.481803,0.000481274,0.58185,-5.6137e-05,-1.3913,-0.00157134,-4.80381e-05,0.516502,-3.90514e-05,0.634566,0.000104679,-1.47449,4.9938e-05,-0.605152,-3.26236,-0.940793,21.9159,1.9504,1.85507,0.194285,-0.445915,-0.608236,-0.265841,2.78196,1.1245,0.146393,0.0936837
897525,1,-1.57033,-0.503544,0.000423335,-2.07202,-0.00147964,1.51319,0.785358,-1.5708,-0.50247,-1.35371e-06,-2.06791,3.64932e-06,1.50929,0.7854,0.000272119,0.480044,0.00203747,0.585943,0.000950077,-1.43866,-0.000810201,-4.86136e-05,0.522876,-3.95192e-05,0.642168,0.000105677,-1.49014,5.04141e-05,-0.605152,-3.0878,-1.01617,22.1619,1.92751,1.9457,0.187876,-0.44764,-0.61472,-0.270315,2.80142,1.12434,0.149089,0.0941163
897526,1,-1.57033,-0.503051,0.00042042,-2.0714,-0.00147907,1.51173,0.785354,-1.5708,-0.501941,-1.39369e-06,-2.06726,3.75599e-06,1.50778,0.785401,0.00129372,0.481543,-0.00125787,0.591407,0.000941679,-1.44849,-0.00196429,-4.9189e-05,0.52925,-3.9987e-05,0.649769,0.000106676,-1.5058,5.08903e-05,-0.656727,-2.90927,-1.03998,22.3365,1.92201,1.88162,0.226328,-0.452524,-0.626425,-0.278944,2.8343,1.12428,0.154234,0.0949901
897527,1,-1.57032,-0.502538,0.000418431,-2.07078,-0.00148031,1.51022,0.785357,-1.5708,-0.501405,-1.43415e-06,-2.0666,3.86367e-06,1.50626,0.785401,0.00376155,0.493119,-0.000569494,0.6026,0.000299517,-1.45875,-0.00012273,-4.97644e-05,0.535624,-4.04548e-05,0.65737,0.000107674,-1.52145,5.13665e-05,-0.78368,-3.01242,-1.06378,22.4356,1.933,1.99697,0.194285,-0.458693,-0.630673,-0.288632,2.87193,1.12428,0.160756,0.0962365
897528,1,-1.57032,-0.502005,0.000417029,-2.07015,-0.00148031,1.50873,0.78536,-1.5708,-0.500863,-1.47507e-06,-2.06594,3.97234e-06,1.50472,0.785401,0.00301157,0.500329,5.4158e-05,0.610266,0.000258653,-1.47017,-0.00388246,-5.03399e-05,0.541998,-4.09226e-05,0.664972,0.000108672,-1.5371,5.18427e-05,-0.807484,-3.23856,-1.09155,22.4634,1.933,1.96493,0.16865,-0.466073,-0.631587,-0.299064,2.9113,1.1243,0.167633,0.0978175
897529,1,-1.57032,-0.501461,0.000419072,-2.06952,-0.00148031,1.50721,0.785364,-1.5708,-0.500315,-1.51646e-06,-2.06527,4.08201e-06,1.50317,0.785401,0.001968,0.514016,0.0016375,0.615548,0.000216666,-1.47671,-0.00176344,-5.09153e-05,0.548372,-4.13904e-05,0.672573,0.00010967,-1.55276,5.23189e-05,-0.807484,-3.54007,-1.16693,22.5348,1.933,1.95852,0.135691,-0.474753,-0.638869,-0.310659,2.95446,1.12439,0.174588,0.0996758
897530,1,-1.57031,-0.500918,0.000419018,-2.06887,-0.0014797,1.50567,0.785362,-1.5708,-0.49976,-1.55832e-06,-2.06459,4.19268e-06,1.5016,0.785401,0.00183903,0.52631,-0.000411957,0.622535,0.000381068,-1.49514,-0.00198113,-5.14908e-05,0.554746,-4.18582e-05,0.680175,0.000110668,-1.56841,5.2795e-05,-0.831288,-3.82175,-1.24231,22.4356,1.92751,1.85507,0.149424,-0.483524,-0.665441,-0.321935,3.00693,1.12473,0.181881,0.10171
897531,1,-1.57031,-0.500369,0.000411305,-2.06821,-0.00148092,1.50415,0.785358,-1.5708,-0.499199,-1.60065e-06,-2.0639,4.30434e-06,1.50002,0.785401,0.00120369,0.527286,-0.00434252,0.630715,-0.000127976,-1.49952,-0.00296757,-5.20662e-05,0.56112,-4.2326e-05,0.687776,0.000111666,-1.58406,5.32712e-05,-0.831288,-3.94473,-1.2185,22.3127,1.93849,1.64266,0.187876,-0.48967,-0.711057,-0.328845,3.06794,1.12545,0.189387,0.103792
897532,1,-1.57031,-0.499825,0.00040624,-2.06755,-0.00148224,1.50261,0.785362,-1.5708,-0.498631,-1.64344e-06,-2.0632,4.41701e-06,1.49842,0.785401,0.00143532,0.531845,-0.00544008,0.63873,-0.000507467,-1.50319,-0.000721221,-5.26417e-05,0.567494,-4.27938e-05,0.695378,0.000112664,-1.59972,5.37474e-05,-0.859058,-4.04788,-1.26611,22.2373,1.9504,1.35336,0.149424,-0.4909,-0.757401,-0.32791,3.12771,1.12653,0.196111,0.105824
897533,1,-1.57031,-0.499266,0.000398996,-2.06688,-0.00148408,1.50105,0.785368,-1.5708,-0.498058,-1.68667e-06,-2.0625,4.53059e-06,1.4968,0.785401,0.0077002,0.541102,-0.00678442,0.646662,-0.000934668,-1.5184,0.00132672,-5.31812e-05,0.57348,-4.32324e-05,0.702505,0.000113576,-1.61359,5.41822e-05,-0.882862,-4.12326,-1.29388,22.0389,1.96687,1.19863,0.0972387,-0.489029,-0.79453,-0.321468,3.18049,1.12777,0.20114,0.107784
897534,1,-1.5703,-0.498699,0.000394829,-2.06619,-0.00148286,1.49944,0.785373,-1.5708,-0.497478,-1.73034e-06,-2.06179,4.64507e-06,1.49518,0.785401,0.0086103,0.543482,-0.00662611,0.65641,-0.000205715,-1.53518,0.00245206,-5.37208e-05,0.579466,-4.3671e-05,0.709632,0.000114487,-1.62747,5.4617e-05,-1.00982,-4.14706,-1.36926,21.789,1.95589,1.18582,0.0523779,-0.488171,-0.822267,-0.315095,3.22569,1.12893,0.204015,0.109656
897535,0.99,-1.57029,-0.49813,0.000386956,-2.06549,-0.00148347,1.49781,0.78538,-1.5708,-0.496893,-1.77445e-06,-2.06108,4.76047e-06,1.49354,0.785401,0.007327,0.550988,-0.00776034,0.686183,-0.000332722,-1.55343,0.00373439,-5.42604e-05,0.585451,-4.41096e-05,0.71676,0.000115399,-1.64135,5.50518e-05,-1.06139,-4.25021,-1.39306,21.3446,1.96138,1.22427,-0.00621587,-0.489419,-0.830898,-0.310599,3.25464,1.12972,0.203653,0.111336
897536,0.99,-1.57029,-0.497544,0.000377383,-2.06477,-0.00148092,1.49617,0.785388,-1.5708,-0.496301,-1.819e-06,-2.06035,4.87678e-06,1.49188,0.785401,0.00749,0.558372,-0.00920067,0.696228,0.0006318,-1.58144,0.00508161,-5.47999e-05,0.591437,-4.45483e-05,0.723887,0.00011631,-1.65522,5.54866e-05,-1.16057,-4.37717,-1.39306,20.9201,1.93849,1.48794,-0.077627,-0.490966,-0.812143,-0.305812,3.25746,1.12999,0.199076,0.112674
897537,0.99,-1.57029,-0.496946,0.00036975,-2.06404,-0.00148092,1.49454,0.785388,-1.5708,-0.495704,-1.86399e-06,-2.05962,4.994e-06,1.49021,0.785401,0.00344405,0.570872,-0.00952917,0.703605,0.000425628,-1.58455,0.00334811,-5.53395e-05,0.597422,-4.49869e-05,0.731015,0.000117222,-1.6691,5.59215e-05,-1.08519,-4.73026,-1.42083,20.5472,1.93849,1.37258,-0.077627,-0.490842,-0.778387,-0.298255,3.24036,1.12997,0.191128,0.113527
897538,0.99,-1.57029,-0.49635,0.000362295,-2.06332,-0.00147655,1.49294,0.785387,-1.5708,-0.495101,-1.90941e-06,-2.05888,5.11214e-06,1.48853,0.785401,0.000693269,0.576208,-0.00730267,0.713362,0.00174514,-1.58562,0.001965,-5.58791e-05,0.603408,-4.54255e-05,0.738142,0.000118133,-1.68298,5.63563e-05,-1.00982,-4.93259,-1.42083,20.3489,1.89913,1.15377,-0.0712183,-0.48811,-0.746676,-0.28729,3.21453,1.13004,0.181114,0.113769
897539,0.99,-1.5703,-0.495754,0.000355548,-2.06257,-0.00146404,1.49128,0.785384,-1.5708,-0.494491,-1.95528e-06,-2.05814,5.23118e-06,1.48683,0.785401,-0.000623894,0.579021,-0.00558087,0.723885,0.00533665,-1.60402,0.000304362,-5.64186e-05,0.609394,-4.58641e-05,0.74527,0.000119045,-1.69685,5.67911e-05,-0.958241,-4.95639,-1.42083,20.1267,1.78652,1.26272,-0.044668,-0.484127,-0.716481,-0.275583,3.18103,1.13017,0.169386,0.113338
897540,0.99,-1.5703,-0.495162,0.00034755,-2.06183,-0.00146206,1.4896,0.785386,-1.5708,-0.493876,-2.00158e-06,-2.05738,5.35114e-06,1.48512,0.785401,-0.00143929,0.583973,-0.00546132,0.725997,0.00315273,-1.62354,0.000694816,-5.69582e-05,0.615379,-4.63028e-05,0.752397,0.000119956,-1.71073,5.72259e-05,-0.910633,-4.95639,-1.36926,20.0751,1.7975,1.36618,-0.0584009,-0.48077,-0.68213,-0.266109,3.14002,1.13017,0.156437,0.112274
897541,0.99,-1.5703,-0.494558,0.00033867,-2.06109,-0.00146537,1.48792,0.785391,-1.5708,-0.493254,-2.04832e-06,-2.05662,5.47201e-06,1.4834,0.785401,-0.00274787,0.583562,-0.00580485,0.729238,0.000645161,-1.64816,0.00116275,-5.74977e-05,0.621365,-4.67414e-05,0.759525,0.000120868,-1.72461,5.76607e-05,-0.831288,-4.95639,-1.29388,20.1981,1.83687,1.51449,-0.077627,-0.478094,-0.643599,-0.258932,3.09659,1.12999,0.143417,0.110677
897542,0.99,-1.57032,-0.493954,0.000331723,-2.06035,-0.00147193,1.48622,0.785384,-1.5708,-0.492627,-2.0955e-06,-2.05586,5.59378e-06,1.48166,0.785401,-0.00530761,0.603975,-0.00537688,0.731623,-0.00187461,-1.65803,-0.0018791,-5.80373e-05,0.62735,-4.718e-05,0.766652,0.000121779,-1.73848,5.80955e-05,-0.680531,-4.85721,-1.24231,20.448,1.89913,1.53372,-0.00621587,-0.474907,-0.612876,-0.252356,3.05995,1.12981,0.131623,0.108649
897543,0.99,-1.57032,-0.493349,0.000321705,-2.0596,-0.00147375,1.48451,0.78537,-1.5708,-0.491994,-2.14309e-06,-2.05508,5.71639e-06,1.47991,0.785401,-0.00461395,0.601717,-0.00677966,0.734457,-0.00189321,-1.70887,-0.00604087,-5.85352e-05,0.63288,-4.75847e-05,0.773228,0.000122602,-1.7505,5.8488e-05,-0.632923,-4.65488,-1.11535,20.821,1.91652,1.69485,0.122873,-0.470239,-0.606738,-0.244937,3.03997,1.12987,0.122324,0.106313
897544,0.99,-1.57032,-0.49273,0.000315586,-2.05884,-0.00147314,1.48276,0.785353,-1.5708,-0.491356,-2.19108e-06,-2.05431,5.83981e-06,1.47814,0.785402,-0.00128417,0.607296,-0.00589526,0.7377,-6.94046e-06,-1.71205,-0.00861017,-5.9033e-05,0.638409,-4.79894e-05,0.779805,0.000123424,-1.76252,5.88805e-05,-0.708302,-4.50412,-1.06378,21.2177,1.88265,1.88162,0.24647,-0.465397,-0.619792,-0.238115,3.03637,1.13012,0.1161,0.103863
897545,0.99,-1.57032,-0.492106,0.000305662,-2.05807,-0.00146972,1.48099,0.785352,-1.5708,-0.490712,-2.23947e-06,-2.05352,5.96406e-06,1.47637,0.785402,-0.00148431,0.609324,-0.00953243,0.740116,0.00148779,-1.72449,-0.00476074,-5.95309e-05,0.643939,-4.83942e-05,0.786381,0.000124247,-1.77454,5.92729e-05,-0.680531,-4.47635,-0.964597,21.5906,1.84236,2.11325,0.219919,-0.461864,-0.638248,-0.233338,3.04319,1.13043,0.112568,0.101579
897546,0.99,-1.57033,-0.491456,0.000303003,-2.05732,-0.001472,1.47923,0.785357,-1.5708,-0.490062,-2.28827e-06,-2.05273,6.08913e-06,1.47458,0.785402,-0.00385033,0.619309,-0.00726982,0.742652,0.00034793,-1.73487,-0.00104057,-6.00287e-05,0.649468,-4.87989e-05,0.792958,0.00012507,-1.78656,5.96654e-05,-0.557545,-4.73026,-0.940793,21.9873,1.85976,2.20938,0.162241,-0.458489,-0.660349,-0.228706,3.05918,1.13089,0.111508,0.0997375
897547,0.99,-1.57034,-0.490802,0.000298595,-2.05656,-0.00147075,1.47744,0.785359,-1.5708,-0.489407,-2.33747e-06,-2.05193,6.21502e-06,1.47278,0.785402,-0.00728774,0.628957,-0.00576469,0.745667,0.00907686,-1.74752,1.61313e-05,-6.05266e-05,0.654997,-4.92036e-05,0.799534,0.000125892,-1.79858,6.00579e-05,-0.355213,-4.90482,-0.913022,22.388,1.87624,2.27438,0.143015,-0.454323,-0.694177,-0.223371,3.08782,1.13153,0.11325,0.0984775
897548,0.99,-1.57035,-0.490156,0.000290814,-2.0558,-0.00147105,1.47564,0.785357,-1.5708,-0.488747,-2.38708e-06,-2.05112,6.34173e-06,1.47097,0.785402,-0.00605588,0.632476,-0.00636458,0.749107,0.00639854,-1.75668,-0.00141507,-6.10244e-05,0.660527,-4.96083e-05,0.80611,0.000126715,-1.8106,6.04503e-05,-0.303639,-5.08334,-0.81384,22.5864,1.88814,2.26797,0.181467,-0.44953,-0.743841,-0.218079,3.13056,1.1323,0.117942,0.0977723
897549,0.99,-1.57034,-0.489508,0.000288411,-2.05502,-0.00146877,1.47386,0.785353,-1.5708,-0.488081,-2.43709e-06,-2.05031,6.46927e-06,1.46915,0.785402,-0.00226724,0.635496,-0.00439411,0.752072,0.00550103,-1.76045,-0.00260615,-6.15222e-05,0.666056,-5.0013e-05,0.812687,0.000127538,-1.82262,6.08428e-05,-0.379017,-5.08334,-0.81384,22.7332,1.87074,2.07479,0.226328,-0.445833,-0.800201,-0.215184,3.1829,1.13307,0.125155,0.0975472
897550,0.99,-1.57035,-0.488864,0.000285479,-2.05423,-0.00146998,1.47205,0.785348,-1.5708,-0.487409,-2.48751e-06,-2.04949,6.59763e-06,1.46732,0.785402,-0.00504002,0.638443,-0.00304269,0.757702,0.00366985,-1.77349,-0.00248436,-6.20201e-05,0.671585,-5.04177e-05,0.819263,0.000128361,-1.83464,6.12353e-05,-0.355213,-5.05954,-0.81384,22.7094,1.88265,1.90725,0.24647,-0.445395,-0.851562,-0.217668,3.23884,1.13364,0.134135,0.0977749
897551,0.99,-1.57035,-0.488206,0.000284041,-2.05342,-0.0014731,1.47024,0.785349,-1.5708,-0.486732,-2.53833e-06,-2.04866,6.72682e-06,1.46547,0.785402,-0.00425388,0.642283,-0.00470457,0.776673,0.00172789,-1.78538,-0.00118223,-6.25179e-05,0.677115,-5.08224e-05,0.82584,0.000129183,-1.84666,6.16277e-05,-0.327442,-5.08334,-0.837644,22.3365,1.91103,1.84225,0.233652,-0.447014,-0.886332,-0.223856,3.28943,1.13392,0.143594,0.0984492
897552,0.99,-1.57036,-0.487531,0.000286165,-2.05261,-0.00147811,1.4684,0.785353,-1.5708,-0.486049,-2.58956e-06,-2.04783,6.85682e-06,1.46361,0.785402,-0.00478235,0.65116,-0.0016992,0.786859,0.000790936,-1.79723,0.00066938,-6.30158e-05,0.682644,-5.12272e-05,0.832416,0.000130006,-1.85868,6.20202e-05,-0.252064,-5.10715,-0.913022,22.0389,1.92751,1.72689,0.194285,-0.449055,-0.89785,-0.231273,3.32562,1.13378,0.152008,0.0995555
897553,0.99,-1.57035,-0.486859,0.000282979,-2.05178,-0.00148171,1.46655,0.785359,-1.5708,-0.485362,-2.64116e-06,-2.04699,6.98756e-06,1.46174,0.785402,0.00020085,0.657096,-0.00137734,0.804211,-0.000133399,-1.806,0.002616,-6.34673e-05,0.687663,-5.15942e-05,0.83838,0.000130739,-1.86881,6.23697e-05,-0.402821,-5.2103,-0.913022,21.6144,1.9504,1.60421,0.135691,-0.453079,-0.889133,-0.241956,3.34445,1.1331,0.158427,0.101053
897554,0.99,-1.57035,-0.486158,0.000283405,-2.05094,-0.00148964,1.46473,0.785363,-1.5708,-0.484669,-2.69312e-06,-2.04615,7.11903e-06,1.45986,0.785402,0.00179409,0.670372,0.000104794,0.811151,-0.00140673,-1.8161,0.00293049,-6.39188e-05,0.692683,-5.19612e-05,0.844344,0.000131471,-1.87893,6.27192e-05,-0.478199,-5.51181,-0.964597,21.2693,1.98976,1.39181,0.103647,-0.461397,-0.869809,-0.258854,3.34854,1.13184,0.162518,0.102841
897555,0.99,-1.57034,-0.485461,0.000280671,-2.05008,-0.00149652,1.46288,0.785369,-1.5708,-0.483971,-2.74544e-06,-2.0453,7.25124e-06,1.45797,0.785402,0.0023252,0.680157,-0.000624503,0.820754,-0.00273149,-1.81971,0.00408967,-6.43703e-05,0.697702,-5.23283e-05,0.850308,0.000132204,-1.88906,6.30688e-05,-0.529774,-5.74191,-0.940793,20.9201,2.04103,1.09518,0.0459692,-0.473727,-0.856037,-0.281271,3.34584,1.1303,0.164474,0.104768
897556,0.99,-1.57034,-0.484759,0.000281987,-2.04923,-0.0014962,1.46102,0.785374,-1.5708,-0.483269,-2.79814e-06,-2.04444,7.38417e-06,1.45608,0.785402,0.00214179,0.683689,3.73108e-05,0.828364,-0.00150474,-1.83131,0.0044217,-6.48218e-05,0.702721,-5.26953e-05,0.856273,0.000132937,-1.89919,6.34183e-05,-0.557545,-5.96805,-0.964597,20.6464,2.03462,1.0375,0.000192821,-0.487803,-0.854449,-0.305903,3.34084,1.12889,0.164296,0.106644
897557,0.99,-1.57035,-0.484054,0.000281868,-2.04837,-0.00149511,1.45914,0.785387,-1.5708,-0.482561,-2.8512e-06,-2.04358,7.51784e-06,1.45417,0.785402,-0.000471653,0.687606,-5.25004e-05,0.835777,-0.000537082,-1.84433,0.00630461,-6.52733e-05,0.707741,-5.30623e-05,0.862237,0.000133669,-1.90931,6.37678e-05,-0.478199,-5.96805,-0.964597,20.5472,2.02364,0.99264,-0.0904444,-0.501267,-0.856892,-0.329495,3.33136,1.12783,0.16167,0.108257
897558,0.99,-1.57035,-0.483358,0.00028034,-2.0475,-0.00149393,1.45721,0.785403,-1.5708,-0.481848,-2.90463e-06,-2.04271,7.65224e-06,1.45225,0.785402,-0.000347039,0.691466,-0.00129946,0.843431,-0.00463795,-1.85784,0.00779727,-6.57248e-05,0.71276,-5.34294e-05,0.868201,0.000134402,-1.91944,6.41173e-05,-0.478199,-5.99185,-0.913022,20.5234,2.01265,1.26913,-0.18749,-0.511796,-0.855549,-0.348913,3.31543,1.1273,0.156511,0.109402
897559,0.99,-1.57035,-0.482643,0.000281037,-2.04663,-0.00149456,1.45536,0.785403,-1.5708,-0.48113,-2.95843e-06,-2.04184,7.78738e-06,1.45032,0.785402,0.000393801,0.690879,-0.000909828,0.854327,-0.0036564,-1.86206,0.00496075,-6.61763e-05,0.717779,-5.37964e-05,0.874165,0.000135134,-1.92957,6.44668e-05,-0.50597,-6.0712,-0.913022,20.5472,2.01814,0.941371,-0.181082,-0.518669,-0.842013,-0.363059,3.28953,1.12728,0.148751,0.109855
897560,0.99,-1.57035,-0.481936,0.00028127,-2.04575,-0.00149263,1.45348,0.7854,-1.5708,-0.480408,-3.01259e-06,-2.04096,7.92324e-06,1.44838,0.785403,-0.000405419,0.707552,-0.000639194,0.856705,-0.00206407,-1.8517,0.00212032,-6.66278e-05,0.722798,-5.41634e-05,0.880129,0.000135867,-1.93969,6.48164e-05,-0.478199,-6.17038,-0.913022,20.6702,2.00075,0.670375,-0.149038,-0.522923,-0.818953,-0.373296,3.2546,1.1277,0.138481,0.109433
897561,0.99,-1.57035,-0.481208,0.000279216,-2.04488,-0.00147758,1.45153,0.785398,-1.5708,-0.47968,-3.06712e-06,-2.04007,8.05984e-06,1.44643,0.785403,0.000365579,0.715463,-0.000450611,0.862032,0.00343935,-1.90564,0.000667521,-6.70793e-05,0.727818,-5.45305e-05,0.886093,0.0001366,-1.94982,6.51659e-05,-0.50597,-6.32114,-0.913022,20.821,1.86525,0.94778,-0.128897,-0.525513,-0.809016,-0.380939,3.22334,1.12865,0.126722,0.108112
897562,0.99,-1.57035,-0.480476,0.000280663,-2.04397,-0.00147377,1.44958,0.785403,-1.5708,-0.478947,-3.12202e-06,-2.03918,8.19718e-06,1.44447,0.785403,0.000233403,0.719104,-0.000318769,0.871243,0.0118856,-1.91995,0.00214041,-6.75308e-05,0.732837,-5.48975e-05,0.892057,0.000137332,-1.95995,6.55154e-05,-0.50597,-6.42429,-0.913022,20.7972,1.85976,1.4559,-0.174673,-0.527327,-0.821184,-0.387139,3.20324,1.12992,0.114619,0.105996
897563,0.99,-1.57035,-0.479754,0.000275395,-2.04307,-0.00147586,1.44758,0.785406,-1.5708,-0.47821,-3.17724e-06,-2.03828,8.33515e-06,1.4425,0.785403,0.000147865,0.719458,-0.00143271,0.875633,0.00755352,-1.94856,0.00237635,-6.79323e-05,0.737304,-5.52239e-05,0.897361,0.000137974,-1.96818,6.58216e-05,-0.50597,-6.49966,-0.861447,20.8448,1.88814,1.99057,-0.200308,-0.528534,-0.841162,-0.392054,3.18912,1.1311,0.102612,0.10318
897564,0.99,-1.57035,-0.479019,0.000274845,-2.04218,-0.00147988,1.44562,0.785384,-1.5708,-0.477468,-3.23279e-06,-2.03738,8.47377e-06,1.44052,0.785403,-0.00167046,0.721188,-0.000965468,0.88271,0.0040883,-1.95977,-0.00584173,-6.83338e-05,0.74177,-5.55503e-05,0.902664,0.000138616,-1.97641,6.61278e-05,-0.430592,-6.49966,-0.861447,21.0193,1.92751,2.27438,0.000192821,-0.528145,-0.854015,-0.394417,3.17491,1.13209,0.0913487,0.0997264
897565,0.99,-1.57035,-0.478291,0.000269372,-2.04127,-0.00147793,1.44365,0.785356,-1.5708,-0.476722,-3.28867e-06,-2.03647,8.61303e-06,1.43854,0.785403,-0.000561182,0.720974,-0.00241463,0.883141,0.0037189,-1.95529,-0.0132532,-6.87353e-05,0.746237,-5.58767e-05,0.907968,0.000139258,-1.98464,6.6434e-05,-0.454395,-6.29733,-0.786069,21.0431,1.91103,2.27438,0.252878,-0.525511,-0.851628,-0.393485,3.1574,1.13298,0.0817114,0.0957649
897566,0.99,-1.57035,-0.477575,0.000265692,-2.04039,-0.00146654,1.44166,0.78534,-1.5708,-0.475971,-3.34487e-06,-2.03556,8.75293e-06,1.43655,0.785403,0.00082904,0.719243,-0.00282199,0.900005,0.00761543,-1.95489,-0.0131419,-6.91367e-05,0.750704,-5.6203e-05,0.913272,0.0001399,-1.99288,6.67402e-05,-0.50597,-5.99185,-0.734494,21.3169,1.78011,2.17092,0.36915,-0.521293,-0.824657,-0.390009,3.13046,1.13371,0.0737941,0.0916506
897567,0.99,-1.57035,-0.476848,0.000263541,-2.03949,-0.00145443,1.43968,0.785341,-1.5708,-0.475216,-3.4014e-06,-2.03464,8.89347e-06,1.43454,0.785403,0.000550245,0.716051,-0.00188568,0.897397,0.00861543,-1.9607,-0.00682847,-6.95382e-05,0.75517,-5.65294e-05,0.918575,0.000140542,-2.00111,6.70464e-05,-0.50597,-5.81729,-0.734494,21.5152,1.69039,2.18374,0.316965,-0.517005,-0.762126,-0.385881,3.08716,1.13402,0.0672562,0.0879228
897568,0.99,-1.57036,-0.476115,0.000257535,-2.03856,-0.00145554,1.43767,0.785339,-1.5708,-0.474456,-3.45826e-06,-2.03371,9.03465e-06,1.43254,0.785403,-0.00204786,0.718996,-0.00302363,0.906931,0.00529485,-1.96825,-0.00739047,-6.99397e-05,0.759637,-5.68558e-05,0.923879,0.000141184,-2.00934,6.73526e-05,-0.402821,-5.78952,-0.659116,21.3684,1.70687,2.14529,0.265696,-0.512618,-0.665311,-0.381184,3.02996,1.13379,0.0623234,0.0850461
897569,0.99,-1.57037,-0.475362,0.000260915,-2.03766,-0.0014634,1.43569,0.785337,-1.5708,-0.473692,-3.51544e-06,-2.03278,9.17648e-06,1.43052,0.785403,-0.00489309,0.724125,-0.000811777,0.908517,-0.000112746,-1.96941,-0.00508438,-7.03412e-05,0.764103,-5.71822e-05,0.929182,0.000141826,-2.01757,6.76588e-05,-0.252064,-5.89267,-0.710691,21.4438,1.80849,1.98416,0.259287,-0.5064,-0.548485,-0.373917,2.96705,1.13313,0.0593302,0.0832223
