shamilmamedov/beam_handling/log/param_estimation_ICRA/ocp_Z_35cm_0.61s_4.csv
duration, success rate, q[0], q[1], q[2], q[3], q[4], q[5], q[6],q_d[0], q_d[1], q_d[2], q_d[3], q_d[4], q_d[5], q_d[6],dq[0], dq[1], dq[2], dq[3], dq[4], dq[5], dq[6],dq_d[0], dq_d[1], dq_d[2], dq_d[3], dq_d[4], dq_d[5], dq_d[6],tau_J[0], tau_J[1], tau_J[2], tau_J[3], tau_J[4], tau_J[5], tau_J[6],tau_ext_hat_filtered[0], tau_ext_hat_filtered[1], tau_ext_hat_filtered[2], tau_ext_hat_filtered[3], tau_ext_hat_filtered[4], tau_ext_hat_filtered[5], tau_ext_hat_filtered[6]
1849798,0,-1.57036,-0.522868,-9.57764e-05,-2.09713,-0.00148054,1.5713,0.785868,-1.5708,-0.523599,-4.55977e-08,-2.0944,-1.20955e-07,1.5708,0.785398,-0.000927647,-0.00147286,0.00136329,9.81492e-05,6.49824e-05,0.000273718,-0.000119647,0,0,0,0,0,0,0,-0.454395,-10.0901,-0.456784,22.3127,1.84877,1.31491,-0.303762,-0.500627,-1.01919,0.0617402,3.79019,1.13739,-0.350058,-0.317232
1849799,1,-1.57035,-0.522861,-9.36461e-05,-2.09714,-0.00148115,1.5713,0.785867,-1.5708,-0.523599,-4.55977e-08,-2.0944,-1.20955e-07,1.5708,0.785398,0.00114481,0.00133814,0.000908862,-0.000491379,-0.000160129,0.000419838,-0.000317123,0,0,0,0,0,0,0,-0.529774,-10.1892,-0.456784,22.3365,1.85426,1.3085,-0.297354,-0.501953,-1.01851,0.059736,3.7901,1.13734,-0.350087,-0.317051
1849800,1,-1.57035,-0.522865,-9.62768e-05,-2.09713,-0.00148054,1.5713,0.785873,-1.5708,-0.523599,-4.55977e-08,-2.0944,-1.20955e-07,1.5708,0.785398,-0.000443222,-0.000314332,-0.000507716,0.000229226,9.66979e-05,4.25329e-05,0.00148401,0,0,0,0,0,0,0,-0.478199,-10.1377,-0.409177,22.3127,1.84877,1.31491,-0.34313,-0.503638,-1.01942,0.0571587,3.79088,1.13727,-0.35004,-0.31684
1849801,1,-1.57035,-0.522863,-9.48298e-05,-2.09713,-0.00147983,1.5713,0.785873,-1.5708,-0.523599,-4.55977e-08,-2.0944,-1.20955e-07,1.5708,0.785398,-0.000295481,0.000440059,0.000775147,0.000152817,0.000301824,2.83553e-05,0.0012267,0,0,0,0,0,0,0,-0.478199,-10.1654,-0.456784,22.3127,1.84236,1.31491,-0.349539,-0.50461,-1.02113,0.0555761,3.7919,1.13723,-0.349984,-0.316625
1849802,1,-1.57035,-0.522861,-9.71315e-05,-2.09713,-0.00148054,1.57129,0.78587,-1.5708,-0.523599,-4.55977e-08,-2.0944,-1.20955e-07,1.5708,0.785398,0.00165905,0.000850185,-4.00474e-05,0.00065869,-3.61428e-05,-0.000218455,-0.000165547,0,0,0,0,0,0,0,-0.557545,-10.1892,-0.432981,22.2889,1.84877,1.32131,-0.322988,-0.505345,-1.02301,0.054294,3.79272,1.13718,-0.349964,-0.31645
1849803,1,-1.57035,-0.522863,-9.56715e-05,-2.09714,-0.00148054,1.57129,0.785874,-1.5708,-0.523599,-4.55977e-08,-2.0944,-1.20955e-07,1.5708,0.785398,-0.000750005,9.97789e-06,0.000530114,-0.000674497,-2.40952e-05,-0.000382996,0.00111034,0,0,0,0,0,0,0,-0.478199,-10.1654,-0.456784,22.3365,1.84877,1.32772,-0.355947,-0.50632,-1.02554,0.0526836,3.79373,1.13711,-0.349933,-0.316347
1849804,1,-1.57035,-0.522863,-9.6952e-05,-2.09714,-0.00147857,1.5713,0.785871,-1.5708,-0.523599,-4.55977e-08,-2.0944,-1.20955e-07,1.5708,0.785398,0.00014961,6.65193e-06,-0.000760215,-0.00100648,-0.000422965,-1.79717e-05,-0.000243119,0,0,0,0,0,0,0,-0.50597,-10.1654,-0.409177,22.3603,1.85976,1.32131,-0.329397,-0.506657,-1.02816,0.0519306,3.79516,1.13707,-0.349828,-0.316332
1849805,1,-1.57035,-0.52286,-9.83957e-05,-2.09713,-0.00147948,1.5713,0.785873,-1.5708,-0.523599,-4.55977e-08,-2.0944,-1.20955e-07,1.5708,0.785398,0.000656552,0.00111806,-0.00050681,0.000442639,0.000124925,-1.19811e-05,0.000583906,0,0,0,0,0,0,0,-0.529774,-10.213,-0.409177,22.3127,1.84877,1.32131,-0.349539,-0.5061,-1.03103,0.0524922,3.79695,1.13708,-0.349662,-0.316412
1849806,1,-1.57035,-0.522863,-9.8877e-05,-2.09714,-0.0014808,1.5713,0.785869,-1.5708,-0.523599,-4.55977e-08,-2.0944,-1.20955e-07,1.5708,0.785398,-0.000768724,-0.000368252,-0.000337873,-0.00146814,-0.000120167,-7.9874e-06,-8.54471e-05,0,0,0,0,0,0,0,-0.478199,-10.1654,-0.409177,22.388,1.85426,1.32131,-0.336721,-0.505034,-1.03419,0.053877,3.79883,1.13712,-0.349482,-0.316579
1849807,1,-1.57035,-0.522863,-9.73669e-05,-2.09713,-0.00148103,1.5713,0.785871,-1.5708,-0.523599,-4.55977e-08,-2.0944,-1.20955e-07,1.5708,0.785398,0.000137131,-0.000245501,0.000331563,0.000784475,-8.01116e-05,-0.000242684,-5.69647e-05,0,0,0,0,0,0,0,-0.50597,-10.1654,-0.432981,22.3127,1.85426,1.32772,-0.336721,-0.503806,-1.03604,0.0554404,3.80011,1.13718,-0.349334,-0.316827
1849808,1,-1.57035,-0.522861,-9.74204e-05,-2.09714,-0.00148111,1.5713,0.78587,-1.5708,-0.523599,-4.55977e-08,-2.0944,-1.20955e-07,1.5708,0.785398,9.14205e-05,0.000393145,0.000221042,-3.38289e-05,-5.34077e-05,7.55697e-05,-0.000546603,0,0,0,0,0,0,0,-0.50597,-10.1892,-0.432981,22.3365,1.85426,1.32131,-0.322988,-0.503036,-1.03602,0.0562689,3.80023,1.13719,-0.349287,-0.317138
1849809,1,-1.57035,-0.522863,-9.57678e-05,-2.09714,-0.00148175,1.5713,0.785867,-1.5708,-0.523599,-4.55977e-08,-2.0944,-1.20955e-07,1.5708,0.785398,0.000617759,-0.000294716,0.000704173,-2.25526e-05,-0.000239056,5.03798e-05,-0.00131384,0,0,0,0,0,0,0,-0.529774,-10.1654,-0.456784,22.3365,1.85976,1.32131,-0.297354,-0.503132,-1.03528,0.0558312,3.79972,1.13716,-0.349303,-0.317485
1849810,1,-1.57035,-0.522865,-9.57737e-05,-2.09714,-0.00148115,1.5713,0.785867,-1.5708,-0.523599,-4.55977e-08,-2.0944,-1.20955e-07,1.5708,0.785398,-0.000144973,-0.000846091,0.000469449,-1.50351e-05,4.40801e-05,0.000270945,-0.000875892,0,0,0,0,0,0,0,-0.50597,-10.1377,-0.456784,22.3365,1.85426,1.31491,-0.297354,-0.50395,-1.03349,0.0543246,3.79871,1.13711,-0.349351,-0.317829
1849811,1,-1.57035,-0.522865,-9.91166e-05,-2.09713,-0.00148054,1.5713,0.78587,-1.5708,-0.523599,-4.55977e-08,-2.0944,-1.20955e-07,1.5708,0.785398,-9.66484e-05,-0.000564061,-0.000800658,0.000546789,0.000232837,0.00018063,0.000365508,0,0,0,0,0,0,0,-0.50597,-10.1377,-0.409177,22.3127,1.84877,1.31491,-0.322988,-0.504573,-1.02992,0.0530955,3.79681,1.13707,-0.349472,-0.31813
1849812,1,-1.57035,-0.522865,-0.000101066,-2.09713,-0.00148054,1.5713,0.785867,-1.5708,-0.523599,-4.55977e-08,-2.0944,-1.20955e-07,1.5708,0.785398,-6.44323e-05,-0.00037604,-0.00118339,0.000364526,0.000155225,-0.000116939,-0.000705764,0,0,0,0,0,0,0,-0.50597,-10.1377,-0.381406,22.3127,1.84877,1.32131,-0.297354,-0.504033,-1.02548,0.0536635,3.79428,1.13707,-0.349656,-0.31837
1849813,1,-1.57035,-0.522863,-9.91175e-05,-2.09714,-0.00147983,1.57129,0.785869,-1.5708,-0.523599,-4.55977e-08,-2.0944,-1.20955e-07,1.5708,0.785398,0.000513857,0.00039892,-0.00013931,-0.000313795,0.000340842,0.000396759,4.20868e-06,0,0,0,0,0,0,0,-0.529774,-10.1654,-0.409177,22.3365,1.84236,1.3085,-0.310171,-0.502777,-1.02209,0.055448,3.79218,1.13712,-0.349817,-0.318546
1849814,1,-1.57036,-0.522861,-9.53166e-05,-2.09714,-0.00148115,1.5713,0.785867,-1.5708,-0.523599,-4.55977e-08,-2.0944,-1.20955e-07,1.5708,0.785398,-0.00142067,0.000822759,0.000463939,-0.000209197,-0.000213581,2.71469e-05,-0.000471912,0,0,0,0,0,0,0,-0.454395,-10.1892,-0.432981,22.3365,1.85426,1.31491,-0.297354,-0.501689,-1.02156,0.0569953,3.79163,1.13718,-0.349865,-0.318646
1849815,1,-1.57035,-0.522861,-9.6737e-05,-2.09714,-0.00148115,1.5713,0.785866,-1.5708,-0.523599,-4.55977e-08,-2.0944,-1.20955e-07,1.5708,0.785398,-0.000390299,0.000548506,0.000309292,-0.000139464,-0.000142388,1.80979e-05,-0.000789326,0,0,0,0,0,0,0,-0.478199,-10.1892,-0.432981,22.3365,1.85426,1.31491,-0.284536,-0.50082,-1.02379,0.0580201,3.79256,1.13724,-0.349815,-0.318671
1849816,1,-1.57035,-0.522865,-0.00010083,-2.09713,-0.00147983,1.5713,0.785871,-1.5708,-0.523599,-4.55977e-08,-2.0944,-1.20955e-07,1.5708,0.785398,0.000389414,-0.000840755,-0.00100023,0.000463836,0.000345884,-0.000225294,0.0011353,0,0,0,0,0,0,0,-0.50597,-10.1377,-0.381406,22.3127,1.84236,1.32131,-0.329397,-0.500033,-1.02603,0.0588561,3.79349,1.1373,-0.34978,-0.318618
1849817,1,-1.57035,-0.522863,-9.73682e-05,-2.09713,-0.00148176,1.5713,0.785869,-1.5708,-0.523599,-4.55977e-08,-2.0944,-1.20955e-07,1.5708,0.785398,0.000816421,8.91104e-05,0.000539605,0.000866036,-0.00041367,8.71632e-05,4.47867e-05,0,0,0,0,0,0,0,-0.529774,-10.1654,-0.432981,22.2889,1.85976,1.31491,-0.310171,-0.499677,-1.026,0.0592188,3.79311,1.13729,-0.349867,-0.318497
1849818,1,-1.57035,-0.522865,-9.74208e-05,-2.09713,-0.00148054,1.5713,0.785867,-1.5708,-0.523599,-4.55977e-08,-2.0944,-1.20955e-07,1.5708,0.785398,0.000544281,-0.000590207,0.000359737,2.05452e-05,0.000131121,0.000295468,-0.00044486,0,0,0,0,0,0,0,-0.529774,-10.1377,-0.432981,22.3127,1.84877,1.3085,-0.297354,-0.500346,-1.02434,0.0582156,3.79175,1.1372,-0.35005,-0.318334
1849819,1,-1.57035,-0.522867,-9.74384e-05,-2.09713,-0.00148115,1.5713,0.785866,-1.5708,-0.523599,-4.55977e-08,-2.0944,-1.20955e-07,1.5708,0.785398,-0.000193958,-0.000950283,0.000239825,1.36968e-05,-0.000116037,-4.03805e-05,0.000178144,0,0,0,0,0,0,0,-0.50597,-10.1139,-0.432981,22.3127,1.85426,1.31491,-0.310171,-0.501675,-1.02171,0.056267,3.79007,1.13709,-0.350253,-0.318147
1849820,1,-1.57035,-0.522861,-9.74442e-05,-2.09713,-0.00148115,1.57129,0.78587,-1.5708,-0.523599,-4.55977e-08,-2.0944,-1.20955e-07,1.5708,0.785398,-0.000129305,0.00112972,0.000159883,-0.000547681,-7.73578e-05,-0.000264279,0.00083084,0,0,0,0,0,0,0,-0.50597,-10.1892,-0.432981,22.3365,1.85426,1.32131,-0.329397,-0.502777,-1.0197,0.0546068,3.789,1.13701,-0.350391,-0.317939
1849821,1,-1.57035,-0.522863,-9.91166e-05,-2.09713,-0.00148237,1.5713,0.785873,-1.5708,-0.523599,-4.55977e-08,-2.0944,-1.20955e-07,1.5708,0.785398,-0.00129263,0.000196332,-0.000450223,0.000748503,-0.000458473,-0.000176186,0.00129988,0,0,0,0,0,0,0,-0.454395,-10.1654,-0.409177,22.2889,1.86525,1.32131,-0.349539,-0.503005,-1.02029,0.0541344,3.78923,1.137,-0.350429,-0.317726
1849822,1,-1.57035,-0.522861,-9.91173e-05,-2.09713,-0.00148054,1.5713,0.78587,-1.5708,-0.523599,-4.55977e-08,-2.0944,-1.20955e-07,1.5708,0.785398,0.000344673,0.0006877,-0.000300149,-5.78097e-05,0.000304703,0.000119901,-0.000116759,0,0,0,0,0,0,0,-0.50597,-10.1892,-0.409177,22.3127,1.84877,1.31491,-0.322988,-0.502251,-1.02242,0.0550364,3.78994,1.13705,-0.350442,-0.317549
1849823,1,-1.57035,-0.522863,-9.7447e-05,-2.09713,-0.00148054,1.5713,0.785873,-1.5708,-0.523599,-4.55977e-08,-2.0944,-1.20955e-07,1.5708,0.785398,0.000229782,-9.83454e-05,0.000356713,-3.85398e-05,0.000203135,-0.000157425,0.000668146,0,0,0,0,0,0,0,-0.50597,-10.1654,-0.432981,22.3127,1.84877,1.32131,-0.34313,-0.501552,-1.0248,0.0558939,3.79066,1.13712,-0.350446,-0.317437
1849824,1,-1.57035,-0.522867,-9.57767e-05,-2.09714,-0.00148115,1.5713,0.785873,-1.5708,-0.523599,-4.55977e-08,-2.0944,-1.20955e-07,1.5708,0.785398,-0.000496425,-0.00127199,0.00079462,-0.000582505,-6.8027e-05,-0.00010495,0.000445431,0,0,0,0,0,0,0,-0.478199,-10.1139,-0.456784,22.3365,1.85426,1.32131,-0.34313,-0.501624,-1.02587,0.0555877,3.79104,1.13715,-0.350445,-0.317396
1849825,1,-1.57035,-0.522865,-9.91176e-05,-2.09714,-0.00148054,1.5713,0.78587,-1.5708,-0.523599,-4.55977e-08,-2.0944,-1.20955e-07,1.5708,0.785398,0.000875475,-0.000291181,-0.000583877,-0.000945149,0.000158099,-6.99665e-05,-0.000449031,0,0,0,0,0,0,0,-0.529774,-10.1377,-0.409177,22.3603,1.84877,1.32131,-0.322988,-0.502117,-1.02499,0.0545971,3.79098,1.13716,-0.350432,-0.317432
1849826,1,-1.57035,-0.522863,-9.91176e-05,-2.09713,-0.00148115,1.5713,0.785871,-1.5708,-0.523599,-4.55977e-08,-2.0944,-1.20955e-07,1.5708,0.785398,2.6838e-05,0.000455493,-0.000389251,0.00104034,-9.80511e-05,0.000428074,-6.19953e-05,0,0,0,0,0,0,0,-0.50597,-10.1654,-0.409177,22.2889,1.85426,1.3085,-0.329397,-0.50247,-1.02398,0.0539143,3.79092,1.13718,-0.350409,-0.317545
1849827,1,-1.57035,-0.52286,-9.91176e-05,-2.09713,-0.00148115,1.5713,0.785871,-1.5708,-0.523599,-4.55977e-08,-2.0944,-1.20955e-07,1.5708,0.785398,1.7892e-05,0.00141729,-0.000259501,0.000136746,-6.53674e-05,-0.000189336,-4.13302e-05,0,0,0,0,0,0,0,-0.50597,-10.213,-0.409177,22.3127,1.85426,1.32131,-0.329397,-0.502393,-1.02467,0.0539756,3.79105,1.13721,-0.350414,-0.317712
1849828,1,-1.57035,-0.522863,-0.000101066,-2.09713,-0.00148115,1.5713,0.78587,-1.5708,-0.523599,-4.55977e-08,-2.0944,-1.20955e-07,1.5708,0.785398,0.00121835,-0.000168767,-0.000822615,0.000647976,-4.35782e-05,-0.000126224,-0.000264912,0,0,0,0,0,0,0,-0.557545,-10.1654,-0.381406,22.2889,1.85426,1.32131,-0.322988,-0.502139,-1.02686,0.0544295,3.79141,1.13724,-0.350436,-0.317914
1849829,1,-1.57035,-0.522865,-9.91176e-05,-2.09713,-0.00148115,1.5713,0.785868,-1.5708,-0.523599,-4.55977e-08,-2.0944,-1.20955e-07,1.5708,0.785398,0.000162622,-0.000762125,0.000101204,0.000431984,-2.90522e-05,0.00015321,-0.000888685,0,0,0,0,0,0,0,-0.529774,-10.1377,-0.409177,22.2889,1.85426,1.31491,-0.303762,-0.502143,-1.02769,0.05472,3.79095,1.13725,-0.350522,-0.318137
1849830,1,-1.57035,-0.522861,-9.74471e-05,-2.09713,-0.00148176,1.57129,0.78587,-1.5708,-0.523599,-4.55977e-08,-2.0944,-1.20955e-07,1.5708,0.785398,-0.000448397,0.000698343,0.000624281,0.000287989,-0.000222819,0.00010214,-0.000117739,0,0,0,0,0,0,0,-0.50597,-10.1892,-0.432981,22.2889,1.85976,1.31491,-0.31658,-0.502506,-1.02673,0.0545331,3.78961,1.13724,-0.350666,-0.318358
1849831,1,-1.57035,-0.522861,-0.000101066,-2.09713,-0.00148054,1.5713,0.785871,-1.5708,-0.523599,-4.55977e-08,-2.0944,-1.20955e-07,1.5708,0.785398,-0.000298932,0.000465562,-0.000790238,-0.000364819,0.000258355,6.80933e-05,0.000396225,0,0,0,0,0,0,0,-0.50597,-10.1892,-0.381406,22.3127,1.84877,1.31491,-0.329397,-0.502738,-1.02681,0.0544736,3.78886,1.13726,-0.350752,-0.318552
1849832,1,-1.57035,-0.522863,-9.91176e-05,-2.09713,-0.00148176,1.5713,0.785868,-1.5708,-0.523599,-4.55977e-08,-2.0944,-1.20955e-07,1.5708,0.785398,-0.000848901,-0.000246437,0.000122788,0.000313599,-0.000234664,4.53955e-05,-0.000685286,0,0,0,0,0,0,0,-0.478199,-10.1654,-0.409177,22.2889,1.85976,1.31491,-0.303762,-0.502312,-1.02796,0.0553586,3.78879,1.13734,-0.35077,-0.318718
1849833,1,-1.57035,-0.522861,-9.74471e-05,-2.09714,-0.00147796,1.5713,0.785867,-1.5708,-0.523599,-4.55977e-08,-2.0944,-1.20955e-07,1.5708,0.785398,0.000640491,0.00039252,0.000638671,-0.00146137,4.70077e-05,-0.000444454,-0.000694216,0,0,0,0,0,0,0,-0.529774,-10.1892,-0.432981,22.3603,1.85426,1.32772,-0.297354,-0.50194,-1.02922,0.0561413,3.7891,1.13743,-0.350731,-0.318855
1849834,1,-1.57035,-0.522865,-9.74471e-05,-2.09714,-0.00148009,1.5713,0.785864,-1.5708,-0.523599,-4.55977e-08,-2.0944,-1.20955e-07,1.5708,0.785398,-0.000779431,-0.000944746,0.000425781,-0.000417435,3.13385e-05,0.000178415,-0.00070017,0,0,0,0,0,0,0,-0.478199,-10.1377,-0.432981,22.3365,1.85426,1.31491,-0.290945,-0.50234,-1.03047,0.0557454,3.78997,1.13751,-0.350612,-0.318944
1849835,1,-1.57035,-0.522867,-9.74471e-05,-2.09714,-0.00147886,1.5713,0.785863,-1.5708,-0.523599,-4.55977e-08,-2.0944,-1.20955e-07,1.5708,0.785398,0.000686805,-0.00118664,0.000283854,-0.00027829,0.000665152,-0.000118416,-0.00141622,0,0,0,0,0,0,0,-0.529774,-10.1139,-0.432981,22.3365,1.83687,1.32131,-0.26531,-0.503175,-1.02977,0.0546691,3.79018,1.13756,-0.350521,-0.318966
1849836,1,-1.57035,-0.522861,-0.000101066,-2.09713,-0.00148103,1.5713,0.785869,-1.5708,-0.523599,-4.55977e-08,-2.0944,-1.20955e-07,1.5708,0.785398,-0.000748556,0.000972143,-0.00101719,-0.000185526,-0.000200825,-7.89437e-05,0.000954728,0,0,0,0,0,0,0,-0.478199,-10.1892,-0.381406,22.3365,1.85426,1.32131,-0.31658,-0.503708,-1.02781,0.0540651,3.78967,1.1376,-0.350497,-0.318899
1849837,1,-1.57035,-0.522863,-9.91176e-05,-2.09713,-0.00148111,1.5713,0.785863,-1.5708,-0.523599,-4.55977e-08,-2.0944,-1.20955e-07,1.5708,0.785398,0.000707388,9.12833e-05,-2.85128e-05,-0.000123684,-0.000133883,0.00018473,-0.000312951,0,0,0,0,0,0,0,-0.529774,-10.1654,-0.409177,22.3365,1.85426,1.31491,-0.290945,-0.503525,-1.02758,0.0545899,3.78971,1.13765,-0.350457,-0.318731
1849838,1,-1.57035,-0.52286,-9.91176e-05,-2.09713,-0.00147982,1.5713,0.785865,-1.5708,-0.523599,-4.55977e-08,-2.0944,-1.20955e-07,1.5708,0.785398,0.000471592,0.00117448,-1.90085e-05,0.000474356,0.000351554,-0.000588924,0.000740802,0,0,0,0,0,0,0,-0.529774,-10.213,-0.409177,22.3127,1.84236,1.33413,-0.31658,-0.503429,-1.02915,0.0550944,3.79028,1.13769,-0.350407,-0.31848
1849839,1,-1.57035,-0.522863,-9.57767e-05,-2.09714,-0.00148054,1.5713,0.785865,-1.5708,-0.523599,-4.55977e-08,-2.0944,-1.20955e-07,1.5708,0.785398,-0.000242417,-0.000330638,0.00110095,-0.000240575,-2.9897e-06,0.000828087,-0.000692927,0,0,0,0,0,0,0,-0.50597,-10.1654,-0.456784,22.3365,1.84877,1.30117,-0.284536,-0.504073,-1.03125,0.0545334,3.79085,1.13767,-0.350378,-0.318173
1849840,1,-1.57035,-0.522861,-9.74471e-05,-2.09713,-0.00148054,1.57129,0.785867,-1.5708,-0.523599,-4.55977e-08,-2.0944,-1.20955e-07,1.5708,0.785398,-0.000811225,0.000336387,0.000177156,0.000396429,-1.99314e-06,-0.000193927,0.00119956,0,0,0,0,0,0,0,-0.478199,-10.1892,-0.432981,22.3127,1.84877,1.32131,-0.329397,-0.504967,-1.03264,0.0534346,3.791,1.13762,-0.350391,-0.317831
1849841,1,-1.57035,-0.522863,-9.91176e-05,-2.09713,-0.00148115,1.5713,0.785869,-1.5708,-0.523599,-4.55977e-08,-2.0944,-1.20955e-07,1.5708,0.785398,0.000665609,-0.000332554,-0.000438708,0.000821098,-0.000204779,0.000616701,0.000562349,0,0,0,0,0,0,0,-0.529774,-10.1654,-0.409177,22.2889,1.85426,1.30117,-0.322988,-0.50547,-1.03262,0.0528001,3.7903,1.13755,-0.35049,-0.317478
1849842,1,-1.57035,-0.522863,-9.74471e-05,-2.09714,-0.00147922,1.5713,0.785865,-1.5708,-0.523599,-4.55977e-08,-2.0944,-1.20955e-07,1.5708,0.785398,-0.000113073,-0.000221703,0.00026434,-0.000566225,0.00050774,-9.74926e-05,-9.98187e-05,0,0,0,0,0,0,0,-0.50597,-10.1654,-0.432981,22.3365,1.83687,1.31491,-0.310171,-0.505683,-1.03141,0.0526405,3.78893,1.13747,-0.350656,-0.317143
1849843,1,-1.57035,-0.522865,-9.91176e-05,-2.09714,-0.00148054,1.57129,0.785868,-1.5708,-0.523599,-4.55977e-08,-2.0944,-1.20955e-07,1.5708,0.785398,-7.53819e-05,-0.000797416,-0.000380585,-0.000934296,-0.000102316,-0.000302354,-6.65458e-05,0,0,0,0,0,0,0,-0.50597,-10.1377,-0.409177,22.3603,1.84877,1.32131,-0.310171,-0.50578,-1.02975,0.0526625,3.78787,1.1374,-0.350775,-0.316849
1849844,1,-1.57035,-0.522858,-9.6987e-05,-2.09714,-0.00148115,1.57129,0.785871,-1.5708,-0.523599,-4.55977e-08,-2.0944,-1.20955e-07,1.5708,0.785398,-5.02546e-05,0.00188124,-0.000253724,-6.60517e-05,-0.000271661,-0.000438928,0.000667713,0,0,0,0,0,0,0,-0.50597,-10.2408,-0.409177,22.3365,1.85426,1.32772,-0.329397,-0.505515,-1.02963,0.0531965,3.78806,1.13736,-0.350774,-0.316591
1849845,1,-1.57035,-0.522863,-9.62769e-05,-2.09713,-0.00147983,1.5713,0.785869,-1.5708,-0.523599,-4.55977e-08,-2.0944,-1.20955e-07,1.5708,0.785398,-3.35031e-05,-0.000509077,-0.000169149,0.00106959,0.000259702,0.000419458,0.000953768,0,0,0,0,0,0,0,-0.50597,-10.1654,-0.409177,22.2889,1.84236,1.3085,-0.34313,-0.504987,-1.03137,0.0541333,3.78888,1.13733,-0.35075,-0.316369
1849846,1,-1.57035,-0.522865,-0.00010012,-2.09714,-0.00148054,1.5713,0.785874,-1.5708,-0.523599,-4.55977e-08,-2.0944,-1.20955e-07,1.5708,0.785398,0.000534477,-0.000988999,-0.00076238,-0.000957376,-6.42242e-05,-0.000432438,0.00134792,0,0,0,0,0,0,0,-0.529774,-10.1377,-0.381406,22.3603,1.84877,1.32772,-0.362356,-0.504435,-1.03173,0.0551713,3.78875,1.13727,-0.350813,-0.316208
1849847,1,-1.57035,-0.522861,-9.71315e-05,-2.09713,-0.00148115,1.5713,0.785871,-1.5708,-0.523599,-4.55977e-08,-2.0944,-1.20955e-07,1.5708,0.785398,-0.000200494,0.000547093,0.000698173,0.000475373,-0.000246267,0.000423785,-0.000322088,0,0,0,0,0,0,0,-0.50597,-10.1892,-0.432981,22.3127,1.85426,1.3085,-0.329397,-0.504128,-1.03043,0.0559142,3.78803,1.13719,-0.350906,-0.31614
1849848,1,-1.57035,-0.522861,-9.56715e-05,-2.09713,-0.00147663,1.57129,0.78587,-1.5708,-0.523599,-4.55977e-08,-2.0944,-1.20955e-07,1.5708,0.785398,-0.000783276,0.000364729,0.00102226,0.000316915,0.000276632,4.51642e-05,0.00053126,0,0,0,0,0,0,0,-0.478199,-10.1892,-0.456784,22.3127,1.84236,1.31491,-0.349539,-0.504381,-1.02987,0.0557125,3.78757,1.13708,-0.350988,-0.316177
1849849,1,-1.57035,-0.522865,-9.74121e-05,-2.09714,-0.00147876,1.5713,0.78587,-1.5708,-0.523599,-4.55977e-08,-2.0944,-1.20955e-07,1.5708,0.785398,-0.000522184,-0.000963273,0.000124695,-0.000345535,0.000184421,-0.000207249,-0.000391812,0,0,0,0,0,0,0,-0.478199,-10.1377,-0.432981,22.3365,1.84236,1.32131,-0.329397,-0.504892,-1.02952,0.0548899,3.7871,1.13696,-0.351082,-0.316316
1849850,1,-1.57035,-0.522865,-9.91059e-05,-2.09714,-0.00148202,1.5713,0.78587,-1.5708,-0.523599,-4.55977e-08,-2.0944,-1.20955e-07,1.5708,0.785398,0.000858303,-0.000642182,-0.000473682,-0.000787169,-0.000724763,-0.000138166,0.000722136,0,0,0,0,0,0,0,-0.529774,-10.1377,-0.409177,22.3603,1.86525,1.32131,-0.355947,-0.505214,-1.02808,0.0542761,3.7865,1.13685,-0.351156,-0.316544
1849851,1,-1.57035,-0.522865,-0.000101063,-2.09714,-0.00148042,1.5713,0.785871,-1.5708,-0.523599,-4.55977e-08,-2.0944,-1.20955e-07,1.5708,0.785398,0.000572202,-0.000428121,-0.000965402,3.20329e-05,0.000127176,-9.21109e-05,6.70621e-06,0,0,0,0,0,0,0,-0.529774,-10.1377,-0.381406,22.3365,1.84877,1.32131,-0.34313,-0.50529,-1.02602,0.054205,3.78599,1.13676,-0.351194,-0.316846
1849852,1,-1.57035,-0.522861,-9.74458e-05,-2.09714,-0.00148172,1.5713,0.785867,-1.5708,-0.523599,-4.55977e-08,-2.0944,-1.20955e-07,1.5708,0.785398,-0.000824957,0.000921012,0.000562825,-0.00118507,-0.000322117,0.000413311,-0.000504155,0,0,0,0,0,0,0,-0.478199,-10.1892,-0.432981,22.388,1.85976,1.3085,-0.329397,-0.505087,-1.02531,0.054657,3.78626,1.1367,-0.351166,-0.317217
1849853,1,-1.57035,-0.522863,-9.74467e-05,-2.09714,-0.00148114,1.57129,0.785866,-1.5708,-0.523599,-4.55977e-08,-2.0944,-1.20955e-07,1.5708,0.785398,-0.000549972,5.71958e-05,0.000375216,-0.000140433,-1.12941e-05,0.00027554,-0.00176026,0,0,0,0,0,0,0,-0.478199,-10.1654,-0.432981,22.3603,1.85426,1.3085,-0.290945,-0.504773,-1.02706,0.0551108,3.78781,1.1367,-0.351049,-0.317638
1849854,1,-1.57035,-0.522865,-9.91174e-05,-2.09713,-0.00147982,1.57129,0.785872,-1.5708,-0.523599,-4.55977e-08,-2.0944,-1.20955e-07,1.5708,0.785398,-0.000366648,-0.000611483,-0.000306668,0.00102,0.00043328,-0.000528383,0.000759275,0,0,0,0,0,0,0,-0.478199,-10.1377,-0.409177,22.3127,1.84236,1.32772,-0.34313,-0.504386,-1.02863,0.0554892,3.78903,1.13671,-0.350994,-0.318069
1849855,1,-1.57035,-0.522863,-9.74471e-05,-2.09713,-0.00147983,1.5713,0.785868,-1.5708,-0.523599,-4.55977e-08,-2.0944,-1.20955e-07,1.5708,0.785398,0.000961993,0.000241958,0.000352367,0.000123189,0.000288853,-0.000114897,-2.44292e-06,0,0,0,0,0,0,0,-0.529774,-10.1654,-0.432981,22.3365,1.84236,1.32131,-0.329397,-0.504164,-1.0282,0.0556243,3.78881,1.13668,-0.351089,-0.31847
1849856,1,-1.57035,-0.522863,-9.57767e-05,-2.09714,-0.00148176,1.57129,0.785866,-1.5708,-0.523599,-4.55977e-08,-2.0944,-1.20955e-07,1.5708,0.785398,8.4517e-05,0.000161306,0.000791723,8.21262e-05,-0.000451691,-7.65977e-05,-0.00118842,0,0,0,0,0,0,0,-0.50597,-10.1654,-0.456784,22.3365,1.85976,1.32131,-0.297354,-0.504767,-1.02759,0.0545922,3.78836,1.1366,-0.351212,-0.318833
1849857,1,-1.57035,-0.522865,-0.000101066,-2.09713,-0.00148176,1.5713,0.785862,-1.5708,-0.523599,-4.55977e-08,-2.0944,-1.20955e-07,1.5708,0.785398,-0.00115008,-0.000542077,-0.00123542,0.000611563,-0.000301127,-5.10651e-05,-0.00150436,0,0,0,0,0,0,0,-0.454395,-10.1377,-0.381406,22.3127,1.85976,1.32131,-0.278127,-0.505259,-1.02708,0.0536599,3.78796,1.13653,-0.351322,-0.319161
1849858,1,-1.57035,-0.522863,-9.57767e-05,-2.09713,-0.00147983,1.5713,0.785868,-1.5708,-0.523599,-4.55977e-08,-2.0944,-1.20955e-07,1.5708,0.785398,0.000996517,0.000288229,0.000939623,0.000407708,0.000443508,-3.40434e-05,0.000183889,0,0,0,0,0,0,0,-0.529774,-10.1654,-0.456784,22.3127,1.84236,1.32131,-0.310171,-0.504972,-1.02592,0.0538008,3.78714,1.13649,-0.351456,-0.319419
1849859,1,-1.57035,-0.522863,-0.000101066,-2.09714,-0.00148115,1.5713,0.78587,-1.5708,-0.523599,-4.55977e-08,-2.0944,-1.20955e-07,1.5708,0.785398,0.000107533,0.000192153,-0.00113682,-0.000285006,-0.000145137,-2.26956e-05,0.00059731,0,0,0,0,0,0,0,-0.50597,-10.1654,-0.381406,22.3365,1.85426,1.32131,-0.322988,-0.50482,-1.02527,0.0538044,3.78658,1.13646,-0.35155,-0.319571
1849860,1,-1.57035,-0.522863,-0.000101066,-2.09713,-0.00148176,1.5713,0.785867,-1.5708,-0.523599,-4.55977e-08,-2.0944,-1.20955e-07,1.5708,0.785398,-0.000577925,0.000128102,-0.000757882,0.00092362,-0.000300209,-1.51304e-05,-0.000551229,0,0,0,0,0,0,0,-0.478199,-10.1654,-0.381406,22.2889,1.85976,1.32131,-0.297354,-0.504224,-1.02551,0.0545533,3.78651,1.13646,-0.351585,-0.319633
1849861,1,-1.57035,-0.522863,-0.000101066,-2.09713,-0.00148115,1.5713,0.785868,-1.5708,-0.523599,-4.55977e-08,-2.0944,-1.20955e-07,1.5708,0.785398,0.000821142,8.54013e-05,-0.000505254,5.89345e-05,3.31142e-06,0.000227272,-0.000130127,0,0,0,0,0,0,0,-0.529774,-10.1654,-0.381406,22.3127,1.85426,1.31491,-0.303762,-0.502928,-1.02579,0.0564116,3.78632,1.13651,-0.351618,-0.319633
1849862,1,-1.57036,-0.522863,-9.91176e-05,-2.09714,-0.00147796,1.5713,0.785866,-1.5708,-0.523599,-4.55977e-08,-2.0944,-1.20955e-07,1.5708,0.785398,-0.00121581,5.69342e-05,0.000312778,-0.00107433,2.20761e-06,0.000151515,-0.000798828,0,0,0,0,0,0,0,-0.454395,-10.1654,-0.409177,22.3603,1.85426,1.31491,-0.284536,-0.501833,-1.02643,0.0579986,3.78653,1.13656,-0.351594,-0.319571
1849863,1,-1.57035,-0.522863,-0.000101066,-2.09713,-0.00147948,1.5713,0.785872,-1.5708,-0.523599,-4.55977e-08,-2.0944,-1.20955e-07,1.5708,0.785398,-0.000253728,3.79561e-05,-0.000441096,0.000397401,0.000204922,-0.000136349,0.00234966,0,0,0,0,0,0,0,-0.478199,-10.1654,-0.381406,22.3127,1.84877,1.32131,-0.362356,-0.500846,-1.02768,0.0593208,3.78745,1.13665,-0.351481,-0.319444
1849864,1,-1.57035,-0.522863,-9.91176e-05,-2.09713,-0.00148141,1.5713,0.785869,-1.5708,-0.523599,-4.55977e-08,-2.0944,-1.20955e-07,1.5708,0.785398,0.000480462,2.53041e-05,0.00035555,0.000821746,-0.000270286,-0.000328258,0.00010838,0,0,0,0,0,0,0,-0.50597,-10.1654,-0.409177,22.2889,1.85976,1.32772,-0.322988,-0.500119,-1.02841,0.0602278,3.78798,1.13672,-0.351407,-0.319273
1849865,1,-1.57035,-0.522865,-9.36462e-05,-2.09713,-0.00148042,1.57129,0.785871,-1.5708,-0.523599,-4.55977e-08,-2.0944,-1.20955e-07,1.5708,0.785398,0.00152673,-0.000632745,0.00135066,-8.98128e-06,0.00022671,0.000255879,0.000309613,0,0,0,0,0,0,0,-0.557545,-10.1377,-0.456784,22.3127,1.84877,1.31491,-0.329397,-0.500866,-1.02776,0.059077,3.78754,1.13669,-0.351422,-0.319107
1849866,1,-1.57035,-0.522861,-9.46064e-05,-2.09714,-0.00148172,1.5713,0.785868,-1.5708,-0.523599,-4.55977e-08,-2.0944,-1.20955e-07,1.5708,0.785398,-0.000838217,0.000784596,0.000343626,-0.00111961,-0.000255761,-6.6773e-05,-0.000743027,0,0,0,0,0,0,0,-0.478199,-10.1892,-0.432981,22.3603,1.85976,1.32131,-0.303762,-0.502996,-1.02718,0.0559326,3.78736,1.13662,-0.351397,-0.318976
1849867,1,-1.57035,-0.522863,-9.81707e-05,-2.09713,-0.00148114,1.57129,0.78587,-1.5708,-0.523599,-4.55977e-08,-2.0944,-1.20955e-07,1.5708,0.785398,0.000647614,-0.000683362,-0.000327728,0.000367216,3.29433e-05,-0.000281874,0.00120007,0,0,0,0,0,0,0,-0.529774,-10.1377,-0.409177,22.3127,1.85426,1.32772,-0.349539,-0.504786,-1.02776,0.0532574,3.78806,1.13659,-0.351272,-0.318881
1849868,1,-1.57035,-0.522864,-9.66714e-05,-2.09714,-0.00148176,1.5713,0.785872,-1.5708,-0.523599,-4.55977e-08,-2.0944,-1.20955e-07,1.5708,0.785398,-0.000125069,-0.000455575,-0.000218485,-0.000312001,-0.000181488,0.000524161,0.000800046,0,0,0,0,0,0,0,-0.50597,-10.1377,-0.409177,22.3365,1.85976,1.3085,-0.349539,-0.505609,-1.02759,0.0520606,3.78841,1.13662,-0.351167,-0.318827
1849869,1,-1.57035,-0.522863,-9.49613e-05,-2.09713,-0.00148115,1.5713,0.78587,-1.5708,-0.523599,-4.55977e-08,-2.0944,-1.20955e-07,1.5708,0.785398,-8.33795e-05,0.000345898,0.000967967,0.000905623,8.24583e-05,-0.000362636,-0.00044998,0,0,0,0,0,0,0,-0.50597,-10.1654,-0.456784,22.2889,1.85426,1.32772,-0.322988,-0.506055,-1.0264,0.0514461,3.788,1.13665,-0.351137,-0.318831
1849870,1,-1.57036,-0.522863,-9.71753e-05,-2.09714,-0.00147795,1.5713,0.785872,-1.5708,-0.523599,-4.55977e-08,-2.0944,-1.20955e-07,1.5708,0.785398,-0.00126201,0.000230598,8.84995e-05,-0.0017163,5.49722e-05,0.00023296,0.000445999,0,0,0,0,0,0,0,-0.454395,-10.1654,-0.432981,22.388,1.85426,1.31491,-0.34313,-0.50628,-1.02627,0.0509994,3.78805,1.13672,-0.351076,-0.318905
1849871,1,-1.57035,-0.522863,-9.73565e-05,-2.09713,-0.00147948,1.5713,0.785867,-1.5708,-0.523599,-4.55977e-08,-2.0944,-1.20955e-07,1.5708,0.785398,-0.000284529,0.000153732,5.89996e-05,0.00117585,0.000240099,0.000155307,-0.000448653,0,0,0,0,0,0,0,-0.478199,-10.1654,-0.432981,22.2889,1.84877,1.31491,-0.322988,-0.505873,-1.02748,0.0512843,3.78888,1.13684,-0.350952,-0.31904
1849872,1,-1.57035,-0.522863,-9.74169e-05,-2.09714,-0.00147947,1.57129,0.785872,-1.5708,-0.523599,-4.55977e-08,-2.0944,-1.20955e-07,1.5708,0.785398,0.00101674,0.000102488,3.93331e-05,-0.000329724,0.000397425,0.000103538,0.000684242,0,0,0,0,0,0,0,-0.529774,-10.1654,-0.432981,22.3365,1.84236,1.31491,-0.349539,-0.505311,-1.02856,0.0517705,3.78941,1.13695,-0.350873,-0.319225
1849873,1,-1.57035,-0.522863,-9.57666e-05,-2.09714,-0.00148164,1.5713,0.785869,-1.5708,-0.523599,-4.55977e-08,-2.0944,-1.20955e-07,1.5708,0.785398,0.000121014,6.83255e-05,0.000583034,-0.000776628,-0.00037931,0.000306384,0.000218803,0,0,0,0,0,0,0,-0.50597,-10.1654,-0.456784,22.3603,1.85976,1.3085,-0.34313,-0.505423,-1.02948,0.0513509,3.78987,1.13701,-0.350816,-0.319446
1849874,1,-1.57035,-0.522861,-9.74438e-05,-2.09714,-0.0014805,1.5713,0.78587,-1.5708,-0.523599,-4.55977e-08,-2.0944,-1.20955e-07,1.5708,0.785398,-0.000568937,0.000602362,-0.000168123,-0.000517752,0.000154028,-0.000507821,-0.000362758,0,0,0,0,0,0,0,-0.478199,-10.1892,-0.432981,22.3603,1.84877,1.32772,-0.329397,-0.50571,-1.03128,0.0506244,3.79113,1.13707,-0.350693,-0.319706
1849875,1,-1.57035,-0.522865,-9.91165e-05,-2.09713,-0.00148114,1.5713,0.785871,-1.5708,-0.523599,-4.55977e-08,-2.0944,-1.20955e-07,1.5708,0.785398,0.000270322,-0.000804851,-0.000668894,0.000768456,-0.000100765,0.00037353,2.94287e-05,0,0,0,0,0,0,0,-0.50597,-10.1377,-0.409177,22.3127,1.85426,1.3085,-0.336721,-0.505336,-1.03276,0.050798,3.79222,1.13714,-0.350599,-0.320012
1849876,1,-1.57035,-0.522865,-9.74468e-05,-2.09713,-0.00148054,1.5713,0.785867,-1.5708,-0.523599,-4.55977e-08,-2.0944,-1.20955e-07,1.5708,0.785398,0.000737026,-0.000536567,0.000110883,0.000512304,0.000136274,-0.000225698,-0.00143844,0,0,0,0,0,0,0,-0.529774,-10.1377,-0.432981,22.3127,1.84877,1.32131,-0.297354,-0.504684,-1.03161,0.0514503,3.79165,1.13719,-0.35067,-0.320348
1849877,1,-1.57035,-0.522861,-9.57766e-05,-2.09714,-0.00147983,1.5713,0.785872,-1.5708,-0.523599,-4.55977e-08,-2.0944,-1.20955e-07,1.5708,0.785398,0.000491351,0.000848714,0.000630734,-0.000772088,0.000328208,8.68936e-05,0.0004991,0,0,0,0,0,0,0,-0.529774,-10.1892,-0.456784,22.3603,1.84236,1.31491,-0.336721,-0.504722,-1.0296,0.051179,3.79054,1.13718,-0.3508,-0.32068
1849878,1,-1.57035,-0.522865,-9.91175e-05,-2.09713,-0.00147857,1.5713,0.785868,-1.5708,-0.523599,-4.55977e-08,-2.0944,-1.20955e-07,1.5708,0.785398,-0.000878858,-0.000640616,-0.000693135,0.000598899,-0.000425455,5.7929e-05,-0.00088797,0,0,0,0,0,0,0,-0.478199,-10.1377,-0.409177,22.3127,1.85976,1.31491,-0.303762,-0.504973,-1.02887,0.0505783,3.7902,1.13717,-0.350872,-0.320978
1849879,0.99,-1.57035,-0.522867,-9.74471e-05,-2.09714,-0.00147689,1.5713,0.785866,-1.5708,-0.523599,-4.55977e-08,-2.0944,-1.20955e-07,1.5708,0.785398,0.00062052,-0.00098389,9.47222e-05,-0.000157546,-8.01859e-05,-0.00019874,-0.00130406,0,0,0,0,0,0,0,-0.529774,-10.1139,-0.432981,22.3365,1.85426,1.32131,-0.284536,-0.504627,-1.02725,0.0508197,3.78945,1.13717,-0.350976,-0.321239
1849880,0.99,-1.57035,-0.522861,-9.74471e-05,-2.09713,-0.00147973,1.57129,0.785865,-1.5708,-0.523599,-4.55977e-08,-2.0944,-1.20955e-07,1.5708,0.785398,-0.000792745,0.00110731,6.31481e-05,0.00165821,-5.34573e-05,0.000104866,-0.00110673,0,0,0,0,0,0,0,-0.478199,-10.1892,-0.432981,22.2611,1.85426,1.31491,-0.278127,-0.50409,-1.02463,0.0513401,3.78798,1.13717,-0.351154,-0.321435
1849881,0.99,-1.57035,-0.522863,-9.91176e-05,-2.09713,-0.00148007,1.5713,0.785866,-1.5708,-0.523599,-4.55977e-08,-2.0944,-1.20955e-07,1.5708,0.785398,0.000677928,0.000181396,-0.000514713,0.000455857,0.000167812,-0.000167448,-0.000500461,0,0,0,0,0,0,0,-0.529774,-10.1654,-0.409177,22.2889,1.84877,1.32131,-0.284536,-0.503548,-1.02326,0.0518907,3.78655,1.13716,-0.35136,-0.321523
1849882,0.99,-1.57035,-0.522867,-9.74471e-05,-2.09713,-0.00147719,1.57129,0.785866,-1.5708,-0.523599,-4.55977e-08,-2.0944,-1.20955e-07,1.5708,0.785398,0.000451952,-0.0010855,0.00021367,0.000303905,0.000111875,0.000363086,-0.000333641,0,0,0,0,0,0,0,-0.529774,-10.1139,-0.432981,22.2889,1.84877,1.3085,-0.284536,-0.503226,-1.02213,0.0522345,3.78509,1.13715,-0.351566,-0.321478
1849883,0.99,-1.57035,-0.522865,-9.74471e-05,-2.09713,-0.00148003,1.5713,0.78587,-1.5708,-0.523599,-4.55977e-08,-2.0944,-1.20955e-07,1.5708,0.785398,-0.00025551,-0.000166852,0.000142447,0.000202603,-0.000128867,-0.000232661,0.000964368,0,0,0,0,0,0,0,-0.50597,-10.1377,-0.432981,22.2889,1.85426,1.32131,-0.31658,-0.50338,-1.01982,0.0519595,3.78337,1.13711,-0.351756,-0.3213
1849884,0.99,-1.57035,-0.522865,-9.53166e-05,-2.09714,-0.00148017,1.5713,0.78587,-1.5708,-0.523599,-4.55977e-08,-2.0944,-1.20955e-07,1.5708,0.785398,-0.00017034,-0.000111234,9.49644e-05,-0.00153537,0.000117539,8.22518e-05,0.000642912,0,0,0,0,0,0,0,-0.50597,-10.1377,-0.432981,22.3603,1.84877,1.31491,-0.31658,-0.503601,-1.01813,0.0515491,3.78249,1.13709,-0.351837,-0.321012
1849885,0.99,-1.57035,-0.522861,-9.84074e-05,-2.09714,-0.00148103,1.5713,0.785871,-1.5708,-0.523599,-4.55977e-08,-2.0944,-1.20955e-07,1.5708,0.785398,-0.000763173,0.00113227,-0.000493502,-0.000466766,-0.000125091,5.48345e-05,0.000903326,0,0,0,0,0,0,0,-0.478199,-10.1892,-0.409177,22.3365,1.85426,1.31491,-0.329397,-0.503374,-1.01941,0.0517414,3.78366,1.13713,-0.351714,-0.320665
1849886,0.99,-1.57035,-0.522863,-9.50799e-05,-2.09713,-0.00147659,1.5713,0.78587,-1.5708,-0.523599,-4.55977e-08,-2.0944,-1.20955e-07,1.5708,0.785398,-0.000508782,0.000198034,0.00022781,0.000245635,0.000357415,3.65563e-05,0.000127499,0,0,0,0,0,0,0,-0.478199,-10.1654,-0.432981,22.3127,1.84236,1.31491,-0.31658,-0.502567,-1.02306,0.0527186,3.78604,1.13723,-0.3515,-0.320309
1849887,0.99,-1.57035,-0.522867,-9.45275e-05,-2.09713,-0.00147946,1.57129,0.78587,-1.5708,-0.523599,-4.55977e-08,-2.0944,-1.20955e-07,1.5708,0.785398,0.000867237,-0.0010744,0.000151874,0.000163756,9.17954e-07,2.43709e-05,0.000322358,0,0,0,0,0,0,0,-0.529774,-10.1139,-0.432981,22.3127,1.84877,1.31491,-0.322988,-0.502,-1.02557,0.0533273,3.78753,1.13728,-0.351382,-0.319979
1849888,0.99,-1.57035,-0.522863,-9.64739e-05,-2.09713,-0.00148018,1.5713,0.785873,-1.5708,-0.523599,-4.55977e-08,-2.0944,-1.20955e-07,1.5708,0.785398,0.000578158,0.000490157,0.000101249,0.000109171,6.11969e-07,-0.000221112,0.000960891,0,0,0,0,0,0,0,-0.529774,-10.1654,-0.432981,22.3127,1.84877,1.32131,-0.34313,-0.502367,-1.02565,0.0526719,3.78764,1.13724,-0.351389,-0.319688
1849889,0.99,-1.57035,-0.522865,-9.54523e-05,-2.09714,-0.00148042,1.5713,0.78587,-1.5708,-0.523599,-4.55977e-08,-2.0944,-1.20955e-07,1.5708,0.785398,0.000385439,-0.000322842,0.000624311,-0.000484031,4.0798e-07,-0.000147408,-0.000105391,0,0,0,0,0,0,0,-0.529774,-10.1377,-0.456784,22.3365,1.84877,1.32131,-0.322988,-0.503472,-1.02539,0.0510361,3.78758,1.13716,-0.35141,-0.319446
1849890,0.99,-1.57035,-0.522861,-9.90094e-05,-2.09714,-0.00147979,1.57129,0.785872,-1.5708,-0.523599,-4.55977e-08,-2.0944,-1.20955e-07,1.5708,0.785398,-0.000299853,0.000991198,-0.000697416,-0.000322688,0.000237631,-9.82719e-05,0.000438365,0,0,0,0,0,0,0,-0.50597,-10.1892,-0.409177,22.3365,1.84236,1.32131,-0.336721,-0.504539,-1.02625,0.0494785,3.78819,1.13708,-0.351368,-0.319274
1849891,0.99,-1.57035,-0.522865,-0.00010103,-2.09714,-0.00148114,1.5713,0.785869,-1.5708,-0.523599,-4.55977e-08,-2.0944,-1.20955e-07,1.5708,0.785398,-0.000199902,-0.000545627,-0.00111456,-0.000771937,-0.000282389,0.000171844,0.000292244,0,0,0,0,0,0,0,-0.50597,-10.1377,-0.381406,22.3603,1.85426,1.31491,-0.336721,-0.504496,-1.02812,0.0495974,3.78942,1.13706,-0.35126,-0.319179
1849892,0.99,-1.57035,-0.522863,-9.57647e-05,-2.09713,-0.00148237,1.5713,0.785869,-1.5708,-0.523599,-4.55977e-08,-2.0944,-1.20955e-07,1.5708,0.785398,-0.000133268,0.000285862,0.0010202,0.00115581,-0.00059516,-0.000122796,-0.000313797,0,0,0,0,0,0,0,-0.50597,-10.1654,-0.456784,22.2889,1.86525,1.32131,-0.322988,-0.503748,-1.02933,0.0507769,3.79024,1.13707,-0.351189,-0.319158
1849893,0.99,-1.57035,-0.522863,-9.57727e-05,-2.09714,-0.00148115,1.5713,0.78587,-1.5708,-0.523599,-4.55977e-08,-2.0944,-1.20955e-07,1.5708,0.785398,0.00111758,0.000190575,0.000680133,-0.000343083,1.01275e-05,0.000392854,0.0010115,0,0,0,0,0,0,0,-0.557545,-10.1654,-0.456784,22.3365,1.85426,1.3085,-0.355947,-0.503984,-1.02944,0.0504987,3.79017,1.13701,-0.351216,-0.319197
1849894,0.99,-1.57035,-0.522863,-9.36448e-05,-2.09713,-0.00148054,1.5713,0.785871,-1.5708,-0.523599,-4.55977e-08,-2.0944,-1.20955e-07,1.5708,0.785398,-0.000461372,0.00012705,0.000453422,0.00032809,0.000210202,-0.000212815,-3.77402e-05,0,0,0,0,0,0,0,-0.50597,-10.1654,-0.456784,22.3127,1.84877,1.32131,-0.336721,-0.505345,-1.02947,0.0485771,3.78992,1.13691,-0.351273,-0.319289
1849895,0.99,-1.57036,-0.522861,-9.29355e-05,-2.09714,-0.00148054,1.5713,0.78587,-1.5708,-0.523599,-4.55977e-08,-2.0944,-1.20955e-07,1.5708,0.785398,-0.00151401,0.000641512,0.000302281,-0.000338085,0.000140135,-0.000141877,-0.000533786,0,0,0,0,0,0,0,-0.454395,-10.1892,-0.456784,22.3365,1.84877,1.32131,-0.322988,-0.506336,-1.02998,0.0470691,3.78995,1.13685,-0.351304,-0.319448
1849896,0.99,-1.57035,-0.522863,-9.81705e-05,-2.09714,-0.00148054,1.5713,0.785871,-1.5708,-0.523599,-4.55977e-08,-2.0944,-1.20955e-07,1.5708,0.785398,0.000197087,-0.000129137,-0.000912103,-0.00022539,9.34232e-05,-0.000331944,-0.000118499,0,0,0,0,0,0,0,-0.50597,-10.1654,-0.409177,22.3365,1.84877,1.32772,-0.329397,-0.506111,-1.03109,0.0471729,3.79038,1.13687,-0.351285,-0.31967
1849897,0.99,-1.57035,-0.522865,-9.71315e-05,-2.09714,-0.00148115,1.5713,0.785865,-1.5708,-0.523599,-4.55977e-08,-2.0944,-1.20955e-07,1.5708,0.785398,0.000131392,-0.000735706,-5.12568e-05,-0.000707072,-0.000141168,-0.000221296,-0.00221523,0,0,0,0,0,0,0,-0.50597,-10.1377,-0.432981,22.3603,1.85426,1.32772,-0.271719,-0.505255,-1.03154,0.0482334,3.79079,1.13692,-0.35123,-0.319924
1849898,0.99,-1.57035,-0.522865,-0.000100961,-2.09713,-0.00148176,1.5713,0.78587,-1.5708,-0.523599,-4.55977e-08,-2.0944,-1.20955e-07,1.5708,0.785398,-0.000562019,-0.00049047,-0.0012406,0.000642242,-0.000297563,0.000835814,0.000422052,0,0,0,0,0,0,0,-0.478199,-10.1377,-0.381406,22.3127,1.85976,1.30117,-0.322988,-0.504112,-1.03013,0.0497874,3.79043,1.13697,-0.351213,-0.320169
1849899,0.99,-1.57035,-0.522863,-9.90825e-05,-2.09714,-0.00148115,1.5713,0.78587,-1.5708,-0.523599,-4.55977e-08,-2.0944,-1.20955e-07,1.5708,0.785398,-0.000374679,0.000322634,-0.000177451,-0.00012865,5.07534e-06,4.85829e-05,4.40089e-05,0,0,0,0,0,0,0,-0.478199,-10.1654,-0.409177,22.3365,1.85426,1.31491,-0.31658,-0.502455,-1.02779,0.0520923,3.78938,1.13704,-0.351268,-0.320359
1849900,0.99,-1.57036,-0.522861,-9.74355e-05,-2.09714,-0.00147983,1.57129,0.785867,-1.5708,-0.523599,-4.55977e-08,-2.0944,-1.20955e-07,1.5708,0.785398,-0.000806598,0.000771901,0.000438511,-8.57669e-05,0.000444193,-0.00020497,-0.000920096,0,0,0,0,0,0,0,-0.454395,-10.1892,-0.432981,22.3365,1.84236,1.32131,-0.290945,-0.500858,-1.02687,0.0541993,3.78886,1.13711,-0.351308,-0.320483
1849901,0.99,-1.57035,-0.522863,-9.74432e-05,-2.09714,-0.00148176,1.5713,0.785867,-1.5708,-0.523599,-4.55977e-08,-2.0944,-1.20955e-07,1.5708,0.785398,1.90799e-05,-4.22112e-05,0.000292341,-5.71779e-05,-0.000348131,-0.000136647,-0.000376039,0,0,0,0,0,0,0,-0.478199,-10.1654,-0.432981,22.3365,1.85976,1.32131,-0.297354,-0.499996,-1.0277,0.0550521,3.78923,1.13717,-0.351289,-0.320539
1849902,0.99,-1.57035,-0.522863,-0.000101065,-2.09714,-0.00148115,1.57129,0.785865,-1.5708,-0.523599,-4.55977e-08,-2.0944,-1.20955e-07,1.5708,0.785398,0.00121915,-2.81408e-05,-0.00101153,-0.000594931,-2.8637e-05,-0.000328457,-0.000962769,0,0,0,0,0,0,0,-0.529774,-10.1654,-0.381406,22.3603,1.85426,1.32772,-0.278127,-0.499827,-1.02872,0.0549021,3.78986,1.13719,-0.351241,-0.320518
1849903,0.99,-1.57035,-0.522861,-9.91171e-05,-2.09714,-0.00148237,1.5713,0.785872,-1.5708,-0.523599,-4.55977e-08,-2.0944,-1.20955e-07,1.5708,0.785398,0.000255951,0.000538051,-2.47407e-05,-0.00039662,-0.000425992,1.83877e-05,0.00152829,0,0,0,0,0,0,0,-0.50597,-10.1892,-0.409177,22.3603,1.86525,1.32131,-0.336721,-0.500051,-1.0299,0.0543786,3.79083,1.1372,-0.351148,-0.320405
1849904,0.99,-1.57035,-0.522863,-9.7447e-05,-2.09714,-0.00147922,1.5713,0.785871,-1.5708,-0.523599,-4.55977e-08,-2.0944,-1.20955e-07,1.5708,0.785398,-0.000478979,-0.000198111,0.000540318,-0.000264414,0.000767166,0.000249617,0.000747594,0,0,0,0,0,0,0,-0.478199,-10.1654,-0.432981,22.3603,1.83687,1.31491,-0.329397,-0.500499,-1.03137,0.0535678,3.79207,1.13721,-0.351026,-0.320215
1849905,0.99,-1.57036,-0.522865,-9.91175e-05,-2.09713,-0.00148115,1.5713,0.78587,-1.5708,-0.523599,-4.55977e-08,-2.0944,-1.20955e-07,1.5708,0.785398,-0.000876131,-0.000781688,-0.0001966,0.00149416,-0.000132816,0.000166412,0.000261037,0,0,0,0,0,0,0,-0.454395,-10.1377,-0.409177,22.2889,1.85426,1.31491,-0.322988,-0.500793,-1.03107,0.0528218,3.79215,1.13721,-0.351014,-0.32
1849906,0.99,-1.57035,-0.522863,-9.74471e-05,-2.09714,-0.00148115,1.5713,0.78587,-1.5708,-0.523599,-4.55977e-08,-2.0944,-1.20955e-07,1.5708,0.785398,0.000622338,0.000128489,0.000425745,-0.000117517,-8.85439e-05,0.000110941,-6.3334e-05,0,0,0,0,0,0,0,-0.50597,-10.1654,-0.432981,22.3365,1.85426,1.31491,-0.31658,-0.500858,-1.02842,0.052301,3.79063,1.13719,-0.351161,-0.319806
1849907,0.99,-1.57035,-0.522861,-0.000101066,-2.09714,-0.00147857,1.5713,0.78587,-1.5708,-0.523599,-4.55977e-08,-2.0944,-1.20955e-07,1.5708,0.785398,-0.000234721,0.000642471,-0.000922596,-7.83448e-05,-0.00026248,-0.000400757,0.000195136,0,0,0,0,0,0,0,-0.478199,-10.1892,-0.381406,22.3365,1.85976,1.32772,-0.322988,-0.500896,-1.02644,0.0518564,3.78939,1.13716,-0.351293,-0.319638
1849908,0.99,-1.57035,-0.522861,-0.000101066,-2.09714,-0.00148009,1.5713,0.785872,-1.5708,-0.523599,-4.55977e-08,-2.0944,-1.20955e-07,1.5708,0.785398,-0.000156481,0.000428314,-0.000615064,-0.000609042,2.8464e-05,-0.000267171,0.000638717,0,0,0,0,0,0,0,-0.478199,-10.1892,-0.381406,22.3603,1.85426,1.32772,-0.336721,-0.500359,-1.02699,0.0523403,3.78966,1.1372,-0.351286,-0.319498
1849909,0.99,-1.57035,-0.522863,-9.38279e-05,-2.09713,-0.0014808,1.5713,0.785871,-1.5708,-0.523599,-4.55977e-08,-2.0944,-1.20955e-07,1.5708,0.785398,0.000545293,-0.000271269,0.00200281,0.000150784,1.8976e-05,0.000296604,0.000154544,0,0,0,0,0,0,0,-0.50597,-10.1654,-0.484555,22.3365,1.85426,1.31491,-0.329397,-0.500051,-1.0285,0.0524816,3.79064,1.13724,-0.351198,-0.31939
1849910,0.99,-1.57035,-0.522863,-9.74471e-05,-2.09713,-0.00148103,1.5713,0.785872,-1.57079,-0.523597,-2.5456e-06,-2.0944,-1.64505e-06,1.5708,0.785399,0.000363528,-0.000180846,0.00012878,0.000657335,1.26507e-05,0.000197736,0.000374297,0.00304939,0.001875,-0.0025,-0.003125,-0.00152409,0.005,0.00102661,-0.50597,-10.1654,-0.432981,22.3127,1.85426,1.31491,-0.336721,-0.501198,-1.02878,0.0504184,3.79097,1.13721,-0.351164,-0.319322
1849911,0.99,-1.57035,-0.522867,-9.74471e-05,-2.09713,-0.0014805,1.5713,0.785873,-1.57079,-0.523593,-7.5456e-06,-2.0944,-4.69323e-06,1.57081,0.785401,0.000242352,-0.00132699,8.58535e-05,0.000438223,0.000211884,0.000131824,0.000724249,0.00609879,0.00375,-0.005,-0.00625,-0.00304819,0.01,0.00205323,-0.50597,-10.1139,-0.432981,22.3127,1.84877,1.31491,-0.349539,-0.502791,-1.02662,0.0477081,3.78985,1.13713,-0.351258,-0.31931
1849912,0.99,-1.57035,-0.522865,-9.74471e-05,-2.09714,-0.00148114,1.5713,0.78587,-1.57078,-0.523587,-1.50456e-05,-2.09441,-9.26551e-06,1.57083,0.785404,0.000161568,-0.000327848,5.72357e-05,-0.000264663,-6.21943e-05,-0.000386835,-0.00073787,0.00914818,0.005625,-0.0075,-0.009375,-0.00457228,0.015,0.00307984,-0.50597,-10.1377,-0.432981,22.3365,1.85426,1.32772,-0.31658,-0.503859,-1.0226,0.0458191,3.78785,1.13707,-0.351413,-0.319367
1849913,0.99,-1.57035,-0.522865,-0.000100038,-2.09714,-0.0014786,1.5713,0.785868,-1.57077,-0.52358,-2.50456e-05,-2.09443,-1.53619e-05,1.57085,0.785409,-0.000541901,0.00197294,-0.00492072,-0.0034177,0.000806248,-0.000495249,-1.71957e-05,0.0121976,0.0075,-0.01,-0.0125,-0.00609637,0.02,0.00410645,-0.478199,-9.9631,-0.456784,22.2135,1.83138,1.33413,-0.329397,-0.502921,-1.02181,0.0470684,3.78812,1.13715,-0.351332,-0.319493
1849914,0.99,-1.57035,-0.522868,-0.000100611,-2.09713,-0.00148058,1.57129,0.785869,-1.57075,-0.523571,-3.75456e-05,-2.09444,-2.29823e-05,1.57087,0.785414,-0.00147489,0.00258266,-0.00695169,-0.000600562,0.000944399,-0.000567525,-0.000248823,0.015247,0.009375,-0.0125,-0.015625,-0.00762046,0.025,0.00513307,-0.430592,-9.45529,-0.559934,21.7176,1.82039,1.34054,-0.322988,-0.497027,-1.02889,0.0560356,3.79293,1.13753,-0.350816,-0.319682
1849915,0.99,-1.57035,-0.522866,-0.000106908,-2.09712,-0.00147788,1.57129,0.785865,-1.57073,-0.523559,-5.25456e-05,-2.09446,-3.21269e-05,1.5709,0.78542,-0.000426449,0.00211678,-0.0087602,0.000783498,0.00188421,-0.00132779,-0.00182739,0.0182964,0.01125,-0.015,-0.01875,-0.00914456,0.03,0.00615968,-0.454395,-8.87607,-0.659116,21.2177,1.78652,1.36618,-0.278127,-0.485432,-1.04049,0.0738164,3.79919,1.13816,-0.350132,-0.319922
1849916,0.99,-1.57034,-0.522852,-0.00011261,-2.09713,-0.0014795,1.57129,0.785867,-1.57071,-0.523546,-7.00456e-05,-2.09448,-4.27956e-05,1.57094,0.785427,0.00256271,0.00490025,-0.00726743,-0.00196305,0.0019004,-0.00159727,-0.000743545,0.0213458,0.013125,-0.0175,-0.021875,-0.0106687,0.035,0.00718629,-0.430592,-8.39603,-0.762265,20.7218,1.76912,1.3854,-0.290945,-0.471295,-1.05347,0.0956039,3.80462,1.1388,-0.349388,-0.320162
1849917,0.99,-1.57033,-0.522833,-0.000123957,-2.09713,-0.0014813,1.57129,0.785861,-1.57069,-0.523531,-9.00456e-05,-2.09451,-5.49883e-05,1.57098,0.785435,0.00585486,0.00783591,-0.00746195,-0.000732697,0.00106348,0.00290162,-0.00242848,0.0243952,0.015,-0.02,-0.025,-0.0121927,0.04,0.0082129,-0.454395,-7.93979,-0.81384,20.1981,1.77461,1.40463,-0.23876,-0.459353,-1.07092,0.114293,3.81073,1.13923,-0.34835,-0.320314
1849918,0.99,-1.57033,-0.522807,-0.000134309,-2.09713,-0.0014823,1.5713,0.785867,-1.57066,-0.523514,-0.000112546,-2.09454,-6.87051e-05,1.57102,0.785445,0.00644675,0.00942334,-0.00703929,-0.00219858,0.000505538,0.00208693,0.000313796,0.0274445,0.016875,-0.0225,-0.028125,-0.0137168,0.045,0.00923952,-0.402821,-7.5867,-0.889218,19.7538,1.78011,1.41104,-0.290945,-0.452139,-1.09452,0.125883,3.81762,1.13932,-0.346926,-0.320303
1849919,0.99,-1.57032,-0.522785,-0.000144425,-2.09714,-0.00148121,1.5713,0.785865,-1.57063,-0.523496,-0.000137546,-2.09457,-8.39461e-05,1.57107,0.785455,0.0073491,0.0130072,-0.0044799,-0.00112758,0.000743927,0.00120898,-0.00050288,0.0304939,0.01875,-0.025,-0.03125,-0.0152409,0.05,0.0102661,-0.355213,-7.20584,-0.940793,19.3531,1.76912,1.42385,-0.271719,-0.450068,-1.12335,0.129121,3.82408,1.13905,-0.345054,-0.320087
1849920,0.99,-1.57032,-0.522758,-0.000156316,-2.09715,-0.00148323,1.57131,0.785869,-1.57059,-0.523473,-0.000167074,-2.0946,-0.000101628,1.57113,0.785467,0.00527228,0.0143143,-0.00819537,-0.00127791,0.000902852,0.00126265,0.000139465,0.0358261,0.0225,-0.029528,-0.0375,-0.0176816,0.06,0.011887,-0.204456,-6.90433,-0.988401,19.0079,1.75813,1.41745,-0.284536,-0.451411,-1.15583,0.125824,3.82858,1.13849,-0.3427,-0.31968
1849921,0.99,-1.57031,-0.522743,-0.000163137,-2.09716,-0.00147918,1.57131,0.785868,-1.57055,-0.523447,-0.00020113,-2.09465,-0.00012175,1.5712,0.78548,0.00435473,0.0157045,-0.00628588,-0.00376361,0.00124616,0.00076889,-0.0006191,0.0411582,0.02625,-0.034056,-0.04375,-0.0201223,0.07,0.013508,-0.204456,-6.49966,-1.11535,18.758,1.74074,1.42385,-0.26531,-0.452501,-1.1891,0.120722,3.82961,1.13779,-0.339855,-0.319132
1849922,0.99,-1.5703,-0.522731,-0.000181345,-2.09717,-0.00148106,1.57132,0.785863,-1.57051,-0.523417,-0.000239714,-2.0947,-0.000144313,1.57128,0.785495,0.00608932,0.0165584,-0.0101342,-0.0059861,-0.00368218,0.00292992,-0.00210815,0.0464904,0.03,-0.038584,-0.05,-0.022563,0.08,0.0151289,-0.176685,-6.0712,-1.14312,18.5358,1.73525,1.48794,-0.219534,-0.451407,-1.22067,0.116236,3.82699,1.13709,-0.33643,-0.318473
1849923,0.99,-1.57028,-0.522714,-0.000200278,-2.09718,-0.00148509,1.57132,0.78587,-1.57045,-0.523383,-0.000282826,-2.09475,-0.000169317,1.57137,0.785512,0.0111785,0.021597,-0.0140997,-0.0107294,-0.00284782,0.00326342,0.000764702,0.0518226,0.03375,-0.043112,-0.05625,-0.0250037,0.09,0.0167498,-0.176685,-5.56339,-1.24231,18.1867,1.73525,1.5978,-0.278127,-0.447684,-1.25234,0.113567,3.82283,1.13647,-0.332203,-0.317686
1849924,0.99,-1.57027,-0.522693,-0.000222976,-2.0972,-0.00148464,1.57132,0.785869,-1.5704,-0.523346,-0.000330465,-2.09482,-0.000196761,1.57147,0.78553,0.0100657,0.0221272,-0.0170359,-0.0146053,-0.000531808,0.00238789,3.50838e-05,0.0571547,0.0375,-0.04764,-0.0625,-0.0274444,0.1,0.0183707,-0.101307,-4.90482,-1.34546,17.7146,1.69039,1.73971,-0.26531,-0.440678,-1.28807,0.114411,3.82031,1.13599,-0.32677,-0.31676
1849925,0.99,-1.57023,-0.522666,-0.000257311,-2.09722,-0.00149066,1.57133,0.785868,-1.57033,-0.523304,-0.000382633,-2.09489,-0.000226646,1.57158,0.78555,0.0166514,0.0231461,-0.0232776,-0.0131949,-0.00359463,0.00246709,-0.00119731,0.0624869,0.04125,-0.0521679,-0.06875,-0.029885,0.11,0.0199916,-0.204456,-4.12326,-1.39306,17.0441,1.64461,1.8688,-0.232351,-0.429608,-1.32417,0.120218,3.8177,1.13563,-0.32004,-0.315736
1849926,0.99,-1.5702,-0.522629,-0.000294129,-2.09724,-0.00149002,1.57135,0.785873,-1.57027,-0.523259,-0.000439329,-2.09496,-0.000258972,1.5717,0.785572,0.0201824,0.0289168,-0.0298092,-0.0178496,-0.000445877,0.00893514,0.000422494,0.067819,0.045,-0.0566959,-0.075,-0.0323257,0.12,0.0216125,-0.252064,-3.38931,-1.47241,16.3221,1.57686,1.95852,-0.26531,-0.414077,-1.35649,0.132271,3.81153,1.13528,-0.312096,-0.314646
1849927,0.99,-1.57016,-0.522582,-0.000334926,-2.09728,-0.00149312,1.57137,0.785874,-1.57019,-0.523211,-0.000500553,-2.09504,-0.000293738,1.57183,0.785595,0.0264606,0.0326687,-0.032267,-0.0230727,0.0011487,0.0155483,0.00426471,0.0731512,0.04875,-0.0612239,-0.08125,-0.0347664,0.13,0.0232334,-0.303639,-2.75851,-1.54779,15.6516,1.52651,1.99697,-0.246084,-0.395364,-1.38973,0.149383,3.80359,1.13484,-0.302591,-0.313494
1849928,0.99,-1.57013,-0.522527,-0.000383166,-2.09732,-0.00149671,1.57141,0.785876,-1.57011,-0.523158,-0.000566305,-2.09513,-0.000330945,1.57197,0.78562,0.0289408,0.0383657,-0.0347417,-0.0313904,0.00235042,0.0208252,0.0032344,0.0784833,0.0525,-0.0657519,-0.0875,-0.0372071,0.14,0.0248543,-0.252064,-2.25467,-1.5954,15.1795,1.47524,2.02261,-0.246084,-0.376432,-1.43022,0.167185,3.79792,1.13415,-0.290941,-0.312274
1849929,0.99,-1.57009,-0.522475,-0.000433141,-2.09737,-0.00150498,1.57146,0.785879,-1.57003,-0.523102,-0.000636585,-2.09522,-0.000370593,1.57212,0.785647,0.0328911,0.0423783,-0.0410581,-0.0353937,-0.00296333,0.0314982,0.00709544,0.0838155,0.05625,-0.0702799,-0.09375,-0.0396478,0.15,0.0264752,-0.152882,-1.74686,-1.67474,14.7312,1.46425,1.99057,-0.246084,-0.358172,-1.48071,0.184029,3.79634,1.13315,-0.276862,-0.310987
1849930,0.99,-1.57004,-0.522429,-0.000485176,-2.09743,-0.00151697,1.57153,0.785872,-1.56994,-0.52304,-0.000712865,-2.09533,-0.000413259,1.57229,0.785675,0.0362561,0.0435145,-0.045541,-0.0393314,-0.00806864,0.0462175,0.00269266,0.0908067,0.061875,-0.0762795,-0.103125,-0.042666,0.165,0.0284338,-0.0775034,-1.16763,-1.77392,14.3344,1.48622,1.89443,-0.174673,-0.3389,-1.5358,0.202122,3.79502,1.13186,-0.260822,-0.309644
1849931,0.99,-1.56998,-0.522386,-0.000543832,-2.09748,-0.00152716,1.57161,0.78587,-1.56984,-0.522972,-0.000795144,-2.09544,-0.000458943,1.57247,0.785705,0.0431237,0.0443769,-0.0499695,-0.0467223,-0.0110573,0.0572637,0.00031775,0.0977978,0.0675,-0.0822791,-0.1125,-0.0456841,0.18,0.0303924,-0.0497324,-0.584442,-1.8255,14.0091,1.49172,1.79739,-0.122488,-0.318517,-1.58492,0.221369,3.78797,1.13022,-0.243612,-0.308227
1849932,0.99,-1.56992,-0.52234,-0.000607661,-2.09755,-0.00153811,1.5717,0.785867,-1.56974,-0.522899,-0.000883422,-2.09556,-0.000507645,1.57266,0.785738,0.0489332,0.0437313,-0.0541879,-0.0561883,-0.0124666,0.0678859,-0.00182019,0.104789,0.073125,-0.0882787,-0.121875,-0.0487023,0.195,0.0323511,-0.0259286,-0.080597,-1.8493,13.8623,1.47524,1.75253,-0.0584009,-0.298921,-1.62077,0.238825,3.77316,1.12816,-0.225648,-0.306641
1849933,0.99,-1.56985,-0.522304,-0.000662809,-2.09762,-0.00155454,1.57179,0.785868,-1.56963,-0.522821,-0.000977701,-2.09569,-0.000559366,1.57287,0.785772,0.0530043,0.0431051,-0.0545638,-0.0614333,-0.00925125,0.0778909,0.00351592,0.11178,0.07875,-0.0942783,-0.13125,-0.0517204,0.21,0.0343097,-0.0259286,0.681122,-2.10321,13.537,1.46974,1.79098,-0.0510767,-0.282308,-1.63793,0.250871,3.74973,1.12562,-0.207276,-0.304751
1849934,0.99,-1.56977,-0.52226,-0.000738905,-2.0977,-0.00156731,1.57189,0.78587,-1.56951,-0.522736,-0.00107798,-2.09583,-0.000614104,1.5731,0.785808,0.0613075,0.0446721,-0.0624807,-0.0727099,-0.00984261,0.086137,0.00245673,0.118771,0.084375,-0.100278,-0.140625,-0.0547386,0.225,0.0362683,-0.0775034,1.51425,-2.15478,13.1403,1.41847,1.92648,-0.0382593,-0.269758,-1.6342,0.255601,3.71768,1.12253,-0.188764,-0.302437
1849935,0.99,-1.56968,-0.522202,-0.000825592,-2.09778,-0.00158446,1.57202,0.785871,-1.56938,-0.522646,-0.00118426,-2.09598,-0.000671861,1.57334,0.785847,0.0709139,0.0495187,-0.0691395,-0.0777681,-0.0153507,0.0928072,0.000891654,0.125763,0.09,-0.106277,-0.15,-0.0577568,0.24,0.0382269,-0.152882,2.34738,-2.17859,12.569,1.37361,2.05557,-0.00621587,-0.260565,-1.61517,0.254655,3.68041,1.11899,-0.169946,-0.299617
1849936,0.99,-1.56958,-0.522124,-0.000913211,-2.09788,-0.00160094,1.57216,0.785875,-1.56925,-0.522551,-0.00129653,-2.09614,-0.000732636,1.57359,0.785887,0.0801316,0.0574013,-0.0764046,-0.0806188,-0.0177504,0.108075,0.000450189,0.132754,0.095625,-0.112277,-0.159375,-0.0607749,0.255,0.0401855,-0.204456,3.00595,-2.23016,11.9461,1.28298,2.05557,0.00660151,-0.253931,-1.58978,0.250197,3.64037,1.11509,-0.150703,-0.296243
1849937,0.99,-1.56948,-0.52204,-0.00100967,-2.09799,-0.00162266,1.57234,0.78588,-1.56911,-0.522449,-0.00141481,-2.09631,-0.000796429,1.57386,0.785929,0.0876141,0.0676297,-0.0830443,-0.0877846,-0.0163875,0.128296,-0.000401457,0.139745,0.10125,-0.118277,-0.16875,-0.0637931,0.27,0.0421441,-0.22826,3.61295,-2.23016,11.3749,1.22621,1.9457,0.0322363,-0.249247,-1.56839,0.243717,3.59909,1.1108,-0.131076,-0.2923
1849938,0.99,-1.56937,-0.521953,-0.00110638,-2.09811,-0.00164943,1.57254,0.785886,-1.56896,-0.522342,-0.00153909,-2.09649,-0.000863241,1.57415,0.785973,0.0934595,0.0723903,-0.0863797,-0.0921711,-0.0194868,0.154304,0.000155611,0.146736,0.106875,-0.124276,-0.178125,-0.0668113,0.285,0.0441027,-0.176685,4.19217,-2.28174,10.9027,1.15297,1.77816,0.0258276,-0.246023,-1.55754,0.235805,3.55758,1.10605,-0.111229,-0.287802
1849939,0.99,-1.56926,-0.521863,-0.0012091,-2.09824,-0.00168663,1.57276,0.785892,-1.56881,-0.52223,-0.00166936,-2.09668,-0.00093307,1.57445,0.786019,0.0992883,0.0794923,-0.0909103,-0.101712,-0.0198787,0.178052,0.00298159,0.153727,0.1125,-0.130276,-0.1875,-0.0698294,0.3,0.0460613,-0.125111,4.72379,-2.35711,10.5536,1.15297,1.61703,0.0780126,-0.24444,-1.55528,0.225483,3.51433,1.10075,-0.0916161,-0.282784
1849940,0.99,-1.56915,-0.521777,-0.00131058,-2.09838,-0.00172267,1.573,0.785905,-1.56865,-0.52211,-0.00180666,-2.09688,-0.00100634,1.57477,0.786067,0.102835,0.0804143,-0.0913679,-0.112748,-0.0240536,0.196831,0.00697936,0.161866,0.119954,-0.137296,-0.199509,-0.0732695,0.31999,0.0482125,-0.0259286,5.33078,-2.4563,10.2561,1.13558,1.52731,0.0844213,-0.244909,-1.55663,0.211115,3.46887,1.0948,-0.0725438,-0.277283
1849941,0.99,-1.56901,-0.521692,-0.00141665,-2.09854,-0.00176724,1.57325,0.785912,-1.56848,-0.521983,-0.00195098,-2.09709,-0.00108305,1.57511,0.786118,0.1139,0.0785464,-0.0940808,-0.125486,-0.0287016,0.216158,0.00324774,0.170004,0.127408,-0.144317,-0.211519,-0.0767097,0.33998,0.0503638,-0.0775034,5.91,-2.58325,10.1569,1.16396,1.46871,0.143015,-0.249418,-1.5514,0.188942,3.42024,1.08812,-0.0542042,-0.271305
1849942,0.99,-1.56887,-0.521614,-0.00153296,-2.0987,-0.00181432,1.57352,0.785917,-1.5683,-0.521848,-0.00210231,-2.09731,-0.0011632,1.57547,0.78617,0.121185,0.0784324,-0.102369,-0.135572,-0.0358693,0.23167,0.00326015,0.178142,0.134862,-0.151337,-0.223528,-0.0801498,0.35997,0.052515,-0.152882,6.56857,-2.6864,9.95853,1.17586,1.48153,0.252878,-0.259073,-1.5269,0.15749,3.36563,1.0807,-0.0368935,-0.264842
1849943,0.99,-1.56871,-0.521526,-0.00165518,-2.09886,-0.00186717,1.57381,0.785936,-1.56811,-0.521705,-0.00226067,-2.09755,-0.00124679,1.57585,0.786225,0.136313,0.0803292,-0.104379,-0.142563,-0.0418966,0.24984,0.00669707,0.18628,0.142315,-0.158358,-0.235538,-0.0835899,0.37996,0.0546662,-0.279835,7.27475,-2.83716,9.76017,1.19783,1.58499,0.278513,-0.27388,-1.47659,0.117621,3.30255,1.07258,-0.0209511,-0.257835
1849944,0.99,-1.56854,-0.521432,-0.00178789,-2.09904,-0.00192491,1.57411,0.785951,-1.56792,-0.521556,-0.00242605,-2.09779,-0.00133382,1.57625,0.786282,0.149959,0.0852774,-0.115711,-0.156333,-0.0452147,0.261656,0.00848707,0.194418,0.149769,-0.165378,-0.247547,-0.08703,0.39995,0.0568175,-0.50597,8.11185,-2.91253,9.38724,1.19234,1.74612,0.323374,-0.295326,-1.40375,0.0684969,3.23236,1.06381,-0.0062965,-0.250162
1849945,0.99,-1.56837,-0.521319,-0.00192253,-2.09922,-0.00198153,1.57443,0.785968,-1.56771,-0.521398,-0.00259845,-2.09805,-0.00142429,1.57667,0.786341,0.153669,0.0943947,-0.121375,-0.166492,-0.0465683,0.275406,0.00962931,0.202557,0.157223,-0.172399,-0.259557,-0.0904701,0.41994,0.0589687,-0.557545,8.8696,-3.01568,8.86356,1.15297,1.91366,0.375559,-0.320956,-1.32232,0.0146021,3.16243,1.05472,0.00795508,-0.241735
1849946,0.99,-1.5682,-0.521196,-0.0020668,-2.09942,-0.00204288,1.57478,0.785988,-1.5675,-0.521234,-0.00277787,-2.09833,-0.0015182,1.57711,0.786402,0.160793,0.102086,-0.126291,-0.175559,-0.0467948,0.301604,0.0111226,0.210695,0.164677,-0.179419,-0.271566,-0.0939102,0.43993,0.06112,-0.605152,9.57578,-3.09106,8.26847,1.09072,1.92648,0.407602,-0.346002,-1.24618,-0.0375977,3.09856,1.04572,0.0225972,-0.232521
1849947,0.99,-1.56801,-0.521062,-0.00222151,-2.09963,-0.00210472,1.57516,0.786017,-1.56728,-0.521062,-0.00296431,-2.09861,-0.00161555,1.57757,0.786465,0.168652,0.11058,-0.138844,-0.186364,-0.0512498,0.329076,0.014151,0.218833,0.172131,-0.18644,-0.283575,-0.0973504,0.45992,0.0632712,-0.605152,10.1828,-3.11487,7.66941,1.01106,1.84225,0.388376,-0.367312,-1.18108,-0.0838505,3.041,1.03699,0.0378135,-0.222509
1849948,0.99,-1.56781,-0.520921,-0.00238868,-2.09987,-0.00217261,1.57558,0.786045,-1.56706,-0.520882,-0.00315777,-2.0989,-0.00171634,1.57805,0.78653,0.17829,0.117972,-0.146196,-0.203691,-0.0554183,0.358564,0.0161807,0.226971,0.179585,-0.19346,-0.295585,-0.10079,0.47991,0.0654224,-0.581349,10.7382,-3.11487,7.32425,0.949724,1.61062,0.36915,-0.382348,-1.13018,-0.119933,2.99065,1.02867,0.0538015,-0.211736
1849949,0.99,-1.56761,-0.520773,-0.00255964,-2.10012,-0.00224675,1.57602,0.786082,-1.56682,-0.520695,-0.00335825,-2.09921,-0.00182057,1.57855,0.786598,0.185128,0.127473,-0.155911,-0.217634,-0.0590079,0.384802,0.0236324,0.23511,0.187038,-0.200481,-0.307594,-0.104231,0.4999,0.0675737,-0.557545,11.246,-3.14264,7.02671,0.903948,1.43026,0.310557,-0.390591,-1.09736,-0.144866,2.95063,1.02078,0.0708301,-0.200297
1849950,0.99,-1.5674,-0.520631,-0.00273065,-2.10037,-0.00232494,1.57647,0.786112,-1.56658,-0.5205,-0.0035665,-2.09953,-0.00192845,1.57907,0.786668,0.188241,0.133208,-0.15853,-0.229763,-0.0627151,0.408828,0.0262397,0.243969,0.194528,-0.208255,-0.320084,-0.107882,0.51989,0.0698478,-0.50597,11.8014,-3.16644,6.67759,0.881059,1.34054,0.330698,-0.392583,-1.08147,-0.160218,2.92068,1.01318,0.0886171,-0.188361
1849951,0.99,-1.56717,-0.520487,-0.00290287,-2.10064,-0.00241253,1.57695,0.786145,-1.56633,-0.520298,-0.00378253,-2.09986,-0.00203999,1.57961,0.78674,0.205864,0.13443,-0.160718,-0.242342,-0.0672832,0.431272,0.0327057,0.252828,0.202018,-0.216028,-0.332574,-0.111533,0.53988,0.0721219,-0.50597,12.333,-3.29339,6.50303,0.909441,1.31491,0.362742,-0.393468,-1.07025,-0.174331,2.89444,1.00537,0.10628,-0.176107
1849952,0.99,-1.56693,-0.520344,-0.00309386,-2.10092,-0.00250516,1.57744,0.786176,-1.56606,-0.520089,-0.00400633,-2.10021,-0.00215517,1.58017,0.786814,0.213735,0.138305,-0.174701,-0.254213,-0.075433,0.454001,0.0316464,0.261688,0.209508,-0.223802,-0.345064,-0.115184,0.55987,0.074396,-0.581349,12.8885,-3.34497,6.28086,0.943315,1.34695,0.427744,-0.398641,-1.0477,-0.194603,2.86417,0.99694,0.122932,-0.16366
1849953,0.99,-1.56668,-0.520189,-0.00328979,-2.10121,-0.00259805,1.57795,0.786214,-1.56579,-0.519872,-0.00423791,-2.10057,-0.002274,1.58075,0.786891,0.230087,0.143028,-0.180078,-0.267535,-0.0809615,0.472101,0.0324128,0.270547,0.216998,-0.231576,-0.357554,-0.118835,0.57986,0.0766701,-0.732105,13.3685,-3.42035,6.1301,0.966203,1.47512,0.453379,-0.40746,-1.00661,-0.219145,2.82645,0.987907,0.138207,-0.15107
1849954,0.99,-1.56641,-0.520026,-0.00349812,-2.10151,-0.00270101,1.57848,0.786261,-1.56551,-0.519647,-0.00447726,-2.10094,-0.00239649,1.58135,0.78697,0.243638,0.146727,-0.190225,-0.27851,-0.0894901,0.486548,0.0345054,0.279406,0.224488,-0.23935,-0.370044,-0.122486,0.59985,0.0789442,-0.882862,13.8247,-3.47192,5.90793,0.989092,1.5978,0.440561,-0.420619,-0.94622,-0.248201,2.78118,0.978357,0.152255,-0.138302
1849955,0.99,-1.56614,-0.519858,-0.00370455,-2.10182,-0.00280027,1.57904,0.786308,-1.56523,-0.519415,-0.00472438,-2.10132,-0.00252263,1.58196,0.787051,0.248572,0.152596,-0.193764,-0.286802,-0.094153,0.506242,0.0351954,0.288265,0.231978,-0.247124,-0.382534,-0.126138,0.61984,0.0812183,-0.958241,14.1501,-3.5711,5.80875,0.97719,1.64266,0.44697,-0.438635,-0.865686,-0.28258,2.72719,0.968378,0.165276,-0.125321
1849956,0.99,-1.56586,-0.519674,-0.00392972,-2.10215,-0.0029035,1.57964,0.786363,-1.56493,-0.519176,-0.00497928,-2.10171,-0.00265242,1.5826,0.787135,0.258633,0.163309,-0.202905,-0.297881,-0.0939522,0.532335,0.0373341,0.297125,0.239468,-0.254897,-0.395024,-0.129789,0.63983,0.0834924,-1.00982,14.3048,-3.62268,5.6818,0.971697,1.60421,0.407602,-0.459041,-0.769622,-0.319564,2.66468,0.958194,0.177462,-0.112167
1849957,0.99,-1.56558,-0.519483,-0.00416003,-2.10249,-0.00300541,1.58025,0.786414,-1.56462,-0.518929,-0.00524195,-2.10212,-0.00278586,1.58326,0.78722,0.263774,0.174661,-0.211886,-0.309653,-0.0919208,0.557172,0.0453373,0.305984,0.246958,-0.262671,-0.407514,-0.13344,0.65982,0.0857665,-0.986012,14.404,-3.67425,5.55881,0.915849,1.56576,0.44697,-0.478553,-0.671418,-0.354738,2.59865,0.948085,0.189253,-0.0989292
1849958,0.99,-1.56528,-0.519284,-0.00439353,-2.10285,-0.00311428,1.58089,0.786478,-1.56431,-0.518675,-0.0055124,-2.10254,-0.00292295,1.58394,0.787309,0.272027,0.183413,-0.215144,-0.324005,-0.0960822,0.580823,0.0539458,0.314843,0.254448,-0.270445,-0.420004,-0.137091,0.67981,0.0880406,-0.986012,14.5071,-3.67425,5.53501,0.881059,1.48153,0.407602,-0.495236,-0.583121,-0.385636,2.53529,0.938253,0.201162,-0.0857045
1849959,0.99,-1.56498,-0.519076,-0.00463736,-2.10322,-0.00322738,1.58155,0.786541,-1.56398,-0.518413,-0.00579061,-2.10297,-0.00306369,1.58464,0.787399,0.278073,0.191519,-0.224094,-0.339735,-0.0988657,0.614563,0.0585039,0.323703,0.261938,-0.278219,-0.432494,-0.140742,0.6998,0.0903147,-0.934437,14.5309,-3.64648,5.50724,0.841692,1.31491,0.427744,-0.509595,-0.508817,-0.41363,2.47834,0.928743,0.213434,-0.0725569
1849960,0.99,-1.56466,-0.518874,-0.00489224,-2.10359,-0.00334267,1.58225,0.786609,-1.56365,-0.518143,-0.00607713,-2.10342,-0.00320815,1.58536,0.787491,0.291158,0.193996,-0.230341,-0.352784,-0.105414,0.646388,0.0625955,0.332975,0.269428,-0.286517,-0.444984,-0.14446,0.71979,0.0926466,-0.986012,14.7055,-3.62268,5.50724,0.807817,1.14096,0.434153,-0.522521,-0.443084,-0.43999,2.42668,0.91949,0.225703,-0.0595493
1849961,0.99,-1.56434,-0.518656,-0.00515393,-2.10398,-0.00346107,1.58296,0.78669,-1.56331,-0.517866,-0.00637195,-2.10388,-0.00335633,1.5861,0.787586,0.302692,0.203575,-0.236072,-0.36399,-0.110834,0.665081,0.066375,0.342247,0.276918,-0.294815,-0.457474,-0.148177,0.73978,0.0949786,-0.958241,14.8086,-3.64648,5.43583,0.76845,1.10159,0.407602,-0.537017,-0.37694,-0.468442,2.3762,0.910221,0.237258,-0.0467103
1849962,0.99,-1.564,-0.518434,-0.00541938,-2.10439,-0.00358391,1.58366,0.786765,-1.56296,-0.517582,-0.00667506,-2.10435,-0.00350822,1.58686,0.787684,0.32143,0.206866,-0.246718,-0.374261,-0.114811,0.67606,0.072559,0.351519,0.284408,-0.303113,-0.469964,-0.151895,0.75977,0.0973105,-1.21215,14.9594,-3.72583,5.30887,0.729082,1.26913,0.427744,-0.556862,-0.305481,-0.503369,2.32424,0.900565,0.247684,-0.0340392
1849963,0.99,-1.56365,-0.518204,-0.0056934,-2.10479,-0.00371518,1.58438,0.786849,-1.5626,-0.51729,-0.00698647,-2.10483,-0.00366383,1.58764,0.787783,0.323271,0.213864,-0.255008,-0.384963,-0.119273,0.686687,0.0784105,0.36079,0.291898,-0.311411,-0.482454,-0.155612,0.77976,0.0996425,-1.26372,15.0348,-3.74963,5.16208,0.723589,1.46871,0.414011,-0.58098,-0.224572,-0.542501,2.26875,0.890358,0.256952,-0.0215727
1849964,0.99,-1.56329,-0.517967,-0.00597343,-2.10521,-0.00385742,1.58515,0.786938,-1.56223,-0.516991,-0.00730618,-2.10532,-0.00382316,1.58844,0.787885,0.331119,0.218423,-0.260016,-0.396465,-0.124389,0.708795,0.0823239,0.370062,0.299388,-0.319709,-0.494944,-0.159329,0.79975,0.101974,-1.3391,15.1101,-3.80121,5.0629,0.773943,1.47512,0.414011,-0.604732,-0.131761,-0.579979,2.20845,0.879707,0.265292,-0.00936098
1849965,0.99,-1.56293,-0.517714,-0.00627037,-2.10564,-0.00399686,1.58592,0.78702,-1.56185,-0.516684,-0.00763418,-2.10583,-0.00398621,1.58926,0.78799,0.340011,0.228497,-0.277455,-0.416221,-0.131431,0.73332,0.0822977,0.379334,0.306878,-0.328007,-0.507434,-0.163047,0.81974,0.104306,-1.3629,15.0625,-3.80121,4.98752,0.784929,1.46231,0.485422,-0.623857,-0.0325993,-0.610093,2.14678,0.868946,0.273325,0.00255917
1849966,0.99,-1.56255,-0.517455,-0.00656285,-2.10608,-0.00413633,1.58672,0.78711,-1.56146,-0.516369,-0.00797049,-2.10635,-0.00415297,1.5901,0.788096,0.351885,0.238774,-0.280273,-0.422383,-0.131663,0.750454,0.0837964,0.388606,0.314368,-0.336305,-0.519924,-0.166764,0.83973,0.106638,-1.41448,15.011,-3.92816,4.83677,0.791338,1.49526,0.52479,-0.63709,0.0617486,-0.630246,2.08935,0.858369,0.281722,0.0142051
1849967,0.99,-1.56216,-0.517184,-0.0068798,-2.10654,-0.00427333,1.58753,0.787203,-1.56106,-0.516047,-0.00831509,-2.10688,-0.00432346,1.59096,0.788205,0.369118,0.246988,-0.294828,-0.429764,-0.130665,0.773705,0.0901734,0.397878,0.321858,-0.344603,-0.532414,-0.170482,0.85972,0.10897,-1.46209,14.9356,-3.84881,4.78916,0.773943,1.48794,0.544016,-0.648642,0.148152,-0.6456,2.03436,0.847796,0.290324,0.025676
1849968,0.99,-1.56178,-0.516905,-0.00719729,-2.107,-0.00441932,1.58839,0.787302,-1.56065,-0.515718,-0.00866799,-2.10743,-0.00449765,1.59184,0.788317,0.368162,0.258068,-0.301344,-0.436923,-0.13123,0.800979,0.091496,0.40715,0.329348,-0.352901,-0.544904,-0.174199,0.87971,0.111302,-1.31133,14.9078,-3.90039,4.6622,0.779436,1.40463,0.544016,-0.659799,0.229907,-0.657853,1.97601,0.837078,0.298497,0.0370651
1849969,0.99,-1.56137,-0.516609,-0.00752952,-2.10747,-0.00456623,1.58929,0.787406,-1.56024,-0.515381,-0.00902919,-2.10799,-0.00467557,1.59274,0.78843,0.383432,0.271093,-0.305584,-0.446583,-0.135965,0.834429,0.097206,0.416422,0.336838,-0.361199,-0.557394,-0.177917,0.8997,0.113634,-1.3391,14.7848,-3.84881,4.51542,0.773943,1.16018,0.537607,-0.669618,0.30412,-0.666911,1.9135,0.826328,0.305901,0.0484413
1849970,0.99,-1.56098,-0.516309,-0.00786823,-2.10795,-0.004707,1.59018,0.787518,-1.55981,-0.515037,-0.00939902,-2.10856,-0.00485718,1.59366,0.788546,0.382507,0.280779,-0.3184,-0.456962,-0.136177,0.85492,0.103988,0.42587,0.344328,-0.369829,-0.569884,-0.181613,0.91969,0.115978,-1.18834,14.6817,-3.80121,4.28928,0.677812,1.07595,0.466196,-0.678197,0.365324,-0.674151,1.84947,0.815675,0.312447,0.0598409
1849971,0.99,-1.56056,-0.515997,-0.00821754,-2.10845,-0.00484971,1.59108,0.787619,-1.55938,-0.514685,-0.00977748,-2.10914,-0.00504249,1.5946,0.788665,0.392428,0.28874,-0.329895,-0.467829,-0.135644,0.871027,0.0986394,0.435318,0.351818,-0.37846,-0.582374,-0.185308,0.93968,0.118322,-1.18834,14.5547,-3.72583,4.21787,0.558794,1.16659,0.537607,-0.680617,0.414024,-0.673019,1.78549,0.805351,0.318167,0.0711971
1849972,0.99,-1.56013,-0.515685,-0.0085802,-2.10896,-0.00501294,1.592,0.787737,-1.55893,-0.514326,-0.0101646,-2.10973,-0.0052315,1.59556,0.788785,0.407168,0.294987,-0.339489,-0.478125,-0.144103,0.887079,0.104445,0.444766,0.359308,-0.38709,-0.594864,-0.189004,0.95967,0.120666,-1.31133,14.5309,-3.62268,3.99173,0.553301,1.21145,0.485422,-0.675827,0.456661,-0.661628,1.72076,0.795249,0.323097,0.0824381
1849973,0.99,-1.55969,-0.515376,-0.00894898,-2.10948,-0.00517681,1.59297,0.787856,-1.55848,-0.513959,-0.0105603,-2.11034,-0.0054242,1.59654,0.788908,0.414171,0.304067,-0.345496,-0.494168,-0.154755,0.901948,0.106753,0.454214,0.366798,-0.39572,-0.607354,-0.1927,0.97966,0.123009,-1.31133,14.6063,-3.5473,3.94413,0.558794,1.19863,0.479014,-0.669034,0.49701,-0.646906,1.65616,0.78502,0.327555,0.0935677
1849974,0.99,-1.55926,-0.515052,-0.00931412,-2.11003,-0.00534437,1.59395,0.787976,-1.55801,-0.513585,-0.0109646,-2.11096,-0.00562059,1.59754,0.789034,0.420204,0.30663,-0.345756,-0.511627,-0.160205,0.93042,0.112071,0.463662,0.374288,-0.404351,-0.619844,-0.196395,0.99965,0.125353,-1.109,14.7055,-3.62268,4.01554,0.599077,1.19863,0.49824,-0.664761,0.535532,-0.636165,1.59502,0.774514,0.332078,0.104575
1849975,0.99,-1.5588,-0.514722,-0.00971218,-2.11058,-0.00551435,1.59494,0.788097,-1.55754,-0.513203,-0.0113776,-2.11159,-0.00582068,1.59856,0.789161,0.439068,0.312129,-0.364905,-0.526657,-0.16373,0.942577,0.118527,0.47311,0.381778,-0.412981,-0.632334,-0.200091,1.01964,0.127697,-1.18834,14.7055,-3.44415,4.04331,0.632951,1.19223,0.459788,-0.665121,0.576406,-0.632527,1.53821,0.76369,0.33693,0.115403
1849976,0.99,-1.55833,-0.514371,-0.0101002,-2.11116,-0.00568537,1.59595,0.788221,-1.55706,-0.512814,-0.0117992,-2.11224,-0.00602447,1.5996,0.789291,0.445514,0.321143,-0.368732,-0.544584,-0.166456,0.954359,0.116573,0.482558,0.389268,-0.421612,-0.644824,-0.203787,1.03963,0.130041,-1.21215,14.6063,-3.42035,4.24167,0.666826,1.22427,0.472605,-0.669119,0.619391,-0.633265,1.48738,0.752644,0.34249,0.126002
1849977,0.99,-1.55785,-0.514006,-0.0105038,-2.11174,-0.00585936,1.59697,0.788348,-1.55657,-0.512417,-0.0122295,-2.1129,-0.00623195,1.60066,0.789424,0.457943,0.333639,-0.374445,-0.557169,-0.171427,0.982762,0.119645,0.492006,0.396758,-0.430242,-0.657314,-0.207483,1.05962,0.132385,-1.18834,14.3802,-3.42035,4.34085,0.666826,1.26272,0.485422,-0.677325,0.654828,-0.639137,1.4469,0.74153,0.349144,0.136354
1849978,0.99,-1.55737,-0.51363,-0.0109078,-2.11233,-0.00604261,1.59803,0.788473,-1.55606,-0.512013,-0.0126683,-2.11357,-0.00644313,1.60174,0.789558,0.46419,0.347994,-0.383792,-0.56692,-0.174692,1.00154,0.122304,0.501454,0.404248,-0.438872,-0.669804,-0.211178,1.07961,0.134729,-1.13677,14.0747,-3.34497,4.38846,0.672319,1.26913,0.49824,-0.690405,0.6725,-0.65166,1.41828,0.730474,0.356673,0.146453
1849979,1,-1.55689,-0.513244,-0.011326,-2.11294,-0.00623136,1.59911,0.788604,-1.55555,-0.511601,-0.0131159,-2.11425,-0.006658,1.60284,0.789695,0.474202,0.358889,-0.390952,-0.578768,-0.181598,1.02766,0.119837,0.510902,0.411738,-0.447503,-0.682294,-0.214874,1.0996,0.137072,-1.06139,13.8723,-3.3172,4.48764,0.643938,1.29476,0.49824,-0.705716,0.667829,-0.667231,1.39975,0.719646,0.364639,0.156305
1849980,1,-1.55639,-0.512859,-0.0117526,-2.11358,-0.00641887,1.60019,0.788741,-1.55503,-0.511182,-0.0135722,-2.11494,-0.0068765,1.60396,0.789835,0.484554,0.366754,-0.404884,-0.598438,-0.184003,1.04927,0.127147,0.52034,0.419228,-0.45631,-0.694784,-0.218495,1.11959,0.139399,-0.934437,13.8247,-3.34497,4.6622,0.547807,1.3085,0.466196,-0.720299,0.642627,-0.681494,1.39023,0.709223,0.372955,0.165918
1849981,1,-1.55588,-0.512479,-0.0121807,-2.11423,-0.00660459,1.60131,0.788878,-1.5545,-0.510755,-0.0140373,-2.11565,-0.00709861,1.6051,0.789977,0.49441,0.369835,-0.410765,-0.618901,-0.183765,1.07392,0.130496,0.529778,0.426718,-0.465117,-0.707274,-0.222115,1.13958,0.141726,-1.13677,13.9001,-3.3172,4.83677,0.502947,1.33413,0.407602,-0.732598,0.603986,-0.692053,1.39021,0.699258,0.381928,0.175268
1849982,1,-1.55535,-0.512085,-0.0126227,-2.1149,-0.00678972,1.60246,0.78901,-1.55396,-0.510321,-0.0145112,-2.11637,-0.00732435,1.60626,0.790121,0.509513,0.37449,-0.414731,-0.634905,-0.181925,1.09511,0.133874,0.539215,0.434208,-0.473924,-0.719764,-0.225736,1.15957,0.144053,-1.26372,13.9993,-3.29339,4.93595,0.417803,1.30117,0.44697,-0.746301,0.563547,-0.704481,1.39775,0.689409,0.391667,0.184306
1849983,1,-1.55483,-0.511682,-0.013071,-2.11558,-0.00699003,1.60361,0.789146,-1.55342,-0.509879,-0.0149939,-2.1171,-0.00755371,1.60744,0.790267,0.514952,0.383445,-0.429791,-0.659909,-0.184491,1.12232,0.137338,0.548653,0.441698,-0.482731,-0.732254,-0.229356,1.17956,0.14638,-1.31133,14.0509,-3.36877,5.03513,0.428789,1.3085,0.466196,-0.76384,0.525843,-0.722183,1.41254,0.679382,0.40225,0.192967
1849984,1,-1.55429,-0.511269,-0.013537,-2.11628,-0.0071989,1.60477,0.789281,-1.55286,-0.50943,-0.0154855,-2.11785,-0.00778668,1.60864,0.790416,0.515959,0.390726,-0.439674,-0.667729,-0.197045,1.13593,0.13296,0.558091,0.449188,-0.491537,-0.744744,-0.232976,1.19955,0.148707,-1.31133,14.0747,-3.34497,5.03513,0.474565,1.34054,0.52479,-0.777632,0.487934,-0.734418,1.43576,0.669416,0.41374,0.201221
1849985,1,-1.55374,-0.510846,-0.0140135,-2.117,-0.00742075,1.60594,0.789416,-1.55229,-0.508973,-0.0159858,-2.1186,-0.00802328,1.60986,0.790567,0.529773,0.397348,-0.447406,-0.68329,-0.205952,1.15187,0.131613,0.567528,0.456678,-0.500344,-0.757234,-0.236597,1.21954,0.151034,-1.31133,14.0509,-3.34497,5.0629,0.536821,1.36618,0.544016,-0.782679,0.453316,-0.73448,1.4626,0.659631,0.425657,0.209137
1849986,1,-1.55318,-0.510423,-0.0144972,-2.11771,-0.00763879,1.60714,0.789561,-1.55171,-0.508509,-0.016495,-2.11937,-0.0082635,1.6111,0.79072,0.538386,0.40926,-0.460401,-0.691773,-0.210547,1.15984,0.13688,0.576966,0.464168,-0.509151,-0.769724,-0.240217,1.23953,0.153361,-1.38671,13.9993,-3.26959,4.93595,0.531328,1.40463,0.537607,-0.781879,0.424588,-0.726001,1.48865,0.649869,0.437639,0.216861
1849987,1,-1.55263,-0.509978,-0.0149963,-2.11845,-0.00785614,1.60836,0.789701,-1.55113,-0.508037,-0.0170129,-2.12016,-0.00850733,1.61235,0.790876,0.550352,0.4182,-0.46735,-0.700499,-0.213639,1.17058,0.134376,0.586404,0.471658,-0.517958,-0.782214,-0.243838,1.25952,0.155688,-1.26372,13.9001,-3.16644,4.81296,0.50844,1.4559,0.57606,-0.778126,0.399433,-0.712277,1.51192,0.640015,0.449572,0.224509
1849988,1,-1.55207,-0.50954,-0.0155022,-2.11918,-0.00808542,1.60961,0.789836,-1.55053,-0.507558,-0.0175397,-2.12095,-0.00875479,1.61363,0.791034,0.54837,0.42736,-0.481014,-0.711107,-0.216413,1.19378,0.131083,0.595842,0.479148,-0.526765,-0.794704,-0.247458,1.27951,0.158015,-1.109,13.8723,-3.09106,4.6384,0.502947,1.23068,0.653879,-0.770427,0.378408,-0.692097,1.52915,0.630111,0.46116,0.232134
1849989,1,-1.55149,-0.509091,-0.0160014,-2.11994,-0.00830533,1.61089,0.789987,-1.54993,-0.507072,-0.0180753,-2.12176,-0.00900587,1.61493,0.791194,0.555015,0.43459,-0.48634,-0.721265,-0.216537,1.21707,0.132754,0.605279,0.486638,-0.535572,-0.807194,-0.251079,1.2995,0.160342,-0.958241,13.8247,-3.09106,4.56302,0.440691,1.01828,0.621836,-0.75497,0.364349,-0.661239,1.53739,0.620335,0.471947,0.239781
1849990,1,-1.5509,-0.508642,-0.0165183,-2.12071,-0.0085364,1.61216,0.790142,-1.54931,-0.506578,-0.0186197,-2.12258,-0.00926046,1.61625,0.791357,0.570538,0.441127,-0.494331,-0.731598,-0.2207,1.24042,0.144474,0.61456,0.493815,-0.544429,-0.819684,-0.254592,1.31949,0.162635,-0.755909,13.9755,-3.16644,4.51542,0.372942,0.94778,0.563242,-0.735009,0.36153,-0.62491,1.534,0.610517,0.481259,0.247543
1849991,1,-1.5503,-0.508189,-0.0170573,-2.12148,-0.00878197,1.61347,0.79031,-1.54869,-0.506077,-0.019173,-2.12341,-0.00951857,1.61759,0.791522,0.572827,0.445142,-0.50454,-0.747226,-0.231297,1.26668,0.155257,0.62384,0.500991,-0.553286,-0.832174,-0.258104,1.33948,0.164928,-0.78368,14.0747,-3.06726,4.48764,0.400408,0.799464,0.440561,-0.715669,0.374288,-0.590472,1.51816,0.600391,0.488528,0.255437
1849992,1,-1.54968,-0.507722,-0.0176024,-2.12227,-0.00904034,1.61483,0.790487,-1.54805,-0.505569,-0.0197351,-2.12425,-0.00978018,1.61895,0.791689,0.589137,0.448281,-0.510401,-0.760581,-0.235177,1.29253,0.163587,0.633121,0.508168,-0.562144,-0.844664,-0.261617,1.35947,0.167221,-0.882862,14.1263,-2.98791,4.41623,0.531328,0.554103,0.291331,-0.697846,0.406336,-0.559698,1.49086,0.589919,0.493474,0.263326
1849993,1,-1.54908,-0.507247,-0.0181516,-2.12308,-0.00928959,1.61614,0.790648,-1.54741,-0.505053,-0.0203061,-2.12511,-0.0100453,1.62033,0.791858,0.603055,0.462528,-0.526221,-0.776553,-0.238431,1.30676,0.165194,0.642401,0.515344,-0.571001,-0.857154,-0.26513,1.37946,0.169514,-0.732105,14.1263,-3.06726,4.44004,0.576189,0.708827,0.272104,-0.684062,0.452164,-0.535398,1.45707,0.579118,0.496239,0.270951
1849994,1,-1.54844,-0.50676,-0.0187035,-2.12387,-0.00954274,1.61748,0.790812,-1.54676,-0.504531,-0.020886,-2.12598,-0.010314,1.62173,0.79203,0.611111,0.474896,-0.528397,-0.785892,-0.24283,1.30864,0.164551,0.651681,0.522521,-0.579858,-0.869644,-0.268642,1.39945,0.171807,-0.807484,14.0231,-3.09106,4.24167,0.654924,0.927638,0.278513,-0.675862,0.493762,-0.518735,1.4262,0.568203,0.497561,0.278027
1849995,1,-1.54779,-0.506256,-0.0192634,-2.12469,-0.00980576,1.61886,0.790986,-1.5461,-0.504001,-0.0214747,-2.12686,-0.0105861,1.62315,0.792204,0.624744,0.482214,-0.53593,-0.795836,-0.251586,1.35693,0.166909,0.660962,0.529697,-0.588715,-0.882134,-0.272155,1.41944,0.1741,-0.958241,13.8247,-3.11487,4.21787,0.649431,0.895594,0.240061,-0.674986,0.52327,-0.512764,1.40026,0.557369,0.49763,0.28436
1849996,1,-1.54717,-0.505769,-0.0198232,-2.12553,-0.0100614,1.62027,0.791156,-1.54543,-0.503464,-0.0220723,-2.12776,-0.0108618,1.62459,0.792381,0.62128,0.484545,-0.551769,-0.815863,-0.249684,1.37078,0.166894,0.670242,0.536873,-0.597572,-0.894624,-0.275668,1.43943,0.176393,-0.882862,13.797,-3.26959,4.38846,0.519426,0.812281,0.252878,-0.677602,0.549245,-0.512951,1.37426,0.546968,0.496178,0.28981
1849997,1,-1.54651,-0.505265,-0.0204049,-2.12639,-0.0103115,1.62171,0.791335,-1.54475,-0.50292,-0.0226787,-2.12866,-0.011141,1.62605,0.792559,0.637837,0.489361,-0.550892,-0.82913,-0.24817,1.38283,0.170894,0.679523,0.54405,-0.606429,-0.907114,-0.279181,1.45942,0.178686,-0.882862,13.7732,-3.36877,4.53922,0.378435,0.657557,0.252878,-0.678163,0.580837,-0.512028,1.34693,0.537267,0.493731,0.294297
1849998,1,-1.54583,-0.504758,-0.0210118,-2.12727,-0.0105739,1.62313,0.791532,-1.54406,-0.502369,-0.023294,-2.12958,-0.0114237,1.62753,0.79274,0.652929,0.491417,-0.576916,-0.842846,-0.254895,1.39386,0.179662,0.688803,0.551226,-0.615287,-0.919604,-0.282693,1.47941,0.180979,-0.934437,13.8247,-3.19421,4.71378,0.332659,0.702418,0.135691,-0.678454,0.624653,-0.511683,1.31758,0.527934,0.490764,0.297861
1849999,1,-1.54518,-0.504245,-0.0215989,-2.12816,-0.0108365,1.62458,0.791715,-1.54336,-0.501811,-0.0239181,-2.13052,-0.0117099,1.62903,0.792924,0.654996,0.498279,-0.579128,-0.856965,-0.256752,1.41144,0.180247,0.698083,0.558403,-0.624144,-0.932094,-0.286206,1.4994,0.183272,-0.732105,13.7732,-3.26959,4.93595,0.310686,0.837916,0.16865,-0.676521,0.683763,-0.508024,1.28498,0.518688,0.487242,0.300526
1850000,1,-1.5445,-0.503707,-0.0222001,-2.12906,-0.0111253,1.62606,0.791901,-1.54266,-0.501246,-0.0245511,-2.13146,-0.0119995,1.63055,0.793109,0.667583,0.511382,-0.574812,-0.866494,-0.266558,1.43001,0.184479,0.707093,0.564844,-0.632947,-0.944158,-0.289591,1.51835,0.185521,-0.632923,13.5946,-3.34497,5.03513,0.389421,0.908412,0.233652,-0.675129,0.750548,-0.506302,1.2517,0.509235,0.483237,0.302323
1850001,1,-1.5438,-0.503165,-0.0228339,-2.12996,-0.0114103,1.62753,0.792077,-1.54194,-0.500674,-0.0251928,-2.13242,-0.0122924,1.63208,0.793297,0.671891,0.520386,-0.598642,-0.898757,-0.267851,1.44776,0.184949,0.716102,0.571285,-0.64175,-0.956222,-0.292977,1.53731,0.187769,-0.807484,13.3685,-3.11487,5.01133,0.446184,1.05032,0.375559,-0.678142,0.806201,-0.513161,1.22816,0.499538,0.479728,0.303374
1850002,1,-1.5431,-0.502607,-0.0234488,-2.1309,-0.0116733,1.62904,0.792241,-1.54121,-0.500097,-0.0258434,-2.13339,-0.0125888,1.63364,0.793487,0.68696,0.533884,-0.601789,-0.90516,-0.263789,1.46061,0.175796,0.725111,0.577726,-0.650553,-0.968286,-0.296362,1.55626,0.190017,-0.831288,13.1146,-3.11487,5.0867,0.366533,1.05673,0.653879,-0.680356,0.834096,-0.520337,1.22545,0.490039,0.478125,0.303887
1850003,1,-1.54238,-0.502043,-0.0240677,-2.13183,-0.0119468,1.63054,0.792422,-1.54048,-0.499513,-0.0265027,-2.13437,-0.0128885,1.63522,0.793679,0.699987,0.540854,-0.6011,-0.907789,-0.262354,1.45494,0.177339,0.73412,0.584168,-0.659356,-0.98035,-0.299748,1.57521,0.192265,-0.807484,12.8607,-3.16644,4.96372,0.34456,1.3085,0.706064,-0.686743,0.837803,-0.534029,1.2378,0.480401,0.478287,0.304314
1850004,1,-1.54167,-0.501474,-0.0246988,-2.13276,-0.0122274,1.63208,0.792609,-1.53974,-0.498922,-0.0271709,-2.13536,-0.0131917,1.63681,0.793874,0.699721,0.548242,-0.607895,-0.917423,-0.272243,1.47852,0.174503,0.74313,0.590609,-0.668159,-0.992414,-0.303133,1.59417,0.194513,-0.732105,12.5076,-3.14264,4.81296,0.34456,1.35336,0.757334,-0.70396,0.834807,-0.564326,1.25016,0.470035,0.479132,0.305249
1850005,1,-1.54095,-0.500906,-0.0253494,-2.13371,-0.0125153,1.63367,0.792809,-1.53898,-0.498325,-0.0278479,-2.13636,-0.0134982,1.63842,0.794071,0.711252,0.549634,-0.612395,-0.928341,-0.278797,1.50011,0.182211,0.752139,0.59705,-0.676962,-1.00448,-0.306519,1.61312,0.196761,-0.581349,12.2577,-3.11487,4.76139,0.310686,1.28836,0.660288,-0.72803,0.840549,-0.606744,1.25292,0.459023,0.479996,0.307111
1850006,1,-1.54023,-0.500342,-0.0260088,-2.13468,-0.0128062,1.63524,0.793009,-1.53822,-0.497721,-0.0285336,-2.13738,-0.0138081,1.64005,0.79427,0.712564,0.56913,-0.634488,-0.939721,-0.278251,1.52639,0.189254,0.761148,0.603492,-0.685766,-1.01654,-0.309904,1.63207,0.199009,-0.430592,12.0791,-3.11487,4.6622,0.270403,1.18582,0.518381,-0.750351,0.855093,-0.648884,1.24546,0.447771,0.48084,0.310039
1850007,1,-1.53948,-0.499758,-0.0266806,-2.13565,-0.0130889,1.63685,0.793189,-1.53745,-0.497111,-0.0292282,-2.13841,-0.0141214,1.64171,0.794471,0.721919,0.572096,-0.646733,-0.950051,-0.276199,1.54103,0.18293,0.770157,0.609933,-0.694569,-1.02861,-0.313289,1.65103,0.201257,-0.557545,11.853,-2.98791,4.6146,0.174272,1.21145,0.544016,-0.759563,0.8669,-0.673658,1.23264,0.436737,0.481998,0.313866
1850008,1,-1.53871,-0.499156,-0.0273634,-2.13664,-0.0133899,1.63846,0.79338,-1.53667,-0.496495,-0.0299316,-2.13945,-0.0144381,1.64338,0.794674,0.742841,0.577054,-0.654647,-0.957397,-0.287618,1.56853,0.185114,0.779167,0.616374,-0.703372,-1.04067,-0.316675,1.66998,0.203506,-0.708302,11.4959,-2.81335,4.6622,0.191667,1.18582,0.52479,-0.756276,0.880313,-0.680859,1.21218,0.425775,0.483124,0.318314
1850009,1,-1.53795,-0.498555,-0.0280312,-2.13763,-0.0136898,1.64011,0.793571,-1.53589,-0.495872,-0.0306437,-2.1405,-0.0147581,1.64506,0.79488,0.750486,0.589094,-0.661419,-0.974957,-0.293826,1.60032,0.186723,0.788176,0.622815,-0.712175,-1.05273,-0.32006,1.68893,0.205754,-0.807484,11.1944,-2.88873,4.83677,0.180681,1.14736,0.49824,-0.751706,0.900612,-0.685282,1.18238,0.414431,0.483767,0.323193
1850010,1,-1.53718,-0.497934,-0.0287163,-2.13866,-0.0140002,1.64179,0.793764,-1.53509,-0.495244,-0.0313646,-2.14156,-0.0150814,1.64677,0.795088,0.764653,0.597857,-0.658152,-0.991759,-0.298889,1.61807,0.186655,0.796829,0.628049,-0.720835,-1.06374,-0.323307,1.70548,0.207948,-0.755909,10.8651,-2.9403,5.0867,0.259416,1.19863,0.49824,-0.755269,0.91529,-0.700105,1.15252,0.402589,0.484515,0.328382
1850011,1,-1.5364,-0.497325,-0.029424,-2.13971,-0.0143154,1.64345,0.793964,-1.53428,-0.494611,-0.0320941,-2.14264,-0.015408,1.64849,0.795298,0.78151,0.600195,-0.677754,-1.01084,-0.302405,1.63344,0.189474,0.805482,0.633282,-0.729496,-1.07475,-0.326554,1.72203,0.210143,-0.807484,10.639,-2.83716,5.45963,0.350054,1.32772,0.434153,-0.771987,0.917738,-0.732045,1.13081,0.390275,0.486246,0.333753
1850012,1,-1.53562,-0.496696,-0.0301156,-2.14076,-0.0146204,1.64515,0.794163,-1.53347,-0.493972,-0.0328322,-2.14373,-0.0157378,1.65023,0.795511,0.772672,0.608526,-0.677881,-1.02718,-0.305139,1.64191,0.192802,0.814135,0.638515,-0.738157,-1.08575,-0.329801,1.73857,0.212337,-0.632923,10.5121,-2.98791,5.83255,0.310686,1.4559,0.459788,-0.795639,0.911395,-0.772503,1.1196,0.377873,0.489564,0.339119
1850013,1,-1.53481,-0.496062,-0.0308418,-2.14185,-0.0149358,1.64685,0.794361,-1.53265,-0.493329,-0.033579,-2.14482,-0.0160708,1.65199,0.795725,0.786495,0.607419,-0.691558,-1.04111,-0.306723,1.67009,0.189508,0.822788,0.643749,-0.746817,-1.09676,-0.333047,1.75512,0.214531,-0.732105,10.2581,-2.83716,6.18167,0.26491,1.39822,0.485422,-0.816607,0.903368,-0.809791,1.11662,0.365865,0.494544,0.344287
1850014,1,-1.53399,-0.495436,-0.0315893,-2.14294,-0.0152631,1.64859,0.794555,-1.53182,-0.49268,-0.0343345,-2.14593,-0.0164071,1.65376,0.795942,0.788133,0.615891,-0.719444,-1.0555,-0.311086,1.68259,0.191398,0.831441,0.648982,-0.755478,-1.10777,-0.336294,1.77167,0.216726,-0.958241,9.92886,-2.65863,6.5784,0.293291,1.26913,0.556833,-0.825185,0.902384,-0.830257,1.11657,0.354572,0.500737,0.349121
1850015,1,-1.53319,-0.494797,-0.0323121,-2.14404,-0.0155751,1.65037,0.794755,-1.53098,-0.492025,-0.0350987,-2.14705,-0.0167467,1.65555,0.796161,0.799127,0.617134,-0.718782,-1.06889,-0.311047,1.70214,0.18698,0.840093,0.654215,-0.764138,-1.11877,-0.339541,1.78821,0.21892,-0.807484,9.55197,-2.7102,6.92752,0.231035,1.14736,0.653879,-0.815045,0.911149,-0.823758,1.11708,0.344147,0.507782,0.353614
1850016,1,-1.53236,-0.494176,-0.0330609,-2.14516,-0.0159033,1.65212,0.794971,-1.53013,-0.491366,-0.0358715,-2.14818,-0.0170894,1.65735,0.796382,0.812223,0.616595,-0.733823,-1.07966,-0.317004,1.7169,0.196435,0.848746,0.659449,-0.772799,-1.12978,-0.342787,1.80476,0.221114,-0.708302,9.47659,-2.6864,7.1735,0.214556,1.09518,0.608103,-0.794203,0.93606,-0.801101,1.11437,0.334188,0.514959,0.357947
1850017,1,-1.53152,-0.493553,-0.0338105,-2.14626,-0.0162414,1.65395,0.795193,-1.52927,-0.490701,-0.0366529,-2.14932,-0.0174355,1.65917,0.796605,0.81388,0.617103,-0.732614,-1.08861,-0.320537,1.7551,0.202078,0.857399,0.664682,-0.781459,-1.14078,-0.346034,1.82131,0.223309,-0.831288,9.37344,-2.53564,7.32425,0.282305,0.689601,0.537607,-0.772059,0.989171,-0.77593,1.10076,0.324162,0.520891,0.362314
1850018,1,-1.53066,-0.492914,-0.0345746,-2.14739,-0.0165689,1.65577,0.795433,-1.5284,-0.490031,-0.037443,-2.15047,-0.0177848,1.66101,0.796831,0.837548,0.62107,-0.732768,-1.09335,-0.319269,1.76449,0.210854,0.866052,0.669915,-0.79012,-1.15179,-0.349281,1.83785,0.225503,-1.109,9.24649,-2.53564,7.44724,0.253923,0.734462,0.337107,-0.758636,1.07563,-0.763129,1.07048,0.313552,0.524167,0.366805
1850019,1,-1.5298,-0.492273,-0.0353277,-2.1485,-0.0168977,1.65757,0.795656,-1.52753,-0.489356,-0.0382418,-2.15163,-0.0181373,1.66286,0.797058,0.841789,0.629477,-0.739317,-1.12107,-0.318815,1.78616,0.213778,0.874705,0.675149,-0.798781,-1.1628,-0.352528,1.8544,0.227698,-1.26372,8.92117,-2.65863,7.32425,0.236528,0.780238,0.343516,-0.76464,1.18207,-0.777031,1.03091,0.302092,0.524861,0.371336
1850020,1,-1.52893,-0.491601,-0.0361121,-2.14964,-0.0172431,1.65942,0.795888,-1.52665,-0.488677,-0.039049,-2.15281,-0.0184929,1.66473,0.797288,0.845501,0.640525,-0.746419,-1.12452,-0.331394,1.80641,0.217408,0.88294,0.678799,-0.807223,-1.17224,-0.355631,1.86786,0.22983,-1.38671,8.51651,-2.65863,7.22507,0.310686,0.734462,0.297739,-0.78652,1.28281,-0.812022,0.997606,0.290262,0.524178,0.37564
1850021,1,-1.52805,-0.490922,-0.0368947,-2.15079,-0.0175874,1.66127,0.79613,-1.52575,-0.487995,-0.0398647,-2.15399,-0.0188517,1.66661,0.79752,0.869448,0.649718,-0.753865,-1.12581,-0.331692,1.79469,0.226004,0.891174,0.68245,-0.815666,-1.18169,-0.358735,1.88132,0.231963,-1.31133,8.06027,-2.61102,7.12589,0.298784,0.619105,0.24647,-0.818911,1.36593,-0.859816,0.972679,0.278314,0.522308,0.379481
1850022,1,-1.52718,-0.490244,-0.0376896,-2.15195,-0.0179139,1.66314,0.796365,-1.52485,-0.487309,-0.0406888,-2.15518,-0.0192135,1.66851,0.797754,0.86576,0.658524,-0.760591,-1.13578,-0.328155,1.81287,0.228369,0.899409,0.686101,-0.824109,-1.19114,-0.361838,1.89478,0.234096,-1.109,7.65561,-2.63482,7.1973,0.157793,0.734462,0.304148,-0.861109,1.43185,-0.918349,0.950716,0.266116,0.518994,0.3827
1850023,1,-1.52628,-0.489556,-0.038523,-2.15313,-0.018265,1.66503,0.796624,-1.52395,-0.486619,-0.0415214,-2.15638,-0.0195784,1.67042,0.79799,0.882672,0.664115,-0.771368,-1.13948,-0.336592,1.82777,0.236325,0.907644,0.689752,-0.832552,-1.20059,-0.364942,1.90823,0.236229,-1.13677,7.22714,-2.25396,7.44724,0.163286,0.94778,0.194285,-0.907557,1.48347,-0.980317,0.928553,0.253778,0.514078,0.385171
1850024,1,-1.5254,-0.488869,-0.0393721,-2.15434,-0.0186228,1.6669,0.796873,-1.52303,-0.485926,-0.0423624,-2.15759,-0.0199465,1.67234,0.798229,0.878148,0.683649,-0.798294,-1.15842,-0.337814,1.8456,0.239365,0.915879,0.693403,-0.840995,-1.21004,-0.368045,1.92169,0.238361,-0.986012,6.54477,-1.8493,7.91935,0.174272,1.173,0.162241,-0.9459,1.51457,-1.02857,0.909616,0.241738,0.508074,0.386813
1850025,1,-1.52453,-0.488165,-0.0401991,-2.15554,-0.018973,1.66882,0.797119,-1.52211,-0.485229,-0.0432118,-2.15881,-0.0203176,1.67427,0.798469,0.865674,0.689698,-0.808661,-1.17398,-0.339087,1.85777,0.240156,0.924113,0.697054,-0.849438,-1.21948,-0.371149,1.93515,0.240494,-0.355213,5.83463,-1.67474,8.49063,0.186174,1.18582,0.291331,-0.956737,1.508,-1.03673,0.906303,0.230842,0.502805,0.387504
1850026,1,-1.52365,-0.487452,-0.0410563,-2.15677,-0.019329,1.67073,0.797362,-1.52117,-0.484528,-0.0440697,-2.16004,-0.0206919,1.67622,0.798712,0.87259,0.692855,-0.817502,-1.18998,-0.343909,1.91424,0.240026,0.932348,0.700704,-0.85788,-1.22893,-0.374252,1.94861,0.242627,0.176403,5.0253,-1.34546,8.99051,0.214556,1.27554,0.466196,-0.931939,1.46601,-0.995758,0.921693,0.221507,0.499084,0.38721
1850027,1,-1.52274,-0.486739,-0.0419096,-2.15798,-0.0196887,1.67268,0.7976,-1.52023,-0.483824,-0.044936,-2.16128,-0.0210692,1.67818,0.798957,0.872828,0.698571,-0.829158,-1.20197,-0.355373,1.92973,0.239211,0.940583,0.704355,-0.866323,-1.23838,-0.377356,1.96207,0.244759,0.251781,4.21597,-1.03998,9.38724,0.236528,1.32131,0.666697,-0.879495,1.40624,-0.918345,0.948422,0.213474,0.496272,0.386199
1850028,1,-1.52181,-0.486019,-0.0427845,-2.1592,-0.0200609,1.67461,0.797858,-1.51929,-0.483116,-0.0458108,-2.16252,-0.0214497,1.68016,0.799204,0.896513,0.706717,-0.83345,-1.20582,-0.361672,1.92801,0.239641,0.948817,0.708006,-0.874766,-1.24783,-0.380459,1.97553,0.246892,0.251781,3.56137,-0.81384,9.53403,0.270403,1.56576,0.712473,-0.813291,1.33839,-0.823622,0.981015,0.206186,0.494171,0.38503
1850029,1,-1.5209,-0.485313,-0.0436646,-2.16042,-0.0204329,1.67652,0.798112,-1.51833,-0.482404,-0.046694,-2.16378,-0.0218333,1.68215,0.799453,0.916477,0.706966,-0.850182,-1.20663,-0.364963,1.93213,0.243022,0.957052,0.711657,-0.883209,-1.25727,-0.383563,1.98898,0.249025,0.350963,3.20828,-0.762265,9.33567,0.270403,1.86148,0.679514,-0.750628,1.27286,-0.733448,1.0115,0.198776,0.492676,0.384346
1850030,1,-1.51996,-0.484608,-0.0445553,-2.16164,-0.0208107,1.67849,0.798369,-1.51736,-0.48169,-0.0475853,-2.16505,-0.0222198,1.68415,0.799704,0.921403,0.708718,-0.861371,-1.21285,-0.373049,1.93761,0.249037,0.964826,0.713606,-0.891374,-1.26494,-0.386519,1.99901,0.251088,0.303356,2.95438,-0.611508,9.18888,0.282305,1.90725,0.641062,-0.697391,1.22554,-0.654427,1.02924,0.190761,0.491489,0.384528
1850031,1,-1.51901,-0.483899,-0.0454415,-2.1629,-0.0211963,1.68051,0.798636,-1.51639,-0.480975,-0.0484849,-2.16632,-0.0226093,1.68616,0.799957,0.935134,0.705921,-0.861503,-1.22102,-0.377299,1.9512,0.258627,0.9726,0.715555,-0.899538,-1.27261,-0.389476,2.00904,0.25315,0.303356,2.85123,-0.786069,9.28806,0.26491,1.72048,0.491831,-0.652738,1.2078,-0.586366,1.02871,0.18213,0.490762,0.385666
1850032,1,-1.51805,-0.483186,-0.0463346,-2.16415,-0.0215737,1.68252,0.798895,-1.51541,-0.480257,-0.0493926,-2.1676,-0.0230017,1.68818,0.800212,0.935373,0.707786,-0.876079,-1.2571,-0.37451,1.97664,0.257182,0.980374,0.717504,-0.907703,-1.28028,-0.392432,2.01907,0.255213,0.148632,2.67667,-0.889218,9.41105,0.197161,1.35977,0.434153,-0.617218,1.21498,-0.531396,1.01843,0.173173,0.491655,0.387635
1850033,1,-1.51706,-0.482459,-0.0472451,-2.16544,-0.021945,1.68455,0.799165,-1.51442,-0.479538,-0.0503085,-2.16889,-0.0233971,1.6902,0.800469,0.959166,0.707528,-0.882438,-1.26374,-0.3721,1.98288,0.256543,0.988148,0.719453,-0.915868,-1.28795,-0.395389,2.0291,0.257276,-0.252064,2.29581,-0.964597,9.95853,0.112016,1.23068,0.316965,-0.589631,1.23213,-0.48774,1.01362,0.164277,0.495427,0.390132
1850034,1,-1.51607,-0.481716,-0.0481549,-2.16675,-0.0223315,1.68653,0.799435,-1.51343,-0.478816,-0.0512325,-2.17018,-0.0237954,1.69224,0.800729,0.974809,0.717474,-0.893014,-1.27773,-0.370865,1.98056,0.267341,0.995922,0.721402,-0.924032,-1.29562,-0.398345,2.03913,0.259339,-0.478199,1.61343,-1.06378,10.506,0.0616625,1.37258,0.149424,-0.57488,1.24859,-0.460396,1.01947,0.155195,0.501855,0.392826
1850035,1,-1.51512,-0.480981,-0.0490684,-2.16803,-0.0227311,1.68857,0.799707,-1.51242,-0.478093,-0.0521647,-2.17149,-0.0241967,1.69429,0.80099,0.967206,0.723784,-0.898431,-1.28182,-0.377189,1.99878,0.268405,1.0037,0.723351,-0.932197,-1.30329,-0.401302,2.04916,0.261401,-0.252064,0.831879,-1.26611,10.9265,0.180681,1.32772,0.071604,-0.572576,1.25473,-0.448414,1.03557,0.145678,0.509984,0.395316
1850036,1,-1.51414,-0.480251,-0.050005,-2.16936,-0.0231397,1.69063,0.799976,-1.51141,-0.477368,-0.053105,-2.1728,-0.024601,1.69635,0.801254,0.982239,0.720628,-0.907706,-1.29304,-0.385687,2.01454,0.26992,1.01147,0.7253,-0.940362,-1.31096,-0.404258,2.05918,0.263464,-0.101307,0.149506,-1.19073,11.5494,0.282305,1.28195,0.103647,-0.574254,1.25235,-0.441876,1.05675,0.135875,0.518518,0.397127
1850037,1,-1.51316,-0.479541,-0.0509358,-2.17068,-0.0235531,1.69273,0.800248,-1.51039,-0.476641,-0.0540536,-2.17412,-0.0250082,1.69842,0.801519,0.974471,0.732564,-0.917364,-1.30038,-0.390782,2.04854,0.276361,1.01924,0.727249,-0.948526,-1.31863,-0.407215,2.06921,0.265527,0.0256461,-0.203583,-1.06378,12.0215,0.366533,0.715236,0.175059,-0.57365,1.24799,-0.433677,1.07726,0.126079,0.526175,0.397904
1850038,1,-1.51216,-0.478833,-0.0518954,-2.172,-0.0239411,1.69481,0.800523,-1.50937,-0.475911,-0.0550103,-2.17544,-0.0254184,1.7005,0.801787,0.973459,0.723101,-0.919684,-1.30986,-0.388626,2.05315,0.274909,1.02702,0.729199,-0.956691,-1.3263,-0.410172,2.07924,0.26759,0.0256461,-0.358307,-0.786069,12.3191,0.287798,0.625514,0.240061,-0.56402,1.2448,-0.416558,1.09473,0.116716,0.532001,0.397518
1850039,1,-1.51115,-0.478124,-0.0528447,-2.17333,-0.0243374,1.69684,0.800807,-1.50833,-0.47518,-0.0559751,-2.17678,-0.0258315,1.70259,0.802056,0.997467,0.716065,-0.932511,-1.31162,-0.388739,2.02202,0.273046,1.03479,0.731148,-0.964856,-1.33396,-0.413128,2.08927,0.269653,0.0732535,-0.382111,-0.710691,12.2953,0.276811,0.986232,0.226328,-0.547004,1.2623,-0.393338,1.10162,0.107664,0.535015,0.396108
1850040,1,-1.51015,-0.477415,-0.0538096,-2.17463,-0.0247496,1.69892,0.801095,-1.50729,-0.474449,-0.0569478,-2.17812,-0.0262474,1.70469,0.802328,0.998573,0.709056,-0.946,-1.30929,-0.393047,2.02954,0.278669,1.04208,0.731437,-0.972692,-1.33982,-0.415935,2.09587,0.271635,0.251781,-0.532867,-0.583737,12.1207,0.350054,1.13455,0.143015,-0.52792,1.32473,-0.369361,1.08669,0.0984152,0.53435,0.393922
1850041,1,-1.50914,-0.476684,-0.0547787,-2.17595,-0.0251705,1.70105,0.801392,-1.50624,-0.473717,-0.0579283,-2.17946,-0.0266662,1.70679,0.802602,1.00691,0.718794,-0.943402,-1.30971,-0.401696,2.05907,0.286719,1.04937,0.731726,-0.980528,-1.34567,-0.418742,2.10247,0.273617,0.581066,-0.838348,-0.635312,11.9223,0.451677,0.902003,0.0651953,-0.507609,1.43373,-0.345191,1.04443,0.0888429,0.529365,0.391122
1850042,1,-1.50813,-0.47595,-0.0557531,-2.17729,-0.0255813,1.70315,0.801678,-1.50518,-0.472985,-0.0589167,-2.18081,-0.0270877,1.7089,0.802877,0.999121,0.729948,-0.954939,-1.31867,-0.40269,2.07023,0.289707,1.05666,0.732016,-0.988364,-1.35152,-0.421549,2.10907,0.275599,0.60487,-1.24301,-0.508359,11.8232,0.417803,0.844325,0.0844213,-0.485844,1.56023,-0.32155,0.985045,0.0793614,0.520699,0.387751
1850043,1,-1.50707,-0.475196,-0.0567369,-2.17863,-0.025988,1.70525,0.801969,-1.50412,-0.472253,-0.0599129,-2.18217,-0.0275121,1.71101,0.803155,1.0101,0.736825,-0.958021,-1.32272,-0.403381,2.06949,0.286521,1.06394,0.732305,-0.9962,-1.35738,-0.424356,2.11567,0.277581,0.275585,-1.89761,-0.456784,11.9461,0.36104,1.06314,0.110056,-0.460066,1.67032,-0.295511,0.925771,0.0705299,0.510078,0.383803
1850044,1,-1.506,-0.474423,-0.0577177,-2.17999,-0.0263962,1.70734,0.80228,-1.50305,-0.47152,-0.0609169,-2.18353,-0.0279392,1.71313,0.803434,1.03323,0.740527,-0.965983,-1.32815,-0.402926,2.10943,0.294112,1.07123,0.732595,-1.00404,-1.36323,-0.427163,2.12227,0.279564,-0.00212494,-2.83389,-0.456784,12.2199,0.293291,1.22427,0.00660151,-0.437098,1.75258,-0.274789,0.873247,0.0622967,0.498331,0.379344
1850045,1,-1.50496,-0.473665,-0.0587075,-2.18135,-0.0268064,1.70945,0.802587,-1.50197,-0.470787,-0.0619288,-2.1849,-0.0283692,1.71526,0.803716,1.03472,0.749523,-0.976282,-1.34251,-0.411872,2.11578,0.297868,1.07852,0.732884,-1.01187,-1.36908,-0.42997,2.12887,0.281546,-0.0497324,-3.86935,-0.635312,12.8904,0.26491,1.43667,-0.0510767,-0.425271,1.80387,-0.268047,0.830419,0.0544372,0.485977,0.374447
1850046,1,-1.5039,-0.472902,-0.0596954,-2.18273,-0.0272254,1.71159,0.80289,-1.50088,-0.470054,-0.0629485,-2.18628,-0.028802,1.7174,0.803999,1.0473,0.75231,-0.966824,-1.35437,-0.413915,2.11778,0.292554,1.08581,0.733173,-1.01971,-1.37494,-0.432777,2.13547,0.283528,0.0256461,-4.80563,-1.06378,13.5132,0.293291,1.48794,-0.0318506,-0.426853,1.8167,-0.277626,0.806011,0.0469647,0.4747,0.369115
1850047,1,-1.50285,-0.472156,-0.0606922,-2.18414,-0.027644,1.7137,0.803187,-1.49979,-0.469321,-0.0639761,-2.18766,-0.0292376,1.71954,0.804285,1.06477,0.746714,-0.977471,-1.36789,-0.413132,2.12603,0.291582,1.0931,0.733463,-1.02754,-1.38079,-0.435584,2.14208,0.28551,0.0732535,-5.38882,-1.16693,14.2075,0.282305,1.53372,0.0523779,-0.448667,1.79656,-0.313145,0.803131,0.0396084,0.465867,0.363344
1850048,1,-1.50175,-0.471427,-0.0617197,-2.1855,-0.0280481,1.71581,0.803474,-1.49869,-0.468587,-0.0650114,-2.18904,-0.029676,1.72169,0.804572,1.06812,0.745359,-0.98981,-1.36557,-0.414761,2.11328,0.286789,1.10038,0.733752,-1.03538,-1.38664,-0.438391,2.14868,0.287492,-0.22826,-5.71414,-1.03998,14.5804,0.186174,1.87521,0.252878,-0.487681,1.76508,-0.370837,0.812653,0.0320983,0.45936,0.357144
1850049,1,-1.50065,-0.470683,-0.0627697,-2.18688,-0.0284544,1.71793,0.803759,-1.49758,-0.467853,-0.0660547,-2.19044,-0.0301172,1.72385,0.804862,1.06546,0.744261,-1.00958,-1.36573,-0.409033,2.11066,0.286873,1.10767,0.734042,-1.04322,-1.39249,-0.441198,2.15528,0.289475,-0.379017,-6.04343,-0.81384,14.5804,0.0387743,2.21578,0.485422,-0.523979,1.74208,-0.424866,0.820976,0.0244629,0.454452,0.350623
1850050,1,-1.49957,-0.469951,-0.0638122,-2.18824,-0.0288721,1.72004,0.804048,-1.49647,-0.46712,-0.0671053,-2.19183,-0.030561,1.726,0.805153,1.0677,0.742041,-1.02173,-1.39413,-0.405985,2.119,0.282868,1.11446,0.732909,-1.05068,-1.39671,-0.443852,2.15876,0.291366,-0.22826,-6.34891,-0.432981,14.4336,0.027788,2.34487,0.601694,-0.539253,1.73002,-0.451076,0.827557,0.0169294,0.451765,0.344132
1850051,1,-1.49851,-0.469197,-0.0648585,-2.18963,-0.0292841,1.72221,0.804333,-1.49535,-0.466388,-0.0681635,-2.19323,-0.0310075,1.72817,0.805446,1.05145,0.742299,-1.0221,-1.39238,-0.407814,2.12554,0.283337,1.12125,0.731776,-1.05815,-1.40092,-0.446506,2.16225,0.293257,0.378734,-6.7258,-0.155271,14.3344,0.00489977,2.1517,0.731699,-0.527493,1.7209,-0.442073,0.840976,0.00967771,0.452747,0.338225
1850052,1,-1.49744,-0.468438,-0.0659009,-2.19106,-0.0297049,1.72436,0.804625,-1.49422,-0.465657,-0.0692291,-2.19464,-0.0314567,1.73033,0.805742,1.05706,0.74536,-1.03571,-1.39417,-0.407228,2.13276,0.285429,1.12803,0.730643,-1.06562,-1.40513,-0.44916,2.16574,0.295148,0.957958,-7.10666,0.0470608,14.8066,-0.0399611,1.9393,0.77656,-0.4895,1.71394,-0.400414,0.857355,0.00250473,0.457036,0.333442
