shamilmamedov/beam_handling/log/param_estimation_ICRA/ocp_Xup_35cm_0.57s_4.csv
duration, success rate, q[0], q[1], q[2], q[3], q[4], q[5], q[6],q_d[0], q_d[1], q_d[2], q_d[3], q_d[4], q_d[5], q_d[6],dq[0], dq[1], dq[2], dq[3], dq[4], dq[5], dq[6],dq_d[0], dq_d[1], dq_d[2], dq_d[3], dq_d[4], dq_d[5], dq_d[6],tau_J[0], tau_J[1], tau_J[2], tau_J[3], tau_J[4], tau_J[5], tau_J[6],tau_ext_hat_filtered[0], tau_ext_hat_filtered[1], tau_ext_hat_filtered[2], tau_ext_hat_filtered[3], tau_ext_hat_filtered[4], tau_ext_hat_filtered[5], tau_ext_hat_filtered[6]
5287532,0,-1.57047,-0.522838,0.00015974,-2.09583,1.5706,1.57159,0.785397,-1.5708,-0.523599,2.05932e-07,-2.09439,1.5708,1.5708,0.785399,0.000585421,-0.000239671,0.00044176,-0.000462638,0.000312963,3.28276e-05,-0.00126918,0,0,0,0,0,0,0,-0.402821,-10.1654,-0.329831,20.8963,0.86458,-0.598546,0.0130102,-0.379675,-1.05841,0.0791993,2.35164,0.306901,-0.594181,0.0321857
5287533,1,-1.57047,-0.522839,0.00015862,-2.09583,1.5706,1.57159,0.785398,-1.5708,-0.523599,2.05932e-07,-2.09439,1.5708,1.5708,0.785399,-0.000166531,-0.000809395,-0.000262306,-0.000863009,5.19148e-06,0.000259244,-0.000371405,0,0,0,0,0,0,0,-0.379017,-10.1377,-0.306028,20.9201,0.870073,-0.604955,0.000192821,-0.380733,-1.06065,0.0777792,2.35359,0.306988,-0.594061,0.0322261
5287534,1,-1.57047,-0.522838,0.000158803,-2.09583,1.5706,1.57159,0.785398,-1.5708,-0.523599,2.05932e-07,-2.09439,1.5708,1.5708,0.785399,-0.000111021,0.000110017,-0.00017487,-1.68566e-05,3.46099e-06,-6.45296e-05,-0.000247604,0,0,0,0,0,0,0,-0.379017,-10.1654,-0.306028,20.8963,0.870073,-0.598546,0.000192821,-0.381326,-1.06159,0.077095,2.35521,0.307051,-0.594006,0.0322689
5287535,1,-1.57047,-0.522838,0.000156734,-2.09583,1.5706,1.57159,0.7854,-1.5708,-0.523599,2.05932e-07,-2.09439,1.5708,1.5708,0.785399,0.000482798,7.33449e-05,-0.00011658,0.000546827,2.30733e-06,-4.30197e-05,0.000547008,0,0,0,0,0,0,0,-0.402821,-10.1654,-0.306028,20.8725,0.870073,-0.598546,-0.0190333,-0.381493,-1.062,0.0771187,2.35634,0.307073,-0.59403,0.0323407
5287536,1,-1.57047,-0.522839,0.000154373,-2.09583,1.5706,1.57159,0.785402,-1.5708,-0.523599,2.05932e-07,-2.09439,1.5708,1.5708,0.785399,0.000321865,-0.000600717,-0.000634532,0.000365492,0.000204989,-0.000266039,0.00083939,0,0,0,0,0,0,0,-0.402821,-10.1377,-0.282224,20.8725,0.86458,-0.592137,-0.0318506,-0.381593,-1.06153,0.0773926,2.35658,0.307046,-0.594076,0.0324408
5287537,1,-1.57047,-0.522839,0.000159615,-2.09583,1.5706,1.57159,0.785397,-1.5708,-0.523599,2.05932e-07,-2.09439,1.5708,1.5708,0.785399,-0.000342235,-0.000400478,0.000690602,0.00089398,0.000136659,-0.000177359,-0.00110192,0,0,0,0,0,0,0,-0.379017,-10.1377,-0.329831,20.8448,0.86458,-0.592137,0.0130102,-0.381703,-1.05934,0.077753,2.35561,0.306965,-0.594111,0.0325455
5287538,1,-1.57047,-0.522836,0.000158118,-2.09583,1.5706,1.57159,0.785403,-1.5708,-0.523599,2.05932e-07,-2.09439,1.5708,1.5708,0.785399,-0.000228157,0.00093944,0.000460402,-5.30986e-05,9.11061e-05,-0.000118239,0.00140162,0,0,0,0,0,0,0,-0.379017,-10.1892,-0.329831,20.8725,0.86458,-0.592137,-0.044668,-0.382056,-1.05715,0.0776707,2.35441,0.306883,-0.594113,0.0326397
5287539,1,-1.57047,-0.522836,0.000157619,-2.09583,1.5706,1.57159,0.785395,-1.5708,-0.523599,2.05932e-07,-2.09439,1.5708,1.5708,0.785399,-0.000708916,0.000626294,0.000306934,-0.00114863,-0.000142713,-0.000316185,-0.0019139,0,0,0,0,0,0,0,-0.355213,-10.1892,-0.329831,20.9201,0.870073,-0.585729,0.0322363,-0.382495,-1.05797,0.0772865,2.35489,0.306863,-0.594126,0.032719
5287540,1,-1.57047,-0.522838,0.000155782,-2.09583,1.5706,1.57159,0.785402,-1.5708,-0.523599,2.05932e-07,-2.09439,1.5708,1.5708,0.785399,-0.000472611,-0.000139283,-0.000352189,-0.000208642,-9.51421e-05,2.65688e-05,0.00133502,0,0,0,0,0,0,0,-0.355213,-10.1654,-0.306028,20.8963,0.870073,-0.592137,-0.0382593,-0.382454,-1.06112,0.0774754,2.35697,0.306882,-0.594212,0.032786
5287541,1,-1.57047,-0.522836,0.000157397,-2.09583,1.5706,1.57159,0.7854,-1.5708,-0.523599,2.05932e-07,-2.09439,1.5708,1.5708,0.785399,0.000241738,0.000463957,0.000322019,0.000417941,-6.34281e-05,1.77125e-05,0.000177935,0,0,0,0,0,0,0,-0.379017,-10.1892,-0.329831,20.8725,0.870073,-0.592137,-0.0190333,-0.382047,-1.06381,0.0781577,2.35888,0.306875,-0.59432,0.032858
5287542,1,-1.57047,-0.522834,0.000163128,-2.09583,1.5706,1.57159,0.7854,-1.5708,-0.523599,2.05932e-07,-2.09439,1.5708,1.5708,0.785399,0.000717971,0.000866116,0.00142111,-0.000278018,-4.22854e-05,0.000486526,-0.000118736,0,0,0,0,0,0,0,-0.402821,-10.213,-0.381406,20.8963,0.870073,-0.604955,-0.0126246,-0.382397,-1.06616,0.077664,2.36034,0.306875,-0.594294,0.0329265
5287543,1,-1.57047,-0.522836,0.000158083,-2.09584,1.5706,1.57159,0.785402,-1.5708,-0.523599,2.05932e-07,-2.09439,1.5708,1.5708,0.785399,-0.000634977,2.0599e-05,-0.000259022,-0.00129884,-0.000231641,-0.000150367,0.000870279,0,0,0,0,0,0,0,-0.355213,-10.1892,-0.329831,20.9439,0.875566,-0.592137,-0.0382593,-0.383526,-1.0692,0.0758889,2.36225,0.306927,-0.594149,0.0329719
5287544,1,-1.57047,-0.522839,0.000154266,-2.09583,1.5706,1.57159,0.785397,-1.5708,-0.523599,2.05932e-07,-2.09439,1.5708,1.5708,0.785399,-0.00162974,-0.00119269,-0.00128631,-0.00030899,4.90233e-05,-0.000100245,-0.00131869,0,0,0,0,0,0,0,-0.303639,-10.1377,-0.282224,20.9201,0.870073,-0.592137,0.0130102,-0.383376,-1.07105,0.0758958,2.36399,0.306937,-0.594167,0.0329857
5287545,1,-1.57047,-0.522836,0.000157449,-2.09583,1.5706,1.57159,0.785403,-1.5708,-0.523599,2.05932e-07,-2.09439,1.5708,1.5708,0.785399,0.000676742,0.000411297,0.000256087,0.000350889,-0.000170768,-6.68298e-05,7.0312e-05,0,0,0,0,0,0,0,-0.379017,-10.1892,-0.329831,20.8963,0.875566,-0.592137,-0.0126246,-0.381656,-1.07019,0.078175,2.3644,0.306852,-0.594371,0.0329742
5287546,1,-1.57047,-0.522838,0.000155725,-2.09583,1.5706,1.57159,0.785399,-1.5708,-0.523599,2.05932e-07,-2.09439,1.5708,1.5708,0.785399,0.000451161,-0.000282614,-0.000386087,0.000233979,-0.000113846,0.000192806,-0.000427843,0,0,0,0,0,0,0,-0.379017,-10.1654,-0.306028,20.8963,0.875566,-0.598546,0.000192821,-0.380278,-1.06808,0.0799672,2.36379,0.306746,-0.594499,0.0329663
5287547,1,-1.57047,-0.522838,0.000155708,-2.09583,1.5706,1.57159,0.785403,-1.5708,-0.523599,2.05932e-07,-2.09439,1.5708,1.5708,0.785399,0.000857586,-0.000188409,-0.000257392,0.000712838,-0.000279348,-0.000108822,0.00113892,0,0,0,0,0,0,0,-0.402821,-10.1654,-0.306028,20.8725,0.881059,-0.592137,-0.0382593,-0.37977,-1.0653,0.0805677,2.36246,0.306648,-0.594489,0.0329799
5287548,1,-1.57046,-0.522836,0.000157832,-2.09583,1.5706,1.57159,0.785403,-1.5708,-0.523599,2.05932e-07,-2.09439,1.5708,1.5708,0.785399,0.00177815,0.000431206,-0.000171594,0.00112487,0.000220669,-7.25479e-05,0.000996642,0,0,0,0,0,0,0,-0.454395,-10.1892,-0.306028,20.8448,0.870073,-0.592137,-0.044668,-0.380053,-1.06195,0.0801965,2.36042,0.306557,-0.594362,0.0330062
5287549,1,-1.57047,-0.522838,0.00015641,-2.09583,1.5706,1.57159,0.785397,-1.5708,-0.523599,2.05932e-07,-2.09439,1.5708,1.5708,0.785399,-0.00113462,-0.000269341,-0.000114396,0.000100321,0.000350563,0.000188994,-0.0014718,0,0,0,0,0,0,0,-0.355213,-10.1654,-0.306028,20.8725,0.86458,-0.598546,0.0130102,-0.38074,-1.05889,0.0793817,2.35822,0.306488,-0.59419,0.0330091
5287550,1,-1.57047,-0.522838,0.000158067,-2.09583,1.5706,1.57159,0.785404,-1.5708,-0.523599,2.05932e-07,-2.09439,1.5708,1.5708,0.785399,0.000357213,-0.000179561,-7.62642e-05,-0.000489915,-0.000376643,-0.000111363,0.00139239,0,0,0,0,0,0,0,-0.402821,-10.1654,-0.306028,20.8963,0.881059,-0.592137,-0.0510767,-0.380943,-1.05642,0.0792562,2.35656,0.306445,-0.594105,0.0329705
5287551,1,-1.57047,-0.522836,0.000158159,-2.09583,1.5706,1.57159,0.785395,-1.5708,-0.523599,2.05932e-07,-2.09439,1.5708,1.5708,0.785399,-0.000875482,0.000437105,0.000505969,0.000879829,-4.76446e-05,-7.42421e-05,-0.00215741,0,0,0,0,0,0,0,-0.355213,-10.1892,-0.329831,20.8448,0.875566,-0.592137,0.0322363,-0.380837,-1.05482,0.0795052,2.35561,0.306437,-0.594081,0.032905
5287552,1,-1.57047,-0.522838,0.000157632,-2.09583,1.5706,1.57159,0.785399,-1.5708,-0.523599,2.05932e-07,-2.09439,1.5708,1.5708,0.785399,0.000529969,-0.000265409,0.000337313,-0.000619864,0.000171687,-0.000286854,-1.41181e-05,0,0,0,0,0,0,0,-0.402821,-10.1654,-0.329831,20.8963,0.870073,-0.585729,-0.00621587,-0.380968,-1.05402,0.0793343,2.3551,0.306471,-0.594032,0.0328309
5287553,1,-1.57047,-0.522836,0.000157457,-2.09583,1.5706,1.57159,0.785404,-1.5708,-0.523599,2.05932e-07,-2.09439,1.5708,1.5708,0.785399,-0.000203499,0.000379873,0.000224875,-0.000413236,-8.89922e-05,0.000283482,0.0016521,0,0,0,0,0,0,0,-0.379017,-10.1892,-0.329831,20.8963,0.875566,-0.598546,-0.0510767,-0.381436,-1.05409,0.0786458,2.35527,0.306553,-0.593936,0.0327805
5287554,1,-1.57047,-0.522836,0.000155728,-2.09583,1.5706,1.57159,0.7854,-1.5708,-0.523599,2.05932e-07,-2.09439,1.5708,1.5708,0.785399,0.000421146,0.000253248,-0.000406895,-0.000832297,-5.93281e-05,0.000188988,-0.000322753,0,0,0,0,0,0,0,-0.402821,-10.1892,-0.306028,20.9201,0.875566,-0.598546,-0.0126246,-0.381866,-1.05552,0.0780654,2.35648,0.306673,-0.593859,0.0327519
5287555,1,-1.57047,-0.522838,0.000155709,-2.09583,1.5706,1.57159,0.785403,-1.5708,-0.523599,2.05932e-07,-2.09439,1.5708,1.5708,0.785399,-0.000276048,-0.00038798,-0.000271263,0.00120838,0.000163898,0.000125992,0.000971626,0,0,0,0,0,0,0,-0.379017,-10.1654,-0.306028,20.8448,0.870073,-0.598546,-0.044668,-0.381861,-1.05691,0.0782401,2.3576,0.306773,-0.593854,0.0327108
5287556,1,-1.57047,-0.522832,0.000159503,-2.09583,1.5706,1.57159,0.785396,-1.5708,-0.523599,2.05932e-07,-2.09439,1.5708,1.5708,0.785399,-0.000740844,0.00150458,0.00037597,-0.000400838,-9.41849e-05,0.000321354,-0.00172584,0,0,0,0,0,0,0,-0.355213,-10.2408,-0.329831,20.8963,0.875566,-0.604955,0.0194189,-0.381432,-1.05784,0.0790624,2.35805,0.306833,-0.593923,0.0326409
5287557,1,-1.57047,-0.522836,0.000158081,-2.09583,1.5706,1.57159,0.7854,-1.5708,-0.523599,2.05932e-07,-2.09439,1.5708,1.5708,0.785399,-0.000493896,-0.000203369,0.000250646,0.000289589,-0.00026624,-0.000497841,3.62355e-05,0,0,0,0,0,0,0,-0.355213,-10.1892,-0.329831,20.8725,0.881059,-0.585729,-0.0126246,-0.380863,-1.05976,0.0799509,2.35876,0.306906,-0.594037,0.0325492
5287558,0.99,-1.57047,-0.522838,0.000157606,-2.09583,1.5706,1.57159,0.785403,-1.5708,-0.523599,2.05932e-07,-2.09439,1.5708,1.5708,0.785399,0.000227548,-0.000692392,0.000167098,0.000842675,0.000432858,0.000142824,0.00121095,0,0,0,0,0,0,0,-0.379017,-10.1654,-0.329831,20.8448,0.86458,-0.598546,-0.044668,-0.380523,-1.06037,0.0803981,2.35872,0.306965,-0.594105,0.0324694
5287559,0.99,-1.57047,-0.522836,0.000155778,-2.09583,1.5706,1.57159,0.7854,-1.5708,-0.523599,2.05932e-07,-2.09439,1.5708,1.5708,0.785399,0.000151699,9.52176e-05,-0.000445414,-8.78295e-05,0.000288572,9.52159e-05,-0.000142135,0,0,0,0,0,0,0,-0.379017,-10.1892,-0.306028,20.8725,0.86458,-0.598546,-0.0190333,-0.380405,-1.05839,0.0805469,2.35723,0.306977,-0.594106,0.032404
5287560,0.99,-1.57047,-0.522834,0.000161475,-2.09583,1.5706,1.57159,0.785404,-1.5708,-0.523599,2.05932e-07,-2.09439,1.5708,1.5708,0.785399,-0.00045568,0.00062029,0.000909484,-0.00117218,-0.00021452,-0.000411241,0.00109204,0,0,0,0,0,0,0,-0.355213,-10.213,-0.357602,20.9201,0.875566,-0.585729,-0.0510767,-0.380394,-1.05724,0.0805045,2.35641,0.307009,-0.594095,0.0323197
5287561,0.99,-1.57047,-0.522838,0.000158088,-2.09583,1.5706,1.57159,0.785397,-1.5708,-0.523599,2.05932e-07,-2.09439,1.5708,1.5708,0.785399,0.000253026,-0.000700097,-4.32916e-05,0.000981788,6.04374e-05,-3.68015e-05,-0.0014082,0,0,0,0,0,0,0,-0.379017,-10.1654,-0.329831,20.8448,0.870073,-0.592137,0.00660151,-0.380645,-1.05737,0.079933,2.3565,0.307077,-0.59405,0.0321988
5287562,0.99,-1.57047,-0.522839,0.000159558,-2.09583,1.5706,1.57159,0.785398,-1.5708,-0.523599,2.05932e-07,-2.09439,1.5708,1.5708,0.785399,0.000725496,-0.00111635,0.000620753,-0.0005519,-0.000163159,0.000212825,-0.000701444,0,0,0,0,0,0,0,-0.402821,-10.1377,-0.357602,20.8963,0.875566,-0.598546,0.000192821,-0.381329,-1.05557,0.0786692,2.35561,0.307119,-0.593906,0.0320481
5287563,0.99,-1.57047,-0.522836,0.00015958,-2.09583,1.5706,1.57159,0.785396,-1.5708,-0.523599,2.05932e-07,-2.09439,1.5708,1.5708,0.785399,0.00113328,0.000462196,-0.000235779,0.000838493,-0.000108773,-9.54759e-05,7.08831e-06,0,0,0,0,0,0,0,-0.430592,-10.1892,-0.329831,20.8448,0.875566,-0.592137,-0.0126246,-0.382517,-1.05219,0.0767419,2.35385,0.307138,-0.593665,0.0319019
5287564,0.99,-1.57047,-0.522838,0.000158106,-2.09583,1.5706,1.57159,0.785401,-1.5708,-0.523599,2.05932e-07,-2.09439,1.5708,1.5708,0.785399,-0.000450907,-0.000248681,-0.000157186,-9.06184e-05,0.000334386,0.000173708,0.000716802,0,0,0,0,0,0,0,-0.379017,-10.1654,-0.329831,20.8725,0.86458,-0.598546,-0.0318506,-0.383577,-1.04965,0.0751188,2.35231,0.307149,-0.593462,0.0317877
5287565,0.99,-1.57047,-0.522838,0.000159746,-2.09583,1.5706,1.57159,0.785404,-1.5708,-0.523599,2.05932e-07,-2.09439,1.5708,1.5708,0.785399,-0.000857417,-0.000165788,-0.000104791,-0.00117404,1.94734e-05,-0.000358912,0.00146121,0,0,0,0,0,0,0,-0.355213,-10.1654,-0.329831,20.9201,0.870073,-0.585729,-0.0584009,-0.383633,-1.0485,0.0749562,2.35157,0.30715,-0.593432,0.0316944
5287566,0.99,-1.57047,-0.522834,0.000156491,-2.09583,1.5706,1.57159,0.785398,-1.5708,-0.523599,2.05932e-07,-2.09439,1.5708,1.5708,0.785399,0.000542013,0.0010031,-0.000626672,0.000330933,1.29823e-05,0.000235443,-0.001196,0,0,0,0,0,0,0,-0.402821,-10.213,-0.306028,20.8725,0.870073,-0.598546,0.000192821,-0.382815,-1.04923,0.0760285,2.35208,0.30716,-0.593552,0.0315845
5287567,0.99,-1.57047,-0.522836,0.000159764,-2.09583,1.5706,1.57159,0.785403,-1.5708,-0.523599,2.05932e-07,-2.09439,1.5708,1.5708,0.785399,-0.00019547,0.000111921,0.00013903,-0.00033619,-0.000635605,-0.000317756,0.000864181,0,0,0,0,0,0,0,-0.379017,-10.1892,-0.329831,20.8963,0.887468,-0.585729,-0.044668,-0.381869,-1.05173,0.077348,2.35337,0.307181,-0.593713,0.0314388
5287568,0.99,-1.57047,-0.522834,0.000158168,-2.09583,1.5706,1.57159,0.785396,-1.5708,-0.523599,2.05932e-07,-2.09439,1.5708,1.5708,0.785399,-0.000130313,0.000631426,9.26869e-05,-0.000780938,0.000220523,-0.000211837,-0.00179747,0,0,0,0,0,0,0,-0.379017,-10.213,-0.329831,20.9201,0.870073,-0.585729,0.0194189,-0.381212,-1.05504,0.0782374,2.35506,0.307229,-0.593835,0.0312671
5287569,0.99,-1.57047,-0.522838,0.000157635,-2.09583,1.5706,1.57159,0.785399,-1.5708,-0.523599,2.05932e-07,-2.09439,1.5708,1.5708,0.785399,0.000469936,-0.000692673,6.17913e-05,0.000592999,0.000147015,-0.000141225,-0.000248877,0,0,0,0,0,0,0,-0.402821,-10.1654,-0.329831,20.8725,0.870073,-0.585729,-0.00621587,-0.38096,-1.05768,0.078511,2.3565,0.307293,-0.593873,0.0310911
5287570,0.99,-1.57047,-0.522838,0.000157458,-2.09583,1.5706,1.57159,0.785401,-1.5708,-0.523599,2.05932e-07,-2.09439,1.5708,1.5708,0.785399,0.000313291,-0.000461782,4.11942e-05,-0.000718292,9.80103e-05,0.000143209,0.000546159,0,0,0,0,0,0,0,-0.402821,-10.1654,-0.329831,20.9201,0.870073,-0.592137,-0.0254419,-0.381164,-1.05791,0.0781809,2.35669,0.307333,-0.593796,0.0309479
5287571,0.99,-1.57047,-0.522832,0.000155729,-2.09583,1.5706,1.57159,0.7854,-1.5708,-0.523599,2.05932e-07,-2.09439,1.5708,1.5708,0.785399,-0.000347951,0.00145538,-0.000529349,0.000634763,-0.000341561,0.00080755,-0.000110612,0,0,0,0,0,0,0,-0.379017,-10.2408,-0.306028,20.8725,0.881059,-0.611364,-0.0126246,-0.381316,-1.0576,0.0779989,2.35654,0.307355,-0.593718,0.0308491
5287572,0.99,-1.57047,-0.522838,0.00015951,-2.09583,1.5706,1.57159,0.785402,-1.5708,-0.523599,2.05932e-07,-2.09439,1.5708,1.5708,0.785399,0.000974458,-0.000792983,0.000203913,0.000423175,0.000382644,-0.000411069,0.000875695,0,0,0,0,0,0,0,-0.430592,-10.1654,-0.329831,20.8725,0.86458,-0.585729,-0.0382593,-0.381275,-1.05806,0.0781909,2.35646,0.307365,-0.593691,0.0307786
5287573,0.99,-1.57047,-0.522836,0.000158083,-2.09583,1.5706,1.57159,0.785397,-1.5708,-0.523599,2.05932e-07,-2.09439,1.5708,1.5708,0.785399,2.49339e-08,2.81569e-05,0.000135942,-0.000274695,5.16457e-05,-0.000274046,-0.00131508,0,0,0,0,0,0,0,-0.402821,-10.1892,-0.329831,20.8963,0.870073,-0.585729,0.0130102,-0.381687,-1.0574,0.0778283,2.35568,0.307362,-0.593595,0.0307204
5287574,0.99,-1.57047,-0.522839,0.000158067,-2.09583,1.5706,1.57159,0.7854,-1.5708,-0.523599,2.05932e-07,-2.09439,1.5708,1.5708,0.785399,-0.00111361,-0.00118765,-0.000466184,-0.00018313,-0.000372471,0.00029202,0.000310078,0,0,0,0,0,0,0,-0.355213,-10.1377,-0.306028,20.8963,0.881059,-0.598546,-0.0190333,-0.381993,-1.05526,0.077637,2.35446,0.307341,-0.5935,0.0306674
5287575,0.99,-1.57047,-0.522839,0.000156948,-2.09583,1.5706,1.57159,0.785397,-1.5708,-0.523599,2.05932e-07,-2.09439,1.5708,1.5708,0.785399,0.000371219,-0.00079177,-0.000867601,-0.000122087,0.000158587,0.00019468,-0.000742717,0,0,0,0,0,0,0,-0.402821,-10.1377,-0.282224,20.8963,0.870073,-0.598546,0.00660151,-0.381353,-1.05166,0.0788605,2.35281,0.307276,-0.593531,0.0306332
5287576,0.99,-1.57047,-0.522834,0.000162422,-2.09583,1.5706,1.57159,0.785402,-1.5708,-0.523599,2.05932e-07,-2.09439,1.5708,1.5708,0.785399,0.000897093,0.00123539,0.00118484,0.00168185,0.000105725,-0.000107572,0.000929009,0,0,0,0,0,0,0,-0.430592,-10.213,-0.357602,20.821,0.870073,-0.592137,-0.0318506,-0.38095,-1.04802,0.07985,2.35093,0.307206,-0.593538,0.0306326
5287577,0.99,-1.57047,-0.522838,0.000162483,-2.09583,1.5706,1.57159,0.785404,-1.5708,-0.523599,2.05932e-07,-2.09439,1.5708,1.5708,0.785399,-0.000608364,-0.00029003,0.000789891,-0.000642007,7.04833e-05,0.000165644,0.00133142,0,0,0,0,0,0,0,-0.379017,-10.1654,-0.357602,20.8963,0.870073,-0.598546,-0.0510767,-0.381901,-1.04639,0.0788218,2.3496,0.307201,-0.593389,0.0306625
5287578,0.99,-1.57047,-0.522838,0.000158424,-2.09583,1.5706,1.57158,0.785397,-1.5708,-0.523599,2.05932e-07,-2.09439,1.5708,1.5708,0.785399,-0.000405576,-0.000193353,-0.00012302,-0.000428004,-0.000156462,-0.000601647,-0.00148598,0,0,0,0,0,0,0,-0.379017,-10.1654,-0.329831,20.8963,0.875566,-0.57932,0.0130102,-0.383176,-1.04619,0.0771659,2.34923,0.307246,-0.593215,0.0306848
5287579,0.99,-1.57047,-0.522839,0.000156051,-2.09583,1.5706,1.57159,0.785401,-1.5708,-0.523599,2.05932e-07,-2.09439,1.5708,1.5708,0.785399,0.000286428,-0.000778516,-0.000638825,-0.000285336,9.91427e-05,7.36196e-05,0.000433501,0,0,0,0,0,0,0,-0.402821,-10.1377,-0.306028,20.8963,0.870073,-0.592137,-0.0254419,-0.383714,-1.04587,0.0765957,2.34931,0.307282,-0.593142,0.0306759
5287580,0.99,-1.57047,-0.522836,0.000157487,-2.09583,1.5706,1.57159,0.785395,-1.5708,-0.523599,2.05932e-07,-2.09439,1.5708,1.5708,0.785399,-0.00036586,0.000687415,0.000130929,0.00157301,6.60952e-05,0.000523798,-0.00160987,0,0,0,0,0,0,0,-0.379017,-10.1892,-0.329831,20.821,0.870073,-0.604955,0.0258276,-0.383657,-1.04499,0.0770026,2.34897,0.307276,-0.593146,0.0306582
5287581,0.99,-1.57047,-0.522838,0.000159357,-2.09584,1.5706,1.57159,0.7854,-1.5708,-0.523599,2.05932e-07,-2.09439,1.5708,1.5708,0.785399,0.000312905,-9.85351e-05,0.0007369,-0.00182819,4.40634e-05,0.000111839,0.000350906,0,0,0,0,0,0,0,-0.402821,-10.1654,-0.357602,20.9439,0.870073,-0.598546,-0.0126246,-0.383719,-1.0449,0.0772011,2.3488,0.307278,-0.593147,0.0306593
5287582,0.99,-1.57047,-0.522838,0.000161002,-2.09583,1.5706,1.57159,0.785402,-1.5708,-0.523599,2.05932e-07,-2.09439,1.5708,1.5708,0.785399,0.000208604,-6.56901e-05,0.00104808,-0.000105167,-0.000174075,0.000311919,0.000946014,0,0,0,0,0,0,0,-0.402821,-10.1654,-0.381406,20.8963,0.875566,-0.604955,-0.0318506,-0.384643,-1.04631,0.0759752,2.34983,0.307357,-0.593046,0.0306994
5287583,0.99,-1.57047,-0.522836,0.000157834,-2.09583,1.5706,1.57159,0.785401,-1.5708,-0.523599,2.05932e-07,-2.09439,1.5708,1.5708,0.785399,0.000139069,0.000513019,-0.00106452,0.00113631,-0.00011605,0.000445305,0.000393317,0,0,0,0,0,0,0,-0.402821,-10.1892,-0.306028,20.8448,0.875566,-0.611364,-0.0254419,-0.385836,-1.04786,0.0743132,2.35098,0.307443,-0.592931,0.0307719
5287584,0.99,-1.57047,-0.522836,0.000160212,-2.09583,1.5706,1.57159,0.785402,-1.5708,-0.523599,2.05932e-07,-2.09439,1.5708,1.5708,0.785399,-0.000464099,0.000342012,-0.000152867,0.000757543,0.000126084,-0.000177848,0.000736929,0,0,0,0,0,0,0,-0.379017,-10.1892,-0.329831,20.8448,0.870073,-0.598546,-0.0382593,-0.386077,-1.04885,0.0741637,2.35113,0.307446,-0.592992,0.0308427
5287585,0.99,-1.57047,-0.522838,0.000158317,-2.09583,1.5706,1.57158,0.785395,-1.5708,-0.523599,2.05932e-07,-2.09439,1.5708,1.5708,0.785399,-0.0003094,-0.000328804,-0.000101912,-0.00125821,8.40559e-05,-0.000830642,-0.0018823,0,0,0,0,0,0,0,-0.379017,-10.1654,-0.329831,20.9201,0.870073,-0.57932,0.0258276,-0.385531,-1.04966,0.0751969,2.35106,0.307412,-0.59319,0.0308817
5287586,0.99,-1.57047,-0.522838,0.000157685,-2.09583,1.5706,1.57159,0.785401,-1.5708,-0.523599,2.05932e-07,-2.09439,1.5708,1.5708,0.785399,-0.000763078,-0.000219202,-6.7941e-05,-0.000281994,0.000259488,0.000395674,0.000644003,0,0,0,0,0,0,0,-0.355213,-10.1654,-0.329831,20.8963,0.86458,-0.604955,-0.0254419,-0.384744,-1.05036,0.0764673,2.35151,0.307399,-0.593418,0.0308927
5287587,0.99,-1.57047,-0.522838,0.000155804,-2.09583,1.5706,1.57159,0.785397,-1.5708,-0.523599,2.05932e-07,-2.09439,1.5708,1.5708,0.785399,4.80931e-05,-0.000146135,-0.000602106,0.00101843,-0.000233909,2.64239e-05,-0.000994818,0,0,0,0,0,0,0,-0.379017,-10.1654,-0.306028,20.8448,0.875566,-0.598546,0.0130102,-0.383715,-1.05022,0.0780081,2.35167,0.307369,-0.593664,0.0309097
5287588,0.99,-1.57047,-0.522834,0.000159535,-2.09583,1.5706,1.57159,0.785403,-1.5708,-0.523599,2.05932e-07,-2.09439,1.5708,1.5708,0.785399,3.20621e-05,0.0010162,0.000155408,2.93393e-05,4.75111e-05,-0.000219743,0.00147302,0,0,0,0,0,0,0,-0.379017,-10.213,-0.329831,20.8725,0.870073,-0.592137,-0.044668,-0.382773,-1.04983,0.0794163,2.35128,0.307309,-0.593893,0.0309522
5287589,0.99,-1.57047,-0.522838,0.000158551,-2.09583,1.5706,1.57159,0.785402,-1.5708,-0.523599,2.05932e-07,-2.09439,1.5708,1.5708,0.785399,2.13747e-05,-0.000436157,-0.000453207,0.000669173,-0.000375227,-0.000146495,0.000744653,0,0,0,0,0,0,0,-0.379017,-10.1654,-0.306028,20.8448,0.881059,-0.592137,-0.0382593,-0.382231,-1.05008,0.0802321,2.35093,0.307256,-0.594066,0.0310124
5287590,0.99,-1.57047,-0.522834,0.00015878,-2.09583,1.5706,1.57159,0.785398,-1.5708,-0.523599,2.05932e-07,-2.09439,1.5708,1.5708,0.785399,-0.000542562,0.000822853,-0.000302138,-0.00076031,-4.67008e-05,0.000139695,-0.000927718,0,0,0,0,0,0,0,-0.355213,-10.213,-0.306028,20.8963,0.875566,-0.598546,0.000192821,-0.381714,-1.0507,0.0809794,2.35081,0.30722,-0.594224,0.0310543
5287591,0.99,-1.57047,-0.522834,0.000163965,-2.09583,1.5706,1.57159,0.785401,-1.5708,-0.523599,2.05932e-07,-2.09439,1.5708,1.5708,0.785399,0.000195104,0.000548568,0.00221143,-0.000506874,0.000375767,0.000330489,0.000330957,0,0,0,0,0,0,0,-0.379017,-10.213,-0.409177,20.8963,0.86458,-0.604955,-0.0254419,-0.38173,-1.05279,0.0807552,2.35174,0.307265,-0.594302,0.0310568
5287592,0.99,-1.57047,-0.522838,0.000156501,-2.09583,1.5706,1.57159,0.785396,-1.5708,-0.523599,2.05932e-07,-2.09439,1.5708,1.5708,0.785399,0.000686881,-0.000747912,-0.00149538,-0.000337916,4.70609e-05,-0.000254392,-0.00144087,0,0,0,0,0,0,0,-0.402821,-10.1654,-0.282224,20.8963,0.870073,-0.592137,0.0194189,-0.382745,-1.05533,0.0789033,2.35322,0.307383,-0.594222,0.0310375
5287593,0.99,-1.57047,-0.522838,0.000160143,-2.09583,1.5706,1.57159,0.785402,-1.5708,-0.523599,2.05932e-07,-2.09439,1.5708,1.5708,0.785399,0.000457921,-0.000498608,0.000766318,-0.000225277,-0.000172077,-0.000406953,0.000938288,0,0,0,0,0,0,0,-0.402821,-10.1654,-0.357602,20.8963,0.875566,-0.585729,-0.0318506,-0.383879,-1.05562,0.0769948,2.35374,0.307462,-0.59409,0.0310227
5287594,0.99,-1.57047,-0.522838,0.000155974,-2.09583,1.5706,1.57159,0.785401,-1.5708,-0.523599,2.05932e-07,-2.09439,1.5708,1.5708,0.785399,0.000305281,-0.000332405,-0.000695547,0.000406627,8.87328e-05,-0.000271302,0.000388167,0,0,0,0,0,0,0,-0.402821,-10.1654,-0.306028,20.8725,0.870073,-0.585729,-0.0254419,-0.384841,-1.05378,0.0754788,2.35313,0.307481,-0.59395,0.0310303
5287595,0.99,-1.57047,-0.522838,0.000155791,-2.09583,1.5706,1.57159,0.785401,-1.5708,-0.523599,2.05932e-07,-2.09439,1.5708,1.5708,0.785399,-0.000910104,-0.000221603,-0.000463698,0.000271085,0.000262606,5.64907e-05,0.000258778,0,0,0,0,0,0,0,-0.355213,-10.1654,-0.306028,20.8725,0.86458,-0.592137,-0.0254419,-0.385128,-1.05098,0.0750233,2.35176,0.30744,-0.593889,0.0310456
5287596,0.99,-1.57047,-0.522836,0.000155729,-2.09583,1.5706,1.57159,0.785402,-1.5708,-0.523599,2.05932e-07,-2.09439,1.5708,1.5708,0.785399,0.000506888,0.000409076,-0.000309132,0.00648439,-0.000231831,3.76605e-05,0.000409877,0,0,0,0,0,0,0,-0.402821,-10.1892,-0.306028,20.8725,0.875566,-0.592137,-0.0318506,-0.384507,-1.04637,0.0759978,2.34813,0.307271,-0.59394,0.0310515
5287597,0.99,-1.57047,-0.522838,0.00015951,-2.09583,1.5706,1.57159,0.785395,-1.5708,-0.523599,2.05932e-07,-2.09439,1.5708,1.5708,0.785399,0.000337925,-0.000284094,0.000350724,0.00549784,4.88968e-05,2.5107e-05,-0.00210034,0,0,0,0,0,0,0,-0.402821,-10.1654,-0.329831,20.8448,0.870073,-0.592137,0.0322363,-0.384103,-1.03763,0.0768016,2.33984,0.30692,-0.593928,0.0310497
5287598,0.99,-1.57047,-0.522838,0.000162162,-2.09583,1.5706,1.57159,0.785403,-1.5708,-0.523599,2.05932e-07,-2.09439,1.5708,1.5708,0.785399,0.000225284,-0.000189396,0.00088343,0.00229597,3.25979e-05,0.000254097,0.00144808,0,0,0,0,0,0,0,-0.402821,-10.1654,-0.357602,20.9201,0.870073,-0.598546,-0.044668,-0.384648,-1.02635,0.0762557,2.32899,0.306505,-0.593752,0.0310499
5287599,0.99,-1.57047,-0.522838,0.000158317,-2.09583,1.5706,1.57159,0.785397,-1.5708,-0.523599,2.05932e-07,-2.09439,1.5708,1.5708,0.785399,-0.000963435,-0.000126264,-6.06607e-05,0.00238294,2.17319e-05,-0.00030532,-0.000933483,0,0,0,0,0,0,0,-0.355213,-10.1654,-0.329831,20.8963,0.870073,-0.585729,0.00660151,-0.385559,-1.01673,0.0750367,2.3199,0.306178,-0.593526,0.0310613
5287600,0.99,-1.57047,-0.522836,0.000157685,-2.09583,1.5706,1.57159,0.785403,-1.5708,-0.523599,2.05932e-07,-2.09439,1.5708,1.5708,0.785399,0.000471334,0.000472636,-4.04404e-05,0.00181024,-0.000629772,0.000271171,0.00127655,0,0,0,0,0,0,0,-0.402821,-10.1892,-0.329831,20.8963,0.887468,-0.598546,-0.044668,-0.385998,-1.01069,0.0744042,2.31405,0.305958,-0.593395,0.0310763
5287601,0.99,-1.57047,-0.522836,0.000156264,-2.09583,1.5706,1.57159,0.785401,-1.5708,-0.523599,2.05932e-07,-2.09439,1.5708,1.5708,0.785399,0.000314223,0.000315091,-0.00114058,0.00257946,2.09614e-05,-5.65781e-05,0.000138956,0,0,0,0,0,0,0,-0.402821,-10.1892,-0.282224,20.8448,0.875566,-0.592137,-0.0254419,-0.3859,-1.00808,0.0746485,2.31096,0.305821,-0.593374,0.0310839
5287602,0.99,-1.57047,-0.522836,0.000162194,-2.09583,1.5706,1.57159,0.7854,-1.5708,-0.523599,2.05932e-07,-2.09439,1.5708,1.5708,0.785399,0.000209482,0.00021006,0.00100285,0.000637874,1.39743e-05,0.00019964,-0.000144722,0,0,0,0,0,0,0,-0.402821,-10.1892,-0.357602,20.8963,0.875566,-0.598546,-0.0190333,-0.385732,-1.00811,0.0751106,2.31007,0.305774,-0.593387,0.0310657
5287603,0.99,-1.57047,-0.522834,0.000156658,-2.09583,1.5706,1.57159,0.7854,-1.5708,-0.523599,2.05932e-07,-2.09439,1.5708,1.5708,0.785399,0.000139655,0.000696852,-0.00053786,0.00107555,0.000212767,-0.000104265,-9.64811e-05,0,0,0,0,0,0,0,-0.402821,-10.213,-0.306028,20.8725,0.870073,-0.592137,-0.0190333,-0.385929,-1.01067,0.0750166,2.31146,0.305848,-0.59337,0.0310097
5287604,0.99,-1.57047,-0.522838,0.000156018,-2.09583,1.5706,1.57159,0.785397,-1.5708,-0.523599,2.05932e-07,-2.09439,1.5708,1.5708,0.785399,-0.000463709,-0.000649056,-0.000358574,0.00143677,0.000141844,0.000167849,-0.00101376,0,0,0,0,0,0,0,-0.379017,-10.1654,-0.306028,20.8448,0.870073,-0.598546,0.00660151,-0.385936,-1.01439,0.0752156,2.31412,0.305978,-0.593394,0.0309271
5287605,0.99,-1.57047,-0.522838,0.000159606,-2.09583,1.5706,1.57159,0.785402,-1.5708,-0.523599,2.05932e-07,-2.09439,1.5708,1.5708,0.785399,-0.000309139,-0.000432704,0.000317763,0.000360823,-0.000312338,-0.00012546,0.000748316,0,0,0,0,0,0,0,-0.379017,-10.1654,-0.329831,20.8725,0.881059,-0.592137,-0.0318506,-0.385475,-1.01696,0.0761064,2.31659,0.306096,-0.593475,0.0308418
5287606,0.99,-1.57047,-0.522834,0.000162194,-2.09583,1.5706,1.57159,0.785399,-1.5708,-0.523599,2.05932e-07,-2.09439,1.5708,1.5708,0.785399,-0.000206093,0.000825155,0.000861456,0.000929605,-4.77485e-06,-8.36399e-05,-0.000450558,0,0,0,0,0,0,0,-0.379017,-10.213,-0.357602,20.8448,0.875566,-0.592137,-0.00621587,-0.385342,-1.01945,0.0763819,2.31936,0.30625,-0.593505,0.0307709
5287607,0.99,-1.57047,-0.522836,0.000164078,-2.09583,1.5706,1.57159,0.785404,-1.5708,-0.523599,2.05932e-07,-2.09439,1.5708,1.5708,0.785399,-0.000137395,-6.70884e-06,0.00113112,-2.95669e-07,-0.000206634,0.000181599,0.00136114,0,0,0,0,0,0,0,-0.379017,-10.1892,-0.381406,20.8725,0.881059,-0.598546,-0.0510767,-0.386047,-1.02358,0.075217,2.32308,0.306485,-0.59343,0.0307113
5287608,0.99,-1.57046,-0.522838,0.000160348,-2.09583,1.5706,1.57158,0.785399,-1.5708,-0.523599,2.05932e-07,-2.09439,1.5708,1.5708,0.785399,0.00167164,-0.000561285,0.000197265,-0.000534823,6.56947e-05,-0.000353652,-0.000754086,0,0,0,0,0,0,0,-0.454395,-10.1654,-0.357602,20.8963,0.875566,-0.585729,-0.00621587,-0.38766,-1.02822,0.0726272,2.32735,0.306785,-0.59322,0.0306471
5287609,0.99,-1.57047,-0.522834,0.000156042,-2.09583,1.5706,1.57159,0.785397,-1.5708,-0.523599,2.05932e-07,-2.09439,1.5708,1.5708,0.785399,-9.19985e-05,0.000739434,-0.00107492,0.000216903,4.37965e-05,0.00023895,-0.000977442,0,0,0,0,0,0,0,-0.402821,-10.213,-0.306028,20.8725,0.875566,-0.598546,0.00660151,-0.389304,-1.0328,0.070167,2.3318,0.307094,-0.593002,0.0305619
5287610,0.99,-1.57047,-0.522838,0.000157944,-2.09583,1.5706,1.57159,0.7854,-1.5708,-0.523599,2.05932e-07,-2.09439,1.5708,1.5708,0.785399,-0.000618144,-0.000620668,-0.00071661,-0.00039973,0.000232648,-7.8059e-05,0.000297808,0,0,0,0,0,0,0,-0.379017,-10.1654,-0.306028,20.8963,0.870073,-0.592137,-0.0190333,-0.389491,-1.03749,0.0700608,2.33617,0.307346,-0.593009,0.0304717
5287611,0.99,-1.57047,-0.522836,0.000158118,-2.09583,1.5706,1.57159,0.785397,-1.5708,-0.523599,2.05932e-07,-2.09439,1.5708,1.5708,0.785399,0.000144716,0.000143033,7.90716e-05,0.000949299,-0.000251802,-5.20393e-05,-0.000988256,0,0,0,0,0,0,0,-0.402821,-10.1892,-0.329831,20.8448,0.881059,-0.592137,0.0130102,-0.388506,-1.04113,0.0717392,2.33967,0.307524,-0.593185,0.0304079
5287612,0.99,-1.57047,-0.522836,0.000158079,-2.09583,1.5706,1.57159,0.785404,-1.5708,-0.523599,2.05932e-07,-2.09439,1.5708,1.5708,0.785399,-0.00101715,9.53556e-05,-0.000504098,0.000639886,3.55823e-05,-3.46929e-05,0.00171475,0,0,0,0,0,0,0,-0.355213,-10.1892,-0.306028,20.8448,0.875566,-0.592137,-0.0510767,-0.387315,-1.04342,0.0736964,2.34189,0.307646,-0.593383,0.0303855
5287613,0.99,-1.57047,-0.522838,0.000158163,-2.09583,1.5706,1.57159,0.785398,-1.5708,-0.523599,2.05932e-07,-2.09439,1.5708,1.5708,0.785399,0.00108514,-0.000493242,0.000220747,-0.00077457,0.000227172,0.00021423,-0.000755704,0,0,0,0,0,0,0,-0.430592,-10.1654,-0.329831,20.8963,0.870073,-0.598546,0.000192821,-0.386304,-1.0451,0.0753743,2.34349,0.307753,-0.593549,0.0303942
5287614,0.99,-1.57047,-0.522836,0.000155963,-2.09583,1.5706,1.57159,0.785401,-1.5708,-0.523599,2.05932e-07,-2.09439,1.5708,1.5708,0.785399,7.38127e-05,0.000227984,-0.000409647,4.43804e-05,-5.20025e-05,-9.45387e-05,0.000445633,0,0,0,0,0,0,0,-0.402821,-10.1892,-0.306028,20.8725,0.875566,-0.592137,-0.0254419,-0.385984,-1.04674,0.0760993,2.3452,0.307888,-0.593609,0.0304072
5287615,0.99,-1.57047,-0.522836,0.000155787,-2.09583,1.5706,1.57159,0.785396,-1.5708,-0.523599,2.05932e-07,-2.09439,1.5708,1.5708,0.785399,4.92085e-05,0.00015199,-0.000273098,-0.000524263,-0.000238119,-6.30258e-05,-0.00136442,0,0,0,0,0,0,0,-0.402821,-10.1892,-0.306028,20.8963,0.881059,-0.592137,0.0194189,-0.386008,-1.04898,0.0764155,2.34725,0.308042,-0.593628,0.0304168
5287616,0.99,-1.57047,-0.522836,0.000157399,-2.09584,1.5706,1.57159,0.785401,-1.5708,-0.523599,2.05932e-07,-2.09439,1.5708,1.5708,0.785399,-0.000524006,0.000101326,0.000374746,-0.00146091,0.000248155,-0.000279376,0.000751897,0,0,0,0,0,0,0,-0.379017,-10.1892,-0.329831,20.9439,0.870073,-0.585729,-0.0254419,-0.385979,-1.05224,0.0768069,2.34995,0.308217,-0.593667,0.030436
5287617,0.99,-1.57047,-0.522836,0.000157839,-2.09583,1.5706,1.57159,0.785402,-1.5708,-0.523599,2.05932e-07,-2.09439,1.5708,1.5708,0.785399,0.000207474,6.75509e-05,-0.000306981,-0.000415463,0.000165437,5.11082e-05,0.000738623,0,0,0,0,0,0,0,-0.402821,-10.1892,-0.306028,20.9201,0.870073,-0.592137,-0.0318506,-0.386051,-1.05616,0.0769991,2.35326,0.308419,-0.59369,0.0304779
5287618,0.99,-1.57047,-0.522838,0.000156412,-2.09583,1.5706,1.57159,0.7854,-1.5708,-0.523599,2.05932e-07,-2.09439,1.5708,1.5708,0.785399,-0.000418496,-0.000511778,-0.000204654,0.000281086,0.000313742,3.40721e-05,-0.000219661,0,0,0,0,0,0,0,-0.379017,-10.1654,-0.306028,20.8963,0.86458,-0.592137,-0.0126246,-0.386059,-1.05895,0.0773212,2.35583,0.308578,-0.593703,0.0305312
5287619,0.99,-1.57047,-0.522836,0.000157607,-2.09583,1.5706,1.57159,0.785404,-1.5708,-0.523599,2.05932e-07,-2.09439,1.5708,1.5708,0.785399,0.000277815,0.000215627,0.000420376,0.000188328,-0.00040119,0.000260074,0.00127771,0,0,0,0,0,0,0,-0.402821,-10.1892,-0.329831,20.8963,0.881059,-0.598546,-0.0510767,-0.386114,-1.05971,0.0776131,2.3569,0.308662,-0.593686,0.0305746
5287620,0.99,-1.57047,-0.522838,0.000161528,-2.09583,1.5706,1.57159,0.785397,-1.5708,-0.523599,2.05932e-07,-2.09439,1.5708,1.5708,0.785399,-0.000371602,-0.000413061,0.000929865,0.00133268,-6.40098e-05,0.0006481,-0.00152178,0,0,0,0,0,0,0,-0.379017,-10.1654,-0.357602,20.8448,0.875566,-0.611364,0.0130102,-0.386733,-1.0589,0.0770026,2.35661,0.308704,-0.593576,0.0305947
5287621,0.99,-1.57047,-0.522838,0.000158566,-2.09583,1.5706,1.57159,0.785399,-1.5708,-0.523599,2.05932e-07,-2.09439,1.5708,1.5708,0.785399,-0.000247735,-0.000275374,-0.000586516,-0.000874257,-4.26732e-05,-4.2651e-05,-0.000302444,0,0,0,0,0,0,0,-0.379017,-10.1654,-0.306028,20.9201,0.875566,-0.598546,-0.00621587,-0.387545,-1.05695,0.0760113,2.35545,0.308719,-0.593442,0.0305859
5287622,0.99,-1.57047,-0.522836,0.000162404,-2.09583,1.5706,1.57159,0.785398,-1.5708,-0.523599,2.05932e-07,-2.09439,1.5708,1.5708,0.785399,0.000391655,0.000373229,0.000815415,0.0011808,-0.000231899,0.000208925,-0.000438988,0,0,0,0,0,0,0,-0.402821,-10.1892,-0.357602,20.8448,0.881059,-0.604955,0.000192821,-0.388155,-1.05515,0.0752904,2.35438,0.308732,-0.59336,0.0305735
5287623,0.99,-1.57047,-0.522836,0.000158858,-2.09583,1.5706,1.57159,0.785398,-1.5708,-0.523599,2.05932e-07,-2.09439,1.5708,1.5708,0.785399,-0.000295708,0.00024882,-0.000662816,-0.000418933,4.8851e-05,-9.80756e-05,-0.000292659,0,0,0,0,0,0,0,-0.379017,-10.1892,-0.306028,20.8963,0.875566,-0.598546,0.000192821,-0.388723,-1.05447,0.0746364,2.35379,0.308759,-0.593321,0.0305867
5287624,0.99,-1.57047,-0.522836,0.000160553,-2.09583,1.5706,1.57159,0.785402,-1.5708,-0.523599,2.05932e-07,-2.09439,1.5708,1.5708,0.785399,0.000359673,0.00016588,0.000114935,-0.000279066,0.000236018,-0.000302743,0.000991689,0,0,0,0,0,0,0,-0.402821,-10.1892,-0.329831,20.8963,0.870073,-0.592137,-0.0318506,-0.389002,-1.05504,0.0744283,2.35392,0.308805,-0.593356,0.0306345
5287625,0.99,-1.57047,-0.522836,0.00016251,-2.09583,1.5706,1.57159,0.785398,-1.5708,-0.523599,2.05932e-07,-2.09439,1.5708,1.5708,0.785399,-0.000873842,0.000110586,0.000726237,0.00102055,0.000157345,0.000272889,-0.000525669,0,0,0,0,0,0,0,-0.355213,-10.1892,-0.357602,20.8448,0.870073,-0.604955,0.000192821,-0.389167,-1.05598,0.0743278,2.35432,0.308859,-0.593423,0.030711
5287626,0.99,-1.57047,-0.522838,0.000162513,-2.09583,1.5706,1.57159,0.785402,-1.5708,-0.523599,2.05932e-07,-2.09439,1.5708,1.5708,0.785399,-0.00123218,-0.000483088,0.000484158,-0.00108275,0.000104897,-0.000292792,0.00107371,0,0,0,0,0,0,0,-0.327442,-10.1654,-0.357602,20.9201,0.870073,-0.592137,-0.0382593,-0.389247,-1.05621,0.0740805,2.35434,0.308904,-0.593496,0.0307992
5287627,0.99,-1.57047,-0.522838,0.000162514,-2.09583,1.5706,1.57159,0.785396,-1.5708,-0.523599,2.05932e-07,-2.09439,1.5708,1.5708,0.785399,0.000384976,-0.000322058,0.000322772,0.000391886,-0.000133519,4.21645e-05,-0.00142043,0,0,0,0,0,0,0,-0.379017,-10.1654,-0.357602,20.8725,0.875566,-0.598546,0.0194189,-0.389154,-1.05567,0.0738085,2.35424,0.308942,-0.593576,0.030884
5287628,0.99,-1.57047,-0.522836,0.000158434,-2.09583,1.5706,1.57159,0.785398,-1.5708,-0.523599,2.05932e-07,-2.09439,1.5708,1.5708,0.785399,0.000256651,0.000342106,-0.000434433,0.000910942,-8.90129e-05,-0.000209249,-0.000234873,0,0,0,0,0,0,0,-0.379017,-10.1892,-0.329831,20.8448,0.875566,-0.592137,0.000192821,-0.389162,-1.05454,0.0733323,2.35375,0.308956,-0.593622,0.0309664
5287629,0.99,-1.57047,-0.522836,0.000157724,-2.09583,1.5706,1.57159,0.7854,-1.5708,-0.523599,2.05932e-07,-2.09439,1.5708,1.5708,0.785399,0.0001711,0.000228071,-0.000289622,-0.000599079,-5.93419e-05,-0.000139499,0.000555495,0,0,0,0,0,0,0,-0.379017,-10.1892,-0.329831,20.8963,0.875566,-0.592137,-0.0190333,-0.389037,-1.05389,0.0731124,2.35319,0.308948,-0.593684,0.0310678
5287630,0.99,-1.57047,-0.522836,0.000155817,-2.09583,1.5706,1.57159,0.7854,-1.5708,-0.523599,2.05932e-07,-2.09439,1.5708,1.5708,0.785399,-0.000442745,0.000152047,-0.000749893,-0.000399346,0.000163889,0.000144359,0.000132971,0,0,0,0,0,0,0,-0.355213,-10.1892,-0.306028,20.8963,0.870073,-0.598546,-0.0126246,-0.388346,-1.05466,0.073736,2.3535,0.308946,-0.59383,0.0311932
5287631,0.99,-1.57046,-0.522839,0.000161488,-2.09583,1.5706,1.57159,0.785404,-1.5708,-0.523599,2.05932e-07,-2.09439,1.5708,1.5708,0.785399,0.00202489,-0.00110506,0.000706497,0.000290611,0.00031271,-0.000141119,0.0015128,0,0,0,0,0,0,0,-0.454395,-10.1377,-0.357602,20.8725,0.86458,-0.592137,-0.0510767,-0.387817,-1.05507,0.0741415,2.35387,0.308949,-0.59393,0.0313271
5287632,0.99,-1.57047,-0.522838,0.000158093,-2.09583,1.5706,1.57159,0.785397,-1.5708,-0.523599,2.05932e-07,-2.09439,1.5708,1.5708,0.785399,0.000793112,-8.70934e-05,-0.000178616,-0.000363049,5.02282e-06,-9.40796e-05,-0.0011277,0,0,0,0,0,0,0,-0.430592,-10.1654,-0.329831,20.8963,0.870073,-0.592137,0.00660151,-0.388581,-1.05361,0.0727653,2.35337,0.308953,-0.593808,0.0314457
5287633,0.99,-1.57047,-0.522838,0.000159741,-2.09583,1.5706,1.57159,0.785397,-1.5708,-0.523599,2.05932e-07,-2.09439,1.5708,1.5708,0.785399,-0.0012345,-5.80623e-05,-0.000119077,-0.000242016,-0.000200102,-0.000300079,-0.000989157,0,0,0,0,0,0,0,-0.355213,-10.1654,-0.329831,20.8963,0.875566,-0.585729,0.0130102,-0.389537,-1.05201,0.0711638,2.35289,0.308955,-0.593654,0.0315274
5287634,0.99,-1.57047,-0.522836,0.00015862,-2.09583,1.5706,1.57159,0.785397,-1.5708,-0.523599,2.05932e-07,-2.09439,1.5708,1.5708,0.785399,-0.000266186,0.000518104,-0.000636197,0.00160191,7.00492e-05,3.73065e-05,-0.000422079,0,0,0,0,0,0,0,-0.379017,-10.1892,-0.306028,20.821,0.870073,-0.592137,0.00660151,-0.389225,-1.05128,0.0713865,2.35254,0.308912,-0.593696,0.0315978
5287635,0.99,-1.57047,-0.522834,0.000158343,-2.09583,1.5706,1.57159,0.785402,-1.5708,-0.523599,2.05932e-07,-2.09439,1.5708,1.5708,0.785399,-0.000734269,0.000902214,0.000132681,-0.000138479,-0.000156751,0.00026223,0.00114277,0,0,0,0,0,0,0,-0.355213,-10.213,-0.329831,20.8725,0.875566,-0.598546,-0.0318506,-0.388006,-1.05158,0.0729142,2.35211,0.308828,-0.593882,0.0316984
5287636,0.99,-1.57047,-0.522836,0.000159824,-2.09583,1.5706,1.57159,0.785403,-1.5708,-0.523599,2.05932e-07,-2.09439,1.5708,1.5708,0.785399,6.72993e-05,4.46644e-05,8.84538e-05,-9.23123e-05,-0.000104501,-6.2539e-05,0.00123656,0,0,0,0,0,0,0,-0.379017,-10.1892,-0.329831,20.8725,0.875566,-0.592137,-0.044668,-0.386787,-1.05339,0.0743818,2.35233,0.308768,-0.594076,0.0318275
5287637,0.99,-1.57047,-0.522838,0.000163938,-2.09583,1.5706,1.57159,0.785397,-1.5708,-0.523599,2.05932e-07,-2.09439,1.5708,1.5708,0.785399,0.00125129,-0.000527036,0.0012654,-0.00117516,-0.000510477,0.000433025,-0.0010745,0,0,0,0,0,0,0,-0.430592,-10.1654,-0.381406,20.9201,0.887468,-0.604955,0.00660151,-0.386687,-1.05533,0.0741432,2.35315,0.308782,-0.594091,0.0319447
5287638,0.99,-1.57047,-0.522836,0.000160301,-2.09583,1.5706,1.57159,0.785403,-1.5708,-0.523599,2.05932e-07,-2.09439,1.5708,1.5708,0.785399,0.000184581,0.000205455,0.000286785,-0.000783436,0.000303942,-0.000186034,0.00118254,0,0,0,0,0,0,0,-0.402821,-10.1892,-0.357602,20.9201,0.870073,-0.592137,-0.044668,-0.388069,-1.05677,0.071713,2.35437,0.308883,-0.593875,0.0320242
5287639,0.99,-1.57047,-0.522839,0.000157697,-2.09583,1.5706,1.57159,0.785395,-1.5708,-0.523599,2.05932e-07,-2.09439,1.5708,1.5708,0.785399,-0.000433758,-0.00106946,-0.000458424,0.00124095,0.000202628,0.000113336,-0.00182259,0,0,0,0,0,0,0,-0.379017,-10.1377,-0.329831,20.8448,0.870073,-0.598546,0.0258276,-0.389427,-1.0569,0.0693651,2.35501,0.308976,-0.593655,0.0320702
5287640,0.99,-1.57047,-0.522836,0.000155808,-2.09583,1.5706,1.57159,0.785401,-1.5708,-0.523599,2.05932e-07,-2.09439,1.5708,1.5708,0.785399,-0.000845984,0.000493455,-0.000862428,-0.00612104,-6.83651e-05,-0.000161802,0.000683813,0,0,0,0,0,0,0,-0.355213,-10.1892,-0.306028,20.8725,0.875566,-0.592137,-0.0254419,-0.389269,-1.05713,0.0692939,2.3562,0.309043,-0.593664,0.0320888
5287641,0.99,-1.57047,-0.522836,0.000159355,-2.09583,1.5706,1.57159,0.785405,-1.5708,-0.523599,2.05932e-07,-2.09439,1.5708,1.5708,0.785399,-7.17739e-06,0.00032897,0.000631474,-0.0051624,-0.000486386,-0.000107868,0.00167658,0,0,0,0,0,0,0,-0.379017,-10.1892,-0.357602,20.8963,0.887468,-0.592137,-0.0584009,-0.3881,-1.06285,0.0706135,2.36226,0.309264,-0.593868,0.0320896
5287642,0.99,-1.57047,-0.522839,0.000157842,-2.09583,1.5706,1.57159,0.7854,-1.5708,-0.523599,2.05932e-07,-2.09439,1.5708,1.5708,0.785399,0.000552027,-0.000987112,-0.000785443,-0.00262884,-8.68985e-05,-7.19118e-05,-0.000577702,0,0,0,0,0,0,0,-0.402821,-10.1377,-0.306028,20.8448,0.881059,-0.592137,-0.0126246,-0.387176,-1.07207,0.0715109,2.37149,0.309624,-0.594058,0.0320664
5287643,0.99,-1.57047,-0.522838,0.000160214,-2.09583,1.5706,1.57159,0.785402,-1.5708,-0.523599,2.05932e-07,-2.09439,1.5708,1.5708,0.785399,0.00101763,-8.46103e-06,3.31831e-05,-0.00381105,0.000348969,0.000189418,0.000564301,0,0,0,0,0,0,0,-0.430592,-10.1654,-0.329831,20.9201,0.870073,-0.598546,-0.0382593,-0.386846,-1.07934,0.0717005,2.37942,0.309967,-0.594137,0.0319991
5287644,0.99,-1.57047,-0.522836,0.000158318,-2.09583,1.5706,1.57159,0.785397,-1.57079,-0.523597,2.31783e-06,-2.09439,1.5708,1.5708,0.7854,-0.00108482,0.000551171,2.21221e-05,-0.00276214,2.91953e-05,-0.00011108,-0.00128531,0.00362557,0.001875,0.00211189,0.0026176,0.00132141,0.005,0.000469724,-0.355213,-10.1892,-0.329831,20.9201,0.875566,-0.592137,0.00660151,-0.386796,-1.08543,0.0716065,2.38598,0.310279,-0.594169,0.0318863
5287645,0.99,-1.57047,-0.522838,0.000157685,-2.09583,1.5706,1.57159,0.7854,-1.57079,-0.523593,6.54162e-06,-2.09439,1.5708,1.57081,0.7854,0.000390413,-0.000189364,1.4748e-05,-0.000893882,0.000222914,-7.40536e-05,9.25612e-05,0.00725114,0.00375,0.00422379,0.00523521,0.00264281,0.01,0.000939449,-0.402821,-10.1654,-0.329831,20.8725,0.870073,-0.592137,-0.0190333,-0.386647,-1.09047,0.0716512,2.39081,0.310528,-0.594219,0.0317496
5287646,0.99,-1.57047,-0.522839,0.000161554,-2.09583,1.5706,1.57159,0.785402,-1.57077,-0.523587,1.28773e-05,-2.09438,1.5708,1.57083,0.785402,-0.000296537,-0.000775857,0.000659446,-0.00127729,0.00055551,0.00018799,0.000536425,0.0108767,0.005625,0.00633568,0.00785281,0.00396422,0.015,0.00140917,-0.379017,-10.1377,-0.357602,20.8963,0.859087,-0.598546,-0.0318506,-0.386679,-1.09171,0.0714447,2.39225,0.310648,-0.594216,0.0316224
5287647,0.99,-1.57046,-0.522835,0.000161989,-2.09583,1.5706,1.57159,0.785402,-1.57076,-0.52358,2.13249e-05,-2.09437,1.57081,1.57085,0.785404,0.00192841,0.00257139,-3.41846e-05,-0.00150176,0.00016689,0.000125327,0.000357617,0.0145023,0.0075,0.00844758,0.0104704,0.00528562,0.02,0.0018789,-0.327442,-10.1377,-0.202878,20.9201,0.86458,-0.598546,-0.0318506,-0.387474,-1.09151,0.0702074,2.39186,0.3107,-0.594099,0.0315076
5287648,0.99,-1.57047,-0.522842,0.000163769,-2.09583,1.5706,1.57159,0.7854,-1.57074,-0.523571,3.18844e-05,-2.09436,1.57082,1.57087,0.785406,0.00150523,0.00345482,0.00261907,-0.000191652,-0.000295641,-0.000391167,-0.000473666,0.0181279,0.009375,0.0105595,0.013088,0.00660703,0.025,0.00234862,-0.0497324,-9.93533,0.0986355,21.0193,0.875566,-0.585729,-0.0126246,-0.389881,-1.09579,0.0667028,2.39275,0.31081,-0.593816,0.0313845
5287649,0.99,-1.57047,-0.522842,0.000176004,-2.09583,1.5706,1.57159,0.785398,-1.57072,-0.523559,4.45557e-05,-2.09434,1.57082,1.5709,0.785409,-7.11003e-05,0.000762156,0.0075685,-0.00279054,0.000209807,0.00907798,-0.00173993,0.0217534,0.01125,0.0126714,0.0157056,0.00792843,0.03,0.00281835,0.426342,-9.7092,0.42792,21.1423,0.86458,-0.585729,0.0258276,-0.395179,-1.10401,0.0583796,2.39529,0.31109,-0.593185,0.0312492
5287650,0.99,-1.57047,-0.522837,0.000187085,-2.09583,1.5706,1.57159,0.785396,-1.57069,-0.523546,5.9339e-05,-2.09432,1.57083,1.57094,0.785412,0.000555041,0.000877253,0.00991918,-0.000190621,0.000139871,0.00659286,-0.00115995,0.025379,0.013125,0.0147833,0.0183232,0.00924984,0.035,0.00328807,0.858776,-9.55844,0.832583,21.2177,0.86458,-0.57932,0.0258276,-0.404069,-1.1103,0.0431894,2.39772,0.311586,-0.591992,0.0311348
5287651,0.99,-1.57046,-0.522826,0.000203345,-2.09582,1.57061,1.57159,0.785393,-1.57067,-0.523531,7.62341e-05,-2.0943,1.57084,1.57098,0.785416,0.00289356,0.00601143,0.0125509,0.00234104,0.000737507,0.00497891,-0.00151929,0.0290046,0.015,0.0168952,0.0209408,0.0105712,0.04,0.00375779,1.23567,-9.48306,1.21344,21.2693,0.847185,-0.57932,0.0459692,-0.416731,-1.11444,0.0204847,2.39947,0.312276,-0.590025,0.0311063
5287652,0.99,-1.57045,-0.52282,0.000223933,-2.09581,1.57061,1.57159,0.785398,-1.57063,-0.523514,9.52412e-05,-2.09428,1.57086,1.57102,0.78542,-0.000310269,0.00586794,0.0134728,0.00460016,0.00110202,0.00351967,0.000682562,0.0326301,0.016875,0.0190071,0.0235584,0.0118926,0.045,0.00422752,1.68794,-9.37991,1.51892,21.2931,0.830705,-0.572911,0.000192821,-0.431478,-1.12049,-0.00744606,2.40135,0.313088,-0.58734,0.0312195
5287653,0.99,-1.57044,-0.522812,0.000241321,-2.09581,1.5706,1.5716,0.785404,-1.5706,-0.523496,0.00011636,-2.09425,1.57087,1.57107,0.785425,0.00362431,0.00641986,0.0125033,0.00832551,-0.000519929,0.00433628,0.00235391,0.0362557,0.01875,0.0211189,0.026176,0.0132141,0.05,0.00469724,2.01722,-9.30453,1.89582,21.3684,0.86458,-0.617772,-0.0510767,-0.444506,-1.12629,-0.0351898,2.40191,0.313811,-0.584288,0.03149
5287654,0.99,-1.57043,-0.5228,0.000267942,-2.0958,1.5706,1.57161,0.785399,-1.57055,-0.523473,0.000141387,-2.09422,1.57088,1.57113,0.78543,0.0060869,0.00968336,0.0147825,0.0111308,0.00378296,0.00408652,-9.22371e-05,0.0429127,0.0225,0.0250268,0.0308254,0.0153369,0.06,0.0053676,2.37031,-9.22916,2.14972,21.4438,0.881059,-0.643407,-0.00621587,-0.454045,-1.12897,-0.0599836,2.39947,0.314299,-0.580988,0.0318659
5287655,0.99,-1.57042,-0.522793,0.000284754,-2.09579,1.57061,1.57161,0.785408,-1.5705,-0.523447,0.000170321,-2.09418,1.5709,1.5712,0.785436,0.0077871,0.00787553,0.0151543,0.0091146,0.00312042,0.00172223,0.00187129,0.0495696,0.02625,0.0289346,0.0354747,0.0174597,0.07,0.00603795,2.7234,-9.1022,2.4552,21.5668,0.875566,-0.611364,-0.0584009,-0.460309,-1.12955,-0.0822155,2.39552,0.314635,-0.577344,0.032261
5287656,0.99,-1.57039,-0.522785,0.000311002,-2.09578,1.57061,1.57162,0.785405,-1.57045,-0.523417,0.000203164,-2.09414,1.57092,1.57128,0.785443,0.0150396,0.00661268,0.0177646,0.0131005,0.00217307,0.00512667,-0.000210536,0.0562265,0.03,0.0328424,0.040124,0.0195825,0.08,0.00670831,2.82258,-8.97525,2.65753,21.5906,0.881059,-0.585729,-0.0190333,-0.464154,-1.12473,-0.103369,2.39037,0.314936,-0.573148,0.0326231
5287657,0.99,-1.57036,-0.522771,0.000330175,-2.09577,1.57061,1.57163,0.785402,-1.57039,-0.523383,0.000239914,-2.0941,1.57094,1.57137,0.78545,0.0211561,0.00831459,0.0180057,0.0152936,0.0016709,0.0071157,-0.00108979,0.0628834,0.03375,0.0367502,0.0447734,0.0217053,0.09,0.00737866,3.00111,-8.82449,3.0622,21.6422,0.881059,-0.546361,0.00660151,-0.467661,-1.11025,-0.126261,2.38228,0.315267,-0.568062,0.03293
5287658,1,-1.57034,-0.522759,0.000360705,-2.09576,1.57061,1.57164,0.78541,-1.57032,-0.523346,0.000280572,-2.09405,1.57097,1.57147,0.785458,0.0235319,0.00973962,0.0241528,0.0152662,0.00148402,0.00624398,0.00191833,0.0695404,0.0375,0.040658,0.0494227,0.0238282,0.1,0.00804902,3.40577,-8.54678,3.49066,21.7652,0.875566,-0.437413,-0.0648096,-0.472493,-1.08914,-0.153216,2.37273,0.315769,-0.561864,0.0331918
5287659,1,-1.5703,-0.522742,0.000398532,-2.09574,1.57061,1.57165,0.785401,-1.57024,-0.523304,0.000325138,-2.094,1.57099,1.57158,0.785467,0.0276644,0.0100915,0.0270178,0.0167323,0.00192813,0.0101733,-0.00160333,0.0761973,0.04125,0.0445658,0.054072,0.025951,0.11,0.00871937,3.85804,-8.2175,3.99848,21.8405,0.853594,-0.314733,0.0130102,-0.479327,-1.06596,-0.185614,2.36489,0.316617,-0.554393,0.0334175
5287660,1,-1.57026,-0.522718,0.000435817,-2.09571,1.57062,1.57167,0.785408,-1.57016,-0.523259,0.000373612,-2.09394,1.57102,1.5717,0.785477,0.0321415,0.0149126,0.0304487,0.0194259,0.00161651,0.0142603,0.00106734,0.0828542,0.045,0.0484736,0.0587214,0.0280738,0.12,0.00938972,4.26271,-7.93979,4.60547,21.9635,0.847185,-0.218602,-0.044668,-0.487527,-1.04397,-0.222677,2.36058,0.317865,-0.545601,0.0335979
5287661,1,-1.57021,-0.522682,0.000478861,-2.09569,1.57062,1.5717,0.785402,-1.57007,-0.523211,0.000425993,-2.09387,1.57105,1.57183,0.785487,0.0399199,0.0208607,0.0345108,0.02218,0.00216523,0.0176513,-0.00118731,0.0895112,0.04875,0.0523814,0.0633707,0.0301966,0.13,0.0100601,4.6158,-7.76126,5.16089,22.0627,0.819719,-0.127965,0.00660151,-0.496583,-1.03019,-0.263335,2.36249,0.31955,-0.535396,0.0337406
5287662,1,-1.57016,-0.522642,0.000528658,-2.09565,1.57063,1.57174,0.785399,-1.56997,-0.523158,0.000482282,-2.09381,1.57108,1.57197,0.785497,0.0450656,0.0254735,0.0380832,0.0253885,0.00319163,0.0267955,-0.00174098,0.0961681,0.0525,0.0562892,0.06802,0.0323194,0.14,0.0107304,4.99269,-7.5867,5.56952,22.1143,0.773943,-0.0959217,0.0322363,-0.506628,-1.03113,-0.307302,2.37308,0.321707,-0.523585,0.0338581
5287663,1,-1.57008,-0.522601,0.000572079,-2.09562,1.57064,1.57179,0.785402,-1.56987,-0.523102,0.000542479,-2.09373,1.57112,1.57212,0.785509,0.0525594,0.0287132,0.0395861,0.0292349,0.0060956,0.0363761,-0.000211214,0.102825,0.05625,0.0601971,0.0726694,0.0344423,0.15,0.0114008,5.22279,-7.40817,6.02179,22.2373,0.796831,-0.134374,0.00660151,-0.516049,-1.04617,-0.351657,2.39159,0.32418,-0.51024,0.0339846
5287664,1,-1.57001,-0.522563,0.000617919,-2.09559,1.57064,1.57186,0.785399,-1.56976,-0.52304,0.000608216,-2.09365,1.57116,1.57229,0.785521,0.0581103,0.0328899,0.0409748,0.0310647,0.00786678,0.0491759,-0.00231095,0.112121,0.061875,0.0657371,0.0789214,0.0370416,0.164713,0.0120549,5.44893,-7.18204,6.45423,22.4118,0.836199,-0.199376,0.0651953,-0.521785,-1.07131,-0.391275,2.4161,0.326713,-0.495756,0.0341624
5287665,1,-1.56993,-0.522523,0.000676448,-2.09554,1.57064,1.57194,0.785396,-1.56963,-0.522972,0.000679493,-2.09357,1.5712,1.57247,0.785534,0.0632336,0.0367856,0.0469648,0.0334865,0.00943273,0.0628066,-0.00296479,0.121417,0.0675,0.0712771,0.0851734,0.039641,0.179425,0.012709,5.62349,-6.97971,6.68036,22.5348,0.870073,-0.263463,0.103647,-0.521912,-1.1045,-0.423103,2.44637,0.329243,-0.480564,0.0344212
5287666,1,-1.56983,-0.522477,0.000728352,-2.0955,1.57065,1.57203,0.785389,-1.5695,-0.522899,0.00075631,-2.09348,1.57124,1.57266,0.785547,0.0746576,0.0402191,0.0465638,0.0349251,0.0059698,0.0727133,-0.00438402,0.130713,0.073125,0.0768171,0.0914254,0.0422403,0.194138,0.0133631,5.59968,-6.80118,6.96204,22.6618,0.903948,-0.308324,0.16865,-0.516973,-1.14424,-0.447635,2.48275,0.331895,-0.464865,0.0348321
5287667,1,-1.56973,-0.522428,0.000782857,-2.09544,1.57066,1.57213,0.785387,-1.56936,-0.522821,0.000838667,-2.09338,1.57128,1.57287,0.785561,0.0845199,0.0417514,0.0505993,0.0429243,0.00855339,0.0868919,-0.00363476,0.140009,0.07875,0.0823571,0.0976775,0.0448397,0.208851,0.0140172,5.62349,-6.57504,7.31513,22.6618,0.926836,-0.301915,0.187876,-0.508895,-1.1845,-0.466525,2.52229,0.334701,-0.448675,0.0355207
5287668,1,-1.56962,-0.522382,0.000848423,-2.09539,1.57066,1.57224,0.785388,-1.56921,-0.522736,0.000926565,-2.09328,1.57133,1.57309,0.785576,0.0936964,0.0449674,0.0568896,0.0471735,0.00702889,0.0905032,-0.00194845,0.149305,0.084375,0.0878971,0.103929,0.047439,0.223564,0.0146713,5.80201,-6.17038,7.66822,22.7094,0.915849,-0.199376,0.175059,-0.501027,-1.21632,-0.483703,2.55939,0.337631,-0.431731,0.0366288
5287669,1,-1.56951,-0.522318,0.00092276,-2.09532,1.57068,1.57237,0.785387,-1.56906,-0.522646,0.00102,-2.09317,1.57138,1.57333,0.785591,0.0979381,0.0496504,0.0626523,0.0521294,0.0115092,0.103325,-0.00177369,0.158601,0.09,0.0934371,0.110182,0.0500384,0.238276,0.0153254,6.12733,-5.84109,8.10065,22.6856,0.881059,-0.115148,0.187876,-0.495925,-1.23721,-0.502857,2.59227,0.340764,-0.413791,0.0382399
5287670,1,-1.56939,-0.522249,0.000993246,-2.09525,1.57069,1.57253,0.785391,-1.56889,-0.522551,0.00111898,-2.09305,1.57143,1.57358,0.785607,0.107639,0.0539145,0.0669915,0.0602878,0.00835653,0.11993,0.000241695,0.167897,0.095625,0.0989771,0.116434,0.0526377,0.252989,0.0159795,6.45662,-5.53958,8.65607,22.5864,0.887468,-0.108739,0.149424,-0.492867,-1.24918,-0.523117,2.62143,0.344119,-0.395048,0.040356
5287671,1,-1.56925,-0.522169,0.0010708,-2.09518,1.5707,1.5727,0.785394,-1.56871,-0.522449,0.0012235,-2.09293,1.57149,1.57385,0.785624,0.116478,0.058639,0.0692057,0.0635259,0.011471,0.141291,0.00483417,0.177193,0.10125,0.104517,0.122686,0.0552371,0.267702,0.0166336,6.68275,-5.30948,9.16388,22.6102,0.875566,-0.186559,0.149424,-0.489737,-1.25374,-0.541087,2.64702,0.347617,-0.375897,0.04292
5287672,1,-1.5691,-0.52208,0.00115303,-2.09509,1.57073,1.5729,0.785402,-1.56852,-0.522342,0.00133355,-2.0928,1.57155,1.57413,0.785641,0.124007,0.064931,0.0759421,0.0708014,0.0206324,0.160586,0.00578234,0.186489,0.106875,0.110057,0.128938,0.0578365,0.282414,0.0172877,6.91285,-5.08334,9.59235,22.5626,0.807817,-0.250646,0.09083,-0.484652,-1.25435,-0.553689,2.67074,0.351198,-0.356725,0.0458181
5287673,1,-1.56893,-0.521994,0.00123319,-2.095,1.57075,1.57312,0.78541,-1.56833,-0.52223,0.00144915,-2.09266,1.57161,1.57443,0.785659,0.134985,0.0684663,0.0765517,0.074402,0.0253825,0.180976,0.0105567,0.195785,0.1125,0.115597,0.13519,0.0604358,0.297127,0.0179418,7.06361,-4.80563,10.0764,22.5864,0.791338,-0.359594,0.0459692,-0.476378,-1.25343,-0.55886,2.69388,0.354756,-0.33786,0.0489072
5287674,1,-1.56877,-0.521897,0.00132483,-2.09491,1.57078,1.57335,0.785409,-1.56812,-0.52211,0.00157126,-2.09252,1.57167,1.57474,0.785677,0.142412,0.0743009,0.0804634,0.0814903,0.0278454,0.201807,0.00670308,0.206769,0.11999,0.122108,0.142525,0.0633007,0.314169,0.0185865,7.26594,-4.65488,10.4056,22.5626,0.802324,-0.469457,0.071604,-0.463356,-1.25073,-0.55375,2.71651,0.358114,-0.319735,0.0520254
5287675,1,-1.56859,-0.521811,0.00141908,-2.09481,1.57081,1.5736,0.785417,-1.5679,-0.521982,0.00169988,-2.09237,1.57174,1.57508,0.785697,0.153558,0.0757312,0.0834869,0.0864052,0.0288625,0.217618,0.00662519,0.217754,0.12748,0.128619,0.14986,0.0661656,0.33121,0.0192312,7.4405,-4.37717,10.731,22.6856,0.841692,-0.507909,0.0258276,-0.444866,-1.24345,-0.536922,2.7375,0.361146,-0.302682,0.0550412
5287676,1,-1.5684,-0.521711,0.00151485,-2.09471,1.57085,1.57386,0.785407,-1.56768,-0.521847,0.00183501,-2.09221,1.5718,1.57542,0.785716,0.163557,0.0821794,0.0872125,0.0916743,0.0300652,0.23287,-0.000289773,0.228738,0.13497,0.13513,0.157195,0.0690305,0.348251,0.019876,7.56746,-4.19864,10.9849,22.761,0.875566,-0.456639,0.162241,-0.422259,-1.22893,-0.510192,2.75603,0.363874,-0.286677,0.0578816
5287677,1,-1.5682,-0.521604,0.00161075,-2.09458,1.57088,1.57415,0.785398,-1.56744,-0.521705,0.00197665,-2.09205,1.57188,1.57579,0.785737,0.175868,0.091656,0.0902681,0.102372,0.0306569,0.250009,-0.00329078,0.239723,0.14246,0.141642,0.16453,0.0718954,0.365293,0.0205207,7.61903,-3.94473,11.3419,22.6856,0.915849,-0.437413,0.252878,-0.397233,-1.21132,-0.475897,2.7736,0.366453,-0.271639,0.0605517
5287678,1,-1.56799,-0.521491,0.00170558,-2.09446,1.57093,1.57445,0.785398,-1.56718,-0.521555,0.0021248,-2.09188,1.57195,1.57617,0.785758,0.184788,0.0979349,0.0923086,0.109748,0.032152,0.264906,-0.0034235,0.250707,0.14995,0.148153,0.171865,0.0747604,0.382334,0.0211655,7.81739,-3.66702,11.7188,22.6102,0.932329,-0.366002,0.291331,-0.370214,-1.19634,-0.434519,2.7912,0.368998,-0.257596,0.063199
5287679,1,-1.56779,-0.521374,0.00181135,-2.09432,1.57098,1.57477,0.78539,-1.56692,-0.521398,0.00227947,-2.0917,1.57203,1.57657,0.78578,0.194565,0.102275,0.0963727,0.11829,0.0341152,0.284542,-0.00501867,0.261692,0.15744,0.154664,0.179201,0.0776253,0.399375,0.0218102,8.17048,-3.23856,12.1235,22.4118,0.926836,-0.346776,0.36915,-0.340384,-1.18235,-0.384916,2.80742,0.371528,-0.244556,0.0660486
5287680,1,-1.56755,-0.521241,0.00191993,-2.09418,1.57103,1.57512,0.785395,-1.56665,-0.521233,0.00244064,-2.09151,1.57211,1.57699,0.785802,0.205087,0.111875,0.0982666,0.126495,0.0396374,0.305149,-0.000591513,0.272676,0.16493,0.161175,0.186536,0.0804902,0.416417,0.022455,8.40059,-2.8577,12.5797,22.2611,0.932329,-0.398961,0.297739,-0.306954,-1.1669,-0.326246,2.82115,0.374062,-0.232463,0.0692983
5287681,1,-1.56732,-0.521097,0.00202853,-2.09403,1.57109,1.57549,0.785398,-1.56637,-0.52106,0.00260833,-2.09132,1.57219,1.57742,0.785825,0.215283,0.121514,0.0999852,0.135245,0.0467426,0.321518,0.000874509,0.283661,0.17242,0.167686,0.193871,0.0833551,0.433458,0.0230997,8.65052,-2.63156,13.036,22.1143,0.86458,-0.456639,0.265696,-0.26889,-1.15459,-0.257196,2.83424,0.376635,-0.221373,0.0730581
5287682,1,-1.56707,-0.520948,0.00215409,-2.09387,1.57117,1.57587,0.785409,-1.56607,-0.52088,0.00278252,-2.09112,1.57228,1.57787,0.785849,0.225271,0.129047,0.107687,0.139423,0.0523276,0.342852,0.00328941,0.294645,0.17991,0.174197,0.201206,0.08622,0.450499,0.0237445,8.92823,-2.30228,13.3414,22.0627,0.779436,-0.482274,0.194285,-0.226558,-1.15096,-0.178807,2.84984,0.379341,-0.211194,0.0772955
5287683,1,-1.5668,-0.520791,0.00227011,-2.0937,1.57124,1.57628,0.785424,-1.56577,-0.520693,0.00296323,-2.09091,1.57237,1.57834,0.785874,0.23823,0.136496,0.108673,0.150032,0.0606301,0.358321,0.00583339,0.30563,0.1874,0.180708,0.208541,0.0890849,0.46754,0.0243892,9.13057,-2.05234,13.7223,21.9635,0.706194,-0.546361,0.0972387,-0.182097,-1.15519,-0.0948311,2.86854,0.382182,-0.201572,0.0818667
5287684,1,-1.56653,-0.520624,0.00238833,-2.09353,1.57132,1.5767,0.785426,-1.56545,-0.520498,0.00315087,-2.09069,1.57246,1.57882,0.785899,0.246783,0.146862,0.110631,0.161802,0.0647007,0.382658,0.00222812,0.317487,0.19489,0.187641,0.21655,0.0920653,0.485507,0.0250313,9.28132,-1.79843,14.0516,21.9397,0.688799,-0.643407,0.143015,-0.134892,-1.16301,-0.00444453,2.88715,0.384824,-0.192601,0.0865556
5287685,1,-1.56625,-0.520457,0.00251924,-2.09335,1.5714,1.57715,0.785429,-1.56512,-0.520296,0.00334545,-2.09047,1.57255,1.57933,0.785924,0.257728,0.155171,0.11804,0.167399,0.0684872,0.401029,0.00524232,0.329344,0.20238,0.194573,0.224558,0.0950456,0.503473,0.0256733,9.55903,-1.54453,14.2539,21.8405,0.666826,-0.662633,0.16865,-0.0837621,-1.17353,0.093647,2.90432,0.387018,-0.18459,0.0911397
5287686,1,-1.56596,-0.520282,0.00264808,-2.09316,1.57149,1.57761,0.785422,-1.56478,-0.520086,0.00354695,-2.09023,1.57265,1.57985,0.785951,0.275391,0.158885,0.125404,0.173281,0.0735235,0.423798,-0.00233476,0.341202,0.20987,0.201506,0.232566,0.098026,0.52144,0.0263153,9.66218,-1.31839,14.5038,21.789,0.700701,-0.662633,0.337107,-0.0330926,-1.1847,0.192222,2.92107,0.38889,-0.177011,0.0955079
5287687,1,-1.56566,-0.520098,0.00278409,-2.09295,1.57157,1.57809,0.785421,-1.56443,-0.519868,0.00375539,-2.08999,1.57275,1.58039,0.785978,0.283152,0.164258,0.129111,0.183729,0.0775184,0.445891,0.000548036,0.353059,0.21736,0.208439,0.240575,0.101006,0.539406,0.0269573,9.78517,-1.16763,14.8093,21.7652,0.734575,-0.604955,0.414011,0.0131558,-1.1875,0.28504,2.93483,0.39048,-0.16926,0.0997287
5287688,1,-1.56535,-0.51992,0.00293696,-2.09274,1.57167,1.57859,0.785422,-1.56406,-0.519644,0.00397076,-2.08974,1.57286,1.58095,0.786005,0.295293,0.169593,0.140423,0.194097,0.0863096,0.456593,-0.00142465,0.364916,0.22485,0.215371,0.248583,0.103987,0.557372,0.0275993,9.9637,-0.937531,14.9879,21.7414,0.740068,-0.482274,0.479014,0.054942,-1.17277,0.371442,2.94052,0.391654,-0.161156,0.104038
5287689,1,-1.56503,-0.519726,0.00309063,-2.09251,1.57177,1.57912,0.785423,-1.56368,-0.519411,0.00419307,-2.08949,1.57296,1.58152,0.786033,0.302157,0.176467,0.143528,0.200907,0.0927471,0.479962,-0.00218207,0.376773,0.23234,0.222304,0.256592,0.106967,0.575339,0.0282413,10.1898,-0.862152,15.1624,21.789,0.762956,-0.546361,0.52479,0.0929286,-1.13846,0.451712,2.93662,0.392415,-0.152516,0.108712
5287690,1,-1.56469,-0.519522,0.0032453,-2.09228,1.57188,1.57968,0.785439,-1.5633,-0.519171,0.0044223,-2.08922,1.57307,1.58211,0.786062,0.315465,0.183212,0.146979,0.209301,0.0973346,0.50239,0.00248692,0.38863,0.23983,0.229236,0.2646,0.109947,0.593305,0.0288834,10.3168,-0.885956,15.4163,21.8405,0.784929,-0.662633,0.427744,0.13078,-1.08915,0.531119,2.92595,0.392835,-0.143732,0.113958
5287691,1,-1.56434,-0.519317,0.00340791,-2.09204,1.57199,1.58025,0.785452,-1.56289,-0.518924,0.00465847,-2.08895,1.57319,1.58273,0.786092,0.327464,0.189564,0.154053,0.218355,0.103704,0.524552,0.00337651,0.400488,0.24732,0.236169,0.272608,0.112928,0.611272,0.0295254,10.3922,-0.838348,15.6187,21.8882,0.729082,-0.701085,0.388376,0.170763,-1.02911,0.613256,2.91092,0.393019,-0.135184,0.119858
5287692,1,-1.56399,-0.519097,0.00358047,-2.09178,1.57211,1.58084,0.785474,-1.56248,-0.518669,0.00490157,-2.08867,1.5733,1.58336,0.786122,0.338119,0.199569,0.1621,0.22891,0.108886,0.546932,0.00699011,0.412345,0.25481,0.243101,0.280617,0.115908,0.629238,0.0301674,10.4913,-0.862152,15.821,21.9397,0.654924,-0.701085,0.265696,0.21109,-0.962044,0.695349,2.89273,0.393141,-0.126779,0.126329
5287693,1,-1.56361,-0.518871,0.00375655,-2.09152,1.57222,1.58146,0.785494,-1.56206,-0.518407,0.00515161,-2.08838,1.57342,1.584,0.786153,0.348014,0.207971,0.164723,0.237937,0.114145,0.572959,0.0106885,0.424202,0.2623,0.250034,0.288625,0.118888,0.647204,0.0308094,10.6183,-0.913727,16.0511,21.9397,0.666826,-0.798131,0.233652,0.252046,-0.894128,0.777589,2.87354,0.393242,-0.118796,0.133145
5287694,1,-1.56324,-0.518636,0.00393574,-2.09124,1.57234,1.5821,0.785514,-1.56162,-0.518137,0.00540853,-2.08808,1.57354,1.58467,0.786184,0.354917,0.216136,0.171503,0.248493,0.119609,0.595703,0.0118929,0.43621,0.26979,0.256922,0.296986,0.121857,0.665322,0.0314567,10.7968,-0.965302,16.2018,21.9159,0.649431,-0.90067,0.24647,0.296943,-0.829264,0.864829,2.85481,0.39317,-0.111913,0.140002
5287695,1,-1.56286,-0.518391,0.00412477,-2.09096,1.57247,1.58276,0.785546,-1.56117,-0.51786,0.00567234,-2.08778,1.57367,1.58535,0.786216,0.365103,0.223728,0.176,0.259416,0.119307,0.615124,0.0202382,0.448218,0.27728,0.26381,0.305346,0.124826,0.683439,0.0321039,10.9714,-1.04068,16.3526,21.8882,0.615556,-0.919896,0.194285,0.347812,-0.766745,0.959901,2.83581,0.392778,-0.106545,0.146653
5287696,1,-1.56246,-0.518142,0.0043194,-2.09067,1.5726,1.58342,0.785564,-1.56071,-0.517575,0.00594303,-2.08747,1.5738,1.58605,0.786249,0.376801,0.231284,0.185464,0.268853,0.119051,0.620531,0.0165234,0.460226,0.28477,0.270697,0.313707,0.127795,0.701557,0.0327512,11.0468,-1.08829,16.5311,21.9159,0.581682,-0.778905,0.278513,0.402191,-0.704551,1.05912,2.81552,0.39208,-0.102314,0.152964
5287697,1,-1.56205,-0.51789,0.00452719,-2.09036,1.57273,1.5841,0.785592,-1.56024,-0.517283,0.00622062,-2.08714,1.57393,1.58677,0.786283,0.387856,0.235509,0.189307,0.28208,0.127374,0.638884,0.0205955,0.472233,0.29226,0.277585,0.322068,0.130764,0.719674,0.0333984,11.1499,-1.08829,16.7097,21.8405,0.576189,-0.643407,0.310557,0.456119,-0.637803,1.15687,2.79154,0.391041,-0.0984047,0.158888
5287698,1,-1.56164,-0.517622,0.00474234,-2.09005,1.57286,1.58483,0.785622,-1.55976,-0.516983,0.00650509,-2.08681,1.57406,1.58751,0.786317,0.393231,0.244886,0.197756,0.290172,0.126935,0.662592,0.0235921,0.484241,0.29975,0.284473,0.330429,0.133733,0.737792,0.0340457,11.3245,-1.19144,16.785,21.8405,0.62105,-0.75327,0.343516,0.509864,-0.562881,1.25348,2.76193,0.38952,-0.094599,0.164468
5287699,1,-1.56122,-0.517345,0.00496393,-2.08974,1.57299,1.58557,0.785645,-1.55926,-0.516676,0.00679645,-2.08647,1.5742,1.58827,0.786351,0.401524,0.258962,0.207027,0.298427,0.132198,0.69864,0.0249392,0.496249,0.30724,0.291361,0.338789,0.136702,0.755909,0.034693,11.503,-1.31839,16.8604,21.8882,0.654924,-0.940038,0.407602,0.565778,-0.490633,1.35137,2.73249,0.387726,-0.0913047,0.169788
5287700,1,-1.56077,-0.517052,0.00519619,-2.08941,1.57314,1.58634,0.785686,-1.55875,-0.516361,0.0070947,-2.08613,1.57434,1.58904,0.786387,0.418075,0.271116,0.213218,0.31002,0.133174,0.72338,0.0312646,0.508257,0.31473,0.298249,0.34715,0.139671,0.774027,0.0353402,11.503,-1.56833,16.9358,21.8405,0.638445,-0.991307,0.330698,0.62303,-0.437853,1.44873,2.71148,0.386114,-0.0887671,0.174966
5287701,1,-1.56031,-0.516759,0.00542199,-2.08907,1.57329,1.58711,0.785717,-1.55823,-0.516039,0.00739984,-2.08577,1.57448,1.58983,0.786423,0.430311,0.27864,0.214051,0.316208,0.140045,0.736422,0.0286945,0.520265,0.32222,0.305137,0.355511,0.14264,0.792144,0.0359875,11.503,-1.77066,17.0627,21.8644,0.581682,-0.907079,0.316965,0.68003,-0.408818,1.54435,2.70089,0.384826,-0.0869601,0.180109
5287702,1,-1.55984,-0.516451,0.00565796,-2.08873,1.57344,1.5879,0.785754,-1.5577,-0.515709,0.00771187,-2.08541,1.57463,1.59064,0.786459,0.444763,0.287095,0.220559,0.332782,0.142058,0.763319,0.0322533,0.532273,0.32971,0.312025,0.363872,0.145609,0.810262,0.0366347,11.5506,-1.94919,17.2135,21.8644,0.610063,-0.868627,0.278513,0.737018,-0.395047,1.64006,2.69629,0.383639,-0.0858317,0.185241
5287703,1,-1.55938,-0.516141,0.00591762,-2.08837,1.57358,1.58874,0.785788,-1.55716,-0.515372,0.00803078,-2.08504,1.57477,1.59147,0.786497,0.446895,0.299319,0.233716,0.338935,0.143738,0.784807,0.0337315,0.544281,0.3372,0.318913,0.372232,0.148578,0.828379,0.037282,11.7807,-2.05234,17.2651,21.8167,0.638445,-0.959264,0.272104,0.793542,-0.390327,1.73478,2.69362,0.382447,-0.0852182,0.190315
5287704,1,-1.55889,-0.515826,0.00617841,-2.08801,1.57373,1.58958,0.78582,-1.5566,-0.515027,0.00835633,-2.08465,1.57493,1.59232,0.786534,0.466328,0.3058,0.238206,0.340917,0.145466,0.801249,0.0343158,0.556008,0.34469,0.325553,0.380725,0.151401,0.846076,0.0379188,11.983,-2.12772,17.2889,21.8644,0.649431,-1.08103,0.284922,0.847602,-0.398198,1.8244,2.69669,0.381552,-0.0847341,0.195247
5287705,1,-1.55838,-0.515492,0.00644337,-2.08765,1.57389,1.59044,0.785861,-1.55603,-0.514675,0.00868853,-2.08427,1.57508,1.59318,0.786573,0.48532,0.313329,0.246521,0.346591,0.15115,0.825365,0.0364822,0.567736,0.35218,0.332194,0.389218,0.154223,0.863773,0.0385556,11.8561,-2.25467,17.3405,21.8882,0.547807,-1.04258,0.24647,0.895148,-0.419551,1.90352,2.70986,0.381286,-0.0837103,0.199965
5287706,1,-1.55784,-0.51515,0.00671844,-2.08727,1.57406,1.59131,0.785885,-1.55545,-0.514315,0.00902736,-2.08387,1.57524,1.59406,0.786612,0.494446,0.319073,0.264437,0.349481,0.153974,0.834631,0.0332366,0.579464,0.35967,0.338835,0.39771,0.157046,0.88147,0.0391924,11.63,-2.40543,17.3682,21.9397,0.474565,-0.933629,0.337107,0.930385,-0.449205,1.96368,2.73267,0.381825,-0.0812413,0.204438
5287707,1,-1.55731,-0.5148,0.0070055,-2.08688,1.57422,1.5922,0.785924,-1.55486,-0.513948,0.00937284,-2.08346,1.5754,1.59496,0.786652,0.499458,0.328085,0.26706,0.358344,0.156948,0.863667,0.0350443,0.591191,0.36716,0.345475,0.406203,0.159868,0.899167,0.0398292,11.63,-2.50461,17.2651,22.0151,0.50844,-0.972081,0.323374,0.954109,-0.483092,2.00475,2.76314,0.383028,-0.0773513,0.208679
5287708,1,-1.55677,-0.514443,0.00730111,-2.08649,1.57439,1.59313,0.785965,-1.55426,-0.513574,0.00972495,-2.08305,1.57556,1.59588,0.786692,0.511022,0.335272,0.275865,0.36783,0.157344,0.882597,0.03702,0.602919,0.37465,0.352116,0.414696,0.16269,0.916865,0.040466,11.7053,-2.65536,17.1143,22.0905,0.587175,-1.10026,0.291331,0.974656,-0.518136,2.03892,2.79738,0.384355,-0.0732562,0.21275
5287709,1,-1.5562,-0.514079,0.00760742,-2.0861,1.57455,1.59408,0.786006,-1.55364,-0.513192,0.0100837,-2.08262,1.57573,1.59681,0.786734,0.527531,0.346226,0.288187,0.37338,0.158582,0.898093,0.0381132,0.614647,0.38214,0.358756,0.423188,0.165513,0.934562,0.0411028,11.4514,-2.75851,16.9874,22.3365,0.649431,-1.12681,0.265696,0.993196,-0.554107,2.06872,2.83313,0.385625,-0.0691839,0.216715
5287710,1,-1.55562,-0.513704,0.00792167,-2.08569,1.57474,1.595,0.786053,-1.55302,-0.512802,0.0104491,-2.08219,1.57589,1.59777,0.786775,0.54551,0.351896,0.294364,0.385323,0.164727,0.910418,0.0395161,0.626374,0.38963,0.365397,0.431681,0.168335,0.952259,0.0417396,11.1975,-2.8577,16.8366,22.4356,0.570696,-1.02976,0.219919,1.00361,-0.591052,2.08618,2.8695,0.387029,-0.06428,0.220579
5287711,1,-1.55503,-0.51332,0.00824634,-2.08526,1.57491,1.59595,0.786094,-1.55238,-0.512405,0.0108211,-2.08175,1.57606,1.59874,0.786818,0.560914,0.365567,0.306177,0.392404,0.166184,0.925131,0.0427833,0.638102,0.39712,0.372037,0.440174,0.171157,0.969956,0.0423764,11.0745,-3.06003,16.6581,22.4872,0.570696,-0.959264,0.233652,1.00227,-0.628379,2.08728,2.9051,0.388641,-0.0580509,0.224291
5287712,1,-1.55444,-0.512921,0.00856919,-2.08484,1.57508,1.5969,0.786134,-1.55173,-0.512,0.0111998,-2.0813,1.57624,1.59972,0.786861,0.570336,0.372169,0.311691,0.402983,0.171519,0.93579,0.0446212,0.64983,0.40461,0.378678,0.448666,0.17398,0.987653,0.0430132,10.9714,-3.31393,16.6065,22.5864,0.592668,-0.919896,0.284922,0.990117,-0.668789,2.07395,2.94064,0.390414,-0.0506077,0.22778
5287713,1,-1.55383,-0.512514,0.00890776,-2.08441,1.57526,1.59788,0.786176,-1.55107,-0.511588,0.0115851,-2.08085,1.57642,1.60073,0.786904,0.57982,0.384191,0.320769,0.409787,0.170648,0.955841,0.0422753,0.661558,0.4121,0.385318,0.457159,0.176802,1.00535,0.04365,11.023,-3.54007,16.4558,22.6102,0.62105,-0.875035,0.304148,0.972637,-0.713979,2.05394,2.97695,0.392196,-0.04265,0.231023
5287714,1,-1.5532,-0.512104,0.00924718,-2.08396,1.57545,1.59888,0.78622,-1.5504,-0.511168,0.0119768,-2.08038,1.57659,1.60175,0.786949,0.596241,0.38883,0.330891,0.416033,0.175829,0.96711,0.041268,0.672697,0.41959,0.391634,0.465625,0.1793,1.02226,0.0442601,11.1221,-3.66702,16.4558,22.634,0.615556,-0.766088,0.304148,0.952468,-0.763574,2.03073,3.01487,0.394003,-0.0344431,0.234081
5287715,1,-1.55256,-0.511692,0.00959532,-2.08352,1.57564,1.59988,0.786266,-1.54971,-0.510741,0.0123747,-2.07991,1.57678,1.60279,0.786993,0.613067,0.393791,0.337542,0.420597,0.181401,0.983728,0.0413373,0.683836,0.42708,0.397949,0.474091,0.181799,1.03917,0.0448701,11.023,-3.69479,16.5073,22.7094,0.570696,-0.720311,0.278513,0.927233,-0.812046,2.00099,3.05368,0.395942,-0.0253703,0.237032
5287716,1,-1.55191,-0.511269,0.00996231,-2.08306,1.57584,1.60091,0.786317,-1.54902,-0.510307,0.012779,-2.07942,1.57696,1.60385,0.787039,0.61877,0.406177,0.349713,0.4335,0.181494,1.0012,0.0467625,0.694975,0.43457,0.404264,0.482557,0.184297,1.05609,0.0454802,11.023,-3.69479,16.5311,22.6618,0.496538,-0.791722,0.240061,0.897061,-0.85554,1.96466,3.09163,0.397969,-0.0151916,0.239916
5287717,1,-1.55126,-0.510849,0.0103276,-2.0826,1.57603,1.60196,0.786364,-1.54831,-0.509865,0.0131896,-2.07893,1.57715,1.60492,0.787085,0.634012,0.408806,0.350651,0.443188,0.18413,1.02164,0.0501165,0.706114,0.44206,0.41058,0.491023,0.186795,1.073,0.0460902,11.0983,-3.64322,16.5073,22.7332,0.480058,-0.92722,0.213511,0.866584,-0.892775,1.92799,3.12583,0.399805,-0.00452734,0.24272
5287718,1,-1.55059,-0.510409,0.0107075,-2.08213,1.57622,1.60304,0.786418,-1.54759,-0.509415,0.0136065,-2.07843,1.57734,1.60601,0.787132,0.643635,0.419562,0.358666,0.454762,0.1902,1.04192,0.0494046,0.717253,0.44955,0.416895,0.49949,0.189294,1.08991,0.0467003,11.1737,-3.64322,16.4042,22.6102,0.480058,-1.04899,0.143015,0.840874,-0.918925,1.89884,3.15211,0.401015,0.00577025,0.245381
5287719,1,-1.54989,-0.509969,0.0110858,-2.08164,1.5764,1.60414,0.78646,-1.54686,-0.508958,0.0140297,-2.07793,1.57753,1.60712,0.787179,0.655491,0.428395,0.361996,0.464977,0.186902,1.05355,0.0452204,0.728392,0.45704,0.423211,0.507956,0.191792,1.10682,0.0473104,11.1737,-3.66702,16.4558,22.388,0.570696,-1.06821,0.16865,0.822719,-0.935913,1.8814,3.17055,0.401404,0.015013,0.247807
5287720,1,-1.54921,-0.509508,0.0114784,-2.08115,1.5766,1.60522,0.78651,-1.54613,-0.508494,0.0144592,-2.07741,1.57772,1.60824,0.787227,0.668248,0.437536,0.370497,0.482251,0.19263,1.04846,0.0481453,0.739532,0.46453,0.429526,0.516422,0.194291,1.12373,0.0479204,11.1499,-3.84555,16.3804,22.1897,0.581682,-0.965673,0.16865,0.811285,-0.946508,1.87425,3.18105,0.400977,0.0231788,0.249923
5287721,1,-1.5485,-0.509054,0.0118832,-2.08064,1.57681,1.60633,0.786557,-1.54537,-0.508022,0.014895,-2.07688,1.57792,1.60938,0.787276,0.679775,0.453776,0.374227,0.491639,0.196107,1.06903,0.0488037,0.750671,0.47202,0.435841,0.524888,0.196789,1.14065,0.0485305,11.0983,-3.84555,16.2772,21.9873,0.60457,-0.862218,0.207102,0.80428,-0.955373,1.87406,3.18404,0.39987,0.0305647,0.251702
5287722,1,-1.54779,-0.508587,0.0122756,-2.08012,1.57701,1.60747,0.786596,-1.54461,-0.507542,0.0153372,-2.07635,1.57812,1.61054,0.787325,0.703461,0.454915,0.380832,0.497806,0.194578,1.10832,0.0461801,0.76181,0.47951,0.442157,0.533354,0.199287,1.15756,0.0491406,11.0983,-3.86935,16.2772,21.7652,0.615556,-0.887853,0.330698,0.799853,-0.969525,1.87823,3.18396,0.398483,0.0371812,0.253145
5287723,1,-1.54707,-0.50812,0.0127002,-2.0796,1.57722,1.6086,0.786649,-1.54384,-0.507055,0.0157857,-2.07581,1.57832,1.61171,0.787374,0.704711,0.455161,0.392485,0.506882,0.203494,1.12485,0.0441707,0.772949,0.487,0.448472,0.54182,0.201786,1.17447,0.0497506,11.1737,-3.79398,16.0987,21.666,0.485552,-0.881444,0.330698,0.795927,-0.977445,1.88319,3.17866,0.397098,0.0432707,0.254355
5287724,1,-1.54633,-0.507648,0.013131,-2.07906,1.57744,1.60978,0.786692,-1.54306,-0.506561,0.0162401,-2.07526,1.57852,1.6129,0.787425,0.70625,0.461201,0.408403,0.515746,0.208457,1.13496,0.0461182,0.783294,0.49449,0.454409,0.55016,0.203885,1.19035,0.050313,11.1737,-3.69479,15.9241,21.5906,0.383928,-0.991307,0.381968,0.792678,-0.962995,1.88655,3.1622,0.395671,0.049185,0.255535
5287725,1,-1.54557,-0.507164,0.0135501,-2.07851,1.57765,1.61096,0.786744,-1.54226,-0.506059,0.0167004,-2.0747,1.57873,1.61411,0.787476,0.719128,0.46748,0.40565,0.526424,0.21076,1.15182,0.0502581,0.793639,0.50198,0.460346,0.5585,0.205985,1.20623,0.0508754,10.9992,-3.66702,15.9479,21.3922,0.321672,-1.08744,0.349924,0.79328,-0.925983,1.89126,3.1343,0.393951,0.0547125,0.256869
5287726,1,-1.54479,-0.506674,0.0139839,-2.07795,1.57786,1.61217,0.786804,-1.54146,-0.505549,0.0171667,-2.07413,1.57894,1.61533,0.787527,0.734625,0.470915,0.410753,0.536341,0.212803,1.16716,0.0510751,0.803983,0.50947,0.466282,0.566839,0.208085,1.22212,0.0514379,10.9476,-3.64322,15.9241,21.3446,0.378435,-1.10026,0.24647,0.800665,-0.869776,1.90336,3.09573,0.39152,0.0592971,0.25847
5287727,1,-1.54401,-0.506186,0.0144162,-2.07738,1.57807,1.6134,0.786854,-1.54064,-0.505032,0.0176389,-2.07356,1.57915,1.61657,0.787579,0.743751,0.473938,0.413323,0.543579,0.214411,1.17678,0.0482727,0.814328,0.51696,0.472219,0.575179,0.210184,1.238,0.0520003,10.9238,-3.61942,15.9757,21.2693,0.435198,-1.25498,0.226328,0.814825,-0.793601,1.92497,3.04622,0.38811,0.062749,0.260337
5287728,1,-1.54323,-0.505675,0.0148634,-2.07681,1.57827,1.61465,0.786915,-1.53982,-0.504508,0.0181171,-2.07297,1.57936,1.61782,0.787632,0.756678,0.483865,0.420577,0.551471,0.208821,1.20264,0.054491,0.824673,0.52445,0.478156,0.583519,0.212284,1.25388,0.0525627,10.8722,-3.64322,15.9241,21.2693,0.558794,-1.57724,0.110056,0.834513,-0.703169,1.95482,2.98954,0.383895,0.0649509,0.262336
5287729,1,-1.54243,-0.505169,0.0153178,-2.07622,1.57848,1.61589,0.78697,-1.53898,-0.503976,0.0186012,-2.07238,1.57958,1.61909,0.787685,0.768557,0.490892,0.429353,0.558908,0.209773,1.20555,0.0590141,0.835018,0.53194,0.484092,0.591858,0.214384,1.26976,0.0531251,10.8206,-3.61942,15.7456,21.2177,0.553301,-1.53879,0.103647,0.856257,-0.611897,1.98768,2.93285,0.379431,0.0658559,0.264262
5287730,1,-1.54163,-0.504643,0.0157665,-2.07562,1.57869,1.61709,0.787018,-1.53814,-0.503436,0.0190912,-2.07178,1.57979,1.62038,0.787738,0.777446,0.501763,0.436417,0.568818,0.20902,1.20383,0.0563845,0.845362,0.53943,0.490029,0.600198,0.216483,1.28564,0.0536875,10.8206,-3.69479,15.6702,21.2455,0.581682,-1.16526,0.149424,0.875334,-0.530054,2.0164,2.88099,0.375239,0.0657656,0.26591
5287731,1,-1.54082,-0.504109,0.0162195,-2.07502,1.57891,1.61834,0.787076,-1.53728,-0.502889,0.0195872,-2.07117,1.58001,1.62168,0.787793,0.783804,0.507974,0.438608,0.576355,0.210349,1.21469,0.055394,0.855707,0.54692,0.495966,0.608538,0.218583,1.30153,0.0542499,10.9714,-3.7186,15.694,21.3169,0.558794,-0.940038,0.162241,0.892783,-0.461958,2.04231,2.83553,0.371473,0.0645947,0.267153
5287732,1,-1.54001,-0.503582,0.0166657,-2.07442,1.57912,1.61965,0.787126,-1.53642,-0.502335,0.0200891,-2.07056,1.58023,1.623,0.787847,0.786768,0.514859,0.440773,0.581424,0.219894,1.23147,0.0579698,0.866052,0.55441,0.501903,0.616877,0.220683,1.31741,0.0548123,11.1975,-3.69479,15.7456,21.4676,0.558794,-1.05539,0.233652,0.916227,-0.40735,2.07619,2.79685,0.36798,0.0616838,0.26796
5287733,1,-1.53918,-0.503045,0.0171192,-2.07382,1.57936,1.62093,0.787182,-1.53554,-0.501773,0.0205969,-2.06993,1.58045,1.62433,0.787903,0.800037,0.518664,0.445036,0.58468,0.226489,1.25434,0.0560869,0.876397,0.5619,0.507839,0.625217,0.222783,1.33329,0.0553747,11.1221,-3.64322,15.821,21.5906,0.451677,-1.13321,0.284922,0.951255,-0.363463,2.12577,2.7656,0.364625,0.0567303,0.268369
5287734,1,-1.53833,-0.502493,0.0175799,-2.07321,1.57959,1.62226,0.787247,-1.53466,-0.501204,0.0211103,-2.0693,1.58068,1.62568,0.787959,0.811816,0.537357,0.444557,0.595916,0.226617,1.27171,0.0586571,0.88581,0.56939,0.513363,0.633382,0.224456,1.34798,0.0558587,11.023,-3.66702,16.0511,21.8644,0.36104,-1.27421,0.226328,0.997244,-0.334939,2.19044,2.74464,0.361456,0.0499595,0.26852
5287735,1,-1.5375,-0.501935,0.0180431,-2.07258,1.57983,1.62355,0.787316,-1.53376,-0.500627,0.0216292,-2.06866,1.5809,1.62704,0.788015,0.832793,0.541278,0.453398,0.602051,0.230986,1.31029,0.061037,0.895224,0.57688,0.518887,0.641548,0.226129,1.36267,0.0563427,11.1737,-3.7186,16.178,21.9873,0.24843,-1.14603,0.149424,1.0491,-0.329662,2.26376,2.73636,0.358546,0.0418155,0.268565
5287736,1,-1.53665,-0.50136,0.0185218,-2.07197,1.58005,1.62489,0.787392,-1.53286,-0.500043,0.0221536,-2.06801,1.58113,1.62842,0.788072,0.828169,0.551769,0.459241,0.609008,0.231741,1.33048,0.0641673,0.904638,0.58437,0.524411,0.649713,0.227803,1.37736,0.0568267,11.4752,-3.89713,16.305,22.2889,0.327165,-1.13962,0.0258276,1.1028,-0.344357,2.33968,2.73923,0.355798,0.0326156,0.268536
5287737,1,-1.5358,-0.500785,0.0190114,-2.07132,1.58027,1.62626,0.787458,-1.53194,-0.499451,0.0226835,-2.06735,1.58136,1.62981,0.788129,0.825049,0.56102,0.481217,0.615657,0.226503,1.34035,0.0619685,0.914051,0.59186,0.529935,0.657878,0.229476,1.39205,0.0573107,11.7529,-4.02011,16.3804,22.3365,0.446184,-1.12681,0.0194189,1.15895,-0.374949,2.41609,2.75256,0.353114,0.0224713,0.268325
5287738,1,-1.53493,-0.500191,0.0194943,-2.0707,1.5805,1.62761,0.78751,-1.53102,-0.498851,0.023219,-2.06668,1.58159,1.63122,0.788187,0.835185,0.570382,0.479895,0.616939,0.221298,1.32939,0.0601175,0.923465,0.59935,0.535459,0.666044,0.231149,1.40674,0.0577947,11.7053,-4.17484,16.4042,22.6102,0.480058,-1.0618,0.149424,1.21641,-0.423017,2.4889,2.77889,0.350678,0.01215,0.267775
5287739,1,-1.53403,-0.499603,0.0199766,-2.07006,1.58073,1.62902,0.787564,-1.53009,-0.498244,0.0237599,-2.06601,1.58183,1.63264,0.788245,0.848504,0.585207,0.476904,0.623596,0.229503,1.35834,0.0551023,0.932878,0.60684,0.540983,0.674209,0.232823,1.42143,0.0582787,11.4514,-4.3494,16.5073,22.7848,0.451677,-1.13321,0.265696,1.27655,-0.493716,2.56196,2.82213,0.348575,0.00188739,0.266806
5287740,1,-1.53312,-0.49899,0.0204561,-2.0694,1.58095,1.63041,0.787625,-1.52914,-0.49763,0.0243065,-2.06533,1.58206,1.63407,0.788304,0.865849,0.588527,0.479579,0.631414,0.229488,1.36922,0.0588275,0.942292,0.61433,0.546506,0.682374,0.234496,1.43612,0.0587627,11.3007,-4.55173,16.5549,22.761,0.446184,-1.1204,0.323374,1.34181,-0.58577,2.6424,2.8807,0.346634,-0.00867519,0.265535
5287741,1,-1.53222,-0.498385,0.0209642,-2.06875,1.58118,1.63185,0.78768,-1.52819,-0.497008,0.0248585,-2.06464,1.5823,1.63553,0.788363,0.882115,0.5897,0.485058,0.638687,0.229602,1.38863,0.0547076,0.951706,0.62182,0.55203,0.69054,0.23617,1.4508,0.0592467,11.1499,-4.50412,16.4042,22.8601,0.446184,-1.08103,0.427744,1.40674,-0.678227,2.72483,2.9433,0.344701,-0.0187503,0.264257
5287742,1,-1.5313,-0.497772,0.0214903,-2.06808,1.58141,1.63329,0.787753,-1.52723,-0.496379,0.025416,-2.06394,1.58253,1.63699,0.788423,0.891847,0.603188,0.496497,0.648229,0.235339,1.4003,0.0599759,0.961119,0.62931,0.557554,0.698705,0.237843,1.46549,0.0597307,10.9992,-4.42477,16.0987,22.761,0.412309,-0.965673,0.316965,1.4636,-0.755611,2.79867,3.00144,0.34282,-0.0271901,0.263296
5287743,1,-1.53036,-0.497149,0.0219988,-2.0674,1.58165,1.63473,0.787822,-1.52626,-0.495742,0.0259791,-2.06323,1.58277,1.63847,0.788483,0.892775,0.609132,0.501272,0.651364,0.238561,1.41877,0.0613337,0.970533,0.6368,0.563078,0.70687,0.239516,1.48018,0.0602147,10.6461,-4.47635,15.9241,22.7094,0.417803,-0.959264,0.259287,1.51165,-0.823518,2.86152,3.05697,0.341109,-0.033955,0.262849
5287744,1,-1.52941,-0.496516,0.0225326,-2.06672,1.58189,1.63619,0.787892,-1.52528,-0.495098,0.0265473,-2.06252,1.58302,1.63996,0.788544,0.912744,0.614841,0.504368,0.665812,0.242407,1.43982,0.0638013,0.978924,0.64429,0.568171,0.714862,0.240749,1.49357,0.060572,10.293,-4.55173,15.7456,22.5348,0.383928,-0.836583,0.155832,1.55475,-0.88298,2.91848,3.10962,0.339419,-0.0396364,0.262905
5287745,1,-1.52844,-0.495883,0.0230725,-2.06603,1.58214,1.63766,0.787957,-1.52429,-0.494446,0.0271206,-2.06179,1.58326,1.64147,0.788605,0.923625,0.62059,0.516915,0.67154,0.245478,1.44541,0.0628589,0.987316,0.65178,0.573265,0.722853,0.241982,1.50697,0.0609292,10.0906,-4.6033,15.5671,22.3603,0.332659,-0.75327,0.122873,1.58989,-0.925479,2.96633,3.15358,0.337606,-0.0437131,0.263306
5287746,1,-1.52747,-0.495238,0.0236175,-2.06533,1.58238,1.63914,0.788013,-1.5233,-0.493787,0.0276989,-2.06106,1.5835,1.64299,0.788666,0.936468,0.622141,0.523662,0.681504,0.247517,1.46224,0.0578841,0.995707,0.65927,0.578358,0.730844,0.243215,1.52036,0.0612865,9.93989,-4.55173,15.4679,22.1143,0.293291,-0.746862,0.200693,1.61064,-0.944257,2.99636,3.18507,0.335708,-0.0450318,0.263833
5287747,1,-1.52649,-0.494598,0.0241824,-2.0646,1.58263,1.64064,0.788069,-1.52229,-0.49312,0.0282824,-2.06032,1.58374,1.64453,0.788728,0.950959,0.626615,0.533929,0.693104,0.254382,1.47631,0.0591754,1.0041,0.66676,0.583451,0.738836,0.244447,1.53375,0.0616437,9.78517,-4.55173,15.3171,21.8405,0.236528,-0.67545,0.272104,1.61454,-0.932326,3.00523,3.20008,0.333617,-0.0430672,0.264323
5287748,1,-1.52551,-0.493952,0.0247402,-2.06388,1.5829,1.64213,0.788126,-1.52128,-0.492446,0.0288709,-2.05958,1.58399,1.64607,0.78879,0.962276,0.623712,0.54115,0.69975,0.261369,1.48412,0.0620473,1.01249,0.67425,0.588544,0.746827,0.24568,1.54714,0.062001,9.70979,-4.30179,15.1624,21.7414,0.129411,-0.560094,0.323374,1.6011,-0.882229,2.99261,3.19408,0.33108,-0.0376289,0.264763
5287749,1,-1.5245,-0.493309,0.0253,-2.06315,1.58315,1.64366,0.788183,-1.52026,-0.491764,0.0294645,-2.05882,1.58424,1.64763,0.788852,0.974314,0.628746,0.541707,0.711975,0.26176,1.50472,0.0604129,1.02088,0.68174,0.593638,0.754819,0.246913,1.56053,0.0623582,9.48365,-3.94473,15.0355,21.6422,0.140398,-0.527135,0.337107,1.57463,-0.790433,2.96506,3.16526,0.327745,-0.0292337,0.265257
5287750,1,-1.52348,-0.492669,0.0258577,-2.06241,1.5834,1.64522,0.788247,-1.51923,-0.491075,0.0300633,-2.05806,1.58449,1.64921,0.788915,0.981757,0.627971,0.547957,0.714865,0.257177,1.51262,0.0614579,1.02927,0.68923,0.598731,0.76281,0.248145,1.57392,0.0627155,9.3567,-3.56784,14.9879,21.5906,0.163286,-0.57932,0.291331,1.54306,-0.661497,2.93413,3.11632,0.323337,-0.0190428,0.265935
5287751,1,-1.52247,-0.491993,0.0264348,-2.06167,1.58366,1.64677,0.788306,-1.51819,-0.490378,0.0306671,-2.05729,1.58473,1.65079,0.788978,0.989086,0.640433,0.554848,0.729447,0.254195,1.5381,0.0596738,1.03766,0.69672,0.603824,0.770801,0.249378,1.58731,0.0630728,9.25752,-3.54007,14.8609,21.5152,0.186174,-0.662633,0.304148,1.51154,-0.508723,2.90636,3.05429,0.317958,-0.00799936,0.266873
5287752,1,-1.52143,-0.491303,0.0270093,-2.06093,1.58391,1.64835,0.788358,-1.51715,-0.489674,0.031276,-2.05651,1.58499,1.6524,0.789041,0.999153,0.665721,0.561192,0.737511,0.252363,1.559,0.0617265,1.04606,0.70421,0.608917,0.778793,0.250611,1.6007,0.06343,9.13057,-3.66702,14.8093,21.6898,0.236528,-0.80454,0.362742,1.48235,-0.365661,2.88375,2.99357,0.31209,0.00293352,0.26805
5287753,1,-1.5204,-0.490604,0.0275945,-2.06016,1.58417,1.64993,0.788418,-1.51609,-0.488962,0.03189,-2.05572,1.58524,1.65401,0.789105,1.03177,0.674182,0.567278,0.74853,0.254063,1.59669,0.0614098,1.05445,0.7117,0.614011,0.786784,0.251843,1.61409,0.0637873,9.00361,-3.94473,14.7062,21.7652,0.298784,-0.991307,0.343516,1.45123,-0.267283,2.86041,2.94931,0.306421,0.0134998,0.269433
5287754,1,-1.51936,-0.489899,0.0281983,-2.0594,1.58444,1.65152,0.788469,-1.51503,-0.488243,0.0325087,-2.05493,1.58549,1.65564,0.789169,1.02859,0.683273,0.574814,0.750813,0.259277,1.60534,0.0578497,1.06176,0.71919,0.618665,0.794616,0.25263,1.62612,0.063974,9.07899,-4.14706,14.5554,22.0389,0.259416,-0.913488,0.407602,1.41257,-0.216332,2.82901,2.9246,0.301359,0.0239568,0.271029
5287755,1,-1.5183,-0.489197,0.0287891,-2.05863,1.5847,1.65316,0.788531,-1.51396,-0.487516,0.033132,-2.05413,1.58574,1.65727,0.789233,1.03318,0.690577,0.59193,0.753425,0.261264,1.6067,0.0594197,1.06907,0.72668,0.623319,0.802448,0.253416,1.63815,0.0641608,9.23372,-4.25021,14.48,22.3365,0.259416,-1.10666,0.362742,1.36811,-0.20213,2.79001,2.91875,0.29702,0.0340701,0.272862
5287756,1,-1.51724,-0.488478,0.0293859,-2.05786,1.58495,1.6548,0.788604,-1.51289,-0.486782,0.03376,-2.05332,1.586,1.65892,0.789298,1.04593,0.69544,0.588906,0.757153,0.260833,1.59955,0.0637758,1.07638,0.73417,0.627973,0.810279,0.254203,1.65017,0.0643476,9.20594,-4.40097,14.5554,22.634,0.310686,-1.35843,0.226328,1.32019,-0.214284,2.74496,2.93091,0.293368,0.0438494,0.274957
5287757,1,-1.51617,-0.487754,0.0299998,-2.05708,1.58522,1.65642,0.78867,-1.5118,-0.486041,0.0343926,-2.0525,1.58625,1.66059,0.789362,1.04558,0.700737,0.592388,0.761482,0.263735,1.60806,0.0644073,1.0837,0.74166,0.632627,0.818111,0.254989,1.6622,0.0645343,9.25752,-4.42477,14.4047,22.8601,0.287798,-1.19089,0.149424,1.27473,-0.239172,2.70295,2.95632,0.290022,0.0525479,0.27724
5287758,1,-1.5151,-0.487021,0.0305951,-2.05628,1.58548,1.65807,0.788749,-1.51071,-0.485291,0.0350299,-2.05167,1.58651,1.66226,0.789427,1.05046,0.706638,0.595173,0.768657,0.257921,1.61287,0.0679836,1.09101,0.74915,0.637281,0.825943,0.255776,1.67422,0.0647211,9.40828,-4.5795,14.4047,22.8601,0.350054,-1.08744,-0.0126246,1.2409,-0.266369,2.67714,2.98983,0.286584,0.0586226,0.279477
5287759,1,-1.51404,-0.486261,0.0311894,-2.05547,1.58572,1.65972,0.788815,-1.50961,-0.484535,0.0356718,-2.05084,1.58676,1.66395,0.789492,1.05643,0.723942,0.589897,0.781788,0.256656,1.63401,0.0693325,1.09832,0.75664,0.641936,0.833774,0.256562,1.68625,0.0649078,9.61061,-4.88101,14.5316,22.6102,0.45717,-1.12681,-0.0254419,1.22526,-0.296746,2.67662,3.02896,0.282874,0.0609303,0.281354
5287760,1,-1.51297,-0.485493,0.0317936,-2.05464,1.58598,1.66141,0.788881,-1.50851,-0.483771,0.0363184,-2.05,1.58702,1.66564,0.789557,1.05341,0.744228,0.592949,0.795214,0.258341,1.64519,0.0700257,1.10563,0.76413,0.64659,0.841606,0.257349,1.69827,0.0650946,9.81294,-5.10715,14.5554,22.2611,0.372942,-1.2678,-0.0190333,1.2343,-0.347288,2.71043,3.07623,0.278869,0.0584015,0.282536
5287761,1,-1.51189,-0.484742,0.0323972,-2.05379,1.58625,1.66307,0.788974,-1.50739,-0.482999,0.0369697,-2.04915,1.58728,1.66735,0.789622,1.06,0.750106,0.596727,0.807516,0.255241,1.65956,0.0776713,1.11294,0.77162,0.651244,0.849438,0.258135,1.7103,0.0652814,9.86055,-5.2103,14.6308,21.8405,0.26491,-1.13962,-0.200308,1.26914,-0.426553,2.77889,3.13124,0.274696,0.0509075,0.282809
5287762,1,-1.5108,-0.483977,0.0330074,-2.05295,1.58652,1.66477,0.789048,-1.50627,-0.48222,0.0376256,-2.04829,1.58754,1.66908,0.789688,1.07132,0.750508,0.59961,0.819198,0.261355,1.6765,0.0792315,1.12026,0.77911,0.655898,0.857269,0.258921,1.72233,0.0654681,9.91212,-5.13492,14.8093,21.543,0.174272,-1.10666,-0.155447,1.32184,-0.512047,2.87032,3.18194,0.270315,0.0398848,0.282066
5287763,1,-1.50972,-0.48322,0.0336234,-2.05209,1.58679,1.66648,0.789131,-1.50515,-0.481433,0.0382861,-2.04742,1.5878,1.67081,0.789753,1.06656,0.752459,0.605523,0.830896,0.265032,1.67745,0.0785945,1.12757,0.7866,0.660552,0.865101,0.259708,1.73435,0.0656549,10.2414,-5.00797,14.7578,21.1939,0.106523,-0.997716,-0.174673,1.38486,-0.571867,2.9742,3.21331,0.265386,0.0269735,0.280199
5287764,1,-1.50865,-0.482446,0.0342593,-2.05123,1.58706,1.6682,0.789198,-1.50401,-0.480639,0.0389509,-2.04655,1.58806,1.67256,0.789819,1.06933,0.753548,0.612285,0.839721,0.267285,1.70214,0.0761621,1.13377,0.79409,0.664763,0.87276,0.260052,1.74497,0.0656631,10.5945,-4.85721,14.7062,20.9955,0.0506761,-0.984899,-0.0190333,1.45612,-0.588865,3.08662,3.21794,0.259587,0.0130361,0.277188
5287765,1,-1.50754,-0.481681,0.0348911,-2.05035,1.58733,1.66995,0.789255,-1.50287,-0.479838,0.0396198,-2.04567,1.58832,1.67431,0.789884,1.07937,0.754557,0.614318,0.85162,0.265723,1.71926,0.0714363,1.13997,0.80158,0.668974,0.880418,0.260395,1.75559,0.0656714,10.5707,-4.75406,14.6586,20.8448,-0.00608656,-0.907079,0.240061,1.53348,-0.557323,3.20368,3.19413,0.252818,-0.0012994,0.27318
5287766,1,-1.50642,-0.480887,0.03552,-2.04947,1.58759,1.6717,0.789316,-1.50173,-0.479029,0.040293,-2.04478,1.58858,1.67608,0.78995,1.09268,0.760905,0.62174,0.855845,0.264979,1.73053,0.0672507,1.14617,0.80907,0.673185,0.888077,0.260739,1.76621,0.0656796,10.1898,-4.78183,14.6308,20.7694,0.0103929,-0.97849,0.407602,1.61061,-0.482177,3.31655,3.14564,0.245234,-0.0148929,0.268574
5287767,1,-1.50526,-0.48009,0.036181,-2.04858,1.58787,1.67348,0.789365,-1.50057,-0.478212,0.0409704,-2.04389,1.58884,1.67786,0.790016,1.11076,0.767679,0.634742,0.866313,0.270726,1.75438,0.0569388,1.15237,0.81656,0.677396,0.895736,0.261083,1.77683,0.0656878,9.66218,-4.73026,14.3531,20.698,-0.000593394,-1.02335,0.634653,1.67587,-0.379772,3.40901,3.08214,0.237334,-0.0259854,0.263997
5287768,1,-1.50409,-0.479295,0.0368519,-2.04769,1.58814,1.67527,0.78942,-1.49942,-0.477388,0.041652,-2.04298,1.5891,1.67964,0.790082,1.12377,0.773184,0.645098,0.866981,0.263784,1.75785,0.0554333,1.15857,0.82405,0.681607,0.903394,0.261427,1.78745,0.0656961,9.13057,-4.65488,13.8215,20.8448,0.0332811,-0.984899,0.712473,1.71704,-0.266471,3.46425,3.01342,0.229731,-0.0329752,0.260149
5287769,1,-1.50296,-0.478496,0.0375419,-2.04679,1.58839,1.67702,0.789478,-1.49825,-0.476556,0.0423379,-2.04207,1.58936,1.68144,0.790147,1.12408,0.775749,0.654874,0.894642,0.266199,1.73315,0.0566355,1.16477,0.83154,0.685819,0.911053,0.261771,1.79807,0.0657043,8.90443,-4.47635,13.3137,20.9201,0.123918,-0.778905,0.718882,1.73048,-0.142749,3.47806,2.93881,0.222479,-0.0352517,0.257702
5287770,1,-1.50181,-0.477678,0.0382367,-2.04588,1.58866,1.67879,0.789529,-1.49708,-0.475717,0.0430279,-2.04115,1.58963,1.68325,0.790213,1.12922,0.794595,0.660675,0.89852,0.26239,1.74139,0.0572371,1.17097,0.83903,0.69003,0.918711,0.262115,1.80869,0.0657125,8.75367,-4.37717,12.6829,20.9955,0.157793,-0.437413,0.72529,1.72243,-0.00987763,3.46014,2.85492,0.215252,-0.0334925,0.257109
5287771,1,-1.50066,-0.476872,0.0389194,-2.04495,1.58894,1.68057,0.789589,-1.4959,-0.474871,0.0437221,-2.04023,1.58989,1.68507,0.790279,1.15559,0.795428,0.668078,0.904408,0.271897,1.77561,0.0575062,1.17718,0.84652,0.694241,0.92637,0.262458,1.81932,0.0657208,8.52357,-4.30179,12.3298,21.0709,0.0726488,-0.10233,0.601694,1.69772,0.114202,3.41803,2.7715,0.208287,-0.0285519,0.258467
5287772,1,-1.49947,-0.476037,0.0396178,-2.04404,1.58923,1.68236,0.78963,-1.49472,-0.474017,0.0444206,-2.03929,1.59015,1.6869,0.790344,1.16321,0.802842,0.674436,0.908452,0.27887,1.79554,0.0517541,1.18338,0.85401,0.698452,0.934029,0.262802,1.82994,0.065729,8.0951,-4.32559,12.1512,21.1939,-0.0115797,-0.0382434,0.628245,1.65587,0.223417,3.35194,2.69662,0.201975,-0.0203984,0.261592
5287773,1,-1.49827,-0.475196,0.0403209,-2.04311,1.58952,1.68419,0.78968,-1.49353,-0.473155,0.0451232,-2.03835,1.59041,1.68874,0.79041,1.17353,0.81607,0.696137,0.911452,0.284194,1.80363,0.0502631,1.18958,0.8615,0.702663,0.941687,0.263146,1.84056,0.0657373,7.71821,-4.55173,12.0997,21.416,-0.10771,-0.212194,0.57606,1.59578,0.313938,3.25949,2.63569,0.196521,-0.00845082,0.266166
5287774,1,-1.49711,-0.474335,0.0410223,-2.04217,1.58979,1.68602,0.789744,-1.49233,-0.472286,0.0458297,-2.0374,1.59068,1.69059,0.790476,1.16747,0.824935,0.697208,0.916135,0.287165,1.79176,0.055187,1.19466,0.86899,0.706429,0.949162,0.263057,1.84975,0.0655616,7.71821,-4.73026,12.0759,21.5668,-0.0454542,-0.475866,0.356333,1.52031,0.37258,3.14334,2.59709,0.191914,0.00731652,0.271856
5287775,1,-1.49593,-0.473468,0.0417417,-2.04124,1.59007,1.68786,0.78981,-1.49113,-0.47141,0.0465399,-2.03645,1.59094,1.69245,0.790541,1.16719,0.835139,0.697161,0.919533,0.286968,1.81134,0.0579733,1.19974,0.87648,0.710195,0.956636,0.262968,1.85894,0.065386,7.94435,-4.98416,11.9489,21.6144,-0.0344679,-0.649816,0.143015,1.44517,0.394888,3.02617,2.5834,0.187506,0.0245754,0.27825
5287776,1,-1.49472,-0.472609,0.0424598,-2.04029,1.59034,1.68974,0.789902,-1.48993,-0.470526,0.0472538,-2.03548,1.5912,1.69432,0.790606,1.16972,0.837437,0.699146,0.919221,0.278149,1.82949,0.0708977,1.20481,0.88397,0.713961,0.964111,0.262879,1.86814,0.0652104,7.86897,-5.10715,11.7704,21.6898,0.0726488,-0.759679,-0.246084,1.38703,0.386028,2.9328,2.59285,0.182725,0.0401492,0.284741
5287777,1,-1.49352,-0.471742,0.0431754,-2.03935,1.59062,1.69159,0.789975,-1.48872,-0.469634,0.0479716,-2.03451,1.59147,1.69619,0.790671,1.18138,0.842372,0.696829,0.927471,0.277666,1.84215,0.0702146,1.20989,0.89146,0.717727,0.971585,0.262791,1.87733,0.0650347,7.74202,-5.08334,11.695,21.6422,0.0222948,-0.952855,-0.381582,1.34997,0.360688,2.87009,2.61864,0.17744,0.0525845,0.290547
5287778,1,-1.4923,-0.470853,0.0439057,-2.03839,1.59088,1.69353,0.790045,-1.48751,-0.468736,0.048693,-2.03353,1.59173,1.69808,0.790736,1.18359,0.861964,0.705868,0.936761,0.272731,1.8738,0.0747061,1.21497,0.89895,0.721494,0.97906,0.262702,1.88653,0.0648591,7.51588,-5.08334,11.4927,21.5668,0.0900438,-1.64774,-0.400808,1.33077,0.323663,2.83411,2.65516,0.171797,0.0615225,0.294818
5287779,1,-1.49108,-0.469983,0.0446127,-2.0374,1.59115,1.6954,0.790116,-1.48629,-0.467829,0.0494183,-2.03254,1.59199,1.69998,0.790801,1.19861,0.861323,0.707914,0.951894,0.275471,1.87266,0.0728828,1.22005,0.90644,0.72526,0.986534,0.262613,1.89572,0.0646834,7.34132,-5.00797,11.4689,21.2931,0.118425,-1.72556,-0.381582,1.32207,0.275225,2.81445,2.69698,0.166029,0.067061,0.296921
5287780,1,-1.48986,-0.469097,0.0453197,-2.03643,1.59141,1.69728,0.790167,-1.48506,-0.466915,0.0501473,-2.03155,1.59225,1.70188,0.790865,1.20128,0.864551,0.709032,0.964747,0.274647,1.88329,0.067572,1.22513,0.91393,0.729026,0.994009,0.262524,1.90492,0.0645078,7.31355,-4.88101,11.5443,21.0193,0.225542,-1.46738,-0.103262,1.31712,0.239086,2.80267,2.72851,0.160013,0.0693812,0.296634
5287781,1,-1.48865,-0.468199,0.0460212,-2.03544,1.59168,1.69914,0.790231,-1.48383,-0.465994,0.0508801,-2.03055,1.59252,1.70379,0.79093,1.20062,0.875359,0.708017,0.968446,0.271084,1.85858,0.0666992,1.23021,0.92142,0.732792,1.00148,0.262435,1.91411,0.0643322,7.69441,-4.98416,11.6712,20.7972,0.293291,-0.933629,0.110056,1.31717,0.22865,2.80142,2.74242,0.153607,0.0680651,0.294139
5287782,1,-1.48748,-0.467306,0.0467343,-2.03447,1.59194,1.701,0.790298,-1.48259,-0.465065,0.0516167,-2.02954,1.59278,1.70572,0.790994,1.18664,0.869824,0.711168,0.968706,0.271115,1.88082,0.0628709,1.23529,0.92891,0.736559,1.00896,0.262346,1.9233,0.0641565,8.24983,-4.80563,11.7466,20.8963,0.287798,-0.681859,0.291331,1.33065,0.237773,2.82133,2.74514,0.146961,0.0624302,0.290001
5287783,0.99,-1.48626,-0.466406,0.0474516,-2.03348,1.59223,1.70291,0.790362,-1.48135,-0.464128,0.052357,-2.02852,1.59304,1.70765,0.791058,1.19229,0.87736,0.708046,0.976272,0.275846,1.88341,0.0642284,1.24037,0.9364,0.740325,1.01643,0.262257,1.9325,0.0639809,8.47596,-4.73026,11.9489,21.0709,0.0616625,-0.553685,0.49824,1.36555,0.268019,2.87172,2.73946,0.140201,0.0523857,0.285001
5287784,0.99,-1.48503,-0.465476,0.0481549,-2.03249,1.59252,1.70481,0.790434,-1.48011,-0.463185,0.0531007,-2.0275,1.5933,1.70959,0.791121,1.22421,0.887349,0.701965,0.980484,0.281877,1.89427,0.0670291,1.24433,0.94389,0.743646,1.02371,0.261751,1.94026,0.0636174,8.37281,-4.90482,12.2028,21.4438,-0.164473,-0.604955,0.537607,1.41688,0.312524,2.94613,2.72885,0.133489,0.0397794,0.279962
5287785,0.99,-1.4838,-0.464526,0.0488754,-2.0315,1.59282,1.70675,0.790505,-1.47886,-0.462233,0.0538476,-2.02647,1.59356,1.71154,0.791185,1.22786,0.900392,0.700404,0.979885,0.291593,1.92205,0.069047,1.2483,0.95138,0.746968,1.03099,0.261245,1.94803,0.0632539,8.44819,-5.15872,12.4052,21.789,-0.413496,-0.636998,0.563242,1.4736,0.348298,3.03069,2.72476,0.126953,0.0268808,0.275588
5287786,0.99,-1.48258,-0.46359,0.0495958,-2.03049,1.59308,1.70871,0.790572,-1.47761,-0.461274,0.0545979,-2.02543,1.59383,1.71349,0.791248,1.2109,0.90959,0.704639,0.98188,0.281896,1.92324,0.067233,1.25226,0.95887,0.750289,1.03828,0.260739,1.95579,0.0628903,8.80128,-5.36105,12.429,22.0905,-0.345747,-0.766088,0.550425,1.53881,0.354091,3.12792,2.73954,0.120303,0.0134765,0.272338
5287787,0.99,-1.48137,-0.462631,0.0503193,-2.02948,1.59335,1.71065,0.790637,-1.47635,-0.460308,0.0553515,-2.02439,1.59409,1.71546,0.79131,1.22424,0.921681,0.712185,0.99708,0.272609,1.90625,0.0676378,1.25623,0.96636,0.753611,1.04556,0.260233,1.96356,0.0625268,8.90443,-5.51181,12.5321,22.0389,-0.20384,-0.875035,0.479014,1.61503,0.32618,3.23821,2.77435,0.113109,-0.000462221,0.270491
5287788,0.99,-1.48012,-0.461679,0.0510669,-2.02843,1.5936,1.7126,0.790706,-1.47509,-0.459334,0.0561085,-2.02333,1.59435,1.71743,0.791372,1.22416,0.955197,0.719049,1.00951,0.268689,1.91253,0.0640718,1.26019,0.97385,0.756932,1.05284,0.259726,1.97132,0.0621633,8.6783,-5.63876,12.302,21.789,0.00489977,-0.772496,0.375559,1.69173,0.256049,3.34535,2.8281,0.105482,-0.0132972,0.270131
5287789,0.99,-1.47883,-0.460724,0.0518054,-2.02737,1.59387,1.71456,0.790771,-1.47383,-0.458353,0.0568687,-2.02227,1.5946,1.71941,0.791434,1.24097,0.947453,0.727997,1.02487,0.270556,1.92064,0.0699697,1.26415,0.98134,0.760254,1.06012,0.25922,1.97909,0.0617997,8.0713,-5.51181,12.0243,21.3446,0.10103,-0.546361,0.284922,1.75796,0.142661,3.43383,2.89643,0.0978383,-0.0237259,0.271078
5287790,0.99,-1.47756,-0.459739,0.0525692,-2.02631,1.59414,1.7165,0.790832,-1.47256,-0.457364,0.0576323,-2.0212,1.59486,1.7214,0.791496,1.24901,0.954091,0.733668,1.03275,0.26829,1.94584,0.0686651,1.26812,0.98883,0.763575,1.0674,0.258714,1.98685,0.0614362,7.28975,-5.56339,11.5681,20.8963,0.163286,-0.469457,0.213511,1.80531,0.0262882,3.49336,2.95947,0.0904575,-0.0307079,0.272974
5287791,0.99,-1.47629,-0.458766,0.05335,-2.02523,1.5944,1.71848,0.790896,-1.47129,-0.456368,0.0583992,-2.02013,1.59512,1.72339,0.791557,1.25332,0.958856,0.75971,1.04613,0.270759,1.95547,0.068733,1.27208,0.99632,0.766897,1.07468,0.258208,1.99462,0.0610727,6.98823,-5.58719,10.9611,20.4996,0.118425,-0.450231,0.116465,1.82598,-0.0606732,3.51393,3.0029,0.0838245,-0.0331857,0.275402
5287792,0.99,-1.47504,-0.457791,0.0541365,-2.02414,1.59469,1.72043,0.790966,-1.47001,-0.455364,0.0591694,-2.01905,1.59538,1.72539,0.791617,1.25033,0.960206,0.771747,1.05874,0.278468,1.93114,0.0688693,1.27605,1.00381,0.770218,1.08196,0.257702,2.00238,0.0607092,6.96046,-5.33725,10.3025,20.1743,-0.102217,-0.373326,0.0130102,1.81353,-0.106892,3.48606,3.02126,0.0783705,-0.0300161,0.277962
5287793,0.99,-1.47376,-0.456786,0.0548993,-2.02306,1.59497,1.72241,0.791038,-1.46873,-0.454352,0.0599429,-2.01796,1.59564,1.7274,0.791678,1.25942,0.97321,0.764222,1.06571,0.28189,1.94649,0.0683814,1.28001,1.0113,0.77354,1.08924,0.257195,2.01015,0.0603456,6.68275,-5.38882,10.1755,19.9244,-0.266096,-0.160009,-0.077627,1.77491,-0.112226,3.42054,3.01413,0.0737426,-0.0218759,0.280253
