shamilmamedov/beam_handling/log/param_estimation_ICRA/ocp_Xdown_25cm_0.44s_2.csv
duration, success rate, q[0], q[1], q[2], q[3], q[4], q[5], q[6],q_d[0], q_d[1], q_d[2], q_d[3], q_d[4], q_d[5], q_d[6],dq[0], dq[1], dq[2], dq[3], dq[4], dq[5], dq[6],dq_d[0], dq_d[1], dq_d[2], dq_d[3], dq_d[4], dq_d[5], dq_d[6],tau_J[0], tau_J[1], tau_J[2], tau_J[3], tau_J[4], tau_J[5], tau_J[6],tau_ext_hat_filtered[0], tau_ext_hat_filtered[1], tau_ext_hat_filtered[2], tau_ext_hat_filtered[3], tau_ext_hat_filtered[4], tau_ext_hat_filtered[5], tau_ext_hat_filtered[6]
2574759,0,-1.5707,-0.522802,-0.000302664,-2.09593,-1.57059,1.57148,0.7855,-1.5708,-0.523599,-7.17481e-08,-2.09439,-1.5708,1.5708,0.785399,-0.000983838,0.000856204,0.000927276,-0.000516497,-0.000430844,0.000424242,-0.00131946,0,0,0,0,0,0,0,-0.0497324,-10.2646,0.578677,20.9201,-0.837385,-0.553685,-0.0968531,-0.0866177,-1.11218,0.449375,2.35947,-0.283973,-0.543453,-0.162918
2574760,1,-1.5707,-0.522802,-0.000304613,-2.09593,-1.57059,1.57148,0.7855,-1.5708,-0.523599,-7.17481e-08,-2.09439,-1.5708,1.5708,0.785399,-0.000655892,0.000570803,-3.14297e-05,0.000769293,-8.37785e-05,1.15609e-05,-0.000879641,0,0,0,0,0,0,0,-0.0497324,-10.2646,0.606448,20.8725,-0.842879,-0.546361,-0.0968531,-0.0866957,-1.11162,0.448916,2.35932,-0.283943,-0.543472,-0.163144
2574761,1,-1.5707,-0.522802,-0.000306283,-2.09593,-1.57059,1.57148,0.7855,-1.5708,-0.523599,-7.17481e-08,-2.09439,-1.5708,1.5708,0.785399,0.000212352,0.000380535,-0.000577765,0.000512862,-5.58523e-05,7.70729e-06,-0.000586427,0,0,0,0,0,0,0,-0.0775034,-10.2646,0.630252,20.8725,-0.842879,-0.546361,-0.0968531,-0.0860953,-1.11295,0.449434,2.35984,-0.283905,-0.543424,-0.163345
2574762,1,-1.5707,-0.522802,-0.000302664,-2.09593,-1.57059,1.57148,0.785504,-1.5708,-0.523599,-7.17481e-08,-2.09439,-1.5708,1.5708,0.785399,0.00069838,0.00025369,0.000821249,-0.000214904,0.000607025,-0.000232221,0.0010332,0,0,0,0,0,0,0,-0.101307,-10.2646,0.578677,20.8963,-0.860274,-0.539952,-0.135305,-0.0854904,-1.11468,0.450028,2.36043,-0.283858,-0.543388,-0.163488
2574763,1,-1.5707,-0.522803,-0.000308232,-2.09593,-1.57059,1.57148,0.785506,-1.5708,-0.523599,-7.17481e-08,-2.09439,-1.5708,1.5708,0.785399,0.0010224,-0.000387685,-0.00130854,0.000413543,-0.000239577,8.25451e-05,0.00119743,0,0,0,0,0,0,0,-0.125111,-10.2408,0.658023,20.8725,-0.842879,-0.546361,-0.149038,-0.0854256,-1.1161,0.449957,2.36101,-0.283828,-0.543427,-0.163576
2574764,1,-1.5707,-0.522805,-0.000304613,-2.09593,-1.57059,1.57148,0.785503,-1.5708,-0.523599,-7.17481e-08,-2.09439,-1.5708,1.5708,0.785399,-0.000432025,-0.000908071,0.000334066,-0.000281117,-0.000159718,5.50301e-05,-0.000185059,0,0,0,0,0,0,0,-0.0775034,-10.213,0.606448,20.8963,-0.842879,-0.546361,-0.122488,-0.0852592,-1.11585,0.450141,2.36095,-0.28378,-0.543423,-0.163651
2574765,1,-1.5707,-0.522802,-0.000306283,-2.09593,-1.57059,1.57148,0.785503,-1.5708,-0.523599,-7.17481e-08,-2.09439,-1.5708,1.5708,0.785399,0.000825607,0.000601045,-0.000334102,0.00101901,9.6972e-05,-0.000200672,-0.000123373,0,0,0,0,0,0,0,-0.125111,-10.2646,0.630252,20.8448,-0.848372,-0.539952,-0.122488,-0.0849129,-1.11438,0.45061,2.36028,-0.283707,-0.54337,-0.16375
2574766,1,-1.5707,-0.522802,-0.000304613,-2.09593,-1.57059,1.57148,0.785504,-1.5708,-0.523599,-7.17481e-08,-2.09439,-1.5708,1.5708,0.785399,0.000550405,0.000400697,0.000334078,0.000679343,0.000505457,0.000612204,0.000392469,0,0,0,0,0,0,0,-0.125111,-10.2646,0.606448,20.8448,-0.860274,-0.560094,-0.135305,-0.085011,-1.11357,0.45053,2.35954,-0.283641,-0.543388,-0.163874
2574767,1,-1.5707,-0.522803,-0.000304613,-2.09593,-1.57059,1.57148,0.785501,-1.5708,-0.523599,-7.17481e-08,-2.09439,-1.5708,1.5708,0.785399,-0.000189875,-0.000289681,0.000222718,-0.000196719,-0.000510739,-0.000337849,-0.000925148,0,0,0,0,0,0,0,-0.101307,-10.2408,0.606448,20.8725,-0.837385,-0.539952,-0.103262,-0.0855613,-1.11358,0.449893,2.35895,-0.283599,-0.543478,-0.164016
2574768,1,-1.5707,-0.522803,-0.000308232,-2.09593,-1.57059,1.57148,0.7855,-1.5708,-0.523599,-7.17481e-08,-2.09439,-1.5708,1.5708,0.785399,-0.000126584,-0.00019312,-0.00105795,-0.000687958,-0.000137042,1.2126e-05,-0.000854125,0,0,0,0,0,0,0,-0.101307,-10.2408,0.658023,20.8963,-0.842879,-0.546361,-0.0968531,-0.0857146,-1.11375,0.449885,2.35881,-0.283576,-0.543502,-0.164165
2574769,1,-1.5707,-0.522803,-0.000308232,-2.09593,-1.57059,1.57148,0.785504,-1.5708,-0.523599,-7.17481e-08,-2.09439,-1.5708,1.5708,0.785399,-0.000641201,-0.000128747,-0.000705298,-0.00101545,-9.13614e-05,8.084e-06,0.000854737,0,0,0,0,0,0,0,-0.0775034,-10.2408,0.658023,20.9201,-0.842879,-0.546361,-0.135305,-0.0847634,-1.11436,0.451609,2.35949,-0.283556,-0.543353,-0.16429
2574770,1,-1.5707,-0.522802,-0.000306283,-2.09593,-1.57059,1.57148,0.785501,-1.5708,-0.523599,-7.17481e-08,-2.09439,-1.5708,1.5708,0.785399,-0.000427467,0.000470981,0.000179415,-0.000120155,-0.000264358,5.38934e-06,-0.000379611,0,0,0,0,0,0,0,-0.0775034,-10.2646,0.630252,20.8963,-0.837385,-0.546361,-0.10967,-0.083232,-1.11585,0.454256,2.36092,-0.283542,-0.543122,-0.164377
2574771,1,-1.5707,-0.522803,-0.000304613,-2.09593,-1.57059,1.57148,0.785507,-1.5708,-0.523599,-7.17481e-08,-2.09439,-1.5708,1.5708,0.785399,0.000271834,-0.000242825,0.000676422,0.000476709,0.000230662,-0.000233766,0.00144235,0,0,0,0,0,0,0,-0.101307,-10.2408,0.606448,20.8725,-0.848372,-0.539952,-0.155447,-0.0823566,-1.11747,0.455911,2.36216,-0.283529,-0.542999,-0.164442
2574772,1,-1.5707,-0.522803,-0.000306283,-2.09593,-1.57059,1.57148,0.785502,-1.5708,-0.523599,-7.17481e-08,-2.09439,-1.5708,1.5708,0.785399,-0.000375589,-0.000161883,-0.000105864,-0.000239006,0.000391134,8.15149e-05,-0.000496497,0,0,0,0,0,0,0,-0.0775034,-10.2408,0.630252,20.8963,-0.85478,-0.546361,-0.116079,-0.082418,-1.11806,0.456139,2.36252,-0.283497,-0.543011,-0.164512
2574773,1,-1.5707,-0.522802,-0.000304613,-2.09594,-1.57059,1.57148,0.785504,-1.5708,-0.523599,-7.17481e-08,-2.09439,-1.5708,1.5708,0.785399,-0.000250393,0.00044889,0.000486236,-0.00127296,0.000260756,5.43433e-05,0.00014372,0,0,0,0,0,0,0,-0.0775034,-10.2646,0.606448,20.9439,-0.85478,-0.546361,-0.128897,-0.082782,-1.11869,0.455889,2.363,-0.283478,-0.543066,-0.164603
2574774,1,-1.5707,-0.522803,-0.000306283,-2.09593,-1.57059,1.57148,0.7855,-1.5708,-0.523599,-7.17481e-08,-2.09439,-1.5708,1.5708,0.785399,0.000946695,-0.000257552,-0.000232655,-0.000291829,-0.000470423,0.000307496,-0.00109098,0,0,0,0,0,0,0,-0.125111,-10.2408,0.630252,20.9201,-0.837385,-0.553685,-0.0968531,-0.0834048,-1.12034,0.455299,2.36433,-0.283504,-0.543172,-0.164714
2574775,1,-1.5707,-0.522802,-0.000304613,-2.09593,-1.57059,1.57148,0.785501,-1.5708,-0.523599,-7.17481e-08,-2.09439,-1.5708,1.5708,0.785399,7.43182e-05,0.000385111,0.000401709,0.00156869,9.32859e-05,-6.62699e-05,-0.000489962,0,0,0,0,0,0,0,-0.101307,-10.2646,0.606448,20.8448,-0.848372,-0.546361,-0.103262,-0.0844403,-1.12142,0.454182,2.36508,-0.28352,-0.543342,-0.16483
2574776,1,-1.5707,-0.522802,-0.000306283,-2.09593,-1.57059,1.57148,0.785501,-1.5708,-0.523599,-7.17481e-08,-2.09439,-1.5708,1.5708,0.785399,4.95455e-05,0.00025674,-0.000289006,-0.000160636,-0.00034471,-4.41799e-05,-8.92825e-05,0,0,0,0,0,0,0,-0.101307,-10.2646,0.630252,20.8963,-0.837385,-0.546361,-0.10967,-0.0854796,-1.12148,0.453077,2.36462,-0.283483,-0.543514,-0.164925
2574777,1,-1.5707,-0.522802,-0.000308232,-2.09593,-1.57059,1.57148,0.785501,-1.5708,-0.523599,-7.17481e-08,-2.09439,-1.5708,1.5708,0.785399,3.30303e-05,0.00017116,-0.000842285,0.000449721,-2.63564e-05,0.000241814,-0.000296881,0,0,0,0,0,0,0,-0.101307,-10.2646,0.658023,20.8725,-0.842879,-0.553685,-0.103262,-0.0859129,-1.12152,0.452907,2.36392,-0.283413,-0.543599,-0.164974
2574778,0.99,-1.5707,-0.522807,-0.000306283,-2.09593,-1.57059,1.57148,0.785504,-1.5708,-0.523599,-7.17481e-08,-2.09439,-1.5708,1.5708,0.785399,-0.000534792,-0.00164913,8.80909e-05,0.000299814,0.000423238,-0.000110058,0.000988874,0,0,0,0,0,0,0,-0.0775034,-10.1892,0.630252,20.8725,-0.85478,-0.546361,-0.135305,-0.0856109,-1.12019,0.453825,2.36265,-0.283297,-0.54356,-0.164979
2574779,0.99,-1.57071,-0.5228,-0.000306283,-2.09593,-1.57059,1.57148,0.785504,-1.5708,-0.523599,-7.17481e-08,-2.09439,-1.5708,1.5708,0.785399,-0.00100614,0.00131343,5.87272e-05,-0.000356936,0.000282159,-7.3372e-05,0.00065925,0,0,0,0,0,0,0,-0.0497324,-10.2924,0.630252,20.8963,-0.85478,-0.546361,-0.135305,-0.0849143,-1.1177,0.455191,2.36101,-0.283162,-0.543454,-0.164952
2574780,0.99,-1.5707,-0.522803,-0.000306283,-2.09594,-1.57059,1.57148,0.7855,-1.5708,-0.523599,-7.17481e-08,-2.09439,-1.5708,1.5708,0.785399,0.000535665,-0.000330805,3.91515e-05,-0.0020012,-4.92529e-05,-4.89147e-05,-0.000984654,0,0,0,0,0,0,0,-0.101307,-10.2408,0.630252,20.9717,-0.848372,-0.546361,-0.0968531,-0.0843112,-1.11759,0.456367,2.36109,-0.28311,-0.543396,-0.164913
2574781,0.99,-1.5707,-0.522802,-0.000308414,-2.09593,-1.57059,1.57149,0.785501,-1.5708,-0.523599,-7.17481e-08,-2.09439,-1.5708,1.5708,0.785399,-0.000199702,0.000336275,2.6101e-05,-0.000127704,-3.28353e-05,0.000238658,-0.000419077,0,0,0,0,0,0,0,-0.0775034,-10.2646,0.630252,20.9201,-0.848372,-0.553685,-0.103262,-0.0841995,-1.11973,0.45688,2.36294,-0.283155,-0.543441,-0.164878
2574782,0.99,-1.5707,-0.522802,-0.000306993,-2.09593,-1.57059,1.57148,0.7855,-1.5708,-0.523599,-7.17481e-08,-2.09439,-1.5708,1.5708,0.785399,0.000980489,0.000224183,1.74007e-05,0.000471676,-2.18902e-05,-0.000112162,-0.000516744,0,0,0,0,0,0,0,-0.125111,-10.2646,0.630252,20.8963,-0.848372,-0.546361,-0.0968531,-0.0846266,-1.12181,0.456651,2.36465,-0.283215,-0.543577,-0.164836
2574783,0.99,-1.5707,-0.522803,-0.00030485,-2.09593,-1.57059,1.57148,0.7855,-1.5708,-0.523599,-7.17481e-08,-2.09439,-1.5708,1.5708,0.785399,-0.000459964,-0.000407356,0.000568412,-0.000242361,-0.000218044,-0.000312134,-0.000344496,0,0,0,0,0,0,0,-0.0775034,-10.2408,0.606448,20.9201,-0.842879,-0.539952,-0.0968531,-0.0854949,-1.1228,0.455767,2.36536,-0.283253,-0.543777,-0.164766
2574784,0.99,-1.5707,-0.522802,-0.000301072,-2.09593,-1.57059,1.57149,0.785505,-1.5708,-0.523599,-7.17481e-08,-2.09439,-1.5708,1.5708,0.785399,-0.000306643,0.000285241,0.00158537,0.000395238,-0.000145363,0.000300537,0.00143185,0,0,0,0,0,0,0,-0.0775034,-10.2646,0.554873,20.8963,-0.842879,-0.553685,-0.141714,-0.0867902,-1.12265,0.454071,2.36531,-0.28328,-0.544032,-0.164653
2574785,0.99,-1.57071,-0.522803,-0.000308258,-2.09593,-1.57059,1.57148,0.785501,-1.5708,-0.523599,-7.17481e-08,-2.09439,-1.5708,1.5708,0.785399,-0.000854043,-0.000366651,-0.00135594,0.00146992,0.000106542,0.000437717,-0.000232229,0,0,0,0,0,0,0,-0.0497324,-10.2408,0.658023,20.8448,-0.848372,-0.560094,-0.10967,-0.0877857,-1.12141,0.45258,2.36434,-0.283261,-0.544239,-0.164513
2574786,0.99,-1.5707,-0.522802,-0.000304622,-2.09593,-1.57059,1.57148,0.785505,-1.5708,-0.523599,-7.17481e-08,-2.09439,-1.5708,1.5708,0.785399,0.000637064,0.000312378,0.000302466,-0.000226481,-0.000335873,-0.000454174,0.00103198,0,0,0,0,0,0,0,-0.101307,-10.2646,0.606448,20.8963,-0.837385,-0.539952,-0.141714,-0.0877472,-1.11939,0.45255,2.3626,-0.283174,-0.544295,-0.164376
2574787,0.99,-1.5707,-0.522802,-0.000302667,-2.09593,-1.57059,1.57148,0.785504,-1.5708,-0.523599,-7.17481e-08,-2.09439,-1.5708,1.5708,0.785399,0.000424709,0.000208252,0.000851258,-0.000150987,0.000182986,-6.54237e-05,0.000213266,0,0,0,0,0,0,0,-0.101307,-10.2646,0.578677,20.8963,-0.848372,-0.546361,-0.128897,-0.0878486,-1.11827,0.452353,2.36147,-0.283109,-0.544389,-0.164261
2574788,0.99,-1.5707,-0.522807,-0.000306284,-2.09593,-1.57059,1.57148,0.785503,-1.5708,-0.523599,-7.17481e-08,-2.09439,-1.5708,1.5708,0.785399,-0.000273672,-0.0016244,-0.000638921,-0.000100658,0.00012199,-0.000518334,-9.51818e-05,0,0,0,0,0,0,0,-0.0775034,-10.1892,0.630252,20.8963,-0.848372,-0.533544,-0.122488,-0.0884266,-1.11721,0.451411,2.3608,-0.283071,-0.544546,-0.164187
2574789,0.99,-1.5707,-0.522805,-0.000306284,-2.09594,-1.57059,1.57148,0.785505,-1.5708,-0.523599,-7.17481e-08,-2.09439,-1.5708,1.5708,0.785399,-0.000832062,-0.000526124,-0.000425947,-0.00183034,-0.000122124,0.000129162,0.000648622,0,0,0,0,0,0,0,-0.0497324,-10.213,0.630252,20.9717,-0.842879,-0.546361,-0.141714,-0.0880988,-1.11472,0.451691,2.3601,-0.283008,-0.544528,-0.164166
2574790,0.99,-1.5707,-0.522802,-0.000306283,-2.09593,-1.57059,1.57148,0.7855,-1.5708,-0.523599,-7.17481e-08,-2.09439,-1.5708,1.5708,0.785399,9.49058e-05,0.000855677,-0.000283965,-1.38029e-05,0.000122035,8.61081e-05,-0.0012291,0,0,0,0,0,0,0,-0.0775034,-10.2646,0.630252,20.9201,-0.848372,-0.546361,-0.0968531,-0.0868699,-1.11339,0.453259,2.36058,-0.28296,-0.54437,-0.164188
2574791,0.99,-1.5707,-0.522803,-0.000310363,-2.09593,-1.57059,1.57148,0.785503,-1.5708,-0.523599,-7.17481e-08,-2.09439,-1.5708,1.5708,0.785399,6.32706e-05,1.36393e-05,-0.000838924,0.00110442,8.13566e-05,-0.000179954,0.000130037,0,0,0,0,0,0,0,-0.0775034,-10.2408,0.658023,20.8725,-0.848372,-0.539952,-0.122488,-0.0855092,-1.11408,0.455088,2.36171,-0.282922,-0.544211,-0.164244
2574792,0.99,-1.5707,-0.522802,-0.000306993,-2.09593,-1.57059,1.57148,0.785502,-1.5708,-0.523599,-7.17481e-08,-2.09439,-1.5708,1.5708,0.785399,0.000598992,0.000565905,9.03314e-05,0.000736281,5.42377e-05,-0.000119969,-0.000150667,0,0,0,0,0,0,0,-0.101307,-10.2646,0.630252,20.8725,-0.848372,-0.539952,-0.116079,-0.0844353,-1.11484,0.456579,2.36202,-0.282852,-0.544096,-0.164316
2574793,0.99,-1.5707,-0.5228,-0.00030485,-2.09593,-1.57059,1.57148,0.785499,-1.5708,-0.523599,-7.17481e-08,-2.09439,-1.5708,1.5708,0.785399,-0.000807098,0.00102688,0.000617033,0.000490854,3.61585e-05,0.00015738,-0.00104988,0,0,0,0,0,0,0,-0.0497324,-10.2924,0.606448,20.8725,-0.848372,-0.546361,-0.0904444,-0.0840328,-1.11609,0.45708,2.362,-0.282792,-0.544082,-0.164385
2574794,0.99,-1.5707,-0.522805,-0.000306362,-2.09593,-1.57059,1.57148,0.7855,-1.5708,-0.523599,-7.17481e-08,-2.09439,-1.5708,1.5708,0.785399,0.000668361,-0.00117145,-0.000145457,-0.000786388,-0.000586246,0.00010492,-0.000462562,0,0,0,0,0,0,0,-0.101307,-10.213,0.630252,20.9201,-0.831892,-0.546361,-0.0968531,-0.0841921,-1.11767,0.456672,2.36224,-0.282766,-0.544149,-0.164432
2574795,0.99,-1.5707,-0.522803,-0.000304639,-2.09593,-1.57059,1.57148,0.785504,-1.5708,-0.523599,-7.17481e-08,-2.09439,-1.5708,1.5708,0.785399,0.000445574,-0.000131353,0.000459841,-0.00108107,0.00045688,0.000578573,0.00111578,0,0,0,0,0,0,0,-0.101307,-10.2408,0.606448,20.9439,-0.85478,-0.560094,-0.135305,-0.084816,-1.1182,0.455575,2.3627,-0.282769,-0.544263,-0.164433
2574796,0.99,-1.5707,-0.522805,-0.000308241,-2.09593,-1.57059,1.57148,0.785504,-1.5708,-0.523599,-7.17481e-08,-2.09439,-1.5708,1.5708,0.785399,0.000853861,-0.000737183,-0.000899865,0.000949722,-0.000136223,-0.00036027,0.000743853,0,0,0,0,0,0,0,-0.125111,-10.213,0.658023,20.8725,-0.842879,-0.539952,-0.135305,-0.0857249,-1.11752,0.454171,2.363,-0.282774,-0.544402,-0.164392
2574797,0.99,-1.5707,-0.522802,-0.000304616,-2.09593,-1.57059,1.57148,0.785503,-1.5708,-0.523599,-7.17481e-08,-2.09439,-1.5708,1.5708,0.785399,1.24288e-05,0.000714971,0.000606516,7.63362e-05,0.000112635,-2.8211e-06,2.1184e-05,0,0,0,0,0,0,0,-0.101307,-10.2646,0.606448,20.8963,-0.848372,-0.546361,-0.122488,-0.0865116,-1.1162,0.453078,2.36267,-0.282747,-0.544518,-0.164346
2574798,0.99,-1.5707,-0.522803,-0.000304614,-2.09593,-1.57059,1.57148,0.785504,-1.5708,-0.523599,-7.17481e-08,-2.09439,-1.5708,1.5708,0.785399,-0.000548526,-8.01648e-05,0.000404344,-0.000505921,-0.00012836,-1.88073e-06,0.000488841,0,0,0,0,0,0,0,-0.0775034,-10.2408,0.606448,20.9201,-0.842879,-0.546361,-0.135305,-0.087216,-1.1158,0.452124,2.3626,-0.282726,-0.544631,-0.16432
2574799,0.99,-1.57071,-0.522802,-0.000304613,-2.09593,-1.57059,1.57148,0.785504,-1.5708,-0.523599,-7.17481e-08,-2.09439,-1.5708,1.5708,0.785399,-0.0010153,0.000503369,0.000269563,0.00142596,-8.55736e-05,-1.25382e-06,8.85348e-05,0,0,0,0,0,0,0,-0.0497324,-10.2646,0.606448,20.8448,-0.842879,-0.546361,-0.128897,-0.0875805,-1.11627,0.45154,2.36283,-0.282709,-0.544705,-0.164324
2574800,0.99,-1.5707,-0.5228,-0.000306283,-2.09593,-1.57059,1.57148,0.785499,-1.5708,-0.523599,-7.17481e-08,-2.09439,-1.5708,1.5708,0.785399,-2.72514e-05,0.000985193,-0.000377104,-0.000255788,-5.7049e-05,-0.000712913,-0.00160249,0,0,0,0,0,0,0,-0.0775034,-10.2924,0.630252,20.8963,-0.842879,-0.527135,-0.0840357,-0.0872692,-1.1173,0.451846,2.36297,-0.282664,-0.544686,-0.164365
2574801,0.99,-1.5707,-0.522803,-0.000304613,-2.09593,-1.57059,1.57148,0.7855,-1.5708,-0.523599,-7.17481e-08,-2.09439,-1.5708,1.5708,0.785399,-1.81676e-05,-0.00054963,0.00030541,-0.000727337,0.000165418,0.000236802,-0.000593608,0,0,0,0,0,0,0,-0.0775034,-10.2408,0.606448,20.9201,-0.848372,-0.546361,-0.0968531,-0.0866981,-1.11925,0.452547,2.36366,-0.282627,-0.544627,-0.164422
2574802,0.99,-1.5707,-0.522805,-0.000306283,-2.09593,-1.57059,1.57148,0.7855,-1.5708,-0.523599,-7.17481e-08,-2.09439,-1.5708,1.5708,0.785399,-1.21117e-05,-0.00101603,-0.000353206,0.00127835,0.000110279,0.000157868,-0.000395739,0,0,0,0,0,0,0,-0.0775034,-10.213,0.630252,20.8448,-0.848372,-0.546361,-0.0968531,-0.0862462,-1.11953,0.453043,2.36383,-0.282574,-0.544549,-0.164457
2574803,0.99,-1.5707,-0.5228,-0.000302664,-2.09593,-1.57059,1.57148,0.785501,-1.5708,-0.523599,-7.17481e-08,-2.09439,-1.5708,1.5708,0.785399,0.00110555,0.00117868,0.000970956,-0.000911007,-0.000129931,0.000105245,-2.6467e-05,0,0,0,0,0,0,0,-0.125111,-10.2924,0.578677,20.9201,-0.842879,-0.546361,-0.103262,-0.0863459,-1.11824,0.452716,2.36315,-0.282506,-0.544529,-0.164441
2574804,0.99,-1.5707,-0.522802,-0.000300994,-2.09593,-1.57059,1.57148,0.785507,-1.5708,-0.523599,-7.17481e-08,-2.09439,-1.5708,1.5708,0.785399,0.000180221,0.000136175,0.00120412,-5.0526e-05,-8.6621e-05,7.01635e-05,0.00191514,0,0,0,0,0,0,0,-0.101307,-10.2646,0.554873,20.8963,-0.842879,-0.546361,-0.155447,-0.087697,-1.11882,0.450603,2.36346,-0.282516,-0.544718,-0.164358
2574805,0.99,-1.5707,-0.5228,-0.000306743,-2.09593,-1.57059,1.57148,0.785503,-1.5708,-0.523599,-7.17481e-08,-2.09439,-1.5708,1.5708,0.785399,-0.000436665,0.000740397,-0.000403682,0.000523128,0.000383062,0.000318043,5.60537e-05,0,0,0,0,0,0,0,-0.0775034,-10.2924,0.606448,20.8725,-0.85478,-0.553685,-0.122488,-0.0894297,-1.12089,0.44789,2.36446,-0.282568,-0.544983,-0.16424
2574806,0.99,-1.5707,-0.522803,-0.000306993,-2.09594,-1.57059,1.57148,0.785505,-1.5708,-0.523599,-7.17481e-08,-2.09439,-1.5708,1.5708,0.785399,0.000265702,-0.000712828,-0.000825933,-0.00132168,0.000255375,-5.92387e-05,0.000749446,0,0,0,0,0,0,0,-0.101307,-10.2408,0.630252,20.9439,-0.85478,-0.546361,-0.141714,-0.0899776,-1.12266,0.446898,2.36534,-0.282584,-0.545066,-0.16414
2574807,0.99,-1.5707,-0.5228,-0.000308469,-2.09593,-1.57059,1.57148,0.785501,-1.5708,-0.523599,-7.17481e-08,-2.09439,-1.5708,1.5708,0.785399,-0.000379677,0.000731207,-0.00120024,0.000789313,-0.00027056,0.000231775,-0.000687164,0,0,0,0,0,0,0,-0.0775034,-10.2924,0.658023,20.8725,-0.842879,-0.553685,-0.10967,-0.089063,-1.12385,0.448145,2.36615,-0.282565,-0.544921,-0.164089
2574808,0.99,-1.5707,-0.522803,-0.000304692,-2.09593,-1.57059,1.57148,0.7855,-1.5708,-0.523599,-7.17481e-08,-2.09439,-1.5708,1.5708,0.785399,0.000303694,-0.000718954,0.000406268,-3.06031e-05,2.30774e-05,-0.00035411,-0.000932827,0,0,0,0,0,0,0,-0.101307,-10.2408,0.606448,20.8963,-0.848372,-0.539952,-0.0968531,-0.0875329,-1.12414,0.450347,2.36635,-0.282515,-0.544684,-0.164087
2574809,0.99,-1.5707,-0.5228,-0.000308258,-2.09593,-1.57059,1.57148,0.785504,-1.5708,-0.523599,-7.17481e-08,-2.09439,-1.5708,1.5708,0.785399,-0.000354349,0.000727123,-0.00093558,-2.04021e-05,-0.000188066,-0.000236073,0.000802269,0,0,0,0,0,0,0,-0.0775034,-10.2924,0.658023,20.8963,-0.842879,-0.539952,-0.135305,-0.0861823,-1.12376,0.452284,2.36602,-0.282458,-0.544474,-0.164108
2574810,0.99,-1.5707,-0.522802,-0.000304622,-2.09593,-1.57059,1.57148,0.785501,-1.5708,-0.523599,-7.17481e-08,-2.09439,-1.5708,1.5708,0.785399,-0.000236233,-0.000164865,0.000582706,0.00119282,-0.000125377,-0.000157382,-0.000651949,0,0,0,0,0,0,0,-0.0775034,-10.2646,0.606448,20.8448,-0.842879,-0.539952,-0.103262,-0.0850359,-1.12331,0.453909,2.36543,-0.282402,-0.544295,-0.164127
2574811,0.99,-1.5707,-0.522802,-0.000304616,-2.09593,-1.57059,1.57148,0.785499,-1.5708,-0.523599,-7.17481e-08,-2.09439,-1.5708,1.5708,0.785399,0.000399323,-0.00010991,0.00038847,0.000145602,0.000357225,-0.000104921,-0.00090935,0,0,0,0,0,0,0,-0.101307,-10.2646,0.606448,20.8725,-0.85478,-0.539952,-0.0904444,-0.0845528,-1.12225,0.454498,2.36416,-0.28234,-0.544206,-0.164146
2574812,0.99,-1.5707,-0.522803,-0.000306284,-2.09593,-1.57059,1.57148,0.785506,-1.5708,-0.523599,-7.17481e-08,-2.09439,-1.5708,1.5708,0.785399,-0.000290596,-0.000630085,-0.000297832,-0.000459744,-0.00020266,-0.000307307,0.00156391,0,0,0,0,0,0,0,-0.0775034,-10.2408,0.630252,20.8963,-0.842879,-0.533544,-0.149038,-0.0847384,-1.12047,0.454074,2.36264,-0.282291,-0.544193,-0.164148
2574813,0.99,-1.5707,-0.522805,-0.000308414,-2.09593,-1.57059,1.57148,0.785501,-1.5708,-0.523599,-7.17481e-08,-2.09439,-1.5708,1.5708,0.785399,0.000363081,-0.00106967,-0.000198554,-0.000306496,-0.000338557,3.24879e-05,-0.000652817,0,0,0,0,0,0,0,-0.101307,-10.213,0.630252,20.8963,-0.837385,-0.539952,-0.103262,-0.0848394,-1.11802,0.45381,2.3613,-0.282256,-0.544136,-0.164127
2574814,0.99,-1.5707,-0.522807,-0.000309124,-2.09593,-1.57059,1.57148,0.785503,-1.5708,-0.523599,-7.17481e-08,-2.09439,-1.5708,1.5708,0.785399,-0.000314758,-0.00126993,-0.00013237,-0.000204331,0.000181196,2.16586e-05,0.000276865,0,0,0,0,0,0,0,-0.0775034,-10.1892,0.630252,20.8963,-0.848372,-0.539952,-0.122488,-0.0847563,-1.11424,0.453841,2.35969,-0.282204,-0.544011,-0.164105
2574815,0.99,-1.5707,-0.522803,-0.00030556,-2.09593,-1.57059,1.57148,0.785504,-1.5708,-0.523599,-7.17481e-08,-2.09439,-1.5708,1.5708,0.785399,-0.000209839,0.000359809,0.000468566,-0.00013622,0.000358157,0.000251798,0.000659295,0,0,0,0,0,0,0,-0.0775034,-10.2408,0.606448,20.8963,-0.85478,-0.546361,-0.135305,-0.0847147,-1.11042,0.4538,2.35818,-0.28215,-0.543877,-0.164087
2574816,0.99,-1.5707,-0.522807,-0.000306599,-2.09593,-1.57059,1.57148,0.785502,-1.5708,-0.523599,-7.17481e-08,-2.09439,-1.5708,1.5708,0.785399,-0.000789506,-0.000966553,-0.000244435,-9.08136e-05,0.000442222,0.000167865,-0.000272547,0,0,0,0,0,0,0,-0.0497324,-10.1892,0.630252,20.8963,-0.860274,-0.546361,-0.116079,-0.0846516,-1.10799,0.453745,2.35732,-0.282119,-0.543754,-0.164077
2574817,0.99,-1.5707,-0.522802,-0.000306388,-2.09593,-1.57059,1.57148,0.785504,-1.5708,-0.523599,-7.17481e-08,-2.09439,-1.5708,1.5708,0.785399,0.000680088,0.00111887,-0.000162957,0.00049627,9.13639e-05,-0.000362808,0.00029302,0,0,0,0,0,0,0,-0.101307,-10.2646,0.630252,20.8725,-0.85478,-0.533544,-0.128897,-0.0844412,-1.10702,0.453917,2.35697,-0.282115,-0.543633,-0.164088
2574818,0.99,-1.5707,-0.522803,-0.000306318,-2.09593,-1.57059,1.57148,0.785501,-1.5708,-0.523599,-7.17481e-08,-2.09439,-1.5708,1.5708,0.785399,0.000453392,0.000189101,-0.000108638,0.000330846,-0.00017645,0.000232846,-0.00051673,0,0,0,0,0,0,0,-0.101307,-10.2408,0.630252,20.8725,-0.848372,-0.546361,-0.10967,-0.0844874,-1.10801,0.453865,2.3572,-0.282154,-0.543581,-0.164117
2574819,0.99,-1.5707,-0.522803,-0.000304625,-2.09593,-1.57059,1.57148,0.785498,-1.5708,-0.523599,-7.17481e-08,-2.09439,-1.5708,1.5708,0.785399,0.000302261,0.000126067,0.000484387,-0.000336248,-0.000117633,-8.21282e-05,-0.00153128,0,0,0,0,0,0,0,-0.101307,-10.2408,0.606448,20.8963,-0.848372,-0.539952,-0.077627,-0.0851021,-1.11027,0.453106,2.35788,-0.282243,-0.543632,-0.164158
2574820,0.99,-1.5707,-0.522803,-0.000304617,-2.09593,-1.57059,1.57148,0.7855,-1.5708,-0.523599,-7.17481e-08,-2.09439,-1.5708,1.5708,0.785399,0.00075832,8.40447e-05,0.000322925,-0.000780977,-7.84221e-05,0.000182607,-0.000308778,0,0,0,0,0,0,0,-0.125111,-10.2408,0.606448,20.9201,-0.848372,-0.546361,-0.0968531,-0.0862924,-1.11287,0.451548,2.35904,-0.282379,-0.543768,-0.164182
2574821,0.99,-1.5707,-0.522803,-0.000306285,-2.09593,-1.57059,1.57148,0.7855,-1.5708,-0.523599,-7.17481e-08,-2.09439,-1.5708,1.5708,0.785399,-5.12655e-05,5.60298e-05,-0.000341529,3.61606e-05,0.000185078,0.000121738,-0.000205852,0,0,0,0,0,0,0,-0.101307,-10.2408,0.630252,20.8963,-0.85478,-0.546361,-0.0968531,-0.087635,-1.11557,0.449834,2.36059,-0.282542,-0.543921,-0.16415
2574822,0.99,-1.5707,-0.522803,-0.000308233,-2.09593,-1.57059,1.57148,0.785504,-1.5708,-0.523599,-7.17481e-08,-2.09439,-1.5708,1.5708,0.785399,-3.4177e-05,3.73532e-05,-0.0008773,-0.000532705,-0.000317424,-0.0001562,0.00128692,0,0,0,0,0,0,0,-0.101307,-10.2408,0.658023,20.9201,-0.842879,-0.539952,-0.135305,-0.088177,-1.11782,0.449383,2.36201,-0.28268,-0.543946,-0.164047
2574823,0.99,-1.5707,-0.522805,-0.000304613,-2.09593,-1.57059,1.57148,0.785503,-1.5708,-0.523599,-7.17481e-08,-2.09439,-1.5708,1.5708,0.785399,-0.000579597,-0.000624712,0.000621559,0.000758487,0.000229193,0.000133225,0.000383228,0,0,0,0,0,0,0,-0.0775034,-10.213,0.606448,20.8725,-0.85478,-0.546361,-0.122488,-0.0878832,-1.11876,0.450163,2.36272,-0.282771,-0.54383,-0.163899
2574824,0.99,-1.5707,-0.522805,-0.000306283,-2.09593,-1.57059,1.57148,0.785504,-1.5708,-0.523599,-7.17481e-08,-2.09439,-1.5708,1.5708,0.785399,-0.000386398,-0.000416475,-0.000142439,-5.11538e-05,0.000152795,8.88169e-05,0.000730203,0,0,0,0,0,0,0,-0.0775034,-10.213,0.630252,20.8963,-0.85478,-0.546361,-0.135305,-0.0874298,-1.11765,0.451045,2.36223,-0.282816,-0.543674,-0.163749
2574825,0.99,-1.5707,-0.522802,-0.000308232,-2.09593,-1.57059,1.57148,0.785504,-1.5708,-0.523599,-7.17481e-08,-2.09439,-1.5708,1.5708,0.785399,0.000299213,0.000928776,-0.000744573,0.000522709,0.000101864,-0.000178148,0.000486802,0,0,0,0,0,0,0,-0.101307,-10.2646,0.658023,20.8725,-0.85478,-0.539952,-0.135305,-0.0868724,-1.11619,0.45207,2.36139,-0.282846,-0.543509,-0.163628
2574826,0.99,-1.5707,-0.522802,-0.000302664,-2.09593,-1.57059,1.57148,0.785503,-1.5708,-0.523599,-7.17481e-08,-2.09439,-1.5708,1.5708,0.785399,-0.000357336,0.000619184,0.00135966,0.000348473,-0.00016945,0.000118594,-0.000150183,0,0,0,0,0,0,0,-0.0775034,-10.2646,0.578677,20.8725,-0.848372,-0.546361,-0.122488,-0.0865582,-1.11651,0.452824,2.36117,-0.282911,-0.543413,-0.163551
2574827,0.99,-1.5707,-0.522803,-0.000302664,-2.09593,-1.57059,1.57148,0.785499,-1.5708,-0.523599,-7.17481e-08,-2.09439,-1.5708,1.5708,0.785399,-0.000238224,-0.000144023,0.000906438,-0.000324497,-0.000316417,-0.000158296,-0.00152428,0,0,0,0,0,0,0,-0.0775034,-10.2408,0.578677,20.8963,-0.842879,-0.539952,-0.0840357,-0.0871637,-1.11789,0.452113,2.36139,-0.283027,-0.543478,-0.163528
2574828,0.99,-1.5707,-0.522802,-0.000308232,-2.09593,-1.57059,1.57148,0.785501,-1.5708,-0.523599,-7.17481e-08,-2.09439,-1.5708,1.5708,0.785399,0.000397996,0.000460797,-0.00125175,-0.000773143,-0.000210945,0.000403095,-6.6748e-05,0,0,0,0,0,0,0,-0.101307,-10.2646,0.658023,20.9201,-0.842879,-0.553685,-0.10967,-0.088002,-1.11948,0.450981,2.36209,-0.283165,-0.543585,-0.163531
2574829,0.99,-1.5707,-0.522803,-0.000304613,-2.09594,-1.57059,1.57148,0.785502,-1.5708,-0.523599,-7.17481e-08,-2.09439,-1.5708,1.5708,0.785399,-0.000291481,-0.000249614,0.000371928,-0.00107224,0.00030018,-2.53711e-06,0.00019286,0,0,0,0,0,0,0,-0.0775034,-10.2408,0.606448,20.9439,-0.85478,-0.546361,-0.116079,-0.0882039,-1.12151,0.450876,2.36357,-0.283302,-0.543602,-0.16352
2574830,0.99,-1.5707,-0.522807,-0.000304613,-2.09593,-1.57059,1.57148,0.785503,-1.5708,-0.523599,-7.17481e-08,-2.09439,-1.5708,1.5708,0.785399,0.00156892,-0.00137284,0.000247952,0.000955609,-3.72392e-05,-0.00023905,0.000365932,0,0,0,0,0,0,0,-0.152882,-10.1892,0.606448,20.8725,-0.848372,-0.539952,-0.122488,-0.0885291,-1.12187,0.450605,2.36446,-0.28341,-0.543624,-0.163489
2574831,0.99,-1.5707,-0.5228,-0.000306283,-2.09593,-1.57059,1.57148,0.785504,-1.5708,-0.523599,-7.17481e-08,-2.09439,-1.5708,1.5708,0.785399,0.000396331,0.00149763,-0.000391511,8.02606e-05,-2.48261e-05,0.000349259,0.000718673,0,0,0,0,0,0,0,-0.125111,-10.2924,0.630252,20.8963,-0.848372,-0.553685,-0.135305,-0.0895321,-1.12027,0.449412,2.364,-0.283474,-0.543732,-0.163454
2574832,0.99,-1.5707,-0.522805,-0.000304613,-2.09593,-1.57059,1.57148,0.785497,-1.5708,-0.523599,-7.17481e-08,-2.09439,-1.5708,1.5708,0.785399,-0.00149902,-0.000857621,0.000295805,0.000610319,-0.000220001,-0.000275787,-0.00189447,0,0,0,0,0,0,0,-0.0497324,-10.213,0.606448,20.8725,-0.842879,-0.539952,-0.0712183,-0.0901916,-1.11909,0.448765,2.36328,-0.283506,-0.543799,-0.163426
2574833,0.99,-1.5707,-0.522803,-0.000304613,-2.09593,-1.57059,1.57148,0.785502,-1.5708,-0.523599,-7.17481e-08,-2.09439,-1.5708,1.5708,0.785399,0.000207081,7.78666e-05,0.000197203,-0.000706745,-0.000146668,-0.000421217,0.00039853,0,0,0,0,0,0,0,-0.101307,-10.2408,0.606448,20.9201,-0.842879,-0.533544,-0.116079,-0.0900509,-1.11786,0.449125,2.36254,-0.283507,-0.543745,-0.1634
2574834,0.99,-1.57071,-0.522802,-0.000304613,-2.09594,-1.57059,1.57148,0.785497,-1.5708,-0.523599,-7.17481e-08,-2.09439,-1.5708,1.5708,0.785399,-0.00162518,0.000608723,0.000131469,-0.00102798,-9.77783e-05,0.000193907,-0.00139583,0,0,0,0,0,0,0,-0.0259286,-10.2646,0.606448,20.9439,-0.842879,-0.546361,-0.0712183,-0.0895096,-1.11747,0.449923,2.36264,-0.28352,-0.543635,-0.163341
2574835,0.99,-1.5707,-0.522803,-0.000308232,-2.09593,-1.57059,1.57148,0.785499,-1.5708,-0.523599,-7.17481e-08,-2.09439,-1.5708,1.5708,0.785399,-0.000526644,-0.000150997,-0.00111878,-0.000128505,-6.51856e-05,-0.000108088,-0.000218474,0,0,0,0,0,0,0,-0.0497324,-10.2408,0.658023,20.9201,-0.842879,-0.539952,-0.0904444,-0.0881912,-1.11883,0.451764,2.36401,-0.283542,-0.543424,-0.163225
2574836,0.99,-1.5707,-0.522803,-0.000304613,-2.09593,-1.57059,1.57148,0.785503,-1.5708,-0.523599,-7.17481e-08,-2.09439,-1.5708,1.5708,0.785399,0.00141214,-0.000100664,0.000460573,0.00102795,0.000159993,0.0001653,0.00104115,0,0,0,0,0,0,0,-0.125111,-10.2408,0.606448,20.8725,-0.848372,-0.546361,-0.122488,-0.0867211,-1.11954,0.453814,2.36485,-0.283517,-0.543189,-0.163045
2574837,0.99,-1.5707,-0.5228,-0.000309903,-2.09593,-1.57059,1.57148,0.785502,-1.5708,-0.523599,-7.17481e-08,-2.09439,-1.5708,1.5708,0.785399,-0.000172196,0.00113932,-0.00145619,0.000128491,0.000547472,-0.000364518,0.000456738,0,0,0,0,0,0,0,-0.0775034,-10.2924,0.681826,20.8963,-0.860274,-0.533544,-0.116079,-0.0860017,-1.11958,0.454902,2.36479,-0.283463,-0.543064,-0.16281
2574838,0.99,-1.5707,-0.522802,-0.000304613,-2.09593,-1.57059,1.57148,0.785504,-1.5708,-0.523599,-7.17481e-08,-2.09439,-1.5708,1.5708,0.785399,-0.000114797,0.00010993,0.000792445,8.56605e-05,-7.58283e-05,0.000231706,0.00101657,0,0,0,0,0,0,0,-0.0775034,-10.2646,0.606448,20.8963,-0.848372,-0.546361,-0.135305,-0.0855088,-1.12058,0.455748,2.36496,-0.283422,-0.542983,-0.162552
2574839,0.99,-1.5707,-0.522802,-0.000304613,-2.09593,-1.57059,1.57148,0.785503,-1.5708,-0.523599,-7.17481e-08,-2.09439,-1.5708,1.5708,0.785399,-7.65316e-05,7.32868e-05,0.000528297,5.7107e-05,-0.000254003,-8.28882e-05,0.000202995,0,0,0,0,0,0,0,-0.0775034,-10.2646,0.606448,20.8963,-0.842879,-0.539952,-0.122488,-0.0854975,-1.12172,0.455782,2.36525,-0.283414,-0.542975,-0.16231
2574840,0.99,-1.5707,-0.522802,-0.000306283,-2.09593,-1.57059,1.57148,0.785501,-1.5708,-0.523599,-7.17481e-08,-2.09439,-1.5708,1.5708,0.785399,0.000505791,4.88579e-05,-0.000204614,-0.000518741,-0.000372786,0.0001821,-0.000339388,0,0,0,0,0,0,0,-0.101307,-10.2646,0.630252,20.9201,-0.837385,-0.546361,-0.10967,-0.0861639,-1.12226,0.454723,2.36544,-0.283432,-0.543061,-0.162113
2574841,0.99,-1.5707,-0.522802,-0.000302664,-2.09593,-1.57059,1.57148,0.785505,-1.5708,-0.523599,-7.17481e-08,-2.09439,-1.5708,1.5708,0.785399,-0.000219618,3.25719e-05,0.00107002,0.000767797,-4.50733e-05,0.000392667,0.000960536,0,0,0,0,0,0,0,-0.0775034,-10.2646,0.578677,20.8725,-0.842879,-0.553685,-0.141714,-0.0871433,-1.12235,0.453174,2.3655,-0.28345,-0.543189,-0.161968
2574842,0.99,-1.5707,-0.522803,-0.000306283,-2.09593,-1.57059,1.57148,0.7855,-1.5708,-0.523599,-7.17481e-08,-2.09439,-1.5708,1.5708,0.785399,-0.000146412,-0.000535097,-0.000493082,-4.49474e-05,0.000410761,-0.000246848,-0.00102116,0,0,0,0,0,0,0,-0.0775034,-10.2408,0.630252,20.8963,-0.85478,-0.539952,-0.0968531,-0.0881129,-1.12136,0.451539,2.3649,-0.283431,-0.543311,-0.161875
2574843,0.99,-1.5707,-0.522802,-0.000306283,-2.09593,-1.57059,1.57148,0.7855,-1.5708,-0.523599,-7.17481e-08,-2.09439,-1.5708,1.5708,0.785399,0.00101602,0.00020008,-0.000328721,0.000526847,0.00027384,-0.000164565,-0.00068077,0,0,0,0,0,0,0,-0.125111,-10.2646,0.630252,20.8725,-0.85478,-0.539952,-0.0968531,-0.0886298,-1.11949,0.450575,2.36379,-0.283372,-0.543357,-0.16183
2574844,0.99,-1.5707,-0.5228,-0.000306283,-2.09593,-1.57059,1.57148,0.7855,-1.5708,-0.523599,-7.17481e-08,-2.09439,-1.5708,1.5708,0.785399,0.000120532,0.000783001,-0.000219147,0.000351231,-5.47987e-05,0.000127649,-0.000453847,0,0,0,0,0,0,0,-0.101307,-10.2924,0.630252,20.8725,-0.848372,-0.546361,-0.0968531,-0.0889037,-1.11835,0.450148,2.36289,-0.283314,-0.543371,-0.1618
2574845,0.99,-1.5707,-0.522805,-0.000304613,-2.09593,-1.57059,1.57148,0.785501,-1.5708,-0.523599,-7.17481e-08,-2.09439,-1.5708,1.5708,0.785399,0.000637167,-0.00133404,0.000410714,0.000234154,-0.000239983,8.50991e-05,-6.52056e-05,0,0,0,0,0,0,0,-0.125111,-10.213,0.606448,20.8725,-0.842879,-0.546361,-0.103262,-0.0893247,-1.11753,0.449618,2.36202,-0.283271,-0.543407,-0.16175
2574846,0.99,-1.5707,-0.522803,-0.000304613,-2.09593,-1.57059,1.57148,0.785502,-1.5708,-0.523599,-7.17481e-08,-2.09439,-1.5708,1.5708,0.785399,0.000424778,-0.000239746,0.000273809,0.000156103,0.000280821,-0.000180626,0.000431247,0,0,0,0,0,0,0,-0.125111,-10.2408,0.606448,20.8725,-0.85478,-0.539952,-0.116079,-0.0901282,-1.11519,0.448543,2.36052,-0.283229,-0.543476,-0.161668
2574847,0.99,-1.5707,-0.522802,-0.000309903,-2.09593,-1.57059,1.57148,0.785507,-1.5708,-0.523599,-7.17481e-08,-2.09439,-1.5708,1.5708,0.785399,0.000283185,0.000396982,-0.0015807,-0.00100956,-0.000253596,-0.000120417,0.00174556,0,0,0,0,0,0,0,-0.125111,-10.2646,0.681826,20.9201,-0.842879,-0.539952,-0.155447,-0.0907035,-1.11316,0.447957,2.35946,-0.283207,-0.543498,-0.161556
2574848,0.99,-1.5707,-0.522803,-0.000304613,-2.09593,-1.57059,1.57148,0.785503,-1.5708,-0.523599,-7.17481e-08,-2.09439,-1.5708,1.5708,0.785399,-0.000368022,-0.000292158,0.000709439,-0.000673037,3.43868e-05,-8.02783e-05,-5.69962e-05,0,0,0,0,0,0,0,-0.101307,-10.2408,0.606448,20.9201,-0.848372,-0.539952,-0.122488,-0.0904989,-1.11336,0.448739,2.35995,-0.283228,-0.543408,-0.161442
2574849,0.99,-1.5707,-0.522802,-0.000304613,-2.09593,-1.57059,1.57148,0.785505,-1.5708,-0.523599,-7.17481e-08,-2.09439,-1.5708,1.5708,0.785399,-0.000245348,0.00036204,0.000472959,0.00131455,2.29245e-05,-0.000290878,0.000674079,0,0,0,0,0,0,0,-0.101307,-10.2646,0.606448,20.8448,-0.848372,-0.533544,-0.141714,-0.0903138,-1.1142,0.449497,2.36073,-0.283263,-0.543313,-0.161375
2574850,0.99,-1.5707,-0.5228,-0.000306283,-2.09593,-1.57059,1.57148,0.785501,-1.5708,-0.523599,-7.17481e-08,-2.09439,-1.5708,1.5708,0.785399,-0.000720377,0.000890974,-0.000241506,-0.000886873,-0.000391618,4.34404e-05,-0.000737408,0,0,0,0,0,0,0,-0.0775034,-10.2924,0.630252,20.9201,-0.837385,-0.539952,-0.10967,-0.0902943,-1.11553,0.449941,2.36128,-0.283289,-0.543238,-0.161373
2574851,0.99,-1.5707,-0.522802,-0.000304613,-2.09593,-1.57059,1.57148,0.7855,-1.5708,-0.523599,-7.17481e-08,-2.09439,-1.5708,1.5708,0.785399,-0.000480251,-5.56312e-05,0.000395808,-3.4437e-05,0.000383181,2.89603e-05,-0.000966324,0,0,0,0,0,0,0,-0.0775034,-10.2646,0.606448,20.8963,-0.85478,-0.539952,-0.0968531,-0.089983,-1.11814,0.450788,2.36243,-0.283321,-0.54312,-0.161426
2574852,0.99,-1.5707,-0.522803,-0.000304613,-2.09593,-1.57059,1.57148,0.7855,-1.5708,-0.523599,-7.17481e-08,-2.09439,-1.5708,1.5708,0.785399,-0.000320168,-0.000593899,0.000263872,0.000533854,-0.000388806,0.000527933,-0.000644216,0,0,0,0,0,0,0,-0.0775034,-10.2408,0.606448,20.8725,-0.837385,-0.553685,-0.0968531,-0.0896826,-1.11987,0.45151,2.36319,-0.28333,-0.542986,-0.161509
2574853,0.99,-1.5707,-0.522803,-0.000308232,-2.09593,-1.57059,1.57148,0.785499,-1.5708,-0.523599,-7.17481e-08,-2.09439,-1.5708,1.5708,0.785399,-0.000213445,-0.000395933,-0.00103051,-0.000200909,0.000147697,-0.000156671,-0.000666836,0,0,0,0,0,0,0,-0.0775034,-10.2408,0.658023,20.8963,-0.848372,-0.539952,-0.0904444,-0.0892667,-1.11927,0.452305,2.36268,-0.283279,-0.542816,-0.161582
2574854,0.99,-1.5707,-0.522805,-0.000309903,-2.09593,-1.57059,1.57148,0.7855,-1.5708,-0.523599,-7.17481e-08,-2.09439,-1.5708,1.5708,0.785399,-0.000791911,-0.000913569,-0.00124382,0.000422872,0.000539274,0.000132912,-0.000207198,0,0,0,0,0,0,0,-0.0497324,-10.213,0.681826,20.8725,-0.860274,-0.546361,-0.0968531,-0.0879115,-1.11701,0.45448,2.36139,-0.283167,-0.542496,-0.161614
2574855,0.99,-1.5707,-0.5228,-0.000304795,-2.09593,-1.57059,1.57148,0.785505,-1.5708,-0.523599,-7.17481e-08,-2.09439,-1.5708,1.5708,0.785399,0.000121673,0.00124699,0.00158364,0.000281915,-8.12933e-05,-0.000148751,0.00152338,0,0,0,0,0,0,0,-0.0775034,-10.2924,0.578677,20.8725,-0.848372,-0.539952,-0.141714,-0.0863939,-1.11486,0.456852,2.36005,-0.283056,-0.542173,-0.161583
2574856,0.99,-1.5707,-0.5228,-0.000308942,-2.09593,-1.57059,1.57148,0.785503,-1.5708,-0.523599,-7.17481e-08,-2.09439,-1.5708,1.5708,0.785399,0.000637928,0.000831329,-0.000800281,-0.000925681,-5.41955e-05,0.000138192,0.00030351,0,0,0,0,0,0,0,-0.101307,-10.2924,0.658023,20.9201,-0.848372,-0.546361,-0.122488,-0.0861539,-1.11573,0.457351,2.36011,-0.283049,-0.542104,-0.1615
2574857,0.99,-1.5707,-0.522805,-0.00030652,-2.09593,-1.57059,1.57148,0.785504,-1.5708,-0.523599,-7.17481e-08,-2.09439,-1.5708,1.5708,0.785399,-0.000131527,-0.00130182,0.000116094,-0.00061712,-0.000239581,9.21277e-05,0.000439699,0,0,0,0,0,0,0,-0.0775034,-10.213,0.630252,20.9201,-0.842879,-0.546361,-0.128897,-0.086598,-1.11837,0.456921,2.36142,-0.283123,-0.542173,-0.161409
2574858,0.99,-1.5707,-0.5228,-0.000306362,-2.09593,-1.57059,1.57148,0.785504,-1.5708,-0.523599,-7.17481e-08,-2.09439,-1.5708,1.5708,0.785399,0.00102594,0.00098816,7.73957e-05,0.00135182,-0.000159721,6.14184e-05,0.000293133,0,0,0,0,0,0,0,-0.125111,-10.2924,0.630252,20.8448,-0.842879,-0.546361,-0.128897,-0.0872258,-1.11959,0.456233,2.36211,-0.283183,-0.542264,-0.161352
2574859,0.99,-1.5707,-0.5228,-0.000308258,-2.09593,-1.57059,1.57148,0.785503,-1.5708,-0.523599,-7.17481e-08,-2.09439,-1.5708,1.5708,0.785399,0.000127148,0.000658773,-0.000598017,-0.00030521,9.69701e-05,0.000312213,-4.19372e-05,0,0,0,0,0,0,0,-0.101307,-10.2924,0.658023,20.8963,-0.848372,-0.553685,-0.122488,-0.088143,-1.12073,0.455203,2.36223,-0.283218,-0.542416,-0.161338
2574860,0.99,-1.5707,-0.522802,-0.000309911,-2.09593,-1.57059,1.57148,0.785498,-1.5708,-0.523599,-7.17481e-08,-2.09439,-1.5708,1.5708,0.785399,-0.000472047,-0.000210432,-0.00095549,-0.000203473,6.46468e-05,-0.000300484,-0.00168947,0,0,0,0,0,0,0,-0.0775034,-10.2646,0.681826,20.8963,-0.848372,-0.539952,-0.077627,-0.0884274,-1.12274,0.455224,2.36269,-0.283237,-0.54249,-0.161366
2574861,0.99,-1.5707,-0.522802,-0.000304616,-2.09593,-1.57059,1.57148,0.785504,-1.5708,-0.523599,-7.17481e-08,-2.09439,-1.5708,1.5708,0.785399,0.000242114,-0.000140288,0.00112624,-0.000692461,-0.000160353,-0.000437682,0.000772558,0,0,0,0,0,0,0,-0.101307,-10.2646,0.606448,20.9201,-0.842879,-0.533544,-0.128897,-0.0881849,-1.12423,0.456,2.36327,-0.283246,-0.542478,-0.161411
2574862,0.99,-1.5707,-0.522803,-0.000309903,-2.09593,-1.57059,1.57148,0.785498,-1.5708,-0.523599,-7.17481e-08,-2.09439,-1.5708,1.5708,0.785399,-0.000395403,-0.000650337,-0.00101241,9.51715e-05,-0.000106902,0.000454197,-0.00138383,0,0,0,0,0,0,0,-0.0775034,-10.2408,0.681826,20.8963,-0.842879,-0.553685,-0.077627,-0.0881627,-1.12444,0.456384,2.36352,-0.283249,-0.542483,-0.161442
2574863,0.99,-1.5707,-0.522803,-0.000306284,-2.09593,-1.57059,1.57148,0.785499,-1.5708,-0.523599,-7.17481e-08,-2.09439,-1.5708,1.5708,0.785399,-0.000263602,-0.000433558,0.000531487,6.34476e-05,-7.12679e-05,3.15309e-05,-0.000447837,0,0,0,0,0,0,0,-0.0775034,-10.2408,0.630252,20.8963,-0.842879,-0.546361,-0.0904444,-0.0880133,-1.12307,0.45691,2.36299,-0.283211,-0.54245,-0.161447
2574864,0.99,-1.5707,-0.522802,-0.000306283,-2.09593,-1.57059,1.57148,0.785501,-1.5708,-0.523599,-7.17481e-08,-2.09439,-1.5708,1.5708,0.785399,-0.000175734,0.000267773,0.000354325,-0.000514514,0.000393298,-0.000216338,0.00017616,0,0,0,0,0,0,0,-0.0775034,-10.2646,0.630252,20.9201,-0.85478,-0.539952,-0.103262,-0.0879511,-1.12133,0.457252,2.36224,-0.283158,-0.542434,-0.161401
2574865,0.99,-1.5707,-0.522805,-0.000302664,-2.09593,-1.57059,1.57148,0.785506,-1.5708,-0.523599,-7.17481e-08,-2.09439,-1.5708,1.5708,0.785399,-0.00076677,-0.00102791,0.00144264,-0.000899821,2.48394e-05,0.000364401,0.00181286,0,0,0,0,0,0,0,-0.0497324,-10.213,0.578677,20.9439,-0.848372,-0.553685,-0.149038,-0.0884943,-1.12024,0.456564,2.36206,-0.283147,-0.542527,-0.161287
2574866,0.99,-1.57071,-0.522803,-0.000304613,-2.09593,-1.57059,1.57148,0.785504,-1.5708,-0.523599,-7.17481e-08,-2.09439,-1.5708,1.5708,0.785399,-0.00051118,-3.56597e-05,0.000312148,0.000513743,1.65596e-05,-0.000265692,0.000699948,0,0,0,0,0,0,0,-0.0497324,-10.2408,0.606448,20.8963,-0.848372,-0.539952,-0.135305,-0.0893474,-1.11886,0.455175,2.36192,-0.283157,-0.542678,-0.161142
2574867,0.99,-1.5707,-0.522802,-0.000304613,-2.09593,-1.57059,1.57148,0.785507,-1.5708,-0.523599,-7.17481e-08,-2.09439,-1.5708,1.5708,0.785399,0.000308827,0.000533039,0.000208098,-0.000214316,-0.000192411,6.02306e-05,0.00121262,0,0,0,0,0,0,0,-0.0775034,-10.2646,0.606448,20.9201,-0.842879,-0.546361,-0.155447,-0.0900645,-1.11778,0.453842,2.36169,-0.283163,-0.542833,-0.161024
2574868,0.99,-1.5707,-0.522803,-0.000304613,-2.09593,-1.57059,1.57148,0.785501,-1.5708,-0.523599,-7.17481e-08,-2.09439,-1.5708,1.5708,0.785399,0.00131951,-0.000201453,0.000138732,-0.000142878,-0.000128274,4.01537e-05,-0.00088701,0,0,0,0,0,0,0,-0.125111,-10.2408,0.606448,20.9201,-0.842879,-0.546361,-0.10967,-0.0908845,-1.11802,0.452431,2.36192,-0.283182,-0.543031,-0.160976
2574869,0.99,-1.5707,-0.522803,-0.000306283,-2.09594,-1.57059,1.57148,0.785503,-1.5708,-0.523599,-7.17481e-08,-2.09439,-1.5708,1.5708,0.785399,0.00032286,-0.000134302,-0.000464324,-0.000652064,-0.000288966,-0.000447949,-0.000116622,0,0,0,0,0,0,0,-0.101307,-10.2408,0.630252,20.9439,-0.837385,-0.533544,-0.122488,-0.0918556,-1.11872,0.450935,2.36253,-0.283206,-0.543253,-0.16101
2574870,0.99,-1.5707,-0.522805,-0.000308232,-2.09593,-1.57059,1.57148,0.785499,-1.5708,-0.523599,-7.17481e-08,-2.09439,-1.5708,1.5708,0.785399,0.000772052,-0.000739148,-0.000959163,0.00123573,0.000451616,-6.12735e-05,-0.0015019,0,0,0,0,0,0,0,-0.125111,-10.213,0.658023,20.8725,-0.85478,-0.539952,-0.0840357,-0.0922158,-1.1184,0.45045,2.36266,-0.283176,-0.543353,-0.161108
2574871,0.99,-1.5707,-0.5228,-0.000306283,-2.09593,-1.57059,1.57148,0.785501,-1.5708,-0.523597,-2.57175e-06,-2.09439,-1.5708,1.5708,0.785399,-0.000598922,0.00136327,1.01719e-05,0.000823818,6.37182e-05,0.00019651,-0.000289191,-0.00312521,0.001875,-0.0025,0.00231151,-0.00155837,0.005,-0.000158103,-0.0775034,-10.2924,0.630252,20.8725,-0.848372,-0.546361,-0.103262,-0.0917702,-1.11733,0.451219,2.36193,-0.283073,-0.543304,-0.161227
2574872,0.99,-1.5707,-0.522802,-0.000306283,-2.09593,-1.57059,1.57148,0.785501,-1.57081,-0.523593,-7.57175e-06,-2.09439,-1.5708,1.57081,0.785399,0.000714342,0.000259236,6.78125e-06,0.00119883,-0.000160972,0.000131007,-0.000192794,-0.00625042,0.00375,-0.005,0.00462301,-0.00311674,0.01,-0.000316207,-0.125111,-10.2646,0.630252,20.8448,-0.842879,-0.546361,-0.103262,-0.0911737,-1.11731,0.452249,2.36108,-0.282955,-0.543234,-0.16132
2574873,0.99,-1.5707,-0.522803,-0.000308414,-2.09593,-1.57059,1.57148,0.785501,-1.57082,-0.523587,-1.50717e-05,-2.09438,-1.57081,1.57083,0.785398,-0.000637396,-0.000383988,4.52083e-06,-0.000964021,-0.000107314,-0.000150021,0.00010883,-0.00937563,0.005625,-0.0075,0.00693452,-0.00467511,0.015,-0.00047431,-0.0775034,-10.2408,0.630252,20.9201,-0.842879,-0.539952,-0.10967,-0.0907859,-1.1179,0.452989,2.36053,-0.282862,-0.543192,-0.161363
2574874,0.99,-1.57071,-0.522803,-0.000303447,-2.09593,-1.57059,1.57148,0.785503,-1.57083,-0.52358,-2.50717e-05,-2.09437,-1.57081,1.57085,0.785398,-0.00595023,0.00170056,-0.00234071,0.00263487,0.000776168,-0.000337373,0.000547271,-0.0125008,0.0075,-0.01,0.00924603,-0.00623348,0.02,-0.000632413,-0.101307,-10.1892,0.42792,20.9201,-0.865767,-0.533544,-0.122488,-0.0883506,-1.11861,0.456486,2.36017,-0.282733,-0.542836,-0.161357
2574875,0.99,-1.57071,-0.522805,-0.000307313,-2.09593,-1.57059,1.57148,0.785508,-1.57084,-0.523571,-3.75717e-05,-2.09436,-1.57082,1.57087,0.785397,-0.00418146,0.000290621,-0.0045482,0.000266473,-0.00293048,-0.000224915,0.00206027,-0.0156261,0.009375,-0.0125,0.0115575,-0.00779185,0.025,-0.000790516,-0.379017,-10.0107,0.0748318,20.9955,-0.899641,-0.533544,-0.168264,-0.0807262,-1.1199,0.467158,2.35972,-0.282462,-0.541711,-0.161316
2574876,0.99,-1.5707,-0.522803,-0.000318473,-2.09593,-1.57059,1.57148,0.785504,-1.57086,-0.523559,-5.25717e-05,-2.09435,-1.57083,1.5709,0.785396,-0.00135071,-0.000993205,-0.00843805,-1.48907e-05,-0.000887469,-0.000387303,0.000152809,-0.0187513,0.01125,-0.015,0.013869,-0.00935022,0.03,-0.00094862,-0.882862,-9.80838,-0.357602,21.1423,-0.939009,-0.527135,-0.135305,-0.0681734,-1.12017,0.485144,2.35914,-0.282061,-0.539791,-0.161286
2574877,0.99,-1.5707,-0.522794,-0.000332709,-2.09593,-1.57059,1.57148,0.785507,-1.57088,-0.523546,-7.00717e-05,-2.09433,-1.57084,1.57094,0.785395,-0.00106791,-0.000434025,-0.0107487,-5.97738e-05,0.000165607,-0.000258202,0.000847858,-0.0218765,0.013125,-0.0175,0.0161806,-0.0109086,0.035,-0.00110672,-1.3391,-9.65762,-0.837644,21.2931,-0.96739,-0.527135,-0.155447,-0.0527492,-1.11798,0.508238,2.35876,-0.281648,-0.537248,-0.161328
2574878,1,-1.57071,-0.522787,-0.000353346,-2.09592,-1.57059,1.57149,0.785501,-1.57091,-0.523531,-9.00717e-05,-2.09431,-1.57085,1.57098,0.785393,-0.003195,0.003136,-0.0128501,0.00357642,-0.000313477,0.00943702,-0.00136754,-0.0250017,0.015,-0.02,0.0184921,-0.012467,0.04,-0.00126483,-1.71599,-9.50687,-1.31769,21.2931,-0.961897,-0.533544,-0.103262,-0.0359643,-1.1156,0.53467,2.35907,-0.281328,-0.534252,-0.161468
2574879,1,-1.57073,-0.522772,-0.000375657,-2.09592,-1.57059,1.57149,0.785499,-1.57094,-0.523514,-0.000112572,-2.09429,-1.57087,1.57102,0.785392,-0.00488959,0.00574548,-0.0117916,0.00455973,-0.000577759,0.0114989,-0.00138641,-0.0281269,0.016875,-0.0225,0.0208036,-0.0140253,0.045,-0.00142293,-2.09288,-9.48306,-1.77392,21.3684,-0.956404,-0.527135,-0.0904444,-0.0198338,-1.11756,0.561508,2.36099,-0.281188,-0.531131,-0.161686
2574880,1,-1.57074,-0.522763,-0.000403076,-2.09591,-1.57059,1.5715,0.785496,-1.57097,-0.523496,-0.000137572,-2.09427,-1.57088,1.57107,0.78539,-0.00570946,0.00554623,-0.017161,0.00599247,-0.000305715,0.0100984,-0.00187371,-0.0312521,0.01875,-0.025,0.0231151,-0.0155837,0.05,-0.00158103,-2.49755,-9.37991,-2.12701,21.416,-0.961897,-0.566503,-0.0648096,-0.00567175,-1.12481,0.586799,2.3648,-0.281263,-0.527945,-0.161923
2574881,1,-1.57075,-0.522752,-0.000422087,-2.0959,-1.57059,1.57151,0.785499,-1.57101,-0.523473,-0.000167572,-2.09424,-1.5709,1.57113,0.785389,-0.00768507,0.00854673,-0.0156411,0.00748714,-0.000500255,0.00912456,-0.000299705,-0.037128,0.0225,-0.03,0.0272517,-0.0182673,0.06,-0.00174171,-2.85064,-9.28073,-2.55945,21.4438,-0.956404,-0.611364,-0.0904444,0.00630927,-1.13523,0.610383,2.37007,-0.281532,-0.524472,-0.162102
2574882,1,-1.57077,-0.522744,-0.000448418,-2.09589,-1.57059,1.57152,0.7855,-1.57105,-0.523447,-0.000202572,-2.09421,-1.57092,1.5712,0.785387,-0.0113189,0.00646456,-0.0187601,0.00785387,0.000444461,0.0110797,3.75559e-05,-0.0430039,0.02625,-0.035,0.0313884,-0.020951,0.07,-0.0019024,-3.10454,-9.12601,-2.81335,21.4914,-0.979292,-0.604955,-0.0968531,0.0154282,-1.14627,0.631189,2.37622,-0.281971,-0.520671,-0.162172
2574883,1,-1.57079,-0.522737,-0.000471343,-2.09589,-1.57059,1.57152,0.785509,-1.5711,-0.523417,-0.000242572,-2.09417,-1.57095,1.57128,0.785385,-0.0145799,0.00771477,-0.0202907,0.00594129,0.00210896,0.00951146,0.00290725,-0.0488798,0.03,-0.04,0.035525,-0.0236346,0.08,-0.00206308,-3.33068,-8.95145,-3.09106,21.6422,-1.02965,-0.514318,-0.174673,0.0220102,-1.15498,0.649543,2.3833,-0.282561,-0.516433,-0.162127
2574884,1,-1.57082,-0.522731,-0.000491172,-2.09588,-1.57059,1.57152,0.785508,-1.57115,-0.523383,-0.000287572,-2.09413,-1.57097,1.57137,0.785383,-0.0216969,0.00949847,-0.0253065,0.00643963,0.00306216,0.0125813,0.00170081,-0.0547557,0.03375,-0.045,0.0396617,-0.0263183,0.09,-0.00222376,-3.48143,-8.67374,-3.49572,21.7176,-1.07542,-0.40537,-0.168264,0.0283433,-1.1623,0.668798,2.39318,-0.283325,-0.511379,-0.162014
2574885,1,-1.57085,-0.522717,-0.000518943,-2.09587,-1.57059,1.57154,0.785509,-1.57121,-0.523346,-0.000337572,-2.09409,-1.571,1.57147,0.78538,-0.0251878,0.00799397,-0.0298884,0.00437044,-8.59191e-05,0.0114839,0.00137123,-0.0606316,0.0375,-0.05,0.0437983,-0.0290019,0.1,-0.00238444,-3.83452,-8.39603,-4.02734,21.8882,-1.14866,-0.321141,-0.174673,0.0375109,-1.16925,0.693425,2.4072,-0.284258,-0.504939,-0.161921
2574886,1,-1.57088,-0.522695,-0.000564473,-2.09585,-1.57059,1.57155,0.785504,-1.57128,-0.523304,-0.000392572,-2.09404,-1.57103,1.57158,0.785378,-0.0268924,0.0133556,-0.0382714,0.00827197,-0.00329749,0.01055,-0.000781266,-0.0665075,0.04125,-0.055,0.047935,-0.0316856,0.11,-0.00254512,-4.36614,-8.11832,-4.50738,21.9635,-1.19902,-0.23142,-0.128897,0.0513787,-1.17551,0.726436,2.42504,-0.285337,-0.496605,-0.16192
2574887,1,-1.57091,-0.522665,-0.000618698,-2.09584,-1.5706,1.57156,0.785504,-1.57135,-0.523259,-0.000452572,-2.09399,-1.57107,1.5717,0.785375,-0.0293987,0.0148291,-0.044772,0.0111272,-0.0060323,0.0146192,-0.000283485,-0.0723834,0.045,-0.06,0.0520716,-0.0343692,0.12,-0.0027058,-4.86998,-7.86441,-4.99139,22.0389,-1.2448,-0.140783,-0.135305,0.0699485,-1.18277,0.76856,2.44577,-0.286571,-0.486143,-0.162029
2574888,1,-1.57098,-0.522626,-0.000669415,-2.0958,-1.57061,1.57159,0.785496,-1.57143,-0.523211,-0.000517572,-2.09393,-1.5711,1.57183,0.785372,-0.0375114,0.0214957,-0.0432506,0.0157828,-0.0100936,0.0203613,-0.0018505,-0.0782594,0.04875,-0.065,0.0562083,-0.0370529,0.13,-0.00286648,-5.11992,-7.71365,-5.59839,22.0151,-1.23289,-0.121556,-0.0904444,0.0906213,-1.19285,0.816004,2.46822,-0.288055,-0.473781,-0.162219
2574889,1,-1.57103,-0.522585,-0.000733447,-2.09578,-1.57062,1.57164,0.785496,-1.57151,-0.523158,-0.000587572,-2.09387,-1.57114,1.57197,0.785369,-0.0371665,0.0257712,-0.0513066,0.0203488,-0.0120357,0.0301111,-0.00194575,-0.0841353,0.0525,-0.07,0.0603449,-0.0397365,0.14,-0.00302716,-5.50078,-7.53513,-5.97925,22.0627,-1.2448,-0.127965,-0.0712183,0.109059,-1.20849,0.862036,2.49213,-0.289935,-0.460097,-0.162433
2574890,1,-1.57109,-0.522544,-0.000796906,-2.09574,-1.57063,1.5717,0.785487,-1.5716,-0.523102,-0.000662572,-2.09381,-1.57119,1.57212,0.785366,-0.0418553,0.0320106,-0.0536833,0.0253044,-0.00882309,0.04367,-0.0034673,-0.0900112,0.05625,-0.075,0.0644816,-0.0424201,0.15,-0.00318785,-5.8023,-7.3566,-6.35614,22.0389,-1.25578,-0.192968,-0.0126246,0.121999,-1.23191,0.902159,2.51755,-0.292286,-0.445615,-0.162606
2574891,1,-1.57116,-0.522505,-0.000854514,-2.09571,-1.57064,1.57177,0.785487,-1.5717,-0.52304,-0.000745072,-2.09374,-1.57123,1.57229,0.785363,-0.0509795,0.031826,-0.0533957,0.0264207,-0.0112636,0.0558816,-0.00207418,-0.0984782,0.061875,-0.0825,0.0701127,-0.046137,0.165,-0.0031804,-5.98082,-7.10666,-6.81238,22.1381,-1.26127,-0.308324,-0.0190333,0.127288,-1.26089,0.932699,2.54391,-0.295134,-0.430785,-0.162654
2574892,1,-1.57125,-0.522468,-0.000909436,-2.09568,-1.57066,1.57186,0.785485,-1.57181,-0.522972,-0.000835072,-2.09366,-1.57128,1.57247,0.785359,-0.0621048,0.0316907,-0.0502199,0.0302473,-0.0121054,0.0668267,-0.0018575,-0.106945,0.0675,-0.09,0.0757438,-0.0498538,0.18,-0.00317296,-6.08001,-6.85275,-7.24481,22.2373,-1.29515,-0.353185,-0.00621587,0.123713,-1.28646,0.949791,2.56871,-0.298433,-0.415978,-0.162494
2574893,1,-1.57132,-0.522432,-0.000977383,-2.09564,-1.57067,1.57194,0.785486,-1.57192,-0.522899,-0.000932572,-2.09358,-1.57134,1.57266,0.785356,-0.0657629,0.0329445,-0.0562064,0.0328605,-0.0121706,0.0707283,-0.00100098,-0.115412,0.073125,-0.0975,0.081375,-0.0535706,0.195,-0.00316552,-6.25853,-6.52347,-7.47094,22.3603,-1.34642,-0.282689,-0.0126246,0.111786,-1.29951,0.952588,2.58899,-0.302066,-0.401323,-0.162074
2574894,1,-1.57142,-0.522389,-0.00104297,-2.0956,-1.57069,1.57203,0.785482,-1.57205,-0.522821,-0.00103757,-2.09349,-1.57139,1.57287,0.785353,-0.0770473,0.036948,-0.0632714,0.0383564,-0.0113795,0.077732,-0.000904676,-0.123879,0.07875,-0.105,0.0870061,-0.0572874,0.21,-0.00315808,-6.33391,-6.19418,-7.87561,22.4634,-1.41966,-0.192968,-0.00621587,0.095876,-1.29863,0.947469,2.60447,-0.30592,-0.386345,-0.161376
2574895,1,-1.57152,-0.52234,-0.001116,-2.09555,-1.57071,1.57215,0.785485,-1.57218,-0.522736,-0.00115007,-2.0934,-1.57145,1.5731,0.78535,-0.0860075,0.039288,-0.0684776,0.0441702,-0.0151879,0.0889887,-0.00542772,-0.132346,0.084375,-0.1125,0.0926372,-0.0610043,0.225,-0.00315063,-6.50847,-5.81729,-8.43499,22.511,-1.5048,-0.121556,-0.0126246,0.0821943,-1.28586,0.943619,2.61557,-0.309866,-0.370251,-0.160401
2574896,0.99,-1.57161,-0.522278,-0.00121544,-2.0955,-1.57073,1.57228,0.78548,-1.57232,-0.522646,-0.00127007,-2.0933,-1.57152,1.57334,0.785347,-0.0891371,0.0454139,-0.0785931,0.0480927,-0.0185079,0.0988024,-0.00593918,-0.140814,0.09,-0.12,0.0982684,-0.0647211,0.24,-0.00314319,-6.96471,-5.48801,-8.88727,22.5626,-1.58354,-0.089513,0.038645,0.0734551,-1.26458,0.945183,2.62339,-0.313908,-0.352723,-0.159163
2574897,0.99,-1.57172,-0.522203,-0.00131894,-2.09543,-1.57076,1.57244,0.785475,-1.57247,-0.522551,-0.00139757,-2.0932,-1.57159,1.57359,0.785344,-0.0936244,0.0537763,-0.0893484,0.0527614,-0.0268367,0.118533,-0.00502181,-0.149281,0.095625,-0.1275,0.1039,-0.0684379,0.255,-0.00313575,-7.36541,-5.30948,-9.37127,22.5348,-1.62932,-0.134374,0.0587866,0.0695093,-1.24389,0.953201,2.6324,-0.318259,-0.333878,-0.157657
2574898,0.99,-1.57186,-0.52212,-0.00141701,-2.09537,-1.5708,1.57261,0.785464,-1.57263,-0.522449,-0.00153257,-2.09309,-1.57166,1.57386,0.785341,-0.108032,0.0620764,-0.0926619,0.0574244,-0.0299565,0.139489,-0.00670473,-0.157748,0.10125,-0.135,0.109531,-0.0721547,0.27,-0.00312831,-7.56774,-5.10715,-10.0536,22.5864,-1.63481,-0.225011,0.143015,0.0697795,-1.23461,0.967486,2.64774,-0.323176,-0.314019,-0.155837
2574899,0.99,-1.572,-0.522029,-0.00153211,-2.0953,-1.57084,1.57281,0.785462,-1.5728,-0.522342,-0.00167507,-2.09298,-1.57173,1.57415,0.785337,-0.117823,0.0721412,-0.100233,0.0635172,-0.0378804,0.155223,-0.00930302,-0.166215,0.106875,-0.1425,0.115162,-0.0758716,0.285,-0.00312086,-7.79387,-4.93259,-10.5337,22.5348,-1.61192,-0.32755,0.135691,0.0737459,-1.24355,0.986356,2.6722,-0.328836,-0.293483,-0.153622
2574900,0.99,-1.57214,-0.52194,-0.00165679,-2.09522,-1.57089,1.57303,0.785462,-1.57297,-0.52223,-0.00182507,-2.09285,-1.57181,1.57445,0.785334,-0.124949,0.0751966,-0.108841,0.0709667,-0.0437851,0.171455,-0.00627131,-0.174682,0.1125,-0.15,0.120793,-0.0795884,0.3,-0.00311342,-8.17473,-4.70645,-10.8907,22.4872,-1.58354,-0.424596,0.122873,0.0809079,-1.26866,1.00831,2.70405,-0.335178,-0.272504,-0.15093
2574901,0.99,-1.57229,-0.521847,-0.00178149,-2.09514,-1.57094,1.57327,0.785458,-1.57315,-0.52211,-0.00198506,-2.09273,-1.5719,1.57477,0.785331,-0.133596,0.0779021,-0.112763,0.074457,-0.0479342,0.188568,-0.00458888,-0.184801,0.119423,-0.15999,0.127417,-0.0838764,0.319216,-0.00301908,-8.42467,-4.50412,-11.343,22.511,-1.56157,-0.527135,0.122873,0.0891183,-1.29782,1.02992,2.73761,-0.341977,-0.251473,-0.147766
2574902,0.99,-1.57245,-0.52176,-0.00189646,-2.09506,-1.571,1.57352,0.785459,-1.57335,-0.521984,-0.00215504,-2.09259,-1.57199,1.5751,0.785328,-0.140428,0.0808208,-0.107549,0.0779196,-0.0501622,0.206942,-0.00265318,-0.194919,0.126345,-0.16998,0.134041,-0.0881644,0.338431,-0.00292475,-8.65477,-4.19864,-11.8746,22.634,-1.55607,-0.539952,0.103647,0.0913158,-1.32024,1.0401,2.76934,-0.349218,-0.231577,-0.144197
2574903,0.99,-1.57261,-0.521665,-0.00202592,-2.09497,-1.57105,1.57378,0.78546,-1.57355,-0.521851,-0.00233501,-2.09245,-1.57208,1.57546,0.785326,-0.146313,0.0842633,-0.115506,0.0801657,-0.0496679,0.221912,-0.00176094,-0.205038,0.133268,-0.17997,0.140664,-0.0924524,0.357647,-0.00283041,-8.85314,-3.94473,-12.1801,22.6618,-1.60094,-0.443822,0.0972387,0.0800939,-1.33231,1.02747,2.79945,-0.35703,-0.214088,-0.140306
2574904,0.99,-1.57278,-0.521564,-0.00215137,-2.09487,-1.57111,1.57407,0.785457,-1.57377,-0.521711,-0.00252497,-2.09231,-1.57218,1.57584,0.785323,-0.152015,0.0895784,-0.123086,0.0849154,-0.0494584,0.243425,-0.00205816,-0.215157,0.140191,-0.18996,0.147288,-0.0967403,0.376863,-0.00273607,-9.10704,-3.66702,-12.6879,22.6856,-1.6577,-0.359594,0.116465,0.0556806,-1.33483,0.993136,2.82946,-0.365367,-0.199018,-0.136185
2574905,0.99,-1.57298,-0.521458,-0.00228224,-2.09477,-1.57117,1.57438,0.785464,-1.57399,-0.521564,-0.00272492,-2.09215,-1.57228,1.57623,0.78532,-0.171544,0.0935219,-0.129848,0.0899421,-0.0492374,0.262165,0.000635026,-0.225276,0.147113,-0.19995,0.153912,-0.101028,0.396079,-0.00264174,-9.20623,-3.38931,-13.3187,22.7848,-1.71995,-0.333959,0.0587866,0.0246468,-1.32927,0.947008,2.85987,-0.374025,-0.185303,-0.131916
2574906,0.99,-1.57316,-0.52134,-0.00243984,-2.09465,-1.57124,1.57472,0.785461,-1.57423,-0.52141,-0.00293486,-2.09199,-1.57238,1.57665,0.785318,-0.168811,0.0993243,-0.140343,0.100479,-0.0578607,0.287385,-0.000385549,-0.235394,0.154036,-0.20994,0.160536,-0.105316,0.415294,-0.0025474,-9.81322,-3.1116,-13.8781,22.7332,-1.80418,-0.353185,0.0780126,-0.00772687,-1.31445,0.896581,2.88827,-0.382763,-0.171994,-0.127579
2574907,0.99,-1.57335,-0.521203,-0.00261239,-2.09453,-1.57131,1.57508,0.785461,-1.57448,-0.521249,-0.00315479,-2.09182,-1.57249,1.57708,0.785315,-0.178237,0.111263,-0.150543,0.10838,-0.0658464,0.312588,-0.000567008,-0.245513,0.160959,-0.21993,0.16716,-0.109604,0.43451,-0.00245306,-10.3686,-3.01242,-14.3582,22.6618,-1.84447,-0.443822,0.0844213,-0.0416299,-1.2937,0.842771,2.91323,-0.391488,-0.159044,-0.123256
2574908,0.99,-1.57357,-0.521064,-0.00278175,-2.0944,-1.5714,1.57546,0.785456,-1.57473,-0.521081,-0.00338471,-2.09165,-1.57261,1.57754,0.785313,-0.192463,0.121833,-0.154336,0.120479,-0.0741862,0.340922,-0.000907186,-0.255632,0.167881,-0.22992,0.173784,-0.113892,0.453726,-0.00235873,-10.6464,-2.8577,-14.9889,22.5626,-1.82707,-0.57932,0.0972387,-0.0775646,-1.27698,0.78557,2.93662,-0.400291,-0.146626,-0.118981
2574909,0.99,-1.5738,-0.520908,-0.00296645,-2.09426,-1.57149,1.57588,0.785455,-1.575,-0.520906,-0.00362462,-2.09147,-1.57272,1.57801,0.785311,-0.202454,0.132185,-0.163811,0.123852,-0.080605,0.363626,-0.000645638,-0.265751,0.174804,-0.23991,0.180407,-0.11818,0.472941,-0.00226439,-10.9241,-2.81009,-15.4968,22.4634,-1.79869,-0.713903,0.0972387,-0.114593,-1.27232,0.725922,2.96139,-0.409318,-0.134753,-0.114741
2574910,0.99,-1.57403,-0.520757,-0.00316231,-2.09412,-1.57158,1.5763,0.78545,-1.57527,-0.520724,-0.00387452,-2.09128,-1.57285,1.5785,0.785308,-0.214145,0.136613,-0.177266,0.127602,-0.0897567,0.382053,-0.00215648,-0.27587,0.181726,-0.2499,0.187031,-0.122468,0.492157,-0.00217005,-11.3525,-2.63156,-15.8776,22.4356,-1.77031,-0.766088,0.143015,-0.150122,-1.28132,0.667746,2.99073,-0.418638,-0.123106,-0.11051
2574911,0.99,-1.57426,-0.520599,-0.00335771,-2.09396,-1.57168,1.57675,0.785452,-1.57556,-0.520535,-0.00413441,-2.09109,-1.57297,1.57902,0.785306,-0.221963,0.144699,-0.186316,0.135941,-0.0965555,0.400739,-0.000714645,-0.286861,0.189216,-0.25989,0.194259,-0.127002,0.512147,-0.00203487,-11.6302,-2.40543,-16.3061,22.3127,-1.74193,-0.810948,0.122873,-0.181233,-1.2983,0.615808,3.02432,-0.428103,-0.11122,-0.106266
2574912,0.99,-1.57452,-0.520444,-0.00354998,-2.0938,-1.57179,1.57723,0.785446,-1.57586,-0.520338,-0.00440429,-2.09089,-1.5731,1.57955,0.785304,-0.23021,0.149174,-0.188604,0.140939,-0.100837,0.42773,-0.00147701,-0.297852,0.196706,-0.26988,0.201487,-0.131535,0.532137,-0.0018997,-11.8048,-2.12772,-16.7623,22.3603,-1.73643,-0.836583,0.149424,-0.21183,-1.31576,0.564566,3.05871,-0.437602,-0.0996888,-0.101994
2574913,0.99,-1.57477,-0.520278,-0.00375309,-2.09363,-1.57189,1.57773,0.785445,-1.57617,-0.520134,-0.00468416,-2.09068,-1.57324,1.5801,0.785303,-0.235753,0.155408,-0.195985,0.150774,-0.102807,0.450797,-0.000760236,-0.308843,0.204196,-0.27987,0.208715,-0.136069,0.552127,-0.00176452,-12.1341,-1.92538,-17.1194,22.3127,-1.76481,-0.785314,0.143015,-0.249861,-1.32716,0.502237,3.09042,-0.447136,-0.0897538,-0.0977027
2574914,0.99,-1.57503,-0.520103,-0.0039699,-2.09346,-1.572,1.57824,0.785449,-1.57649,-0.519922,-0.00497402,-2.09046,-1.57338,1.58067,0.785301,-0.245121,0.160621,-0.202508,0.158355,-0.103608,0.471068,-0.00298379,-0.319834,0.211686,-0.28986,0.215942,-0.140603,0.572117,-0.00162934,-12.3602,-1.74686,-17.4209,22.388,-1.80968,-0.694677,0.0780126,-0.298972,-1.32681,0.42339,3.11601,-0.456633,-0.0818892,-0.0934086
2574915,0.99,-1.57531,-0.519924,-0.0041885,-2.09328,-1.57211,1.57878,0.785454,-1.57682,-0.519703,-0.00527387,-2.09024,-1.57353,1.58126,0.7853,-0.254812,0.167092,-0.204247,0.166752,-0.104318,0.494163,-0.000232558,-0.330825,0.219176,-0.29985,0.22317,-0.145136,0.592107,-0.00149416,-12.4872,-1.54453,-17.774,22.3365,-1.84996,-0.701085,0.0194189,-0.359731,-1.31234,0.326827,3.134,-0.466085,-0.0759655,-0.0891487
2574916,0.99,-1.5756,-0.51973,-0.00442346,-2.09309,-1.57223,1.57935,0.785451,-1.57716,-0.519477,-0.00558371,-2.09001,-1.57368,1.58188,0.785298,-0.26784,0.175166,-0.217659,0.17526,-0.105693,0.521517,-0.00144851,-0.341816,0.226666,-0.30984,0.230398,-0.14967,0.612097,-0.00135899,-12.4872,-1.49295,-17.9803,22.3365,-1.87834,-0.823766,0.0459692,-0.430033,-1.28558,0.215226,3.14525,-0.475533,-0.0714885,-0.0850262
2574917,0.99,-1.57589,-0.519528,-0.00467602,-2.09288,-1.57234,1.57995,0.785454,-1.57751,-0.519242,-0.00590354,-2.08977,-1.57383,1.58251,0.785297,-0.279363,0.184438,-0.227232,0.186539,-0.1062,0.544262,2.24363e-05,-0.352807,0.234156,-0.31983,0.237626,-0.154203,0.632087,-0.00122381,-12.6379,-1.44534,-18.0557,22.2611,-1.91771,-0.90067,0.0130102,-0.503024,-1.25124,0.0987345,3.15133,-0.484898,-0.0674215,-0.0811569
2574918,0.99,-1.5762,-0.519319,-0.00492442,-2.09266,-1.57247,1.58058,0.785452,-1.57788,-0.519001,-0.00623336,-2.08953,-1.57399,1.58316,0.785296,-0.287801,0.194749,-0.231616,0.194756,-0.112699,0.569649,-0.000871565,-0.363798,0.241646,-0.32982,0.244853,-0.158737,0.652077,-0.00108863,-12.6895,-1.41757,-18.2302,22.1897,-1.9232,-0.946447,0.0322363,-0.575662,-1.21521,-0.018049,3.15408,-0.494217,-0.0634792,-0.0775989
2574919,0.99,-1.57653,-0.519103,-0.00517987,-2.09244,-1.5726,1.58121,0.785452,-1.57825,-0.518752,-0.00657317,-2.08927,-1.57415,1.58383,0.785295,-0.29948,0.200563,-0.24514,0.203739,-0.122611,0.59374,-0.000711878,-0.374789,0.249136,-0.33981,0.252081,-0.16327,0.672067,-0.000953452,-12.6379,-1.34219,-18.4088,22.1381,-1.91771,-0.991307,0.0322363,-0.64864,-1.18063,-0.135962,3.15493,-0.503576,-0.0599944,-0.0743651
2574920,0.99,-1.57686,-0.518879,-0.00545158,-2.09221,-1.57274,1.58188,0.78545,-1.57864,-0.518495,-0.00692297,-2.08901,-1.57432,1.58452,0.785294,-0.30757,0.20691,-0.248122,0.21243,-0.124829,0.614907,-0.0013187,-0.38578,0.256626,-0.3498,0.259309,-0.167804,0.692057,-0.000818274,-12.7411,-1.31839,-18.5119,22.1143,-1.91771,-1.03617,0.0523779,-0.721369,-1.14397,-0.254157,3.15284,-0.512925,-0.0569978,-0.0714489
2574921,0.99,-1.57719,-0.518649,-0.00573407,-2.09197,-1.57288,1.58256,0.785448,-1.57903,-0.518231,-0.00728276,-2.08875,-1.57449,1.58524,0.785293,-0.314361,0.211183,-0.258712,0.220278,-0.135005,0.637681,-0.00142744,-0.396985,0.264116,-0.35979,0.266848,-0.172378,0.712047,-0.000662276,-12.9434,-1.29062,-18.6349,22.0627,-1.9232,-1.10666,0.0651953,-0.795607,-1.09949,-0.375436,3.14586,-0.522255,-0.0547849,-0.0688246
2574922,0.99,-1.57755,-0.51841,-0.00602357,-2.09172,-1.57303,1.58326,0.785447,-1.57944,-0.517959,-0.00765254,-2.08847,-1.57467,1.58597,0.785293,-0.330099,0.217214,-0.268325,0.226533,-0.138857,0.660456,-0.000294748,-0.40819,0.271606,-0.36978,0.274387,-0.176952,0.732037,-0.000506279,-12.9434,-1.24301,-18.8372,21.9873,-1.92869,-1.06821,0.0459692,-0.870538,-1.0443,-0.498643,3.13378,-0.531519,-0.0532916,-0.0664358
2574923,0.99,-1.57791,-0.518171,-0.0063221,-2.09147,-1.57319,1.58397,0.785452,-1.57986,-0.51768,-0.00803231,-2.08819,-1.57485,1.58672,0.785293,-0.346494,0.22433,-0.278086,0.233319,-0.142101,0.674071,0.00050809,-0.419395,0.279096,-0.37977,0.281926,-0.181527,0.752027,-0.000350281,-12.9434,-1.16763,-18.9404,22.0905,-1.9232,-0.92722,0.0258276,-0.939986,-0.980314,-0.615248,3.11882,-0.540646,-0.0516244,-0.0642136
2574924,0.99,-1.57827,-0.517914,-0.00663132,-2.09121,-1.57335,1.5847,0.785455,-1.58029,-0.517394,-0.00842207,-2.0879,-1.57504,1.58749,0.785292,-0.354308,0.235405,-0.282429,0.244259,-0.144382,0.693191,0.00101976,-0.4306,0.286586,-0.38976,0.289465,-0.186101,0.772017,-0.000194284,-13.0942,-1.24301,-18.9919,22.0905,-1.9232,-0.881444,0.00660151,-1.00197,-0.913903,-0.722923,3.10377,-0.549724,-0.0493826,-0.0621223
2574925,0.99,-1.57865,-0.517651,-0.0069466,-2.09094,-1.57351,1.58547,0.785454,-1.58073,-0.517099,-0.00882182,-2.0876,-1.57523,1.58828,0.785292,-0.359899,0.250189,-0.297587,0.25518,-0.151177,0.717528,0.000419193,-0.441805,0.294076,-0.39975,0.297004,-0.190675,0.792007,-3.8286e-05,-13.2449,-1.36996,-19.1427,22.0905,-1.90031,-1.02335,0.0130102,-1.06052,-0.855817,-0.826532,3.09142,-0.558903,-0.0470433,-0.0601653
2574926,0.99,-1.57905,-0.51737,-0.00728002,-2.09065,-1.57368,1.58627,0.785458,-1.58119,-0.516798,-0.00923156,-2.0873,-1.57542,1.5891,0.785292,-0.371537,0.263499,-0.311103,0.272131,-0.15468,0.754572,0.00144879,-0.45301,0.301566,-0.40974,0.304543,-0.195249,0.811997,0.000117711,-13.2449,-1.54453,-19.2181,22.0627,-1.92869,-1.15244,-0.0190333,-1.11672,-0.81608,-0.925574,3.08309,-0.568084,-0.0448444,-0.0583662
2574927,0.99,-1.57945,-0.517081,-0.0076258,-2.09036,-1.57385,1.58705,0.785459,-1.58165,-0.516489,-0.00965129,-2.08699,-1.57562,1.58993,0.785293,-0.377786,0.273714,-0.321577,0.280481,-0.162298,0.766352,0.00142748,-0.464214,0.309056,-0.41973,0.312082,-0.199823,0.831987,0.000273709,-13.2965,-1.74686,-19.2697,22.0151,-1.95158,-1.11399,-0.0318506,-1.16925,-0.796204,-1.01704,3.0773,-0.577046,-0.0427471,-0.0567561
2574928,0.99,-1.57987,-0.516792,-0.00797708,-2.09006,-1.57402,1.58786,0.785461,-1.58213,-0.516172,-0.010081,-2.08667,-1.57583,1.59078,0.785293,-0.391688,0.280976,-0.32985,0.285614,-0.162223,0.77892,0.00165391,-0.475419,0.316546,-0.42972,0.319621,-0.204398,0.851977,0.000429707,-13.2449,-1.92538,-19.2935,22.0151,-1.99644,-1.03617,-0.0510767,-1.21841,-0.792074,-1.10183,3.07432,-0.585868,-0.0407103,-0.0553562
2574929,0.99,-1.58029,-0.516485,-0.00833761,-2.08975,-1.57421,1.5887,0.78546,-1.58261,-0.515848,-0.0105207,-2.08634,-1.57604,1.59165,0.785294,-0.39583,0.286081,-0.339701,0.291011,-0.168619,0.801266,0.000620519,-0.486624,0.324036,-0.43971,0.32716,-0.208972,0.871967,0.000585704,-13.3203,-2.12772,-19.2935,21.9635,-2.00834,-1.02976,-0.0382593,-1.26561,-0.796837,-1.18284,3.0754,-0.594786,-0.038696,-0.054194
2574930,0.99,-1.58072,-0.516186,-0.00872087,-2.08943,-1.5744,1.58957,0.785451,-1.58311,-0.515517,-0.0109704,-2.08601,-1.57625,1.59254,0.785295,-0.406623,0.297721,-0.35601,0.299602,-0.177408,0.815552,-0.00244015,-0.497829,0.331526,-0.4497,0.3347,-0.213546,0.891957,0.000741702,-13.4473,-2.17532,-19.2181,21.9635,-2.03673,-1.1204,0.038645,-1.31111,-0.80579,-1.26038,3.0805,-0.603871,-0.0365762,-0.0532865
2574931,0.99,-1.58116,-0.515875,-0.0091042,-2.08911,-1.5746,1.59045,0.785445,-1.58362,-0.515178,-0.0114301,-2.08566,-1.57647,1.59346,0.785295,-0.413148,0.302143,-0.36702,0.308741,-0.184066,0.837615,-0.00380105,-0.508677,0.339016,-0.45969,0.342339,-0.218025,0.911947,0.000919523,-13.5464,-2.2269,-19.1943,22.0151,-2.0706,-1.09385,0.0972387,-1.35282,-0.816649,-1.33075,3.08795,-0.613009,-0.0339572,-0.0525881
2574932,0.99,-1.58163,-0.515549,-0.00949522,-2.08878,-1.57479,1.59133,0.785447,-1.58414,-0.514831,-0.0118998,-2.08531,-1.57669,1.59439,0.785297,-0.430676,0.307945,-0.375017,0.316769,-0.190206,0.848177,-0.00182507,-0.519525,0.346506,-0.46968,0.349978,-0.222504,0.931937,0.00109734,-13.4949,-2.25467,-19.3212,22.0151,-2.0706,-0.913488,0.0780126,-1.3896,-0.821966,-1.39276,3.09342,-0.622078,-0.030606,-0.0519817
2574933,0.99,-1.58211,-0.515216,-0.00989271,-2.08844,-1.57499,1.59226,0.78544,-1.58467,-0.514477,-0.0123795,-2.08496,-1.57692,1.59534,0.785298,-0.445077,0.316254,-0.372655,0.321016,-0.194528,0.87254,-0.0026432,-0.530373,0.353996,-0.47967,0.357618,-0.226983,0.951927,0.00127517,-13.3957,-2.30228,-19.3212,21.9159,-2.06419,-0.959264,0.116465,-1.42394,-0.818135,-1.45192,3.09581,-0.631229,-0.0268175,-0.0513179
2574934,0.99,-1.58258,-0.514864,-0.0103139,-2.0881,-1.5752,1.59321,0.785444,-1.58521,-0.514116,-0.0128691,-2.08459,-1.57715,1.59631,0.785299,-0.447096,0.325265,-0.388314,0.322922,-0.200129,0.895896,-0.000102366,-0.541221,0.361486,-0.48966,0.365257,-0.231462,0.971917,0.00145299,-13.6496,-2.4808,-19.2458,22.0389,-2.00194,-1.10026,0.071604,-1.46131,-0.813093,-1.51678,3.1008,-0.640857,-0.0234128,-0.0504733
2574935,0.99,-1.58306,-0.514505,-0.0107484,-2.08774,-1.57541,1.59419,0.785442,-1.58576,-0.513747,-0.0133688,-2.08422,-1.57738,1.5973,0.785301,-0.459623,0.337122,-0.398461,0.333739,-0.2015,0.925051,-0.000306914,-0.55207,0.368976,-0.49965,0.372896,-0.235942,0.991907,0.00163081,-13.8241,-2.73471,-19.2181,22.0389,-2.01384,-1.1973,0.0780126,-1.50343,-0.816845,-1.58806,3.11355,-0.651087,-0.0208074,-0.0493928
2574936,0.98,-1.58356,-0.514144,-0.0111715,-2.08739,-1.57563,1.59518,0.785445,-1.58633,-0.51337,-0.0138784,-2.08384,-1.57763,1.59832,0.785303,-0.469906,0.346564,-0.41253,0.339044,-0.207379,0.943143,0.000743843,-0.562918,0.376466,-0.50964,0.380536,-0.240421,1.0119,0.00180863,-13.8757,-2.88547,-19.3728,22.1619,-2.01933,-1.1973,0.0523779,-1.54654,-0.834177,-1.65874,3.1344,-0.661674,-0.0186799,-0.0480919
2574937,0.98,-1.58407,-0.513767,-0.0116171,-2.08703,-1.57585,1.59617,0.785448,-1.5869,-0.512986,-0.014398,-2.08345,-1.57787,1.59935,0.785305,-0.480365,0.355609,-0.422514,0.347185,-0.210548,0.954523,0.0014785,-0.573766,0.383956,-0.51963,0.388175,-0.2449,1.03189,0.00198645,-13.9511,-3.03622,-19.3966,22.2373,-2.06419,-1.1204,0.0258276,-1.58693,-0.864594,-1.72293,3.16188,-0.672378,-0.0165474,-0.0466161
2574938,0.98,-1.58459,-0.51339,-0.0120751,-2.08665,-1.57607,1.5972,0.785451,-1.58748,-0.512595,-0.0149277,-2.08305,-1.57812,1.6004,0.785307,-0.49419,0.363309,-0.430602,0.356686,-0.21284,0.974511,0.00193455,-0.584614,0.391446,-0.52962,0.395815,-0.249379,1.05188,0.00216427,-14.0265,-3.18698,-19.3966,22.2611,-2.10448,-1.04899,0.000192821,-1.62362,-0.902931,-1.77954,3.19277,-0.683063,-0.0141375,-0.0450423
2574939,0.98,-1.58511,-0.512999,-0.0125543,-2.08628,-1.57629,1.59825,0.785451,-1.58808,-0.512196,-0.0154673,-2.08265,-1.57837,1.60147,0.785309,-0.501303,0.366509,-0.449945,0.364125,-0.222156,0.995849,0.00128929,-0.595462,0.398936,-0.53961,0.403454,-0.253858,1.07187,0.00234209,-14.2288,-3.36551,-19.4482,22.4634,-2.16673,-1.06821,0.000192821,-1.65559,-0.939131,-1.82741,3.2215,-0.693524,-0.01111,-0.0434891
2574940,0.98,-1.58565,-0.5126,-0.0130413,-2.08589,-1.57652,1.59933,0.785452,-1.58869,-0.51179,-0.0160169,-2.08224,-1.57863,1.60256,0.785312,-0.514119,0.374704,-0.458705,0.373546,-0.227237,1.02234,0.000147136,-0.60631,0.406426,-0.5496,0.411093,-0.258337,1.09186,0.00251992,-14.3558,-3.51627,-19.4482,22.511,-2.1887,-1.12681,0.0194189,-1.68132,-0.964329,-1.86376,3.24377,-0.703568,-0.00707522,-0.0420653
2574941,0.98,-1.58619,-0.512198,-0.0135447,-2.0855,-1.57676,1.60044,0.785453,-1.5893,-0.511376,-0.0165765,-2.08182,-1.57889,1.60367,0.785314,-0.533,0.379909,-0.472169,0.376191,-0.231292,1.04037,0.00104729,-0.61629,0.413916,-0.55959,0.418693,-0.262621,1.11106,0.00274184,-14.5065,-3.61942,-19.2935,22.7332,-2.2061,-1.12681,-0.00621587,-1.69975,-0.97796,-1.88729,3.26029,-0.713269,-0.00184484,-0.0408124
2574942,0.98,-1.58677,-0.511786,-0.0140535,-2.0851,-1.57699,1.60155,0.785452,-1.58993,-0.510954,-0.017146,-2.08139,-1.57916,1.6048,0.785317,-0.545657,0.385609,-0.482186,0.387097,-0.230183,1.06871,0.00069802,-0.626271,0.421406,-0.56958,0.426293,-0.266905,1.13027,0.00296377,-14.328,-3.69479,-19.2697,22.7332,-2.21159,-1.13321,-0.00621587,-1.70969,-0.981287,-1.89694,3.27306,-0.722794,0.00474165,-0.0397384
2574943,0.98,-1.58736,-0.511366,-0.0145671,-2.08469,-1.57724,1.6027,0.785452,-1.59056,-0.510525,-0.0177256,-2.08096,-1.57943,1.60595,0.785321,-0.556598,0.401929,-0.494684,0.390008,-0.228656,1.09009,0.000465215,-0.636251,0.428896,-0.57957,0.433892,-0.271189,1.14948,0.00318569,-14.201,-3.82175,-19.2181,22.8839,-2.22258,-1.20371,-0.00621587,-1.71332,-0.982123,-1.89543,3.28605,-0.732415,0.0122447,-0.0388487
2574944,0.98,-1.58795,-0.510942,-0.0151039,-2.08428,-1.57748,1.60386,0.785453,-1.59121,-0.510089,-0.0183152,-2.08052,-1.57971,1.60712,0.785324,-0.568438,0.407001,-0.509292,0.400092,-0.232522,1.14005,-0.000164673,-0.646231,0.436386,-0.58956,0.441492,-0.275472,1.16869,0.00340762,-14.201,-3.82175,-19.0911,22.9077,-2.23448,-1.32639,0.00660151,-1.71415,-0.993557,-1.88685,3.30528,-0.742404,0.0197898,-0.0381351
2574945,0.98,-1.58854,-0.510503,-0.0156633,-2.08385,-1.57772,1.60504,0.785448,-1.59187,-0.509645,-0.0189147,-2.08007,-1.57999,1.60831,0.785328,-0.575827,0.414677,-0.531463,0.408738,-0.240806,1.15229,-0.00227999,-0.656211,0.443876,-0.59955,0.449092,-0.279756,1.18789,0.00362954,-14.2288,-3.84555,-18.9404,22.8601,-2.22899,-1.35843,0.0651953,-1.71118,-1.01346,-1.86899,3.32897,-0.752556,0.0272157,-0.0375978
2574946,0.98,-1.58916,-0.51006,-0.016218,-2.08342,-1.57798,1.60623,0.785441,-1.59253,-0.509194,-0.0195243,-2.07961,-1.58027,1.60952,0.785331,-0.586397,0.425413,-0.538408,0.414606,-0.246892,1.15847,-0.00294421,-0.666192,0.451366,-0.60954,0.456691,-0.28404,1.2071,0.00385147,-14.0781,-3.92093,-18.865,22.8086,-2.21159,-1.31998,0.103647,-1.70275,-1.03662,-1.83914,3.35414,-0.762682,0.0348357,-0.0371709
2574947,0.98,-1.58979,-0.509603,-0.016792,-2.08299,-1.57824,1.6074,0.785446,-1.59321,-0.508735,-0.0201438,-2.07915,-1.58056,1.61074,0.785336,-0.599454,0.433972,-0.551025,0.418689,-0.250043,1.16364,0.000173385,-0.676172,0.458856,-0.61953,0.464291,-0.288324,1.22631,0.0040734,-13.9511,-4.07169,-18.7896,22.7848,-2.23997,-1.13962,0.0459692,-1.6906,-1.0671,-1.80087,3.38381,-0.773009,0.0426094,-0.0366969
2574948,0.98,-1.59043,-0.509146,-0.0173773,-2.08255,-1.5785,1.60861,0.785447,-1.5939,-0.508268,-0.0207733,-2.07868,-1.58085,1.61199,0.78534,-0.612687,0.450312,-0.563318,0.42925,-0.252252,1.16885,0.000386826,-0.686152,0.466346,-0.62952,0.47189,-0.292607,1.24551,0.00429532,-13.8995,-4.17484,-18.738,22.6856,-2.27385,-1.01694,0.038645,-1.67496,-1.11132,-1.75587,3.42133,-0.783733,0.0507106,-0.0360519
2574949,0.98,-1.59106,-0.508679,-0.0179546,-2.08209,-1.57877,1.60987,0.785447,-1.59459,-0.507795,-0.0214128,-2.0782,-1.58115,1.61325,0.785344,-0.623171,0.457048,-0.56797,0.434971,-0.255265,1.19466,0.00049522,-0.696132,0.473836,-0.63951,0.47949,-0.296891,1.26472,0.00451725,-13.8757,-4.19864,-18.738,22.5626,-2.27385,-1.19089,0.0322363,-1.65745,-1.1729,-1.70757,3.46698,-0.794934,0.0590766,-0.0352281
2574950,0.98,-1.59174,-0.508211,-0.0185561,-2.08163,-1.57904,1.61112,0.785453,-1.5953,-0.507313,-0.0220623,-2.07771,-1.58145,1.61454,0.785349,-0.639146,0.459353,-0.581583,0.442388,-0.26228,1.21723,0.00127956,-0.706113,0.481326,-0.6495,0.48709,-0.301175,1.28393,0.00473917,-13.6218,-4.14706,-18.738,22.4356,-2.27385,-1.33921,0.00660151,-1.64177,-1.2414,-1.66262,3.51547,-0.806516,0.0672136,-0.0343067
2574951,0.98,-1.59241,-0.507744,-0.0191746,-2.08116,-1.57933,1.61241,0.785459,-1.59601,-0.506824,-0.0227218,-2.07722,-1.58176,1.61584,0.785354,-0.641054,0.46374,-0.585226,0.450725,-0.262059,1.23372,0.00227718,-0.714748,0.488816,-0.65949,0.494575,-0.30523,1.30175,0.00505434,-13.5226,-4.14706,-18.6111,22.2611,-2.28483,-1.44816,-0.0318506,-1.63091,-1.29831,-1.62629,3.55826,-0.818249,0.074602,-0.0333964
2574952,0.98,-1.59309,-0.507262,-0.0197992,-2.08067,-1.57962,1.6137,0.785468,-1.59674,-0.506328,-0.0233913,-2.07671,-1.58207,1.61716,0.78536,-0.652773,0.46537,-0.603026,0.462815,-0.268813,1.25089,0.00440033,-0.723383,0.496306,-0.66948,0.50206,-0.309285,1.31956,0.0053695,-13.5464,-4.09946,-18.5873,22.0389,-2.24547,-1.59647,-0.10967,-1.62738,-1.32955,-1.60245,3.58741,-0.829929,0.0806815,-0.0326194
2574953,0.98,-1.59378,-0.506762,-0.0204466,-2.08019,-1.57991,1.61504,0.785479,-1.59747,-0.505824,-0.0240708,-2.0762,-1.58238,1.6185,0.785365,-0.6633,0.473232,-0.614744,0.468881,-0.277221,1.28101,0.00652784,-0.732018,0.503796,-0.67947,0.509545,-0.313339,1.33738,0.00568467,-13.5702,-4.17484,-18.4841,21.9159,-2.11546,-1.84733,-0.206716,-1.62757,-1.33027,-1.58568,3.59924,-0.841255,0.0855778,-0.032107
2574954,0.98,-1.59447,-0.50627,-0.0210913,-2.07968,-1.58021,1.61636,0.785489,-1.59821,-0.505313,-0.0247602,-2.07569,-1.5827,1.61985,0.785371,-0.675264,0.478136,-0.623142,0.484543,-0.288493,1.29199,0.00675938,-0.740653,0.511286,-0.68946,0.51703,-0.317394,1.3552,0.00599984,-13.6218,-4.22244,-18.4088,21.7414,-2.08708,-1.66056,-0.271719,-1.62781,-1.30437,-1.57067,3.59421,-0.851952,0.0892448,-0.032015
2574955,0.98,-1.59519,-0.505764,-0.0217455,-2.07916,-1.58051,1.61766,0.785486,-1.59896,-0.504794,-0.0254597,-2.07516,-1.58302,1.62123,0.785378,-0.687733,0.485611,-0.629634,0.495817,-0.289677,1.29646,0.00209875,-0.749288,0.518776,-0.69945,0.524516,-0.321449,1.37301,0.006315,-13.5464,-4.22244,-18.4088,21.5668,-2.13835,-1.32639,-0.206716,-1.62872,-1.25493,-1.55899,3.5714,-0.861823,0.091331,-0.0325348
2574956,0.98,-1.59592,-0.50526,-0.0223982,-2.07864,-1.5808,1.61903,0.785494,-1.59972,-0.504268,-0.0261691,-2.07463,-1.58334,1.62262,0.785384,-0.701172,0.490771,-0.629036,0.499042,-0.288163,1.31468,0.0023486,-0.757923,0.526266,-0.70944,0.532001,-0.325504,1.39083,0.00663017,-13.3957,-4.14706,-18.4088,21.4438,-2.23997,-1.32639,-0.232351,-1.6334,-1.18763,-1.55597,3.53386,-0.871022,0.0916501,-0.0337864
2574957,0.98,-1.59664,-0.504744,-0.0230662,-2.0781,-1.5811,1.62041,0.785497,-1.60048,-0.503734,-0.0268885,-2.07409,-1.58367,1.62402,0.785391,-0.708547,0.495673,-0.644753,0.525151,-0.297334,1.33423,0.00231172,-0.766558,0.533756,-0.71943,0.539486,-0.329559,1.40864,0.00694533,-13.3719,-4.09946,-18.3056,21.2931,-2.29033,-1.41611,-0.252493,-1.64461,-1.10471,-1.56582,3.48267,-0.879725,0.0902708,-0.0357879
2574958,0.98,-1.59738,-0.504223,-0.0237573,-2.07756,-1.58141,1.62181,0.785504,-1.60126,-0.503193,-0.027618,-2.07354,-1.58401,1.62545,0.785398,-0.716591,0.504226,-0.660733,0.532598,-0.303434,1.34809,0.00367737,-0.775193,0.541246,-0.72942,0.546971,-0.333613,1.42646,0.0072605,-13.2965,-3.99631,-18.1826,21.2455,-2.28483,-1.50675,-0.310171,-1.65842,-1.00293,-1.58145,3.41309,-0.887727,0.088151,-0.0385239
2574959,0.98,-1.59814,-0.503692,-0.0244429,-2.07701,-1.58173,1.62324,0.785518,-1.60204,-0.502644,-0.0283574,-2.07299,-1.58434,1.6269,0.785406,-0.737031,0.512236,-0.669711,0.533571,-0.303123,1.36165,0.00702922,-0.783828,0.548736,-0.73941,0.554456,-0.337668,1.44428,0.00757567,-13.0188,-4.07169,-18.1826,21.2455,-2.27934,-1.55802,-0.433767,-1.6676,-0.893353,-1.59116,3.33294,-0.895245,0.0864499,-0.0419329
2574960,0.98,-1.59889,-0.503145,-0.0251528,-2.07645,-1.58205,1.62465,0.785522,-1.60283,-0.502088,-0.0291068,-2.07243,-1.58469,1.62836,0.785414,-0.737757,0.517463,-0.682763,0.546867,-0.309451,1.37907,0.00988036,-0.792462,0.556226,-0.7494,0.561942,-0.341723,1.46209,0.00789083,-13.0188,-4.19864,-18.1548,21.1423,-2.22899,-1.55802,-0.440176,-1.66979,-0.788712,-1.59136,3.25375,-0.902765,0.0854024,-0.0460129
2574961,0.98,-1.59965,-0.502602,-0.025864,-2.07588,-1.58237,1.6261,0.785518,-1.60363,-0.501524,-0.0298662,-2.07186,-1.58503,1.62984,0.785422,-0.735436,0.538316,-0.696471,0.550998,-0.30812,1.39547,0.00902349,-0.799298,0.563705,-0.75939,0.569297,-0.345517,1.47826,0.0083875,-13.2449,-4.32559,-18.1826,21.2455,-2.20061,-1.58365,-0.362356,-1.67079,-0.700802,-1.58889,3.18214,-0.910656,0.0839347,-0.0508465
2574962,0.98,-1.60041,-0.502032,-0.0265738,-2.07531,-1.58269,1.62755,0.785505,-1.60444,-0.500953,-0.0306355,-2.07128,-1.58538,1.63133,0.785431,-0.743824,0.542779,-0.702004,0.55306,-0.314647,1.43298,2.04078e-05,-0.806134,0.571184,-0.76938,0.576653,-0.349311,1.49442,0.00888417,-13.3719,-4.52792,-18.4088,21.3169,-2.22899,-1.43534,-0.181082,-1.67925,-0.647624,-1.59425,3.12815,-0.919334,0.0804369,-0.0564084
2574963,0.98,-1.60119,-0.501459,-0.0272962,-2.07473,-1.58302,1.629,0.7855,-1.60525,-0.500375,-0.0314149,-2.0707,-1.58573,1.63284,0.78544,-0.753604,0.550405,-0.71095,0.560921,-0.312046,1.44331,-0.00327909,-0.81297,0.578662,-0.77937,0.584009,-0.353105,1.51059,0.00938084,-13.4711,-4.65488,-18.6349,21.3922,-2.3361,-1.32639,-0.077627,-1.69867,-0.628408,-1.6132,3.09404,-0.928859,0.0743315,-0.0624896
2574964,0.98,-1.60197,-0.500886,-0.0280128,-2.07414,-1.58335,1.63046,0.785487,-1.60607,-0.499788,-0.0322043,-2.07011,-1.58609,1.63437,0.78545,-0.759756,0.558768,-0.723273,0.563434,-0.315449,1.44007,-0.00561349,-0.819805,0.586141,-0.78936,0.591365,-0.3569,1.52675,0.00987751,-13.6496,-4.75406,-18.7618,21.4438,-2.41484,-1.07462,0.0258276,-1.72571,-0.631356,-1.64236,3.07521,-0.93907,0.0667197,-0.0687079
2574965,0.98,-1.60277,-0.500301,-0.0287531,-2.07357,-1.58367,1.63195,0.785483,-1.6069,-0.499195,-0.0330036,-2.06951,-1.58645,1.63591,0.785461,-0.772505,0.563877,-0.734564,0.569463,-0.320437,1.45663,-0.00465986,-0.826641,0.593619,-0.79935,0.59872,-0.360694,1.54292,0.0103742,-13.598,-4.85721,-18.7618,21.6422,-2.45512,-1.03617,0.0587866,-1.75414,-0.649559,-1.67345,3.06899,-0.94991,0.0593842,-0.0746101
2574966,0.98,-1.60357,-0.499709,-0.0295023,-2.07298,-1.58403,1.63348,0.78548,-1.60773,-0.498594,-0.033813,-2.0689,-1.58682,1.63747,0.785472,-0.780831,0.580336,-0.740479,0.572767,-0.3271,1.4834,-0.0028792,-0.833477,0.601098,-0.80934,0.606076,-0.364488,1.55909,0.0108708,-13.5226,-4.93259,-18.738,21.7652,-2.41484,-1.15244,0.0587866,-1.78181,-0.682909,-1.70377,3.07526,-0.961437,0.0531049,-0.0798088
2574967,0.98,-1.60437,-0.499105,-0.0302716,-2.07238,-1.58438,1.63505,0.785476,-1.60857,-0.497985,-0.0346323,-2.06829,-1.58718,1.63904,0.785483,-0.789474,0.5898,-0.758552,0.577772,-0.336643,1.50512,-0.00246101,-0.840312,0.608576,-0.81933,0.613432,-0.368282,1.57525,0.0113675,-13.5464,-5.13492,-18.4603,21.9159,-2.36449,-1.30076,0.0780126,-1.8093,-0.740158,-1.73377,3.09748,-0.97376,0.0477687,-0.0840451
2574968,0.98,-1.6052,-0.498485,-0.0310554,-2.07178,-1.58472,1.63658,0.785464,-1.60942,-0.497369,-0.0354616,-2.06767,-1.58756,1.64064,0.785495,-0.805759,0.598773,-0.764918,0.581713,-0.340549,1.50864,-0.00558179,-0.847148,0.616055,-0.82932,0.620788,-0.372076,1.59142,0.0118642,-13.1695,-5.33725,-18.2302,22.0627,-2.40385,-1.22934,0.187876,-1.83306,-0.821797,-1.7582,3.13566,-0.98671,0.0437994,-0.0872113
2574969,0.98,-1.60605,-0.497875,-0.0318343,-2.07118,-1.58508,1.63814,0.785459,-1.61027,-0.496746,-0.0363009,-2.06704,-1.58793,1.64224,0.785507,-0.825883,0.600992,-0.75401,0.583658,-0.344002,1.5225,-0.00532069,-0.853984,0.623533,-0.83931,0.628143,-0.37587,1.60758,0.0123609,-12.6895,-5.43643,-18.1548,22.3365,-2.41484,-1.06821,0.233652,-1.85351,-0.915354,-1.78027,3.18458,-1.00016,0.0411008,-0.0892674
2574970,0.98,-1.60688,-0.497245,-0.0326428,-2.07058,-1.58543,1.63969,0.785451,-1.61113,-0.496115,-0.0371502,-2.0664,-1.58831,1.64387,0.78552,-0.833261,0.611221,-0.766533,0.585938,-0.344583,1.53284,-0.00584877,-0.860819,0.631012,-0.8493,0.635499,-0.379664,1.62375,0.0128575,-12.511,-5.51181,-17.9287,22.511,-2.44871,-0.90067,0.297739,-1.87646,-1.01025,-1.81117,3.24044,-1.01421,0.0387552,-0.0901568
2574971,0.98,-1.60771,-0.496608,-0.0334628,-2.06996,-1.5858,1.64129,0.785452,-1.612,-0.495476,-0.0380095,-2.06576,-1.58869,1.64551,0.785534,-0.83203,0.610474,-0.784911,0.596005,-0.347398,1.54429,-0.00360787,-0.865636,0.638238,-0.85929,0.642569,-0.38317,1.63805,0.0134816,-12.6657,-5.61496,-17.7502,22.5864,-2.4716,-0.713903,0.291331,-1.90114,-1.09775,-1.84884,3.2986,-1.02869,0.0370042,-0.0898507
2574972,0.98,-1.60856,-0.49598,-0.0342784,-2.06934,-1.58616,1.64291,0.785469,-1.61287,-0.494831,-0.0388788,-2.06511,-1.58908,1.64716,0.785548,-0.844159,0.620112,-0.796682,0.603166,-0.352964,1.56582,0.00312839,-0.870452,0.645464,-0.86928,0.649638,-0.386676,1.65235,0.0141056,-12.511,-5.58719,-17.6748,22.7094,-2.52836,-0.636998,0.143015,-1.92238,-1.16677,-1.88334,3.35116,-1.04313,0.0368988,-0.088389
2574973,0.98,-1.60943,-0.495342,-0.0351227,-2.06872,-1.58653,1.64454,0.785477,-1.61375,-0.494178,-0.0397581,-2.06446,-1.58947,1.64882,0.785562,-0.856893,0.620099,-0.811007,0.609077,-0.358254,1.57926,0.00499816,-0.875268,0.65269,-0.87927,0.656708,-0.390182,1.66665,0.0147296,-12.3126,-5.4642,-17.5994,22.761,-2.56224,-0.72672,0.0651953,-1.9349,-1.21191,-1.90638,3.39388,-1.05721,0.0394396,-0.0859181
2574974,0.98,-1.6103,-0.494697,-0.0359825,-2.06808,-1.5869,1.6462,0.785488,-1.61463,-0.493518,-0.0406473,-2.06379,-1.58986,1.65051,0.785578,-0.858599,0.626062,-0.824403,0.614157,-0.363199,1.58674,0.00599973,-0.880084,0.659916,-0.88926,0.663777,-0.393688,1.68096,0.0153536,-12.1579,-5.51181,-17.1948,22.761,-2.54484,-0.849401,-0.00621587,-1.93559,-1.23126,-1.91349,3.42629,-1.07089,0.0452577,-0.0827431
2574975,0.98,-1.61119,-0.494045,-0.0368479,-2.06745,-1.58728,1.64786,0.785484,-1.61551,-0.492851,-0.0415466,-2.06312,-1.59026,1.6522,0.785594,-0.867012,0.63438,-0.834323,0.633262,-0.374807,1.64318,0.00113467,-0.884901,0.667142,-0.89925,0.670847,-0.397194,1.69526,0.0159777,-11.7294,-5.43643,-17.04,22.6618,-2.51646,-1.13321,0.071604,-1.92857,-1.22589,-1.9099,3.44681,-1.08417,0.0534001,-0.0792587
2574976,0.98,-1.61208,-0.493394,-0.0377266,-2.0668,-1.58766,1.64956,0.785494,-1.6164,-0.492177,-0.0424558,-2.06244,-1.59066,1.65391,0.78561,-0.868938,0.635163,-0.845986,0.63969,-0.37927,1.65706,0.00270203,-0.889717,0.674368,-0.90924,0.677917,-0.400699,1.70956,0.0166017,-11.4041,-5.28568,-16.8655,22.4872,-2.40935,-1.42893,0.0194189,-1.92062,-1.19624,-1.90504,3.45158,-1.09695,0.0619482,-0.075797
2574977,0.98,-1.61295,-0.492748,-0.0386164,-2.06613,-1.58805,1.65127,0.785498,-1.61729,-0.491495,-0.043375,-2.06176,-1.59107,1.65563,0.785628,-0.864576,0.641253,-0.862677,0.647493,-0.378484,1.66811,0.0066485,-0.894533,0.681594,-0.91923,0.684986,-0.404205,1.72386,0.0172257,-11.5271,-5.08334,-16.56,22.2889,-2.39287,-1.49393,0.0258276,-1.91509,-1.14173,-1.90342,3.44052,-1.10925,0.0696741,-0.0725354
2574978,0.98,-1.61383,-0.492071,-0.0395181,-2.06546,-1.58843,1.65296,0.785514,-1.61819,-0.490806,-0.0443043,-2.06107,-1.59147,1.65737,0.785645,-0.867863,0.650108,-0.878888,0.657604,-0.384156,1.68832,0.00845673,-0.899349,0.68882,-0.92922,0.692056,-0.407711,1.73817,0.0178497,-11.5033,-5.10715,-16.3061,22.0627,-2.35258,-1.57084,-0.0712183,-1.91156,-1.07053,-1.90343,3.41913,-1.12118,0.076026,-0.0695513
2574979,0.98,-1.61475,-0.491394,-0.040422,-2.06478,-1.58883,1.6547,0.785535,-1.6191,-0.49011,-0.0452435,-2.06037,-1.59189,1.65912,0.785664,-0.873325,0.669725,-0.88984,0.664455,-0.387826,1.6976,0.0114536,-0.904165,0.696046,-0.93921,0.699125,-0.411217,1.75247,0.0184738,-11.2018,-5.28568,-16.3061,21.8167,-2.31871,-1.62851,-0.219534,-1.90792,-1.00347,-1.90117,3.39695,-1.13283,0.0806486,-0.066885
2574980,0.98,-1.61564,-0.490698,-0.0413252,-2.06409,-1.58923,1.65642,0.78554,-1.62001,-0.489407,-0.0461927,-2.05966,-1.5923,1.66089,0.785683,-0.881139,0.681202,-0.904475,0.669999,-0.387983,1.69837,0.0118183,-0.908982,0.703272,-0.9492,0.706195,-0.414723,1.76677,0.0190978,-11.1502,-5.43643,-16.2307,21.7176,-2.35899,-1.28702,-0.18749,-1.90137,-0.965385,-1.89258,3.386,-1.14441,0.083584,-0.0646294
2574981,0.98,-1.61654,-0.489997,-0.0422621,-2.0634,-1.58962,1.65815,0.785552,-1.62092,-0.488697,-0.0471519,-2.05895,-1.59272,1.66267,0.785703,-0.882667,0.68369,-0.915109,0.684085,-0.387466,1.71025,0.0133296,-0.91167,0.710067,-0.95919,0.712843,-0.417899,1.77911,0.0198114,-11.2771,-5.61496,-16.1315,21.5906,-2.42674,-1.1204,-0.18749,-1.88973,-0.955898,-1.87568,3.38607,-1.15589,0.085325,-0.0629967
2574982,0.98,-1.61745,-0.489301,-0.0431829,-2.06269,-1.59002,1.65992,0.78557,-1.62183,-0.48798,-0.048121,-2.05823,-1.59314,1.66446,0.785723,-0.886632,0.686578,-0.907589,0.688259,-0.391885,1.71916,0.0111706,-0.914359,0.716861,-0.96918,0.71949,-0.421075,1.79144,0.020525,-11.4795,-5.69034,-16.2307,21.5668,-2.4716,-1.13321,-0.225942,-1.88014,-0.951678,-1.86285,3.38552,-1.16722,0.0854592,-0.062159
2574983,0.97,-1.61835,-0.488582,-0.0441188,-2.062,-1.59044,1.66172,0.785588,-1.62275,-0.487256,-0.0491002,-2.0575,-1.59356,1.66627,0.785745,-0.894177,0.693759,-0.914679,0.688178,-0.400341,1.73908,0.0133315,-0.917048,0.723656,-0.97917,0.726138,-0.424251,1.80378,0.0212386,-11.654,-5.89267,-16.4092,21.6144,-2.40385,-1.43534,-0.232351,-1.88405,-0.942044,-1.87224,3.3816,-1.17874,0.0829104,-0.0621326
2574984,0.96,-1.61925,-0.487861,-0.0450894,-2.06129,-1.59086,1.66351,0.785616,-1.62367,-0.486526,-0.0500894,-2.05677,-1.59399,1.66808,0.785766,-0.894304,0.701381,-0.931901,0.694562,-0.404454,1.74618,0.0178203,-0.919736,0.73045,-0.98916,0.732785,-0.427427,1.81611,0.0219523,-11.8564,-5.99185,-16.2823,21.666,-2.39287,-1.42893,-0.31658,-1.90082,-0.932651,-1.90211,3.38013,-1.19065,0.0780371,-0.0628666
2574985,0.96,-1.62016,-0.487137,-0.0460502,-2.06056,-1.59129,1.66534,0.785637,-1.62459,-0.485789,-0.0510885,-2.05603,-1.59442,1.66991,0.785789,-0.897522,0.707358,-0.950333,0.703097,-0.413291,1.76376,0.017866,-0.922425,0.737244,-0.99915,0.739432,-0.430603,1.82845,0.0226659,-11.7572,-6.14658,-16.2069,21.6898,-2.3416,-1.47379,-0.310171,-1.92062,-0.925788,-1.93572,3.3819,-1.2026,0.0723164,-0.0643515
2574986,0.96,-1.62107,-0.486385,-0.0470285,-2.05984,-1.59172,1.66714,0.785644,-1.62552,-0.485045,-0.0520977,-2.05528,-1.59486,1.67175,0.785813,-0.892344,0.716232,-0.961947,0.714131,-0.414615,1.77344,0.0164842,-0.925114,0.744039,-1.00914,0.74608,-0.433779,1.84078,0.0233795,-11.8048,-6.55124,-16.1553,21.8167,-2.31322,-1.4097,-0.135305,-1.9385,-0.918587,-1.96374,3.3829,-1.21421,0.0664524,-0.0666185
2574987,0.96,-1.62197,-0.485624,-0.0480083,-2.05911,-1.59216,1.66897,0.785656,-1.62645,-0.484294,-0.0531168,-2.05453,-1.59529,1.6736,0.785837,-0.887442,0.730709,-0.953842,0.708877,-0.420603,1.77596,0.0133762,-0.927802,0.750833,-1.01913,0.752727,-0.436955,1.85312,0.0240931,-12.0349,-7.00351,-15.9014,22.1619,-2.25096,-1.35843,-0.0190333,-1.96452,-0.920897,-1.99962,3.38742,-1.22578,0.0589801,-0.0695426
2574988,0.96,-1.62287,-0.484866,-0.0490088,-2.05838,-1.59258,1.67078,0.785669,-1.62738,-0.483536,-0.0541459,-2.05377,-1.59573,1.67547,0.785861,-0.890033,0.736413,-0.967973,0.718385,-0.429852,1.77931,0.0109305,-0.930491,0.757628,-1.02912,0.759375,-0.440131,1.86545,0.0248067,-12.1579,-7.23361,-15.6237,22.3127,-2.38646,-1.11399,0.110056,-2.0104,-0.947113,-2.0601,3.40463,-1.2378,0.0483486,-0.0727513
2574989,0.96,-1.6238,-0.484108,-0.0500053,-2.05764,-1.593,1.67263,0.785695,-1.62831,-0.482772,-0.055185,-2.05301,-1.59618,1.67735,0.785887,-0.899607,0.741115,-0.977447,0.719758,-0.425204,1.79305,0.0189157,-0.93318,0.764422,-1.03911,0.766022,-0.443307,1.87779,0.0255204,-11.8326,-7.20584,-15.6475,22.5626,-2.54484,-0.90067,0.103647,-2.06975,-0.991535,-2.13642,3.43289,-1.25004,0.0358782,-0.0758249
2574990,0.96,-1.62471,-0.48336,-0.0510134,-2.0569,-1.59343,1.67449,0.785716,-1.62924,-0.482001,-0.0562341,-2.05223,-1.59662,1.67924,0.785913,-0.920628,0.741075,-0.99959,0.726452,-0.422668,1.80846,0.0195472,-0.935868,0.771217,-1.0491,0.77267,-0.446483,1.89012,0.026234,-11.654,-7.10666,-15.4968,22.6856,-2.68675,-0.785314,0.110056,-2.12292,-1.03589,-2.20165,3.46446,-1.26196,0.0249649,-0.0784449
2574991,0.96,-1.62563,-0.482591,-0.0520487,-2.05615,-1.59386,1.67634,0.785729,-1.63018,-0.481223,-0.0572932,-2.05145,-1.59707,1.68114,0.78594,-0.919354,0.740203,-1.01261,0.733144,-0.430799,1.82182,0.0165733,-0.936418,0.777445,-1.05909,0.778781,-0.449263,1.90047,0.0270145,-11.6818,-7.05508,-15.3182,22.761,-2.70872,-0.688268,0.200693,-2.15389,-1.06012,-2.23433,3.4905,-1.27323,0.0184884,-0.0804371
2574992,0.96,-1.62656,-0.481819,-0.053065,-2.05539,-1.5943,1.67825,0.785752,-1.63112,-0.480439,-0.0583623,-2.05067,-1.59752,1.68305,0.785968,-0.924343,0.749191,-1.02317,0.744304,-0.428589,1.83584,0.0129524,-0.936967,0.783673,-1.06908,0.784892,-0.452042,1.91083,0.027795,-11.5549,-7.18204,-15.3182,22.6618,-2.65837,-0.740453,0.200693,-2.16383,-1.05454,-2.23631,3.5047,-1.28401,0.0166789,-0.0817024
2574993,0.96,-1.62747,-0.481033,-0.0540996,-2.05462,-1.59474,1.68014,0.785764,-1.63206,-0.47965,-0.0594414,-2.04988,-1.59798,1.68497,0.785997,-0.92414,0.758035,-1.02666,0.765524,-0.432386,1.88988,0.0170799,-0.937517,0.789902,-1.07907,0.791003,-0.454822,1.92118,0.0285755,-11.5033,-7.25742,-15.4214,22.4872,-2.60161,-0.772496,0.284922,-2.16641,-1.025,-2.22682,3.50452,-1.29471,0.0174165,-0.0821694
2574994,0.96,-1.62839,-0.48024,-0.0551743,-2.05384,-1.59518,1.68205,0.785786,-1.63299,-0.478853,-0.0605304,-2.04908,-1.59844,1.6869,0.786026,-0.912108,0.760757,-1.04572,0.771187,-0.43585,1.89469,0.0190857,-0.938066,0.79613,-1.08906,0.797115,-0.457602,1.93154,0.0293561,-11.6064,-7.3566,-15.1952,22.2611,-2.51646,-0.669042,0.259287,-2.17481,-0.976936,-2.22393,3.48778,-1.30552,0.0183743,-0.081809
2574995,0.96,-1.62934,-0.479456,-0.0562154,-2.05304,-1.59563,1.684,0.785804,-1.63393,-0.478051,-0.0616295,-2.04828,-1.5989,1.68884,0.786056,-0.917279,0.76835,-1.0516,0.77681,-0.436981,1.9077,0.0201785,-0.938615,0.802359,-1.09905,0.803226,-0.460381,1.94189,0.0301366,-11.174,-7.38437,-15.1952,21.9397,-2.44322,-0.836583,0.24647,-2.19355,-0.915787,-2.23306,3.45887,-1.31655,0.0189143,-0.0805727
2574996,0.97,-1.63029,-0.478664,-0.0572849,-2.05223,-1.59608,1.68593,0.785824,-1.63487,-0.477242,-0.0627385,-2.04747,-1.59936,1.6908,0.786087,-0.927289,0.770293,-1.05356,0.787106,-0.439624,1.91866,0.0209877,-0.939165,0.808587,-1.10904,0.809337,-0.463161,1.95224,0.0309171,-10.6702,-7.33279,-15.0405,21.5152,-2.33061,-1.01053,0.226328,-2.22078,-0.846717,-2.2532,3.42335,-1.32781,0.019401,-0.0784569
2574997,0.97,-1.63122,-0.477884,-0.0583933,-2.05141,-1.59653,1.68789,0.785859,-1.63581,-0.476428,-0.0638575,-2.04665,-1.59983,1.69276,0.786119,-0.925923,0.789204,-1.07746,0.797315,-0.440864,1.91639,0.0259593,-0.939714,0.814816,-1.11903,0.815448,-0.465941,1.9626,0.0316976,-10.4956,-7.20584,-14.6874,21.1939,-2.23997,-1.13321,0.0844213,-2.25016,-0.777609,-2.27746,3.38452,-1.33904,0.0204737,-0.0755447
2574998,0.97,-1.63216,-0.477095,-0.0595003,-2.05057,-1.59698,1.68986,0.785896,-1.63675,-0.475607,-0.0649866,-2.04583,-1.60029,1.69473,0.786151,-0.932623,0.787337,-1.09704,0.804281,-0.44374,1.93192,0.0292118,-0.940263,0.821044,-1.12902,0.821559,-0.468721,1.97295,0.0324781,-10.1901,-6.97971,-14.2312,20.9201,-2.22258,-1.13321,-0.0510767,-2.26886,-0.717895,-2.28745,3.34611,-1.3497,0.0234783,-0.07202
2574999,0.97,-1.63312,-0.476297,-0.0606227,-2.04975,-1.59743,1.69182,0.785939,-1.63769,-0.474779,-0.0661256,-2.045,-1.60077,1.69671,0.786184,-0.940857,0.789898,-1.09979,0.809107,-0.447125,1.93932,0.0325309,-0.940813,0.827272,-1.13901,0.827671,-0.4715,1.9833,0.0332586,-9.73784,-6.82895,-13.8781,20.7972,-2.18321,-1.28702,-0.225942,-2.26942,-0.659059,-2.27356,3.30578,-1.3593,0.0289101,-0.0682491
2575000,0.97,-1.63408,-0.475497,-0.0617567,-2.04892,-1.59789,1.69385,0.785976,-1.63863,-0.473946,-0.0672746,-2.04417,-1.60124,1.69871,0.786218,-0.947878,0.797157,-1.10029,0.813426,-0.445879,1.95997,0.0360341,-0.941362,0.833501,-1.149,0.833782,-0.47428,1.99366,0.0340392,-9.51171,-6.82895,-13.4973,20.7456,-2.21709,-1.71274,-0.290945,-2.2585,-0.593351,-2.24785,3.26213,-1.36788,0.0351731,-0.064708
2575001,0.97,-1.63502,-0.474662,-0.0629254,-2.04808,-1.59834,1.6958,0.786023,-1.63957,-0.473107,-0.0684331,-2.04333,-1.60172,1.70071,0.786253,-0.9485,0.809081,-1.12292,0.820405,-0.443692,1.96377,0.0411831,-0.94008,0.839064,-1.15855,0.839267,-0.476555,2.00188,0.0348761,-9.36095,-7.05508,-12.9418,20.7456,-2.31322,-1.49393,-0.420034,-2.24223,-0.531587,-2.21931,3.221,-1.37572,0.0406068,-0.0618555
2575002,0.97,-1.63599,-0.473816,-0.0640662,-2.04724,-1.5988,1.69779,0.786057,-1.64051,-0.472262,-0.0696012,-2.04249,-1.6022,1.70272,0.786289,-0.94403,0.817688,-1.12625,0.826281,-0.453294,1.96137,0.0367591,-0.938797,0.844627,-1.16809,0.844751,-0.47883,2.0101,0.035713,-9.05547,-7.33279,-12.8903,20.8448,-2.38096,-1.30076,-0.34313,-2.22112,-0.486659,-2.18649,3.18793,-1.38305,0.0445761,-0.0600579
2575003,0.97,-1.63693,-0.472982,-0.0652105,-2.04637,-1.59926,1.6998,0.786112,-1.64145,-0.471412,-0.0707789,-2.04164,-1.60268,1.70474,0.786326,-0.944168,0.826466,-1.14314,0.831435,-0.450158,1.96187,0.0412334,-0.937515,0.850191,-1.17764,0.850236,-0.481105,2.01833,0.0365499,-8.95629,-7.6105,-12.9141,20.9439,-2.47709,-1.0618,-0.446585,-2.19821,-0.463594,-2.15193,3.16493,-1.3902,0.0466831,-0.0595324
2575004,0.97,-1.63787,-0.472123,-0.0663919,-2.04554,-1.59971,1.70181,0.786162,-1.64239,-0.470556,-0.071966,-2.04078,-1.60316,1.70677,0.786363,-0.939244,0.831829,-1.15346,0.833515,-0.455261,1.98207,0.0453088,-0.936232,0.855754,-1.18719,0.855721,-0.48338,2.02655,0.0373868,-9.234,-7.96359,-12.7871,21.2693,-2.49449,-1.16526,-0.452993,-2.17537,-0.461102,-2.11747,3.15242,-1.3975,0.0470586,-0.0603608
2575005,0.97,-1.63882,-0.471286,-0.0675641,-2.0447,-1.60019,1.70384,0.786213,-1.64332,-0.469695,-0.0731628,-2.03992,-1.60365,1.7088,0.786401,-0.939354,0.837591,-1.14739,0.829103,-0.458453,1.9878,0.0470816,-0.934949,0.861317,-1.19674,0.861206,-0.485655,2.03477,0.0382238,-9.38475,-8.06674,-12.6125,21.666,-2.50548,-1.28702,-0.413626,-2.15941,-0.477461,-2.09282,3.15258,-1.40544,0.0451164,-0.0625488
2575006,0.97,-1.63977,-0.47043,-0.0687306,-2.04385,-1.60066,1.70584,0.786272,-1.64425,-0.468828,-0.0743691,-2.03905,-1.60413,1.71084,0.78644,-0.947888,0.840778,-1.15318,0.838451,-0.470576,1.98873,0.046351,-0.933667,0.866881,-1.20628,0.866691,-0.487931,2.04299,0.0390607,-9.08324,-8.2175,-12.9141,21.8882,-2.44871,-1.11399,-0.440176,-2.15808,-0.507126,-2.09038,3.16483,-1.41439,0.040097,-0.0660111
2575007,0.97,-1.64072,-0.469568,-0.0699234,-2.04299,-1.60114,1.70785,0.786302,-1.64519,-0.467956,-0.0755849,-2.03818,-1.60462,1.71289,0.78648,-0.943997,0.841907,-1.16461,0.843081,-0.477424,1.99318,0.0390806,-0.932384,0.872444,-1.21583,0.872175,-0.490206,2.05122,0.0398976,-8.93248,-8.32065,-13.0648,22.0627,-2.39836,-0.894261,-0.168264,-2.16719,-0.534734,-2.1053,3.18054,-1.42403,0.0329919,-0.070598
2575008,0.97,-1.64162,-0.468706,-0.071126,-2.04212,-1.60163,1.70987,0.786342,-1.64612,-0.467078,-0.0768103,-2.0373,-1.60512,1.71495,0.786521,-0.941077,0.845707,-1.18734,0.849551,-0.47418,1.98578,0.0394444,-0.931102,0.878007,-1.22538,0.87766,-0.492481,2.05944,0.0407345,-9.46013,-8.52298,-12.7871,22.0905,-2.30223,-0.604955,0.000192821,-2.17626,-0.546997,-2.12218,3.19207,-1.43381,0.0258798,-0.0760555
2575009,0.97,-1.64253,-0.467829,-0.0723395,-2.04124,-1.60209,1.71191,0.786358,-1.64705,-0.466194,-0.0780452,-2.03642,-1.60561,1.71702,0.786562,-0.923733,0.848307,-1.2,0.85314,-0.468645,2.00395,0.0275118,-0.929819,0.883571,-1.23493,0.883145,-0.494756,2.06766,0.0415715,-9.68627,-8.67374,-12.7117,21.9159,-2.29674,-0.707494,0.349924,-2.18058,-0.541768,-2.13214,3.19845,-1.44342,0.0201702,-0.0819011
2575010,0.97,-1.64348,-0.466975,-0.0735307,-2.04035,-1.60258,1.71397,0.786399,-1.64798,-0.465305,-0.0792897,-2.03553,-1.60611,1.7191,0.786605,-0.924705,0.847078,-1.20312,0.860883,-0.471369,2.01221,0.0291471,-0.928537,0.889134,-1.24447,0.88863,-0.497031,2.07588,0.0424084,-9.55931,-8.59836,-12.8903,21.666,-2.33061,-0.798131,0.434153,-2.18726,-0.517439,-2.14341,3.19846,-1.45279,0.0153864,-0.0874456
2575011,0.97,-1.64439,-0.466107,-0.0747854,-2.03947,-1.60305,1.71601,0.786429,-1.6489,-0.464411,-0.0805428,-2.03464,-1.60661,1.72118,0.786648,-0.921489,0.848406,-1.22317,0.869043,-0.470236,2.05376,0.0306434,-0.925822,0.893966,-1.25309,0.893407,-0.498625,2.08189,0.0432975,-9.63866,-8.47141,-12.5094,21.3922,-2.48259,-0.572911,0.511057,-2.20064,-0.467441,-2.16215,3.18725,-1.46171,0.0109178,-0.0919468
2575012,0.97,-1.64533,-0.465212,-0.0760387,-2.03856,-1.60353,1.71804,0.786454,-1.64983,-0.463512,-0.0818045,-2.03374,-1.60711,1.72327,0.786692,-0.92569,0.858636,-1.23721,0.882288,-0.477687,2.04655,0.0314658,-0.923107,0.898799,-1.26171,0.898185,-0.500218,2.0879,0.0441866,-9.51171,-8.62216,-12.2317,21.0709,-2.55125,-0.379735,0.57606,-2.21318,-0.393461,-2.17776,3.16239,-1.46988,0.00766704,-0.0948068
