shamilmamedov/beam_handling/log/param_estimation_ICRA/ocp_Xdown_15cm_0.35s_6.csv
duration, success rate, q[0], q[1], q[2], q[3], q[4], q[5], q[6],q_d[0], q_d[1], q_d[2], q_d[3], q_d[4], q_d[5], q_d[6],dq[0], dq[1], dq[2], dq[3], dq[4], dq[5], dq[6],dq_d[0], dq_d[1], dq_d[2], dq_d[3], dq_d[4], dq_d[5], dq_d[6],tau_J[0], tau_J[1], tau_J[2], tau_J[3], tau_J[4], tau_J[5], tau_J[6],tau_ext_hat_filtered[0], tau_ext_hat_filtered[1], tau_ext_hat_filtered[2], tau_ext_hat_filtered[3], tau_ext_hat_filtered[4], tau_ext_hat_filtered[5], tau_ext_hat_filtered[6]
2264534,0,-1.57094,-0.522754,-0.00067496,-2.09578,-1.57085,1.57154,0.785806,-1.5708,-0.523599,-4.36116e-08,-2.09439,-1.5708,1.5708,0.785399,-0.00029344,-0.000162871,-3.4991e-05,-0.000447026,-5.75694e-05,-3.37201e-05,0.000118762,0,0,0,0,0,0,0,0.0732535,-10.3162,1.01111,20.821,-0.75865,-0.572911,-0.219534,0.0628853,-1.18208,0.84461,2.24814,-0.190899,-0.575128,-0.266124
2264535,1,-1.57094,-0.522752,-0.000673011,-2.09578,-1.57085,1.57154,0.78581,-1.5708,-0.523599,-4.36116e-08,-2.09439,-1.5708,1.5708,0.785399,-0.00084524,0.000448232,0.000626287,-0.000298017,-0.000275739,-2.24801e-05,0.00129988,0,0,0,0,0,0,0,0.101024,-10.34,0.98334,20.821,-0.752241,-0.572911,-0.252493,0.0629241,-1.18316,0.844277,2.24905,-0.190919,-0.575154,-0.265859
2264536,1,-1.57094,-0.522757,-0.000673011,-2.09578,-1.57085,1.57154,0.785808,-1.5708,-0.523599,-4.36116e-08,-2.09439,-1.5708,1.5708,0.785399,0.000642932,-0.000814803,0.000417524,-0.000198678,5.35333e-05,-1.49867e-05,0.000357959,0,0,0,0,0,0,0,0.0494498,-10.2924,0.98334,20.821,-0.75865,-0.572911,-0.23876,0.0628874,-1.18348,0.843657,2.24968,-0.190951,-0.575173,-0.265652
2264537,1,-1.57094,-0.522754,-0.000676631,-2.09578,-1.57085,1.57155,0.785807,-1.5708,-0.523599,-4.36116e-08,-2.09439,-1.5708,1.5708,0.785399,-0.00012819,1.361e-05,-0.000928076,0.00042436,-0.000608571,0.000227368,-0.000236079,0,0,0,0,0,0,0,0.0732535,-10.3162,1.03491,20.7972,-0.741255,-0.57932,-0.225942,0.0627823,-1.18227,0.842899,2.24951,-0.190959,-0.575177,-0.265532
2264538,1,-1.57094,-0.522755,-0.000676631,-2.09578,-1.57085,1.57155,0.78581,-1.5708,-0.523599,-4.36116e-08,-2.09439,-1.5708,1.5708,0.785399,0.00102816,-0.000547739,-0.000618718,0.000282907,1.18695e-06,0.000151579,0.000825958,0,0,0,0,0,0,0,0.0256461,-10.2924,1.03491,20.7972,-0.752241,-0.57932,-0.252493,0.0631203,-1.17981,0.842926,2.24853,-0.190912,-0.575094,-0.265504
2264539,1,-1.57094,-0.522754,-0.000673011,-2.09578,-1.57085,1.57155,0.785807,-1.5708,-0.523599,-4.36116e-08,-2.09439,-1.5708,1.5708,0.785399,0.00012863,0.000191653,0.000793948,0.000188604,0.000441601,-0.000136307,-0.000195346,0,0,0,0,0,0,0,0.0494498,-10.3162,0.98334,20.7972,-0.764143,-0.572911,-0.232351,0.0633225,-1.1771,0.842903,2.24727,-0.190842,-0.575025,-0.265558
2264540,1,-1.57095,-0.522753,-0.00067496,-2.09578,-1.57085,1.57155,0.78581,-1.5708,-0.523599,-4.36116e-08,-2.09439,-1.5708,1.5708,0.785399,-0.00167748,0.000127769,-0.000120316,0.000125736,9.095e-05,-9.08711e-05,0.000615754,0,0,0,0,0,0,0,0.124828,-10.3162,1.01111,20.7972,-0.75865,-0.572911,-0.252493,0.0633437,-1.17517,0.84256,2.2464,-0.190786,-0.574989,-0.265688
2264541,1,-1.57094,-0.522752,-0.000673011,-2.09578,-1.57085,1.57155,0.785806,-1.5708,-0.523599,-4.36116e-08,-2.09439,-1.5708,1.5708,0.785399,0.00120173,0.000641991,0.000569404,0.00129025,-0.000176726,-6.05807e-05,-0.0008102,0,0,0,0,0,0,0,0.0256461,-10.34,0.98334,20.7456,-0.752241,-0.572911,-0.219534,0.0635544,-1.17433,0.842384,2.24585,-0.190741,-0.574938,-0.265888
2264542,1,-1.57094,-0.522752,-0.00067496,-2.09578,-1.57085,1.57155,0.78581,-1.5708,-0.523599,-4.36116e-08,-2.09439,-1.5708,1.5708,0.785399,-0.000312473,0.000427994,-0.000270012,-0.000346259,0.000322992,0.00067169,0.000917929,0,0,0,0,0,0,0,0.0732535,-10.34,1.01111,20.7972,-0.764143,-0.592137,-0.258901,0.0633989,-1.17457,0.841737,2.24558,-0.190718,-0.574959,-0.266146
2264543,1,-1.57094,-0.522753,-0.000673011,-2.09578,-1.57085,1.57155,0.785807,-1.5708,-0.523599,-4.36116e-08,-2.09439,-1.5708,1.5708,0.785399,-0.000208315,-0.000271483,0.000469606,-0.000230839,0.000215328,-2.69248e-05,-0.000608751,0,0,0,0,0,0,0,0.0732535,-10.3162,0.98334,20.7972,-0.764143,-0.57932,-0.225942,0.0631049,-1.17564,0.840941,2.24594,-0.190732,-0.575014,-0.266446
2264544,1,-1.57094,-0.522755,-0.00067496,-2.09578,-1.57085,1.57155,0.785808,-1.5708,-0.523599,-4.36116e-08,-2.09439,-1.5708,1.5708,0.785399,0.000974747,-0.0007378,-0.000336543,0.00160934,-0.000297257,-1.79498e-05,6.88841e-05,0,0,0,0,0,0,0,0.0256461,-10.2924,1.01111,20.7218,-0.752241,-0.57932,-0.23876,0.0628787,-1.1754,0.840223,2.24582,-0.190743,-0.575055,-0.266789
2264545,1,-1.57094,-0.522755,-0.00067496,-2.09578,-1.57085,1.57155,0.785803,-1.5708,-0.523599,-4.36116e-08,-2.09439,-1.5708,1.5708,0.785399,9.30195e-05,-0.000491867,-0.000224362,-4.07273e-05,0.000242638,-1.19666e-05,-0.00161559,0,0,0,0,0,0,0,0.0494498,-10.2924,1.01111,20.7694,-0.764143,-0.57932,-0.193899,0.0626025,-1.17277,0.839491,2.24428,-0.190716,-0.575086,-0.267164
2264546,1,-1.57094,-0.522753,-0.00067496,-2.09578,-1.57085,1.57155,0.785807,-1.5708,-0.523599,-4.36116e-08,-2.09439,-1.5708,1.5708,0.785399,-0.000494799,0.000228901,-0.000149575,-0.000676765,-0.000482501,-0.000245337,0.000109735,0,0,0,0,0,0,0,0.0732535,-10.3162,1.01111,20.7972,-0.746748,-0.572911,-0.225942,0.0626867,-1.17022,0.839366,2.24297,-0.190699,-0.575066,-0.267531
2264547,1,-1.57094,-0.522755,-0.000676631,-2.09578,-1.57085,1.57154,0.785802,-1.5708,-0.523599,-4.36116e-08,-2.09439,-1.5708,1.5708,0.785399,0.000783758,-0.000404211,-0.000656528,0.000198437,0.000119142,7.38012e-05,-0.00158836,0,0,0,0,0,0,0,0.0256461,-10.2924,1.03491,20.7694,-0.75865,-0.57932,-0.181082,0.0631731,-1.16933,0.839929,2.24288,-0.190726,-0.575002,-0.267848
2264548,1,-1.57094,-0.522755,-0.000676631,-2.09578,-1.57085,1.57154,0.7858,-1.5708,-0.523599,-4.36116e-08,-2.09439,-1.5708,1.5708,0.785399,-3.43067e-05,-0.000269474,-0.000437686,0.000689103,0.000486329,-0.000425517,-0.000584186,0,0,0,0,0,0,0,0.0494498,-10.2924,1.03491,20.7456,-0.769636,-0.566503,-0.193899,0.0637781,-1.16862,0.840827,2.24284,-0.190748,-0.574915,-0.268093
2264549,1,-1.57094,-0.522753,-0.00067496,-2.09578,-1.57085,1.57154,0.785804,-1.5708,-0.523599,-4.36116e-08,-2.09439,-1.5708,1.5708,0.785399,-0.000579683,0.000377162,0.000265022,0.000459402,-0.000320041,-4.63191e-05,8.52604e-05,0,0,0,0,0,0,0,0.0732535,-10.3162,1.01111,20.7456,-0.752241,-0.572911,-0.206716,0.0644066,-1.16772,0.841834,2.24235,-0.190758,-0.574813,-0.26824
2264550,1,-1.57094,-0.522753,-0.00067496,-2.09578,-1.57085,1.57154,0.785802,-1.5708,-0.523599,-4.36116e-08,-2.09439,-1.5708,1.5708,0.785399,-0.000386455,0.000251442,0.000176681,-0.00652716,-0.00021336,-3.08794e-05,-0.000655237,0,0,0,0,0,0,0,0.0732535,-10.3162,1.01111,20.7694,-0.752241,-0.572911,-0.18749,0.064903,-1.16997,0.842672,2.24435,-0.190882,-0.574748,-0.268261
2264551,1,-1.57094,-0.522753,-0.000676631,-2.09578,-1.57085,1.57154,0.785805,-1.5708,-0.523599,-4.36116e-08,-2.09439,-1.5708,1.5708,0.785399,-0.000257637,0.000167628,-0.000439025,-0.00487449,-0.000345691,0.000454132,0.000275252,0,0,0,0,0,0,0,0.0732535,-10.3162,1.03491,20.7694,-0.746748,-0.585729,-0.206716,0.0652659,-1.17807,0.843441,2.25183,-0.191232,-0.574739,-0.268151
2264552,1,-1.57094,-0.522754,-0.000676631,-2.09578,-1.57085,1.57155,0.785803,-1.5708,-0.523599,-4.36116e-08,-2.09439,-1.5708,1.5708,0.785399,-0.000821372,0.000668564,-0.000292683,-0.00364195,0.00061725,6.53955e-05,-0.000291216,0,0,0,0,0,0,0,0.101024,-10.34,1.03491,20.7694,-0.769636,-0.57932,-0.193899,0.0658622,-1.18977,0.844659,2.26265,-0.191702,-0.574723,-0.267932
2264553,1,-1.57094,-0.522754,-0.00067496,-2.09578,-1.57085,1.57154,0.785807,-1.5708,-0.523599,-4.36116e-08,-2.09439,-1.5708,1.5708,0.785399,0.000102033,-0.000111103,0.00036169,-0.00392861,-0.000436211,-0.000431121,0.00123001,0,0,0,0,0,0,0,0.0732535,-10.3162,1.01111,20.821,-0.746748,-0.566503,-0.232351,0.0665221,-1.20146,0.845932,2.27325,-0.192155,-0.574709,-0.267638
2264554,1,-1.57094,-0.522754,-0.00067496,-2.09578,-1.57085,1.57155,0.785805,-1.5708,-0.523599,-4.36116e-08,-2.09439,-1.5708,1.5708,0.785399,6.80218e-05,-7.40685e-05,0.000241127,-0.00163331,0.000353453,0.000187304,0.00010793,0,0,0,0,0,0,0,0.0732535,-10.3162,1.01111,20.7694,-0.764143,-0.57932,-0.213125,0.0665958,-1.21058,0.846227,2.28158,-0.192537,-0.574771,-0.267306
2264555,1,-1.57094,-0.522757,-0.00067496,-2.09578,-1.57085,1.57155,0.785807,-1.5708,-0.523599,-4.36116e-08,-2.09439,-1.5708,1.5708,0.785399,-0.000604266,-0.0012558,0.000160751,-0.000697558,-0.000408625,0.000124869,0.00153002,0,0,0,0,0,0,0,0.101024,-10.2646,1.01111,20.7456,-0.746748,-0.57932,-0.252493,0.0662482,-1.2145,0.845697,2.28567,-0.192762,-0.574861,-0.266986
2264556,1,-1.57094,-0.522752,-0.000676631,-2.09578,-1.57085,1.57154,0.785806,-1.5708,-0.523599,-4.36116e-08,-2.09439,-1.5708,1.5708,0.785399,0.00024677,0.000926035,-0.000449645,-0.00179559,-6.89659e-05,-0.000154113,0.000274025,0,0,0,0,0,0,0,0.0732535,-10.34,1.03491,20.7972,-0.752241,-0.572911,-0.232351,0.0660911,-1.2141,0.845265,2.28598,-0.192826,-0.574897,-0.266714
2264557,1,-1.57094,-0.522759,-0.00067496,-2.09578,-1.57085,1.57155,0.785809,-1.5708,-0.523599,-4.36116e-08,-2.09439,-1.5708,1.5708,0.785399,0.000721325,-0.00170269,0.000257049,-0.000640536,-4.59773e-05,0.000371976,0.00069131,0,0,0,0,0,0,0,0.0494498,-10.2408,1.01111,20.7694,-0.752241,-0.585729,-0.246084,0.0659044,-1.21174,0.844772,2.28432,-0.1928,-0.574934,-0.266516
2264558,1,-1.57094,-0.522753,-0.000676631,-2.09578,-1.57085,1.57155,0.785809,-1.5708,-0.523599,-4.36116e-08,-2.09439,-1.5708,1.5708,0.785399,0.000480883,0.000628109,-0.000385446,-0.00170327,0.000206707,0.000247984,0.000460873,0,0,0,0,0,0,0,0.0494498,-10.3162,1.03491,20.821,-0.75865,-0.585729,-0.246084,0.0653144,-1.20783,0.843745,2.28137,-0.192717,-0.575028,-0.266411
2264559,1,-1.57094,-0.522753,-0.000676631,-2.09578,-1.57085,1.57154,0.785807,-1.5708,-0.523599,-4.36116e-08,-2.09439,-1.5708,1.5708,0.785399,-0.000236223,0.000418739,-0.000256964,1.8549e-05,-9.9554e-05,-0.000546754,-0.000438737,0,0,0,0,0,0,0,0.0732535,-10.3162,1.03491,20.7694,-0.752241,-0.566503,-0.225942,0.064813,-1.20438,0.842934,2.27821,-0.192606,-0.575126,-0.2664
2264560,1,-1.57094,-0.522753,-0.00067496,-2.09578,-1.57085,1.57154,0.785808,-1.5708,-0.523599,-4.36116e-08,-2.09439,-1.5708,1.5708,0.785399,0.00039933,0.00027916,0.000385503,-0.000676521,-0.00026982,-0.000364503,0.000182227,0,0,0,0,0,0,0,0.0494498,-10.3162,1.01111,20.7972,-0.746748,-0.566503,-0.23876,0.0645799,-1.2021,0.842559,2.27513,-0.192477,-0.575205,-0.266475
2264561,1,-1.57094,-0.522755,-0.00067496,-2.09578,-1.57085,1.57154,0.785807,-1.5708,-0.523599,-4.36116e-08,-2.09439,-1.5708,1.5708,0.785399,-0.000290592,-0.000370706,0.000257002,0.000169145,2.35706e-05,-5.6429e-06,-0.000115874,0,0,0,0,0,0,0,0.0732535,-10.2924,1.01111,20.7694,-0.752241,-0.572911,-0.232351,0.0642011,-1.19937,0.841926,2.27151,-0.19232,-0.575293,-0.26662
2264562,1,-1.57094,-0.522757,-0.00067496,-2.09578,-1.57085,1.57155,0.785809,-1.5708,-0.523599,-4.36116e-08,-2.09439,-1.5708,1.5708,0.785399,-0.000193728,-0.000896751,0.000171334,-0.000558942,0.000456523,0.000233597,0.000431377,0,0,0,0,0,0,0,0.0732535,-10.2646,1.01111,20.7972,-0.764143,-0.57932,-0.246084,0.0638133,-1.19499,0.841181,2.26711,-0.192123,-0.575346,-0.266823
2264563,1,-1.57094,-0.522755,-0.00067496,-2.09578,-1.57085,1.57155,0.785807,-1.5708,-0.523599,-4.36116e-08,-2.09439,-1.5708,1.5708,0.785399,-0.000129152,5.17799e-05,0.000114223,-0.000389196,0.000100898,-8.16276e-05,-0.000458401,0,0,0,0,0,0,0,0.0732535,-10.2924,1.01111,20.7972,-0.75865,-0.572911,-0.225942,0.0636395,-1.18955,0.840674,2.26248,-0.191909,-0.57534,-0.267073
2264564,1,-1.57094,-0.522755,-0.000676631,-2.09578,-1.57085,1.57154,0.78581,-1.5708,-0.523599,-4.36116e-08,-2.09439,-1.5708,1.5708,0.785399,-0.000735715,3.452e-05,-0.000480663,-0.00027189,6.72655e-05,-0.000291777,0.000677744,0,0,0,0,0,0,0,0.101024,-10.2924,1.03491,20.7972,-0.75865,-0.566503,-0.252493,0.0639228,-1.18494,0.840825,2.25859,-0.191716,-0.575263,-0.267356
2264565,1,-1.57094,-0.522755,-0.00067496,-2.09578,-1.57085,1.57155,0.785807,-1.5708,-0.523599,-4.36116e-08,-2.09439,-1.5708,1.5708,0.785399,0.000715949,2.30133e-05,0.00023637,0.00101585,4.48437e-05,0.0002802,-0.000294156,0,0,0,0,0,0,0,0.0494498,-10.2924,1.01111,20.7456,-0.75865,-0.57932,-0.232351,0.0645426,-1.18119,0.841492,2.2551,-0.191538,-0.575141,-0.267667
2264566,1,-1.57094,-0.522757,-0.000678579,-2.09578,-1.57085,1.57155,0.78581,-1.5708,-0.523599,-4.36116e-08,-2.09439,-1.5708,1.5708,0.785399,-7.95126e-05,-0.000634272,-0.00104885,0.000113429,-0.000207463,-5.05592e-05,0.000549881,0,0,0,0,0,0,0,0.0732535,-10.2646,1.06269,20.7694,-0.752241,-0.572911,-0.252493,0.0651083,-1.17707,0.842155,2.25126,-0.191356,-0.575017,-0.268009
2264567,1,-1.57094,-0.522757,-0.00067496,-2.09578,-1.57085,1.57155,0.785808,-1.5708,-0.523599,-4.36116e-08,-2.09439,-1.5708,1.5708,0.785399,0.000503804,-0.000422848,0.000507195,-0.00113605,0.000302501,0.000203653,-0.000142039,0,0,0,0,0,0,0,0.0494498,-10.2646,1.01111,20.821,-0.764143,-0.57932,-0.23876,0.0655955,-1.17274,0.842802,2.24771,-0.191198,-0.574895,-0.268379
2264568,1,-1.57094,-0.522755,-0.000676631,-2.09578,-1.57085,1.57155,0.785807,-1.5708,-0.523599,-4.36116e-08,-2.09439,-1.5708,1.5708,0.785399,-0.000220943,0.000367715,-0.000218682,-0.000761298,-0.000239142,0.000135769,-0.000332052,0,0,0,0,0,0,0,0.0732535,-10.2924,1.03491,20.821,-0.752241,-0.57932,-0.232351,0.065752,-1.16995,0.84304,2.24576,-0.191123,-0.574833,-0.268769
2264569,1,-1.57094,-0.522755,-0.000676631,-2.09578,-1.57085,1.57154,0.785807,-1.5708,-0.523599,-4.36116e-08,-2.09439,-1.5708,1.5708,0.785399,0.000966329,0.000245144,-0.000145788,0.000695945,-0.000159428,9.05124e-05,-0.000458727,0,0,0,0,0,0,0,0.0256461,-10.2924,1.03491,20.7694,-0.752241,-0.57932,-0.225942,0.065567,-1.16909,0.84289,2.24509,-0.191109,-0.574848,-0.269171
2264570,1,-1.57094,-0.522753,-0.00067496,-2.09578,-1.57085,1.57154,0.785807,-1.5708,-0.523599,-4.36116e-08,-2.09439,-1.5708,1.5708,0.785399,-0.000469405,0.000720241,0.00045962,0.000461752,0.000131073,6.03416e-05,-0.000305818,0,0,0,0,0,0,0,0.0732535,-10.3162,1.01111,20.7694,-0.75865,-0.57932,-0.225942,0.0651358,-1.16912,0.842482,2.24452,-0.191102,-0.574919,-0.26957
2264571,1,-1.57094,-0.522755,-0.000673011,-2.09578,-1.57085,1.57154,0.78581,-1.5708,-0.523599,-4.36116e-08,-2.09439,-1.5708,1.5708,0.785399,0.000243875,-7.66513e-05,0.000956027,-0.00090025,-0.000353427,-0.000197131,0.000779466,0,0,0,0,0,0,0,0.0494498,-10.2924,0.98334,20.821,-0.746748,-0.572911,-0.252493,0.064309,-1.16974,0.841465,2.24418,-0.191113,-0.575064,-0.269945
2264572,1,-1.57094,-0.52275,-0.00067496,-2.09578,-1.57085,1.57154,0.785805,-1.5708,-0.523599,-4.36116e-08,-2.09439,-1.5708,1.5708,0.785399,-0.000394228,0.00171214,-1.22624e-05,-0.00115822,0.000408642,-0.000131421,-0.000938418,0,0,0,0,0,0,0,0.0732535,-10.3678,1.01111,20.8448,-0.764143,-0.572911,-0.213125,0.0632799,-1.17217,0.840112,2.2453,-0.191185,-0.575259,-0.27029
2264573,1,-1.57094,-0.522753,-0.000676631,-2.09578,-1.57085,1.57154,0.785804,-1.5708,-0.523599,-4.36116e-08,-2.09439,-1.5708,1.5708,0.785399,-0.000262819,-6.50012e-05,-0.000564987,-0.00021627,0.000272428,-8.76139e-05,-0.000150894,0,0,0,0,0,0,0,0.0732535,-10.3162,1.03491,20.821,-0.764143,-0.572911,-0.225942,0.0628464,-1.17651,0.839668,2.24785,-0.191291,-0.575375,-0.270611
2264574,1,-1.57094,-0.522759,-0.000676631,-2.09578,-1.57085,1.57155,0.785806,-1.5708,-0.523599,-4.36116e-08,-2.09439,-1.5708,1.5708,0.785399,0.000381599,-0.00124976,-0.000376658,-0.000144879,-2.18319e-05,-5.84093e-05,-0.000100596,0,0,0,0,0,0,0,0.0494498,-10.2646,1.03491,20.821,-0.75865,-0.572911,-0.225942,0.0632777,-1.17887,0.8405,2.2496,-0.191342,-0.575327,-0.270908
2264575,1,-1.57094,-0.522756,-0.000678579,-2.09578,-1.57085,1.57155,0.785806,-1.5708,-0.523599,-4.36116e-08,-2.09439,-1.5708,1.5708,0.785399,0.0002544,0.000373253,-0.000900719,-9.71111e-05,-0.000251914,0.000435778,-6.70641e-05,0,0,0,0,0,0,0,0.0494498,-10.3162,1.06269,20.821,-0.752241,-0.585729,-0.225942,0.0640809,-1.17775,0.841923,2.24965,-0.191325,-0.575173,-0.271175
2264576,1,-1.57094,-0.522753,-0.000676631,-2.09578,-1.57084,1.57155,0.785805,-1.5708,-0.523599,-4.36116e-08,-2.09439,-1.5708,1.5708,0.785399,0.0001696,0.000805647,4.91345e-05,-0.00694046,0.000679768,-0.000184199,-0.000756786,0,0,0,0,0,0,0,0.0494498,-10.34,1.03491,20.8448,-0.77513,-0.572911,-0.206716,0.0648574,-1.1788,0.843509,2.25188,-0.191399,-0.575035,-0.271394
2264577,1,-1.57094,-0.522758,-0.00067496,-2.09578,-1.57085,1.57154,0.785806,-1.5708,-0.523599,-4.36116e-08,-2.09439,-1.5708,1.5708,0.785399,-0.00109336,-0.000576526,0.000589568,-0.00339057,-0.000157173,-0.000122799,-2.98063e-05,0,0,0,0,0,0,0,0.101024,-10.2924,1.01111,20.7694,-0.75865,-0.572911,-0.219534,0.0653378,-1.18501,0.844771,2.25897,-0.191685,-0.574982,-0.271544
2264578,1,-1.57094,-0.52276,-0.00068025,-2.09578,-1.57085,1.57154,0.785805,-1.5708,-0.523599,-4.36116e-08,-2.09439,-1.5708,1.5708,0.785399,-7.92923e-05,-0.00159078,-0.00137019,-0.00330512,-0.000342141,-0.000319225,-0.00025723,0,0,0,0,0,0,0,0.0732535,-10.2408,1.08649,20.7972,-0.752241,-0.566503,-0.213125,0.0660326,-1.19095,0.846233,2.26704,-0.192028,-0.574882,-0.271634
2264579,1,-1.57094,-0.522756,-0.00067496,-2.09578,-1.57085,1.57154,0.785803,-1.5708,-0.523599,-4.36116e-08,-2.09439,-1.5708,1.5708,0.785399,-5.28616e-05,0.00070272,0.000849776,-0.00305657,0.000212716,-0.000212817,-0.00112092,0,0,0,0,0,0,0,0.0732535,-10.3162,1.01111,20.821,-0.764143,-0.566503,-0.18749,0.0669987,-1.19414,0.848021,2.27338,-0.192311,-0.574709,-0.271677
2264580,1,-1.57094,-0.522753,-0.000676631,-2.09578,-1.57085,1.57155,0.785805,-1.5708,-0.523599,-4.36116e-08,-2.09439,-1.5708,1.5708,0.785399,-0.000684855,0.00102529,9.70557e-06,-0.00170316,-0.000298999,0.00033284,-3.52047e-05,0,0,0,0,0,0,0,0.101024,-10.34,1.03491,20.7972,-0.752241,-0.57932,-0.206716,0.0674445,-1.19783,0.849015,2.27889,-0.192577,-0.574626,-0.271656
2264581,1,-1.57094,-0.522754,-0.00067496,-2.09578,-1.57085,1.57154,0.785805,-1.5708,-0.523599,-4.36116e-08,-2.09439,-1.5708,1.5708,0.785399,0.000193044,0.000126716,0.000563282,-9.57119e-05,-0.000402783,0.000221893,-2.34698e-05,0,0,0,0,0,0,0,0.0732535,-10.3162,1.01111,20.7456,-0.746748,-0.57932,-0.206716,0.0673238,-1.20154,0.849069,2.28266,-0.192783,-0.574648,-0.271562
2264582,1,-1.57094,-0.522754,-0.000676631,-2.09578,-1.57084,1.57155,0.785805,-1.5708,-0.523599,-4.36116e-08,-2.09439,-1.5708,1.5708,0.785399,0.000685508,8.44774e-05,-0.00018129,-0.000188829,-6.50716e-05,0.000385288,-1.56465e-05,0,0,0,0,0,0,0,0.0494498,-10.3162,1.03491,20.7456,-0.752241,-0.585729,-0.206716,0.066716,-1.20242,0.848325,2.28317,-0.192862,-0.574737,-0.271406
2264583,1,-1.57094,-0.522755,-0.00067496,-2.09578,-1.57085,1.57155,0.785801,-1.5708,-0.523599,-4.36116e-08,-2.09439,-1.5708,1.5708,0.785399,0.000457005,-0.000500494,0.000435952,-0.000776464,0.000193978,-0.000217859,-0.00119723,0,0,0,0,0,0,0,0.0494498,-10.2924,1.01111,20.7694,-0.75865,-0.572911,-0.174673,0.065645,-1.20025,0.846887,2.28099,-0.192831,-0.574881,-0.271202
2264584,1,-1.57094,-0.522755,-0.000676631,-2.09578,-1.57085,1.57155,0.78581,-1.5708,-0.523599,-4.36116e-08,-2.09439,-1.5708,1.5708,0.785399,0.00030467,-0.000333662,-0.000266177,-3.1155e-05,0.000129319,9.21194e-05,0.00208407,0,0,0,0,0,0,0,0.0494498,-10.2924,1.03491,20.7456,-0.75865,-0.57932,-0.252493,0.0644969,-1.1959,0.84533,2.27723,-0.192731,-0.575021,-0.270945
2264585,1,-1.57094,-0.522753,-0.00067496,-2.09578,-1.57085,1.57155,0.785807,-1.5708,-0.523599,-4.36116e-08,-2.09439,-1.5708,1.5708,0.785399,-0.000353698,0.00033437,0.00037936,-0.000630325,8.62124e-05,0.000298772,0.000643392,0,0,0,0,0,0,0,0.0732535,-10.3162,1.01111,20.7694,-0.75865,-0.585729,-0.232351,0.0636607,-1.19082,0.844209,2.27281,-0.192597,-0.575114,-0.27064
2264586,1,-1.57095,-0.522755,-0.00067496,-2.09578,-1.57085,1.57155,0.785805,-1.5708,-0.523599,-4.36116e-08,-2.09439,-1.5708,1.5708,0.785399,-0.00144222,-0.000333898,0.000252907,-0.00110939,5.74749e-05,0.000199181,-0.000520508,0,0,0,0,0,0,0,0.124828,-10.2924,1.01111,20.7972,-0.75865,-0.585729,-0.206716,0.0634637,-1.18656,0.843902,2.26884,-0.192467,-0.575135,-0.270333
2264587,1,-1.57094,-0.522753,-0.00067496,-2.09578,-1.57085,1.57154,0.785807,-1.5708,-0.523599,-4.36116e-08,-2.09439,-1.5708,1.5708,0.785399,0.000244943,0.000334213,0.000168605,0.000437166,3.83166e-05,-0.000104571,0.000365071,0,0,0,0,0,0,0,0.0732535,-10.3162,1.01111,20.7456,-0.75865,-0.57932,-0.225942,0.0638473,-1.18302,0.844256,2.26536,-0.192347,-0.5751,-0.270058
2264588,1,-1.57094,-0.522756,-0.00067496,-2.09578,-1.57085,1.57154,0.785808,-1.5708,-0.523599,-4.36116e-08,-2.09439,-1.5708,1.5708,0.785399,0.000720107,0.000222809,0.000112403,-0.000287619,-0.000211815,-0.000307073,0.000718099,0,0,0,0,0,0,0,0.0494498,-10.3162,1.01111,20.7694,-0.752241,-0.572911,-0.23876,0.0640787,-1.17994,0.84436,2.2619,-0.192236,-0.575118,-0.269813
2264589,1,-1.57094,-0.522758,-0.00067496,-2.09578,-1.57085,1.57154,0.785808,-1.5708,-0.523599,-4.36116e-08,-2.09439,-1.5708,1.5708,0.785399,-7.67406e-05,-0.000408273,7.49354e-05,0.000348377,-0.00014121,-0.000442074,0.000478733,0,0,0,0,0,0,0,0.0732535,-10.2924,1.01111,20.7456,-0.752241,-0.566503,-0.23876,0.063917,-1.17696,0.843935,2.25834,-0.192134,-0.575207,-0.269608
2264590,1,-1.57094,-0.522758,-0.000673011,-2.09578,-1.57085,1.57155,0.785807,-1.5708,-0.523599,-4.36116e-08,-2.09439,-1.5708,1.5708,0.785399,0.000505652,-0.000272182,0.000699571,0.000219735,-9.41398e-05,-5.73573e-05,8.17961e-05,0,0,0,0,0,0,0,0.0494498,-10.2924,0.98334,20.7456,-0.752241,-0.572911,-0.232351,0.0635523,-1.17318,0.843165,2.25438,-0.192022,-0.57531,-0.269462
2264591,1,-1.57094,-0.522754,-0.00067496,-2.09578,-1.57085,1.57155,0.78581,-1.5708,-0.523599,-4.36116e-08,-2.09439,-1.5708,1.5708,0.785399,-0.000869325,0.000375357,-0.000183233,-0.000419709,0.000174599,0.00043648,0.00103787,0,0,0,0,0,0,0,0.101024,-10.3162,1.01111,20.7694,-0.75865,-0.585729,-0.258901,0.0631931,-1.16953,0.842321,2.25061,-0.19191,-0.5754,-0.269383
2264592,1,-1.57094,-0.522754,-0.000676631,-2.09578,-1.57085,1.57154,0.78581,-1.5708,-0.523599,-4.36116e-08,-2.09439,-1.5708,1.5708,0.785399,7.0064e-05,0.000250238,-0.000678968,-0.00205008,0.00031985,5.36275e-05,0.000454558,0,0,0,0,0,0,0,0.0732535,-10.3162,1.03491,20.8448,-0.764143,-0.57932,-0.252493,0.0635453,-1.16817,0.842515,2.24863,-0.19184,-0.575395,-0.269371
2264593,1,-1.57094,-0.522755,-0.00067496,-2.09578,-1.57085,1.57154,0.785807,-1.5708,-0.523599,-4.36116e-08,-2.09439,-1.5708,1.5708,0.785399,-0.000602905,-0.000389986,0.000104167,0.000391235,-0.000431027,-0.000201607,-0.000442947,0,0,0,0,0,0,0,0.101024,-10.2924,1.01111,20.7694,-0.746748,-0.572911,-0.232351,0.0646529,-1.16847,0.843827,2.24818,-0.191808,-0.575289,-0.26944
2264594,1,-1.57094,-0.522755,-0.00067496,-2.09578,-1.57085,1.57154,0.785809,-1.5708,-0.523599,-4.36116e-08,-2.09439,-1.5708,1.5708,0.785399,-0.000401936,-0.000259991,6.94446e-05,-0.000392751,-0.000490802,0.000577672,0.000213328,0,0,0,0,0,0,0,0.101024,-10.2924,1.01111,20.7972,-0.741255,-0.592137,-0.246084,0.0659271,-1.16789,0.845257,2.24739,-0.191756,-0.575156,-0.269599
2264595,1,-1.57094,-0.522755,-0.00067496,-2.09578,-1.57085,1.57154,0.78581,-1.5708,-0.523599,-4.36116e-08,-2.09439,-1.5708,1.5708,0.785399,0.00149528,-0.000173327,4.62964e-05,-0.000264804,7.96999e-05,-0.000564321,0.000616937,0,0,0,0,0,0,0,0.0256461,-10.2924,1.01111,20.7972,-0.752241,-0.566503,-0.258901,0.0666885,-1.16635,0.845869,2.24606,-0.191682,-0.575102,-0.269829
2264596,1,-1.57094,-0.522757,-0.000676631,-2.09578,-1.57084,1.57154,0.785806,-1.5708,-0.523599,-4.36116e-08,-2.09439,-1.5708,1.5708,0.785399,0.000996854,-0.000765165,-0.000525948,0.00102766,5.31333e-05,9.85038e-05,-0.00104677,0,0,0,0,0,0,0,0.0256461,-10.2646,1.03491,20.7456,-0.752241,-0.57932,-0.219534,0.0665523,-1.16397,0.845318,2.24423,-0.191588,-0.575176,-0.270122
2264597,1,-1.57094,-0.522755,-0.000676631,-2.09578,-1.57085,1.57154,0.785807,-1.5708,-0.523599,-4.36116e-08,-2.09439,-1.5708,1.5708,0.785399,-0.000449055,0.000139504,-0.000350632,0.000126625,3.54222e-05,6.56692e-05,-0.000460488,0,0,0,0,0,0,0,0.0732535,-10.2924,1.03491,20.7694,-0.752241,-0.57932,-0.225942,0.0662967,-1.16055,0.844745,2.24161,-0.191441,-0.575247,-0.270471
2264598,1,-1.57094,-0.522755,-0.00067496,-2.09578,-1.57085,1.57155,0.785808,-1.5708,-0.523599,-4.36116e-08,-2.09439,-1.5708,1.5708,0.785399,-0.000948984,9.30024e-05,0.000323057,8.31639e-05,0.000260974,4.37795e-05,0.000167726,0,0,0,0,0,0,0,0.101024,-10.2924,1.01111,20.7694,-0.75865,-0.57932,-0.23876,0.0666693,-1.15781,0.845076,2.23928,-0.191274,-0.575225,-0.270832
2264599,1,-1.57094,-0.522755,-0.00067496,-2.09578,-1.57084,1.57155,0.785807,-1.5708,-0.523599,-4.36116e-08,-2.09439,-1.5708,1.5708,0.785399,0.00113058,6.20016e-05,0.000215372,5.45028e-05,0.000580884,2.91863e-05,-0.000362901,0,0,0,0,0,0,0,0.0256461,-10.2924,1.01111,20.7694,-0.769636,-0.57932,-0.225942,0.067038,-1.15654,0.845363,2.23786,-0.191141,-0.575218,-0.271177
2264600,1,-1.57094,-0.522755,-0.00067496,-2.09578,-1.57085,1.57154,0.785807,-1.5708,-0.523599,-4.36116e-08,-2.09439,-1.5708,1.5708,0.785399,-0.00100952,4.13344e-05,0.000143581,-0.000613984,-0.000663905,-0.000217901,-0.000241934,0,0,0,0,0,0,0,0.101024,-10.2924,1.01111,20.7972,-0.741255,-0.572911,-0.225942,0.0669497,-1.15633,0.845024,2.23725,-0.191063,-0.575289,-0.271502
2264601,1,-1.57094,-0.522757,-0.000676631,-2.09578,-1.57085,1.57155,0.785807,-1.5708,-0.523599,-4.36116e-08,-2.09439,-1.5708,1.5708,0.785399,-2.33971e-05,-0.000622058,-0.000461091,-0.000409851,-3.57025e-05,0.00032945,-0.000161289,0,0,0,0,0,0,0,0.0732535,-10.2646,1.03491,20.7972,-0.752241,-0.585729,-0.225942,0.0671399,-1.15652,0.845093,2.23727,-0.191016,-0.575318,-0.271796
2264602,1,-1.57094,-0.522753,-0.000673011,-2.09578,-1.57085,1.57155,0.785806,-1.5708,-0.523599,-4.36116e-08,-2.09439,-1.5708,1.5708,0.785399,-1.55981e-05,0.000791721,0.000899032,-0.000830442,0.000417008,-0.000255084,-0.000344885,0,0,0,0,0,0,0,0.0732535,-10.3162,0.98334,20.821,-0.764143,-0.572911,-0.219534,0.0674837,-1.15718,0.845376,2.23794,-0.190993,-0.575328,-0.272054
2264603,1,-1.57094,-0.522757,-0.000673011,-2.09578,-1.57085,1.57154,0.785803,-1.5708,-0.523599,-4.36116e-08,-2.09439,-1.5708,1.5708,0.785399,-1.03987e-05,-2.89981e-05,0.000599354,0.0006525,7.45547e-05,6.73027e-05,-0.000229923,0,0,0,0,0,0,0,0.0732535,-10.2924,0.98334,20.7694,-0.75865,-0.57932,-0.219534,0.0671617,-1.1588,0.84465,2.23912,-0.191011,-0.575452,-0.27227
2264604,1,-1.57094,-0.522756,-0.00067496,-2.09578,-1.57085,1.57154,0.785803,-1.5708,-0.523599,-4.36116e-08,-2.09439,-1.5708,1.5708,0.785399,0.000549879,0.00053748,-0.000250044,-0.000214837,-0.000187656,-0.00019249,-0.000865359,0,0,0,0,0,0,0,0.0494498,-10.3162,1.01111,20.7972,-0.752241,-0.572911,-0.200308,0.0664099,-1.16056,0.843269,2.24009,-0.191038,-0.575645,-0.272442
2264605,1,-1.57094,-0.522754,-0.000676631,-2.09578,-1.57085,1.57154,0.785801,-1.5708,-0.523599,-4.36116e-08,-2.09439,-1.5708,1.5708,0.785399,-0.00083984,0.00035832,-0.000723508,0.000506222,0.000315706,0.000109032,-0.00128898,0,0,0,0,0,0,0,0.101024,-10.3162,1.03491,20.7694,-0.764143,-0.57932,-0.181082,0.0662245,-1.16224,0.84277,2.2408,-0.191043,-0.575748,-0.272559
2264606,1,-1.57094,-0.522755,-0.00067496,-2.09578,-1.57085,1.57154,0.785804,-1.5708,-0.523599,-4.36116e-08,-2.09439,-1.5708,1.5708,0.785399,0.000646533,-0.000317932,7.44732e-05,0.000337356,7.01986e-06,-0.00040203,-0.000147245,0,0,0,0,0,0,0,0.0494498,-10.2924,1.01111,20.7694,-0.75865,-0.566503,-0.200308,0.066822,-1.16329,0.843434,2.24105,-0.191016,-0.575716,-0.272593
2264607,1,-1.57094,-0.522752,-0.000673011,-2.09578,-1.57085,1.57154,0.785802,-1.5708,-0.523599,-4.36116e-08,-2.09439,-1.5708,1.5708,0.785399,-0.00012579,0.000901669,0.000699263,-0.000981616,0.00020813,0.000206698,-0.000572881,0,0,0,0,0,0,0,0.0732535,-10.34,0.98334,20.821,-0.764143,-0.57932,-0.18749,0.0671539,-1.16402,0.843691,2.24124,-0.191011,-0.57571,-0.272521
2264608,1,-1.57094,-0.522757,-0.00067496,-2.09578,-1.57085,1.57154,0.785801,-1.5708,-0.523599,-4.36116e-08,-2.09439,-1.5708,1.5708,0.785399,0.000472952,-0.00116213,-0.000183439,-0.00121129,-0.000302056,-9.95603e-05,-0.000856639,0,0,0,0,0,0,0,0.0494498,-10.2646,1.01111,20.8448,-0.752241,-0.572911,-0.174673,0.0668561,-1.1653,0.843019,2.24232,-0.191078,-0.575787,-0.272334
2264609,1,-1.57094,-0.522755,-0.000676631,-2.09578,-1.57085,1.57155,0.785805,-1.5708,-0.523599,-4.36116e-08,-2.09439,-1.5708,1.5708,0.785399,-0.000241511,-0.000125136,-0.000679104,0.000306042,-0.000201371,-6.63735e-05,0.000615702,0,0,0,0,0,0,0,0.0732535,-10.2924,1.03491,20.7972,-0.752241,-0.572911,-0.206716,0.0667729,-1.16548,0.842673,2.24336,-0.191151,-0.575801,-0.272035
2264610,1,-1.57094,-0.522752,-0.000676449,-2.09578,-1.57085,1.57154,0.785801,-1.5708,-0.523599,-4.36116e-08,-2.09439,-1.5708,1.5708,0.785399,0.000395805,0.0010302,-0.00110235,-0.000352824,-0.000337698,0.00019311,-0.000776327,0,0,0,0,0,0,0,0.0494498,-10.34,1.06269,20.821,-0.746748,-0.57932,-0.174673,0.0674788,-1.16521,0.843606,2.24404,-0.191183,-0.575679,-0.27163
2264611,1,-1.57094,-0.522754,-0.00067592,-2.09578,-1.57085,1.57155,0.785805,-1.5708,-0.523599,-4.36116e-08,-2.09439,-1.5708,1.5708,0.785399,-0.000942556,0.0006868,-8.52862e-05,0.000321567,0.000215678,0.00012874,0.000669244,0,0,0,0,0,0,0,0.101024,-10.34,1.03491,20.7972,-0.75865,-0.57932,-0.206716,0.0687689,-1.16668,0.845549,2.24523,-0.191199,-0.575486,-0.271135
2264612,1,-1.57094,-0.522754,-0.000674723,-2.09578,-1.57085,1.57155,0.785804,-1.5708,-0.523599,-4.36116e-08,-2.09439,-1.5708,1.5708,0.785399,-0.000628371,-9.89453e-05,0.000499954,-0.000342457,0.000143785,0.000323186,0.000208804,0,0,0,0,0,0,0,0.101024,-10.3162,1.01111,20.821,-0.75865,-0.585729,-0.200308,0.0700564,-1.1688,0.847419,2.24654,-0.191208,-0.575308,-0.270568
2264613,1,-1.57095,-0.522754,-0.000674881,-2.09578,-1.57085,1.57155,0.785808,-1.5708,-0.523599,-4.36116e-08,-2.09439,-1.5708,1.5708,0.785399,-0.000975726,-6.59636e-05,0.000333303,0.000978105,-0.000141502,-2.19019e-05,0.00156336,0,0,0,0,0,0,0,0.124828,-10.3162,1.01111,20.7694,-0.752241,-0.57932,-0.23876,0.0709849,-1.16952,0.848513,2.24703,-0.191197,-0.575189,-0.269964
2264614,1,-1.57094,-0.522755,-0.000676604,-2.09578,-1.57085,1.57154,0.785805,-1.5708,-0.523599,-4.36116e-08,-2.09439,-1.5708,1.5708,0.785399,0.000555942,-0.000600788,-0.00033461,0.000652057,-9.43348e-05,0.000222758,-0.000144557,0,0,0,0,0,0,0,0.0732535,-10.2924,1.03491,20.7694,-0.752241,-0.585729,-0.206716,0.071596,-1.16799,0.848964,2.24611,-0.191141,-0.575119,-0.269367
2264615,1,-1.57094,-0.522753,-0.000673003,-2.09578,-1.57085,1.57154,0.78581,-1.5708,-0.523599,-4.36116e-08,-2.09439,-1.5708,1.5708,0.785399,-0.000278986,0.000156287,0.000983353,-0.000214919,0.000174469,-0.000563572,0.00159905,0,0,0,0,0,0,0,0.101024,-10.3162,0.98334,20.7972,-0.75865,-0.566503,-0.252493,0.071694,-1.16523,0.848607,2.24448,-0.191071,-0.575137,-0.268816
2264616,1,-1.57094,-0.522759,-0.000673008,-2.09578,-1.57085,1.57154,0.785808,-1.5708,-0.523599,-4.36116e-08,-2.09439,-1.5708,1.5708,0.785399,0.000463623,-0.00165905,0.000655568,0.000506328,-0.000121046,9.90034e-05,0.000557407,0,0,0,0,0,0,0,0.0732535,-10.2408,0.98334,20.7694,-0.752241,-0.57932,-0.23876,0.0709731,-1.1618,0.846943,2.24275,-0.191023,-0.575284,-0.268335
2264617,1,-1.57094,-0.522757,-0.000678578,-2.09578,-1.57085,1.57155,0.785807,-1.5708,-0.523599,-4.36116e-08,-2.09439,-1.5708,1.5708,0.785399,-0.000340532,0.000100395,-0.00141899,0.000337547,0.000360112,6.60023e-05,0.000880231,0,0,0,0,0,0,0,0.101024,-10.2924,1.06269,20.7694,-0.764143,-0.57932,-0.252493,0.0703085,-1.15728,0.845293,2.24061,-0.190961,-0.575414,-0.267959
2264618,1,-1.57094,-0.522754,-0.00067496,-2.09578,-1.57085,1.57155,0.785806,-1.5708,-0.523599,-4.36116e-08,-2.09439,-1.5708,1.5708,0.785399,0.000979405,0.000623742,0.00026043,0.000781839,3.66241e-05,-0.000193357,-0.000396524,0,0,0,0,0,0,0,0.0494498,-10.3162,1.01111,20.7456,-0.75865,-0.572911,-0.225942,0.0703868,-1.1539,0.844863,2.23887,-0.190889,-0.575446,-0.267705
2264619,1,-1.57094,-0.522752,-0.000673011,-2.09578,-1.57085,1.57155,0.785809,-1.5708,-0.523599,-4.36116e-08,-2.09439,-1.5708,1.5708,0.785399,9.61246e-05,0.00097264,0.000823234,-3.55889e-05,-0.000212943,0.000108454,0.000718995,0,0,0,0,0,0,0,0.0732535,-10.34,0.98334,20.7694,-0.752241,-0.57932,-0.252493,0.0701234,-1.15379,0.844077,2.2385,-0.190882,-0.575567,-0.267565
2264620,1,-1.57094,-0.522759,-0.00067496,-2.09578,-1.57085,1.57155,0.785808,-1.5708,-0.523599,-4.36116e-08,-2.09439,-1.5708,1.5708,0.785399,6.4083e-05,-0.00111481,-0.000100791,-0.000673342,-0.000141962,7.23027e-05,-2.92963e-05,0,0,0,0,0,0,0,0.0732535,-10.2646,1.01111,20.7972,-0.752241,-0.57932,-0.23876,0.0692748,-1.15545,0.842433,2.2392,-0.190942,-0.575793,-0.267527
2264621,1,-1.57094,-0.522756,-0.000676631,-2.09578,-1.57085,1.57155,0.785807,-1.5708,-0.523599,-4.36116e-08,-2.09439,-1.5708,1.5708,0.785399,0.000599534,-9.35936e-05,-0.000624006,0.00131434,0.000142718,0.000285561,-0.000494249,0,0,0,0,0,0,0,0.0494498,-10.2924,1.03491,20.7218,-0.75865,-0.585729,-0.225942,0.0687815,-1.15595,0.84131,2.23958,-0.190983,-0.575941,-0.26759
2264622,1,-1.57094,-0.522754,-0.000676631,-2.09578,-1.57085,1.57154,0.78581,-1.5708,-0.523599,-4.36116e-08,-2.09439,-1.5708,1.5708,0.785399,0.000956501,0.000494416,-0.000416004,-0.000237398,-0.000142214,-0.000521703,0.000891204,0,0,0,0,0,0,0,0.0256461,-10.3162,1.03491,20.7694,-0.752241,-0.566503,-0.258901,0.0686974,-1.15563,0.840959,2.23935,-0.190984,-0.576011,-0.267737
2264623,1,-1.57094,-0.522757,-0.00067496,-2.09578,-1.57085,1.57154,0.785808,-1.5708,-0.523599,-4.36116e-08,-2.09439,-1.5708,1.5708,0.785399,-0.000475956,-0.000227201,0.000279476,-0.000158266,0.00014255,-0.000347802,-0.000151849,0,0,0,0,0,0,0,0.0732535,-10.2924,1.01111,20.7694,-0.75865,-0.566503,-0.23876,0.0687071,-1.15632,0.840929,2.23959,-0.191,-0.576062,-0.267942
2264624,1,-1.57094,-0.522754,-0.000678579,-2.09578,-1.57085,1.57154,0.785807,-1.5708,-0.523599,-4.36116e-08,-2.09439,-1.5708,1.5708,0.785399,-0.000966918,0.000405345,-0.00102011,-0.000755125,-0.000345776,5.49094e-06,-0.000338592,0,0,0,0,0,0,0,0.101024,-10.3162,1.06269,20.7972,-0.746748,-0.572911,-0.232351,0.0693277,-1.15796,0.841815,2.24062,-0.191032,-0.576005,-0.268201
2264625,1,-1.57094,-0.522755,-0.00067496,-2.09578,-1.57085,1.57154,0.785803,-1.5708,-0.523599,-4.36116e-08,-2.09439,-1.5708,1.5708,0.785399,0.000561814,-0.000286582,0.000526353,0.000146197,0.000413742,-0.000233698,-0.00164988,0,0,0,0,0,0,0,0.0494498,-10.2924,1.01111,20.7694,-0.764143,-0.566503,-0.193899,0.0705193,-1.16,0.843546,2.24205,-0.19106,-0.575837,-0.268505
2264626,1,-1.57094,-0.522756,-0.00067496,-2.09578,-1.57085,1.57155,0.785807,-1.5708,-0.523599,-4.36116e-08,-2.09439,-1.5708,1.5708,0.785399,0.000374543,0.000365757,0.000350902,0.000654276,0.000479279,8.15601e-05,0.000324233,0,0,0,0,0,0,0,0.0494498,-10.3162,1.01111,20.7456,-0.769636,-0.572911,-0.232351,0.0709577,-1.16154,0.844228,2.24302,-0.191088,-0.575753,-0.26882
2264627,1,-1.57094,-0.522758,-0.000677091,-2.09578,-1.57085,1.57154,0.785803,-1.5708,-0.523599,-4.36116e-08,-2.09439,-1.5708,1.5708,0.785399,0.000249695,-0.000962588,0.000233935,-0.000120628,-0.000324741,5.43734e-05,-0.00144536,0,0,0,0,0,0,0,0.0494498,-10.2646,1.01111,20.7694,-0.752241,-0.572911,-0.18749,0.0704016,-1.16183,0.843497,2.24304,-0.191116,-0.575782,-0.269107
2264628,1,-1.57094,-0.522759,-0.000677341,-2.09578,-1.57085,1.57154,0.785804,-1.5708,-0.523599,-4.36116e-08,-2.09439,-1.5708,1.5708,0.785399,0.000166463,-0.000641725,-0.000400855,-8.04191e-05,2.08651e-05,3.62489e-05,-0.000488854,0,0,0,0,0,0,0,0.0494498,-10.2646,1.03491,20.7694,-0.75865,-0.572911,-0.200308,0.0697316,-1.16045,0.84265,2.24229,-0.191133,-0.575786,-0.26934
2264629,1,-1.57094,-0.522756,-0.000673248,-2.09578,-1.57085,1.57155,0.785803,-1.5708,-0.523599,-4.36116e-08,-2.09439,-1.5708,1.5708,0.785399,-0.000445836,0.000221797,0.000939189,-5.36129e-05,0.000217361,0.000736243,-0.00080062,0,0,0,0,0,0,0,0.0732535,-10.2924,0.98334,20.7694,-0.764143,-0.592137,-0.18749,0.0692064,-1.15859,0.84205,2.24144,-0.191153,-0.575748,-0.269489
2264630,1,-1.57094,-0.522755,-0.000678658,-2.09578,-1.57085,1.57155,0.785805,-1.5708,-0.523599,-4.36116e-08,-2.09439,-1.5708,1.5708,0.785399,0.000259588,0.000147865,-0.00122991,-0.00124217,-0.000499353,-0.000221248,0.000415689,0,0,0,0,0,0,0,0.0494498,-10.2924,1.06269,20.821,-0.746748,-0.572911,-0.213125,0.0689037,-1.15838,0.841845,2.24158,-0.191213,-0.575698,-0.269528
2264631,1,-1.57094,-0.522755,-0.000674986,-2.09578,-1.57085,1.57155,0.785803,-1.5708,-0.523599,-4.36116e-08,-2.09439,-1.5708,1.5708,0.785399,0.000173058,9.85765e-05,0.000386483,-0.000828112,-0.000129451,-0.000147499,-0.000434951,0,0,0,0,0,0,0,0.0494498,-10.2924,1.01111,20.821,-0.752241,-0.572911,-0.193899,0.068982,-1.16021,0.842366,2.24313,-0.191319,-0.575618,-0.269455
2264632,1,-1.57094,-0.522757,-0.00067302,-2.09578,-1.57085,1.57154,0.785803,-1.5708,-0.523599,-4.36116e-08,-2.09439,-1.5708,1.5708,0.785399,-0.00044144,6.57177e-05,0.000907269,4.73717e-06,0.000151058,0.000139026,-0.000289967,0,0,0,0,0,0,0,0.0732535,-10.2924,0.98334,20.7972,-0.75865,-0.57932,-0.193899,0.0688381,-1.1627,0.842596,2.24517,-0.191442,-0.575586,-0.269291
2264633,1,-1.57094,-0.522756,-0.000674503,-2.09578,-1.57085,1.57154,0.785804,-1.5708,-0.523599,-4.36116e-08,-2.09439,-1.5708,1.5708,0.785399,-0.000294293,4.38118e-05,-0.00060158,0.00120958,-0.000136654,9.26842e-05,4.40474e-05,0,0,0,0,0,0,0,0.0732535,-10.2924,1.03491,20.7456,-0.752241,-0.57932,-0.200308,0.0684933,-1.16421,0.842406,2.24625,-0.191521,-0.575586,-0.269054
2264634,1,-1.57094,-0.522756,-0.000675921,-2.09578,-1.57085,1.57154,0.785803,-1.5708,-0.523599,-4.36116e-08,-2.09439,-1.5708,1.5708,0.785399,-0.000845809,0.00058602,-0.000401053,0.000249577,0.000349707,6.17895e-05,-0.000207994,0,0,0,0,0,0,0,0.101024,-10.3162,1.03491,20.7694,-0.764143,-0.57932,-0.193899,0.0688919,-1.16468,0.843239,2.24614,-0.191519,-0.575481,-0.268751
2264635,1,-1.57094,-0.522754,-0.000674724,-2.09578,-1.57085,1.57154,0.785805,-1.5708,-0.523599,-4.36116e-08,-2.09439,-1.5708,1.5708,0.785399,0.000642553,0.00039068,0.000289443,0.000166385,-0.000411122,-0.000433525,0.000336055,0,0,0,0,0,0,0,0.0494498,-10.3162,1.01111,20.7694,-0.746748,-0.566503,-0.206716,0.0696902,-1.16545,0.844654,2.2459,-0.191496,-0.575335,-0.268388
2264636,1,-1.57094,-0.522752,-0.000674881,-2.09578,-1.57085,1.57154,0.785805,-1.5708,-0.523599,-4.36116e-08,-2.09439,-1.5708,1.5708,0.785399,-0.000128443,0.000817265,0.000192962,-0.000538691,-0.000477532,0.00042306,0.000461396,0,0,0,0,0,0,0,0.0732535,-10.34,1.01111,20.7972,-0.741255,-0.585729,-0.213125,0.0698786,-1.16739,0.845202,2.24637,-0.191513,-0.575305,-0.267976
2264637,1,-1.57094,-0.522754,-0.000674934,-2.09578,-1.57085,1.57154,0.785808,-1.5708,-0.523599,-4.36116e-08,-2.09439,-1.5708,1.5708,0.785399,-8.56289e-05,-1.19685e-05,0.000128641,0.000847299,0.000529356,4.46812e-05,0.00125703,0,0,0,0,0,0,0,0.0732535,-10.3162,1.01111,20.7456,-0.764143,-0.57932,-0.23876,0.0695711,-1.16976,0.845,2.24717,-0.191546,-0.575364,-0.267539
2264638,1,-1.57094,-0.522755,-0.000674951,-2.09578,-1.57085,1.57154,0.785804,-1.5708,-0.523599,-4.36116e-08,-2.09439,-1.5708,1.5708,0.785399,0.000499726,-0.000564791,8.5761e-05,-0.00064156,-8.79055e-05,2.97875e-05,-0.000586132,0,0,0,0,0,0,0,0.0494498,-10.2924,1.01111,20.7972,-0.752241,-0.57932,-0.200308,0.0691223,-1.17075,0.844515,2.24734,-0.191545,-0.575436,-0.267122
2264639,1,-1.57094,-0.522759,-0.000676628,-2.09578,-1.57085,1.57154,0.785807,-1.5708,-0.523599,-4.36116e-08,-2.09439,-1.5708,1.5708,0.785399,0.000889963,-0.00102614,-0.000499638,-0.00154133,0.000178755,-0.000217501,0.00079604,0,0,0,0,0,0,0,0.0256461,-10.2646,1.03491,20.8448,-0.75865,-0.572911,-0.232351,0.0685112,-1.16995,0.843817,2.24721,-0.191535,-0.57551,-0.266748
2264640,1,-1.57094,-0.522754,-0.00067663,-2.09578,-1.57085,1.57154,0.785807,-1.5708,-0.523599,-4.36116e-08,-2.09439,-1.5708,1.5708,0.785399,-0.000520315,0.000522332,-0.000333092,8.60701e-05,-0.000118189,-0.000382359,0.000293335,0,0,0,0,0,0,0,0.0732535,-10.3162,1.03491,20.7972,-0.752241,-0.566503,-0.225942,0.0681429,-1.16877,0.843579,2.24754,-0.191533,-0.575532,-0.26642
2264641,1,-1.57094,-0.522756,-0.00067663,-2.09578,-1.57085,1.57155,0.785811,-1.5708,-0.523599,-4.36116e-08,-2.09439,-1.5708,1.5708,0.785399,-0.000346877,0.000348221,-0.000222061,0.000706994,0.000158566,0.000219812,0.00165362,0,0,0,0,0,0,0,0.0732535,-10.3162,1.03491,20.7694,-0.75865,-0.57932,-0.26531,0.0684202,-1.16832,0.844311,2.24795,-0.191512,-0.575461,-0.266144
2264642,1,-1.57094,-0.522754,-0.00067496,-2.09578,-1.57085,1.57155,0.785807,-1.5708,-0.523599,-4.36116e-08,-2.09439,-1.5708,1.5708,0.785399,-0.000231251,0.000232147,0.000408771,-0.00129191,0.000512612,-9.08178e-05,-0.000118291,0,0,0,0,0,0,0,0.0732535,-10.3162,1.01111,20.8448,-0.769636,-0.572911,-0.232351,0.0689129,-1.16882,0.845316,2.24846,-0.191487,-0.575365,-0.265947
2264643,1,-1.57094,-0.522756,-0.000673011,-2.09578,-1.57085,1.57155,0.78581,-1.5708,-0.523599,-4.36116e-08,-2.09439,-1.5708,1.5708,0.785399,0.000402644,0.000154765,0.000922128,0.000901966,-0.000505969,-6.05452e-05,0.000667125,0,0,0,0,0,0,0,0.0494498,-10.3162,0.98334,20.7694,-0.746748,-0.572911,-0.252493,0.0687376,-1.16988,0.845279,2.24926,-0.191501,-0.575372,-0.265855
2264644,1,-1.57094,-0.522756,-0.000676631,-2.09578,-1.57085,1.57155,0.785808,-1.5708,-0.523599,-4.36116e-08,-2.09439,-1.5708,1.5708,0.785399,0.00026843,-0.000453635,-0.000591674,-4.83036e-05,-0.000133862,-4.03635e-05,-6.38765e-05,0,0,0,0,0,0,0,0.0494498,-10.2924,1.03491,20.7972,-0.752241,-0.572911,-0.23876,0.0679115,-1.17005,0.844255,2.24942,-0.191517,-0.575462,-0.265873
2264645,1,-1.57094,-0.522755,-0.000676631,-2.09578,-1.57085,1.57154,0.78581,-1.5708,-0.523599,-4.36116e-08,-2.09439,-1.5708,1.5708,0.785399,-0.000377859,-0.000302424,-0.000394449,-0.000589014,0.000351568,-0.000264268,0.000466042,0,0,0,0,0,0,0,0.0732535,-10.2924,1.03491,20.821,-0.764143,-0.566503,-0.252493,0.0674935,-1.16897,0.843867,2.24897,-0.191498,-0.575464,-0.265996
2264646,1,-1.57094,-0.522752,-0.00067496,-2.09578,-1.57085,1.57154,0.78581,-1.5708,-0.523597,-2.54361e-06,-2.09439,-1.5708,1.5708,0.785399,-0.000251906,0.000912008,0.000293846,0.000164136,-0.000206431,-0.000176179,0.000310695,-0.00327632,0.00177864,-0.0025,0.00165757,-0.00155807,0.005,0.000207453,0.0732535,-10.34,1.01111,20.7972,-0.752241,-0.566503,-0.252493,0.067717,-1.16836,0.844436,2.24897,-0.191479,-0.575355,-0.266207
2264647,1,-1.57094,-0.522753,-0.000676631,-2.09578,-1.57085,1.57154,0.785807,-1.57081,-0.523593,-7.54361e-06,-2.09439,-1.5708,1.57081,0.785399,-0.000167937,5.11935e-05,-0.000360915,0.000759038,9.97384e-05,0.000119907,-0.000776214,-0.00655263,0.00355727,-0.005,0.00331513,-0.00311614,0.01,0.000414907,0.0732535,-10.3162,1.03491,20.7694,-0.75865,-0.572911,-0.225942,0.0680661,-1.16884,0.845167,2.24929,-0.191467,-0.575228,-0.266501
2264648,1,-1.57094,-0.522755,-0.00067496,-2.09578,-1.57085,1.57154,0.78581,-1.57082,-0.523588,-1.50436e-05,-2.09439,-1.57081,1.57083,0.7854,0.000444854,-0.000522683,0.000316202,-0.000143589,6.64923e-05,7.99377e-05,0.000465868,-0.00982895,0.00533591,-0.0075,0.0049727,-0.00467421,0.015,0.00062236,0.0494498,-10.2924,1.01111,20.7972,-0.75865,-0.572911,-0.252493,0.0682417,-1.16879,0.845627,2.24909,-0.191441,-0.57511,-0.266867
2264649,1,-1.57094,-0.522756,-0.000676704,-2.09578,-1.57085,1.57154,0.785808,-1.57083,-0.523581,-2.50436e-05,-2.09438,-1.57081,1.57085,0.785401,-0.00178878,0.000909706,-0.00305647,-0.00120935,0.000451229,-0.000184067,-0.000198048,-0.0131053,0.00711455,-0.01,0.00663027,-0.00623228,0.02,0.000829814,-0.00212494,-10.213,0.884158,20.8448,-0.769636,-0.566503,-0.23876,0.069262,-1.16879,0.847384,2.24922,-0.191409,-0.57485,-0.267276
2264650,1,-1.57094,-0.522757,-0.000673804,-2.09578,-1.57084,1.57155,0.78581,-1.57085,-0.523572,-3.75436e-05,-2.09437,-1.57082,1.57087,0.785402,-0.00458435,0.00303044,-0.00130297,-0.00145585,0.00155543,0.000114648,0.000376595,-0.0163816,0.00889318,-0.0125,0.00828783,-0.00779035,0.025,0.00103727,-0.279835,-10.0385,0.42792,20.8725,-0.803511,-0.572911,-0.252493,0.0732757,-1.17307,0.853488,2.25212,-0.191414,-0.574175,-0.267702
2264651,1,-1.57094,-0.522758,-0.00068494,-2.09578,-1.57084,1.57154,0.785807,-1.57087,-0.523561,-5.25436e-05,-2.09436,-1.57083,1.5709,0.785403,0.000653806,0.00306364,-0.00512474,-0.000970565,0.00269847,-0.000635645,-0.000732281,-0.0196579,0.0106718,-0.015,0.0099454,-0.00934842,0.03,0.00124472,-0.755909,-9.78458,0.0232571,20.8725,-0.848372,-0.553685,-0.225942,0.0799498,-1.18386,0.863547,2.25867,-0.191522,-0.573129,-0.268136
2264652,1,-1.57094,-0.522753,-0.00070019,-2.09578,-1.57085,1.57154,0.785807,-1.57089,-0.523549,-7.00436e-05,-2.09435,-1.57084,1.57094,0.785405,0.00181159,0.00407147,-0.00720826,0.00185521,0.00179898,-0.000423763,-0.000488187,-0.0229342,0.0124505,-0.0175,0.011603,-0.0109065,0.035,0.00145217,-1.13677,-9.55844,-0.432981,20.8963,-0.848372,-0.553685,-0.225942,0.0870971,-1.19834,0.87519,2.26683,-0.191739,-0.571904,-0.268583
2264653,1,-1.57095,-0.522742,-0.000712267,-2.09578,-1.57085,1.57155,0.785802,-1.57091,-0.523535,-9.00436e-05,-2.09434,-1.57085,1.57098,0.785406,-0.000649571,0.0073525,-0.00797864,0.00204854,0.000995868,-4.515e-05,-0.00198697,-0.0262105,0.0142291,-0.02,0.0132605,-0.0124646,0.04,0.00165963,-1.51366,-9.43149,-0.940793,20.8725,-0.842879,-0.560094,-0.181082,0.0938248,-1.21494,0.887629,2.27503,-0.192056,-0.570481,-0.269022
2264654,1,-1.57096,-0.522732,-0.000735811,-2.09577,-1.57085,1.57155,0.785806,-1.57094,-0.523519,-0.000112544,-2.09432,-1.57087,1.57102,0.785408,-0.00345638,0.00717166,-0.011852,0.00276331,0.000257011,-0.000267459,9.95064e-05,-0.0294868,0.0160077,-0.0225,0.0149181,-0.0140226,0.045,0.00186708,-1.86675,-9.32834,-1.31769,20.821,-0.831892,-0.553685,-0.219534,0.101236,-1.23439,0.902256,2.28385,-0.192474,-0.568572,-0.269399
2264655,1,-1.57096,-0.522719,-0.000759377,-2.09577,-1.57085,1.57155,0.785807,-1.57098,-0.523501,-0.000137544,-2.0943,-1.57088,1.57107,0.78541,-0.00197679,0.00755752,-0.0153529,0.00142879,0.000171341,0.00077113,0.000303697,-0.0327632,0.0177864,-0.025,0.0165757,-0.0155807,0.05,0.00207453,-2.24761,-9.25296,-1.67474,20.8448,-0.831892,-0.57932,-0.225942,0.110536,-1.25475,0.920907,2.29343,-0.192947,-0.565831,-0.269673
2264656,1,-1.57097,-0.522709,-0.000779145,-2.09577,-1.57085,1.57157,0.785807,-1.57102,-0.52348,-0.000167544,-2.09428,-1.5709,1.57113,0.785413,-0.0059469,0.00967834,-0.0136632,-0.000146356,0.000114227,0.00640713,0.000202464,-0.0384892,0.0208342,-0.03,0.0194205,-0.0182686,0.06,0.0023951,-2.54912,-9.12601,-2.0794,20.8963,-0.831892,-0.611364,-0.225942,0.119968,-1.27555,0.94125,2.30486,-0.193518,-0.562425,-0.269842
2264657,1,-1.57099,-0.522704,-0.000799789,-2.09576,-1.57085,1.57157,0.785814,-1.57106,-0.523456,-0.000202544,-2.09426,-1.57092,1.5712,0.785415,-0.0104392,0.00634105,-0.0142048,0.00466372,0.00133076,0.00371417,0.00254247,-0.0442153,0.023882,-0.035,0.0222653,-0.0209564,0.07,0.00271567,-2.77526,-8.92368,-2.40869,20.821,-0.865767,-0.585729,-0.290945,0.127143,-1.29395,0.959216,2.31682,-0.194173,-0.558665,-0.269941
2264658,1,-1.57101,-0.522697,-0.00082407,-2.09576,-1.57085,1.57157,0.785813,-1.57111,-0.523429,-0.000242544,-2.09424,-1.57095,1.57128,0.785418,-0.0104711,0.00726707,-0.0137864,0.00356151,-0.00256446,0.00502301,0.00122026,-0.0499414,0.0269298,-0.04,0.0251101,-0.0236443,0.08,0.00303624,-3.00139,-8.72531,-2.63482,20.9439,-0.899641,-0.520726,-0.278127,0.130737,-1.30233,0.9722,2.32468,-0.194764,-0.554624,-0.270044
2264659,1,-1.57103,-0.522692,-0.000843145,-2.09576,-1.57085,1.57158,0.785816,-1.57116,-0.523399,-0.000287544,-2.09421,-1.57097,1.57137,0.785422,-0.0175251,0.00609979,-0.0183393,0.00742599,0.000203944,0.00545471,0.0020003,-0.0556675,0.0299776,-0.045,0.0279549,-0.0263321,0.09,0.0033568,-3.17992,-8.44363,-3.03949,20.9955,-0.961897,-0.431005,-0.310171,0.131057,-1.29776,0.98064,2.32665,-0.195226,-0.550153,-0.270232
2264660,1,-1.57106,-0.522679,-0.000868074,-2.09575,-1.57085,1.57158,0.78581,-1.57123,-0.523366,-0.000337544,-2.09418,-1.571,1.57147,0.785425,-0.0202866,0.00985008,-0.0223041,0.00542107,-0.00320291,0.00185001,-0.000565335,-0.0613936,0.0330254,-0.05,0.0307997,-0.02902,0.1,0.00367737,-3.48143,-8.2175,-3.5473,21.1423,-1.00676,-0.359594,-0.258901,0.131659,-1.28354,0.989935,2.32457,-0.195587,-0.544608,-0.270561
2264661,1,-1.57109,-0.522661,-0.000913588,-2.09574,-1.57084,1.57159,0.785815,-1.57129,-0.52333,-0.000392544,-2.09414,-1.57103,1.57158,0.785429,-0.0230801,0.0121015,-0.0310172,0.00649845,-0.00105265,0.00875887,0.00104726,-0.0671197,0.0360732,-0.055,0.0336445,-0.0317078,0.11,0.00399794,-4.01305,-7.96359,-3.97577,21.1939,-1.05253,-0.289098,-0.297354,0.135986,-1.26769,1.00572,2.32319,-0.196007,-0.53737,-0.271031
2264662,1,-1.57112,-0.522635,-0.000962341,-2.09573,-1.57085,1.57161,0.785814,-1.57137,-0.523291,-0.000452544,-2.09411,-1.57107,1.5717,0.785434,-0.0238152,0.0162724,-0.033146,0.011615,-0.0047741,0.0146193,-0.000725978,-0.0728458,0.039121,-0.06,0.0364894,-0.0343957,0.12,0.0043185,-4.48912,-7.81284,-4.45977,21.1939,-1.08092,-0.237828,-0.258901,0.143747,-1.25608,1.0284,2.32507,-0.196643,-0.528421,-0.271626
2264663,1,-1.57117,-0.522607,-0.00100892,-2.09572,-1.57086,1.57164,0.785809,-1.57144,-0.523249,-0.000517544,-2.09407,-1.5711,1.57183,0.785438,-0.0307235,0.0186541,-0.0359235,0.0147281,-0.00411954,0.0199952,-0.00241677,-0.0785718,0.0421688,-0.065,0.0393342,-0.0370835,0.13,0.00463907,-4.84221,-7.63828,-5.039,21.2177,-1.07542,-0.212194,-0.206716,0.151823,-1.24878,1.0536,2.32854,-0.197559,-0.518118,-0.272336
2264664,1,-1.57122,-0.522571,-0.00106202,-2.0957,-1.57086,1.57168,0.785802,-1.57153,-0.523204,-0.000587544,-2.09403,-1.57114,1.57197,0.785443,-0.0348298,0.0220787,-0.0397515,0.0193726,-0.00288947,0.0239232,-0.00303533,-0.0842979,0.0452167,-0.07,0.042179,-0.0397714,0.14,0.00495964,-5.24688,-7.53513,-5.54681,21.1423,-1.08641,-0.192968,-0.168264,0.158317,-1.24413,1.07811,2.33187,-0.198794,-0.506572,-0.273106
2264665,1,-1.57128,-0.522537,-0.00112072,-2.09568,-1.57087,1.57173,0.7858,-1.57162,-0.523155,-0.000662544,-2.09398,-1.57119,1.57212,0.785449,-0.0385195,0.0264912,-0.0452214,0.0151656,-0.00642175,0.0377985,-0.00226091,-0.090024,0.0482645,-0.075,0.0450238,-0.0424592,0.15,0.0052802,-5.65154,-7.38437,-5.95147,21.2455,-1.10289,-0.205785,-0.161856,0.16262,-1.24433,1.10106,2.33717,-0.200437,-0.493812,-0.273815
2264666,1,-1.57135,-0.522507,-0.00117164,-2.09566,-1.57088,1.5718,0.785795,-1.57172,-0.523103,-0.000745044,-2.09393,-1.57123,1.57229,0.785454,-0.0448665,0.0283552,-0.046699,0.0165056,-0.00854905,0.0501082,-0.0032027,-0.0975663,0.0521734,-0.0825,0.04868,-0.046191,0.164879,0.0056568,-5.87767,-7.18204,-6.45929,21.2931,-1.13676,-0.282689,-0.116079,0.163204,-1.25392,1.12046,2.34911,-0.202635,-0.480186,-0.274325
2264667,1,-1.57142,-0.52248,-0.00123157,-2.09564,-1.57089,1.57188,0.785787,-1.57182,-0.523047,-0.000835044,-2.09388,-1.57128,1.57247,0.78546,-0.051458,0.0289474,-0.0507872,0.0209353,-0.00533805,0.058749,-0.00454263,-0.105109,0.0560822,-0.09,0.0523363,-0.0499227,0.179759,0.0060334,-6.00463,-6.92813,-6.83618,21.3169,-1.17155,-0.346776,-0.0510767,0.158986,-1.26866,1.13422,2.36632,-0.20534,-0.465953,-0.274551
2264668,1,-1.57149,-0.522452,-0.00130007,-2.09563,-1.57089,1.57196,0.785788,-1.57193,-0.522987,-0.000932544,-2.09382,-1.57134,1.57266,0.785467,-0.0584435,0.0283719,-0.056731,0.0181641,-0.00259259,0.0658478,-0.00275715,-0.112651,0.0599911,-0.0975,0.0559925,-0.0536545,0.194638,0.00641,-6.15538,-6.62662,-7.09009,21.4914,-1.21641,-0.308324,-0.0584009,0.151347,-1.2793,1.14348,2.38434,-0.208406,-0.450968,-0.274423
2264669,1,-1.57158,-0.522421,-0.00136241,-2.0956,-1.57091,1.57206,0.785795,-1.57205,-0.522923,-0.00103754,-2.09376,-1.57139,1.57287,0.785474,-0.0716053,0.0319813,-0.059704,0.0219816,-0.00528911,0.0757126,0.000298129,-0.120193,0.0639,-0.105,0.0596487,-0.0573862,0.209518,0.0067866,-6.23076,-6.34891,-7.52252,21.543,-1.26127,-0.257054,-0.116079,0.143727,-1.28239,1.15227,2.40249,-0.211791,-0.4349,-0.273847
2264670,1,-1.57168,-0.522382,-0.00144161,-2.09557,-1.57092,1.57217,0.785792,-1.57218,-0.522855,-0.00115004,-2.0937,-1.57145,1.57309,0.785481,-0.0810515,0.0320443,-0.0659481,0.0251854,-0.0070868,0.0871455,-0.000750683,-0.127735,0.0678089,-0.1125,0.0633049,-0.061118,0.224397,0.00716319,-6.33391,-6.095,-7.92718,21.5906,-1.31254,-0.179235,-0.0904444,0.139485,-1.27694,1.16424,2.41974,-0.215401,-0.41748,-0.272799
2264671,1,-1.57177,-0.522331,-0.00152688,-2.09554,-1.57094,1.5723,0.785796,-1.57232,-0.522784,-0.00127004,-2.09363,-1.57152,1.57333,0.785488,-0.0840109,0.0383118,-0.071977,0.0224385,-0.00725605,0.101191,0.000923698,-0.135278,0.0717178,-0.12,0.0669611,-0.0648497,0.239277,0.00753979,-6.7108,-5.96805,-8.40722,21.7176,-1.39769,-0.127965,-0.128897,0.138914,-1.2654,1.17952,2.437,-0.21928,-0.398838,-0.271341
2264672,1,-1.57188,-0.522279,-0.00162612,-2.0955,-1.57096,1.57246,0.78579,-1.57246,-0.522708,-0.00139754,-2.09356,-1.57159,1.57359,0.785496,-0.0888296,0.0415035,-0.0800558,0.0267204,-0.0136543,0.116422,-0.00152043,-0.14282,0.0756267,-0.1275,0.0706174,-0.0685815,0.254156,0.00791639,-7.01232,-5.78952,-8.86346,21.7176,-1.44255,-0.192968,-0.0712183,0.13927,-1.25559,1.19498,2.45863,-0.223692,-0.379496,-0.269539
2264673,1,-1.572,-0.522216,-0.00172206,-2.09546,-1.57098,1.57264,0.785793,-1.57261,-0.522629,-0.00153254,-2.09349,-1.57166,1.57386,0.785504,-0.0978594,0.0467407,-0.0847053,0.0337361,-0.0193319,0.134023,0.000173174,-0.150362,0.0795356,-0.135,0.0742736,-0.0723132,0.269036,0.00829299,-7.21465,-5.74191,-9.39508,21.6898,-1.46544,-0.301915,-0.103262,0.138763,-1.24941,1.20842,2.4837,-0.228668,-0.359795,-0.267465
2264674,1,-1.57213,-0.522156,-0.00183097,-2.09542,-1.57101,1.57284,0.785792,-1.57277,-0.522545,-0.00167504,-2.09341,-1.57174,1.57414,0.785513,-0.10719,0.0524463,-0.0889616,0.0369229,-0.0181228,0.154094,-0.00012191,-0.157904,0.0834445,-0.1425,0.0779298,-0.076045,0.283915,0.00866959,-7.44078,-5.63876,-9.90289,21.7414,-1.5048,-0.353185,-0.0968531,0.136649,-1.24572,1.21813,2.50901,-0.234154,-0.340025,-0.265175
2264675,1,-1.57226,-0.522094,-0.00195618,-2.09537,-1.57105,1.57305,0.785793,-1.57293,-0.522458,-0.00182504,-2.09333,-1.57182,1.57444,0.785522,-0.115451,0.0554647,-0.0994908,0.0401997,-0.0237038,0.168867,0.000156086,-0.165447,0.0873534,-0.15,0.081586,-0.0797767,0.298794,0.00904619,-7.77007,-5.48801,-10.2322,21.7414,-1.49382,-0.398961,-0.103262,0.13355,-1.24538,1.22438,2.53457,-0.240191,-0.32035,-0.262714
2264676,1,-1.5724,-0.522034,-0.00206716,-2.09532,-1.5711,1.57329,0.785791,-1.57311,-0.522366,-0.00198503,-2.09324,-1.5719,1.57476,0.785532,-0.120758,0.0560953,-0.101701,0.0441328,-0.0281671,0.190548,-0.00060802,-0.174037,0.0917964,-0.15999,0.0857532,-0.0842096,0.31596,0.00944466,-7.9724,-5.26187,-10.6606,21.8167,-1.47642,-0.488683,-0.0840357,0.129602,-1.24394,1.22727,2.55896,-0.246717,-0.300899,-0.260143
2264677,1,-1.57255,-0.52197,-0.00218017,-2.09527,-1.57115,1.57354,0.785792,-1.57329,-0.52227,-0.00215501,-2.09315,-1.57199,1.57509,0.785541,-0.132175,0.0577032,-0.105525,0.0472707,-0.0359378,0.208361,-0.00111742,-0.182627,0.0962395,-0.16998,0.0899203,-0.0886425,0.333126,0.00984314,-8.09935,-5.08334,-11.1169,21.8882,-1.45994,-0.527135,-0.0648096,0.121832,-1.23362,1.22208,2.5791,-0.253618,-0.282242,-0.25751
2264678,1,-1.5727,-0.521908,-0.00230294,-2.09521,-1.5712,1.57381,0.785789,-1.57348,-0.522169,-0.00233498,-2.09306,-1.57208,1.57544,0.785552,-0.140125,0.0582766,-0.11448,0.0502873,-0.0393313,0.224217,-0.00220301,-0.191218,0.100682,-0.17997,0.0940874,-0.0930753,0.350292,0.0102416,-8.27391,-4.88101,-11.4224,21.9397,-1.5103,-0.456639,-0.0254419,0.109984,-1.2096,1.20786,2.59347,-0.260727,-0.264542,-0.254825
2264679,1,-1.57286,-0.521836,-0.0024296,-2.09516,-1.57125,1.5741,0.785781,-1.57368,-0.522064,-0.00252494,-2.09296,-1.57218,1.57581,0.785562,-0.145987,0.0645267,-0.122093,0.0513873,-0.0419939,0.241313,-0.00313019,-0.199808,0.105126,-0.18996,0.0982545,-0.0975082,0.367458,0.0106401,-8.45244,-4.78183,-11.8508,22.0389,-1.56157,-0.392553,0.0194189,0.0963479,-1.17437,1.18829,2.60436,-0.267969,-0.247516,-0.252051
2264680,1,-1.57303,-0.521759,-0.00257042,-2.0951,-1.57131,1.5744,0.785785,-1.57389,-0.521954,-0.00272489,-2.09286,-1.57228,1.57619,0.785573,-0.156442,0.0683708,-0.127854,0.0534935,-0.0438566,0.260914,-0.000425278,-0.208399,0.109569,-0.19995,0.102422,-0.101941,0.384623,0.0110386,-8.65477,-4.65488,-12.4102,22.0905,-1.61192,-0.373326,-0.0254419,0.0812711,-1.1369,1.16441,2.61703,-0.275511,-0.231117,-0.249106
2264681,1,-1.5732,-0.521667,-0.00271763,-2.09502,-1.57137,1.57473,0.785783,-1.57411,-0.52184,-0.00293483,-2.09275,-1.57239,1.57659,0.785585,-0.158741,0.0777431,-0.135163,0.0594937,-0.049958,0.285892,-0.000758237,-0.216989,0.114012,-0.20994,0.106589,-0.106374,0.401789,0.0114371,-9.15862,-4.67868,-12.9894,22.0627,-1.67418,-0.40537,-0.0126246,0.0631005,-1.10572,1.13407,2.63501,-0.283539,-0.215592,-0.245924
2264682,1,-1.57338,-0.521576,-0.00288672,-2.09495,-1.57144,1.57508,0.785783,-1.57433,-0.521722,-0.00315476,-2.09264,-1.5725,1.57701,0.785597,-0.165179,0.0796443,-0.143545,0.0637636,-0.0556737,0.302586,-0.000505491,-0.22558,0.118455,-0.21993,0.110756,-0.110807,0.418955,0.0118355,-9.61089,-4.62711,-13.4457,22.0627,-1.70805,-0.488683,-0.0126246,0.0395196,-1.08367,1.09445,2.65789,-0.292105,-0.201211,-0.242514
2264683,1,-1.57358,-0.521475,-0.0030539,-2.09487,-1.57152,1.57546,0.785787,-1.57457,-0.521599,-0.00338468,-2.09253,-1.57261,1.57745,0.785609,-0.175162,0.0888674,-0.149637,0.0678865,-0.0607787,0.324597,-9.96352e-05,-0.23417,0.122898,-0.22992,0.114923,-0.11524,0.436121,0.012234,-9.94017,-4.65488,-14.0527,22.0151,-1.71355,-0.57932,-0.0190333,0.01045,-1.06978,1.04575,2.6842,-0.301206,-0.187849,-0.238909
2264684,1,-1.57379,-0.521373,-0.00322945,-2.09479,-1.5716,1.57585,0.785785,-1.57481,-0.521472,-0.00362459,-2.09241,-1.57273,1.5779,0.785622,-0.187603,0.094008,-0.158697,0.0722092,-0.0648125,0.346147,-0.00101586,-0.242761,0.127341,-0.23991,0.11909,-0.119673,0.453287,0.0126325,-10.1901,-4.62711,-14.6121,22.0389,-1.71355,-0.701085,0.00660151,-0.0215908,-1.06572,0.991396,2.71443,-0.310842,-0.175141,-0.235133
2264685,1,-1.57399,-0.521262,-0.00341948,-2.0947,-1.57168,1.57626,0.785791,-1.57506,-0.52134,-0.00387449,-2.09229,-1.57286,1.57837,0.785635,-0.193111,0.102217,-0.16644,0.0811182,-0.0678098,0.365147,0.000984273,-0.251351,0.131784,-0.2499,0.123257,-0.124105,0.470453,0.013031,-10.5948,-4.62711,-14.9889,22.0389,-1.70805,-0.759679,-0.0382593,-0.0546262,-1.07182,0.934186,2.74763,-0.320926,-0.162906,-0.23122
2264686,1,-1.57421,-0.521157,-0.00360191,-2.0946,-1.57178,1.5767,0.785787,-1.57532,-0.521203,-0.00413438,-2.09216,-1.57299,1.57886,0.785648,-0.201478,0.102208,-0.170887,0.0868259,-0.0754609,0.387834,-0.000530613,-0.260345,0.136498,-0.25989,0.127696,-0.128867,0.488346,0.0134316,-10.8487,-4.50412,-15.4214,22.0151,-1.68608,-0.798131,-0.00621587,-0.0905691,-1.08093,0.871391,2.77894,-0.331277,-0.151501,-0.227228
2264687,1,-1.57444,-0.521049,-0.00379208,-2.0945,-1.57188,1.57715,0.785789,-1.57559,-0.521062,-0.00440426,-2.09203,-1.57312,1.57937,0.785662,-0.206329,0.102912,-0.176683,0.0893776,-0.0858501,0.413878,0.000120976,-0.269339,0.141213,-0.26988,0.132134,-0.133629,0.50624,0.0138322,-11.1264,-4.40097,-15.8776,22.0151,-1.66319,-0.810948,-0.0190333,-0.133707,-1.08093,0.796742,2.80321,-0.341703,-0.1416,-0.223228
2264688,1,-1.57466,-0.520933,-0.00399644,-2.0944,-1.57199,1.57762,0.785785,-1.57587,-0.520916,-0.00468413,-2.09189,-1.57326,1.57989,0.785676,-0.210207,0.107229,-0.184113,0.0911288,-0.0918085,0.431913,-0.00110614,-0.278332,0.145928,-0.27987,0.136573,-0.138391,0.524134,0.0142328,-11.4041,-4.32559,-16.2069,22.0627,-1.68608,-0.785314,0.0130102,-0.187223,-1.06664,0.706088,2.82047,-0.352141,-0.133686,-0.219251
2264689,1,-1.57489,-0.520813,-0.0042134,-2.09429,-1.57209,1.57811,0.785786,-1.57616,-0.520766,-0.00497399,-2.09175,-1.5734,1.58043,0.785691,-0.219048,0.11067,-0.193111,0.0978334,-0.0954492,0.448949,-0.000262711,-0.287326,0.150642,-0.28986,0.141011,-0.143153,0.542028,0.0146334,-11.5787,-4.25021,-16.3815,21.9873,-1.73643,-0.746862,0.000192821,-0.250567,-1.04127,0.600933,2.83353,-0.362589,-0.127581,-0.215291
2264690,1,-1.57515,-0.520682,-0.004425,-2.09417,-1.57219,1.57863,0.78579,-1.57645,-0.52061,-0.00527384,-2.0916,-1.57355,1.58099,0.785706,-0.234102,0.117386,-0.197169,0.105912,-0.0988733,0.46911,-0.000175141,-0.296319,0.155357,-0.29985,0.14545,-0.147915,0.559922,0.015034,-11.6064,-4.22244,-16.7623,21.9159,-1.76481,-0.75327,0.000192821,-0.319492,-1.00756,0.487109,2.84242,-0.372939,-0.122496,-0.211341
2264691,1,-1.5754,-0.520548,-0.00465366,-2.09405,-1.57231,1.57918,0.785792,-1.57676,-0.52045,-0.00558368,-2.09145,-1.5737,1.58157,0.785721,-0.238337,0.123389,-0.209217,0.111009,-0.0966039,0.48897,0.000357957,-0.305313,0.160072,-0.30984,0.149888,-0.152677,0.577815,0.0154346,-11.7294,-4.12326,-16.9131,21.8882,-1.80418,-0.875035,-0.0126246,-0.390274,-0.969805,0.369578,2.84748,-0.383176,-0.117783,-0.207404
2264692,1,-1.57566,-0.520407,-0.0048966,-2.09393,-1.57243,1.57975,0.785801,-1.57707,-0.520285,-0.00590351,-2.0913,-1.57386,1.58217,0.785737,-0.247872,0.126248,-0.219124,0.11507,-0.104798,0.509994,0.00193406,-0.314307,0.164786,-0.31983,0.154327,-0.157439,0.595709,0.0158352,-11.781,-4.07169,-17.0162,21.8644,-1.83256,-0.92722,-0.0584009,-0.460714,-0.931635,0.252127,2.85062,-0.393391,-0.113096,-0.203498
2264693,1,-1.57594,-0.520255,-0.0051432,-2.09379,-1.57255,1.58033,0.7858,-1.5774,-0.520116,-0.00623333,-2.09114,-1.57402,1.58278,0.785753,-0.259311,0.130833,-0.2261,0.124114,-0.110151,0.529148,0.000543388,-0.3233,0.169501,-0.32982,0.158765,-0.162201,0.613603,0.0162358,-11.7572,-4.12326,-17.1194,21.7176,-1.87193,-0.940038,-0.0382593,-0.528899,-0.890889,0.137622,2.85112,-0.40355,-0.108237,-0.199669
2264694,1,-1.57622,-0.520103,-0.00538924,-2.09365,-1.57268,1.58094,0.785808,-1.57773,-0.519942,-0.00657314,-2.09098,-1.57419,1.58341,0.78577,-0.267594,0.136031,-0.233977,0.126911,-0.120495,0.546363,0.00633348,-0.332294,0.174216,-0.33981,0.163204,-0.166963,0.631497,0.0166364,-11.7294,-4.12326,-17.3693,21.7176,-1.87834,-0.933629,-0.0840357,-0.594332,-0.846103,0.0261475,2.84788,-0.413651,-0.103288,-0.195972
2264695,1,-1.57649,-0.519943,-0.00566143,-2.0935,-1.57281,1.58156,0.785805,-1.57807,-0.519763,-0.00692294,-2.09081,-1.57436,1.58406,0.785787,-0.2744,0.14486,-0.246845,0.133278,-0.128853,0.571728,0.00312057,-0.341287,0.17893,-0.3498,0.167642,-0.171725,0.649391,0.0170371,-11.8564,-4.19864,-17.4447,21.6422,-1.86644,-0.965673,-0.044668,-0.657236,-0.803112,-0.0824343,2.84384,-0.423835,-0.0984778,-0.192436
2264696,1,-1.57679,-0.519788,-0.00593779,-2.09336,-1.57296,1.58221,0.78581,-1.57842,-0.519579,-0.00728273,-2.09064,-1.57454,1.58473,0.785804,-0.281848,0.147453,-0.261699,0.139416,-0.135224,0.591587,0.00258498,-0.350129,0.183705,-0.35979,0.172163,-0.176586,0.667099,0.0174296,-11.9833,-4.12326,-17.4963,21.6898,-1.84447,-1.02976,-0.0510767,-0.715793,-0.766328,-0.184599,2.84104,-0.434094,-0.0936778,-0.189086
2264697,1,-1.5771,-0.519629,-0.00623035,-2.09321,-1.57312,1.58287,0.785809,-1.57878,-0.51939,-0.00765251,-2.09046,-1.57472,1.58541,0.785822,-0.286236,0.154947,-0.273758,0.143753,-0.145386,0.609018,0.00121167,-0.358972,0.188479,-0.36978,0.176684,-0.181447,0.684808,0.017822,-11.9833,-4.04788,-17.5717,21.7176,-1.80968,-1.0618,-0.0318506,-0.768155,-0.734426,-0.276806,2.8388,-0.444296,-0.0886064,-0.185924
2264698,1,-1.57742,-0.519459,-0.00652164,-2.09305,-1.57328,1.58354,0.785815,-1.57915,-0.519197,-0.00803228,-2.09028,-1.5749,1.58611,0.78584,-0.297371,0.157434,-0.277032,0.145377,-0.147525,0.624389,0.00194145,-0.367814,0.193253,-0.37977,0.181205,-0.186309,0.702516,0.0182145,-11.9595,-4.04788,-17.7502,21.7176,-1.78221,-0.991307,-0.0584009,-0.816596,-0.707155,-0.362479,2.83841,-0.454509,-0.0835695,-0.182916
2264699,1,-1.57773,-0.519284,-0.00682002,-2.09289,-1.57344,1.58423,0.785821,-1.57952,-0.518999,-0.00842204,-2.09009,-1.5751,1.58684,0.785859,-0.303387,0.162651,-0.285481,0.149385,-0.152453,0.63897,0.00620635,-0.376656,0.198027,-0.38976,0.185726,-0.19117,0.720225,0.018607,-12.1579,-4.07169,-17.8256,21.7414,-1.77031,-0.913488,-0.0712183,-0.865418,-0.683639,-0.44911,2.84136,-0.464895,-0.0791443,-0.180034
2264700,1,-1.57806,-0.519103,-0.00713558,-2.09271,-1.57361,1.58494,0.785821,-1.57991,-0.518796,-0.00882179,-2.0899,-1.57529,1.58757,0.785878,-0.310756,0.167352,-0.293598,0.157822,-0.15608,0.663574,0.00835767,-0.385498,0.202802,-0.39975,0.190247,-0.196031,0.737933,0.0189995,-12.3126,-4.12326,-17.9287,21.666,-1.7877,-1.01694,-0.0584009,-0.917287,-0.661102,-0.541182,2.8461,-0.4754,-0.0756011,-0.177302
2264701,1,-1.5784,-0.518917,-0.00746373,-2.09253,-1.57377,1.58568,0.78582,-1.5803,-0.518589,-0.00923153,-2.08971,-1.57549,1.58833,0.785897,-0.32466,0.1728,-0.30086,0.162384,-0.161475,0.687004,0.0091169,-0.39434,0.207576,-0.40974,0.194767,-0.200892,0.755642,0.019392,-12.3126,-4.14706,-18.0041,21.6422,-1.86094,-1.14603,-0.0190333,-0.972202,-0.637581,-0.638773,2.84995,-0.485814,-0.0728935,-0.17475
2264702,1,-1.57874,-0.518722,-0.00780238,-2.09235,-1.57395,1.58643,0.785829,-1.58071,-0.518376,-0.00965126,-2.08951,-1.5757,1.5891,0.785917,-0.328036,0.183684,-0.314573,0.168979,-0.166649,0.706791,0.0117466,-0.403182,0.21235,-0.41973,0.199288,-0.205754,0.77335,0.0197845,-12.4118,-4.22244,-17.9803,21.6144,-1.91221,-1.14603,-0.0318506,-1.02815,-0.617358,-0.738559,2.85396,-0.496068,-0.0708484,-0.172349
2264703,1,-1.5791,-0.518519,-0.00815102,-2.09215,-1.57413,1.58718,0.785837,-1.58112,-0.518159,-0.010081,-2.0893,-1.57591,1.58989,0.785937,-0.333417,0.186953,-0.321116,0.179995,-0.169947,0.714655,0.0136556,-0.412024,0.217125,-0.42972,0.203809,-0.210615,0.791059,0.020177,-12.388,-4.32559,-17.9525,21.4914,-1.96806,-1.03617,-0.044668,-1.08484,-0.604114,-0.838915,2.85837,-0.506237,-0.0694868,-0.17004
2264704,1,-1.57947,-0.518309,-0.00849732,-2.09196,-1.57433,1.58796,0.785843,-1.58154,-0.517937,-0.0105207,-2.0891,-1.57612,1.5907,0.785958,-0.345756,0.193578,-0.330804,0.184423,-0.175494,0.736644,0.0150558,-0.420866,0.221899,-0.43971,0.20833,-0.215476,0.808767,0.0205695,-12.3364,-4.47635,-18.0041,21.5152,-1.95708,-0.965673,-0.0584009,-1.14271,-0.593093,-0.940216,2.85965,-0.516376,-0.0687368,-0.167802
2264705,1,-1.57984,-0.518098,-0.00887065,-2.09176,-1.57452,1.58877,0.785841,-1.58197,-0.517711,-0.0109704,-2.08888,-1.57634,1.59153,0.785979,-0.352305,0.200989,-0.344482,0.189139,-0.183402,0.761816,0.0121911,-0.429708,0.226673,-0.4497,0.212851,-0.220337,0.826475,0.020962,-12.4118,-4.6033,-17.9287,21.4676,-1.96806,-0.997716,0.0322363,-1.19923,-0.584354,-1.03891,2.85874,-0.526561,-0.0681566,-0.16563
2264706,1,-1.58021,-0.517889,-0.00926003,-2.09156,-1.57472,1.58959,0.78584,-1.58241,-0.517479,-0.0114301,-2.08867,-1.57657,1.59237,0.786,-0.35715,0.202993,-0.361982,0.190868,-0.18637,0.777849,0.00698088,-0.437907,0.231335,-0.45969,0.217306,-0.225152,0.843502,0.0213431,-12.4872,-4.5795,-17.8018,21.5152,-1.9232,-1.09385,0.0972387,-1.25065,-0.580737,-1.1285,2.85927,-0.536825,-0.0670985,-0.163483
2264707,1,-1.5806,-0.517667,-0.00964724,-2.09135,-1.57492,1.59042,0.785848,-1.58285,-0.517243,-0.0118998,-2.08844,-1.5768,1.59323,0.786022,-0.367478,0.20766,-0.368151,0.194046,-0.192545,0.7927,0.00559965,-0.446106,0.235996,-0.46968,0.221761,-0.229968,0.860528,0.0217242,-12.3602,-4.67868,-17.8256,21.5668,-1.90031,-1.04899,0.0972387,-1.29539,-0.579309,-1.20602,2.8622,-0.547166,-0.0651307,-0.161246
2264708,1,-1.581,-0.517447,-0.0100468,-2.09114,-1.57513,1.59125,0.785859,-1.58331,-0.517003,-0.0123794,-2.08822,-1.57703,1.59411,0.786044,-0.387629,0.209797,-0.377186,0.205516,-0.196266,0.805757,0.00396768,-0.454305,0.240658,-0.47967,0.226216,-0.234783,0.877554,0.0221053,-12.3126,-4.73026,-17.774,21.5152,-1.90031,-0.894261,0.110056,-1.33262,-0.573241,-1.27182,2.86412,-0.557433,-0.0620225,-0.158782
2264709,1,-1.58141,-0.517214,-0.0104612,-2.09092,-1.57535,1.59213,0.785866,-1.58377,-0.516757,-0.0128691,-2.08799,-1.57727,1.595,0.786067,-0.395654,0.218713,-0.387622,0.207023,-0.204693,0.823841,0.00641189,-0.462504,0.24532,-0.48966,0.230672,-0.239598,0.894581,0.0224863,-12.3602,-4.82944,-17.7264,21.5152,-1.88383,-0.92722,0.143015,-1.36046,-0.559603,-1.32499,2.86187,-0.567399,-0.0574555,-0.156005
2264710,1,-1.58182,-0.516974,-0.0108984,-2.0907,-1.57557,1.59304,0.785875,-1.58424,-0.516507,-0.0133687,-2.08775,-1.57752,1.59592,0.786089,-0.397901,0.224886,-0.401248,0.211652,-0.210412,0.849702,0.00906955,-0.470702,0.249981,-0.49965,0.235127,-0.244413,0.911607,0.0228674,-12.4872,-5.03177,-17.5478,21.5152,-1.87834,-1.06821,0.149424,-1.38126,-0.546871,-1.3681,2.85962,-0.577144,-0.051807,-0.152854
2264711,1,-1.58224,-0.516726,-0.0113366,-2.09047,-1.57579,1.59395,0.785886,-1.58472,-0.516253,-0.0138784,-2.08751,-1.57777,1.59684,0.786113,-0.405692,0.231915,-0.412948,0.218672,-0.212988,0.865987,0.010584,-0.478901,0.254643,-0.50964,0.239582,-0.249229,0.928633,0.0232485,-12.4872,-5.2103,-17.5717,21.5152,-1.90581,-1.12681,0.16865,-1.39981,-0.542299,-1.40596,2.86094,-0.586799,-0.0458849,-0.1493
2264712,1,-1.58268,-0.516473,-0.011784,-2.09024,-1.57602,1.59488,0.785901,-1.58521,-0.515994,-0.014398,-2.08727,-1.57802,1.59779,0.786136,-0.410276,0.236894,-0.422492,0.221921,-0.214587,0.878096,0.00957347,-0.4871,0.259305,-0.51963,0.244037,-0.254044,0.94566,0.0236296,-12.4872,-5.38882,-17.4447,21.5668,-1.95708,-1.10026,0.129282,-1.41873,-0.545786,-1.44149,2.86525,-0.596397,-0.0401467,-0.145347
2264713,1,-1.58312,-0.51622,-0.012242,-2.09,-1.57625,1.59581,0.78592,-1.5857,-0.51573,-0.0149276,-2.08702,-1.57828,1.59875,0.78616,-0.419191,0.239369,-0.433079,0.22382,-0.221652,0.915809,0.0133165,-0.495299,0.263966,-0.52962,0.248492,-0.258859,0.962686,0.0240107,-12.5625,-5.51181,-17.524,21.543,-1.97447,-1.0618,0.0780126,-1.44032,-0.554743,-1.47796,2.87232,-0.606032,-0.0350827,-0.14103
2264714,1,-1.58356,-0.515963,-0.0127287,-2.08976,-1.57648,1.59677,0.785937,-1.5862,-0.515461,-0.0154672,-2.08677,-1.57854,1.59973,0.786185,-0.422988,0.243101,-0.460323,0.228532,-0.22552,0.931846,0.0140186,-0.503497,0.268628,-0.53961,0.252947,-0.263674,0.979712,0.0243917,-12.6895,-5.58719,-17.4963,21.5152,-2.03673,-1.02335,0.0780126,-1.46159,-0.564558,-1.51037,2.88124,-0.615599,-0.0304059,-0.136462
2264715,1,-1.58401,-0.515703,-0.0132152,-2.08952,-1.57673,1.59776,0.785957,-1.58672,-0.515188,-0.0160168,-2.08651,-1.57881,1.60073,0.786209,-0.430976,0.250689,-0.466061,0.229126,-0.235835,0.947183,0.0194775,-0.511696,0.27329,-0.5496,0.257402,-0.26849,0.996739,0.0247728,-12.9434,-5.66653,-17.4209,21.5906,-2.03032,-0.97849,0.0651953,-1.47719,-0.575397,-1.52999,2.89252,-0.625023,-0.0252144,-0.131777
2264716,1,-1.58447,-0.515439,-0.0137165,-2.08928,-1.57698,1.59876,0.785973,-1.58724,-0.51491,-0.0165764,-2.08625,-1.57909,1.60174,0.786235,-0.449485,0.254869,-0.47731,0.230061,-0.237305,0.962381,0.0178463,-0.518868,0.277698,-0.55959,0.261678,-0.273162,1.01281,0.0251453,-12.9434,-5.58719,-17.4209,21.666,-2.04771,-1.00412,0.09083,-1.48685,-0.592679,-1.53743,2.9095,-0.634558,-0.0192483,-0.127058
2264717,1,-1.58495,-0.515156,-0.0142197,-2.08902,-1.57722,1.59978,0.785993,-1.58776,-0.514628,-0.017146,-2.08598,-1.57936,1.60277,0.78626,-0.457299,0.262417,-0.48714,0.236936,-0.242066,0.979884,0.0169994,-0.52604,0.282106,-0.56958,0.265953,-0.277834,1.02888,0.0255178,-12.9434,-5.69034,-17.3971,21.6898,-2.0706,-0.991307,0.110056,-1.49114,-0.618242,-1.53524,2.93298,-0.644375,-0.0124222,-0.12236
2264718,1,-1.58544,-0.514876,-0.0147416,-2.08876,-1.57747,1.60084,0.786017,-1.58829,-0.514341,-0.0177256,-2.08571,-1.57965,1.60382,0.786286,-0.469162,0.267591,-0.498451,0.241037,-0.242993,1.00199,0.0182566,-0.533212,0.286514,-0.57957,0.270228,-0.282507,1.04495,0.0258902,-12.8403,-5.76572,-17.3217,21.6898,-2.07609,-1.04899,0.0780126,-1.49158,-0.650345,-1.52597,2.96025,-0.654461,-0.00488466,-0.117717
2264719,1,-1.58592,-0.514587,-0.0152773,-2.0885,-1.57773,1.6019,0.786043,-1.58884,-0.51405,-0.0183151,-2.08544,-1.57993,1.60488,0.786312,-0.471966,0.274055,-0.507501,0.247066,-0.248545,1.02079,0.0231837,-0.540384,0.290922,-0.58956,0.274503,-0.287179,1.06102,0.0262627,-12.8165,-5.84109,-17.2424,21.6144,-2.0706,-1.17807,0.0523779,-1.49235,-0.686976,-1.51548,2.98882,-0.664845,0.00269247,-0.113153
2264720,1,-1.58642,-0.514293,-0.0158289,-2.08824,-1.57801,1.60298,0.786074,-1.58938,-0.513755,-0.0189147,-2.08516,-1.58023,1.60595,0.786339,-0.484593,0.282849,-0.52499,0.249084,-0.259417,1.03124,0.0285083,-0.547556,0.29533,-0.59955,0.278778,-0.291852,1.07708,0.0266352,-12.8641,-6.0712,-17.0916,21.6898,-2.01933,-1.27421,-0.0190333,-1.49474,-0.729402,-1.50515,3.0188,-0.675533,0.00999587,-0.108699
2264721,1,-1.58692,-0.514002,-0.0163933,-2.08798,-1.57828,1.60406,0.786091,-1.58994,-0.513455,-0.0195242,-2.08488,-1.58052,1.60705,0.786366,-0.48225,0.285645,-0.529595,0.258082,-0.25978,1.05226,0.0271947,-0.554728,0.299738,-0.60954,0.283053,-0.296524,1.09315,0.0270076,-12.8918,-6.17038,-16.9924,21.7652,-2.03673,-1.28702,0.0459692,-1.49945,-0.777562,-1.49555,3.04974,-0.686446,0.0167252,-0.104434
2264722,1,-1.58744,-0.513699,-0.016956,-2.08771,-1.57855,1.60516,0.786119,-1.5905,-0.513151,-0.0201438,-2.08459,-1.58082,1.60816,0.786393,-0.495909,0.289766,-0.53858,0.264579,-0.261334,1.0642,0.0252231,-0.5619,0.304146,-0.61953,0.287328,-0.301196,1.10922,0.0273801,-12.7411,-6.22195,-16.9647,21.8405,-2.03673,-1.20371,0.0322363,-1.51133,-0.822728,-1.49413,3.07626,-0.69747,0.0219877,-0.10047
2264723,1,-1.58797,-0.513397,-0.0175329,-2.08743,-1.57883,1.60626,0.786148,-1.59107,-0.512843,-0.0207733,-2.0843,-1.58113,1.60928,0.786421,-0.5044,0.293246,-0.55119,0.261939,-0.265394,1.07378,0.0234077,-0.569072,0.308554,-0.62952,0.291603,-0.305869,1.12529,0.0277526,-12.5903,-6.27353,-16.9647,21.8882,-2.07609,-1.1204,0.0258276,-1.52953,-0.859452,-1.50065,3.09695,-0.70852,0.0258946,-0.0968267
2264724,1,-1.58849,-0.513085,-0.0181167,-2.08716,-1.57912,1.60737,0.786179,-1.59164,-0.51253,-0.0214128,-2.084,-1.58144,1.61042,0.786449,-0.513166,0.298467,-0.554724,0.264342,-0.277219,1.08206,0.0215972,-0.576244,0.312963,-0.63951,0.295878,-0.310541,1.14136,0.028125,-12.5625,-6.42429,-16.9409,21.9635,-2.12095,-1.06821,0.0322363,-1.55032,-0.891359,-1.51064,3.11717,-0.71967,0.0291143,-0.093436
2264725,1,-1.58903,-0.512771,-0.0187111,-2.08688,-1.57941,1.6085,0.786205,-1.59223,-0.512212,-0.0220623,-2.0837,-1.58175,1.61158,0.786478,-0.518154,0.297616,-0.570532,0.263973,-0.277029,1.08378,0.0235798,-0.583416,0.317371,-0.6495,0.300154,-0.315214,1.15743,0.0284975,-12.5903,-6.52347,-16.9131,22.0389,-2.17772,-1.07462,0.0651953,-1.57333,-0.918897,-1.52416,3.13944,-0.731029,0.0319669,-0.0902575
2264726,1,-1.58958,-0.512459,-0.0193331,-2.0866,-1.57971,1.60964,0.786236,-1.59282,-0.511891,-0.0227218,-2.0834,-1.58207,1.61275,0.786506,-0.533439,0.30062,-0.582641,0.27805,-0.280697,1.09963,0.026732,-0.58935,0.321417,-0.65949,0.304154,-0.31967,1.17234,0.028862,-12.5625,-6.62662,-16.8139,22.0627,-2.13835,-1.17167,0.0523779,-1.59389,-0.933257,-1.53487,3.15846,-0.742397,0.0354568,-0.0872917
2264727,1,-1.59013,-0.512135,-0.0199508,-2.08631,-1.58,1.61082,0.786271,-1.59341,-0.511565,-0.0233913,-2.08309,-1.5824,1.61394,0.786536,-0.538349,0.308418,-0.610072,0.281164,-0.283088,1.11659,0.0264699,-0.595283,0.325464,-0.66948,0.308155,-0.324127,1.18725,0.0292266,-12.5625,-6.7258,-16.7623,22.1619,-2.09257,-1.26139,-0.00621587,-1.6032,-0.930719,-1.5295,3.16874,-0.753376,0.0408749,-0.0845279
2264728,1,-1.59071,-0.511806,-0.0205929,-2.08601,-1.58031,1.61201,0.786308,-1.59401,-0.511236,-0.0240707,-2.08278,-1.58273,1.61514,0.786565,-0.54977,0.315963,-0.61664,0.282304,-0.293218,1.13172,0.0297007,-0.601217,0.329511,-0.67947,0.312155,-0.328584,1.20215,0.0295911,-12.3602,-6.87656,-16.6631,22.2135,-2.0706,-1.30716,-0.044668,-1.59711,-0.923725,-1.50068,3.17547,-0.763913,0.0484663,-0.0819294
2264729,1,-1.59129,-0.511471,-0.0212428,-2.08571,-1.58062,1.6132,0.786337,-1.59462,-0.510902,-0.0247602,-2.08246,-1.58306,1.61636,0.786595,-0.55793,0.320776,-0.620491,0.284837,-0.289298,1.14997,0.0294052,-0.607151,0.333557,-0.68946,0.316156,-0.333041,1.21706,0.0299556,-12.1579,-7.00351,-16.6116,22.3365,-2.08708,-1.4097,-0.0126246,-1.58285,-0.925153,-1.45933,3.18674,-0.774374,0.0567184,-0.0795141
2264730,1,-1.59188,-0.511125,-0.0218985,-2.08541,-1.58093,1.61444,0.786375,-1.59523,-0.510565,-0.0254596,-2.08214,-1.5834,1.61759,0.786626,-0.565312,0.326196,-0.630148,0.289314,-0.292182,1.1736,0.0322913,-0.613084,0.337604,-0.69945,0.320156,-0.337498,1.23197,0.0303201,-12.0071,-7.20584,-16.4092,22.3365,-2.09257,-1.72556,-0.0584009,-1.57103,-0.937141,-1.42237,3.20432,-0.785063,0.0636648,-0.0773529
2264731,1,-1.59247,-0.510784,-0.0225702,-2.0851,-1.58124,1.61565,0.786411,-1.59585,-0.510223,-0.0261691,-2.08182,-1.58374,1.61884,0.786656,-0.572025,0.331399,-0.641488,0.292195,-0.299122,1.21291,0.0332942,-0.619018,0.341651,-0.70944,0.324157,-0.341955,1.24688,0.0306847,-11.9595,-7.33279,-16.2307,22.3603,-2.09807,-1.69352,-0.077627,-1.56615,-0.958134,-1.39667,3.22711,-0.795969,0.0680465,-0.0754992
2264732,1,-1.59307,-0.510443,-0.0232369,-2.0848,-1.58157,1.61685,0.786457,-1.59648,-0.509877,-0.0268885,-2.08149,-1.58409,1.6201,0.786687,-0.58536,0.335369,-0.658851,0.293324,-0.304361,1.2037,0.036262,-0.624952,0.345697,-0.71943,0.328157,-0.346412,1.26179,0.0310492,-11.7056,-7.33279,-16.2069,22.4356,-2.10997,-1.22294,-0.155447,-1.5641,-0.986579,-1.37609,3.25466,-0.806891,0.0699954,-0.0739807
2264733,1,-1.59368,-0.510094,-0.0239117,-2.08449,-1.58189,1.61808,0.786496,-1.59711,-0.509528,-0.0276179,-2.08116,-1.58444,1.62138,0.786719,-0.588862,0.348496,-0.664437,0.295202,-0.307164,1.20497,0.036152,-0.630885,0.349744,-0.72942,0.332158,-0.350869,1.27669,0.0314137,-11.5271,-7.43594,-16.1553,22.4872,-2.15483,-0.946447,-0.174673,-1.5588,-1.02667,-1.35192,3.28982,-0.817846,0.0707425,-0.0728154
2264734,1,-1.59428,-0.509744,-0.0246183,-2.08417,-1.58222,1.61936,0.786529,-1.59775,-0.509174,-0.0283573,-2.08082,-1.58479,1.62267,0.786751,-0.583761,0.349177,-0.674571,0.301306,-0.309745,1.22291,0.0333948,-0.636819,0.353791,-0.73941,0.336158,-0.355326,1.2916,0.0317783,-11.5549,-7.45975,-15.953,22.4634,-2.17222,-1.11399,-0.122488,-1.5553,-1.08248,-1.33122,3.33394,-0.829121,0.0703827,-0.0720727
2264735,1,-1.59491,-0.509383,-0.0253253,-2.08385,-1.58254,1.62065,0.786561,-1.59839,-0.508816,-0.0291067,-2.08048,-1.58515,1.62397,0.786783,-0.592015,0.352209,-0.686271,0.30581,-0.318928,1.23425,0.0314176,-0.642752,0.357837,-0.7494,0.340159,-0.359783,1.30651,0.0321428,-11.4041,-7.5867,-15.8776,22.4872,-2.21159,-1.27421,-0.0648096,-1.56038,-1.1431,-1.32351,3.3803,-0.840698,0.0686586,-0.0718385
2264736,1,-1.59556,-0.509028,-0.0260456,-2.08352,-1.58288,1.62196,0.786604,-1.59904,-0.508455,-0.0298661,-2.08014,-1.58552,1.6253,0.786815,-0.612689,0.353855,-0.691327,0.311453,-0.323089,1.24697,0.0330115,-0.647383,0.361441,-0.75939,0.343806,-0.363958,1.32009,0.0324993,-11.1502,-7.68588,-15.9292,22.3603,-2.24547,-1.4097,-0.0840357,-1.56948,-1.19381,-1.3238,3.42105,-0.852249,0.0665533,-0.0720721
2264737,1,-1.59619,-0.508656,-0.0267736,-2.08319,-1.58322,1.62324,0.786657,-1.59969,-0.50809,-0.0306355,-2.07979,-1.58588,1.62663,0.786848,-0.621725,0.358481,-0.699648,0.315155,-0.32258,1.25289,0.041125,-0.652014,0.365045,-0.76938,0.347453,-0.368133,1.33366,0.0328558,-11.051,-7.81284,-15.9768,22.2889,-2.24547,-1.32639,-0.174673,-1.57555,-1.22899,-1.32452,3.45324,-0.863653,0.064984,-0.0726478
2264738,1,-1.59682,-0.508279,-0.0275069,-2.08285,-1.58357,1.62455,0.786696,-1.60034,-0.507721,-0.0314149,-2.07944,-1.58626,1.62798,0.786881,-0.620118,0.362906,-0.71032,0.324499,-0.328514,1.26139,0.0389201,-0.656644,0.368649,-0.77937,0.351101,-0.372307,1.34724,0.0332123,-11.3287,-7.96359,-15.953,22.1143,-2.2061,-1.29343,-0.168264,-1.57874,-1.24953,-1.32631,3.47636,-0.875034,0.0637211,-0.0735104
2264739,1,-1.59743,-0.507899,-0.028244,-2.08251,-1.58394,1.62587,0.786731,-1.60101,-0.507349,-0.0322042,-2.07908,-1.58663,1.62934,0.786915,-0.615441,0.368,-0.718106,0.329266,-0.342743,1.2795,0.0342474,-0.661275,0.372252,-0.78936,0.354748,-0.376482,1.36081,0.0335688,-11.654,-8.2175,-16.0284,22.0627,-2.13835,-1.37766,-0.077627,-1.58641,-1.2587,-1.33764,3.49009,-0.886498,0.06155,-0.0746842
2264740,1,-1.59809,-0.507522,-0.0289805,-2.08217,-1.5843,1.62721,0.786757,-1.60167,-0.506973,-0.0330036,-2.07872,-1.58701,1.63071,0.786949,-0.628673,0.368839,-0.728829,0.3337,-0.341606,1.29237,0.029623,-0.665905,0.375856,-0.79935,0.358395,-0.380657,1.37439,0.0339252,-11.6818,-8.34445,-16.1038,21.9873,-2.14384,-1.31357,0.0523779,-1.60292,-1.25833,-1.36303,3.49495,-0.897979,0.0577614,-0.0761442
2264741,1,-1.59873,-0.507147,-0.0297261,-2.08182,-1.58465,1.62855,0.786786,-1.60234,-0.506593,-0.0338129,-2.07836,-1.5874,1.6321,0.786983,-0.633983,0.375371,-0.734989,0.333497,-0.343008,1.30504,0.0311438,-0.670536,0.37946,-0.80934,0.362042,-0.384832,1.38796,0.0342817,-11.781,-8.44363,-16.2585,21.9397,-2.21709,-1.18448,0.175059,-1.62514,-1.25161,-1.39768,3.49441,-0.909405,0.0528472,-0.0777159
2264742,1,-1.59937,-0.506767,-0.0304897,-2.08147,-1.58502,1.62989,0.786831,-1.60302,-0.50621,-0.0346323,-2.078,-1.58779,1.6335,0.787018,-0.643021,0.374913,-0.742934,0.340337,-0.350229,1.31275,0.0343634,-0.675167,0.383064,-0.81933,0.36569,-0.389007,1.40154,0.0346382,-11.8802,-8.44363,-16.4092,21.8405,-2.23997,-0.997716,0.129282,-1.65069,-1.24164,-1.43831,3.4915,-0.920802,0.0473538,-0.0790921
2264743,1,-1.60002,-0.506381,-0.0312499,-2.08111,-1.58539,1.63127,0.786872,-1.6037,-0.505824,-0.0354616,-2.07763,-1.58818,1.63492,0.787053,-0.643606,0.375832,-0.747108,0.341878,-0.356957,1.32786,0.0322966,-0.679797,0.386667,-0.82932,0.369337,-0.393182,1.41512,0.0349947,-11.9595,-8.49521,-16.5084,21.789,-2.25096,-0.97849,0.0780126,-1.68118,-1.22388,-1.48731,3.48415,-0.932172,0.0414479,-0.0799898
2264744,1,-1.60068,-0.506001,-0.0320453,-2.08074,-1.58577,1.63265,0.78691,-1.60438,-0.505433,-0.0363009,-2.07725,-1.58858,1.63634,0.787088,-0.642053,0.37812,-0.756652,0.357385,-0.362401,1.37577,0.0339614,-0.684428,0.390271,-0.83931,0.372984,-0.397357,1.42869,0.0353512,-12.0071,-8.47141,-16.4092,21.666,-2.24547,-1.11399,0.0459692,-1.72221,-1.19165,-1.55197,3.46715,-0.943453,0.0345354,-0.0803315
2264745,1,-1.60134,-0.505613,-0.0328299,-2.08038,-1.58615,1.63407,0.786951,-1.60507,-0.505039,-0.0371502,-2.07688,-1.58898,1.63779,0.787124,-0.644883,0.380521,-0.777284,0.357278,-0.365242,1.38165,0.0352821,-0.689058,0.393875,-0.8493,0.376632,-0.401532,1.44227,0.0357077,-12.0349,-8.49521,-16.3815,21.6422,-2.28483,-1.21012,0.0130102,-1.77404,-1.14374,-1.63076,3.43753,-0.954477,0.0265577,-0.0802139
2264746,1,-1.60202,-0.505214,-0.0336357,-2.08,-1.58654,1.6355,0.786979,-1.60576,-0.504642,-0.0380093,-2.0765,-1.58938,1.63924,0.78716,-0.658702,0.394456,-0.781061,0.362099,-0.371548,1.39132,0.0327264,-0.692514,0.396975,-0.859101,0.379862,-0.405347,1.45428,0.0360576,-11.8326,-8.57059,-16.3577,21.4914,-2.3361,-1.23575,0.071604,-1.82766,-1.09374,-1.70965,3.40278,-0.965291,0.0188556,-0.0797212
2264747,1,-1.6027,-0.504806,-0.0344534,-2.07963,-1.58693,1.63691,0.787018,-1.60646,-0.504242,-0.0388782,-2.07611,-1.58979,1.64071,0.787196,-0.668913,0.395874,-0.78381,0.367669,-0.376746,1.39562,0.0349198,-0.695969,0.400074,-0.868902,0.383093,-0.409163,1.4663,0.0364075,-11.6064,-8.72531,-16.3577,21.543,-2.34709,-1.02335,0.0258276,-1.8782,-1.05811,-1.78322,3.37206,-0.976231,0.012061,-0.0788882
2264748,1,-1.60338,-0.504395,-0.0352841,-2.07924,-1.58731,1.63836,0.787046,-1.60716,-0.503839,-0.0397569,-2.07573,-1.59021,1.64219,0.787233,-0.671836,0.396867,-0.796167,0.374215,-0.382078,1.41099,0.032706,-0.699424,0.403173,-0.878703,0.386323,-0.412978,1.47831,0.0367574,-11.5549,-8.8483,-16.2069,21.4676,-2.34709,-0.965673,0.0780126,-1.92608,-1.0321,-1.85411,3.34297,-0.987389,0.00608894,-0.0777841
2264749,1,-1.60406,-0.503993,-0.0361467,-2.07884,-1.58772,1.63981,0.787083,-1.60786,-0.503433,-0.0406454,-2.07534,-1.59062,1.64368,0.78727,-0.673959,0.399534,-0.808362,0.381723,-0.394227,1.42613,0.0343882,-0.702879,0.406273,-0.888504,0.389554,-0.416794,1.49033,0.0371074,-11.5787,-8.95145,-15.826,21.4438,-2.25645,-0.92722,0.0459692,-1.9708,-1.00302,-1.92159,3.30921,-0.998574,0.00113766,-0.076498
2264750,1,-1.60477,-0.503591,-0.0370162,-2.07845,-1.58813,1.6413,0.787123,-1.60857,-0.503024,-0.0415437,-2.07495,-1.59104,1.64518,0.787307,-0.681464,0.398559,-0.824997,0.384257,-0.394671,1.44537,0.0355954,-0.706334,0.409372,-0.898305,0.392784,-0.420609,1.50234,0.0374573,-11.174,-8.92368,-15.5721,21.416,-2.25645,-0.836583,0.0130102,-2.00947,-0.964547,-1.98046,3.26821,-1.00953,-0.00226827,-0.0750882
2264751,1,-1.6055,-0.503191,-0.0378838,-2.07806,-1.58852,1.6428,0.787156,-1.60928,-0.502611,-0.0424518,-2.07455,-1.59147,1.64669,0.787345,-0.696149,0.403944,-0.834766,0.386506,-0.394289,1.44865,0.0347006,-0.709789,0.412472,-0.908106,0.396015,-0.424425,1.51436,0.0378072,-10.5432,-8.8483,-15.2706,21.5152,-2.28483,-0.766088,0.0258276,-2.03602,-0.917259,-2.02186,3.22251,-1.02013,-0.0031169,-0.073607
2264752,1,-1.60623,-0.502793,-0.0387991,-2.07766,-1.58894,1.6443,0.787197,-1.60999,-0.502196,-0.0433697,-2.07415,-1.5919,1.64822,0.787383,-0.711566,0.402524,-0.85736,0.39075,-0.398153,1.46808,0.0366179,-0.713244,0.415571,-0.917907,0.399245,-0.42824,1.52638,0.0381571,-10.0394,-8.82449,-14.6874,21.5152,-2.29674,-0.836583,-0.0318506,-2.04122,-0.864336,-2.03364,3.17582,-1.03022,4.68615e-05,-0.0721131
2264753,1,-1.60695,-0.502384,-0.0397057,-2.07726,-1.58935,1.64584,0.787229,-1.61071,-0.501777,-0.0442974,-2.07375,-1.59233,1.64976,0.787422,-0.713402,0.40127,-0.872966,0.390418,-0.39795,1.48334,0.0343461,-0.7167,0.418671,-0.927708,0.402476,-0.432056,1.53839,0.038507,-9.68627,-8.89987,-14.1796,21.5668,-2.30223,-0.997716,0.00660151,-2.01854,-0.802823,-2.00708,3.12841,-1.03964,0.00808821,-0.0706865
2264754,1,-1.60768,-0.501972,-0.0406297,-2.07685,-1.58977,1.64737,0.787262,-1.61143,-0.501355,-0.0452349,-2.07334,-1.59277,1.65131,0.787461,-0.723153,0.406184,-0.890098,0.395177,-0.404209,1.49116,0.0326419,-0.720155,0.42177,-0.937509,0.405706,-0.435871,1.55041,0.0388569,-9.36095,-8.97525,-13.8027,21.6422,-2.25096,-1.02335,0.0523779,-1.96981,-0.732591,-1.9445,3.08136,-1.04844,0.0204079,-0.0693943
2264755,1,-1.60841,-0.501546,-0.0415612,-2.07644,-1.59019,1.64887,0.787303,-1.61215,-0.50093,-0.0461822,-2.07293,-1.5932,1.65287,0.7875,-0.726973,0.408115,-0.900085,0.405282,-0.409787,1.48893,0.0339433,-0.72361,0.42487,-0.94731,0.408937,-0.439687,1.56242,0.0392068,-9.18242,-9.12601,-13.5964,21.7176,-2.27934,-0.965673,0.0322363,-1.9005,-0.657704,-1.8539,3.03462,-1.05678,0.0358118,-0.0682203
2264756,1,-1.60913,-0.501115,-0.0424943,-2.07603,-1.59062,1.6504,0.787342,-1.61288,-0.500503,-0.0471384,-2.07252,-1.59365,1.65444,0.78754,-0.720563,0.413775,-0.907297,0.40979,-0.414994,1.49469,0.0345551,-0.726028,0.427417,-0.956171,0.4117,-0.443036,1.57272,0.0395574,-9.234,-9.32834,-13.5211,21.7414,-2.30772,-0.798131,0.0194189,-1.82186,-0.580788,-1.75158,2.98612,-1.06485,0.0523664,-0.067106
2264757,1,-1.60985,-0.500679,-0.0434359,-2.07562,-1.59105,1.65193,0.78739,-1.61361,-0.500073,-0.0481035,-2.07211,-1.59409,1.65603,0.787579,-0.71498,0.419724,-0.910135,0.409587,-0.418593,1.50406,0.0407817,-0.728447,0.429963,-0.965033,0.414462,-0.446384,1.58302,0.039908,-9.38475,-9.63382,-13.648,21.8167,-2.33061,-0.785314,-0.0382593,-1.75211,-0.511762,-1.66279,2.94037,-1.07327,0.0672071,-0.0660093
2264758,1,-1.61058,-0.500237,-0.0443545,-2.07522,-1.59151,1.65354,0.787428,-1.61434,-0.49964,-0.0490773,-2.07169,-1.59454,1.65762,0.78762,-0.70945,0.424826,-0.906027,0.409229,-0.429968,1.53787,0.0385075,-0.730866,0.43251,-0.973895,0.417225,-0.449733,1.59332,0.0402585,-9.63866,-9.83615,-14.0289,21.9159,-2.27385,-1.24857,-0.0254419,-1.70967,-0.464305,-1.61305,2.90613,-1.08275,0.0774101,-0.0649334
2264759,1,-1.6113,-0.499801,-0.0453189,-2.0748,-1.59196,1.65516,0.78748,-1.61507,-0.499205,-0.0500601,-2.07127,-1.595,1.65922,0.78766,-0.706551,0.427713,-0.919764,0.40886,-0.436708,1.55651,0.0407315,-0.733284,0.435057,-0.982756,0.419988,-0.453082,1.60362,0.0406091,-10.0671,-10.0107,-14.128,22.0151,-2.24547,-1.45456,-0.116079,-1.70345,-0.443971,-1.6146,2.88805,-1.09357,0.0812828,-0.06393
2264760,1,-1.61202,-0.499364,-0.0462869,-2.0744,-1.5924,1.65671,0.787523,-1.61581,-0.498768,-0.0510517,-2.07085,-1.59545,1.66084,0.787701,-0.712515,0.426621,-0.933395,0.408113,-0.441476,1.55601,0.038718,-0.735703,0.437604,-0.991618,0.422751,-0.456431,1.61392,0.0409596,-10.2695,-10.1654,-14.2074,22.1381,-2.2061,-1.2678,-0.116079,-1.72347,-0.444517,-1.65251,2.88484,-1.1053,0.0799905,-0.0630839
2264761,1,-1.61274,-0.498921,-0.0472415,-2.07398,-1.59286,1.65833,0.787572,-1.61654,-0.498328,-0.0520522,-2.07042,-1.59591,1.66246,0.787743,-0.714606,0.429422,-0.937371,0.409682,-0.446121,1.57255,0.0395309,-0.738121,0.440151,-1.00048,0.425513,-0.459779,1.62422,0.0413102,-10.4678,-10.3162,-14.3066,22.1897,-2.16032,-1.30716,-0.174673,-1.75527,-0.455153,-1.70617,2.89221,-1.11739,0.0756479,-0.0625079
2264762,1,-1.61344,-0.498482,-0.0482155,-2.07356,-1.59333,1.65995,0.787616,-1.61728,-0.497885,-0.0530615,-2.06999,-1.59638,1.6641,0.787784,-0.707981,0.432297,-0.944539,0.410973,-0.450127,1.61887,0.0420466,-0.74054,0.442698,-1.00934,0.428276,-0.463128,1.63451,0.0416607,-10.8487,-10.3916,-14.255,22.2135,-2.09257,-1.44175,-0.174673,-1.79857,-0.471898,-1.77491,2.90729,-1.12959,0.0681992,-0.0623273
2264763,1,-1.61415,-0.49804,-0.0491806,-2.07314,-1.59379,1.66162,0.787655,-1.61803,-0.49744,-0.0540797,-2.06956,-1.59684,1.66574,0.787826,-0.713698,0.434473,-0.966236,0.412659,-0.452591,1.63159,0.0418662,-0.742959,0.445244,-1.0182,0.431039,-0.466477,1.64481,0.0420113,-11.0986,-10.4669,-14.128,22.2373,-2.17772,-1.76401,-0.10967,-1.85312,-0.494719,-1.85666,2.92867,-1.14161,0.057528,-0.0626525
2264764,1,-1.61489,-0.4976,-0.0501636,-2.07271,-1.59424,1.66326,0.787713,-1.61877,-0.496992,-0.0551068,-2.06913,-1.59731,1.6674,0.787869,-0.720604,0.443267,-0.966943,0.417213,-0.449123,1.63079,0.0436398,-0.745377,0.447791,-1.02706,0.433802,-0.469826,1.65511,0.0423619,-10.8725,-10.5423,-14.1042,22.3365,-2.27934,-1.57724,-0.206716,-1.9095,-0.525108,-1.93687,2.9556,-1.15313,0.0451693,-0.063484
2264765,1,-1.61563,-0.497142,-0.0511592,-2.07229,-1.59469,1.66487,0.787768,-1.61952,-0.496541,-0.0561427,-2.06869,-1.59779,1.66906,0.787911,-0.727097,0.448677,-0.976397,0.420553,-0.447815,1.63423,0.0477937,-0.747796,0.450338,-1.03593,0.436565,-0.473174,1.66541,0.0427124,-10.5948,-10.7209,-14.0804,22.3365,-2.33061,-1.30076,-0.271719,-1.96299,-0.567918,-2.00954,2.98838,-1.16427,0.0320731,-0.0647447
2264766,1,-1.61635,-0.496678,-0.0521631,-2.07186,-1.59515,1.66651,0.787821,-1.62027,-0.496089,-0.0571861,-2.06825,-1.59826,1.67073,0.787954,-0.718183,0.452557,-0.985008,0.422939,-0.449037,1.62393,0.0478379,-0.749335,0.452302,-1.04338,0.438812,-0.475892,1.67387,0.0430711,-10.6702,-10.8716,-13.8781,22.3127,-2.34709,-1.02976,-0.258901,-2.015,-0.624112,-2.07718,3.02648,-1.17537,0.0184952,-0.066442
2264767,1,-1.61708,-0.496219,-0.0531845,-2.07143,-1.59562,1.66821,0.787863,-1.62102,-0.495635,-0.0582369,-2.06781,-1.59874,1.67242,0.787998,-0.714324,0.455553,-0.993335,0.417633,-0.456478,1.64116,0.0449193,-0.750874,0.454266,-1.05083,0.441059,-0.47861,1.68233,0.0434299,-10.8725,-11.0739,-13.648,22.4872,-2.31322,-1.09385,-0.161856,-2.07022,-0.692016,-2.14578,3.07062,-1.18679,0.00446555,-0.0686293
2264768,1,-1.61779,-0.495763,-0.054202,-2.071,-1.59608,1.66987,0.787907,-1.62177,-0.495179,-0.0592952,-2.06737,-1.59922,1.67411,0.788042,-0.720531,0.451775,-0.991034,0.424522,-0.459261,1.65128,0.043842,-0.752414,0.45623,-1.05829,0.443306,-0.481329,1.69079,0.0437886,-10.9756,-11.1493,-13.6996,22.4634,-2.35258,-1.05539,-0.0840357,-2.13413,-0.763878,-2.22365,3.11872,-1.19866,-0.0102857,-0.0712828
2264769,1,-1.61854,-0.495305,-0.0552288,-2.07056,-1.59654,1.67156,0.787959,-1.62253,-0.49472,-0.060361,-2.06692,-1.59971,1.67581,0.788086,-0.727635,0.456985,-0.999817,0.422764,-0.458346,1.65461,0.0458386,-0.753953,0.458193,-1.06574,0.445553,-0.484047,1.69925,0.0441473,-10.7455,-11.1255,-13.5726,22.4634,-2.35258,-1.00412,-0.077627,-2.20611,-0.827833,-2.31184,3.16466,-1.21084,-0.0253165,-0.0742551
2264770,1,-1.6193,-0.494852,-0.0562547,-2.07013,-1.597,1.67325,0.787997,-1.62328,-0.49426,-0.0614342,-2.06648,-1.60019,1.67751,0.78813,-0.737661,0.457987,-1.00094,0.425182,-0.46152,1.66169,0.0435776,-0.755492,0.460157,-1.0732,0.4478,-0.486765,1.70771,0.044506,-10.3448,-11.1255,-13.4734,22.4356,-2.34709,-0.984899,0.0258276,-2.28021,-0.882936,-2.40318,3.20773,-1.22324,-0.0395093,-0.0773101
2264771,1,-1.62004,-0.494387,-0.0572905,-2.06969,-1.59747,1.67497,0.788037,-1.62404,-0.493798,-0.0625148,-2.06603,-1.60068,1.67923,0.788175,-0.747814,0.458757,-1.00946,0.428318,-0.468439,1.67907,0.0431496,-0.757031,0.462121,-1.08065,0.450047,-0.489483,1.71617,0.0448648,-9.91637,-11.2525,-13.1164,22.388,-2.25645,-1.06821,0.103647,-2.3503,-0.929033,-2.49021,3.24749,-1.23567,-0.0519656,-0.0802187
2264772,1,-1.62077,-0.493933,-0.0583561,-2.06923,-1.59795,1.67669,0.788076,-1.6248,-0.493334,-0.0636029,-2.06557,-1.60117,1.68096,0.78822,-0.745125,0.459882,-1.02434,0.431839,-0.467596,1.68907,0.0436142,-0.758571,0.464085,-1.08811,0.452294,-0.492201,1.72463,0.0452235,-9.78942,-11.2763,-12.6602,22.2373,-2.16673,-0.959264,0.162241,-2.41129,-0.961584,-2.56599,3.28054,-1.24778,-0.0621536,-0.0827623
2264773,1,-1.62149,-0.493473,-0.0594453,-2.0688,-1.59842,1.6784,0.78811,-1.62556,-0.492868,-0.0646985,-2.06512,-1.60167,1.68269,0.788266,-0.731297,0.459717,-1.0429,0.434224,-0.465396,1.69548,0.0396769,-0.76011,0.466049,-1.09556,0.454541,-0.494919,1.73309,0.0455822,-9.66246,-11.2525,-12.1285,22.3603,-2.22258,-0.798131,0.219919,-2.46189,-0.979321,-2.62642,3.30553,-1.25931,-0.0700416,-0.0847293
2264774,1,-1.62224,-0.493012,-0.0605104,-2.06835,-1.59888,1.68012,0.788151,-1.62632,-0.4924,-0.0658015,-2.06466,-1.60217,1.68443,0.788312,-0.734646,0.460362,-1.04648,0.438117,-0.469154,1.69454,0.0407772,-0.761649,0.468013,-1.10302,0.456788,-0.497637,1.74155,0.045941,-9.38475,-11.2247,-11.8746,22.3365,-2.29674,-0.546361,0.16865,-2.50558,-0.982083,-2.67437,3.32198,-1.27019,-0.0760514,-0.0859358
2264775,1,-1.62301,-0.492558,-0.0615938,-2.0679,-1.59934,1.68183,0.788184,-1.62708,-0.49193,-0.066912,-2.0642,-1.60267,1.68618,0.788358,-0.74168,0.455706,-1.04924,0.449863,-0.46412,1.69524,0.0387617,-0.763189,0.469976,-1.11047,0.459035,-0.500355,1.75001,0.0462997,-8.85314,-11.1493,-11.6723,22.2889,-2.44871,-0.373326,0.187876,-2.54501,-0.962942,-2.71532,3.32488,-1.2804,-0.0802667,-0.0862903
2264776,1,-1.62378,-0.492088,-0.0627046,-2.06744,-1.59981,1.68359,0.788224,-1.62785,-0.491459,-0.0680283,-2.06374,-1.60317,1.68794,0.788405,-0.750642,0.458887,-1.06923,0.453716,-0.465302,1.70998,0.0400631,-0.764032,0.471357,-1.11629,0.460706,-0.502219,1.75651,0.0466605,-8.42467,-11.2009,-11.0931,22.1619,-2.49449,-0.431005,0.129282,-2.57505,-0.914173,-2.74463,3.30842,-1.28986,-0.0816188,-0.0858341
2264777,1,-1.62456,-0.491619,-0.0638366,-2.06699,-1.6003,1.68537,0.788263,-1.62861,-0.490986,-0.0691504,-2.06328,-1.60367,1.6897,0.788452,-0.757443,0.465496,-1.08179,0.455358,-0.470164,1.71922,0.0459009,-0.764875,0.472738,-1.12211,0.462377,-0.504082,1.76301,0.0470213,-7.9486,-11.3001,-10.4583,22.0627,-2.43223,-0.57932,0.0523779,-2.58513,-0.847145,-2.7475,3.27875,-1.29868,-0.0785741,-0.0846455
2264778,1,-1.62535,-0.491143,-0.0649728,-2.06653,-1.60079,1.68712,0.788303,-1.62938,-0.490512,-0.0702783,-2.06282,-1.60418,1.69147,0.788499,-0.770728,0.46544,-1.09826,0.456939,-0.473311,1.73559,0.0453626,-0.765718,0.474119,-1.12793,0.464048,-0.505946,1.76951,0.0473821,-7.49236,-11.4548,-10.0298,21.9635,-2.33061,-0.759679,-0.0190333,-2.56792,-0.779435,-2.71313,3.24675,-1.30712,-0.0704601,-0.0828584
2264779,1,-1.62614,-0.490668,-0.066118,-2.06608,-1.60129,1.6889,0.788364,-1.63014,-0.490036,-0.0714121,-2.06235,-1.60469,1.69325,0.788547,-0.773658,0.467767,-1.11623,0.456696,-0.483183,1.74521,0.0546267,-0.766562,0.4755,-1.13375,0.465719,-0.507809,1.77601,0.0477429,-7.16307,-11.5778,-9.49823,22.0151,-2.18321,-0.836583,-0.23876,-2.51973,-0.716413,-2.63627,3.21732,-1.31518,-0.0573741,-0.0807184
2264780,1,-1.62692,-0.49019,-0.0672777,-2.06562,-1.60178,1.69065,0.788398,-1.63091,-0.489559,-0.0725516,-2.06188,-1.6052,1.69503,0.788595,-0.784055,0.471608,-1.1199,0.454219,-0.481879,1.78062,0.0471233,-0.767405,0.476882,-1.13957,0.46739,-0.509673,1.78251,0.0481037,-6.78618,-11.8079,-9.01422,21.9397,-2.13286,-0.855809,-0.200308,-2.4446,-0.663057,-2.52259,3.19487,-1.32286,-0.0407848,-0.0785732
2264781,1,-1.62772,-0.489705,-0.0684053,-2.06516,-1.60228,1.69246,0.788445,-1.63168,-0.489081,-0.073697,-2.06141,-1.60571,1.69682,0.788644,-0.800485,0.47423,-1.14784,0.449684,-0.490315,1.79015,0.0487848,-0.768248,0.478263,-1.14539,0.469061,-0.511536,1.78901,0.0484645,-6.35772,-12.0578,-8.88727,21.9635,-2.07609,-1.15244,-0.225942,-2.34537,-0.627493,-2.37627,3.18555,-1.33005,-0.0219471,-0.0767981
2264782,1,-1.62851,-0.489235,-0.0695622,-2.06468,-1.60277,1.69428,0.788502,-1.63245,-0.488602,-0.0748482,-2.06094,-1.60622,1.69861,0.788692,-0.799529,0.481798,-1.15008,0.454727,-0.49104,1.79278,0.0523649,-0.769092,0.479644,-1.15121,0.470732,-0.5134,1.79551,0.0488254,-6.17919,-12.2602,-8.73651,21.8882,-2.05321,-1.37125,-0.31658,-2.22078,-0.614674,-2.19552,3.19188,-1.33656,-0.00112107,-0.0756349
2264783,1,-1.62927,-0.488755,-0.0707171,-2.06422,-1.60327,1.69601,0.788548,-1.63322,-0.488121,-0.0760053,-2.06047,-1.60674,1.70041,0.788742,-0.780019,0.482211,-1.1437,0.458492,-0.487507,1.78006,0.0499497,-0.769935,0.481025,-1.15703,0.472403,-0.515264,1.80202,0.0491862,-6.33391,-12.4149,-8.68493,21.8405,-2.10448,-0.913488,-0.271719,-2.09151,-0.623655,-2.00994,3.20961,-1.34273,0.0184257,-0.0752396
2264784,1,-1.63003,-0.488265,-0.0718667,-2.06374,-1.60378,1.69779,0.788609,-1.63399,-0.487638,-0.0771681,-2.06,-1.60725,1.70222,0.788791,-0.76805,0.485196,-1.15059,0.460485,-0.504033,1.76231,0.053226,-0.770778,0.482406,-1.16285,0.474074,-0.517127,1.80852,0.049547,-6.65923,-12.641,-8.60956,21.789,-2.11546,-0.63059,-0.355947,-1.98744,-0.647442,-1.86177,3.23178,-1.34919,0.032438,-0.0757217
2264785,1,-1.6308,-0.487787,-0.0730264,-2.06326,-1.60429,1.69961,0.788662,-1.63476,-0.487154,-0.0783368,-2.05952,-1.60777,1.70404,0.788841,-0.771156,0.481336,-1.14856,0.4626,-0.505694,1.7746,0.0545865,-0.771622,0.483787,-1.16867,0.475745,-0.518991,1.81502,0.0499078,-6.93694,-12.768,-8.66113,21.7414,-2.12095,-0.624181,-0.303762,-1.91778,-0.675514,-1.76394,3.25246,-1.35604,0.0401876,-0.0771088
2264786,1,-1.63156,-0.487291,-0.0742114,-2.06278,-1.6048,1.70144,0.788697,-1.63553,-0.48667,-0.0795095,-2.05904,-1.60829,1.70586,0.788891,-0.770333,0.487133,-1.15289,0.467884,-0.510213,1.79627,0.0460178,-0.771958,0.484594,-1.17269,0.476802,-0.519969,1.81944,0.0502548,-7.21465,-12.9941,-8.53418,21.666,-2.14934,-1.04258,-0.0968531,-1.87925,-0.699729,-1.71218,3.26723,-1.36308,0.0427114,-0.0793995
2264787,1,-1.63236,-0.486795,-0.0753961,-2.0623,-1.6053,1.70326,0.788764,-1.63631,-0.486184,-0.0806862,-2.05857,-1.60881,1.70768,0.788942,-0.773934,0.488753,-1.16652,0.467319,-0.507969,1.80063,0.0508584,-0.772295,0.485402,-1.1767,0.477859,-0.520948,1.82386,0.0506017,-7.13927,-13.0973,-8.2287,21.6144,-2.21159,-1.14603,-0.174673,-1.86316,-0.722085,-1.69309,3.27664,-1.37012,0.0414721,-0.0824296
2264788,1,-1.63316,-0.486302,-0.076565,-2.06182,-1.60582,1.70505,0.788821,-1.63708,-0.485698,-0.0818669,-2.05809,-1.60934,1.70951,0.788993,-0.784828,0.490835,-1.15859,0.473189,-0.50688,1.80067,0.0498141,-0.772632,0.486209,-1.18072,0.478916,-0.521926,1.82828,0.0509487,-6.63543,-13.2242,-8.33185,21.6144,-2.23448,-1.06821,-0.141714,-1.85863,-0.745314,-1.69035,3.28241,-1.37709,0.0380326,-0.0858792
2264789,1,-1.63394,-0.485806,-0.0777498,-2.06135,-1.60635,1.70686,0.788884,-1.63785,-0.485211,-0.0830516,-2.05761,-1.60986,1.71134,0.789044,-0.774337,0.48964,-1.17088,0.467919,-0.508949,1.80034,0.0518719,-0.772969,0.487017,-1.18473,0.479974,-0.522904,1.83271,0.0512956,-6.73461,-13.375,-8.05414,21.7414,-2.2061,-0.849401,-0.181082,-1.86219,-0.767387,-1.69931,3.28478,-1.38418,0.0328327,-0.0895008
