shamilmamedov/beam_handling/log/param_estimation_ICRA/ocp_rotY_30deg_0.40s_1.csv
duration, success rate, q[0], q[1], q[2], q[3], q[4], q[5], q[6],q_d[0], q_d[1], q_d[2], q_d[3], q_d[4], q_d[5], q_d[6],dq[0], dq[1], dq[2], dq[3], dq[4], dq[5], dq[6],dq_d[0], dq_d[1], dq_d[2], dq_d[3], dq_d[4], dq_d[5], dq_d[6],tau_J[0], tau_J[1], tau_J[2], tau_J[3], tau_J[4], tau_J[5], tau_J[6],tau_ext_hat_filtered[0], tau_ext_hat_filtered[1], tau_ext_hat_filtered[2], tau_ext_hat_filtered[3], tau_ext_hat_filtered[4], tau_ext_hat_filtered[5], tau_ext_hat_filtered[6]
1278327,0,-1.5702,-0.523428,-0.000141373,-2.09683,-0.000492492,1.57096,0.785707,-1.5708,-0.523599,-3.14038e-08,-2.0944,2.32165e-08,1.5708,0.785399,-7.257e-05,-0.000162998,0.00021528,0.00119966,-5.14558e-05,0.000328128,-0.000229376,0,0,0,0,0,0,0,-0.78368,-9.45529,-0.409177,21.8644,1.28298,1.60421,-0.149038,-0.785412,-0.344761,0.0648422,3.38097,0.566917,-0.0567645,-0.157662
1278328,1,-1.5702,-0.523426,-0.000137559,-2.09684,-0.000491882,1.57096,0.785706,-1.5708,-0.523599,-3.14038e-08,-2.0944,2.32165e-08,1.5708,0.785399,0.000508432,0.000540949,0.00125714,-0.000406654,0.000169147,-1.86069e-05,-0.000424185,0,0,0,0,0,0,0,-0.807484,-9.48306,-0.456784,21.9159,1.27748,1.61062,-0.141714,-0.785621,-0.344146,0.0645027,3.38024,0.566869,-0.0568799,-0.157678
1278329,1,-1.5702,-0.523426,-0.000144361,-2.09684,-0.000493103,1.57096,0.785706,-1.5708,-0.523599,-3.14038e-08,-2.0944,2.32165e-08,1.5708,0.785399,-0.000217857,0.000360632,-0.00148195,0.000378511,-0.000294137,0.000224954,-0.00028279,0,0,0,0,0,0,0,-0.78368,-9.48306,-0.357602,21.8882,1.28847,1.60421,-0.141714,-0.786274,-0.344632,0.063561,3.38003,0.566813,-0.0569582,-0.15766
1278330,1,-1.57019,-0.523429,-0.000140689,-2.09684,-0.000492492,1.57096,0.785708,-1.5708,-0.523599,-3.14038e-08,-2.0944,2.32165e-08,1.5708,0.785399,0.000968386,-0.000966004,0.000218457,-0.000397273,7.35944e-06,-0.000324748,0.0003201,0,0,0,0,0,0,0,-0.831288,-9.43149,-0.409177,21.9159,1.28298,1.61703,-0.155447,-0.786451,-0.345274,0.0634743,3.38004,0.566788,-0.0570063,-0.157606
1278331,1,-1.5702,-0.523427,-0.000140672,-2.09684,-0.000491882,1.57096,0.785709,-1.5708,-0.523599,-3.14038e-08,-2.0944,2.32165e-08,1.5708,0.785399,8.87785e-05,-8.71909e-05,0.000145638,0.000384765,0.000208357,-0.000216499,0.000688118,0,0,0,0,0,0,0,-0.807484,-9.45529,-0.409177,21.8882,1.27748,1.61703,-0.168264,-0.786736,-0.344501,0.0633863,3.37955,0.566756,-0.0570752,-0.157517
1278332,1,-1.57019,-0.523422,-0.000138995,-2.09683,-0.000493103,1.57096,0.785706,-1.5708,-0.523599,-3.14038e-08,-2.0944,2.32165e-08,1.5708,0.785399,0.00126561,0.00170511,0.000653904,0.000813322,-0.000267997,-0.000144333,-0.000761958,0,0,0,0,0,0,0,-0.859058,-9.53067,-0.432981,21.8644,1.28847,1.61703,-0.135305,-0.787804,-0.344252,0.0622544,3.37913,0.566692,-0.0571437,-0.157404
1278333,1,-1.5702,-0.523431,-0.000144283,-2.09684,-0.000493103,1.57096,0.785706,-1.5708,-0.523599,-3.14038e-08,-2.0944,2.32165e-08,1.5708,0.785399,-0.000919497,-0.00118331,-0.0013273,-0.00177784,-0.000178664,-9.62217e-05,-0.000270613,0,0,0,0,0,0,0,-0.78368,-9.43149,-0.357602,21.9635,1.28847,1.61703,-0.141714,-0.788826,-0.345832,0.0613043,3.37955,0.566656,-0.0571342,-0.157285
1278334,1,-1.5702,-0.523432,-0.000144743,-2.09684,-0.000491882,1.57096,0.785709,-1.5708,-0.523599,-3.14038e-08,-2.0944,2.32165e-08,1.5708,0.785399,-0.00126261,-0.00134568,-0.000328056,-0.00118522,0.000287791,0.00041057,0.000565577,0,0,0,0,0,0,0,-0.755909,-9.40768,-0.381406,21.9635,1.27748,1.60421,-0.161856,-0.788345,-0.346594,0.0625512,3.38038,0.566727,-0.0570177,-0.157163
1278335,1,-1.5702,-0.523431,-0.000141373,-2.09683,-0.000493713,1.57096,0.785706,-1.5708,-0.523599,-3.14038e-08,-2.0944,2.32165e-08,1.5708,0.785399,0.000364685,-0.000340311,0.00043091,0.0015299,-0.000418491,-0.000201005,-0.000368934,0,0,0,0,0,0,0,-0.807484,-9.43149,-0.409177,21.8644,1.29396,1.61703,-0.141714,-0.787028,-0.344741,0.064937,3.38026,0.566837,-0.0569495,-0.157032
1278336,1,-1.5702,-0.523428,-0.000144519,-2.09684,-0.000493713,1.57096,0.785706,-1.5708,-0.523599,-3.14038e-08,-2.0944,2.32165e-08,1.5708,0.785399,-0.000313689,0.000329938,-0.000919153,-0.000186492,-0.000278994,0.000340715,-0.000245956,0,0,0,0,0,0,0,-0.78368,-9.45529,-0.357602,21.9159,1.29396,1.60421,-0.141714,-0.786141,-0.342013,0.0667264,3.37906,0.566907,-0.0570193,-0.15689
1278337,1,-1.5702,-0.523424,-0.000140742,-2.09684,-0.000491882,1.57096,0.785709,-1.5708,-0.523599,-3.14038e-08,-2.0944,2.32165e-08,1.5708,0.785399,0.000347686,0.00142638,0.000593657,-0.000124328,0.000424356,-0.000247575,0.000819373,0,0,0,0,0,0,0,-0.807484,-9.50687,-0.409177,21.9159,1.27748,1.61703,-0.168264,-0.785637,-0.341762,0.068052,3.37866,0.56698,-0.0570653,-0.156731
1278338,1,-1.5702,-0.523429,-0.000140689,-2.09683,-0.000492492,1.57096,0.785709,-1.5708,-0.523599,-3.14038e-08,-2.0944,2.32165e-08,1.5708,0.785399,-0.000974635,-0.000812315,0.000395772,0.00168035,7.94533e-05,-0.00016505,0.000546249,0,0,0,0,0,0,0,-0.755909,-9.43149,-0.409177,21.8405,1.28298,1.61703,-0.168264,-0.785658,-0.34329,0.0685821,3.37886,0.567046,-0.0570874,-0.15656
1278339,1,-1.5702,-0.523429,-0.00014262,-2.09684,-0.000492492,1.57096,0.785709,-1.5708,-0.523599,-3.14038e-08,-2.0944,2.32165e-08,1.5708,0.785399,0.000556669,-0.000541543,-0.000385766,6.61111e-06,5.29689e-05,-0.000110033,0.000364166,0,0,0,0,0,0,0,-0.807484,-9.43149,-0.381406,21.8882,1.28298,1.61703,-0.168264,-0.785975,-0.34274,0.0686013,3.37769,0.567072,-0.0572283,-0.156407
1278340,1,-1.5702,-0.523427,-0.000138995,-2.09684,-0.000493713,1.57096,0.785706,-1.5708,-0.523599,-3.14038e-08,-2.0944,2.32165e-08,1.5708,0.785399,-0.000185699,0.000195783,0.000949248,-0.00120202,-0.000371588,-7.33554e-05,-0.000740567,0,0,0,0,0,0,0,-0.78368,-9.45529,-0.432981,21.9397,1.29396,1.61703,-0.141714,-0.786538,-0.341239,0.0682405,3.37639,0.567088,-0.0573387,-0.156293
1278341,1,-1.5702,-0.523426,-0.000137323,-2.09684,-0.000493713,1.57096,0.785709,-1.5708,-0.523599,-3.14038e-08,-2.0944,2.32165e-08,1.5708,0.785399,-0.000123799,0.000780136,0.00118964,-0.000801346,-0.000247726,-0.000286263,0.000252274,0,0,0,0,0,0,0,-0.78368,-9.48306,-0.456784,21.9397,1.29396,1.62344,-0.161856,-0.787799,-0.342217,0.0667287,3.37709,0.567121,-0.0572319,-0.156209
1278342,1,-1.5702,-0.523426,-0.000138993,-2.09684,-0.000493103,1.57096,0.785708,-1.5708,-0.523599,-3.14038e-08,-2.0944,2.32165e-08,1.5708,0.785399,-0.000732147,0.000520091,0.000236284,0.000672195,3.83001e-05,-0.000428201,-6.91763e-05,0,0,0,0,0,0,0,-0.755909,-9.48306,-0.432981,21.8882,1.28847,1.62985,-0.155447,-0.789301,-0.345389,0.0646338,3.37904,0.567179,-0.057002,-0.156141
1278343,1,-1.5702,-0.523426,-0.000140663,-2.09684,-0.000492492,1.57096,0.78571,-1.5708,-0.523599,-3.14038e-08,-2.0944,2.32165e-08,1.5708,0.785399,0.000718328,0.000346727,-0.000399289,-0.000758296,0.000228984,0.00042661,0.000665959,0,0,0,0,0,0,0,-0.807484,-9.48306,-0.409177,21.9397,1.28298,1.61062,-0.174673,-0.790242,-0.348875,0.0632587,3.38086,0.567268,-0.0567788,-0.156092
1278344,1,-1.5702,-0.523426,-0.000140663,-2.09684,-0.000492492,1.57096,0.785709,-1.5708,-0.523599,-3.14038e-08,-2.0944,2.32165e-08,1.5708,0.785399,-7.79267e-05,0.000231151,-0.000266193,-0.00050553,0.000152656,0.000521765,-3.0745e-05,0,0,0,0,0,0,0,-0.78368,-9.48306,-0.409177,21.9397,1.28298,1.60421,-0.161856,-0.790559,-0.352112,0.062843,3.38256,0.567391,-0.0565494,-0.15607
1278345,1,-1.5702,-0.523429,-0.000146231,-2.09684,-0.000493103,1.57096,0.785709,-1.5708,-0.523599,-3.14038e-08,-2.0944,2.32165e-08,1.5708,0.785399,-5.19511e-05,-0.00105232,-0.0020335,0.000219792,-0.00010168,-0.000126874,0.000216862,0,0,0,0,0,0,0,-0.78368,-9.43149,-0.329831,21.9159,1.28847,1.61703,-0.168264,-0.789895,-0.353818,0.0639514,3.38357,0.56755,-0.0563645,-0.156089
1278346,1,-1.5702,-0.523427,-0.000142612,-2.09684,-0.000491882,1.57096,0.785708,-1.5708,-0.523599,-3.14038e-08,-2.0944,2.32165e-08,1.5708,0.785399,-0.000684248,-0.000144738,-0.000149242,-0.000410284,0.000339114,-0.000559301,-0.000330143,0,0,0,0,0,0,0,-0.755909,-9.45529,-0.381406,21.9397,1.27748,1.62985,-0.155447,-0.788009,-0.352945,0.0669009,3.3833,0.567736,-0.0562831,-0.156153
1278347,1,-1.5702,-0.523428,-0.000142612,-2.09684,-0.000492492,1.57096,0.785709,-1.5708,-0.523599,-3.14038e-08,-2.0944,2.32165e-08,1.5708,0.785399,0.000193449,0.000553122,-9.94946e-05,-0.000830335,2.26258e-05,0.00033921,1.72636e-05,0,0,0,0,0,0,0,-0.78368,-9.48306,-0.381406,21.9635,1.28298,1.61062,-0.161856,-0.786054,-0.351915,0.069902,3.3831,0.567916,-0.0561908,-0.156244
1278348,1,-1.5702,-0.52343,-0.000140663,-2.09684,-0.000491882,1.57096,0.785707,-1.5708,-0.523599,-3.14038e-08,-2.0944,2.32165e-08,1.5708,0.785399,-0.00107746,-0.000837678,0.000583284,0.000560067,0.000218534,-0.000248578,-0.000463209,0,0,0,0,0,0,0,-0.732105,-9.43149,-0.409177,21.9159,1.27748,1.62344,-0.149038,-0.784875,-0.351525,0.0716215,3.3833,0.568052,-0.0560724,-0.156345
1278349,1,-1.5702,-0.523426,-0.000140663,-2.09684,-0.000493713,1.57096,0.78571,-1.5708,-0.523599,-3.14038e-08,-2.0944,2.32165e-08,1.5708,0.785399,0.00104493,0.000647974,0.000388856,-0.000183434,-0.000464662,7.16402e-05,0.00064063,0,0,0,0,0,0,0,-0.807484,-9.48306,-0.409177,21.9397,1.29396,1.61703,-0.174673,-0.784612,-0.350527,0.0718672,3.38302,0.568113,-0.0560131,-0.156443
1278350,1,-1.5702,-0.523428,-0.000140663,-2.09684,-0.000491882,1.57096,0.78571,-1.5708,-0.523599,-3.14038e-08,-2.0944,2.32165e-08,1.5708,0.785399,0.000139809,-0.000217631,0.000259237,0.000434523,0.000300577,4.77601e-05,0.000427087,0,0,0,0,0,0,0,-0.78368,-9.45529,-0.409177,21.9159,1.27748,1.61703,-0.174673,-0.785347,-0.34961,0.0706525,3.38259,0.568101,-0.0559876,-0.156534
1278351,1,-1.5702,-0.523426,-0.000142612,-2.09684,-0.000493103,1.57096,0.785709,-1.5708,-0.523599,-3.14038e-08,-2.0944,2.32165e-08,1.5708,0.785399,9.32058e-05,0.000504526,-0.000476789,0.000939296,-0.000206516,3.18401e-05,-0.000189993,0,0,0,0,0,0,0,-0.78368,-9.48306,-0.381406,21.8882,1.28847,1.61703,-0.161856,-0.786302,-0.348846,0.069178,3.38194,0.568061,-0.056003,-0.156638
1278352,1,-1.5702,-0.523426,-0.000142612,-2.09684,-0.000493103,1.57096,0.785709,-1.5708,-0.523599,-3.14038e-08,-2.0944,2.32165e-08,1.5708,0.785399,6.21372e-05,0.000336351,-0.000317859,0.000626197,-0.000137678,2.12267e-05,-0.000126662,0,0,0,0,0,0,0,-0.78368,-9.48306,-0.381406,21.8882,1.28847,1.61703,-0.161856,-0.786673,-0.348142,0.0686141,3.38089,0.568032,-0.0560723,-0.156769
1278353,1,-1.5702,-0.523427,-0.000144742,-2.09684,-0.000491272,1.57096,0.785709,-1.5708,-0.523599,-3.14038e-08,-2.0944,2.32165e-08,1.5708,0.785399,-0.000608189,-0.00042538,-0.000211906,0.000417465,0.000518566,0.00025151,0.000152917,0,0,0,0,0,0,0,-0.755909,-9.45529,-0.381406,21.8882,1.27199,1.61062,-0.168264,-0.78643,-0.347372,0.0689639,3.37965,0.568028,-0.0561584,-0.156922
1278354,1,-1.5702,-0.523429,-0.000143322,-2.09684,-0.000492492,1.57096,0.78571,-1.5708,-0.523599,-3.14038e-08,-2.0944,2.32165e-08,1.5708,0.785399,0.000800966,-0.000840399,-0.000141271,0.00027831,-6.11901e-05,-0.000307044,0.000339304,0,0,0,0,0,0,0,-0.807484,-9.43149,-0.381406,21.8882,1.28298,1.62344,-0.174673,-0.786005,-0.345331,0.0695832,3.37796,0.568026,-0.0562562,-0.157089
1278355,1,-1.5702,-0.523429,-0.000137559,-2.09683,-0.000493103,1.57096,0.785707,-1.5708,-0.523599,-3.14038e-08,-2.0944,2.32165e-08,1.5708,0.785399,-2.28343e-05,-0.000560266,0.00166906,0.000742352,-0.000244244,-0.000204696,-0.000723233,0,0,0,0,0,0,0,-0.78368,-9.43149,-0.456784,21.8644,1.28847,1.62344,-0.149038,-0.78637,-0.341747,0.0690415,3.37574,0.567971,-0.0563694,-0.157266
1278356,1,-1.5702,-0.523428,-0.000142691,-2.09684,-0.000492492,1.57096,0.785708,-1.5708,-0.523599,-3.14038e-08,-2.0944,2.32165e-08,1.5708,0.785399,0.000541589,0.000832915,-0.000650533,-0.00126834,4.06213e-05,0.000338254,-0.000244797,0,0,0,0,0,0,0,-0.807484,-9.48306,-0.381406,21.9397,1.28298,1.61062,-0.155447,-0.787591,-0.339076,0.0672152,3.37425,0.567889,-0.0563964,-0.157446
1278357,1,-1.5702,-0.523426,-0.000140689,-2.09684,-0.000493103,1.57096,0.78571,-1.5708,-0.523599,-3.14038e-08,-2.0944,2.32165e-08,1.5708,0.785399,0.000361059,0.000555277,0.000215925,0.000360868,-0.00017637,0.000462861,0.000548879,0,0,0,0,0,0,0,-0.807484,-9.48306,-0.409177,21.8882,1.28847,1.60421,-0.174673,-0.788676,-0.339794,0.0656605,3.37471,0.567856,-0.0562473,-0.157614
1278358,1,-1.5702,-0.523429,-0.000139001,-2.09683,-0.000493103,1.57096,0.785709,-1.5708,-0.523599,-3.14038e-08,-2.0944,2.32165e-08,1.5708,0.785399,-0.00096572,-0.000836241,0.000700762,0.000797391,-0.00011758,-0.000166144,-0.000108798,0,0,0,0,0,0,0,-0.755909,-9.43149,-0.432981,21.8644,1.28847,1.61703,-0.161856,-0.789341,-0.341391,0.0647291,3.37546,0.567854,-0.0560903,-0.15777
1278359,1,-1.5702,-0.523428,-0.000140666,-2.09684,-0.000493103,1.57096,0.785706,-1.5708,-0.523599,-3.14038e-08,-2.0944,2.32165e-08,1.5708,0.785399,5.80085e-06,-6.8223e-07,-8.96372e-05,-0.000674832,-7.83865e-05,-0.000110762,-0.000818518,0,0,0,0,0,0,0,-0.78368,-9.45529,-0.409177,21.9159,1.28847,1.61703,-0.141714,-0.78961,-0.341401,0.0642321,3.37528,0.567863,-0.0560212,-0.157924
1278360,1,-1.5702,-0.523428,-0.000142613,-2.09684,-0.000493103,1.57096,0.785706,-1.5708,-0.523599,-3.14038e-08,-2.0944,2.32165e-08,1.5708,0.785399,3.86724e-06,-4.5482e-07,-0.000709372,-0.000449888,-5.22577e-05,-7.38416e-05,-0.000783037,0,0,0,0,0,0,0,-0.78368,-9.45529,-0.381406,21.9159,1.28847,1.61703,-0.135305,-0.78929,-0.3415,0.0645759,3.37542,0.567923,-0.0559092,-0.158072
1278361,1,-1.5702,-0.523426,-0.000137322,-2.09684,-0.000493713,1.57096,0.78571,-1.5708,-0.523599,-3.14038e-08,-2.0944,2.32165e-08,1.5708,0.785399,2.57816e-06,0.000649311,0.00129032,-0.000299925,-0.000238289,-4.92277e-05,0.000936037,0,0,0,0,0,0,0,-0.78368,-9.48306,-0.456784,21.9159,1.29396,1.61703,-0.174673,-0.788851,-0.343018,0.0651157,3.37647,0.568019,-0.0557152,-0.158179
1278362,1,-1.5702,-0.523431,-0.000140663,-2.09684,-0.000491882,1.57096,0.785709,-1.5708,-0.523599,-3.14038e-08,-2.0944,2.32165e-08,1.5708,0.785399,1.71877e-06,-0.00133036,-0.000253408,0.000449664,0.000451492,0.00020454,0.000386666,0,0,0,0,0,0,0,-0.78368,-9.40768,-0.409177,21.8882,1.27748,1.61062,-0.168264,-0.788883,-0.344263,0.0648984,3.37731,0.568097,-0.0555516,-0.158238
1278363,1,-1.5702,-0.523427,-0.000140663,-2.09684,-0.000492492,1.57096,0.785706,-1.5708,-0.523599,-3.14038e-08,-2.0944,2.32165e-08,1.5708,0.785399,1.14585e-06,0.000226715,-0.000168939,-0.000349838,9.75443e-05,-0.000100999,-0.000962926,0,0,0,0,0,0,0,-0.78368,-9.45529,-0.409177,21.9159,1.28298,1.61703,-0.135305,-0.788903,-0.343676,0.0646752,3.3771,0.568163,-0.0554843,-0.158279
1278364,1,-1.5702,-0.523426,-0.000138992,-2.09684,-0.000492492,1.57096,0.785704,-1.5708,-0.523599,-3.14038e-08,-2.0944,2.32165e-08,1.5708,0.785399,7.63898e-07,0.000800757,0.000444186,-0.000790037,6.50295e-05,0.000170027,-0.00111667,0,0,0,0,0,0,0,-0.78368,-9.48306,-0.432981,21.9397,1.28298,1.61062,-0.122488,-0.788687,-0.343806,0.0647922,3.3773,0.568249,-0.05539,-0.158311
1278365,1,-1.57019,-0.523427,-0.000142612,-2.09684,-0.000493103,1.57096,0.785709,-1.5708,-0.523599,-3.14038e-08,-2.0944,2.32165e-08,1.5708,0.785399,0.00111413,-0.000115776,-0.000910302,-0.000526692,-0.000160097,0.000113351,0.000950975,0,0,0,0,0,0,0,-0.831288,-9.45529,-0.381406,21.9397,1.28847,1.61062,-0.168264,-0.788579,-0.346102,0.0648069,3.37876,0.568347,-0.0552014,-0.1583
1278366,1,-1.5702,-0.523427,-0.000138992,-2.09684,-0.000493103,1.57096,0.785709,-1.5708,-0.523599,-3.14038e-08,-2.0944,2.32165e-08,1.5708,0.785399,-0.000370868,-7.7184e-05,0.000599558,-0.000351128,-0.000106732,-0.000399151,0.000396625,0,0,0,0,0,0,0,-0.78368,-9.45529,-0.432981,21.9397,1.28847,1.62344,-0.161856,-0.788554,-0.348442,0.064811,3.38038,0.568435,-0.0550116,-0.158234
1278367,1,-1.5702,-0.523429,-0.000140663,-2.09684,-0.000492492,1.57096,0.785705,-1.5708,-0.523599,-3.14038e-08,-2.0944,2.32165e-08,1.5708,0.785399,-0.00089686,-0.000608268,-0.000157107,0.000322727,0.000132296,0.000208618,-0.000956287,0,0,0,0,0,0,0,-0.755909,-9.43149,-0.409177,21.9159,1.28298,1.61062,-0.128897,-0.78832,-0.349206,0.0650516,3.38115,0.568514,-0.0549077,-0.158141
1278368,1,-1.5702,-0.523427,-0.000138992,-2.09684,-0.000491882,1.57096,0.785702,-1.5708,-0.523599,-3.14038e-08,-2.0944,2.32165e-08,1.5708,0.785399,5.17076e-05,0.0001513,0.000452074,0.000215151,0.000291648,0.000139078,-0.00158696,0,0,0,0,0,0,0,-0.78368,-9.45529,-0.432981,21.9159,1.27748,1.61062,-0.103262,-0.787802,-0.348362,0.0655483,3.38086,0.568587,-0.0549176,-0.158035
1278369,1,-1.5702,-0.523427,-0.000138992,-2.09684,-0.000493103,1.57096,0.785707,-1.5708,-0.523599,-3.14038e-08,-2.0944,2.32165e-08,1.5708,0.785399,-0.000615142,0.000100867,0.000301383,-0.000413378,-0.000212469,0.000330078,0.000637448,0,0,0,0,0,0,0,-0.755909,-9.45529,-0.432981,21.9397,1.28847,1.60421,-0.149038,-0.787381,-0.347403,0.0657973,3.38035,0.568643,-0.0549724,-0.157882
1278370,1,-1.5702,-0.523427,-0.000138992,-2.09683,-0.000492492,1.57096,0.785709,-1.5708,-0.523599,-3.14038e-08,-2.0944,2.32165e-08,1.5708,0.785399,0.000239519,6.72444e-05,0.000200922,0.00148765,6.18045e-05,-1.7307e-05,0.00113704,0,0,0,0,0,0,0,-0.78368,-9.45529,-0.432981,21.8644,1.28298,1.61062,-0.168264,-0.787162,-0.346721,0.0656582,3.3798,0.568673,-0.0550658,-0.157651
1278371,1,-1.57019,-0.523426,-0.000142612,-2.09684,-0.000492492,1.57096,0.785706,-1.5708,-0.523599,-3.14038e-08,-2.0944,2.32165e-08,1.5708,0.785399,0.0012733,0.000694444,-0.00107248,-0.000214657,4.1203e-05,-0.000248897,-0.000225316,0,0,0,0,0,0,0,-0.831288,-9.48306,-0.381406,21.9159,1.28298,1.61703,-0.141714,-0.787063,-0.346161,0.0654413,3.37896,0.568672,-0.0552213,-0.15737
1278372,1,-1.5702,-0.523427,-0.000138992,-2.09684,-0.000492492,1.57096,0.785706,-1.5708,-0.523599,-3.14038e-08,-2.0944,2.32165e-08,1.5708,0.785399,-0.000264755,-0.000186652,0.000491441,-0.000699917,2.74686e-05,-0.000165931,-0.00038757,0,0,0,0,0,0,0,-0.78368,-9.45529,-0.432981,21.9397,1.28298,1.61703,-0.135305,-0.787063,-0.346625,0.0652657,3.37879,0.568671,-0.0553172,-0.157078
1278373,1,-1.5702,-0.52343,-0.000140663,-2.09684,-0.000492492,1.57096,0.785706,-1.5708,-0.523599,-3.14038e-08,-2.0944,2.32165e-08,1.5708,0.785399,0.000380309,-0.000124434,-0.000229185,0.000739815,1.83124e-05,-0.000110621,-0.00025838,0,0,0,0,0,0,0,-0.807484,-9.45529,-0.409177,21.8882,1.28298,1.61703,-0.135305,-0.787154,-0.34722,0.0649838,3.37906,0.568676,-0.0553493,-0.156784
1278374,1,-1.5702,-0.523426,-0.000140663,-2.09684,-0.000493103,1.57096,0.785708,-1.5708,-0.523599,-3.14038e-08,-2.0944,2.32165e-08,1.5708,0.785399,-0.000952887,0.000566658,-0.00015279,0.00049321,-0.000191242,-7.37473e-05,0.000573732,0,0,0,0,0,0,0,-0.755909,-9.48306,-0.409177,21.8882,1.28847,1.61703,-0.155447,-0.786997,-0.347107,0.0650155,3.37883,0.56868,-0.0554229,-0.156479
1278375,1,-1.5702,-0.523429,-0.000144742,-2.09684,-0.000493103,1.57096,0.785705,-1.5708,-0.523599,-3.14038e-08,-2.0944,2.32165e-08,1.5708,0.785399,0.000571168,-0.000828654,-0.000751474,-0.00143443,-0.000127495,-0.000523883,-0.000600856,0,0,0,0,0,0,0,-0.807484,-9.43149,-0.381406,21.9635,1.28847,1.62985,-0.128897,-0.786274,-0.346993,0.0658691,3.37866,0.568714,-0.0554691,-0.156165
1278376,1,-1.5702,-0.523431,-0.000141373,-2.09684,-0.000492492,1.57096,0.785703,-1.5708,-0.523599,-3.14038e-08,-2.0944,2.32165e-08,1.5708,0.785399,-0.000176033,-0.00110925,0.000148631,-0.000399476,0.000118454,0.000125463,-0.00111265,0,0,0,0,0,0,0,-0.78368,-9.40768,-0.409177,21.9397,1.28298,1.61703,-0.10967,-0.785469,-0.346086,0.0669052,3.37881,0.568771,-0.055422,-0.155847
1278377,1,-1.5702,-0.523426,-0.000142848,-2.09684,-0.000491882,1.57096,0.785706,-1.5708,-0.523599,-3.14038e-08,-2.0944,2.32165e-08,1.5708,0.785399,0.000439456,0.00102374,-0.000550526,-0.000823129,0.00028242,0.000321001,0.00044503,0,0,0,0,0,0,0,-0.807484,-9.48306,-0.381406,21.9635,1.27748,1.61062,-0.141714,-0.78498,-0.34496,0.0675683,3.37926,0.568829,-0.055309,-0.155506
1278378,1,-1.5702,-0.523427,-0.000140742,-2.09684,-0.000492492,1.57096,0.785706,-1.5708,-0.523599,-3.14038e-08,-2.0944,2.32165e-08,1.5708,0.785399,0.000292971,3.28788e-05,0.000282596,-0.000548753,-1.51706e-05,-2.33584e-05,0.000296686,0,0,0,0,0,0,0,-0.807484,-9.45529,-0.409177,21.9635,1.28298,1.61703,-0.141714,-0.78487,-0.345831,0.0677852,3.3807,0.568883,-0.055123,-0.155118
1278379,1,-1.5702,-0.523426,-0.00014282,-2.09684,-0.000492492,1.57096,0.785706,-1.5708,-0.523599,-3.14038e-08,-2.0944,2.32165e-08,1.5708,0.785399,-0.00156792,0.000671533,0.000188398,0.000190977,-1.01138e-05,-1.55723e-05,0.000197791,0,0,0,0,0,0,0,-0.732105,-9.48306,-0.409177,21.9397,1.28298,1.61703,-0.141714,-0.78488,-0.348058,0.0678115,3.38264,0.568928,-0.0549223,-0.154696
1278380,1,-1.5702,-0.523426,-0.000143512,-2.09684,-0.000492492,1.57096,0.785703,-1.5708,-0.523599,-3.14038e-08,-2.0944,2.32165e-08,1.5708,0.785399,0.000717955,0.000447689,0.000125598,0.000127318,-6.7425e-06,0.000226977,-0.00105493,0,0,0,0,0,0,0,-0.807484,-9.48306,-0.409177,21.9397,1.28298,1.61062,-0.10967,-0.784753,-0.350393,0.0679215,3.38425,0.568961,-0.0547865,-0.154265
1278381,1,-1.5702,-0.523426,-0.000139942,-2.09684,-0.000493103,1.57096,0.785709,-1.5708,-0.523599,-3.14038e-08,-2.0944,2.32165e-08,1.5708,0.785399,-0.000727789,0.000298459,0.000640544,0.000641691,-0.000207946,0.000151318,0.00122949,0,0,0,0,0,0,0,-0.755909,-9.48306,-0.432981,21.9159,1.28847,1.61062,-0.161856,-0.784906,-0.352289,0.067584,3.38522,0.568956,-0.0547405,-0.153824
1278382,1,-1.5702,-0.523427,-0.000146548,-2.09684,-0.000494323,1.57096,0.785704,-1.5708,-0.523599,-3.14038e-08,-2.0944,2.32165e-08,1.5708,0.785399,0.000721233,-0.000450641,-0.00198582,-0.000129018,-0.000545531,-0.00013648,-0.000638402,0,0,0,0,0,0,0,-0.807484,-9.45529,-0.329831,21.9397,1.29946,1.61703,-0.122488,-0.784917,-0.352836,0.0675196,3.38535,0.568936,-0.0547845,-0.153372
1278383,1,-1.5702,-0.523428,-0.000139098,-2.09684,-0.000492492,1.57096,0.785705,-1.5708,-0.523599,-3.14038e-08,-2.0944,2.32165e-08,1.5708,0.785399,0.000480822,0.000349187,0.00108897,0.0004708,0.000246664,-9.09867e-05,-0.000188242,0,0,0,0,0,0,0,-0.807484,-9.48306,-0.432981,21.9159,1.28298,1.61703,-0.128897,-0.784668,-0.352144,0.0680163,3.38489,0.568925,-0.0548743,-0.152926
1278384,1,-1.5702,-0.523432,-0.000139028,-2.09684,-0.000492492,1.57096,0.785704,-1.5708,-0.523599,-3.14038e-08,-2.0944,2.32165e-08,1.5708,0.785399,-0.000236264,-0.00153045,0.00072598,-0.000242945,0.000164443,0.00041406,-0.000600213,0,0,0,0,0,0,0,-0.78368,-9.40768,-0.432981,21.9397,1.28298,1.60421,-0.116079,-0.785268,-0.350097,0.0673013,3.38393,0.568884,-0.0549968,-0.152476
1278385,1,-1.5702,-0.523428,-0.000139004,-2.09684,-0.000492492,1.57096,0.785706,-1.5708,-0.523599,-3.14038e-08,-2.0944,2.32165e-08,1.5708,0.785399,0.000399303,9.3326e-05,0.000483987,-0.000161964,0.000109628,3.86811e-05,0.000549294,0,0,0,0,0,0,0,-0.807484,-9.45529,-0.432981,21.9397,1.28298,1.61062,-0.141714,-0.786679,-0.346642,0.0652857,3.38257,0.568815,-0.0551393,-0.152009
1278386,1,-1.5702,-0.523426,-0.000144286,-2.09684,-0.000491882,1.57096,0.78571,-1.5708,-0.523599,-3.14038e-08,-2.0944,2.32165e-08,1.5708,0.785399,-0.00029061,0.000711831,-0.00144058,-0.000107976,0.000276536,2.57874e-05,0.0015869,0,0,0,0,0,0,0,-0.78368,-9.48306,-0.357602,21.9397,1.27748,1.61062,-0.174673,-0.787631,-0.344313,0.063968,3.38192,0.568785,-0.0552292,-0.151525
1278387,1,-1.5702,-0.523424,-0.000140664,-2.09684,-0.000493103,1.57096,0.785703,-1.5708,-0.523599,-3.14038e-08,-2.0944,2.32165e-08,1.5708,0.785399,-0.000843354,0.00103137,0.000246039,0.000484828,-0.000222544,-0.000694885,-0.00134957,0,0,0,0,0,0,0,-0.755909,-9.50687,-0.409177,21.9159,1.28847,1.62985,-0.10967,-0.787286,-0.344955,0.064602,3.38254,0.568829,-0.0552416,-0.151058
1278388,1,-1.5702,-0.523426,-0.000140663,-2.09684,-0.000493103,1.57096,0.785705,-1.5708,-0.523599,-3.14038e-08,-2.0944,2.32165e-08,1.5708,0.785399,8.73779e-05,0.000130765,0.000164026,-0.000790405,-0.000148362,0.000486179,-0.000187633,0,0,0,0,0,0,0,-0.78368,-9.48306,-0.409177,21.9635,1.28847,1.60421,-0.128897,-0.786419,-0.347505,0.0659237,3.38399,0.568906,-0.0551967,-0.150626
1278389,1,-1.5702,-0.523429,-0.000142612,-2.09684,-0.000492492,1.57096,0.785706,-1.5708,-0.523599,-3.14038e-08,-2.0944,2.32165e-08,1.5708,0.785399,-0.000591362,-0.00111925,-0.000540263,0.0012363,0.000104542,-0.000150599,0.00011227,0,0,0,0,0,0,0,-0.755909,-9.43149,-0.381406,21.8882,1.28298,1.61703,-0.135305,-0.78569,-0.348864,0.066973,3.38489,0.568968,-0.0551889,-0.150213
1278390,1,-1.57019,-0.523427,-0.000138992,-2.09684,-0.000492492,1.57096,0.785705,-1.5708,-0.523599,-3.14038e-08,-2.0944,2.32165e-08,1.5708,0.785399,0.001369,-0.000189354,0.00084625,0.000824201,6.96948e-05,-0.000100399,-0.000162512,0,0,0,0,0,0,0,-0.831288,-9.45529,-0.432981,21.8882,1.28298,1.61703,-0.128897,-0.785403,-0.346862,0.0674031,3.38386,0.568968,-0.055342,-0.149801
1278391,1,-1.5702,-0.523426,-0.000142612,-2.09683,-0.000492492,1.57096,0.785708,-1.5708,-0.523599,-3.14038e-08,-2.0944,2.32165e-08,1.5708,0.785399,-0.00020096,0.00108019,-0.000642259,0.00110628,4.64632e-05,0.000170426,0.000875003,0,0,0,0,0,0,0,-0.78368,-9.50687,-0.381406,21.8644,1.28298,1.61062,-0.155447,-0.785909,-0.344068,0.0667688,3.38194,0.568906,-0.0555856,-0.149385
1278392,1,-1.5702,-0.523426,-0.000142612,-2.09684,-0.000493713,1.57096,0.785704,-1.5708,-0.523599,-3.14038e-08,-2.0944,2.32165e-08,1.5708,0.785399,-0.000133973,0.000163315,-0.000428173,-0.000468906,-0.000375926,-0.000123741,-0.000874727,0,0,0,0,0,0,0,-0.78368,-9.48306,-0.381406,21.9159,1.29396,1.61703,-0.116079,-0.786179,-0.343442,0.0665492,3.3809,0.568869,-0.0557563,-0.148977
1278393,1,-1.5702,-0.523428,-0.000142793,-2.09684,-0.000491882,1.57096,0.785704,-1.5708,-0.523599,-3.14038e-08,-2.0944,2.32165e-08,1.5708,0.785399,0.000467497,-0.000540738,0.000364166,-0.000312604,0.000359735,0.000154865,-0.000345792,0,0,0,0,0,0,0,-0.807484,-9.45529,-0.409177,21.9159,1.27748,1.61062,-0.122488,-0.786061,-0.344031,0.0669178,3.38086,0.56888,-0.0558018,-0.148587
1278394,1,-1.5702,-0.523426,-0.000139703,-2.09684,-0.000493103,1.57096,0.785708,-1.5708,-0.523599,-3.14038e-08,-2.0944,2.32165e-08,1.5708,0.785399,0.000311664,0.000289122,0.000799589,-0.000765215,-0.000167078,0.000103243,0.000990175,0,0,0,0,0,0,0,-0.807484,-9.48306,-0.432981,21.9397,1.28847,1.61062,-0.155447,-0.786638,-0.344672,0.0662668,3.38145,0.568885,-0.0557476,-0.148194
1278395,1,-1.5702,-0.523426,-0.00014136,-2.09684,-0.000492492,1.57096,0.785704,-1.5708,-0.523599,-3.14038e-08,-2.0944,2.32165e-08,1.5708,0.785399,-0.000349036,0.000192748,0.000533059,4.66687e-05,9.20652e-05,-0.00016853,-0.000560587,0,0,0,0,0,0,0,-0.78368,-9.48306,-0.432981,21.9159,1.28298,1.61703,-0.122488,-0.787875,-0.345928,0.064587,3.38261,0.568876,-0.0556299,-0.147794
1278396,1,-1.5702,-0.523427,-0.000141912,-2.09684,-0.000492492,1.57096,0.785706,-1.5708,-0.523599,-3.14038e-08,-2.0944,2.32165e-08,1.5708,0.785399,0.000324121,-0.000521115,0.000355373,0.000680726,6.13768e-05,-0.000587071,0.000100994,0,0,0,0,0,0,0,-0.807484,-9.45529,-0.432981,21.8882,1.28298,1.62985,-0.135305,-0.789146,-0.34685,0.062784,3.38342,0.568857,-0.0555452,-0.147405
1278397,1,-1.5702,-0.523427,-0.000141636,-2.09684,-0.000493103,1.57096,0.785706,-1.5708,-0.523599,-3.14038e-08,-2.0944,2.32165e-08,1.5708,0.785399,0.000216081,-0.00034741,-0.000319897,-0.000752608,-0.000162533,8.3337e-05,0.000304688,0,0,0,0,0,0,0,-0.807484,-9.45529,-0.409177,21.9397,1.28847,1.61703,-0.141714,-0.790134,-0.346345,0.0614157,3.38336,0.568832,-0.0555244,-0.147031
1278398,1,-1.5702,-0.523427,-0.000142936,-2.09684,-0.000493103,1.57096,0.785707,-1.5708,-0.523599,-3.14038e-08,-2.0944,2.32165e-08,1.5708,0.785399,0.000144054,-0.000231607,-0.000862878,5.50731e-05,-0.000108355,-0.000181801,0.000474393,0,0,0,0,0,0,0,-0.807484,-9.45529,-0.381406,21.9159,1.28847,1.62344,-0.149038,-0.790426,-0.345371,0.0611812,3.38315,0.56884,-0.0554853,-0.146673
1278399,1,-1.5702,-0.523426,-0.000141231,-2.09684,-0.000492492,1.57096,0.785706,-1.5708,-0.523599,-3.14038e-08,-2.0944,2.32165e-08,1.5708,0.785399,-0.000460776,0.000495209,0.000631174,0.000686329,0.000131214,0.000116158,4.49944e-05,0,0,0,0,0,0,0,-0.78368,-9.48306,-0.432981,21.8882,1.28298,1.61703,-0.141714,-0.790064,-0.344792,0.0619632,3.38297,0.568882,-0.0554368,-0.146344
1278400,1,-1.5702,-0.523431,-0.000139739,-2.09684,-0.000492492,1.57096,0.785704,-1.5708,-0.523599,-3.14038e-08,-2.0944,2.32165e-08,1.5708,0.785399,0.000249628,-0.000876286,0.000420782,0.000457553,8.74759e-05,-0.00015992,-0.000919439,0,0,0,0,0,0,0,-0.807484,-9.43149,-0.432981,21.8882,1.28298,1.62344,-0.116079,-0.789884,-0.344011,0.0624152,3.38226,0.568908,-0.0554404,-0.146048
1278401,1,-1.5702,-0.523426,-0.000140912,-2.09684,-0.000493713,1.57096,0.785706,-1.5708,-0.523599,-3.14038e-08,-2.0944,2.32165e-08,1.5708,0.785399,-0.000390393,0.000622235,-0.00027629,-0.000344579,-0.000348584,0.000605463,9.91172e-05,0,0,0,0,0,0,0,-0.78368,-9.48306,-0.409177,21.9159,1.29396,1.60421,-0.135305,-0.789973,-0.342983,0.0624106,3.38131,0.568921,-0.0554559,-0.145777
1278402,1,-1.5702,-0.523428,-0.000142695,-2.09684,-0.000493713,1.57096,0.785706,-1.5708,-0.523599,-3.14038e-08,-2.0944,2.32165e-08,1.5708,0.785399,-0.000909876,-0.000234791,-0.000833808,-0.000786531,-0.000232389,-0.000308435,0.000303437,0,0,0,0,0,0,0,-0.755909,-9.45529,-0.381406,21.9397,1.29396,1.62344,-0.141714,-0.789347,-0.34323,0.0634133,3.38125,0.568994,-0.0553769,-0.14551
1278403,1,-1.5702,-0.523431,-0.000140691,-2.09684,-0.000492492,1.57096,0.785703,-1.5708,-0.523599,-3.14038e-08,-2.0944,2.32165e-08,1.5708,0.785399,-0.0011634,-0.00127015,9.37423e-05,-0.00108117,0.000251975,0.000506454,-0.000984503,0,0,0,0,0,0,0,-0.732105,-9.40768,-0.409177,21.9635,1.28298,1.60421,-0.10967,-0.787683,-0.343886,0.0658078,3.38194,0.569148,-0.0552037,-0.145248
1278404,1,-1.5702,-0.523429,-0.000142621,-2.09684,-0.000492492,1.57096,0.785704,-1.5708,-0.523599,-3.14038e-08,-2.0944,2.32165e-08,1.5708,0.785399,0.00098764,-0.000289955,-0.000587119,0.00104246,0.000167983,0.000100277,-0.000181618,0,0,0,0,0,0,0,-0.807484,-9.43149,-0.381406,21.8882,1.28298,1.61062,-0.122488,-0.785972,-0.342867,0.0681906,3.38203,0.569303,-0.0550767,-0.144984
1278405,1,-1.5702,-0.523427,-0.000146234,-2.09684,-0.000493103,1.57096,0.785705,-1.5708,-0.523599,-3.14038e-08,-2.0944,2.32165e-08,1.5708,0.785399,0.000101615,0.000363508,-0.00159784,4.53597e-05,-9.14617e-05,6.68513e-05,0.00011628,0,0,0,0,0,0,0,-0.78368,-9.45529,-0.329831,21.9159,1.28847,1.61062,-0.128897,-0.784626,-0.341184,0.0702123,3.38134,0.569416,-0.0550653,-0.144697
1278406,1,-1.5702,-0.523426,-0.000138993,-2.09684,-0.000493103,1.57096,0.785706,-1.5708,-0.523599,-3.14038e-08,-2.0944,2.32165e-08,1.5708,0.785399,-0.000581871,0.000891953,0.00134763,-0.000526572,-6.09744e-05,-0.000904868,0.000314879,0,0,0,0,0,0,0,-0.755909,-9.48306,-0.432981,21.9397,1.28847,1.63626,-0.135305,-0.783546,-0.341508,0.0719492,3.38137,0.569516,-0.0550371,-0.144374
1278407,1,-1.5702,-0.523429,-0.000142612,-2.09684,-0.000492492,1.57096,0.785703,-1.5708,-0.523599,-3.14038e-08,-2.0944,2.32165e-08,1.5708,0.785399,0.0002617,-0.000611791,-0.000308009,-0.000351048,0.000162801,0.00034619,-0.000739516,0,0,0,0,0,0,0,-0.78368,-9.43149,-0.381406,21.9397,1.28298,1.61062,-0.10967,-0.78326,-0.343689,0.0723912,3.38257,0.569598,-0.0549143,-0.144023
1278408,1,-1.5702,-0.523426,-0.000140663,-2.09684,-0.000493103,1.57096,0.785704,-1.5708,-0.523599,-3.14038e-08,-2.0944,2.32165e-08,1.5708,0.785399,0.000731279,0.000798565,0.000444275,0.00032278,-9.49166e-05,0.000468152,-0.000255652,0,0,0,0,0,0,0,-0.807484,-9.48306,-0.409177,21.9159,1.28847,1.60421,-0.116079,-0.783866,-0.345743,0.0715015,3.38379,0.569637,-0.0547912,-0.143651
1278409,1,-1.5702,-0.523426,-0.000137322,-2.09684,-0.000491882,1.57096,0.785706,-1.5708,-0.523599,-3.14038e-08,-2.0944,2.32165e-08,1.5708,0.785399,-6.92928e-05,0.000532377,0.00140981,0.000215187,0.000343623,0.000312102,0.000541642,0,0,0,0,0,0,0,-0.78368,-9.48306,-0.456784,21.9159,1.27748,1.60421,-0.135305,-0.785362,-0.347866,0.0693212,3.38479,0.569623,-0.054721,-0.143249
1278410,1,-1.5702,-0.523426,-0.000144282,-2.09684,-0.000493103,1.57096,0.785703,-1.5708,-0.523599,-3.14038e-08,-2.0944,2.32165e-08,1.5708,0.785399,-0.000695809,0.000354918,-0.00138018,-0.000413354,-0.000177819,-0.000504009,-0.000588341,0,0,0,0,0,0,0,-0.755909,-9.48306,-0.357602,21.9397,1.28847,1.62344,-0.10967,-0.786816,-0.350501,0.0671147,3.38591,0.569605,-0.0546688,-0.142821
1278411,1,-1.5702,-0.523427,-0.000138992,-2.09684,-0.000493103,1.57096,0.785706,-1.5708,-0.523599,-3.14038e-08,-2.0944,2.32165e-08,1.5708,0.785399,0.000185741,-0.000413002,0.000843119,0.000930856,-0.000118546,-9.86471e-05,0.000557208,0,0,0,0,0,0,0,-0.78368,-9.45529,-0.432981,21.8882,1.28847,1.61703,-0.135305,-0.787203,-0.352285,0.0664216,3.38662,0.569621,-0.0546535,-0.142384
1278412,1,-1.5702,-0.523429,-0.000142612,-2.09684,-0.000492492,1.57096,0.785703,-1.5708,-0.523599,-3.14038e-08,-2.0944,2.32165e-08,1.5708,0.785399,0.000123827,-0.000832147,-0.000644347,0.000620571,0.00012442,-6.57647e-05,-0.000577963,0,0,0,0,0,0,0,-0.78368,-9.43149,-0.381406,21.8882,1.28298,1.61703,-0.10967,-0.787249,-0.351315,0.0662291,3.38579,0.569616,-0.0547662,-0.141941
1278413,1,-1.5702,-0.523427,-0.000142612,-2.09684,-0.000490559,1.57096,0.785707,-1.5708,-0.523599,-3.14038e-08,-2.0944,2.32165e-08,1.5708,0.785399,8.25516e-05,2.04756e-06,-0.000429564,-0.00134952,0.000727207,0.000193516,0.00107275,0,0,0,0,0,0,0,-0.78368,-9.45529,-0.381406,21.9635,1.26558,1.61062,-0.149038,-0.787124,-0.348687,0.0663484,3.38428,0.569604,-0.0549133,-0.141496
1278414,1,-1.5702,-0.523426,-0.000138992,-2.09684,-0.000491882,1.57096,0.785706,-1.5708,-0.523599,-3.14038e-08,-2.0944,2.32165e-08,1.5708,0.785399,0.000611846,0.000650979,0.00092005,-0.000342871,4.39949e-05,-0.000345707,0.000206542,0,0,0,0,0,0,0,-0.807484,-9.48306,-0.432981,21.9397,1.27748,1.62344,-0.135305,-0.787076,-0.347765,0.0664101,3.38417,0.569604,-0.0549093,-0.141051
1278415,1,-1.57019,-0.523424,-0.000141123,-2.09684,-0.000492492,1.57096,0.785705,-1.5708,-0.523599,-3.14038e-08,-2.0944,2.32165e-08,1.5708,0.785399,0.00096471,0.000990798,0.000613366,0.000977845,-0.000174121,0.000244246,-9.9664e-05,0,0,0,0,0,0,0,-0.831288,-9.50687,-0.432981,21.8882,1.28298,1.61062,-0.128897,-0.788094,-0.349231,0.0649447,3.38523,0.569548,-0.0548179,-0.140621
1278416,1,-1.5702,-0.523429,-0.000139703,-2.09684,-0.000493103,1.57096,0.785702,-1.5708,-0.523599,-3.14038e-08,-2.0944,2.32165e-08,1.5708,0.785399,8.63277e-05,-0.00110271,0.000408911,0.000651897,-0.000319531,-7.45281e-05,-0.00101588,0,0,0,0,0,0,0,-0.807484,-9.43149,-0.432981,21.8882,1.28847,1.61703,-0.103262,-0.789875,-0.350287,0.0624047,3.38554,0.569415,-0.0548232,-0.140223
1278417,1,-1.5702,-0.523426,-0.000142848,-2.09684,-0.000492492,1.57096,0.785708,-1.5708,-0.523599,-3.14038e-08,-2.0944,2.32165e-08,1.5708,0.785399,0.000614364,0.000471289,-0.000933819,-0.000215016,-9.57008e-06,0.000187674,0.00125553,0,0,0,0,0,0,0,-0.831288,-9.48306,-0.381406,21.9159,1.28298,1.61062,-0.155447,-0.791234,-0.349447,0.0605666,3.3847,0.569273,-0.0549234,-0.139851
1278418,1,-1.5702,-0.523429,-0.000139071,-2.09683,-0.000492492,1.57096,0.785706,-1.5708,-0.523599,-3.14038e-08,-2.0944,2.32165e-08,1.5708,0.785399,-0.00135366,-0.000892233,0.00058388,0.00106308,-6.38005e-06,0.000362475,9.10332e-05,0,0,0,0,0,0,0,-0.755909,-9.43149,-0.432981,21.8644,1.28298,1.60421,-0.135305,-0.791521,-0.347658,0.0603389,3.38338,0.569177,-0.0550528,-0.139498
1278419,1,-1.57019,-0.523427,-0.000142638,-2.09684,-0.000491882,1.57096,0.785704,-1.5708,-0.523599,-3.14038e-08,-2.0944,2.32165e-08,1.5708,0.785399,0.000860797,-3.80104e-05,-0.000817172,-0.000497705,0.000199197,4.29083e-06,-0.000651388,0,0,0,0,0,0,0,-0.831288,-9.45529,-0.381406,21.9159,1.27748,1.61062,-0.116079,-0.791038,-0.345199,0.0612086,3.3817,0.569118,-0.0552094,-0.139178
1278420,1,-1.5702,-0.523426,-0.000140672,-2.09684,-0.000493103,1.57096,0.785706,-1.5708,-0.523599,-3.14038e-08,-2.0944,2.32165e-08,1.5708,0.785399,-0.00053976,0.000624274,0.000104832,-0.000888615,-0.000274103,-0.000234498,0.000515177,0,0,0,0,0,0,0,-0.78368,-9.48306,-0.409177,21.9397,1.28847,1.61703,-0.141714,-0.790315,-0.344026,0.0624921,3.38101,0.569097,-0.0552696,-0.138891
1278421,1,-1.5702,-0.523427,-0.000141126,-2.09684,-0.000493713,1.57096,0.785708,-1.5708,-0.523599,-3.14038e-08,-2.0944,2.32165e-08,1.5708,0.785399,0.000196972,-0.000233431,0.0006267,-3.55981e-05,-0.000386186,-0.000156332,0.000852078,0,0,0,0,0,0,0,-0.807484,-9.45529,-0.432981,21.9159,1.29396,1.61703,-0.155447,-0.789813,-0.34512,0.0634707,3.38186,0.5691,-0.0551898,-0.138617
1278422,1,-1.5702,-0.523427,-0.000147124,-2.09684,-0.000493103,1.57096,0.785709,-1.5708,-0.523599,-3.14038e-08,-2.0944,2.32165e-08,1.5708,0.785399,-0.00107511,-0.000155621,-0.00134544,-0.000580544,-5.40067e-05,-0.000104222,0.00104277,0,0,0,0,0,0,0,-0.755909,-9.45529,-0.357602,21.9397,1.28847,1.61703,-0.168264,-0.789208,-0.346423,0.0645503,3.38294,0.569122,-0.055087,-0.138376
1278423,1,-1.5702,-0.523429,-0.000143559,-2.09684,-0.000493713,1.57096,0.785709,-1.5708,-0.523599,-3.14038e-08,-2.0944,2.32165e-08,1.5708,0.785399,0.000489685,-0.000660559,-0.000340147,0.000169783,-0.000239455,0.000167878,0.000457821,0,0,0,0,0,0,0,-0.807484,-9.43149,-0.381406,21.9159,1.29396,1.61062,-0.161856,-0.787871,-0.34669,0.0667474,3.3835,0.569186,-0.0550239,-0.138206
1278424,1,-1.5702,-0.523429,-0.000142927,-2.09684,-0.000492492,1.57096,0.785706,-1.5708,-0.523599,-3.14038e-08,-2.0944,2.32165e-08,1.5708,0.785399,-0.000230355,-0.000440373,-0.000226764,0.000113188,0.000247264,-0.00012544,-0.000440771,0,0,0,0,0,0,0,-0.78368,-9.43149,-0.381406,21.9159,1.28298,1.61703,-0.141714,-0.786535,-0.345512,0.0690412,3.38321,0.569254,-0.0550366,-0.138128
1278425,1,-1.5702,-0.523426,-0.000140768,-2.09684,-0.000491272,1.57096,0.785711,-1.5708,-0.523599,-3.14038e-08,-2.0944,2.32165e-08,1.5708,0.785399,0.000403242,0.000912844,0.000498438,7.54589e-05,0.000571744,-8.36269e-05,0.00140157,0,0,0,0,0,0,0,-0.807484,-9.48306,-0.409177,21.9159,1.27199,1.61703,-0.18749,-0.786023,-0.344338,0.0701791,3.38271,0.569292,-0.0550831,-0.138136
1278426,1,-1.5702,-0.523427,-0.000141158,-2.09684,-0.000492492,1.57096,0.785708,-1.5708,-0.523599,-3.14038e-08,-2.0944,2.32165e-08,1.5708,0.785399,0.000268828,-4.10513e-05,0.000889104,-0.00106332,-2.57384e-05,0.000181608,-0.000252412,0,0,0,0,0,0,0,-0.807484,-9.45529,-0.432981,21.9635,1.28298,1.61062,-0.155447,-0.78665,-0.345093,0.0696401,3.38319,0.569296,-0.0550567,-0.13822
1278427,1,-1.5702,-0.523426,-0.000143515,-2.09683,-0.000493103,1.57096,0.785709,-1.5708,-0.523599,-3.14038e-08,-2.0944,2.32165e-08,1.5708,0.785399,-0.000377593,0.000622246,3.59239e-05,0.00161117,-0.000220609,0.000358431,6.9084e-05,0,0,0,0,0,0,0,-0.78368,-9.48306,-0.409177,21.8644,1.28847,1.60421,-0.161856,-0.787987,-0.34681,0.0680081,3.38408,0.569267,-0.0550106,-0.138387
1278428,1,-1.5702,-0.523427,-0.000141614,-2.09684,-0.000492492,1.57096,0.785705,-1.5708,-0.523599,-3.14038e-08,-2.0944,2.32165e-08,1.5708,0.785399,-0.000901343,-0.000234783,2.39493e-05,-0.000132312,5.63776e-05,1.59488e-06,-0.00117465,0,0,0,0,0,0,0,-0.755909,-9.45529,-0.409177,21.9159,1.28298,1.61062,-0.128897,-0.788815,-0.347814,0.0670158,3.38417,0.569239,-0.055067,-0.13864
1278429,1,-1.5702,-0.523426,-0.000142929,-2.09684,-0.000493103,1.57096,0.785709,-1.5708,-0.523599,-3.14038e-08,-2.0944,2.32165e-08,1.5708,0.785399,4.87187e-05,0.000493092,-0.000633648,-0.00064502,-0.000165865,1.06325e-06,0.000674964,0,0,0,0,0,0,0,-0.78368,-9.48306,-0.381406,21.9397,1.28847,1.61062,-0.168264,-0.7887,-0.348582,0.0673153,3.38413,0.56925,-0.0551398,-0.138947
1278430,1,-1.5702,-0.523426,-0.000144388,-2.09684,-0.000493103,1.57096,0.785709,-1.5708,-0.523599,-3.14038e-08,-2.0944,2.32165e-08,1.5708,0.785399,-0.000617135,0.000328728,-0.000979244,0.000126799,-0.000110577,7.08836e-07,0.000212617,0,0,0,0,0,0,0,-0.755909,-9.48306,-0.357602,21.9159,1.28847,1.61062,-0.161856,-0.787739,-0.350164,0.0688636,3.38482,0.569316,-0.0551402,-0.139277
1278431,1,-1.57019,-0.523426,-0.000142829,-2.09683,-0.000492492,1.57096,0.785706,-1.5708,-0.523599,-3.14038e-08,-2.0944,2.32165e-08,1.5708,0.785399,0.00135181,0.000219152,0.000553597,0.00129096,0.000129733,0.000237831,-0.000604241,0,0,0,0,0,0,0,-0.831288,-9.48306,-0.409177,21.8644,1.28298,1.60421,-0.141714,-0.786769,-0.351593,0.0705086,3.38523,0.569374,-0.0551845,-0.139625
1278432,1,-1.5702,-0.523426,-0.000141385,-2.09684,-0.000492492,1.57096,0.785711,-1.5708,-0.523599,-3.14038e-08,-2.0944,2.32165e-08,1.5708,0.785399,-0.000862028,0.000146101,0.000369064,-0.000902599,8.64884e-05,-7.88046e-05,0.00105524,0,0,0,0,0,0,0,-0.755909,-9.48306,-0.409177,21.9397,1.28298,1.61062,-0.181082,-0.786811,-0.352192,0.0706874,3.38499,0.56937,-0.0553045,-0.139985
1278433,1,-1.5702,-0.523427,-0.000139233,-2.09684,-0.000491882,1.57096,0.785707,-1.5708,-0.523599,-3.14038e-08,-2.0944,2.32165e-08,1.5708,0.785399,7.49286e-05,-0.000552213,0.000802855,0.000604693,0.000261109,-0.000289895,-0.000483305,0,0,0,0,0,0,0,-0.78368,-9.45529,-0.432981,21.8882,1.27748,1.61703,-0.149038,-0.787519,-0.352156,0.0697413,3.38467,0.569337,-0.0554208,-0.140354
1278434,1,-1.57019,-0.523429,-0.000140743,-2.09684,-0.000492492,1.57096,0.785711,-1.5708,-0.523599,-3.14038e-08,-2.0944,2.32165e-08,1.5708,0.785399,0.00116358,-0.000924954,-2.15753e-05,-0.000803297,-2.93776e-05,4.40954e-05,0.000864592,0,0,0,0,0,0,0,-0.831288,-9.43149,-0.409177,21.9397,1.28298,1.61062,-0.181082,-0.788678,-0.350599,0.068058,3.38392,0.569272,-0.0555461,-0.14074
1278435,1,-1.5702,-0.523426,-0.00014069,-2.09684,-0.000493103,1.57096,0.785709,-1.5708,-0.523599,-3.14038e-08,-2.0944,2.32165e-08,1.5708,0.785399,-0.00098752,0.00058979,-1.43836e-05,-0.000535531,-0.000223036,0.000504115,0.000101677,0,0,0,0,0,0,0,-0.755909,-9.48306,-0.409177,21.9397,1.28847,1.5978,-0.168264,-0.789881,-0.348683,0.0663432,3.38333,0.569202,-0.0556391,-0.141151
1278436,1,-1.5702,-0.523426,-0.000140672,-2.09684,-0.000492492,1.57096,0.785709,-1.5708,-0.523599,-3.14038e-08,-2.0944,2.32165e-08,1.5708,0.785399,0.000548079,0.000393193,-9.58904e-06,0.000849405,5.47601e-05,9.87176e-05,6.77843e-05,0,0,0,0,0,0,0,-0.807484,-9.48306,-0.409177,21.8882,1.28298,1.60421,-0.168264,-0.790408,-0.348375,0.0655807,3.38346,0.569174,-0.0556924,-0.141595
1278437,1,-1.5702,-0.523427,-0.000140666,-2.09684,-0.000491272,1.57096,0.785708,-1.5708,-0.523599,-3.14038e-08,-2.0944,2.32165e-08,1.5708,0.785399,-0.00084104,-0.000387485,-6.39269e-06,-8.3344e-05,0.000443408,6.58117e-05,-0.000429528,0,0,0,0,0,0,0,-0.755909,-9.45529,-0.409177,21.9159,1.27199,1.60421,-0.155447,-0.790426,-0.348574,0.0655135,3.38341,0.569159,-0.0558044,-0.142079
1278438,1,-1.5702,-0.523427,-0.000137323,-2.09684,-0.000492492,1.57096,0.785709,-1.5708,-0.523599,-3.14038e-08,-2.0944,2.32165e-08,1.5708,0.785399,8.89207e-05,-0.000258323,0.00110936,-0.000612375,-0.000111296,4.38745e-05,-4.89933e-05,0,0,0,0,0,0,0,-0.78368,-9.45529,-0.456784,21.9397,1.28298,1.60421,-0.161856,-0.790405,-0.348157,0.0653788,3.38309,0.569135,-0.055952,-0.142587
1278439,1,-1.5702,-0.523427,-0.000142612,-2.09683,-0.000492492,1.57096,0.78571,-1.57079,-0.523599,-2.5314e-06,-2.0944,3.77322e-06,1.5708,0.785399,5.92805e-05,-0.000172216,-0.00102366,0.00135499,-7.41972e-05,-0.000445468,0.000442056,0.00319803,-0.000326331,-0.0025,-0.00040991,0.00375,0.000525577,-9.4131e-07,-0.78368,-9.45529,-0.381406,21.8644,1.28298,1.61703,-0.174673,-0.790464,-0.347121,0.0650299,3.38253,0.569089,-0.0561278,-0.143102
1278440,1,-1.5702,-0.52343,-0.000140663,-2.09684,-0.000492492,1.57096,0.785708,-1.57079,-0.5236,-7.5314e-06,-2.0944,1.12732e-05,1.5708,0.785399,-0.000610094,-0.00011481,-3.28281e-05,-0.0003031,-4.94648e-05,-0.000296979,-0.000417373,0.00639606,-0.000652661,-0.005,-0.000819819,0.0075,0.00105115,-1.88262e-06,-0.755909,-9.45529,-0.409177,21.9159,1.28298,1.61703,-0.155447,-0.789976,-0.34556,0.0654915,3.38143,0.569041,-0.0563638,-0.143623
1278441,1,-1.5702,-0.523426,-0.000144742,-2.09683,-0.000493713,1.57096,0.78571,-1.57078,-0.523601,-1.50314e-05,-2.0944,2.25232e-05,1.5708,0.785399,0.000242885,0.000573074,-0.000671499,0.00100436,-0.000439878,3.93731e-05,0.000433828,0.00959409,-0.000978992,-0.0075,-0.00122973,0.01125,0.00157673,-2.82393e-06,-0.78368,-9.48306,-0.381406,21.8644,1.29396,1.61062,-0.174673,-0.788853,-0.344509,0.0668752,3.38038,0.569015,-0.0565963,-0.144149
1278442,1,-1.5702,-0.523428,-0.000143504,-2.09684,-0.00049184,1.57096,0.785707,-1.57076,-0.523602,-2.50314e-05,-2.0944,3.75232e-05,1.5708,0.785399,-0.000487691,0.000382049,0.000201948,-0.00165048,-0.000734061,0.000263608,-0.000660217,0.0127921,-0.00130532,-0.01,-0.00163964,0.015,0.00210231,-3.76524e-06,-0.755909,-9.48306,-0.409177,21.9635,1.30586,1.60421,-0.149038,-0.787648,-0.345275,0.0683514,3.38032,0.569021,-0.0567304,-0.144672
1278443,1,-1.5702,-0.523429,-0.000139552,-2.09684,-0.000492563,1.57096,0.785709,-1.57075,-0.523604,-3.75314e-05,-2.0944,5.62732e-05,1.5708,0.785399,0.000506655,-0.00609674,0.000655286,1.33058e-05,0.00818035,-0.000536338,3.45732e-05,0.0159902,-0.00163165,-0.0125,-0.00204955,0.01875,0.00262788,-4.70655e-06,-0.656727,-9.50687,-0.559934,21.9159,1.35072,1.62344,-0.161856,-0.787107,-0.343058,0.0687977,3.37954,0.56899,-0.0568463,-0.145195
1278444,1,-1.5702,-0.523427,-0.000139245,-2.09683,-0.000494254,1.57096,0.785709,-1.57073,-0.523606,-5.25314e-05,-2.0944,7.87732e-05,1.57081,0.785399,0.0025871,-0.00626793,8.19926e-05,0.0012153,0.00927951,-0.0001202,0.000260408,0.0191882,-0.00195798,-0.015,-0.00245946,0.0225,0.00315346,-5.64786e-06,-0.605152,-9.58224,-0.686887,21.8644,1.40749,1.61703,-0.168264,-0.788283,-0.328679,0.0667437,3.37343,0.568775,-0.0572789,-0.145725
1278445,1,-1.57019,-0.523426,-0.000145804,-2.09684,-0.000494546,1.57096,0.785707,-1.57071,-0.523608,-7.00314e-05,-2.09441,0.000105023,1.57081,0.785399,0.00484067,-0.00368654,-0.00121726,-0.00095304,0.00664396,-8.01333e-05,-0.000538472,0.0223862,-0.00228431,-0.0175,-0.00286937,0.02625,0.00367904,-6.58917e-06,-0.581349,-9.63382,-0.786069,21.9397,1.42397,1.61703,-0.149038,-0.791393,-0.304923,0.0619071,3.36277,0.56846,-0.0580019,-0.14625
1278446,1,-1.57019,-0.523431,-0.000151412,-2.09684,-0.000493381,1.57096,0.785711,-1.57068,-0.523611,-9.00314e-05,-2.09441,0.000135023,1.57082,0.785399,0.00263547,-0.00707682,-0.00274274,0.00112788,0.00438258,-0.000290781,0.000827814,0.0255842,-0.00261064,-0.02,-0.00327928,0.03,0.00420461,-7.53048e-06,-0.529774,-9.60605,-0.861447,21.8644,1.44686,1.62344,-0.181082,-0.794659,-0.279595,0.0564253,3.35128,0.56836,-0.0587536,-0.146759
1278447,1,-1.57018,-0.523427,-0.000159948,-2.09684,-0.000493365,1.57096,0.785709,-1.57065,-0.523614,-0.000112531,-2.09441,0.000168773,1.57082,0.785399,0.0035109,-0.0035498,-0.00743499,-0.000454507,0.00311556,-0.000193854,7.71579e-05,0.0287823,-0.00293698,-0.0225,-0.00368919,0.03375,0.00473019,-8.47179e-06,-0.454395,-9.68539,-0.913022,21.9159,1.45784,1.62344,-0.168264,-0.794499,-0.25512,0.0548969,3.33988,0.568782,-0.0594824,-0.147262
1278448,1,-1.57017,-0.523429,-0.000168442,-2.09684,-0.00049108,1.57096,0.785711,-1.57062,-0.523617,-0.000137531,-2.09442,0.000206273,1.57083,0.785399,0.00487175,-0.00288251,-0.0084282,0.000346609,0.00208678,0.000108123,0.000526156,0.0319803,-0.00326331,-0.025,-0.0040991,0.0375,0.00525577,-9.4131e-06,-0.402821,-9.68539,-0.940793,21.8882,1.46974,1.61703,-0.181082,-0.788818,-0.23682,0.0601297,3.33085,0.569924,-0.0600276,-0.147777
1278449,1,-1.57017,-0.523432,-0.000175156,-2.09684,-0.000489835,1.57096,0.785706,-1.57058,-0.523621,-0.000167531,-2.09442,0.000251273,1.57083,0.785399,0.00523505,-0.00295827,-0.00489072,-0.000418541,0.000677944,-0.000402636,-0.00110729,0.0375158,-0.00382815,-0.03,-0.00480861,0.045,0.00607066,-1.08726e-05,-0.327442,-9.65762,-1.01617,21.9159,1.49812,1.62985,-0.141714,-0.779922,-0.227634,0.0682723,3.32563,0.571718,-0.0602868,-0.148299
1278450,1,-1.57016,-0.523427,-0.00018452,-2.09684,-0.000485173,1.57096,0.785708,-1.57054,-0.523625,-0.000202531,-2.09443,0.000303773,1.57084,0.785399,0.00633269,-0.000499177,-0.00540675,0.000927398,0.00591593,-0.000268424,-0.000229568,0.0430513,-0.004393,-0.035,-0.00551812,0.0525,0.00688556,-1.23321e-05,-0.279835,-9.733,-1.09155,21.8644,1.49812,1.62985,-0.155447,-0.771533,-0.226654,0.0731128,3.32375,0.573958,-0.0603028,-0.148803
1278451,1,-1.57015,-0.523431,-0.000193097,-2.09684,-0.000482254,1.57096,0.78571,-1.57049,-0.52363,-0.000242531,-2.09443,0.000363773,1.57085,0.785399,0.00645494,-0.00110727,-0.00510787,6.14536e-05,0.00395789,-0.000416308,0.000559032,0.0485868,-0.00495785,-0.04,-0.00622764,0.06,0.00770046,-1.37916e-05,-0.204456,-9.7092,-1.19073,21.8882,1.5146,1.63626,-0.174673,-0.764736,-0.233598,0.0726951,3.32487,0.576542,-0.0600973,-0.149264
1278452,1,-1.57014,-0.523433,-0.000203821,-2.09684,-0.00047617,1.57096,0.78571,-1.57044,-0.523636,-0.000287531,-2.09444,0.000431273,1.57085,0.785399,0.0103329,-0.00145825,-0.00499295,-0.00116546,0.00141139,0.00889017,0.000372688,0.0541223,-0.0055227,-0.045,-0.00693715,0.0675,0.00851536,-1.5251e-05,-0.152882,-9.68539,-1.29388,21.9397,1.56038,1.64266,-0.174673,-0.759707,-0.245971,0.0667145,3.32811,0.57945,-0.0597735,-0.149677
1278453,1,-1.57012,-0.523433,-0.000220534,-2.09684,-0.000465868,1.57096,0.78571,-1.57038,-0.523642,-0.000337531,-2.09445,0.000506273,1.57086,0.785399,0.0120831,-0.00281929,-0.00999491,0.000429455,0.00441393,0.00647318,0.000248459,0.0596577,-0.00608754,-0.05,-0.00764667,0.075,0.00933025,-1.67105e-05,-0.0497324,-9.76077,-1.44464,21.8882,1.61623,1.64907,-0.174673,-0.756029,-0.259242,0.0561241,3.33149,0.582684,-0.0595371,-0.150067
1278454,1,-1.5701,-0.523433,-0.00023905,-2.09684,-0.000451915,1.57096,0.785707,-1.57031,-0.523649,-0.000392531,-2.09446,0.000588773,1.57087,0.785399,0.0139284,-0.00388396,-0.0151644,-0.000363311,0.00631503,0.00490327,-0.000783797,0.0651932,-0.00665239,-0.055,-0.00835618,0.0825,0.0101452,-1.817e-05,0.0256461,-9.83615,-1.67474,21.9159,1.68398,1.64907,-0.149038,-0.750344,-0.269149,0.0463588,3.33285,0.586351,-0.059466,-0.150486
1278455,1,-1.57008,-0.523434,-0.000271523,-2.09684,-0.000430666,1.57096,0.785709,-1.57024,-0.523656,-0.000452531,-2.09447,0.000678773,1.57089,0.785399,0.0174504,-0.00473865,-0.0215638,0.000407407,0.0138671,0.00370971,0.000189546,0.0707287,-0.00721724,-0.06,-0.0090657,0.09,0.01096,-1.96295e-05,0.0256461,-9.91153,-1.80169,21.8882,1.72975,1.64907,-0.168264,-0.739009,-0.273865,0.0430532,3.33148,0.590616,-0.059459,-0.150961
1278456,1,-1.57004,-0.523433,-0.000305025,-2.09684,-0.000400085,1.57096,0.785708,-1.57017,-0.523664,-0.000517531,-2.09448,0.000776273,1.5709,0.785399,0.0222498,-0.00438423,-0.0285819,0.00138523,0.0198327,0.00232907,-0.000348354,0.0762642,-0.00778208,-0.065,-0.00977521,0.0975,0.0117749,-2.1089e-05,0.0494498,-10.0385,-1.97625,21.8405,1.76363,1.66189,-0.155447,-0.720617,-0.273954,0.0485909,3.32732,0.595575,-0.0594577,-0.151496
1278457,1,-1.57001,-0.523441,-0.000350745,-2.09684,-0.000366834,1.57096,0.785709,-1.57008,-0.523672,-0.000587531,-2.09449,0.000881273,1.57091,0.785399,0.0296335,-0.00678609,-0.0335563,-0.000190138,0.0241434,0.0018007,5.12286e-06,0.0817997,-0.00834693,-0.07,-0.0104847,0.105,0.0125898,-2.25485e-05,0.0256461,-10.0623,-2.02783,21.8882,1.7975,1.66189,-0.161856,-0.696364,-0.270238,0.0616348,3.32065,0.601234,-0.0594151,-0.152081
1278458,1,-1.56996,-0.523443,-0.000401922,-2.09685,-0.000323759,1.57096,0.785709,-1.57,-0.523681,-0.000662531,-2.0945,0.000993773,1.57092,0.785399,0.0361041,-0.00645834,-0.0403581,-0.000776373,0.0284225,0.000911736,3.41524e-06,0.0873352,-0.00891178,-0.075,-0.0111942,0.1125,0.0134047,-2.40079e-05,-0.0259286,-10.1654,-2.0794,21.9159,1.80849,1.67471,-0.161856,-0.669051,-0.263626,0.0784158,3.3126,0.607557,-0.0592035,-0.15269
1278459,1,-1.56991,-0.523447,-0.000451576,-2.09685,-0.000271966,1.57096,0.785711,-1.5699,-0.52369,-0.000745031,-2.09451,0.00111752,1.57094,0.785399,0.0391133,-0.00698587,-0.0410694,-0.000517582,0.0367502,-0.000236028,0.000714354,0.0945199,-0.00964492,-0.0825,-0.0121151,0.12375,0.0143649,-2.57277e-05,-0.00212494,-10.2408,-2.17859,21.9159,1.82039,1.70126,-0.181082,-0.641148,-0.256215,0.095154,3.30442,0.614485,-0.0587244,-0.153304
1278460,1,-1.56986,-0.523453,-0.000513059,-2.09686,-0.000212106,1.57096,0.78571,-1.5698,-0.523701,-0.000835031,-2.09452,0.00125252,1.57095,0.785399,0.0444251,-0.00852699,-0.0469452,-0.00201549,0.0436051,-0.000290092,0.000238877,0.101705,-0.0103781,-0.09,-0.0130361,0.135,0.0153251,-2.74474e-05,0.0256461,-10.2646,-2.17859,21.9873,1.8149,1.70767,-0.174673,-0.61438,-0.249004,0.108762,3.29653,0.621923,-0.0579552,-0.153922
1278461,1,-1.5698,-0.523456,-0.000576345,-2.09686,-0.000143054,1.57096,0.785704,-1.56969,-0.523712,-0.000932531,-2.09454,0.00139877,1.57097,0.785399,0.0511176,-0.00552606,-0.0538339,-0.00357713,0.0528775,-0.000114931,-0.00177353,0.108889,-0.0111112,-0.0975,-0.013957,0.14625,0.0162853,-2.91671e-05,0.0732535,-10.3162,-2.20636,21.9635,1.83138,1.70767,-0.122488,-0.588812,-0.244762,0.119257,3.2905,0.62984,-0.0567595,-0.154563
1278462,1,-1.56974,-0.523458,-0.000644393,-2.09686,-6.1902e-05,1.57096,0.78571,-1.56957,-0.523724,-0.00103753,-2.09455,0.00155627,1.57099,0.785399,0.0555113,-0.00554376,-0.0604154,-0.00261727,0.065197,0.000219586,0.000750427,0.116074,-0.0118443,-0.105,-0.0148779,0.1575,0.0172455,-3.08868e-05,0.148632,-10.4154,-2.30554,21.9635,1.83138,1.70126,-0.174673,-0.563152,-0.24846,0.129105,3.28841,0.638232,-0.0550086,-0.155224
1278463,1,-1.56966,-0.523464,-0.000717164,-2.09686,2.97171e-05,1.57097,0.785709,-1.56945,-0.523736,-0.00115003,-2.09457,0.00172502,1.571,0.785399,0.0601011,-0.0102759,-0.062328,-0.00136243,0.0741945,0.00488565,0.000262926,0.123259,-0.0125775,-0.1125,-0.0157988,0.16875,0.0182057,-3.26066e-05,0.176403,-10.4669,-2.53564,21.9397,1.85426,1.70126,-0.168264,-0.537228,-0.255814,0.138437,3.28715,0.646942,-0.0530535,-0.155889
1278464,1,-1.56957,-0.523468,-0.000808481,-2.09687,0.00012769,1.57096,0.785714,-1.56932,-0.52375,-0.00127003,-2.09458,0.00190502,1.57102,0.785399,0.0670476,-0.00909439,-0.0724318,-0.00382735,0.079289,0.00249467,0.00159944,0.130444,-0.0133106,-0.12,-0.0167197,0.18,0.0191659,-3.43263e-05,0.0494498,-10.5701,-2.65863,21.9397,1.91652,1.7333,-0.206716,-0.511372,-0.25959,0.146398,3.28304,0.65584,-0.051251,-0.156564
1278465,1,-1.56948,-0.523475,-0.000905507,-2.09687,0.00024076,1.57097,0.785707,-1.56918,-0.523764,-0.00139753,-2.0946,0.00209627,1.57104,0.785399,0.0771732,-0.00671441,-0.0787919,-0.00743052,0.0892266,0.00198139,-0.00106994,0.137628,-0.0140437,-0.1275,-0.0176406,0.19125,0.0201262,-3.6046e-05,-0.0259286,-10.5939,-2.81335,22.0151,1.96138,1.7333,-0.149038,-0.485353,-0.26536,0.153779,3.28003,0.665015,-0.0492105,-0.15727
1278466,1,-1.56939,-0.523485,-0.00100656,-2.09688,0.000374053,1.57097,0.785708,-1.56904,-0.523778,-0.00153253,-2.09462,0.00229877,1.57106,0.785399,0.080654,-0.00658892,-0.0851705,-0.0075864,0.102996,0.00648104,-0.000475934,0.144813,-0.0147769,-0.135,-0.0185615,0.2025,0.0210864,-3.77657e-05,-0.0775034,-10.5423,-3.03949,21.9873,1.97878,1.72689,-0.155447,-0.45959,-0.281437,0.160448,3.28286,0.674566,-0.0465021,-0.158013
1278467,1,-1.56928,-0.523487,-0.00111248,-2.09689,0.000519562,1.57097,0.785713,-1.56889,-0.523794,-0.00167503,-2.09464,0.00251252,1.57109,0.785398,0.0911126,-0.00548634,-0.0903505,-0.00788155,0.113207,0.00394063,0.00134422,0.151998,-0.01551,-0.1425,-0.0194824,0.21375,0.0220466,-3.94855e-05,-0.176685,-10.6693,-3.26959,21.9635,1.99526,1.75253,-0.200308,-0.435222,-0.307907,0.164643,3.29092,0.684455,-0.0432386,-0.158776
1278468,1,-1.56918,-0.523497,-0.00122614,-2.09689,0.000679918,1.57097,0.785715,-1.56873,-0.52381,-0.00182503,-2.09466,0.00273752,1.57111,0.785398,0.0964508,-0.00389247,-0.0959892,-0.00715943,0.131726,0.00257939,0.000421431,0.159183,-0.0162432,-0.15,-0.0204033,0.225,0.0230068,-4.12052e-05,-0.176685,-10.6931,-3.44415,21.8882,2.00075,1.76535,-0.18749,-0.41402,-0.34295,0.1637,3.30241,0.694552,-0.0395821,-0.159543
1278469,1,-1.56906,-0.523504,-0.00133931,-2.0969,0.000861363,1.57097,0.785713,-1.56856,-0.523827,-0.00198424,-2.09468,0.00297618,1.57113,0.785398,0.103998,-0.00198235,-0.102019,-0.00776874,0.146348,0.00132779,0.000518313,0.167466,-0.0170884,-0.159208,-0.0214651,0.238652,0.0240245,-4.30279e-05,-0.204456,-10.7447,-3.67425,21.8644,1.97237,1.78457,-0.193899,-0.396692,-0.386579,0.156408,3.31663,0.704761,-0.0355468,-0.160341
1278470,1,-1.56893,-0.52351,-0.00146984,-2.09691,0.00105624,1.57098,0.785712,-1.56838,-0.523845,-0.00215265,-2.0947,0.00322848,1.57116,0.785398,0.115462,-0.0011173,-0.11167,-0.0117648,0.162277,0.00440377,0.000108183,0.17575,-0.0179337,-0.168416,-0.0225268,0.252304,0.0250422,-4.48507e-05,-0.327442,-10.7724,-3.82501,21.8644,1.96138,1.82302,-0.18749,-0.382852,-0.439785,0.143474,3.33437,0.715066,-0.0310199,-0.1612
1278471,1,-1.5688,-0.523516,-0.00161172,-2.09692,0.0012614,1.57098,0.785713,-1.5682,-0.523864,-0.00233028,-2.09473,0.00349443,1.57118,0.785398,0.121537,3.47499e-05,-0.120145,-0.0101742,0.173638,0.00350788,0.00054684,0.184034,-0.018779,-0.177623,-0.0235886,0.265955,0.0260599,-4.66734e-05,-0.327442,-10.82,-3.90039,21.789,1.96138,1.82302,-0.200308,-0.371362,-0.502063,0.12704,3.35594,0.725474,-0.025939,-0.162128
1278472,1,-1.56865,-0.523525,-0.00175478,-2.09693,0.00148441,1.57099,0.785716,-1.56801,-0.523884,-0.00251711,-2.09475,0.00377404,1.57121,0.785398,0.125511,-0.00303121,-0.127236,-0.0114981,0.187792,0.00347968,0.00036456,0.192317,-0.0196243,-0.186831,-0.0246504,0.279607,0.0270776,-4.84961e-05,-0.327442,-10.8478,-4.07892,21.8167,1.9504,1.8038,-0.200308,-0.359483,-0.567483,0.110778,3.37815,0.735997,-0.0205278,-0.163145
1278473,1,-1.5685,-0.523536,-0.00190962,-2.09694,0.0017131,1.571,0.785712,-1.56781,-0.523904,-0.00271315,-2.09478,0.0040673,1.57124,0.785398,0.135659,-0.004791,-0.135289,-0.0116963,0.20261,0.00192948,-0.00141847,0.200601,-0.0204695,-0.196039,-0.0257121,0.293259,0.0280953,-5.03189e-05,-0.355213,-10.8954,-4.28125,21.8167,1.96687,1.82302,-0.155447,-0.345912,-0.627148,0.0960288,3.39675,0.746556,-0.0150688,-0.164263
1278474,1,-1.56833,-0.523546,-0.00206895,-2.09695,0.00196002,1.571,0.785718,-1.5676,-0.523925,-0.00291839,-2.09481,0.00437421,1.57127,0.785398,0.144988,-0.00667458,-0.144831,-0.0111969,0.217148,0.000578208,0.000715864,0.208885,-0.0213148,-0.205247,-0.0267739,0.306911,0.0291131,-5.21416e-05,-0.478199,-10.9232,-4.48358,21.789,2.01814,1.84866,-0.200308,-0.331754,-0.675238,0.0814,3.40913,0.756976,-0.0097506,-0.165463
1278475,0.99,-1.56816,-0.523556,-0.00225043,-2.09697,0.0022252,1.57101,0.785715,-1.56738,-0.523948,-0.00313285,-2.09483,0.00469477,1.5713,0.785398,0.157594,-0.00806109,-0.155807,-0.0124812,0.23258,-0.000891596,-0.000472193,0.217168,-0.0221601,-0.214454,-0.0278357,0.320563,0.0301308,-5.39644e-05,-0.656727,-10.947,-4.63434,21.8405,2.05751,1.88803,-0.174673,-0.318071,-0.710345,0.0660699,3.41453,0.767157,-0.00463547,-0.166708
1278476,0.99,-1.56798,-0.523573,-0.00242706,-2.09698,0.00250243,1.57102,0.785716,-1.56716,-0.523971,-0.00335651,-2.09486,0.00502899,1.57133,0.785398,0.165548,-0.00744208,-0.161632,-0.0151327,0.246003,-0.00140809,0.000159923,0.225452,-0.0230054,-0.223662,-0.0288974,0.334215,0.0311485,-5.57871e-05,-0.680531,-10.8954,-4.91205,21.8405,2.09688,1.91366,-0.18749,-0.306083,-0.736128,0.0486968,3.41537,0.777145,0.000501039,-0.167971
1278477,0.99,-1.56778,-0.523583,-0.00261413,-2.097,0.00279132,1.57103,0.78571,-1.56692,-0.523994,-0.00358938,-2.09489,0.00537686,1.57136,0.785398,0.172491,-0.00901172,-0.167806,-0.0171194,0.260298,-0.00154899,-0.00206352,0.233736,-0.0238506,-0.23287,-0.0299592,0.347866,0.0321662,-5.76098e-05,-0.755909,-10.8954,-5.09057,21.8405,2.15364,1.93289,-0.128897,-0.297283,-0.758139,0.0265361,3.41533,0.787058,0.00599086,-0.169225
1278478,0.99,-1.56758,-0.52359,-0.00281069,-2.09702,0.00309552,1.57103,0.78571,-1.56668,-0.524019,-0.00383146,-2.09492,0.00573837,1.5714,0.785398,0.183503,-0.0116704,-0.176291,-0.0177927,0.272963,-0.00166838,-0.00113832,0.242019,-0.0246959,-0.242078,-0.031021,0.361518,0.0331839,-5.94326e-05,-0.807484,-10.9748,-5.24133,21.8167,2.17104,1.95211,-0.135305,-0.29239,-0.776582,-0.00216318,3.41493,0.79701,0.0118876,-0.170428
1278479,0.99,-1.56738,-0.523603,-0.00302061,-2.09703,0.00342898,1.57104,0.785713,-1.56643,-0.524045,-0.00408353,-2.09496,0.00611452,1.57143,0.785398,0.189482,-0.0118532,-0.189404,-0.0197254,0.288358,0.00149837,0.000224462,0.250962,-0.0256085,-0.252068,-0.0321672,0.376146,0.0342057,-6.12625e-05,-0.755909,-10.9986,-5.41986,21.8405,2.15914,2.00979,-0.161856,-0.289443,-0.78974,-0.0344454,3.41302,0.807181,0.0180614,-0.171542
1278480,0.99,-1.56715,-0.523611,-0.0032335,-2.09705,0.00377599,1.57105,0.785713,-1.56617,-0.524071,-0.00434558,-2.09499,0.00650529,1.57147,0.785398,0.200923,-0.0107463,-0.197454,-0.0170015,0.310057,0.00493546,-8.77178e-05,0.259905,-0.026521,-0.262058,-0.0333135,0.390774,0.0352274,-6.30924e-05,-0.859058,-11.0739,-5.59839,21.8167,2.10329,2.04183,-0.155447,-0.285437,-0.799743,-0.0656388,3.4092,0.817723,0.0243716,-0.172561
1278481,0.99,-1.56692,-0.523628,-0.0034625,-2.09708,0.0041268,1.57106,0.785713,-1.5659,-0.524099,-0.00461763,-2.09502,0.0069107,1.5715,0.785398,0.210437,-0.0123411,-0.205094,-0.0155705,0.325937,0.00832741,0.00017888,0.268848,-0.0274335,-0.272048,-0.0344597,0.405402,0.0362491,-6.49223e-05,-0.859058,-11.0501,-5.62219,21.8167,2.09688,2.05557,-0.161856,-0.281471,-0.807456,-0.0973338,3.40173,0.82845,0.0305578,-0.173501
1278482,0.99,-1.56667,-0.523638,-0.00369602,-2.0971,0.00450103,1.57108,0.785713,-1.56562,-0.524127,-0.00489967,-2.09506,0.00733073,1.57154,0.785398,0.217504,-0.0117531,-0.215889,-0.0186053,0.341715,0.0117672,0.000119254,0.27779,-0.028346,-0.282038,-0.0356059,0.420031,0.0372708,-6.67522e-05,-0.882862,-11.0977,-5.69757,21.8644,2.10878,2.04183,-0.161856,-0.278736,-0.812895,-0.13151,3.39014,0.839179,0.0365742,-0.174376
1278483,0.99,-1.56643,-0.523658,-0.00394142,-2.09712,0.00488009,1.5711,0.785714,-1.56534,-0.524156,-0.0051917,-2.0951,0.00776539,1.57158,0.785398,0.22811,-0.0141781,-0.221841,-0.0178614,0.353448,0.0133799,0.000316861,0.286733,-0.0292586,-0.292028,-0.0367522,0.434659,0.0382926,-6.85821e-05,-0.831288,-11.0224,-5.82452,21.789,2.15364,2.04916,-0.168264,-0.276699,-0.817435,-0.167673,3.37636,0.849902,0.0426385,-0.175196
1278484,0.99,-1.56616,-0.523669,-0.00419514,-2.09714,0.00527405,1.57112,0.785717,-1.56504,-0.524187,-0.00549371,-2.09513,0.00821467,1.57162,0.785398,0.241871,-0.0123211,-0.235134,-0.018735,0.367171,0.0149377,0.00116068,0.295676,-0.0301711,-0.302018,-0.0378984,0.449287,0.0393143,-7.04121e-05,-0.910633,-11.0977,-5.8761,21.7652,2.20491,2.04916,-0.193899,-0.27652,-0.821835,-0.207184,3.36149,0.860556,0.0488478,-0.175961
1278485,0.99,-1.56587,-0.523688,-0.00445143,-2.09717,0.00569691,1.57114,0.785718,-1.56474,-0.524218,-0.00580572,-2.09517,0.00867859,1.57166,0.785397,0.25459,-0.0167639,-0.240773,-0.0199494,0.383305,0.015938,0.00101114,0.304618,-0.0310836,-0.312008,-0.0390447,0.463915,0.040336,-7.2242e-05,-1.08519,-11.0739,-6.02685,21.7652,2.24428,2.04916,-0.200308,-0.280155,-0.825905,-0.252143,3.34595,0.87107,0.0552427,-0.176685
1278486,0.99,-1.5656,-0.523705,-0.00472341,-2.0972,0.00612953,1.57116,0.785718,-1.56442,-0.52425,-0.00612772,-2.09521,0.00915713,1.5717,0.785397,0.262937,-0.0188157,-0.246416,-0.0241219,0.396935,0.0164573,0.000911455,0.313561,-0.0319961,-0.321998,-0.0401909,0.478543,0.0413577,-7.40719e-05,-1.08519,-11.0977,-6.18158,21.789,2.24977,2.05557,-0.206716,-0.290052,-0.826769,-0.306205,3.32989,0.881406,0.0619114,-0.177398
1278487,0.99,-1.5653,-0.523725,-0.00500944,-2.09723,0.00657377,1.57119,0.785715,-1.5641,-0.524283,-0.00645971,-2.09525,0.0096503,1.57174,0.785397,0.270492,-0.0176652,-0.258015,-0.0266853,0.410005,0.0232086,-0.000579158,0.322504,-0.0329087,-0.331988,-0.0413371,0.493171,0.0423795,-7.59018e-05,-1.16057,-11.0977,-6.18158,21.789,2.28365,2.0162,-0.174673,-0.305258,-0.825819,-0.368637,3.31543,0.891757,0.069024,-0.178141
1278488,0.99,-1.565,-0.523739,-0.00530597,-2.09725,0.00704133,1.57121,0.785716,-1.56377,-0.524316,-0.00680168,-2.0953,0.0101581,1.57178,0.785397,0.282169,-0.0180304,-0.268236,-0.027438,0.433139,0.027056,8.86123e-05,0.331447,-0.0338212,-0.341978,-0.0424834,0.507799,0.0434012,-7.77317e-05,-1.16057,-11.2009,-6.22918,21.7414,2.26717,2.00979,-0.18749,-0.321636,-0.828666,-0.433276,3.30485,0.902404,0.0765995,-0.17895
1278489,0.99,-1.56469,-0.523757,-0.00560943,-2.09729,0.00751869,1.57124,0.785723,-1.56343,-0.524351,-0.00715365,-2.09534,0.0106806,1.57183,0.785397,0.29309,-0.0166762,-0.274973,-0.0310365,0.440098,0.0293703,0.00222921,0.340697,-0.0347651,-0.351968,-0.043669,0.522534,0.0443943,-7.95104e-05,-1.16057,-11.2247,-6.30456,21.8167,2.24428,2.0162,-0.246084,-0.338512,-0.838798,-0.498555,3.29898,0.913379,0.0845361,-0.179814
1278490,0.99,-1.56437,-0.52378,-0.00591113,-2.09732,0.00801887,1.57126,0.78572,-1.56308,-0.524387,-0.00751561,-2.09538,0.0112179,1.57187,0.785397,0.298114,-0.0195784,-0.283202,-0.0299967,0.460997,0.029383,-0.000446637,0.349947,-0.035709,-0.361958,-0.0448547,0.53727,0.0453874,-8.12891e-05,-1.16057,-11.2247,-6.35614,21.7414,2.2159,2.06838,-0.193899,-0.356543,-0.855867,-0.565617,3.29734,0.924607,0.0927286,-0.180731
1278491,0.99,-1.56403,-0.5238,-0.00624041,-2.09735,0.00852904,1.57129,0.78572,-1.56272,-0.524423,-0.00788756,-2.09543,0.0117699,1.57192,0.785397,0.312707,-0.0203764,-0.297411,-0.0307436,0.471346,0.0307311,0.000414319,0.359197,-0.0366529,-0.371948,-0.0460403,0.552005,0.0463806,-8.30678e-05,-1.3391,-11.2763,-6.33233,21.7176,2.19301,2.09402,-0.213125,-0.373793,-0.874367,-0.631712,3.29645,0.936007,0.100897,-0.181742
1278492,0.99,-1.56369,-0.52382,-0.00656803,-2.09739,0.00905801,1.57132,0.785715,-1.56235,-0.524461,-0.00826949,-2.09548,0.0123366,1.57197,0.785397,0.321166,-0.021812,-0.306467,-0.0328853,0.48801,0.0283921,-0.00236864,0.368447,-0.0375968,-0.381938,-0.047226,0.56674,0.0473737,-8.48465e-05,-1.26372,-11.3001,-6.40771,21.7652,2.17653,2.0812,-0.141714,-0.388635,-0.890907,-0.693591,3.29433,0.947484,0.10897,-0.182856
1278493,0.99,-1.56335,-0.523847,-0.00690973,-2.09743,0.00959301,1.57135,0.785718,-1.56197,-0.5245,-0.00866142,-2.09553,0.0129181,1.57202,0.785397,0.325876,-0.0239526,-0.318182,-0.0360305,0.507507,0.0316684,0.000353684,0.377698,-0.0385407,-0.391928,-0.0484116,0.581476,0.0483668,-8.66252e-05,-1.26372,-11.2763,-6.45929,21.7652,2.19301,2.05557,-0.193899,-0.399478,-0.905675,-0.74875,3.2918,0.959,0.117152,-0.18404
1278494,0.99,-1.56297,-0.523868,-0.00727237,-2.09747,0.0101407,1.57138,0.785717,-1.56159,-0.524539,-0.00906334,-2.09558,0.0135143,1.57207,0.785397,0.34233,-0.0237473,-0.330076,-0.0380379,0.514951,0.032273,-1.56983e-06,0.386948,-0.0394846,-0.401918,-0.0495973,0.596211,0.0493599,-8.84039e-05,-1.41448,-11.3279,-6.33233,21.7414,2.21041,2.0812,-0.18749,-0.405194,-0.919777,-0.795602,3.29007,0.970539,0.125555,-0.185243
1278495,0.99,-1.56259,-0.523896,-0.00762677,-2.09751,0.0107127,1.57142,0.785715,-1.56119,-0.52458,-0.00947525,-2.09563,0.0141253,1.57212,0.785397,0.351548,-0.0249178,-0.337239,-0.0377354,0.527872,0.0334716,-0.000475764,0.396198,-0.0404285,-0.411908,-0.0507829,0.610946,0.0503531,-9.01825e-05,-1.46209,-11.3279,-6.33233,21.7652,2.27815,2.08761,-0.174673,-0.408724,-0.934696,-0.837826,3.28953,0.981971,0.134106,-0.186412
1278496,0.99,-1.56221,-0.523926,-0.00800251,-2.09755,0.0112926,1.57145,0.785711,-1.56078,-0.524621,-0.00989715,-2.09568,0.014751,1.57217,0.785397,0.364249,-0.0229236,-0.346807,-0.0401188,0.541962,0.0340783,-0.00153788,0.405448,-0.0413724,-0.421898,-0.0519686,0.625682,0.0513462,-9.19612e-05,-1.43828,-11.3001,-6.30456,21.789,2.27815,2.09402,-0.141714,-0.414057,-0.95228,-0.880898,3.29029,0.993158,0.142724,-0.187513
1278497,0.99,-1.56181,-0.523951,-0.0083902,-2.0976,0.0118924,1.5715,0.785714,-1.56037,-0.524663,-0.010329,-2.09573,0.0153914,1.57222,0.785396,0.373928,-0.0229085,-0.3593,-0.0433776,0.55485,0.0369413,-4.19088e-05,0.414698,-0.0423163,-0.431888,-0.0531542,0.640417,0.0523393,-9.37399e-05,-1.41448,-11.3517,-6.22918,21.8644,2.32942,2.04183,-0.168264,-0.421816,-0.976815,-0.925434,3.29446,1.00419,0.151558,-0.188512
1278498,0.99,-1.5614,-0.52398,-0.00879715,-2.09764,0.0125135,1.57153,0.78571,-1.55994,-0.524706,-0.0107709,-2.09579,0.0160465,1.57227,0.785396,0.388751,-0.0241815,-0.367909,-0.0405636,0.568558,0.0359878,-0.00124864,0.423948,-0.0432602,-0.441878,-0.0543398,0.655153,0.0533324,-9.55186e-05,-1.46209,-11.3517,-6.10223,21.8405,2.29555,2.06838,-0.135305,-0.43152,-1.00806,-0.970291,3.30179,1.01515,0.160536,-0.189384
1278499,0.99,-1.561,-0.524011,-0.00919827,-2.09769,0.0131405,1.57156,0.785711,-1.55951,-0.524751,-0.0112228,-2.09584,0.016716,1.57233,0.785396,0.393665,-0.0285982,-0.376286,-0.0424538,0.582193,0.0344907,-0.000595069,0.433225,-0.0442068,-0.451868,-0.0555289,0.669466,0.0542771,-9.72105e-05,-1.38671,-11.3517,-6.10223,21.8644,2.30104,2.11965,-0.141714,-0.443551,-1.03759,-1.01622,3.30755,1.02597,0.169227,-0.190118
1278500,0.99,-1.56058,-0.524039,-0.00962528,-2.09774,0.0137869,1.57161,0.785709,-1.55907,-0.524796,-0.0116846,-2.0959,0.0173998,1.57238,0.785396,0.401857,-0.0272479,-0.39074,-0.0433194,0.596594,0.0394287,-0.00110879,0.442502,-0.0451534,-0.461858,-0.056718,0.683779,0.0552217,-9.89023e-05,-1.38671,-11.4032,-5.8999,21.8644,2.27815,2.13888,-0.122488,-0.454838,-1.06026,-1.05943,3.30935,1.03675,0.177447,-0.190725
1278501,0.99,-1.56015,-0.524073,-0.0100579,-2.09779,0.0144311,1.57165,0.785715,-1.55862,-0.524842,-0.0121565,-2.09596,0.0180979,1.57244,0.785396,0.407846,-0.0281293,-0.397817,-0.0428093,0.60567,0.0384409,0.00119359,0.451779,-0.0461,-0.471848,-0.057907,0.698092,0.0561664,-0.000100594,-1.3629,-11.3755,-5.82452,21.8167,2.3514,2.15811,-0.174673,-0.461078,-1.07873,-1.09416,3.30836,1.0477,0.185277,-0.19121
1278502,0.99,-1.55972,-0.524103,-0.0105045,-2.09784,0.0150947,1.57169,0.785709,-1.55816,-0.524889,-0.0126383,-2.09602,0.0188103,1.5725,0.785396,0.415932,-0.026851,-0.41245,-0.0482277,0.620538,0.0388357,-0.00113706,0.461055,-0.0470466,-0.481838,-0.0590961,0.712405,0.057111,-0.000102286,-1.26372,-11.427,-5.64996,21.8882,2.3633,2.14529,-0.122488,-0.460709,-1.09816,-1.11827,3.30742,1.05895,0.193018,-0.191583
1278503,0.99,-1.55927,-0.524143,-0.0109531,-2.09789,0.0157849,1.57173,0.785714,-1.55769,-0.524937,-0.0131301,-2.09608,0.019537,1.57255,0.785396,0.425768,-0.032253,-0.422029,-0.0498313,0.631908,0.0384073,0.000937384,0.470332,-0.0479932,-0.491828,-0.0602851,0.726718,0.0580557,-0.000103978,-1.16057,-11.3517,-5.57061,21.8644,2.37428,2.1517,-0.168264,-0.45347,-1.12008,-1.13106,3.30898,1.07057,0.201041,-0.191868
1278504,0.99,-1.55881,-0.524174,-0.0114325,-2.09795,0.0164794,1.57178,0.785715,-1.55721,-0.524986,-0.013632,-2.09614,0.020278,1.57261,0.785396,0.436865,-0.0337252,-0.439375,-0.0528228,0.651058,0.0428229,0.000862282,0.479609,-0.0489398,-0.501818,-0.0614742,0.741031,0.0590003,-0.00010567,-1.16057,-11.3755,-5.36828,21.9159,2.36879,2.15811,-0.174673,-0.439801,-1.13948,-1.13241,3.31155,1.08253,0.209305,-0.1921
1278505,0.99,-1.55834,-0.524211,-0.011914,-2.09801,0.0171863,1.57183,0.785715,-1.55672,-0.525036,-0.0141438,-2.0962,0.0210334,1.57267,0.785396,0.446378,-0.032276,-0.453687,-0.0532416,0.662149,0.0422666,0.000574854,0.488886,-0.0498864,-0.511808,-0.0626632,0.755344,0.0599449,-0.000107362,-1.16057,-11.3755,-5.2691,21.8882,2.40267,2.13888,-0.174673,-0.418882,-1.15558,-1.12025,3.31421,1.09484,0.217672,-0.192332
1278506,0.99,-1.55787,-0.524247,-0.0123955,-2.09807,0.0179039,1.57188,0.785713,-1.55622,-0.525087,-0.0146656,-2.09626,0.021803,1.57273,0.785396,0.465836,-0.0339407,-0.462742,-0.0547179,0.684067,0.0465491,-9.14816e-05,0.498162,-0.0508331,-0.521798,-0.0638523,0.769657,0.0608896,-0.000109054,-1.109,-11.4032,-5.21753,21.9159,2.41915,2.11965,-0.161856,-0.39363,-1.17231,-1.098,3.31773,1.10732,0.226097,-0.192594
1278507,0.99,-1.55737,-0.524281,-0.0128983,-2.09812,0.0186473,1.57193,0.785715,-1.55571,-0.525138,-0.0151974,-2.09633,0.022587,1.5728,0.785395,0.479687,-0.0352934,-0.473772,-0.0574835,0.700342,0.0495084,0.00041373,0.507439,-0.0517797,-0.531788,-0.0650413,0.78397,0.0618342,-0.000110745,-1.21215,-11.427,-5.11834,21.8882,2.40267,2.10684,-0.174673,-0.372216,-1.18956,-1.07696,3.3217,1.11955,0.234465,-0.192869
1278508,0.99,-1.55687,-0.524322,-0.0134107,-2.09818,0.0194052,1.57198,0.785721,-1.5552,-0.525191,-0.0157391,-2.0964,0.0233853,1.57286,0.785395,0.481797,-0.0373958,-0.486267,-0.0564495,0.713177,0.0500656,0.00217469,0.516716,-0.0527263,-0.541778,-0.0662304,0.798283,0.0627789,-0.000112437,-1.31133,-11.4032,-5.09057,21.8405,2.40816,2.13247,-0.225942,-0.355788,-1.20482,-1.05947,3.32477,1.13146,0.242589,-0.19316
1278509,0.99,-1.55636,-0.524363,-0.0139409,-2.09825,0.02017,1.57203,0.785718,-1.55467,-0.525245,-0.0162909,-2.09646,0.0241971,1.57292,0.785395,0.496135,-0.0415682,-0.491992,-0.0567691,0.738261,0.0503608,0.000500359,0.525795,-0.0536527,-0.551768,-0.0673941,0.811851,0.0636629,-0.000114021,-1.3629,-11.4032,-5.09057,21.8405,2.40267,2.17092,-0.200308,-0.341363,-1.21296,-1.04261,3.32375,1.14312,0.250169,-0.193515
1278510,0.99,-1.55584,-0.524401,-0.0144734,-2.09831,0.0209603,1.57208,0.785714,-1.55413,-0.525299,-0.0168527,-2.09653,0.0250225,1.57299,0.785395,0.503054,-0.040366,-0.503899,-0.0605407,0.746043,0.0516206,-0.000853222,0.534874,-0.0545792,-0.561758,-0.0685578,0.825419,0.064547,-0.000115604,-1.48986,-11.4548,-5.09057,21.8644,2.35689,2.18374,-0.168264,-0.330245,-1.21278,-1.0289,3.31814,1.15442,0.257231,-0.193975
1278511,0.99,-1.55532,-0.524448,-0.0150212,-2.09838,0.0217735,1.57214,0.785716,-1.55359,-0.525355,-0.0174244,-2.0966,0.0258615,1.57305,0.785395,0.505937,-0.0418865,-0.51057,-0.0633575,0.779237,0.0542446,0.000143262,0.543953,-0.0555056,-0.571748,-0.0697215,0.838987,0.0654311,-0.000117187,-1.51366,-11.4032,-5.06677,21.8882,2.31203,2.1517,-0.18749,-0.321488,-1.21099,-1.01752,3.31221,1.16547,0.26422,-0.194541
1278512,0.99,-1.55479,-0.524489,-0.0155724,-2.09844,0.0225873,1.5722,0.785711,-1.55304,-0.525411,-0.0180061,-2.09667,0.0267141,1.57312,0.785395,0.51674,-0.0412626,-0.519724,-0.0612678,0.7939,0.0546355,-0.00159991,0.553032,-0.056432,-0.581738,-0.0708853,0.852555,0.0663151,-0.000118771,-1.58904,-11.427,-5.11834,21.8644,2.27266,2.15811,-0.141714,-0.313463,-1.21179,-1.00675,3.30773,1.17624,0.271293,-0.195195
1278513,0.99,-1.55424,-0.524531,-0.0161254,-2.09851,0.023426,1.57226,0.785713,-1.55248,-0.525469,-0.0185979,-2.09674,0.0275802,1.57318,0.785395,0.526232,-0.0406954,-0.530234,-0.0627563,0.801246,0.0592776,-0.000320623,0.562111,-0.0573585,-0.591728,-0.072049,0.866123,0.0671992,-0.000120354,-1.69219,-11.4548,-5.21753,21.8405,2.27266,2.17092,-0.161856,-0.307223,-1.2162,-0.997744,3.30381,1.18656,0.278253,-0.195879
1278514,0.99,-1.55369,-0.524579,-0.0167094,-2.09858,0.0242636,1.57231,0.785709,-1.5519,-0.525527,-0.0191996,-2.09682,0.0284599,1.57325,0.785395,0.533457,-0.0415682,-0.548837,-0.0647463,0.807687,0.0562171,-0.00167181,0.571191,-0.0582849,-0.601718,-0.0732127,0.879691,0.0680832,-0.000121937,-1.71599,-11.427,-5.2929,21.8644,2.28365,2.2286,-0.122488,-0.299983,-1.2262,-0.985572,3.30133,1.19659,0.285091,-0.19653
1278515,0.99,-1.55312,-0.524619,-0.0172896,-2.09865,0.0251206,1.57237,0.785709,-1.55132,-0.525586,-0.0198113,-2.09689,0.0293532,1.57332,0.785394,0.544056,-0.0403849,-0.568509,-0.0650847,0.82549,0.0562812,-0.00111454,0.58027,-0.0592114,-0.611708,-0.0743764,0.893259,0.0689673,-0.000123521,-1.84295,-11.4786,-5.32068,21.8405,2.37978,2.23593,-0.122488,-0.28474,-1.24306,-0.958903,3.30154,1.20669,0.291999,-0.197133
1278516,0.99,-1.55255,-0.524671,-0.0178914,-2.09872,0.0259947,1.57243,0.785702,-1.55073,-0.525646,-0.020433,-2.09697,0.03026,1.57339,0.785394,0.553674,-0.0419011,-0.573799,-0.0690151,0.830979,0.0564252,-0.00311662,0.589349,-0.0601378,-0.621698,-0.0755401,0.906827,0.0698514,-0.000125104,-1.89452,-11.427,-5.36828,21.8405,2.43654,2.23593,-0.0584009,-0.260443,-1.26718,-0.915704,3.30522,1.21695,0.29918,-0.197649
1278517,0.99,-1.55197,-0.524715,-0.0184935,-2.0988,0.0268692,1.57249,0.785691,-1.55014,-0.525707,-0.0210647,-2.09704,0.0311804,1.57346,0.785394,0.557387,-0.0440821,-0.577959,-0.0714813,0.840587,0.0618558,-0.00448524,0.598428,-0.0610642,-0.631688,-0.0767039,0.920395,0.0707354,-0.000126687,-1.86675,-11.4786,-5.52301,21.9397,2.47041,2.22219,0.00660151,-0.234214,-1.2962,-0.867871,3.31247,1.22724,0.306728,-0.197967
1278518,0.99,-1.55137,-0.524767,-0.0190971,-2.09887,0.0277756,1.57255,0.785689,-1.54953,-0.525769,-0.0217064,-2.09712,0.0321143,1.57353,0.785394,0.568673,-0.0475938,-0.590781,-0.0702706,0.851842,0.0654164,-0.00346488,0.607507,-0.0619907,-0.641678,-0.0778676,0.933963,0.0716195,-0.000128271,-1.91832,-11.4548,-5.57061,21.9159,2.47041,2.21578,0.0194189,-0.211181,-1.32321,-0.8246,3.32011,1.23751,0.314331,-0.197958
1278519,0.99,-1.55078,-0.524822,-0.0197162,-2.09894,0.0286843,1.57261,0.785691,-1.54891,-0.525832,-0.022358,-2.0972,0.0330609,1.57361,0.785394,0.579288,-0.0473054,-0.594663,-0.069705,0.873709,0.0625135,-0.00159784,0.616209,-0.0628787,-0.651668,-0.078983,0.946589,0.0724356,-0.000129732,-1.86675,-11.4032,-5.67376,21.9159,2.44753,2.23593,0.000192821,-0.194118,-1.34235,-0.790147,3.32389,1.24759,0.321562,-0.197506
1278520,0.99,-1.55017,-0.524876,-0.0203432,-2.09902,0.0296139,1.57267,0.785695,-1.54829,-0.525896,-0.0230197,-2.09728,0.0340202,1.57368,0.785394,0.586451,-0.0504749,-0.603155,-0.072721,0.880478,0.0608847,0.000358925,0.624912,-0.0637667,-0.661658,-0.0800985,0.959216,0.0732517,-0.000131194,-1.79137,-11.3517,-5.72534,21.9397,2.40816,2.24234,-0.0382593,-0.186177,-1.35362,-0.769355,3.32355,1.25731,0.328464,-0.196538
1278521,0.99,-1.54956,-0.524926,-0.021001,-2.09909,0.0305678,1.57274,0.785693,-1.54765,-0.525961,-0.0236913,-2.09736,0.034992,1.57375,0.785394,0.590971,-0.0502283,-0.618179,-0.0704275,0.895509,0.0637776,-0.000472793,0.633615,-0.0646547,-0.671648,-0.0812139,0.971842,0.0740678,-0.000132656,-1.71599,-11.4032,-5.57061,21.8882,2.37978,2.26156,-0.0190333,-0.184021,-1.35866,-0.758043,3.32018,1.26679,0.335157,-0.195094
1278522,0.99,-1.54894,-0.524982,-0.0216585,-2.09917,0.0315149,1.5728,0.785698,-1.54701,-0.526026,-0.024373,-2.09744,0.0359765,1.57383,0.785394,0.599092,-0.0552814,-0.633536,-0.0721523,0.904818,0.0615329,0.00138023,0.642317,-0.0655427,-0.681638,-0.0823294,0.984468,0.0748839,-0.000134117,-1.64061,-11.3755,-5.64996,21.8644,2.40267,2.27438,-0.0648096,-0.17904,-1.35634,-0.743694,3.31272,1.27633,0.341498,-0.193309
1278523,0.99,-1.5483,-0.525036,-0.0223253,-2.09926,0.0324828,1.57286,0.785701,-1.54636,-0.526093,-0.0250646,-2.09753,0.0369736,1.5739,0.785393,0.607667,-0.0592526,-0.651743,-0.074904,0.925491,0.0593643,0.00210694,0.65102,-0.0664308,-0.691628,-0.0834448,0.997094,0.0757,-0.000135579,-1.58904,-11.3517,-5.67376,21.8882,2.40816,2.30001,-0.0968531,-0.165056,-1.34341,-0.716636,3.3003,1.28606,0.347516,-0.191325
1278524,0.99,-1.54767,-0.525095,-0.0229896,-2.09934,0.0334486,1.57293,0.785704,-1.5457,-0.52616,-0.0257662,-2.09761,0.0379833,1.57398,0.785393,0.6181,-0.0628441,-0.654901,-0.0769517,0.940057,0.0650678,0.00235407,0.659722,-0.0673188,-0.701618,-0.0845603,1.00972,0.0765161,-0.000137041,-1.51366,-11.3001,-5.69757,21.9159,2.37428,2.26156,-0.122488,-0.143332,-1.31833,-0.678532,3.28355,1.29584,0.353404,-0.189265
1278525,0.99,-1.54704,-0.52515,-0.0236719,-2.09942,0.0344334,1.573,0.785706,-1.54503,-0.526228,-0.0264778,-2.0977,0.0390056,1.57406,0.785393,0.61894,-0.0567513,-0.659326,-0.080663,0.9438,0.0642056,0.0020441,0.668425,-0.0682068,-0.711608,-0.0856757,1.02235,0.0773322,-0.000138502,-1.41448,-11.3279,-5.72534,21.9159,2.37978,2.2286,-0.135305,-0.120899,-1.28996,-0.641209,3.26719,1.30543,0.359481,-0.187202
1278526,0.99,-1.54638,-0.525213,-0.0243454,-2.09951,0.035435,1.57307,0.785706,-1.54436,-0.526297,-0.0271994,-2.09778,0.0400406,1.57414,0.785393,0.626276,-0.0575276,-0.66616,-0.0817679,0.950915,0.0670203,0.00160009,0.677127,-0.0690948,-0.721598,-0.0867912,1.03497,0.0781483,-0.000139964,-1.3629,-11.2763,-5.8761,21.9635,2.41915,2.22219,-0.141714,-0.101652,-1.2732,-0.612391,3.25827,1.31485,0.366138,-0.185184
1278527,0.99,-1.54573,-0.525272,-0.0250485,-2.0996,0.0364275,1.57314,0.785713,-1.54367,-0.526367,-0.027931,-2.09787,0.0410882,1.57422,0.785393,0.636832,-0.0593757,-0.670324,-0.0825064,0.959163,0.0691798,0.00323686,0.68583,-0.0699828,-0.731588,-0.0879066,1.0476,0.0789644,-0.000141426,-1.3629,-11.3001,-5.8761,22.0151,2.51528,2.21578,-0.200308,-0.0879011,-1.27034,-0.596139,3.25723,1.32403,0.373242,-0.183265
1278528,0.99,-1.54505,-0.525332,-0.0257559,-2.09969,0.0374365,1.57321,0.785717,-1.54298,-0.526438,-0.0286726,-2.09796,0.0421484,1.5743,0.785393,0.641848,-0.0618062,-0.685873,-0.081893,0.970925,0.0707288,0.00358206,0.694532,-0.0708708,-0.741578,-0.0890221,1.06023,0.0797805,-0.000142887,-1.3629,-11.3001,-5.8761,22.0151,2.68556,2.21578,-0.23876,-0.0798581,-1.2729,-0.592335,3.25905,1.3329,0.380261,-0.181534
1278529,0.99,-1.54437,-0.525391,-0.0264755,-2.09978,0.0384822,1.57329,0.785714,-1.54227,-0.52651,-0.0294242,-2.09805,0.0432202,1.57438,0.785393,0.654118,-0.0594083,-0.694703,-0.0843092,1.0145,0.0711278,0.000251812,0.702716,-0.0717059,-0.751568,-0.090071,1.07179,0.0805241,-0.000144219,-1.31133,-11.3279,-6.05462,22.0151,2.65718,2.23593,-0.181082,-0.0738307,-1.27771,-0.594392,3.26136,1.34161,0.386982,-0.180144
1278530,0.99,-1.54369,-0.525448,-0.0272007,-2.09987,0.0395054,1.57336,0.785715,-1.54156,-0.526582,-0.0301857,-2.09814,0.0443036,1.57446,0.785392,0.663514,-0.0601532,-0.707248,-0.0871833,1.01556,0.0720239,0.000167875,0.710899,-0.0725409,-0.761558,-0.0911199,1.08336,0.0812678,-0.000145551,-1.41448,-11.4032,-6.18158,22.0627,2.67366,2.24234,-0.181082,-0.0689145,-1.28895,-0.599601,3.26637,1.35036,0.393668,-0.179194
1278531,0.99,-1.54298,-0.525505,-0.0279225,-2.09996,0.0405698,1.57344,0.785708,-1.54084,-0.526656,-0.0309573,-2.09823,0.0453985,1.57454,0.785392,0.672894,-0.056192,-0.707932,-0.0864286,1.02303,0.0735652,-0.00229558,0.719083,-0.073376,-0.771548,-0.0921689,1.09492,0.0820114,-0.000146883,-1.56524,-11.5302,-6.30456,21.9873,2.61141,2.22219,-0.116079,-0.0674722,-1.31127,-0.611306,3.27674,1.35935,0.400542,-0.178612
1278532,0.99,-1.54228,-0.525572,-0.0286453,-2.10006,0.0416234,1.57351,0.78571,-1.54012,-0.52673,-0.0317388,-2.09833,0.046505,1.57462,0.785392,0.672738,-0.0563334,-0.705002,-0.0876084,1.03381,0.076303,0.000165033,0.727266,-0.074211,-0.781538,-0.0932178,1.10648,0.0827551,-0.000148215,-1.69219,-11.5302,-6.61004,21.9873,2.57204,2.2872,-0.161856,-0.0740454,-1.34655,-0.637921,3.29275,1.36855,0.407543,-0.178239
1278533,0.99,-1.54156,-0.525638,-0.029376,-2.10015,0.0427113,1.57359,0.785719,-1.53938,-0.526805,-0.0325303,-2.09842,0.047623,1.57471,0.785392,0.683642,-0.0610645,-0.727665,-0.0893802,1.04655,0.0799998,0.00248361,0.73545,-0.0750461,-0.791528,-0.0942667,1.11805,0.0834987,-0.000149547,-1.71599,-11.4786,-6.83618,22.0151,2.54366,2.31283,-0.225942,-0.0872233,-1.38895,-0.678296,3.31141,1.37793,0.414424,-0.177984
1278534,0.99,-1.54083,-0.525707,-0.0301296,-2.10025,0.0438097,1.57367,0.785716,-1.53864,-0.526881,-0.0333318,-2.09852,0.0487526,1.57479,0.785392,0.696459,-0.0608383,-0.727661,-0.0935968,1.05018,0.0835611,0.000231587,0.743633,-0.0758811,-0.801518,-0.0953156,1.12961,0.0842423,-0.000150878,-1.91832,-11.427,-6.9909,22.0389,2.52718,2.31283,-0.18749,-0.102315,-1.43042,-0.723997,3.32993,1.38751,0.421086,-0.177859
1278535,0.99,-1.54009,-0.525771,-0.0309032,-2.10036,0.0448914,1.57375,0.785717,-1.53788,-0.526958,-0.0341434,-2.09861,0.0498938,1.57487,0.785392,0.714749,-0.0634729,-0.739428,-0.0959985,1.05344,0.0875535,0.000391751,0.751816,-0.0767162,-0.811508,-0.0963645,1.14118,0.084986,-0.00015221,-2.21984,-11.4032,-7.06628,22.0389,2.63979,2.28079,-0.193899,-0.123498,-1.46968,-0.779376,3.34907,1.39701,0.427746,-0.17786
1278536,0.99,-1.53934,-0.525842,-0.0316736,-2.10046,0.0460128,1.57384,0.785705,-1.53712,-0.527035,-0.0349649,-2.09871,0.0510466,1.57496,0.785392,0.72701,-0.0631096,-0.743393,-0.098991,1.069,0.0864172,-0.00357048,0.76,-0.0775512,-0.821498,-0.0974135,1.15274,0.0857296,-0.000153542,-2.39837,-11.3279,-7.16546,22.0905,2.61781,2.2286,-0.0904444,-0.156443,-1.50769,-0.851341,3.36994,1.40615,0.434611,-0.177944
1278537,0.99,-1.53861,-0.525906,-0.0324641,-2.10056,0.0471247,1.57393,0.785709,-1.53636,-0.527113,-0.0357963,-2.09881,0.0522109,1.57505,0.785391,0.735768,-0.0598303,-0.748698,-0.0998704,1.08779,0.0842168,-0.00119353,0.768183,-0.0783863,-0.831488,-0.0984624,1.16431,0.0864733,-0.000154874,-2.37059,-11.3755,-7.24481,22.0905,2.61141,2.20938,-0.122488,-0.202488,-1.54862,-0.941192,3.39419,1.41483,0.441869,-0.178048
1278538,0.99,-1.53785,-0.52597,-0.0332578,-2.10065,0.0482767,1.57401,0.785705,-1.53558,-0.527193,-0.0366378,-2.09891,0.0533867,1.57513,0.785391,0.741774,-0.0621244,-0.75744,-0.0953194,1.11352,0.0856711,-0.00103304,0.776367,-0.0792213,-0.841478,-0.0995113,1.17587,0.0872169,-0.000156206,-2.32299,-11.3755,-7.39557,21.9635,2.56655,2.23593,-0.116079,-0.258687,-1.59379,-1.045,3.42031,1.42301,0.44928,-0.178102
1278539,0.99,-1.53709,-0.526037,-0.034056,-2.10076,0.0494318,1.57409,0.785706,-1.5348,-0.527273,-0.0374889,-2.09901,0.054573,1.57522,0.785391,0.746037,-0.0630614,-0.772648,-0.101616,1.12549,0.0832495,2.33805e-05,0.783918,-0.0799919,-0.851122,-0.100479,1.1863,0.0878854,-0.000157403,-2.21984,-11.4032,-7.37176,22.0151,2.57204,2.2286,-0.135305,-0.316052,-1.63763,-1.15008,3.44412,1.4309,0.456366,-0.178106
1278540,0.99,-1.53632,-0.526106,-0.0348753,-2.10087,0.0505847,1.57418,0.785709,-1.534,-0.527353,-0.0383497,-2.09911,0.0557698,1.57531,0.785391,0.752566,-0.0682772,-0.783593,-0.10537,1.13408,0.0862231,0.000998931,0.791469,-0.0807624,-0.860766,-0.101447,1.19673,0.0885539,-0.0001586,-2.21984,-11.3755,-7.34399,22.0389,2.62331,2.22219,-0.161856,-0.364871,-1.67635,-1.2426,3.46574,1.43893,0.463183,-0.178094
1278541,0.99,-1.53553,-0.526174,-0.0357206,-2.10098,0.0517634,1.57425,0.785709,-1.53321,-0.527435,-0.0392201,-2.09921,0.0569769,1.5754,0.785391,0.75563,-0.0684798,-0.81055,-0.105971,1.13977,0.0856741,-0.00031739,0.79902,-0.0815329,-0.87041,-0.102415,1.20716,0.0892223,-0.000159798,-2.27141,-11.3755,-7.16546,22.0905,2.59493,2.2936,-0.135305,-0.395955,-1.70747,-1.30903,3.48556,1.44761,0.469741,-0.178122
1278542,0.99,-1.53476,-0.526243,-0.0365641,-2.10108,0.0529346,1.57433,0.785714,-1.5324,-0.527517,-0.0401002,-2.09932,0.0581945,1.57549,0.785391,0.771568,-0.0651544,-0.814878,-0.104057,1.17646,0.0818649,0.00100911,0.806571,-0.0823034,-0.880055,-0.103383,1.21759,0.0898908,-0.000160995,-2.06908,-11.3755,-6.96313,22.0389,2.68556,2.33206,-0.168264,-0.406187,-1.73355,-1.34376,3.50319,1.45703,0.475932,-0.178243
1278543,0.99,-1.53398,-0.526314,-0.0374248,-2.10119,0.0541272,1.57442,0.785706,-1.53158,-0.5276,-0.0409899,-2.09942,0.0594226,1.57558,0.78539,0.774955,-0.0672386,-0.827249,-0.108031,1.1791,0.0800729,-0.00197212,0.814122,-0.0830739,-0.889699,-0.104351,1.22802,0.0905592,-0.000162192,-1.91832,-11.3279,-6.83618,22.0905,2.68556,2.34487,-0.0968531,-0.403746,-1.76062,-1.35824,3.52019,1.46675,0.482008,-0.178439
1278544,0.99,-1.53319,-0.526388,-0.0382861,-2.1013,0.055333,1.5745,0.785709,-1.53076,-0.527684,-0.0418892,-2.09953,0.060661,1.57567,0.78539,0.770352,-0.0682346,-0.829238,-0.104986,1.1817,0.0842565,0.000618035,0.821673,-0.0838445,-0.899343,-0.105318,1.23845,0.0912277,-0.000163389,-1.64061,-11.3001,-6.71319,22.0151,2.77529,2.33206,-0.149038,-0.393389,-1.78781,-1.36148,3.53623,1.47672,0.48802,-0.178655
1278545,0.99,-1.53238,-0.526461,-0.0391841,-2.10141,0.0565225,1.57459,0.785702,-1.52993,-0.527769,-0.0427982,-2.09963,0.0619099,1.57576,0.78539,0.783083,-0.071411,-0.843111,-0.108274,1.18119,0.0822665,-0.00152076,0.829224,-0.084615,-0.908987,-0.106286,1.24889,0.0918962,-0.000164586,-1.61681,-11.3001,-6.40771,22.0627,2.84944,2.31924,-0.0968531,-0.375145,-1.80985,-1.35581,3.54879,1.48715,0.493702,-0.178831
1278546,0.99,-1.53158,-0.526536,-0.0400685,-2.10152,0.0577456,1.57467,0.785716,-1.5291,-0.527854,-0.0437168,-2.09974,0.0631692,1.57586,0.78539,0.785885,-0.071329,-0.84949,-0.111119,1.18218,0.0825205,0.00258045,0.836775,-0.0853855,-0.918631,-0.107254,1.25932,0.0925646,-0.000165784,-1.61681,-11.2763,-6.25696,22.1143,2.82656,2.26797,-0.193899,-0.351539,-1.8261,-1.34485,3.55873,1.49819,0.499169,-0.178912
1278547,0.99,-1.53076,-0.526614,-0.0409759,-2.10164,0.058977,1.57476,0.78572,-1.52825,-0.52794,-0.0446451,-2.09985,0.064439,1.57595,0.78539,0.789163,-0.072321,-0.860705,-0.112587,1.21363,0.0819571,0.0029071,0.844327,-0.086156,-0.928276,-0.108222,1.26975,0.0932331,-0.000166981,-1.66442,-11.2009,-6.13,22.1381,2.79817,2.2286,-0.225942,-0.32368,-1.84019,-1.32964,3.56894,1.50989,0.504702,-0.178917
1278548,0.99,-1.52994,-0.526686,-0.0418837,-2.10175,0.0602045,1.57485,0.785726,-1.5274,-0.528027,-0.045583,-2.09996,0.0657191,1.57604,0.78539,0.797994,-0.0747514,-0.87285,-0.108157,1.21613,0.0866167,0.00387085,0.851878,-0.0869265,-0.93792,-0.10919,1.28018,0.0939016,-0.000168178,-1.71599,-11.2009,-6.20538,22.0627,2.79817,2.17733,-0.278127,-0.291175,-1.85072,-1.30879,3.57737,1.52209,0.509978,-0.178977
1278549,0.99,-1.52908,-0.526757,-0.0427911,-2.10186,0.0614622,1.57494,0.785731,-1.52654,-0.528115,-0.04653,-2.10007,0.0670086,1.57614,0.785389,0.808155,-0.0754123,-0.890377,-0.109961,1.21912,0.0820997,0.00424208,0.858706,-0.0876234,-0.946942,-0.110065,1.28943,0.0944932,-0.000169238,-1.9937,-11.2525,-6.35614,22.0627,2.69655,2.20938,-0.322988,-0.253522,-1.85351,-1.27964,3.58028,1.53464,0.514433,-0.179238
1278550,0.99,-1.52823,-0.526835,-0.0437135,-2.10197,0.06272,1.57502,0.785731,-1.52568,-0.528203,-0.0474859,-2.10018,0.0683072,1.57623,0.785389,0.819439,-0.0780487,-0.896837,-0.108909,1.22741,0.0818836,0.00164126,0.865535,-0.0883202,-0.955964,-0.110941,1.29868,0.0950848,-0.000170297,-2.27141,-11.2247,-6.55847,21.9635,2.65169,2.2936,-0.290945,-0.212849,-1.8486,-1.24354,3.57783,1.54738,0.518013,-0.17981
1278551,0.99,-1.52735,-0.526911,-0.0446449,-2.10208,0.0639922,1.57509,0.785723,-1.5248,-0.528292,-0.0484509,-2.10029,0.0696152,1.57633,0.785389,0.843402,-0.0757291,-0.911747,-0.109828,1.23623,0.080752,-0.00178805,0.872364,-0.089017,-0.964986,-0.111816,1.30793,0.0956764,-0.000171357,-2.69988,-11.2247,-6.81238,21.9159,2.66817,2.40896,-0.213125,-0.177215,-1.83965,-1.21045,3.57233,1.55982,0.521024,-0.180737
1278552,0.99,-1.52646,-0.526992,-0.0455692,-2.10221,0.0652857,1.57517,0.785721,-1.52392,-0.528382,-0.0494249,-2.1004,0.0709324,1.57642,0.785389,0.854045,-0.0745234,-0.915088,-0.113011,1.24692,0.0832814,-0.00119203,0.879193,-0.0897138,-0.974008,-0.112691,1.31718,0.096268,-0.000172416,-2.92601,-11.2009,-7.01471,21.9873,2.73042,2.44192,-0.213125,-0.156077,-1.8352,-1.19233,3.56831,1.57143,0.524055,-0.181946
1278553,0.99,-1.52558,-0.527065,-0.0465093,-2.10233,0.066561,1.57527,0.785712,-1.52304,-0.528472,-0.050408,-2.10052,0.0722588,1.57652,0.785389,0.868874,-0.0755638,-0.916721,-0.11518,1.26059,0.0848878,-0.00316828,0.886022,-0.0904107,-0.983029,-0.113566,1.32643,0.0968596,-0.000173476,-3.15215,-11.2247,-7.24481,22.0627,2.77529,2.35769,-0.149038,-0.156586,-1.84147,-1.19988,3.56984,1.58192,0.527742,-0.183283
1278554,0.99,-1.52469,-0.527148,-0.0474656,-2.10245,0.0678743,1.57536,0.785708,-1.52215,-0.528563,-0.0514,-2.10063,0.0735945,1.57662,0.785389,0.874306,-0.0780014,-0.93023,-0.11727,1.2689,0.0863324,-0.013443,0.892851,-0.0911075,-0.992051,-0.114442,1.33568,0.0974513,-0.000174536,-3.2791,-11.2009,-7.26861,22.0389,2.79268,2.25515,-0.10967,-0.179084,-1.85572,-1.23499,3.57649,1.59134,0.532237,-0.184609
1278555,0.99,-1.5238,-0.527226,-0.0484326,-2.10257,0.0691957,1.57545,0.785698,-1.52125,-0.528655,-0.0524011,-2.10075,0.0749394,1.57672,0.785388,0.900291,-0.0786695,-0.936998,-0.118362,1.29532,0.086925,-0.0131417,0.89968,-0.0918043,-1.00107,-0.115317,1.34494,0.0980429,-0.000175595,-3.40606,-11.2247,-7.26861,22.1143,2.63979,2.2872,-0.0190333,-0.219686,-1.87279,-1.29183,3.58591,1.59991,0.53732,-0.185803
1278556,0.99,-1.52289,-0.52731,-0.0494183,-2.10269,0.0705273,1.57552,0.785691,-1.52034,-0.528748,-0.0534112,-2.10086,0.0762936,1.57682,0.785388,0.904527,-0.0803354,-0.944903,-0.118339,1.30274,0.0850325,-0.0103276,0.906509,-0.0925011,-1.0101,-0.116192,1.35419,0.0986345,-0.000176655,-3.42986,-11.2009,-7.16546,22.0389,2.65169,2.38973,0.00660151,-0.277673,-1.88966,-1.36875,3.59611,1.60754,0.542695,-0.186705
1278557,0.99,-1.52198,-0.527394,-0.0504002,-2.10281,0.0718729,1.5756,0.785682,-1.51943,-0.528841,-0.0544303,-2.10098,0.077657,1.57691,0.785388,0.901611,-0.0847962,-0.952854,-0.120585,1.3083,0.0803729,-0.0102301,0.913337,-0.093198,-1.01912,-0.117068,1.36344,0.0992261,-0.000177714,-3.2791,-11.1771,-6.9909,22.0389,2.67916,2.45474,0.0844213,-0.345482,-1.90201,-1.45665,3.60493,1.61446,0.548107,-0.187168
1278558,0.99,-1.52109,-0.527488,-0.0514006,-2.10293,0.0732038,1.57568,0.785679,-1.51851,-0.528935,-0.0554584,-2.1011,0.0790297,1.57701,0.785388,0.900362,-0.087397,-0.959343,-0.121931,1.3021,0.0815447,-0.00811658,0.920166,-0.0938948,-1.02814,-0.117943,1.37269,0.0998177,-0.000178774,-3.07677,-11.0224,-6.81238,22.0389,2.71395,2.52523,0.110056,-0.409882,-1.90483,-1.53964,3.61068,1.62128,0.553435,-0.187072
1278559,0.99,-1.52016,-0.527574,-0.0524206,-2.10306,0.0745653,1.57577,0.785672,-1.51758,-0.529029,-0.0564947,-2.10122,0.0804105,1.57711,0.785388,0.903006,-0.0872029,-0.989177,-0.123716,1.30569,0.0802883,-0.00689207,0.926202,-0.0945107,-1.03632,-0.118717,1.38074,0.100331,-0.000179694,-3.00139,-10.9748,-6.68542,22.0627,2.69106,2.53164,0.143015,-0.457776,-1.89902,-1.59958,3.61393,1.6287,0.55871,-0.18633
1278560,0.99,-1.51922,-0.52766,-0.053413,-2.10318,0.0759105,1.57585,0.785662,-1.51665,-0.529125,-0.0575393,-2.10134,0.0817992,1.57722,0.785388,0.910035,-0.0892463,-0.989501,-0.125677,1.34387,0.0788708,-0.0114408,0.932238,-0.0951266,-1.0445,-0.11949,1.38878,0.100845,-0.000180614,-3.00139,-10.9748,-6.78857,22.1143,2.71395,2.54446,0.194285,-0.482193,-1.8894,-1.62508,3.61656,1.637,0.564162,-0.184907
1278561,0.99,-1.51828,-0.527748,-0.0544243,-2.10332,0.0772874,1.57593,0.785658,-1.51571,-0.52922,-0.0585919,-2.10146,0.0831961,1.57732,0.785387,0.920226,-0.0909501,-0.985969,-0.129755,1.34478,0.0766251,-0.00793224,0.938274,-0.0957425,-1.05268,-0.120264,1.39683,0.101359,-0.000181534,-3.07677,-10.9748,-6.96313,22.2889,2.7643,2.58932,0.187876,-0.495851,-1.87888,-1.63488,3.62032,1.64546,0.570244,-0.182702
1278562,0.99,-1.51732,-0.527829,-0.0554319,-2.10344,0.0786725,1.57602,0.78567,-1.51477,-0.529317,-0.0596528,-2.10158,0.0846009,1.57742,0.785387,0.933826,-0.0904446,-0.989807,-0.124973,1.35018,0.078443,6.94504e-05,0.94431,-0.0963584,-1.06086,-0.121037,1.40487,0.101873,-0.000182455,-3.17992,-11.0501,-7.09009,22.2611,2.81557,2.53805,0.0322363,-0.517547,-1.86859,-1.65738,3.62545,1.6533,0.577114,-0.179574
1278563,0.99,-1.51636,-0.527913,-0.0564468,-2.10357,0.0800539,1.57611,0.785677,-1.51381,-0.529414,-0.0607218,-2.1017,0.0860139,1.57752,0.785387,0.94292,-0.0868996,-0.99323,-0.125029,1.36117,0.0854745,0.00357284,0.950345,-0.0969743,-1.06905,-0.121811,1.41292,0.102387,-0.000183375,-3.30687,-11.1255,-7.29242,22.2611,2.81008,2.44833,-0.0712183,-0.555171,-1.86157,-1.7039,3.6308,1.6603,0.584417,-0.17557
1278564,0.99,-1.51539,-0.527993,-0.0574649,-2.1037,0.0814525,1.5762,0.785681,-1.51286,-0.529511,-0.0617991,-2.10182,0.0874348,1.57762,0.785387,0.949729,-0.0873005,-1.00135,-0.128826,1.37692,0.0877626,0.00503527,0.956381,-0.0975902,-1.07723,-0.122585,1.42096,0.1029,-0.000184295,-3.42986,-11.2247,-7.41937,22.2889,2.82106,2.44192,-0.149038,-0.607401,-1.86364,-1.77213,3.63803,1.66665,0.591957,-0.171006
1278565,0.99,-1.51442,-0.528078,-0.058505,-2.10384,0.0828606,1.5763,0.785683,-1.5119,-0.529609,-0.0628845,-2.10194,0.0888638,1.57773,0.785387,0.952131,-0.0880828,-1.00935,-0.132691,1.40344,0.0894325,0.00437202,0.962417,-0.0982061,-1.08541,-0.123358,1.42901,0.103414,-0.000185215,-3.48143,-11.3001,-7.49475,22.3603,2.83205,2.43551,-0.181082,-0.667367,-1.87728,-1.85211,3.65012,1.67274,0.599839,-0.166337
1278566,0.99,-1.51345,-0.528171,-0.0595682,-2.10397,0.0842579,1.57639,0.785685,-1.51093,-0.529708,-0.0639781,-2.10207,0.0903009,1.57783,0.785386,0.953356,-0.0889332,-1.0171,-0.130325,1.40437,0.0891109,0.0025486,0.968453,-0.098822,-1.09359,-0.124132,1.43705,0.103928,-0.000186135,-3.48143,-11.2247,-7.41937,22.3365,2.88332,2.47396,-0.174673,-0.726771,-1.89878,-1.93234,3.66627,1.67895,0.607887,-0.161976
1278567,0.99,-1.51248,-0.528265,-0.0606287,-2.1041,0.0856716,1.57648,0.785679,-1.50995,-0.529808,-0.0650798,-2.10219,0.091746,1.57794,0.785386,0.959613,-0.0934388,-1.03677,-0.133251,1.39663,0.0893625,-0.000567613,0.974489,-0.0994379,-1.10177,-0.124906,1.4451,0.104442,-0.000187055,-3.20372,-11.1255,-7.32019,22.388,2.94008,2.4996,-0.116079,-0.776929,-1.92054,-2.00035,3.68259,1.68573,0.61562,-0.158183
1278568,0.99,-1.51152,-0.528361,-0.0617143,-2.10424,0.0871004,1.57658,0.785676,-1.50897,-0.529908,-0.0661898,-2.10232,0.0931991,1.57804,0.785386,0.964925,-0.0930927,-1.04943,-0.13576,1.40362,0.0915677,-0.00163761,0.980524,-0.100054,-1.10995,-0.125679,1.45314,0.104955,-0.000187975,-3.05297,-11.0224,-7.11786,22.4634,2.88332,2.48037,-0.0840357,-0.810506,-1.93789,-2.04439,3.6977,1.6936,0.622855,-0.155052
1278569,0.99,-1.51053,-0.52845,-0.0628297,-2.10438,0.0885504,1.57668,0.785672,-1.50799,-0.530008,-0.0673069,-2.10245,0.0946591,1.57815,0.785386,0.970205,-0.0902366,-1.05561,-0.137681,1.41928,0.0997836,-0.0013834,0.985712,-0.100583,-1.11712,-0.126344,1.45997,0.105391,-0.000188755,-2.90221,-11.0224,-6.63385,22.4118,2.84395,2.40255,-0.077627,-0.827862,-1.95578,-2.06455,3.71445,1.70265,0.629808,-0.15252
1278570,0.99,-1.50956,-0.528542,-0.0639287,-2.10451,0.0900179,1.57679,0.78567,-1.507,-0.530109,-0.0684312,-2.10257,0.0961259,1.57825,0.785386,0.963086,-0.0880508,-1.06166,-0.137477,1.42445,0.0987119,-0.00120035,0.990899,-0.101112,-1.12429,-0.127009,1.46679,0.105826,-0.000189535,-2.44597,-11.0224,-6.28076,22.4118,2.80367,2.38333,-0.0712183,-0.832825,-1.982,-2.06775,3.73561,1.71263,0.636606,-0.150452
1278571,0.99,-1.50862,-0.52863,-0.0650464,-2.10465,0.0914707,1.57688,0.785663,-1.506,-0.530211,-0.0695627,-2.1027,0.0975995,1.57836,0.785385,0.956914,-0.0889174,-1.07754,-0.136871,1.43283,0.0945085,-0.00300092,0.996086,-0.101642,-1.13146,-0.127674,1.47361,0.106261,-0.000190314,-1.84295,-11.0501,-5.8999,22.388,2.77529,2.46115,-0.0126246,-0.821513,-2.017,-2.0503,3.76039,1.72348,0.643074,-0.148752
1278572,0.99,-1.50764,-0.528715,-0.0661783,-2.10478,0.0929193,1.57698,0.78566,-1.505,-0.530313,-0.0707013,-2.10283,0.0990799,1.57847,0.785385,0.963524,-0.0884951,-1.09577,-0.136621,1.41846,0.0921034,-0.00297296,1.00127,-0.102171,-1.13863,-0.128339,1.48044,0.106697,-0.000191094,-1.56524,-11.1493,-5.39605,22.2373,2.94557,2.52523,0.0130102,-0.786406,-2.05582,-2.00156,3.78607,1.73531,0.648974,-0.147331
1278573,0.99,-1.50667,-0.528809,-0.0673312,-2.10491,0.094373,1.57708,0.785644,-1.50399,-0.530416,-0.0718471,-2.10296,0.100567,1.57857,0.785385,0.970431,-0.0900318,-1.10324,-0.136594,1.42129,0.0907677,-0.00630552,1.00646,-0.1027,-1.1458,-0.129004,1.48726,0.107132,-0.000191874,-1.28753,-11.1771,-5.01519,22.2135,3.00783,2.58291,0.129282,-0.729152,-2.09449,-1.92278,3.81089,1.74796,0.654315,-0.14601
1278574,0.99,-1.50568,-0.528905,-0.0684752,-2.10506,0.0958399,1.57718,0.785641,-1.50298,-0.530519,-0.0730001,-2.10309,0.102061,1.57868,0.785385,0.975472,-0.0926484,-1.11342,-0.138401,1.42738,0.0920117,-0.00496255,1.01165,-0.10323,-1.15297,-0.129669,1.49408,0.107567,-0.000192653,-1.16057,-11.1493,-4.99139,22.2611,3.07558,2.58291,0.149424,-0.659025,-2.12902,-1.82693,3.83325,1.76107,0.659302,-0.144561
1278575,1,-1.50467,-0.529004,-0.0696119,-2.1052,0.0973235,1.57729,0.785627,-1.50196,-0.530623,-0.0741602,-2.10322,0.103562,1.57879,0.785385,0.980159,-0.0941275,-1.11407,-0.138865,1.4326,0.100038,-0.00691233,1.01684,-0.103759,-1.16014,-0.130334,1.50091,0.108002,-0.000193433,-1.3629,-11.1255,-5.11834,22.2889,3.14882,2.51242,0.24647,-0.585139,-2.15567,-1.72787,3.85164,1.77432,0.66408,-0.142752
1278576,1,-1.50365,-0.529095,-0.0707524,-2.10534,0.0987772,1.5774,0.785634,-1.50094,-0.530727,-0.0753275,-2.10335,0.10507,1.5789,0.785385,0.99106,-0.0930394,-1.11076,-0.137766,1.43411,0.105878,-0.00426009,1.02202,-0.104288,-1.16731,-0.130998,1.50773,0.108438,-0.000194212,-1.7398,-11.1771,-5.41986,22.2611,3.28432,2.44192,0.110056,-0.519162,-2.17488,-1.64353,3.86556,1.78735,0.668659,-0.140333
