shamilmamedov/beam_handling/log/param_estimation_ICRA/ocp_Xup_15cm_0.35s_1.csv
duration, success rate, q[0], q[1], q[2], q[3], q[4], q[5], q[6],q_d[0], q_d[1], q_d[2], q_d[3], q_d[4], q_d[5], q_d[6],dq[0], dq[1], dq[2], dq[3], dq[4], dq[5], dq[6],dq_d[0], dq_d[1], dq_d[2], dq_d[3], dq_d[4], dq_d[5], dq_d[6],tau_J[0], tau_J[1], tau_J[2], tau_J[3], tau_J[4], tau_J[5], tau_J[6],tau_ext_hat_filtered[0], tau_ext_hat_filtered[1], tau_ext_hat_filtered[2], tau_ext_hat_filtered[3], tau_ext_hat_filtered[4], tau_ext_hat_filtered[5], tau_ext_hat_filtered[6]
3992625,0,-1.57045,-0.522898,-5.75718e-05,-2.09588,1.57057,1.57178,0.785025,-1.5708,-0.523599,4.38883e-08,-2.09439,1.5708,1.5708,0.785397,4.26068e-05,0.000322708,0.000633602,0.000663208,-0.000139823,0.000227578,0.000115424,0,0,0,0,0,0,0,-0.430592,-10.213,-0.409177,20.8963,0.836199,-0.75327,0.122873,-0.424048,-1.07009,0.00347004,2.40226,0.268494,-0.747276,0.174664
3992626,1,-1.57045,-0.5229,-5.75721e-05,-2.09589,1.57057,1.57178,0.785022,-1.5708,-0.523599,4.38883e-08,-2.09439,1.5708,1.5708,0.785397,0.000585216,-0.000341673,0.000422401,-0.00187791,-0.000296666,-8.56399e-05,-0.000906395,0,0,0,0,0,0,0,-0.454395,-10.1892,-0.409177,20.9955,0.841692,-0.746862,0.149424,-0.425269,-1.06985,0.00158316,2.4019,0.268562,-0.747052,0.174617
3992627,1,-1.57045,-0.522898,-5.75722e-05,-2.09588,1.57057,1.57178,0.785023,-1.5708,-0.523599,4.38883e-08,-2.09439,1.5708,1.5708,0.785397,-0.000816282,0.00032903,0.000281601,0.00106811,0.000209124,-5.70933e-05,-0.000366904,0,0,0,0,0,0,0,-0.402821,-10.213,-0.409177,20.8963,0.830705,-0.746862,0.143015,-0.426576,-1.07096,-0.000472869,2.4028,0.26869,-0.746838,0.174572
3992628,1,-1.57045,-0.522898,-5.95211e-05,-2.09588,1.57057,1.57178,0.785028,-1.5708,-0.523599,4.38883e-08,-2.09439,1.5708,1.5708,0.785397,-0.000544188,0.000219353,-0.00046188,0.000155261,-0.000267485,-3.80622e-05,0.00145082,0,0,0,0,0,0,0,-0.402821,-10.213,-0.381406,20.9201,0.841692,-0.746862,0.0972387,-0.427052,-1.07233,-0.00133068,2.40367,0.268793,-0.746761,0.174554
3992629,1,-1.57045,-0.522896,-5.75722e-05,-2.09588,1.57057,1.57178,0.785021,-1.5708,-0.523599,4.38883e-08,-2.09439,1.5708,1.5708,0.785397,0.000286822,0.000795849,0.000341694,0.000103507,2.51272e-05,0.000211984,-0.00144029,0,0,0,0,0,0,0,-0.430592,-10.2408,-0.409177,20.9201,0.836199,-0.75327,0.162241,-0.426765,-1.07422,-0.00105151,2.40445,0.268867,-0.746812,0.174561
3992630,1,-1.57045,-0.522896,-5.75723e-05,-2.09589,1.57057,1.57178,0.78502,-1.5708,-0.523599,4.38883e-08,-2.09439,1.5708,1.5708,0.785397,-0.000458399,-0.000119048,0.000227796,-0.00113742,-0.000186699,-9.60362e-05,-0.00119755,0,0,0,0,0,0,0,-0.402821,-10.213,-0.409177,20.9717,0.841692,-0.746862,0.16865,-0.426524,-1.07716,-0.000860362,2.40589,0.268978,-0.746868,0.174575
3992631,1,-1.57045,-0.522897,-5.75723e-05,-2.09588,1.57057,1.57178,0.785027,-1.5708,-0.523599,4.38883e-08,-2.09439,1.5708,1.5708,0.785397,0.000344014,-7.93651e-05,0.000151864,0.00100496,7.89845e-05,-6.40241e-05,0.00160913,0,0,0,0,0,0,0,-0.430592,-10.213,-0.409177,20.8963,0.836199,-0.746862,0.103647,-0.426501,-1.07966,-0.00103925,2.4073,0.269109,-0.746883,0.174625
3992632,1,-1.57045,-0.522899,-5.75723e-05,-2.09588,1.57058,1.57178,0.785024,-1.5708,-0.523599,4.38883e-08,-2.09439,1.5708,1.5708,0.785397,0.000229343,-0.000609722,0.000101243,0.000669971,0.000459557,0.000194676,0.000123319,0,0,0,0,0,0,0,-0.430592,-10.1892,-0.409177,20.8963,0.825212,-0.75327,0.129282,-0.42667,-1.07969,-0.00147339,2.40715,0.269192,-0.746845,0.174732
3992633,0.99,-1.57045,-0.522896,-5.95211e-05,-2.09589,1.57057,1.57177,0.785021,-1.5708,-0.523599,4.38883e-08,-2.09439,1.5708,1.5708,0.785397,-0.00105353,0.000799945,-0.000582119,-0.000666976,-0.000100529,-0.000616201,-0.00113849,0,0,0,0,0,0,0,-0.379017,-10.2408,-0.381406,20.9439,0.836199,-0.733129,0.162241,-0.426525,-1.07863,-0.00142707,2.40619,0.269232,-0.74684,0.174859
3992634,0.99,-1.57045,-0.522896,-5.59018e-05,-2.09589,1.57057,1.57178,0.785023,-1.5708,-0.523599,4.38883e-08,-2.09439,1.5708,1.5708,0.785397,-0.000145542,0.000533296,0.000818347,-0.000444651,-0.00027047,-0.000139533,-4.6917e-05,0,0,0,0,0,0,0,-0.402821,-10.2408,-0.432981,20.9439,0.841692,-0.740453,0.143015,-0.425813,-1.07965,-0.000663837,2.40648,0.269298,-0.746931,0.174989
3992635,0.99,-1.57045,-0.522896,-5.59018e-05,-2.09589,1.57057,1.57178,0.785026,-1.5708,-0.523599,4.38883e-08,-2.09439,1.5708,1.5708,0.785397,0.000552586,0.000355531,0.000545564,-0.000946048,0.000226588,0.000381696,0.00118943,0,0,0,0,0,0,0,-0.430592,-10.2408,-0.432981,20.9717,0.830705,-0.75327,0.110056,-0.425569,-1.08281,-0.000767441,2.40816,0.269432,-0.746954,0.175145
3992636,0.99,-1.57045,-0.522896,-5.95211e-05,-2.09589,1.57057,1.57178,0.78502,-1.5708,-0.523599,4.38883e-08,-2.09439,1.5708,1.5708,0.785397,-0.000281223,0.000237021,-0.000842716,-0.000630699,-5.23921e-05,0.000254464,-0.00137719,0,0,0,0,0,0,0,-0.402821,-10.2408,-0.381406,20.9717,0.836199,-0.75327,0.16865,-0.425703,-1.08653,-0.0014825,2.4104,0.269598,-0.74691,0.175321
3992637,0.99,-1.57045,-0.522898,-5.75723e-05,-2.09588,1.57057,1.57178,0.785026,-1.5708,-0.523599,4.38883e-08,-2.09439,1.5708,1.5708,0.785397,0.000462132,-0.0004916,8.78031e-05,0.00134277,-0.000238379,-6.77164e-05,0.00101465,0,0,0,0,0,0,0,-0.430592,-10.213,-0.409177,20.8963,0.841692,-0.746862,0.116465,-0.42538,-1.0887,-0.00145536,2.41166,0.269703,-0.746915,0.175505
3992638,0.99,-1.57045,-0.522896,-5.95211e-05,-2.09588,1.57057,1.57178,0.785028,-1.5708,-0.523599,4.38883e-08,-2.09439,1.5708,1.5708,0.785397,0.000308088,0.00032188,-0.000591079,0.000895181,-0.000158919,-0.000282503,0.00138851,0,0,0,0,0,0,0,-0.430592,-10.2408,-0.381406,20.8963,0.841692,-0.740453,0.0972387,-0.424916,-1.08793,-0.00110597,2.41074,0.26971,-0.746918,0.175706
3992639,0.99,-1.57045,-0.522896,-6.11915e-05,-2.09589,1.57057,1.57178,0.785026,-1.5708,-0.523599,4.38883e-08,-2.09439,1.5708,1.5708,0.785397,0.000762204,0.000214587,-0.000950864,-0.000516836,9.75045e-05,-0.000188335,0.000213598,0,0,0,0,0,0,0,-0.454395,-10.2408,-0.357602,20.9439,0.836199,-0.740453,0.116465,-0.424399,-1.08635,-0.000497861,2.40901,0.269679,-0.746924,0.175892
3992640,0.99,-1.57045,-0.522899,-5.95211e-05,-2.09589,1.57057,1.57178,0.785024,-1.5708,-0.523599,4.38883e-08,-2.09439,1.5708,1.5708,0.785397,0.000508136,-0.00162018,-7.70976e-05,-0.000994171,0.000268454,0.000111802,-0.000332319,0,0,0,0,0,0,0,-0.454395,-10.1654,-0.381406,20.9717,0.830705,-0.746862,0.129282,-0.423866,-1.0848,0.000332998,2.40775,0.269672,-0.746923,0.176014
3992641,0.99,-1.57045,-0.522895,-6.11915e-05,-2.09588,1.57057,1.57178,0.785026,-1.5708,-0.523599,4.38883e-08,-2.09439,1.5708,1.5708,0.785397,0.000338757,0.000683118,-0.00060821,0.00110046,0.000178969,0.000311894,0.000490531,0,0,0,0,0,0,0,-0.454395,-10.2408,-0.357602,20.8963,0.830705,-0.75327,0.110056,-0.423574,-1.08229,0.00096103,2.4064,0.269678,-0.746873,0.176068
3992642,0.99,-1.57045,-0.522898,-5.95211e-05,-2.09589,1.57057,1.57178,0.785029,-1.5708,-0.523599,4.38883e-08,-2.09439,1.5708,1.5708,0.785397,-0.000980588,-0.000194202,0.000151338,0.000176826,0.000119313,0.000207929,0.0010391,0,0,0,0,0,0,0,-0.402821,-10.213,-0.381406,20.9201,0.830705,-0.75327,0.09083,-0.423187,-1.07998,0.00180467,2.40482,0.269668,-0.746859,0.176069
3992643,0.99,-1.57045,-0.522896,-5.59018e-05,-2.09589,1.57057,1.57178,0.785022,-1.5708,-0.523599,4.38883e-08,-2.09439,1.5708,1.5708,0.785397,-4.1112e-06,0.000520146,0.00130732,0.000117884,-0.00053081,0.000138619,-0.00242684,0,0,0,0,0,0,0,-0.430592,-10.2408,-0.432981,20.9201,0.847185,-0.75327,0.175059,-0.422996,-1.07889,0.00225006,2.4036,0.269679,-0.746852,0.176008
3992644,0.99,-1.57045,-0.5229,-5.75723e-05,-2.09588,1.57057,1.57178,0.785026,-1.5708,-0.523599,4.38883e-08,-2.09439,1.5708,1.5708,0.785397,-0.00120917,-0.000859662,0.000314733,0.000635401,5.30279e-05,-0.000382305,0.000314885,0,0,0,0,0,0,0,-0.379017,-10.1892,-0.409177,20.8963,0.836199,-0.740453,0.122873,-0.423421,-1.07809,0.00157973,2.40252,0.269728,-0.746773,0.1759
3992645,0.99,-1.57045,-0.522898,-5.95211e-05,-2.09589,1.57057,1.57178,0.785027,-1.5708,-0.523599,4.38883e-08,-2.09439,1.5708,1.5708,0.785397,-0.000249299,-1.6296e-05,-0.000439792,-0.000133211,3.53519e-05,-1.7511e-05,0.000922,0,0,0,0,0,0,0,-0.402821,-10.213,-0.381406,20.9201,0.836199,-0.746862,0.103647,-0.423604,-1.07649,0.00116669,2.40105,0.269762,-0.746724,0.175792
3992646,0.99,-1.57045,-0.5229,-5.75723e-05,-2.09589,1.57058,1.57178,0.785023,-1.5708,-0.523599,4.38883e-08,-2.09439,1.5708,1.5708,0.785397,0.00104023,-0.000567676,0.00035642,-8.88074e-05,0.000633919,-1.1674e-05,-0.000843395,0,0,0,0,0,0,0,-0.454395,-10.1892,-0.409177,20.9201,0.819719,-0.746862,0.143015,-0.423556,-1.07471,0.0011621,2.39966,0.269787,-0.7467,0.175691
3992647,0.99,-1.57045,-0.5229,-5.75723e-05,-2.09589,1.57057,1.57178,0.785021,-1.5708,-0.523599,4.38883e-08,-2.09439,1.5708,1.5708,0.785397,-0.000512942,-0.000378451,0.000237613,-0.000616017,-0.000187739,-7.78268e-06,-0.00103698,0,0,0,0,0,0,0,-0.402821,-10.1892,-0.409177,20.9439,0.836199,-0.746862,0.155832,-0.424003,-1.07329,0.000491882,2.39875,0.269837,-0.746596,0.175583
3992648,0.99,-1.57045,-0.522898,-5.75723e-05,-2.09589,1.57057,1.57178,0.785029,-1.5708,-0.523599,4.38883e-08,-2.09439,1.5708,1.5708,0.785397,-0.000341961,0.000304512,0.000158409,-0.00106029,-0.00032861,0.00023217,0.00171618,0,0,0,0,0,0,0,-0.402821,-10.213,-0.409177,20.9717,0.841692,-0.75327,0.09083,-0.42445,-1.0731,-0.000271566,2.39887,0.269916,-0.7465,0.17549
3992649,0.99,-1.57045,-0.5229,-5.75723e-05,-2.09589,1.57057,1.57178,0.785022,-1.5708,-0.523599,4.38883e-08,-2.09439,1.5708,1.5708,0.785397,0.00042164,-0.000353804,0.000105606,-5.72473e-05,-1.56225e-05,0.00015478,-0.00102602,0,0,0,0,0,0,0,-0.430592,-10.1892,-0.409177,20.9439,0.836199,-0.75327,0.149424,-0.424639,-1.07447,-0.000753418,2.40003,0.270013,-0.746464,0.175422
3992650,0.99,-1.57045,-0.522898,-5.54417e-05,-2.09589,1.57057,1.57178,0.785023,-1.5708,-0.523599,4.38883e-08,-2.09439,1.5708,1.5708,0.785397,0.000837905,0.000320942,7.04039e-05,-0.000687779,-1.0415e-05,-0.000134172,-0.00139609,0,0,0,0,0,0,0,-0.454395,-10.213,-0.409177,20.9717,0.836199,-0.746862,0.16865,-0.425072,-1.07627,-0.00155993,2.4014,0.270119,-0.746404,0.175363
3992651,0.99,-1.57045,-0.522898,-5.68621e-05,-2.09589,1.57057,1.57178,0.785027,-1.5708,-0.523599,4.38883e-08,-2.09439,1.5708,1.5708,0.785397,0.000558603,-0.00034285,4.69359e-05,0.000191095,-6.94334e-06,0.000147911,0.00123941,0,0,0,0,0,0,0,-0.454395,-10.1892,-0.409177,20.9439,0.836199,-0.75327,0.110056,-0.425887,-1.07796,-0.0028169,2.4026,0.270222,-0.7463,0.175333
3992652,0.99,-1.57045,-0.522901,-5.73355e-05,-2.09589,1.57057,1.57178,0.785026,-1.5708,-0.523599,4.38883e-08,-2.09439,1.5708,1.5708,0.785397,-0.00018441,-0.000785379,3.12906e-05,-0.000522217,0.000198822,-0.000376111,0.000588916,0,0,0,0,0,0,0,-0.430592,-10.1654,-0.409177,20.9717,0.830705,-0.740453,0.116465,-0.426674,-1.07842,-0.00396003,2.40313,0.270292,-0.746201,0.175354
3992653,0.99,-1.57045,-0.522896,-5.74933e-05,-2.09589,1.57058,1.57178,0.785021,-1.5708,-0.523599,4.38883e-08,-2.09439,1.5708,1.5708,0.785397,-0.000772554,0.00123965,2.08604e-05,0.000301469,0.000539449,-0.00025074,-0.00106545,0,0,0,0,0,0,0,-0.402821,-10.2408,-0.409177,20.9439,0.819719,-0.740453,0.155832,-0.426885,-1.07844,-0.00428556,2.40335,0.270324,-0.746193,0.175397
3992654,0.99,-1.57045,-0.522903,-5.3745e-05,-2.09589,1.57057,1.57178,0.785025,-1.5708,-0.523599,4.38883e-08,-2.09439,1.5708,1.5708,0.785397,0.000134578,-0.00158642,0.000570719,0.000200979,-0.00065762,7.01987e-05,0.000510402,0,0,0,0,0,0,0,-0.430592,-10.1377,-0.432981,20.9439,0.847185,-0.746862,0.122873,-0.426683,-1.07851,-0.00410089,2.40341,0.270325,-0.746245,0.175443
3992655,0.99,-1.57045,-0.522896,-5.88022e-05,-2.09589,1.57057,1.57178,0.785028,-1.5708,-0.523599,4.38883e-08,-2.09439,1.5708,1.5708,0.785397,-0.00111671,0.00135524,-0.000825947,0.000690798,-3.15123e-05,0.000284158,0.0012897,0,0,0,0,0,0,0,-0.379017,-10.2408,-0.381406,20.9201,0.836199,-0.75327,0.0972387,-0.426138,-1.07767,-0.00349533,2.40279,0.270278,-0.746335,0.175504
3992656,0.99,-1.57045,-0.522898,-5.73326e-05,-2.09589,1.57057,1.57178,0.785021,-1.5708,-0.523599,4.38883e-08,-2.09439,1.5708,1.5708,0.785397,0.00157558,0.00025388,9.89829e-05,-9.62798e-05,0.000182442,-4.79202e-05,-0.00131034,0,0,0,0,0,0,0,-0.478199,-10.213,-0.409177,20.9439,0.830705,-0.746862,0.155832,-0.425268,-1.0779,-0.00237373,2.40249,0.270222,-0.746484,0.175559
3992657,0.99,-1.57045,-0.522903,-5.74924e-05,-2.09589,1.57057,1.57178,0.785024,-1.5708,-0.523599,4.38883e-08,-2.09439,1.5708,1.5708,0.785397,-0.000712852,-0.00159398,6.59886e-05,-0.000713801,-8.18223e-05,-3.19468e-05,0.000109787,0,0,0,0,0,0,0,-0.402821,-10.1377,-0.409177,20.9717,0.836199,-0.746862,0.129282,-0.424821,-1.07837,-0.00180209,2.40256,0.270195,-0.746566,0.175589
3992658,0.99,-1.57045,-0.522898,-5.75456e-05,-2.09589,1.57057,1.57178,0.785026,-1.5708,-0.523599,4.38883e-08,-2.09439,1.5708,1.5708,0.785397,0.000174379,0.000700581,4.39924e-05,-0.000475867,0.000148902,-0.000258657,0.000547909,0,0,0,0,0,0,0,-0.430592,-10.213,-0.409177,20.9717,0.830705,-0.740453,0.116465,-0.424698,-1.07755,-0.00174397,2.40259,0.270184,-0.746574,0.175612
3992659,0.99,-1.57045,-0.522896,-5.75634e-05,-2.09589,1.57057,1.57178,0.785024,-1.5708,-0.523599,4.38883e-08,-2.09439,1.5708,1.5708,0.785397,-0.000533361,0.00111667,2.93283e-05,0.000889181,9.92682e-05,6.49211e-05,-0.000109445,0,0,0,0,0,0,0,-0.402821,-10.2408,-0.409177,20.9201,0.830705,-0.746862,0.129282,-0.424446,-1.07813,-0.00156921,2.40332,0.270192,-0.746612,0.175633
3992660,0.99,-1.57045,-0.522898,-5.75693e-05,-2.09589,1.57057,1.57178,0.785026,-1.5708,-0.523599,4.38883e-08,-2.09439,1.5708,1.5708,0.785397,-0.000912386,9.48315e-05,1.95522e-05,3.59755e-05,-0.000137272,0.00028064,0.000639113,0,0,0,0,0,0,0,-0.379017,-10.213,-0.409177,20.9439,0.836199,-0.75327,0.110056,-0.423874,-1.08038,-0.00102118,2.40443,0.270195,-0.746717,0.175643
3992661,0.99,-1.57045,-0.5229,-5.59008e-05,-2.09589,1.57057,1.57178,0.785025,-1.5708,-0.523599,4.38883e-08,-2.09439,1.5708,1.5708,0.785397,-5.14454e-05,-0.000493591,0.000569847,2.39837e-05,-9.15145e-05,-5.02658e-05,-4.86423e-05,0,0,0,0,0,0,0,-0.402821,-10.1892,-0.432981,20.9439,0.836199,-0.746862,0.122873,-0.423144,-1.08176,-0.000406622,2.40502,0.270176,-0.746826,0.175633
3992662,0.99,-1.57045,-0.522896,-5.95208e-05,-2.09589,1.57057,1.57178,0.785023,-1.5708,-0.523599,4.38883e-08,-2.09439,1.5708,1.5708,0.785397,0.00117213,0.000877365,-0.000826528,1.59891e-05,0.000142441,-0.00027087,-0.000778413,0,0,0,0,0,0,0,-0.454395,-10.2408,-0.381406,20.9439,0.830705,-0.740453,0.143015,-0.42285,-1.08219,-0.000451627,2.40528,0.27016,-0.746848,0.175595
3992663,0.99,-1.57045,-0.522896,-5.75721e-05,-2.09588,1.57058,1.57178,0.785025,-1.5708,-0.523599,4.38883e-08,-2.09439,1.5708,1.5708,0.785397,0.000781419,0.00058491,9.85952e-05,0.00112428,0.000298411,5.67793e-05,0.000227043,0,0,0,0,0,0,0,-0.454395,-10.2408,-0.409177,20.8963,0.825212,-0.746862,0.122873,-0.423086,-1.08316,-0.00107732,2.40561,0.270151,-0.746791,0.175538
3992664,0.99,-1.57045,-0.522894,-5.73905e-05,-2.09589,1.57057,1.57178,0.785026,-1.5708,-0.523599,4.38883e-08,-2.09439,1.5708,1.5708,0.785397,-0.00068548,0.00038994,-0.000583884,-0.000364102,-0.000411411,-0.000199506,0.00062608,0,0,0,0,0,0,0,-0.402821,-10.2408,-0.381406,20.9439,0.841692,-0.740453,0.110056,-0.423321,-1.0846,-0.00156742,2.4059,0.270128,-0.74674,0.17548
3992665,0.99,-1.57045,-0.522893,-5.30611e-05,-2.09588,1.57057,1.57178,0.78502,-1.5708,-0.523599,4.38883e-08,-2.09439,1.5708,1.5708,0.785397,0.000749439,0.00025996,0.00081717,0.000870889,-0.000274274,0.000104355,-0.00175275,0,0,0,0,0,0,0,-0.454395,-10.2408,-0.432981,20.8963,0.841692,-0.746862,0.16865,-0.423417,-1.08583,-0.00188028,2.40607,0.270099,-0.746702,0.175419
3992666,0.99,-1.57045,-0.522895,-5.66253e-05,-2.09589,1.57057,1.57178,0.785023,-1.5708,-0.523599,4.38883e-08,-2.09439,1.5708,1.5708,0.785397,-0.0007068,-0.000476307,-1.20319e-05,2.3781e-05,2.06013e-05,6.95699e-05,-0.000219066,0,0,0,0,0,0,0,-0.402821,-10.213,-0.409177,20.9201,0.836199,-0.746862,0.143015,-0.423793,-1.08589,-0.00267198,2.40566,0.270078,-0.746604,0.175363
3992667,0.99,-1.57045,-0.522899,-5.92055e-05,-2.09589,1.57058,1.57178,0.785027,-1.5708,-0.523599,4.38883e-08,-2.09439,1.5708,1.5708,0.785397,0.000178414,-0.00087435,-0.000657635,-0.000540958,0.000624086,0.000283739,0.00131202,0,0,0,0,0,0,0,-0.430592,-10.1892,-0.381406,20.9439,0.819719,-0.75327,0.103647,-0.4239,-1.08409,-0.00308105,2.40455,0.270042,-0.746518,0.175342
3992668,0.99,-1.57045,-0.522898,-5.94159e-05,-2.09588,1.57057,1.57178,0.785023,-1.5708,-0.523599,4.38883e-08,-2.09439,1.5708,1.5708,0.785397,0.000118943,-2.60881e-05,-0.000438423,0.000752985,9.15612e-06,-4.81997e-05,-0.000583383,0,0,0,0,0,0,0,-0.430592,-10.213,-0.381406,20.8963,0.830705,-0.746862,0.143015,-0.423365,-1.0811,-0.00242851,2.40308,0.269973,-0.746513,0.175356
3992669,0.99,-1.57045,-0.522896,-5.37362e-05,-2.09589,1.57057,1.57178,0.785023,-1.5708,-0.523599,4.38883e-08,-2.09439,1.5708,1.5708,0.785397,0.00119292,0.000632222,0.000914144,-0.00126125,0.000209555,-3.21331e-05,-0.000388922,0,0,0,0,0,0,0,-0.478199,-10.2408,-0.432981,20.9717,0.825212,-0.746862,0.143015,-0.423266,-1.07919,-0.00229488,2.40219,0.269926,-0.746465,0.17538
3992670,0.99,-1.57045,-0.522901,-5.87992e-05,-2.09589,1.57057,1.57178,0.785021,-1.5708,-0.523599,4.38883e-08,-2.09439,1.5708,1.5708,0.785397,-0.000967958,-0.00134176,-0.000596997,0.000365594,-0.000470648,-2.14221e-05,-0.000733999,0,0,0,0,0,0,0,-0.402821,-10.1654,-0.381406,20.9201,0.841692,-0.746862,0.155832,-0.423841,-1.07855,-0.00312415,2.40213,0.269923,-0.746342,0.175417
3992671,0.99,-1.57045,-0.522894,-5.56612e-05,-2.09589,1.57057,1.57178,0.785024,-1.5708,-0.523599,4.38883e-08,-2.09439,1.5708,1.5708,0.785397,4.30831e-06,0.00142555,0.000808428,0.000243729,-0.000110315,-0.00025164,0.000494011,0,0,0,0,0,0,0,-0.430592,-10.2646,-0.432981,20.9201,0.836199,-0.740453,0.129282,-0.424208,-1.07788,-0.00367939,2.40197,0.269903,-0.746262,0.175489
3992672,0.99,-1.57045,-0.522898,-5.58216e-05,-2.09589,1.57057,1.57178,0.785019,-1.5708,-0.523599,4.38883e-08,-2.09439,1.5708,1.5708,0.785397,2.87221e-06,-0.000256062,0.000538952,0.000162486,0.000129907,0.000544317,-0.00136608,0,0,0,0,0,0,0,-0.430592,-10.213,-0.432981,20.9201,0.830705,-0.759679,0.175059,-0.424661,-1.07828,-0.00444086,2.40198,0.269894,-0.746193,0.175604
3992673,0.99,-1.57045,-0.5229,-5.75455e-05,-2.09589,1.57057,1.57178,0.785028,-1.5708,-0.523599,4.38883e-08,-2.09439,1.5708,1.5708,0.785397,1.91481e-06,-0.00072752,-0.000197511,0.000108324,8.66047e-05,-0.000349199,0.0019715,0,0,0,0,0,0,0,-0.430592,-10.1892,-0.409177,20.9201,0.830705,-0.740453,0.0972387,-0.42537,-1.07852,-0.00560757,2.40178,0.26989,-0.746091,0.175765
3992674,0.99,-1.57045,-0.522898,-5.75633e-05,-2.09589,1.57057,1.57178,0.785026,-1.5708,-0.523599,4.38883e-08,-2.09439,1.5708,1.5708,0.785397,-0.000648337,7.17985e-05,-0.000131674,-0.000484596,5.77365e-05,4.55955e-06,0.000839613,0,0,0,0,0,0,0,-0.402821,-10.213,-0.409177,20.9439,0.830705,-0.746862,0.110056,-0.425583,-1.0775,-0.00601543,2.40107,0.269847,-0.74605,0.175962
3992675,0.99,-1.57045,-0.5229,-5.95181e-05,-2.09588,1.57057,1.57178,0.785023,-1.5708,-0.523599,4.38883e-08,-2.09439,1.5708,1.5708,0.785397,0.000217389,-0.000508946,-0.000737396,0.00079056,3.8491e-05,-0.000234319,-0.000660961,0,0,0,0,0,0,0,-0.430592,-10.1892,-0.381406,20.8963,0.830705,-0.740453,0.143015,-0.425074,-1.07628,-0.00531567,2.4003,0.269769,-0.746112,0.176147
3992676,0.99,-1.57045,-0.522898,-5.59008e-05,-2.09589,1.57057,1.57178,0.785025,-1.5708,-0.523599,4.38883e-08,-2.09439,1.5708,1.5708,0.785397,-0.000504688,0.000217514,0.000714828,-2.97719e-05,2.56607e-05,0.000318505,0.000305344,0,0,0,0,0,0,0,-0.402821,-10.213,-0.432981,20.9201,0.830705,-0.75327,0.122873,-0.424346,-1.07492,-0.00428125,2.39926,0.269668,-0.746201,0.176291
3992677,0.99,-1.57045,-0.522896,-5.75719e-05,-2.09588,1.57057,1.57178,0.785025,-1.5708,-0.523599,4.38883e-08,-2.09439,1.5708,1.5708,0.785397,-0.000893271,0.000794624,-8.02598e-05,-1.9848e-05,-0.000186343,-2.50222e-05,0.000203563,0,0,0,0,0,0,0,-0.379017,-10.2408,-0.409177,20.9201,0.836199,-0.746862,0.122873,-0.423719,-1.07486,-0.00354574,2.39876,0.269593,-0.746286,0.176402
3992678,0.99,-1.57045,-0.522894,-5.9521e-05,-2.09588,1.57057,1.57178,0.785024,-1.5708,-0.523599,4.38883e-08,-2.09439,1.5708,1.5708,0.785397,0.000610912,0.00108656,-0.00070312,-1.3232e-05,7.92216e-05,-0.00025404,-0.000339009,0,0,0,0,0,0,0,-0.430592,-10.2646,-0.381406,20.9201,0.830705,-0.740453,0.135691,-0.42294,-1.07756,-0.00269442,2.3996,0.269561,-0.746419,0.176479
3992679,0.99,-1.57045,-0.522894,-5.54417e-05,-2.09589,1.57057,1.57178,0.78502,-1.5708,-0.523599,4.38883e-08,-2.09439,1.5708,1.5708,0.785397,0.000407275,0.000724374,0.000180867,-8.82132e-06,5.28144e-05,-0.00016936,-0.00144671,0,0,0,0,0,0,0,-0.430592,-10.2646,-0.409177,20.9201,0.830705,-0.740453,0.16865,-0.422332,-1.08223,-0.00201366,2.40133,0.269562,-0.746538,0.176527
3992680,0.99,-1.57045,-0.522896,-5.68621e-05,-2.09589,1.57057,1.57178,0.785028,-1.5708,-0.523599,4.38883e-08,-2.09439,1.5708,1.5708,0.785397,0.000271517,-0.00072351,0.000120578,-0.000562693,-0.000168241,-0.000112907,0.00168038,0,0,0,0,0,0,0,-0.430592,-10.213,-0.409177,20.9439,0.836199,-0.740453,0.0972387,-0.422391,-1.0864,-0.00227285,2.40294,0.269582,-0.746534,0.176574
3992681,0.99,-1.57045,-0.522895,-5.73355e-05,-2.09589,1.57057,1.57178,0.785026,-1.5708,-0.523599,4.38883e-08,-2.09439,1.5708,1.5708,0.785397,0.000737823,0.000167274,8.03853e-05,0.000181683,9.12899e-05,0.000162088,0.000408179,0,0,0,0,0,0,0,-0.454395,-10.2408,-0.409177,20.9201,0.830705,-0.746862,0.116465,-0.423029,-1.08828,-0.00337451,2.40364,0.269593,-0.7464,0.176639
3992682,0.99,-1.57045,-0.522898,-5.74933e-05,-2.09588,1.57057,1.57178,0.785021,-1.5708,-0.523599,4.38883e-08,-2.09439,1.5708,1.5708,0.785397,0.000491882,-0.000538098,5.35902e-05,0.00123475,-0.000142591,0.000345417,-0.0014233,0,0,0,0,0,0,0,-0.454395,-10.213,-0.409177,20.8725,0.836199,-0.75327,0.162241,-0.42402,-1.08781,-0.00491015,2.40297,0.269569,-0.746183,0.176695
3992683,0.99,-1.57045,-0.5229,-5.73643e-05,-2.09588,1.57057,1.57178,0.785024,-1.5708,-0.523599,4.38883e-08,-2.09439,1.5708,1.5708,0.785397,-0.000228891,-0.000915544,-0.000613887,-0.00029046,-9.50604e-05,-7.08067e-06,3.44764e-05,0,0,0,0,0,0,0,-0.430592,-10.1892,-0.381406,20.9201,0.836199,-0.746862,0.135691,-0.424788,-1.08492,-0.00600554,2.40076,0.269487,-0.745982,0.176733
3992684,0.99,-1.57045,-0.522896,-5.68533e-05,-2.09589,1.57057,1.57178,0.785026,-1.5708,-0.523599,4.38883e-08,-2.09439,1.5708,1.5708,0.785397,-0.000802208,0.000596063,0.000240356,-0.00140007,0.000140077,-0.000242079,0.00097242,0,0,0,0,0,0,0,-0.402821,-10.2408,-0.409177,20.9717,0.830705,-0.740453,0.110056,-0.424778,-1.08205,-0.0059409,2.3989,0.269404,-0.745905,0.176775
3992685,0.99,-1.57045,-0.522898,-5.92814e-05,-2.09589,1.57057,1.57178,0.785021,-1.5708,-0.523599,4.38883e-08,-2.09439,1.5708,1.5708,0.785397,-0.000534805,-0.00080905,-0.000489377,-0.000283763,9.33846e-05,7.59727e-05,-0.0012845,0,0,0,0,0,0,0,-0.402821,-10.1892,-0.381406,20.9439,0.830705,-0.746862,0.162241,-0.424076,-1.0813,-0.00494157,2.39869,0.269369,-0.745954,0.176822
3992686,0.99,-1.57045,-0.522897,-5.94412e-05,-2.09588,1.57057,1.57178,0.78502,-1.5708,-0.523599,4.38883e-08,-2.09439,1.5708,1.5708,0.785397,0.000293077,1.7445e-05,-0.000326251,0.000924448,-0.000141194,0.000525366,-0.00109369,0,0,0,0,0,0,0,-0.430592,-10.213,-0.381406,20.8963,0.836199,-0.759679,0.16865,-0.423054,-1.08059,-0.00346364,2.39844,0.269326,-0.746054,0.17687
3992687,0.99,-1.57045,-0.522898,-5.75456e-05,-2.09588,1.57057,1.57178,0.785028,-1.5708,-0.523599,4.38883e-08,-2.09439,1.5708,1.5708,0.785397,0.000752197,1.163e-05,0.000432113,0.000616299,-0.00029758,-0.000361833,0.00191573,0,0,0,0,0,0,0,-0.454395,-10.213,-0.409177,20.8963,0.841692,-0.740453,0.0972387,-0.422548,-1.07899,-0.00262848,2.39719,0.269258,-0.746084,0.176957
3992688,0.99,-1.57045,-0.522901,-5.95122e-05,-2.09589,1.57058,1.57178,0.785024,-1.5708,-0.523599,4.38883e-08,-2.09439,1.5708,1.5708,0.785397,-5.53475e-05,-0.00110587,-0.000361538,-0.000702758,0.000615415,-3.86279e-06,-0.000147001,0,0,0,0,0,0,0,-0.430592,-10.1654,-0.381406,20.9439,0.819719,-0.746862,0.135691,-0.422868,-1.07701,-0.00291194,2.39557,0.269203,-0.746,0.177087
3992689,0.99,-1.57045,-0.522894,-5.95181e-05,-2.09589,1.57057,1.57178,0.785028,-1.5708,-0.523599,4.38883e-08,-2.09439,1.5708,1.5708,0.785397,0.000519914,0.00102599,-0.000241026,-0.00111812,3.37594e-06,0.000234784,0.000376717,0,0,0,0,0,0,0,-0.454395,-10.2408,-0.381406,20.9717,0.830705,-0.75327,0.122873,-0.423306,-1.07603,-0.00328109,2.39494,0.269189,-0.745916,0.177217
3992690,0.99,-1.57045,-0.522895,-6.11905e-05,-2.09589,1.57057,1.57178,0.785028,-1.5708,-0.523599,4.38883e-08,-2.09439,1.5708,1.5708,0.785397,0.000346609,0.000683994,-0.000717496,-0.000745413,2.25062e-06,-0.000318195,0.000963222,0,0,0,0,0,0,0,-0.454395,-10.2408,-0.357602,20.9717,0.830705,-0.740453,0.103647,-0.423528,-1.07855,-0.00318865,2.39652,0.269236,-0.745915,0.177319
3992691,0.99,-1.57045,-0.522896,-5.59015e-05,-2.09589,1.57058,1.57178,0.785025,-1.5708,-0.523599,4.38883e-08,-2.09439,1.5708,1.5708,0.785397,0.000231073,0.000455996,0.00128491,0.000152672,0.000204951,0.000499947,-0.000307288,0,0,0,0,0,0,0,-0.454395,-10.2408,-0.432981,20.9439,0.825212,-0.759679,0.129282,-0.424013,-1.08336,-0.0033844,2.39926,0.269318,-0.745919,0.177384
3992692,0.99,-1.57045,-0.522901,-5.9521e-05,-2.09589,1.57057,1.57178,0.785024,-1.5708,-0.523599,4.38883e-08,-2.09439,1.5708,1.5708,0.785397,-0.00105238,-0.00145924,-0.000349821,0.000658593,-6.68166e-05,-0.000378779,-0.000204859,0,0,0,0,0,0,0,-0.402821,-10.1654,-0.381406,20.9201,0.830705,-0.740453,0.129282,-0.424827,-1.086,-0.00411085,2.40062,0.269354,-0.745868,0.177404
3992693,0.99,-1.57045,-0.522896,-5.75722e-05,-2.09589,1.57057,1.57178,0.785026,-1.5708,-0.523599,4.38883e-08,-2.09439,1.5708,1.5708,0.785397,-0.000701585,0.000140797,0.0004164,-0.000767364,-0.000247995,0.000222198,0.000575504,0,0,0,0,0,0,0,-0.402821,-10.213,-0.409177,20.9717,0.836199,-0.75327,0.110056,-0.425148,-1.08516,-0.00421579,2.40011,0.269301,-0.745859,0.177385
3992694,0.99,-1.57045,-0.522899,-5.9061e-05,-2.09589,1.57057,1.57178,0.785025,-1.5708,-0.523599,4.38883e-08,-2.09439,1.5708,1.5708,0.785397,-0.000467723,-0.000462947,-0.000928826,-0.000511576,-0.00016533,-8.92266e-05,-9.10483e-05,0,0,0,0,0,0,0,-0.402821,-10.1892,-0.357602,20.9717,0.836199,-0.746862,0.122873,-0.424664,-1.08373,-0.0031977,2.3996,0.269215,-0.745964,0.177331
3992695,0.99,-1.57045,-0.522898,-5.51916e-05,-2.09588,1.57058,1.57178,0.785026,-1.5708,-0.523599,4.38883e-08,-2.09439,1.5708,1.5708,0.785397,-0.000311816,0.00024818,0.00114402,0.00142219,0.000296681,-5.94844e-05,-0.000806684,0,0,0,0,0,0,0,-0.402821,-10.213,-0.432981,20.8963,0.825212,-0.746862,0.143015,-0.423993,-1.08257,-0.00194526,2.39917,0.269125,-0.746097,0.177242
3992696,0.99,-1.57045,-0.5229,-5.71538e-05,-2.09589,1.57057,1.57178,0.785028,-1.5708,-0.523599,4.38883e-08,-2.09439,1.5708,1.5708,0.785397,0.000441737,-0.000391358,-0.000443746,-0.000815113,-5.66313e-06,0.000197703,0.000920273,0,0,0,0,0,0,0,-0.430592,-10.1892,-0.381406,20.9717,0.830705,-0.75327,0.103647,-0.423869,-1.08106,-0.00156075,2.39826,0.269036,-0.746141,0.177132
3992697,0.99,-1.57045,-0.522898,-5.8732e-05,-2.09589,1.57057,1.57178,0.785022,-1.5708,-0.523599,4.38883e-08,-2.09439,1.5708,1.5708,0.785397,-0.000911935,0.000295906,-0.00029583,-0.000543409,-0.000614127,-0.000342916,-0.00108191,0,0,0,0,0,0,0,-0.379017,-10.213,-0.381406,20.9717,0.847185,-0.740453,0.149424,-0.42383,-1.08036,-0.00133861,2.39799,0.26897,-0.746173,0.177012
3992698,0.99,-1.57045,-0.5229,-5.73092e-05,-2.09589,1.57057,1.57178,0.785021,-1.5708,-0.523599,4.38883e-08,-2.09439,1.5708,1.5708,0.785397,0.00115528,-0.000359541,0.000452394,0.000844153,0.000200934,8.7482e-06,-0.00119599,0,0,0,0,0,0,0,-0.454395,-10.1892,-0.409177,20.9201,0.830705,-0.746862,0.162241,-0.423708,-1.08031,-0.00102014,2.39826,0.268926,-0.746213,0.176886
3992699,0.99,-1.57045,-0.522898,-5.74846e-05,-2.09589,1.57057,1.57178,0.785027,-1.5708,-0.523599,4.38883e-08,-2.09439,1.5708,1.5708,0.785397,0.000213376,0.000317118,0.000301596,-0.00175728,-6.94948e-05,5.83214e-06,0.00137281,0,0,0,0,0,0,0,-0.430592,-10.213,-0.409177,21.0193,0.836199,-0.746862,0.103647,-0.424362,-1.08046,-0.00186448,2.3987,0.268927,-0.746129,0.176785
3992700,0.99,-1.57045,-0.522898,-5.7543e-05,-2.09589,1.57057,1.57178,0.785028,-1.5708,-0.523599,4.38883e-08,-2.09439,1.5708,1.5708,0.785397,-0.000507363,-0.0003454,0.000201064,0.000591717,0.000157121,0.000241247,0.000203132,0,0,0,0,0,0,0,-0.402821,-10.1892,-0.409177,20.9439,0.830705,-0.75327,0.122873,-0.425353,-1.08124,-0.0032758,2.39977,0.268975,-0.745994,0.176726
3992701,0.99,-1.57045,-0.522897,-5.5432e-05,-2.09589,1.57057,1.57178,0.785025,-1.5708,-0.523599,4.38883e-08,-2.09439,1.5708,1.5708,0.785397,-0.000338242,0.000326545,0.000134043,0.00095129,-9.87034e-05,-7.65276e-05,-0.00132264,0,0,0,0,0,0,0,-0.402821,-10.213,-0.409177,20.9201,0.836199,-0.746862,0.162241,-0.425841,-1.08147,-0.00406772,2.40034,0.268997,-0.745928,0.176683
3992702,0.99,-1.57045,-0.522899,-6.2427e-05,-2.09589,1.57057,1.57178,0.785026,-1.5708,-0.523599,4.38883e-08,-2.09439,1.5708,1.5708,0.785397,0.000980931,-0.000339115,-0.00176668,0.000634193,0.000137648,-5.10184e-05,0.000576302,0,0,0,0,0,0,0,-0.454395,-10.1892,-0.329831,20.9201,0.830705,-0.746862,0.122873,-0.425615,-1.0804,-0.00373463,2.39966,0.268945,-0.74596,0.176654
3992703,0.99,-1.57045,-0.522898,-5.73344e-05,-2.09589,1.57058,1.57178,0.785028,-1.5708,-0.523599,4.38883e-08,-2.09439,1.5708,1.5708,0.785397,9.71421e-05,0.000330735,0.000678254,-0.00189725,0.000295216,-3.40123e-05,0.00133364,0,0,0,0,0,0,0,-0.430592,-10.213,-0.409177,21.0193,0.825212,-0.746862,0.0972387,-0.425033,-1.07967,-0.00267691,2.39929,0.268884,-0.746046,0.176649
3992704,0.99,-1.57045,-0.5229,-5.94418e-05,-2.09589,1.57057,1.57178,0.78502,-1.5708,-0.523599,4.38883e-08,-2.09439,1.5708,1.5708,0.785397,-0.000584853,-0.000336322,-0.000197444,0.000498402,-6.63984e-06,-0.000260034,-0.00175577,0,0,0,0,0,0,0,-0.402821,-10.1892,-0.381406,20.9439,0.830705,-0.740453,0.16865,-0.424657,-1.08021,-0.00194425,2.40019,0.268877,-0.74611,0.176647
3992705,0.99,-1.57045,-0.5229,-5.75458e-05,-2.09589,1.57057,1.57178,0.785026,-1.5708,-0.523599,4.38883e-08,-2.09439,1.5708,1.5708,0.785397,0.000259712,-0.000224215,0.000517984,0.00088908,-0.000207877,0.000301362,0.00076227,0,0,0,0,0,0,0,-0.430592,-10.1892,-0.409177,20.9201,0.836199,-0.75327,0.116465,-0.424516,-1.08001,-0.00167968,2.40068,0.268866,-0.746126,0.17664
3992706,0.99,-1.57045,-0.522896,-6.11827e-05,-2.09588,1.57058,1.57178,0.785032,-1.5708,-0.523599,4.38883e-08,-2.09439,1.5708,1.5708,0.785397,-0.00103328,0.00105695,-0.000861103,0.00059272,0.000268316,0.000200908,0.00145762,0,0,0,0,0,0,0,-0.379017,-10.2408,-0.357602,20.9201,0.825212,-0.75327,0.09083,-0.424176,-1.07907,-0.00115983,2.40026,0.268806,-0.746169,0.176643
3992707,0.99,-1.57045,-0.5229,-6.11886e-05,-2.09588,1.57057,1.57178,0.785025,-1.5708,-0.523599,4.38883e-08,-2.09439,1.5708,1.5708,0.785397,0.00051757,-0.000501793,-0.000574069,0.000395147,-2.4573e-05,0.000133939,-0.000689769,0,0,0,0,0,0,0,-0.430592,-10.1892,-0.357602,20.9201,0.830705,-0.75327,0.135691,-0.423167,-1.07884,0.000390669,2.39986,0.268713,-0.746327,0.176637
3992708,0.99,-1.57045,-0.522898,-5.75713e-05,-2.09589,1.57057,1.57178,0.785021,-1.5708,-0.523599,4.38883e-08,-2.09439,1.5708,1.5708,0.785397,0.000345046,0.000222283,0.000823713,0.000263431,-1.6382e-05,-0.000148066,-0.00144319,0,0,0,0,0,0,0,-0.430592,-10.213,-0.409177,20.9201,0.830705,-0.746862,0.162241,-0.422397,-1.07839,0.00165607,2.39937,0.268622,-0.746449,0.176592
3992709,0.99,-1.57045,-0.5229,-6.11912e-05,-2.09589,1.57057,1.57178,0.785027,-1.5708,-0.523599,4.38883e-08,-2.09439,1.5708,1.5708,0.785397,0.000230031,-0.000408623,-0.000657284,0.000175621,-0.000214372,-9.8711e-05,0.00120801,0,0,0,0,0,0,0,-0.430592,-10.1892,-0.357602,20.9201,0.836199,-0.746862,0.103647,-0.422536,-1.07742,0.00160859,2.39878,0.268559,-0.746433,0.176533
3992710,0.99,-1.57045,-0.522898,-5.59017e-05,-2.09589,1.57057,1.57178,0.785026,-1.5708,-0.523599,4.38883e-08,-2.09439,1.5708,1.5708,0.785397,0.000153354,0.000284397,0.00132505,-0.000439731,6.0536e-05,-6.58073e-05,0.000567982,0,0,0,0,0,0,0,-0.430592,-10.213,-0.432981,20.9439,0.830705,-0.746862,0.110056,-0.423187,-1.07669,0.000794617,2.39853,0.26853,-0.746344,0.176486
3992711,0.99,-1.57045,-0.522894,-5.75722e-05,-2.09588,1.57057,1.57178,0.785023,-1.5708,-0.523599,4.38883e-08,-2.09439,1.5708,1.5708,0.785397,0.000102236,0.00139602,0.000326554,0.00137728,-0.000366544,-0.00028123,-0.000842048,0,0,0,0,0,0,0,-0.430592,-10.2646,-0.409177,20.8725,0.841692,-0.740453,0.143015,-0.424427,-1.07742,-0.00096957,2.39897,0.268555,-0.746189,0.176431
3992712,0.99,-1.57045,-0.522896,-5.75722e-05,-2.09589,1.57057,1.57178,0.785026,-1.5708,-0.523599,4.38883e-08,-2.09439,1.5708,1.5708,0.785397,0.00118178,0.00037387,0.000217703,-0.000195436,0.000162539,4.98719e-05,0.000659338,0,0,0,0,0,0,0,-0.478199,-10.2408,-0.409177,20.9201,0.830705,-0.746862,0.110056,-0.426074,-1.07994,-0.0033242,2.39989,0.268618,-0.745996,0.176357
3992713,0.99,-1.57045,-0.522898,-6.11915e-05,-2.09588,1.57057,1.57178,0.785024,-1.5708,-0.523599,4.38883e-08,-2.09439,1.5708,1.5708,0.785397,-0.00032577,-0.000957179,-0.00106129,0.000983333,0.00031181,0.000270607,-0.000272518,0,0,0,0,0,0,0,-0.430592,-10.1892,-0.357602,20.8725,0.825212,-0.75327,0.129282,-0.427271,-1.08156,-0.00482634,2.40019,0.268648,-0.745859,0.17627
3992714,0.99,-1.57045,-0.522895,-5.95211e-05,-2.09588,1.57057,1.57178,0.78502,-1.5708,-0.523599,4.38883e-08,-2.09439,1.5708,1.5708,0.785397,0.000896444,0.000568307,-0.000150715,9.87434e-05,-0.000199028,-5.69543e-05,-0.00163974,0,0,0,0,0,0,0,-0.478199,-10.2408,-0.381406,20.8963,0.836199,-0.746862,0.16865,-0.427518,-1.08094,-0.00470423,2.39932,0.268605,-0.74584,0.176171
3992715,0.99,-1.57045,-0.522901,-5.95211e-05,-2.09589,1.57057,1.57178,0.785024,-1.5708,-0.523599,4.38883e-08,-2.09439,1.5708,1.5708,0.785397,4.08174e-05,-0.00138437,-0.000100477,-0.000490983,-0.000132685,-3.79696e-05,0.000127542,0,0,0,0,0,0,0,-0.454395,-10.1654,-0.381406,20.9201,0.836199,-0.746862,0.135691,-0.427477,-1.07936,-0.00399656,2.39813,0.268545,-0.74586,0.176081
3992716,0.99,-1.57045,-0.522896,-5.54417e-05,-2.09589,1.57057,1.57178,0.785028,-1.5708,-0.523599,4.38883e-08,-2.09439,1.5708,1.5708,0.785397,-0.0005296,0.000840327,0.000582629,-0.000884134,-0.000291907,-2.5313e-05,0.00150918,0,0,0,0,0,0,0,-0.430592,-10.2408,-0.409177,20.9439,0.841692,-0.746862,0.0972387,-0.427584,-1.0781,-0.00350591,2.39761,0.268529,-0.745868,0.176035
3992717,0.99,-1.57045,-0.522898,-5.47316e-05,-2.09589,1.57058,1.57178,0.785021,-1.5708,-0.523599,4.38883e-08,-2.09439,1.5708,1.5708,0.785397,-0.00100268,-8.93962e-05,0.00038842,-0.00179585,0.000619197,-1.68754e-05,-0.00116402,0,0,0,0,0,0,0,-0.402821,-10.213,-0.409177,20.9955,0.819719,-0.746862,0.155832,-0.427573,-1.07917,-0.00301318,2.39881,0.268593,-0.745921,0.176018
3992718,0.99,-1.57045,-0.5229,-5.66254e-05,-2.09589,1.57057,1.57178,0.785019,-1.5708,-0.523599,4.38883e-08,-2.09439,1.5708,1.5708,0.785397,-1.88399e-05,-0.000616409,0.000258946,0.000566005,5.89705e-06,-0.000248609,-0.00148809,0,0,0,0,0,0,0,-0.430592,-10.1892,-0.409177,20.9201,0.830705,-0.740453,0.175059,-0.427432,-1.08123,-0.00248346,2.40078,0.268695,-0.745999,0.176007
3992719,0.99,-1.57045,-0.5229,-5.72566e-05,-2.09588,1.57057,1.57178,0.785026,-1.5708,-0.523599,4.38883e-08,-2.09439,1.5708,1.5708,0.785397,-1.256e-05,-0.00041094,0.000172631,0.000934149,3.93137e-06,7.16195e-05,0.00141544,0,0,0,0,0,0,0,-0.430592,-10.1892,-0.409177,20.8963,0.830705,-0.746862,0.110056,-0.427425,-1.08081,-0.00216174,2.401,0.268726,-0.746024,0.176035
3992720,0.99,-1.57045,-0.5229,-5.57966e-05,-2.09589,1.57057,1.57178,0.785024,-1.5708,-0.523599,4.38883e-08,-2.09439,1.5708,1.5708,0.785397,-8.37331e-06,-0.00027396,0.000671899,6.5954e-05,-0.00020083,0.000285105,0.000231549,0,0,0,0,0,0,0,-0.430592,-10.1892,-0.432981,20.9201,0.836199,-0.75327,0.129282,-0.427755,-1.07827,-0.00234122,2.39949,0.268686,-0.745974,0.176126
3992721,0.99,-1.57045,-0.522898,-5.54067e-05,-2.09588,1.57057,1.57178,0.785022,-1.5708,-0.523599,4.38883e-08,-2.09439,1.5708,1.5708,0.785397,-5.58221e-06,-0.00018264,-0.000108879,0.00115759,6.95641e-05,0.00019007,-0.000591619,0,0,0,0,0,0,0,-0.430592,-10.1892,-0.409177,20.8725,0.830705,-0.75327,0.149424,-0.428268,-1.07527,-0.00284718,2.39739,0.268623,-0.745896,0.176246
3992722,0.99,-1.57045,-0.522897,-5.68504e-05,-2.09588,1.57057,1.57178,0.785024,-1.5708,-0.523599,4.38883e-08,-2.09439,1.5708,1.5708,0.785397,-3.72147e-06,0.000435052,-7.25861e-05,0.000771729,-0.000157074,-0.000348004,0.000114213,0,0,0,0,0,0,0,-0.430592,-10.213,-0.409177,20.8725,0.836199,-0.740453,0.135691,-0.428571,-1.07263,-0.00305828,2.39507,0.268537,-0.74586,0.176375
3992723,0.99,-1.57045,-0.522896,-5.73316e-05,-2.09589,1.57057,1.57178,0.785026,-1.5708,-0.523599,4.38883e-08,-2.09439,1.5708,1.5708,0.785397,0.000554331,0.000939649,-4.83907e-05,-0.000599138,9.87342e-05,0.000242715,0.00102558,0,0,0,0,0,0,0,-0.454395,-10.2408,-0.409177,20.9201,0.830705,-0.75327,0.110056,-0.428682,-1.0722,-0.00296644,2.39371,0.268474,-0.745883,0.176515
3992724,0.99,-1.57045,-0.522899,-5.94409e-05,-2.09589,1.57057,1.57178,0.785021,-1.5708,-0.523599,4.38883e-08,-2.09439,1.5708,1.5708,0.785397,-0.000187258,-0.00113681,-0.000681874,-0.000399425,6.58228e-05,0.00016181,-0.0010117,0,0,0,0,0,0,0,-0.430592,-10.1654,-0.381406,20.9201,0.830705,-0.75327,0.155832,-0.428599,-1.0737,-0.00256718,2.39376,0.268458,-0.745956,0.176651
3992725,0.99,-1.57045,-0.522897,-6.11648e-05,-2.09589,1.57058,1.57178,0.785026,-1.5708,-0.523599,4.38883e-08,-2.09439,1.5708,1.5708,0.785397,-0.000774453,0.000355754,-0.00101139,-0.000266284,0.000247332,0.000107873,0.00102095,0,0,0,0,0,0,0,-0.402821,-10.213,-0.357602,20.9201,0.825212,-0.75327,0.110056,-0.427649,-1.07476,-0.000859582,2.39406,0.268426,-0.746153,0.176769
3992726,0.99,-1.57045,-0.522898,-5.75633e-05,-2.09589,1.57057,1.57178,0.785026,-1.5708,-0.523599,4.38883e-08,-2.09439,1.5708,1.5708,0.785397,-0.00107311,0.000237169,0.000532163,-0.000734334,-0.000242013,-0.000402802,0.000680635,0,0,0,0,0,0,0,-0.379017,-10.213,-0.409177,20.9439,0.836199,-0.740453,0.110056,-0.425879,-1.07613,0.00195504,2.39475,0.26838,-0.746478,0.176872
3992727,0.99,-1.57045,-0.5229,-5.75693e-05,-2.09589,1.57058,1.57178,0.785022,-1.5708,-0.523599,4.38883e-08,-2.09439,1.5708,1.5708,0.785397,0.000491017,-0.000398699,0.000354775,-0.00113917,0.000245559,-3.1176e-05,-0.00100431,0,0,0,0,0,0,0,-0.430592,-10.1892,-0.409177,20.9717,0.825212,-0.746862,0.149424,-0.424586,-1.07844,0.00384188,2.39625,0.268385,-0.746734,0.176946
3992728,0.99,-1.57045,-0.522898,-5.75713e-05,-2.09589,1.57057,1.57178,0.785026,-1.5708,-0.523599,4.38883e-08,-2.09439,1.5708,1.5708,0.785397,-0.000322269,0.000291012,0.000236517,-0.000759447,-0.000446645,-0.000258143,0.000788525,0,0,0,0,0,0,0,-0.402821,-10.213,-0.409177,20.9717,0.841692,-0.740453,0.110056,-0.424371,-1.08085,0.00398627,2.39816,0.268444,-0.746812,0.176981
3992729,0.99,-1.57045,-0.522898,-5.75719e-05,-2.09589,1.57058,1.57178,0.785025,-1.5708,-0.523599,4.38883e-08,-2.09439,1.5708,1.5708,0.785397,0.000434768,0.000194008,0.000157678,0.000143316,0.000516038,0.000302623,5.09656e-05,0,0,0,0,0,0,0,-0.430592,-10.213,-0.409177,20.9439,0.819719,-0.75327,0.122873,-0.424739,-1.08318,0.00320697,2.40002,0.268516,-0.746787,0.176991
3992730,0.99,-1.57045,-0.5229,-5.75721e-05,-2.09589,1.57057,1.57178,0.785025,-1.5708,-0.523599,4.38883e-08,-2.09439,1.5708,1.5708,0.785397,0.000846657,-0.000427473,0.000105119,-0.00055407,-0.000266326,-3.56105e-05,-0.00118673,0,0,0,0,0,0,0,-0.454395,-10.1892,-0.409177,20.9717,0.836199,-0.746862,0.155832,-0.425531,-1.08467,0.00182644,2.40118,0.268566,-0.746681,0.176977
3992731,0.99,-1.57045,-0.522898,-5.95211e-05,-2.09589,1.57057,1.57178,0.785026,-1.5708,-0.523599,4.38883e-08,-2.09439,1.5708,1.5708,0.785397,7.62609e-06,0.00027183,-0.000579535,0.000280234,-0.000177551,-2.37404e-05,0.000429552,0,0,0,0,0,0,0,-0.430592,-10.213,-0.381406,20.9439,0.836199,-0.746862,0.122873,-0.426439,-1.08495,0.000377734,2.40158,0.26858,-0.746543,0.176948
3992732,0.99,-1.57045,-0.522896,-5.95211e-05,-2.09589,1.57057,1.57178,0.785027,-1.5708,-0.523599,4.38883e-08,-2.09439,1.5708,1.5708,0.785397,0.000561896,0.000830834,-0.000386357,-0.000462791,8.50834e-05,-1.58269e-05,0.000761086,0,0,0,0,0,0,0,-0.454395,-10.2408,-0.381406,20.9717,0.830705,-0.746862,0.110056,-0.426864,-1.08553,-0.00023289,2.40196,0.268564,-0.746486,0.176926
3992733,1,-1.57045,-0.5229,-5.95211e-05,-2.09589,1.57057,1.57178,0.785022,-1.5708,-0.523599,4.38883e-08,-2.09439,1.5708,1.5708,0.785397,-0.000831829,-0.000652537,-0.000257571,-0.000308528,-0.000146728,-1.05513e-05,-0.000950671,0,0,0,0,0,0,0,-0.402821,-10.1892,-0.381406,20.9717,0.836199,-0.746862,0.149424,-0.42671,-1.08666,8.23256e-05,2.40261,0.268535,-0.746525,0.176902
3992734,1,-1.57045,-0.5229,-5.95211e-05,-2.09589,1.57057,1.57178,0.785021,-1.5708,-0.523599,4.38883e-08,-2.09439,1.5708,1.5708,0.785397,-0.00111136,-0.000435024,-0.000171714,0.00100074,-9.78188e-05,-7.03418e-06,-0.00087114,0,0,0,0,0,0,0,-0.379017,-10.1892,-0.381406,20.9201,0.836199,-0.746862,0.155832,-0.425861,-1.08598,0.00135212,2.40235,0.268462,-0.746646,0.176871
3992735,1,-1.57045,-0.522898,-5.95211e-05,-2.09589,1.57057,1.57178,0.785031,-1.5708,-0.523599,4.38883e-08,-2.09439,1.5708,1.5708,0.785397,0.00157914,0.000266796,-0.000114476,-0.000539265,-0.000268663,0.000232669,0.00158938,0,0,0,0,0,0,0,-0.478199,-10.213,-0.381406,20.9717,0.841692,-0.75327,0.0972387,-0.42493,-1.08361,0.00271097,2.4011,0.268362,-0.746757,0.176859
3992736,1,-1.57046,-0.5229,-5.75723e-05,-2.09589,1.57057,1.57178,0.785025,-1.5708,-0.523599,4.38883e-08,-2.09439,1.5708,1.5708,0.785397,-0.00126729,-0.000378948,0.000573297,0.000846916,0.000227792,-8.22459e-05,-0.000364568,0,0,0,0,0,0,0,-0.379017,-10.1892,-0.409177,20.9201,0.830705,-0.746862,0.135691,-0.424748,-1.08135,0.00300076,2.39989,0.268301,-0.746759,0.176871
3992737,1,-1.57045,-0.522896,-5.95211e-05,-2.09588,1.57057,1.57178,0.785024,-1.57079,-0.523597,2.54389e-06,-2.09439,1.5708,1.5708,0.785397,0.000918378,0.000953794,-0.000267416,0.00056461,0.000151862,0.000182528,-0.000243045,0.00327601,0.00177767,0.0025,0.00165673,0.00155778,0.005,-0.000206637,-0.454395,-10.2408,-0.381406,20.9201,0.830705,-0.75327,0.135691,-0.424975,-1.07954,0.00265863,2.39873,0.268269,-0.746712,0.176882
3992738,1,-1.57045,-0.5229,-5.75723e-05,-2.09589,1.57058,1.57178,0.785027,-1.57079,-0.523593,7.54389e-06,-2.09439,1.5708,1.57081,0.785397,5.54401e-05,-0.000570563,0.000471336,-0.000830019,0.000304692,-0.000353032,0.00102476,0.00655202,0.00355534,0.005,0.00331346,0.00311555,0.01,-0.000413274,-0.430592,-10.1892,-0.409177,20.9717,0.825212,-0.740453,0.103647,-0.425489,-1.07869,0.0019201,2.39805,0.26827,-0.746635,0.176884
3992739,1,-1.57045,-0.522898,-5.75723e-05,-2.09589,1.57058,1.57178,0.785026,-1.57078,-0.523588,1.50439e-05,-2.09439,1.57081,1.57083,0.785396,0.000593772,0.000176436,0.000314224,-0.000553346,0.000203128,-0.000235355,0.000445817,0.00982804,0.00533301,0.0075,0.00497018,0.00467333,0.015,-0.000619911,-0.454395,-10.213,-0.409177,20.9717,0.825212,-0.740453,0.110056,-0.426516,-1.07863,0.00045958,2.39829,0.26832,-0.746486,0.176871
3992740,1,-1.57045,-0.522899,-5.36981e-05,-2.09589,1.57057,1.57178,0.785019,-1.57076,-0.523581,2.50439e-05,-2.09438,1.57081,1.57085,0.785395,0.00114703,0.00089711,0.00349381,-0.000368897,-0.000271483,0.000317815,-0.00211029,0.013104,0.00711068,0.01,0.00662691,0.00623111,0.02,-0.000826548,-0.355213,-10.1139,-0.282224,20.9717,0.836199,-0.75327,0.175059,-0.428966,-1.07975,-0.00322095,2.39957,0.268453,-0.746134,0.176827
3992741,0.99,-1.57045,-0.522898,-5.20864e-05,-2.09589,1.57057,1.57178,0.785026,-1.57075,-0.523572,3.75439e-05,-2.09437,1.57082,1.57087,0.785394,0.00426537,0.00293783,0.00199992,-0.000802743,2.24621e-05,-2.54825e-05,0.000763281,0.0163801,0.00888834,0.0125,0.00828364,0.00778889,0.025,-0.00103318,-0.101307,-9.93533,0.15021,20.9955,0.830705,-0.746862,0.116465,-0.434381,-1.08466,-0.0113355,2.40282,0.268753,-0.745391,0.176761
3992742,0.98,-1.57046,-0.522902,-3.9362e-05,-2.09589,1.57058,1.57178,0.785027,-1.57073,-0.523561,5.25439e-05,-2.09436,1.57083,1.5709,0.785393,0.000256687,0.00124046,0.00755753,2.16496e-05,0.000218425,-0.000762974,0.000983572,0.0196561,0.010666,0.015,0.00994037,0.00934666,0.03,-0.00123982,0.454113,-9.60605,0.606448,20.9717,0.825212,-0.72672,0.103647,-0.443104,-1.09344,-0.0244708,2.40805,0.269238,-0.744182,0.176715
3992743,0.98,-1.57045,-0.522901,-1.71952e-05,-2.09588,1.57058,1.57178,0.785019,-1.5707,-0.523549,7.00439e-05,-2.09435,1.57084,1.57094,0.785392,0.0015057,0.00166445,0.0106713,0.00502715,0.000145617,-2.27616e-08,-0.00198914,0.0229321,0.0124437,0.0175,0.0115971,0.0109044,0.035,-0.00144646,0.858776,-9.32834,1.11029,20.8963,0.825212,-0.740453,0.175059,-0.455131,-1.10013,-0.0434424,2.41163,0.269832,-0.742343,0.176693
3992744,0.98,-1.57046,-0.522891,8.31236e-06,-2.09588,1.57058,1.57178,0.785021,-1.57068,-0.523535,9.00439e-05,-2.09434,1.57085,1.57098,0.78539,-3.13648e-05,0.00460092,0.0144009,0.00306541,0.000944788,-0.000271283,-0.000851377,0.0262081,0.0142214,0.02,0.0132538,0.0124622,0.04,-0.0016531,1.38642,-9.15378,1.56653,20.9201,0.802324,-0.733129,0.162241,-0.47031,-1.10258,-0.0688421,2.4118,0.270517,-0.739724,0.1767
3992745,0.98,-1.57045,-0.522881,3.95698e-05,-2.09587,1.57058,1.57178,0.785027,-1.57065,-0.523519,0.000112544,-2.09432,1.57087,1.57102,0.785388,0.000303809,0.00664327,0.0161464,0.00336032,0.00147757,-0.000655573,0.00160255,0.0294841,0.015999,0.0225,0.0149106,0.01402,0.045,-0.00185973,1.86647,-8.97525,1.97119,20.8725,0.779436,-0.720311,0.103647,-0.486907,-1.10711,-0.0985944,2.41252,0.271393,-0.736472,0.176763
3992746,0.98,-1.57045,-0.522869,6.94068e-05,-2.09587,1.57058,1.57178,0.785024,-1.57062,-0.523501,0.000137544,-2.0943,1.57088,1.57107,0.785386,-0.00115708,0.00881208,0.020406,0.00183572,-0.000269565,0.00522484,-0.000118425,0.0327601,0.0177767,0.025,0.0165673,0.0155778,0.05,-0.00206637,2.29493,-8.82449,2.37586,20.8963,0.81331,-0.746862,0.135691,-0.502422,-1.11896,-0.129611,2.41774,0.272533,-0.732853,0.17688
3992747,0.98,-1.57044,-0.522858,9.99808e-05,-2.09587,1.57058,1.5718,0.785024,-1.57058,-0.52348,0.000167544,-2.09428,1.5709,1.57113,0.785384,-0.00062073,0.00780395,0.0218074,0.00254448,-0.00062052,0.0104579,-7.89501e-05,0.0384857,0.0208229,0.03,0.0194106,0.018265,0.06,-0.00238563,2.64802,-8.69754,2.73291,20.8448,0.825212,-0.798131,0.135691,-0.514495,-1.13699,-0.159084,2.42767,0.273914,-0.729111,0.177011
3992748,0.98,-1.57043,-0.52285,0.000134795,-2.09587,1.57058,1.5718,0.785028,-1.57053,-0.523456,0.000202544,-2.09426,1.57092,1.5712,0.785381,0.000980557,0.00816997,0.0251539,0.00113239,-0.000210229,0.0116527,0.00137152,0.0442112,0.023869,0.035,0.0222539,0.0209523,0.07,-0.0027049,2.94954,-8.49521,2.98682,20.8725,0.819719,-0.778905,0.0972387,-0.521724,-1.15573,-0.185177,2.44016,0.27546,-0.725335,0.177133
3992749,0.98,-1.57042,-0.522839,0.000166757,-2.09586,1.57058,1.57181,0.785021,-1.57048,-0.523429,0.000242544,-2.09424,1.57094,1.57128,0.785378,0.00550412,0.00988143,0.0270495,0.000262371,-0.000750504,0.00748635,-0.00149315,0.0499368,0.0269152,0.04,0.0250972,0.0236396,0.08,-0.00302416,3.10029,-8.34445,3.23676,20.8963,0.836199,-0.746862,0.162241,-0.524994,-1.17288,-0.208867,2.45454,0.277185,-0.721271,0.177239
3992750,0.98,-1.5704,-0.522822,0.000197011,-2.09585,1.57058,1.57181,0.785018,-1.57043,-0.523399,0.000287544,-2.09421,1.57097,1.57137,0.785375,0.0099612,0.0152678,0.0289718,0.00327134,-0.0011446,0.00278719,-0.00194487,0.0556623,0.0299614,0.045,0.0279405,0.0263269,0.09,-0.00334342,3.33039,-8.2413,3.61762,20.8963,0.853594,-0.669042,0.187876,-0.526357,-1.19196,-0.232442,2.47201,0.279165,-0.716527,0.177328
3992751,0.98,-1.57037,-0.522812,0.000241052,-2.09584,1.57058,1.57182,0.785023,-1.57037,-0.523366,0.000337544,-2.09418,1.571,1.57147,0.785371,0.0131828,0.0152334,0.0350398,0.00627734,-0.000763064,0.00327365,0.000364933,0.0613879,0.0330075,0.05,0.0307839,0.0290141,0.1,-0.00366269,3.68348,-7.96359,4.05005,20.8725,0.853594,-0.566503,0.143015,-0.527885,-1.21413,-0.258363,2.49127,0.281401,-0.710711,0.17746
3992752,0.98,-1.57035,-0.522798,0.000296076,-2.09583,1.57059,1.57182,0.785024,-1.5703,-0.52333,0.000392544,-2.09414,1.57103,1.57158,0.785367,0.0154684,0.0180378,0.0440738,0.0060523,0.00118671,0.00216179,0.000514556,0.0671134,0.0360537,0.055,0.0336272,0.0317014,0.11,-0.00398195,4.18733,-7.66208,4.53009,20.9439,0.807817,-0.418187,0.135691,-0.532439,-1.23579,-0.291151,2.50976,0.283951,-0.70325,0.177697
3992753,0.98,-1.57032,-0.522774,0.000345478,-2.09582,1.57059,1.57184,0.785017,-1.57023,-0.523291,0.000452544,-2.09411,1.57107,1.5717,0.785363,0.0206009,0.0221527,0.0449814,0.00848838,0.00163885,0.00393737,-0.0018271,0.072839,0.0390999,0.06,0.0364705,0.0343887,0.12,-0.00430122,4.56422,-7.43594,5.18866,20.9201,0.784929,-0.333959,0.194285,-0.541058,-1.25716,-0.332622,2.52796,0.286896,-0.693781,0.178029
3992754,0.98,-1.57027,-0.522746,0.00040396,-2.0958,1.5706,1.57186,0.78502,-1.57015,-0.523249,0.000517544,-2.09407,1.5711,1.57183,0.785358,0.028301,0.0262683,0.0486774,0.00886962,0.00295753,0.0105484,-0.000268632,0.0785646,0.042146,0.065,0.0393138,0.0370759,0.13,-0.00462048,4.91731,-7.25742,5.72028,20.9439,0.734575,-0.263463,0.16865,-0.551631,-1.28237,-0.378892,2.54803,0.290173,-0.682426,0.178434
3992755,0.98,-1.57022,-0.522713,0.000464169,-2.09579,1.57061,1.57189,0.785028,-1.57006,-0.523204,0.000587544,-2.09403,1.57114,1.57197,0.785353,0.0322401,0.0328748,0.0496513,0.00800306,0.00448091,0.015426,0.00246577,0.0842901,0.0451922,0.07,0.0421571,0.0397632,0.14,-0.00493974,5.19502,-7.10666,6.22809,21.0193,0.666826,-0.192968,0.0972387,-0.561233,-1.31711,-0.424628,2.57327,0.293694,-0.669501,0.178914
3992756,0.98,-1.57016,-0.522683,0.000526346,-2.09578,1.57062,1.57193,0.785025,-1.56997,-0.523156,0.000662544,-2.09398,1.57119,1.57212,0.785348,0.039649,0.0309443,0.0534971,0.0101456,0.0074808,0.0207151,0.00069441,0.0900157,0.0482384,0.075,0.0450005,0.0424505,0.15,-0.00525901,5.42115,-6.92813,6.70813,21.1185,0.672319,-0.166417,0.122873,-0.567405,-1.36112,-0.465519,2.60438,0.297269,-0.655211,0.179432
3992757,0.98,-1.57009,-0.522651,0.000595308,-2.09576,1.57063,1.57198,0.785024,-1.56988,-0.523103,0.000745044,-2.09393,1.57123,1.57229,0.785342,0.0499517,0.0289894,0.0588408,0.0123592,0.00347974,0.030285,0.000225581,0.0975572,0.0521452,0.0825,0.0486547,0.0461813,0.164879,-0.00563399,5.57588,-6.7258,7.06122,21.1939,0.723589,-0.166417,0.129282,-0.571239,-1.39984,-0.502491,2.63464,0.300587,-0.639157,0.179931
3992758,0.98,-1.57003,-0.522611,0.000661432,-2.09574,1.57063,1.57204,0.785023,-1.56977,-0.523047,0.000835044,-2.09388,1.57128,1.57247,0.785336,0.0543889,0.0331173,0.0604875,0.0109118,0.000341526,0.0472181,-0.000358239,0.105099,0.056052,0.09,0.0523089,0.049912,0.179759,-0.00600898,5.82582,-6.62662,7.41431,21.2693,0.784929,-0.179235,0.143015,-0.574055,-1.42375,-0.536967,2.65999,0.30357,-0.621179,0.180379
3992759,0.98,-1.56995,-0.52257,0.000735239,-2.09571,1.57064,1.57212,0.785012,-1.56966,-0.522987,0.000932544,-2.09382,1.57134,1.57266,0.78533,0.0634185,0.0359061,0.063964,0.0148579,-0.00104412,0.0600411,-0.00383312,0.11264,0.0599588,0.0975,0.0559631,0.0536428,0.194638,-0.00638397,5.95277,-6.52347,7.64441,21.2693,0.825212,-0.205785,0.240061,-0.573647,-1.43791,-0.5654,2.6832,0.306363,-0.601959,0.180771
3992760,0.98,-1.56986,-0.522535,0.000807134,-2.09568,1.57065,1.57221,0.784994,-1.56954,-0.522924,0.00103754,-2.09377,1.57139,1.57287,0.785323,0.0752313,0.0354911,0.0688788,0.0202242,0.00283299,0.0689738,-0.0073365,0.120182,0.0638656,0.105,0.0596173,0.0573736,0.209518,-0.00675895,5.9012,-6.32114,8.04908,21.2931,0.86458,-0.212194,0.36915,-0.570613,-1.44251,-0.588115,2.70291,0.309046,-0.581678,0.181175
3992761,0.98,-1.56976,-0.522497,0.000896929,-2.09565,1.57067,1.57232,0.784991,-1.56941,-0.522856,0.00115004,-2.0937,1.57145,1.57309,0.785316,0.0817902,0.0363756,0.0783628,0.0224018,0.00763375,0.0783355,-0.00560308,0.127723,0.0677724,0.1125,0.0632715,0.0611044,0.224397,-0.00713394,6.05195,-6.04343,8.42993,21.3922,0.853594,-0.172826,0.388376,-0.569392,-1.43076,-0.611276,2.71449,0.311688,-0.559802,0.181781
3992762,0.98,-1.56967,-0.522447,0.000995366,-2.09561,1.5707,1.57244,0.784988,-1.56928,-0.522784,0.00127004,-2.09364,1.57152,1.57333,0.785308,0.0849566,0.0394129,0.0834037,0.0276112,0.0156421,0.0903286,-0.00349803,0.135265,0.0716792,0.12,0.0669257,0.0648351,0.239276,-0.00750893,6.40504,-5.84109,8.88617,21.3446,0.841692,-0.134374,0.381968,-0.571362,-1.40164,-0.637216,2.71715,0.314383,-0.536311,0.182822
3992763,0.98,-1.56957,-0.522394,0.00108574,-2.09557,1.57072,1.57258,0.784985,-1.56913,-0.522709,0.00139754,-2.09356,1.57159,1.57359,0.785301,0.0879248,0.0454394,0.0852083,0.0323403,0.0159787,0.106419,-0.0018573,0.142807,0.075586,0.1275,0.0705799,0.0685659,0.254156,-0.00788392,6.73433,-5.66653,9.49317,21.3922,0.859087,-0.160009,0.36915,-0.571482,-1.36176,-0.658729,2.71337,0.317082,-0.512227,0.184442
3992764,0.98,-1.56945,-0.522332,0.00119651,-2.09553,1.57076,1.57274,0.784991,-1.56898,-0.522629,0.00153254,-2.09349,1.57166,1.57386,0.785292,0.0993647,0.0516666,0.0922305,0.0357204,0.0224393,0.124114,0.0011693,0.150348,0.0794929,0.135,0.0742341,0.0722967,0.269035,-0.0082589,6.96046,-5.56339,9.97321,21.4438,0.836199,-0.212194,0.304148,-0.565635,-1.32187,-0.669443,2.70777,0.319815,-0.488479,0.186667
3992765,0.98,-1.56932,-0.522264,0.00131324,-2.09549,1.57081,1.57292,0.784998,-1.56882,-0.522546,0.00167504,-2.09341,1.57174,1.57414,0.785284,0.108358,0.054009,0.0994096,0.0390872,0.0282996,0.141424,0.00315312,0.15789,0.0833997,0.1425,0.0778883,0.0760275,0.283914,-0.00863389,7.1866,-5.51181,10.4532,21.4676,0.779436,-0.257054,0.240061,-0.556576,-1.28825,-0.672927,2.70396,0.322786,-0.464916,0.189423
3992766,0.98,-1.56918,-0.522201,0.00143362,-2.09544,1.57086,1.57312,0.785002,-1.56866,-0.522458,0.00182504,-2.09333,1.57182,1.57444,0.785275,0.115795,0.056605,0.104029,0.0410578,0.0371201,0.161451,0.00356014,0.165431,0.0873065,0.15,0.0815426,0.0797582,0.298794,-0.00900888,7.36512,-5.36105,10.9095,21.5152,0.729082,-0.359594,0.200693,-0.54683,-1.25878,-0.672589,2.70219,0.326028,-0.441323,0.192536
3992767,0.98,-1.56904,-0.522133,0.00155848,-2.09539,1.57092,1.57335,0.785001,-1.56848,-0.522367,0.00198503,-2.09325,1.5719,1.57476,0.785265,0.124279,0.059106,0.109565,0.0441287,0.0416414,0.18724,0.00189871,0.174021,0.0917472,0.15999,0.0857073,0.0841899,0.31596,-0.00940557,7.56746,-5.2341,11.3419,21.6144,0.729082,-0.507909,0.213511,-0.534971,-1.22988,-0.666144,2.70186,0.329365,-0.418127,0.195774
3992768,0.98,-1.56889,-0.522064,0.00169067,-2.09533,1.57097,1.57359,0.785007,-1.5683,-0.52227,0.00215501,-2.09316,1.57199,1.57509,0.785255,0.131297,0.0634418,0.1136,0.0479355,0.0453073,0.20684,0.00340204,0.182611,0.0961879,0.16998,0.089872,0.0886217,0.333125,-0.00980226,7.74202,-5.08334,11.5919,21.666,0.729082,-0.533544,0.155832,-0.518976,-1.20054,-0.650413,2.70286,0.332622,-0.395979,0.198943
3992769,0.98,-1.56873,-0.521995,0.00181399,-2.09527,1.57104,1.57384,0.785,-1.56811,-0.52217,0.00233498,-2.09306,1.57208,1.57544,0.785245,0.139898,0.0661171,0.115293,0.051837,0.0523646,0.217015,-0.00471358,0.1912,0.100629,0.17997,0.0940367,0.0930534,0.350291,-0.010199,7.89674,-4.90482,11.9727,21.666,0.740068,-0.456639,0.219919,-0.496944,-1.17052,-0.622185,2.70487,0.335616,-0.375411,0.201916
3992770,0.98,-1.56856,-0.521913,0.00194871,-2.09521,1.57111,1.57412,0.784992,-1.56791,-0.522065,0.00252494,-2.09296,1.57218,1.57581,0.785235,0.154634,0.0705385,0.123477,0.0569008,0.0570135,0.236062,-0.00498445,0.19979,0.105069,0.18996,0.0982014,0.0974851,0.367457,-0.0105956,7.97212,-4.82944,12.4052,21.6898,0.76845,-0.392553,0.259287,-0.470399,-1.13871,-0.583098,2.707,0.33827,-0.356233,0.204629
3992771,0.98,-1.56839,-0.521835,0.00209464,-2.09513,1.57118,1.57441,0.784989,-1.5677,-0.521955,0.00272489,-2.09286,1.57228,1.57619,0.785224,0.158457,0.0721301,0.135383,0.0626736,0.0617365,0.255514,-0.00432304,0.20838,0.10951,0.19995,0.102366,0.101917,0.384623,-0.0109923,8.27363,-4.67868,12.8098,21.6422,0.76845,-0.366002,0.278513,-0.4448,-1.10249,-0.541565,2.70744,0.340736,-0.337563,0.207115
3992772,0.98,-1.56821,-0.521747,0.00225162,-2.09506,1.57127,1.57473,0.784981,-1.56749,-0.521841,0.00293483,-2.09275,1.57239,1.57659,0.785212,0.1654,0.0782679,0.141214,0.0671654,0.0713597,0.277556,-0.00475954,0.216969,0.113951,0.20994,0.106531,0.106349,0.401788,-0.011389,8.62672,-4.6033,13.3137,21.5906,0.729082,-0.40537,0.323374,-0.421801,-1.06077,-0.50133,2.70516,0.34315,-0.319036,0.209468
3992773,0.98,-1.56802,-0.521651,0.0024069,-2.09498,1.57136,1.57507,0.78498,-1.56726,-0.521723,0.00315476,-2.09264,1.5725,1.57701,0.7852,0.171163,0.0798996,0.145107,0.073374,0.073417,0.302208,-0.00309767,0.225559,0.118391,0.21993,0.110696,0.11078,0.418954,-0.0117857,8.92823,-4.55173,13.8969,21.543,0.700701,-0.514318,0.316965,-0.397151,-1.01485,-0.456713,2.70037,0.345432,-0.301178,0.211779
3992774,0.98,-1.56782,-0.521559,0.00257412,-2.0949,1.57146,1.57543,0.784984,-1.56703,-0.5216,0.00338468,-2.09253,1.57261,1.57745,0.785188,0.177025,0.0825619,0.149965,0.073079,0.0854634,0.316086,0.000424335,0.234149,0.122832,0.22992,0.11486,0.115212,0.43612,-0.0121824,9.3329,-4.42477,14.48,21.5668,0.643938,-0.514318,0.24647,-0.365882,-0.964499,-0.400306,2.69352,0.347406,-0.284624,0.214131
3992775,0.98,-1.56762,-0.521453,0.00275487,-2.09481,1.57156,1.57581,0.784989,-1.56678,-0.521473,0.00362459,-2.09241,1.57273,1.5779,0.785176,0.185413,0.0908363,0.157647,0.0757854,0.089824,0.333689,0.00331134,0.242738,0.127273,0.23991,0.119025,0.119644,0.453286,-0.0125791,9.68599,-4.42477,14.9879,21.5906,0.570696,-0.57932,0.162241,-0.326804,-0.915039,-0.330399,2.68889,0.349089,-0.269479,0.216536
3992776,0.98,-1.5674,-0.521348,0.00294245,-2.09472,1.57167,1.57621,0.784988,-1.56653,-0.521341,0.00387449,-2.09229,1.57286,1.57837,0.785163,0.191345,0.0949527,0.166455,0.0813061,0.0961605,0.353919,0.00213922,0.251328,0.131713,0.2499,0.12319,0.124075,0.470451,-0.0129758,10.0153,-4.3494,15.4679,21.6144,0.547807,-0.707494,0.162241,-0.282077,-0.874873,-0.250616,2.69079,0.350611,-0.25546,0.2189
3992777,0.98,-1.56718,-0.521239,0.00314011,-2.09462,1.57179,1.57664,0.784984,-1.56627,-0.521205,0.00413438,-2.09216,1.57299,1.57886,0.785149,0.205442,0.0976493,0.172339,0.0889854,0.104756,0.377007,0.00042545,0.260321,0.136425,0.25989,0.127626,0.128836,0.488345,-0.0133746,10.3406,-4.25021,15.7972,21.6144,0.542314,-0.823766,0.187876,-0.23437,-0.840889,-0.165085,2.696,0.351843,-0.242238,0.221093
3992778,0.98,-1.56694,-0.521118,0.00333397,-2.09451,1.57192,1.57708,0.784981,-1.566,-0.521063,0.00440426,-2.09203,1.57312,1.57937,0.785136,0.214385,0.102239,0.176463,0.092422,0.111015,0.399981,-0.000941605,0.269314,0.141138,0.26988,0.132061,0.133597,0.506239,-0.0137733,10.4913,-4.27402,16.178,21.5906,0.553301,-0.817357,0.219919,-0.184782,-0.80579,-0.0749089,2.69966,0.352541,-0.229795,0.223029
3992779,0.98,-1.5667,-0.521003,0.00353993,-2.0944,1.57204,1.57753,0.784972,-1.56572,-0.520918,0.00468413,-2.09189,1.57326,1.57989,0.785121,0.22099,0.11198,0.184754,0.099653,0.110367,0.41746,-0.00258935,0.278306,0.14585,0.27987,0.136497,0.138358,0.524133,-0.0141721,10.6461,-4.19864,16.5073,21.4914,0.581682,-0.766088,0.272104,-0.13207,-0.772628,0.0216279,2.70283,0.352701,-0.218543,0.224708
3992780,0.98,-1.56646,-0.520874,0.00375427,-2.09428,1.57218,1.57801,0.784956,-1.56544,-0.520767,0.00497399,-2.09175,1.5734,1.58043,0.785107,0.233446,0.119318,0.195106,0.104757,0.115489,0.437197,-0.00557951,0.287299,0.150562,0.28986,0.140933,0.143118,0.542026,-0.0145708,10.7968,-4.22244,16.7573,21.416,0.581682,-0.694677,0.375559,-0.0773579,-0.750302,0.122065,2.70926,0.352601,-0.208439,0.226218
3992781,0.98,-1.56621,-0.520748,0.00397289,-2.09416,1.57231,1.57852,0.784953,-1.56514,-0.520612,0.00527384,-2.0916,1.57355,1.58099,0.785092,0.237304,0.120583,0.203306,0.108269,0.118766,0.455119,-0.00207438,0.296292,0.155274,0.29985,0.145369,0.147879,0.55992,-0.0149696,10.9992,-4.07169,16.9596,21.3446,0.60457,-0.688268,0.330698,-0.0232868,-0.738895,0.22187,2.7193,0.352473,-0.19894,0.22772
3992782,0.98,-1.56594,-0.52061,0.00419951,-2.09403,1.57246,1.57906,0.784955,-1.56484,-0.520452,0.00558368,-2.09145,1.5737,1.58157,0.785077,0.242672,0.124707,0.208459,0.116497,0.127427,0.480917,0.00101242,0.305285,0.159986,0.30984,0.149805,0.15264,0.577814,-0.0153684,11.0983,-4.04788,17.2651,21.2931,0.592668,-0.772496,0.265696,0.032842,-0.728548,0.324444,2.72877,0.352194,-0.190119,0.229377
3992783,0.98,-1.56568,-0.520471,0.00444205,-2.0939,1.57261,1.57961,0.784952,-1.56452,-0.520287,0.00590351,-2.0913,1.57386,1.58217,0.785061,0.25067,0.13188,0.217457,0.12144,0.137317,0.505961,-0.00110494,0.314277,0.164698,0.31983,0.154241,0.157401,0.595708,-0.0157671,11.0983,-3.94473,17.4158,21.2931,0.491045,-0.785314,0.187876,0.0949678,-0.714288,0.435348,2.73451,0.351583,-0.182429,0.231232
3992784,0.98,-1.56539,-0.520318,0.00469453,-2.09376,1.57278,1.58019,0.784946,-1.5642,-0.520118,0.00623333,-2.09114,1.57402,1.58278,0.785045,0.256761,0.140847,0.226475,0.130176,0.148462,0.531729,-0.00439296,0.32327,0.169411,0.32982,0.158677,0.162162,0.613601,-0.0161659,11.1221,-3.9725,17.5706,21.2177,0.400408,-0.817357,0.149424,0.162801,-0.701366,0.554174,2.738,0.350683,-0.175949,0.233182
3992785,0.98,-1.56511,-0.520162,0.004948,-2.09362,1.57294,1.58079,0.784947,-1.56387,-0.519944,0.00657314,-2.09098,1.57419,1.58341,0.785028,0.262418,0.14827,0.237129,0.135826,0.152178,0.556863,0.00119992,0.332263,0.174123,0.33981,0.163113,0.166922,0.631495,-0.0165646,11.1221,-4.04788,17.8205,21.1701,0.417803,-0.913488,0.0194189,0.23452,-0.696137,0.678089,2.7416,0.34953,-0.17058,0.235051
3992786,0.98,-1.56482,-0.520005,0.00522025,-2.09347,1.57311,1.58141,0.784939,-1.56352,-0.519765,0.00692294,-2.09081,1.57436,1.58406,0.785011,0.268405,0.150919,0.246313,0.140497,0.156339,0.580451,0.000997197,0.341256,0.178835,0.3498,0.167548,0.171683,0.649389,-0.0169634,11.3007,-4.02011,17.8998,21.1185,0.417803,-0.97849,0.000192821,0.308598,-0.697981,0.804768,2.74572,0.348082,-0.1662,0.236631
3992787,0.98,-1.56453,-0.519846,0.00549932,-2.09331,1.57329,1.58206,0.784919,-1.56317,-0.519581,0.00728273,-2.09064,1.57454,1.58473,0.784994,0.275525,0.154038,0.257177,0.143022,0.163792,0.600848,-0.00659957,0.350097,0.183607,0.35979,0.172066,0.176543,0.667097,-0.017354,11.4514,-4.02011,17.9752,21.0947,0.428789,-1.02976,0.0587866,0.383242,-0.700028,0.931786,2.74923,0.346325,-0.162554,0.237697
3992788,0.98,-1.56422,-0.519678,0.00578489,-2.09316,1.57347,1.58273,0.784904,-1.56281,-0.519393,0.00765251,-2.09046,1.57472,1.58541,0.784976,0.284292,0.156311,0.26926,0.146961,0.169374,0.621573,-0.00995416,0.358938,0.188378,0.36978,0.176585,0.181403,0.684806,-0.0177447,11.3999,-4.02011,18.2014,21.0947,0.440691,-1.07462,0.0651953,0.455388,-0.695852,1.05476,2.75103,0.344339,-0.159165,0.238122
3992789,0.98,-1.5639,-0.519508,0.00608146,-2.09299,1.57365,1.5834,0.78489,-1.56245,-0.5192,0.00803228,-2.09028,1.5749,1.58611,0.784958,0.296152,0.157478,0.27769,0.15078,0.174618,0.629898,-0.00753382,0.367779,0.19315,0.37977,0.181103,0.186263,0.702514,-0.0181353,11.4514,-3.99631,18.3521,21.0947,0.428789,-0.972081,0.0651953,0.521214,-0.680044,1.16851,2.74956,0.34221,-0.155385,0.237935
3992790,0.98,-1.56359,-0.519343,0.00640236,-2.09282,1.57384,1.5841,0.784865,-1.56207,-0.519002,0.00842204,-2.0901,1.57509,1.58684,0.784939,0.299996,0.160049,0.290363,0.157462,0.177822,0.642912,-0.0130662,0.376621,0.197922,0.38976,0.185621,0.191123,0.720223,-0.018526,11.63,-3.89713,18.3045,21.0709,0.428789,-0.907079,0.135691,0.578872,-0.647548,1.271,2.74221,0.339916,-0.150751,0.237236
3992791,0.98,-1.56326,-0.519161,0.00671541,-2.09264,1.57403,1.58482,0.784836,-1.56169,-0.518799,0.00882179,-2.0899,1.57529,1.58757,0.78492,0.306568,0.167463,0.296053,0.162061,0.188167,0.682997,-0.0164925,0.385462,0.202693,0.39975,0.190139,0.195983,0.737931,-0.0189166,11.7291,-3.92093,18.4791,21.0709,0.480058,-0.952855,0.194285,0.631735,-0.601097,1.36701,2.72909,0.337408,-0.145734,0.236141
3992792,0.98,-1.56293,-0.518978,0.00704329,-2.09246,1.57423,1.58558,0.784816,-1.56129,-0.518592,0.00923153,-2.08971,1.57549,1.58833,0.784901,0.31561,0.172152,0.302031,0.16623,0.191598,0.704609,-0.0205781,0.394303,0.207465,0.40974,0.194657,0.200843,0.755639,-0.0193073,11.8561,-3.89713,18.4791,21.0193,0.524919,-1.04258,0.16865,0.686266,-0.550966,1.46592,2.71421,0.334697,-0.141496,0.234801
3992793,0.98,-1.56258,-0.518778,0.00738907,-2.09227,1.57445,1.58634,0.784789,-1.56089,-0.518379,0.00965126,-2.08951,1.5757,1.5891,0.784881,0.32844,0.178536,0.322965,0.175649,0.198402,0.720404,-0.0209203,0.403145,0.212237,0.41973,0.199175,0.205703,0.773348,-0.0196979,11.8283,-3.99631,18.4791,20.9955,0.440691,-1.01694,0.194285,0.740402,-0.502804,1.5646,2.69949,0.332027,-0.137764,0.233402
3992794,0.98,-1.56222,-0.518578,0.0077372,-2.09208,1.57466,1.58711,0.784767,-1.56048,-0.518162,0.010081,-2.08931,1.57591,1.58989,0.784861,0.339199,0.18571,0.329197,0.178069,0.201668,0.736582,-0.0195081,0.411986,0.217008,0.42972,0.203693,0.210563,0.791056,-0.0200886,11.7291,-4.07169,18.5306,21.0193,0.412309,-0.952855,0.181467,0.785825,-0.459208,1.65032,2.68543,0.329775,-0.133198,0.232092
3992795,0.98,-1.56185,-0.518369,0.00809733,-2.09188,1.57488,1.58791,0.784741,-1.56005,-0.51794,0.0105207,-2.0891,1.57612,1.5907,0.784841,0.345958,0.195884,0.339323,0.183228,0.209615,0.760376,-0.0199275,0.420827,0.22178,0.43971,0.208211,0.215423,0.808765,-0.0204792,11.7053,-4.22244,18.5306,21.0193,0.366533,-0.97849,0.200693,0.822683,-0.428728,1.72331,2.6765,0.328039,-0.127827,0.23093
3992796,0.98,-1.5615,-0.51816,0.00846814,-2.09168,1.5751,1.58875,0.784725,-1.55963,-0.517714,0.0109704,-2.08889,1.57634,1.59153,0.78482,0.345644,0.200539,0.347341,0.18921,0.20711,0.780092,-0.0165882,0.429668,0.226552,0.4497,0.212729,0.220283,0.826473,-0.0208698,12.0068,-4.27402,18.4791,20.9439,0.417803,-1.01694,0.122873,0.858381,-0.416986,1.79417,2.6756,0.326598,-0.12277,0.22993
3992797,0.98,-1.56112,-0.517951,0.00885,-2.09148,1.57533,1.58958,0.784696,-1.55919,-0.517483,0.0114301,-2.08867,1.57657,1.59237,0.784799,0.352014,0.206072,0.357734,0.193845,0.21749,0.799234,-0.0190568,0.437866,0.231211,0.45969,0.217182,0.225097,0.843499,-0.0212491,12.0822,-4.30179,18.4553,20.9955,0.394914,-1.08744,0.16865,0.898976,-0.419174,1.87086,2.68023,0.325145,-0.118831,0.229079
3992798,0.98,-1.56073,-0.517736,0.00924265,-2.09127,1.57558,1.59044,0.784673,-1.55874,-0.517247,0.0118998,-2.08845,1.5768,1.59323,0.784777,0.376506,0.208233,0.370041,0.197635,0.225314,0.811246,-0.0234319,0.446064,0.23587,0.46968,0.221634,0.229911,0.860526,-0.0216284,11.983,-4.32559,18.5822,21.0431,0.355547,-1.00412,0.162241,0.940318,-0.426382,1.94756,2.68673,0.323631,-0.115224,0.228332
3992799,0.98,-1.56032,-0.517512,0.00965497,-2.09105,1.57582,1.5913,0.784647,-1.55829,-0.517006,0.0123794,-2.08822,1.57703,1.59411,0.784755,0.3804,0.214018,0.382729,0.205889,0.23612,0.822522,-0.0241504,0.454262,0.240529,0.47967,0.226086,0.234726,0.877552,-0.0220077,11.983,-4.40097,18.5306,20.9955,0.282305,-0.933629,0.213511,0.97264,-0.430462,2.01086,2.69146,0.322144,-0.110308,0.227678
3992800,0.98,-1.55991,-0.517289,0.010075,-2.09082,1.57606,1.5922,0.784621,-1.55782,-0.516761,0.0128691,-2.08799,1.57727,1.595,0.784733,0.38809,0.217253,0.387793,0.211458,0.236525,0.844366,-0.0274118,0.46246,0.245188,0.48966,0.230539,0.23954,0.894578,-0.0223869,12.106,-4.42477,18.5544,20.9439,0.327165,-1.08103,0.213511,0.996983,-0.426662,2.06224,2.69131,0.320464,-0.104088,0.22714
3992801,0.98,-1.55951,-0.517054,0.0105023,-2.09059,1.5763,1.59314,0.784596,-1.55735,-0.516511,0.0133687,-2.08776,1.57752,1.59592,0.78471,0.389396,0.223827,0.402089,0.218214,0.240612,0.870641,-0.0250962,0.470658,0.249847,0.49965,0.234991,0.244354,0.911604,-0.0227662,12.2846,-4.50412,18.5068,20.9439,0.400408,-1.24857,0.213511,1.02129,-0.415065,2.1124,2.68573,0.318332,-0.0978197,0.226752
3992802,0.98,-1.55907,-0.516811,0.0109576,-2.09036,1.57655,1.59405,0.784568,-1.55688,-0.516257,0.0138784,-2.08752,1.57777,1.59684,0.784687,0.40338,0.230071,0.413473,0.222626,0.246019,0.883134,-0.028,0.478856,0.254506,0.50964,0.239443,0.249168,0.928631,-0.0231455,12.233,-4.62711,18.4037,20.9717,0.423296,-1.22294,0.219919,1.04713,-0.400286,2.16263,2.67707,0.315889,-0.0920232,0.226544
3992803,0.98,-1.55863,-0.516569,0.0114234,-2.09012,1.57682,1.59498,0.78455,-1.55639,-0.515998,0.014398,-2.08727,1.57802,1.59779,0.784663,0.420671,0.231456,0.431468,0.227732,0.250823,0.891593,-0.0230653,0.487054,0.259165,0.51963,0.243896,0.253982,0.945657,-0.0235247,12.0822,-4.75406,18.3283,20.9201,0.406816,-1.10026,0.149424,1.06653,-0.383713,2.20118,2.6669,0.31356,-0.0856621,0.226535
3992804,0.98,-1.55818,-0.516312,0.0118868,-2.08989,1.57708,1.59593,0.784532,-1.55589,-0.515734,0.0149276,-2.08702,1.57828,1.59875,0.784639,0.427001,0.238625,0.441403,0.229863,0.254251,0.912106,-0.0236263,0.495252,0.263824,0.52962,0.248348,0.258796,0.962683,-0.023904,12.0307,-4.90482,18.2529,20.9439,0.412309,-1.15885,0.0651953,1.07253,-0.364146,2.21826,2.65603,0.311696,-0.0776948,0.2267
3992805,0.98,-1.55773,-0.516062,0.0123765,-2.08964,1.57734,1.59689,0.784507,-1.55539,-0.515465,0.0154672,-2.08677,1.57854,1.59973,0.784615,0.428805,0.242889,0.455328,0.231494,0.261404,0.921908,-0.0227862,0.50345,0.268483,0.53961,0.2528,0.26361,0.979709,-0.0242833,12.0584,-4.98416,18.126,20.9439,0.423296,-1.15885,0.0651953,1.0694,-0.346832,2.21954,2.64834,0.310381,-0.0687459,0.226897
3992806,0.98,-1.55727,-0.515805,0.0128723,-2.08939,1.57762,1.59788,0.784475,-1.55488,-0.515192,0.0160168,-2.08651,1.57881,1.60073,0.78459,0.43682,0.244869,0.471595,0.24416,0.26436,0.94096,-0.0256271,0.511648,0.273142,0.5496,0.257253,0.268424,0.996736,-0.0246625,12.106,-5.00797,18.0506,20.9439,0.355547,-1.13321,0.162241,1.06249,-0.330405,2.21204,2.64253,0.309464,-0.0595506,0.226952
3992807,0.98,-1.55679,-0.51554,0.0133701,-2.08914,1.57789,1.59885,0.784455,-1.55436,-0.514915,0.0165764,-2.08625,1.57908,1.60174,0.784565,0.445968,0.252216,0.478961,0.244732,0.270054,0.952391,-0.0273494,0.51882,0.277548,0.55959,0.261525,0.273096,1.0128,-0.0250332,11.983,-5.00797,18.0228,20.9955,0.327165,-1.03617,0.135691,1.05297,-0.309038,2.19755,2.6337,0.308738,-0.05022,0.226805
3992808,0.98,-1.55631,-0.51527,0.0138829,-2.08888,1.57818,1.59986,0.784431,-1.55383,-0.514633,0.017146,-2.08599,1.57936,1.60277,0.78454,0.457179,0.259104,0.487416,0.252966,0.274153,0.958222,-0.026271,0.525991,0.281953,0.56958,0.265797,0.277767,1.02887,-0.025404,11.8561,-5.05954,18.0506,20.9717,0.282305,-0.933629,0.16865,1.04308,-0.288201,2.18084,2.62402,0.308037,-0.041013,0.226497
3992809,0.98,-1.55582,-0.514993,0.0144144,-2.08862,1.57845,1.60087,0.784404,-1.5533,-0.514346,0.0177256,-2.08572,1.57964,1.60382,0.784514,0.468726,0.262787,0.497813,0.255125,0.277205,0.995978,-0.0247634,0.533162,0.286359,0.57957,0.27007,0.282438,1.04494,-0.0257747,11.8561,-5.08334,17.8998,20.9955,0.253923,-0.907079,0.181467,1.03448,-0.273008,2.16585,2.61624,0.307226,-0.0321257,0.226079
3992810,0.98,-1.55532,-0.514715,0.0149575,-2.08835,1.57873,1.60192,0.784382,-1.55276,-0.514056,0.0183151,-2.08544,1.57993,1.60488,0.784488,0.470058,0.267223,0.503086,0.257539,0.277534,1.0148,-0.0277647,0.540333,0.290764,0.58956,0.274342,0.28711,1.06101,-0.0261454,11.8799,-5.13492,17.7967,20.9717,0.282305,-0.972081,0.181467,1.03081,-0.263036,2.15833,2.61126,0.306172,-0.0241526,0.225599
3992811,0.98,-1.55482,-0.514431,0.0155015,-2.08809,1.57902,1.603,0.78436,-1.55221,-0.51376,0.0189147,-2.08516,1.58022,1.60595,0.784461,0.480835,0.271482,0.522121,0.259359,0.282712,1.02724,-0.023977,0.547505,0.29517,0.59955,0.278614,0.291781,1.07708,-0.0265161,11.7807,-5.2341,17.7213,21.0947,0.287798,-1.04899,0.143015,1.03413,-0.258319,2.1606,2.61089,0.304867,-0.017302,0.225111
3992812,0.98,-1.55429,-0.51414,0.0160526,-2.08783,1.57932,1.60406,0.784336,-1.55166,-0.513461,0.0195242,-2.08488,1.58052,1.60705,0.784435,0.493655,0.275194,0.531124,0.261307,0.287734,1.0444,-0.0233197,0.554676,0.299576,0.60954,0.282887,0.296452,1.09315,-0.0268869,11.5784,-5.36105,17.6182,21.1939,0.287798,-1.04258,0.162241,1.03814,-0.258063,2.16298,2.61595,0.303525,-0.0105025,0.224648
3992813,0.98,-1.55376,-0.513853,0.016612,-2.08756,1.57962,1.60515,0.784314,-1.5511,-0.513157,0.0201438,-2.08459,1.58082,1.60816,0.784407,0.500054,0.281847,0.530718,0.264208,0.28681,1.05346,-0.0254603,0.561847,0.303981,0.61953,0.287159,0.301124,1.10922,-0.0272576,11.503,-5.38882,17.5428,21.3446,0.282305,-1.00412,0.122873,1.04185,-0.262776,2.1652,2.62688,0.30214,-0.00366,0.224197
3992814,0.98,-1.55324,-0.513554,0.0171719,-2.08728,1.57991,1.60627,0.78428,-1.55053,-0.512848,0.0207733,-2.0843,1.58113,1.60928,0.78438,0.508891,0.287503,0.547645,0.270346,0.28311,1.06603,-0.0271964,0.569019,0.308387,0.62952,0.291431,0.305795,1.12529,-0.0276283,11.5506,-5.4642,17.5706,21.3684,0.355547,-1.06821,0.213511,1.04945,-0.274389,2.17439,2.64353,0.300562,0.00253389,0.223748
3992815,0.98,-1.5527,-0.513254,0.0177554,-2.08699,1.58021,1.60737,0.784257,-1.54995,-0.512536,0.0214128,-2.08401,1.58144,1.61042,0.784352,0.511212,0.29038,0.553854,0.27398,0.287691,1.07768,-0.0289409,0.57619,0.312792,0.63951,0.295704,0.310467,1.14136,-0.027999,11.5784,-5.58719,17.5706,21.416,0.366533,-1.06821,0.194285,1.0603,-0.290208,2.1891,2.66331,0.298832,0.00815861,0.223325
3992816,0.98,-1.55217,-0.512945,0.0183514,-2.0867,1.58053,1.6085,0.784231,-1.54937,-0.512218,0.0220623,-2.08371,1.58175,1.61158,0.784323,0.513775,0.294779,0.563713,0.278733,0.292308,1.08145,-0.0261246,0.583361,0.317198,0.6495,0.299976,0.315138,1.15743,-0.0283697,11.7807,-5.69034,17.6182,21.3922,0.327165,-0.991307,0.187876,1.07616,-0.304593,2.21114,2.68297,0.296885,0.0130178,0.222983
3992817,0.98,-1.55161,-0.512631,0.018953,-2.08641,1.58083,1.60964,0.784207,-1.54878,-0.511897,0.0227218,-2.0834,1.58207,1.61275,0.784295,0.524583,0.298282,0.581205,0.282454,0.298654,1.09543,-0.0228953,0.589294,0.321242,0.65949,0.303974,0.319594,1.17234,-0.0287326,11.7529,-5.81729,17.7213,21.4914,0.304277,-1.01694,0.149424,1.09582,-0.314345,2.23817,2.70082,0.29476,0.0173933,0.222756
3992818,0.98,-1.55105,-0.512318,0.0195678,-2.08612,1.58114,1.61081,0.784181,-1.54818,-0.511572,0.0233913,-2.08309,1.5824,1.61394,0.784266,0.536989,0.301517,0.584361,0.287567,0.3051,1.1144,-0.0257385,0.595227,0.325286,0.66948,0.307972,0.32405,1.18724,-0.0290954,11.7807,-5.94424,17.7729,21.5906,0.276811,-1.13321,0.122873,1.11351,-0.317404,2.26189,2.71567,0.292606,0.0221488,0.222627
3992819,0.98,-1.55049,-0.512003,0.020192,-2.08582,1.58146,1.61201,0.78417,-1.54758,-0.511243,0.0240707,-2.08278,1.58272,1.61514,0.784236,0.53838,0.302954,0.598918,0.289789,0.309305,1.138,-0.0230626,0.60116,0.32933,0.67947,0.311969,0.328506,1.20215,-0.0294583,11.9077,-5.91647,17.7967,21.666,0.259416,-1.26139,-0.0318506,1.12968,-0.311423,2.28355,2.72644,0.290343,0.0270463,0.22252
3992820,0.98,-1.54991,-0.511671,0.0208186,-2.08552,1.58178,1.61322,0.784148,-1.54697,-0.510909,0.0247602,-2.08247,1.58306,1.61636,0.784206,0.549451,0.308262,0.604446,0.290709,0.310863,1.16312,-0.0260384,0.607093,0.333375,0.68946,0.315967,0.332962,1.21706,-0.0298212,11.8561,-6.04343,17.8205,21.7652,0.298784,-1.4802,-0.0648096,1.14789,-0.298276,2.30797,2.7351,0.287942,0.0311998,0.222278
3992821,0.98,-1.54934,-0.511344,0.0214606,-2.08521,1.5821,1.61446,0.784133,-1.54636,-0.510572,0.0254596,-2.08215,1.58339,1.61759,0.784176,0.572664,0.314568,0.606272,0.292592,0.310062,1.17663,-0.0225621,0.613026,0.337419,0.69945,0.319965,0.337418,1.23197,-0.030184,11.8045,-6.14658,17.8205,21.8167,0.36104,-1.79606,-0.122488,1.16818,-0.286639,2.33637,2.74704,0.285537,0.0341127,0.221666
3992822,0.98,-1.54875,-0.51101,0.0221023,-2.08491,1.58243,1.61566,0.784122,-1.54574,-0.51023,0.0261691,-2.08182,1.58374,1.61884,0.784146,0.573254,0.321831,0.624901,0.2941,0.317363,1.18643,-0.0191723,0.618959,0.341463,0.70944,0.323963,0.341874,1.24687,-0.0305469,11.7053,-6.24576,17.7967,21.8644,0.372942,-1.74479,-0.200308,1.18685,-0.286205,2.36466,2.7673,0.283374,0.035829,0.220467
3992823,0.98,-1.54816,-0.51067,0.0227624,-2.08459,1.58276,1.61687,0.784106,-1.54512,-0.509885,0.0268885,-2.0815,1.58408,1.6201,0.784115,0.575968,0.32639,0.628424,0.300141,0.321655,1.1798,-0.0194778,0.624892,0.345507,0.71943,0.327961,0.34633,1.26178,-0.0309097,11.7053,-6.42429,17.7451,21.789,0.412309,-1.41611,-0.206716,1.20363,-0.299851,2.39109,2.79653,0.281553,0.0361312,0.218519
3992824,0.98,-1.54759,-0.510325,0.0234315,-2.08427,1.58309,1.61811,0.78408,-1.54449,-0.509535,0.0276179,-2.08116,1.58443,1.62138,0.784083,0.58003,0.330722,0.643262,0.309901,0.323657,1.19114,-0.0234208,0.630825,0.349551,0.72942,0.331959,0.350786,1.27669,-0.0312726,11.8283,-6.49966,17.7967,21.7176,0.474565,-1.24857,-0.103262,1.22213,-0.320135,2.41983,2.82846,0.279848,0.0346896,0.215721
3992825,0.98,-1.547,-0.509978,0.0241131,-2.08395,1.58342,1.61937,0.784054,-1.54385,-0.509182,0.0283573,-2.08083,1.58479,1.62267,0.784052,0.576385,0.333314,0.65582,0.310953,0.328043,1.20973,-0.0258773,0.636758,0.353596,0.73941,0.335956,0.355242,1.2916,-0.0316354,12.0307,-6.55124,17.7451,21.7176,0.474565,-1.34562,0.000192821,1.24411,-0.337818,2.45229,2.85661,0.278202,0.0317226,0.2121
3992826,0.98,-1.5464,-0.509623,0.0248131,-2.08362,1.58378,1.62064,0.784031,-1.54321,-0.508824,0.0291067,-2.08049,1.58515,1.62397,0.78402,0.591795,0.338535,0.655799,0.313527,0.338367,1.2197,-0.026409,0.642691,0.35764,0.7494,0.339954,0.359698,1.30651,-0.0319983,11.9315,-6.7258,17.6697,21.6144,0.287798,-1.31357,0.071604,1.27184,-0.351714,2.49132,2.88133,0.276724,0.0273439,0.207832
3992827,0.98,-1.54576,-0.509278,0.0255091,-2.0833,1.58415,1.62194,0.784023,-1.54256,-0.508463,0.0298661,-2.08014,1.58551,1.62529,0.783987,0.603705,0.339438,0.670246,0.31272,0.348324,1.23434,-0.0220948,0.647321,0.361241,0.75939,0.343599,0.363872,1.32008,-0.0323532,11.6022,-6.67422,17.6697,21.6422,0.146807,-1.37766,0.0194189,1.30371,-0.36363,2.53617,2.9054,0.275432,0.0221216,0.203202
3992828,0.98,-1.54513,-0.508928,0.0262301,-2.08297,1.58451,1.62322,0.784014,-1.54191,-0.508098,0.0306355,-2.0798,1.58588,1.62663,0.783955,0.612113,0.353144,0.676624,0.312682,0.352723,1.2411,-0.018002,0.651952,0.364843,0.76938,0.347244,0.368046,1.33366,-0.0327081,11.4752,-6.702,17.5944,21.7652,0.0845506,-1.35203,-0.0648096,1.33384,-0.381515,2.57915,2.93427,0.274375,0.0170357,0.198481
3992829,0.98,-1.54451,-0.508567,0.0269692,-2.08264,1.58487,1.62454,0.783999,-1.54125,-0.50773,0.0314149,-2.07945,1.58625,1.62798,0.783922,0.611976,0.355506,0.708404,0.315118,0.350038,1.25484,-0.0170786,0.656582,0.368444,0.77937,0.350889,0.37222,1.34723,-0.033063,11.5506,-6.702,17.4436,21.8167,0.163286,-1.34562,-0.0968531,1.35612,-0.417132,2.60998,2.97426,0.273701,0.0129167,0.193797
3992830,0.98,-1.54387,-0.508197,0.0276966,-2.0823,1.58522,1.62586,0.783989,-1.54059,-0.507357,0.0322042,-2.07909,1.58663,1.62934,0.783888,0.612919,0.361093,0.715543,0.323222,0.350963,1.27769,-0.0157272,0.661212,0.372046,0.78936,0.354533,0.376394,1.36081,-0.0334179,11.503,-6.85275,17.4912,21.7176,0.327165,-1.35843,-0.149038,1.36703,-0.466458,2.6211,3.02221,0.273392,0.0102142,0.189152
3992831,0.98,-1.54323,-0.507832,0.0284404,-2.08195,1.58558,1.62719,0.783965,-1.53992,-0.506982,0.0330036,-2.07873,1.58701,1.63071,0.783854,0.613664,0.363713,0.717129,0.329981,0.351645,1.28562,-0.0189169,0.665842,0.375647,0.79935,0.358178,0.380568,1.37438,-0.0337729,11.4752,-6.9559,17.4674,21.5668,0.372942,-1.21012,-0.0904444,1.37562,-0.516065,2.62595,3.06858,0.272897,0.00760236,0.18447
3992832,0.98,-1.54258,-0.507458,0.0292076,-2.0816,1.58597,1.62855,0.783924,-1.53925,-0.506603,0.0338129,-2.07837,1.58739,1.6321,0.78382,0.628216,0.364209,0.735181,0.337747,0.361556,1.30751,-0.0262645,0.670472,0.379249,0.80934,0.361823,0.384742,1.38796,-0.0341278,11.2769,-7.15427,17.3167,21.4676,0.293291,-1.10666,0.110056,1.38897,-0.553056,2.63713,3.10459,0.271824,0.00421235,0.179686
3992833,0.98,-1.54192,-0.50708,0.0299581,-2.08124,1.58635,1.62992,0.783894,-1.53858,-0.50622,0.0346323,-2.07801,1.58778,1.6335,0.783786,0.638667,0.368048,0.741623,0.346631,0.372349,1.32533,-0.0271498,0.675102,0.38285,0.81933,0.365468,0.388916,1.40154,-0.0344827,11.0468,-7.20584,17.2889,21.3446,0.236528,-1.10666,0.207102,1.40069,-0.566846,2.64725,3.1236,0.270292,0.0012253,0.174901
3992834,0.98,-1.54128,-0.506707,0.0307402,-2.08088,1.58674,1.63132,0.783866,-1.5379,-0.505833,0.0354616,-2.07764,1.58818,1.63492,0.783751,0.637879,0.367608,0.763119,0.351663,0.379757,1.33992,-0.029746,0.679732,0.386451,0.82932,0.369112,0.39309,1.41511,-0.0348376,11.0745,-7.25742,17.1381,21.2931,0.163286,-1.10666,0.226328,1.40613,-0.553801,2.65003,3.12327,0.268388,-0.000440453,0.170406
3992835,0.97,-1.54063,-0.506334,0.031514,-2.08053,1.58713,1.6327,0.783851,-1.53721,-0.505443,0.0363009,-2.07726,1.58857,1.63634,0.783716,0.629341,0.367893,0.768451,0.35414,0.392407,1.38116,-0.0267485,0.684362,0.390053,0.83931,0.372757,0.397265,1.42869,-0.0351925,11.1499,-7.20584,17.0627,21.3169,0.112016,-1.10026,0.110056,1.41077,-0.514323,2.65192,3.10539,0.265985,-0.00154098,0.166494
3992836,0.96,-1.53996,-0.505958,0.0323092,-2.08017,1.58754,1.63412,0.783824,-1.53653,-0.50505,0.0371502,-2.07689,1.58898,1.63779,0.78368,0.638973,0.371262,0.768257,0.349935,0.395702,1.38509,-0.0275524,0.688992,0.393654,0.8493,0.376402,0.401439,1.44226,-0.0355474,11.0468,-7.25742,17.0627,21.2931,0.0387743,-1.08103,0.071604,1.4268,-0.457033,2.67019,3.07771,0.2628,-0.00399241,0.163258
3992837,0.96,-1.53928,-0.505567,0.0331201,-2.0798,1.58795,1.63555,0.783798,-1.53583,-0.504653,0.0380093,-2.07651,1.58938,1.63924,0.783644,0.646122,0.37806,0.780853,0.354122,0.399809,1.38796,-0.0277185,0.692447,0.396752,0.859101,0.37963,0.405253,1.45428,-0.0358959,10.9238,-7.38437,17.0865,21.1701,0.0332811,-1.03617,0.00660151,1.45669,-0.398351,2.7101,3.05131,0.258804,-0.00806078,0.160607
3992838,0.96,-1.5386,-0.505168,0.0339434,-2.07941,1.58835,1.63696,0.783768,-1.53514,-0.504253,0.0388782,-2.07612,1.58979,1.64071,0.783608,0.657597,0.382399,0.790804,0.357109,0.399063,1.39837,-0.0292234,0.695901,0.399849,0.868902,0.382858,0.409068,1.46629,-0.0362443,10.8206,-7.45975,16.9874,21.1185,0.027788,-0.97849,-0.0190333,1.49035,-0.349542,2.75804,3.03175,0.254292,-0.0120837,0.158389
3992839,0.96,-1.53792,-0.504776,0.0347819,-2.07902,1.58875,1.63843,0.783733,-1.53444,-0.50385,0.0397569,-2.07574,1.5902,1.64219,0.783571,0.674493,0.388455,0.795866,0.362948,0.397762,1.41673,-0.0282732,0.699356,0.402947,0.878703,0.386087,0.412883,1.47831,-0.0365928,10.8722,-7.53513,16.8088,21.0431,0.129411,-1.05539,0.0194189,1.51886,-0.313298,2.80205,3.01857,0.249487,-0.0147927,0.156428
3992840,0.96,-1.53724,-0.504378,0.0356195,-2.07863,1.58916,1.63988,0.783681,-1.53373,-0.503444,0.0406454,-2.07535,1.59062,1.64368,0.783535,0.675568,0.389466,0.811266,0.371189,0.406236,1.46284,-0.0360869,0.702811,0.406044,0.888505,0.389315,0.416698,1.49033,-0.0369413,10.7691,-7.63828,16.6303,20.9439,0.168779,-1.10026,0.16865,1.5399,-0.285076,2.83905,3.00717,0.244451,-0.0161574,0.154568
3992841,0.97,-1.53653,-0.503992,0.0364799,-2.07824,1.58959,1.64134,0.783637,-1.53303,-0.503035,0.0415437,-2.07496,1.59104,1.64518,0.783497,0.679316,0.388657,0.814733,0.374075,0.413626,1.44813,-0.0423731,0.706266,0.409141,0.898306,0.392543,0.420513,1.50234,-0.0372897,10.4675,-7.63828,16.4558,20.9717,0.157793,-0.894261,0.226328,1.557,-0.253078,2.87274,2.9903,0.239091,-0.0168432,0.152805
3992842,0.98,-1.53582,-0.503596,0.0373557,-2.07786,1.59003,1.64283,0.783611,-1.53232,-0.502623,0.0424518,-2.07456,1.59146,1.64669,0.78346,0.688495,0.387792,0.839807,0.38423,0.42262,1.45252,-0.0367884,0.70972,0.412239,0.908107,0.395771,0.424328,1.51436,-0.0376382,10.1898,-7.6105,16.3526,21.1185,0.0332811,-0.707494,0.122873,1.56829,-0.203554,2.89936,2.9613,0.233393,-0.0161367,0.151319
3992843,0.98,-1.53511,-0.5032,0.0382219,-2.07745,1.59046,1.64433,0.783575,-1.53161,-0.502207,0.0433697,-2.07416,1.59189,1.64822,0.783422,0.686632,0.390919,0.852901,0.388777,0.425233,1.47237,-0.0349511,0.713175,0.415336,0.917908,0.398999,0.428143,1.52637,-0.0379867,10.0153,-7.6105,16.1503,21.0947,0.027788,-0.798131,0.071604,1.5662,-0.130239,2.90674,2.91708,0.227585,-0.012523,0.150273
3992844,0.98,-1.53442,-0.502802,0.0391204,-2.07704,1.5909,1.64586,0.783534,-1.53089,-0.501789,0.0442974,-2.07376,1.59232,1.64976,0.783383,0.692204,0.392155,0.858681,0.394367,0.427997,1.48504,-0.0353586,0.71663,0.418433,0.927709,0.402228,0.431957,1.53839,-0.0383351,9.9637,-7.68588,15.9241,21.1185,0.00489977,-0.952855,0.0587866,1.55363,-0.038238,2.8985,2.86068,0.221672,-0.00646098,0.149615
3992845,0.98,-1.53372,-0.502394,0.0400186,-2.07664,1.59134,1.6474,0.7835,-1.53017,-0.501367,0.0452349,-2.07335,1.59276,1.65131,0.783345,0.694647,0.392938,0.874087,0.39584,0.435303,1.49164,-0.0341491,0.720084,0.421531,0.93751,0.405456,0.435772,1.5504,-0.0386836,10.0153,-7.78903,15.8488,21.1423,-0.0289747,-0.97849,0.00660151,1.53733,0.0654771,2.88507,2.79729,0.215487,0.000874509,0.149184
3992846,0.98,-1.533,-0.501979,0.0409373,-2.07623,1.59179,1.64892,0.783461,-1.52945,-0.500943,0.0461823,-2.07295,1.5932,1.65287,0.783306,0.702211,0.409095,0.887395,0.397053,0.436067,1.49435,-0.034292,0.723539,0.424628,0.947311,0.408684,0.439587,1.56242,-0.039032,9.88832,-7.96359,15.9241,21.1423,-0.0573561,-1.01053,-0.0190333,1.51638,0.163743,2.86493,2.73737,0.209272,0.0093088,0.148816
3992847,0.98,-1.53227,-0.501552,0.0418509,-2.07582,1.59224,1.65047,0.783421,-1.52872,-0.500515,0.0471384,-2.07253,1.59364,1.65444,0.783266,0.71263,0.412007,0.897346,0.398169,0.439412,1.50508,-0.0353698,0.725957,0.427173,0.956173,0.411445,0.442935,1.57272,-0.0393813,9.81294,-8.1937,15.9479,21.2931,-0.0683424,-1.01053,-0.0190333,1.4878,0.232013,2.83364,2.69426,0.203437,0.0188593,0.148353
3992848,0.98,-1.53156,-0.501126,0.042785,-2.07542,1.5927,1.65203,0.783378,-1.52799,-0.500086,0.0481035,-2.07212,1.59409,1.65603,0.783226,0.701681,0.415691,0.901842,0.397881,0.447053,1.52272,-0.0375071,0.728375,0.429718,0.965035,0.414206,0.446284,1.58302,-0.0397306,9.9637,-8.36826,15.8488,21.4914,-0.0573561,-1.17807,0.0194189,1.45754,0.265734,2.80026,2.67121,0.197836,0.0283185,0.147657
3992849,0.98,-1.53083,-0.500708,0.0437256,-2.07502,1.59314,1.65365,0.783342,-1.52726,-0.499654,0.0490774,-2.0717,1.59454,1.65762,0.783186,0.704434,0.416701,0.897871,0.398694,0.439398,1.54189,-0.0319288,0.730794,0.432263,0.973897,0.416966,0.449632,1.59331,-0.0400798,10.0153,-8.47141,15.8964,21.6144,0.0561693,-1.6157,-0.00621587,1.44235,0.274299,2.7893,2.66455,0.191841,0.0349289,0.146652
3992850,0.98,-1.53011,-0.500271,0.0446683,-2.0746,1.59361,1.65526,0.783321,-1.52653,-0.499219,0.0500601,-2.07128,1.59499,1.65922,0.783146,0.708659,0.418782,0.907421,0.404449,0.443831,1.55489,-0.0274106,0.733212,0.434808,0.982759,0.419727,0.45298,1.60361,-0.0404291,9.9875,-8.64597,15.7218,21.6898,0.0332811,-1.69993,-0.161856,1.45122,0.26915,2.81454,2.66818,0.185086,0.0369104,0.145354
3992851,0.98,-1.52937,-0.499838,0.0456258,-2.07419,1.59407,1.65682,0.783296,-1.52579,-0.498781,0.0510517,-2.07086,1.59545,1.66084,0.783105,0.706949,0.420737,0.914982,0.406814,0.454728,1.55318,-0.0274141,0.73563,0.437353,0.991621,0.422488,0.456328,1.61391,-0.0407784,9.86055,-8.80069,15.5433,21.7176,0.0561693,-1.50675,-0.246084,1.47912,0.261564,2.86882,2.67513,0.177649,0.0345451,0.14374
3992852,0.98,-1.52865,-0.499397,0.0465721,-2.07376,1.59453,1.65842,0.783261,-1.52505,-0.498341,0.0520522,-2.07044,1.59591,1.66246,0.783064,0.712382,0.425613,0.938362,0.409911,0.447659,1.56243,-0.0306046,0.738048,0.439898,1.00048,0.425249,0.459676,1.62421,-0.0411276,9.81294,-9.12601,15.5949,21.6898,0.202654,-1.39689,-0.246084,1.51438,0.255012,2.93369,2.68309,0.170004,0.0293706,0.141665
3992853,0.98,-1.52794,-0.498954,0.0475336,-2.07335,1.59499,1.66002,0.783229,-1.52431,-0.497899,0.0530616,-2.07001,1.59637,1.6641,0.783023,0.71063,0.429956,0.950285,0.411505,0.460826,1.5705,-0.0288679,0.740466,0.442443,1.00934,0.428009,0.463025,1.63451,-0.0414769,10.0629,-9.37991,15.3925,21.6898,0.202654,-1.31357,-0.225942,1.54452,0.245874,2.9891,2.69401,0.162882,0.0233261,0.138959
3992854,0.98,-1.52721,-0.498511,0.0485032,-2.07292,1.59547,1.66166,0.783204,-1.52357,-0.497454,0.0540798,-2.06958,1.59684,1.66574,0.782981,0.711494,0.43636,0.948366,0.412168,0.461989,1.58498,-0.0248498,0.742885,0.444988,1.01821,0.43077,0.466373,1.64481,-0.0418262,10.1383,-9.60605,15.3647,21.666,0.134905,-1.44175,-0.271719,1.57099,0.227107,3.0368,2.71112,0.156529,0.0164773,0.135515
3992855,0.98,-1.52648,-0.498068,0.0494741,-2.0725,1.59595,1.6633,0.783166,-1.52282,-0.497006,0.0551068,-2.06914,1.59731,1.6674,0.782939,0.718867,0.435065,0.959463,0.42113,0.464531,1.59619,-0.0266915,0.745303,0.447533,1.02707,0.433531,0.469721,1.65511,-0.0421754,9.88832,-9.7092,15.4163,21.7414,-0.00608656,-1.30076,-0.18749,1.60178,0.199822,3.08951,2.73243,0.150684,0.00796918,0.131319
3992856,0.98,-1.52574,-0.497614,0.0504504,-2.07208,1.59643,1.66492,0.783134,-1.52208,-0.496556,0.0561428,-2.06871,1.59778,1.66906,0.782896,0.719753,0.439984,0.967273,0.416868,0.476252,1.60769,-0.0298344,0.747721,0.450078,1.03593,0.436292,0.473069,1.66541,-0.0425247,9.78517,-9.91153,15.3925,21.8644,-0.153486,-1.13321,-0.161856,1.63595,0.172081,3.14659,2.75304,0.145158,-0.00176147,0.126455
3992857,0.98,-1.52502,-0.497172,0.0514659,-2.07165,1.59691,1.66656,0.783116,-1.52133,-0.496104,0.0571862,-2.06827,1.59826,1.67073,0.782853,0.726753,0.445551,0.976186,0.416977,0.478619,1.60442,-0.0293313,0.74926,0.452041,1.04339,0.438537,0.475787,1.67387,-0.0428823,9.93989,-9.93533,15.1148,21.9873,-0.181868,-0.913488,-0.225942,1.67003,0.139302,3.20317,2.77698,0.139862,-0.0118048,0.12107
3992858,0.98,-1.52429,-0.496717,0.0524809,-2.07123,1.59739,1.66824,0.783078,-1.52058,-0.49565,0.058237,-2.06783,1.59873,1.67242,0.78281,0.726675,0.447115,0.99134,0.417042,0.47734,1.65723,-0.034717,0.750799,0.454003,1.05084,0.440782,0.478505,1.68233,-0.04324,10.0153,-10.0107,14.8847,22.1143,-0.0738356,-1.05539,-0.135305,1.70168,0.0944852,3.2554,2.80944,0.134747,-0.0214939,0.115316
3992859,0.98,-1.52355,-0.496265,0.0534958,-2.0708,1.59787,1.66992,0.783039,-1.51982,-0.495194,0.0592953,-2.06738,1.59921,1.67411,0.782766,0.727079,0.447289,0.986911,0.422139,0.474056,1.66104,-0.0388952,0.752338,0.455966,1.05829,0.443028,0.481222,1.69079,-0.0435976,9.9875,-10.1377,14.9125,22.1381,-0.0234816,-0.991307,-0.0382593,1.73465,0.0441555,3.30791,2.84681,0.12956,-0.0312238,0.109323
3992860,0.98,-1.5228,-0.495809,0.0545095,-2.07037,1.59836,1.67163,0.783004,-1.51907,-0.494736,0.060361,-2.06694,1.5997,1.67581,0.782722,0.735098,0.447011,0.993381,0.431672,0.473917,1.66652,-0.034387,0.753877,0.457928,1.06575,0.445273,0.48394,1.69925,-0.0439552,9.68599,-10.2408,14.8609,22.2373,-0.0573561,-1.01053,-0.0126246,1.77538,0.00334905,3.371,2.87905,0.123789,-0.041546,0.103304
3992861,0.98,-1.52206,-0.495346,0.0555538,-2.06994,1.59886,1.67332,0.782964,-1.51832,-0.494277,0.0614342,-2.06649,1.60019,1.67751,0.782678,0.733142,0.44965,1.00525,0.432051,0.48559,1.67239,-0.0367243,0.755416,0.45989,1.0732,0.447518,0.486658,1.70771,-0.0443129,9.48365,-10.34,14.5832,22.3127,-0.141585,-1.04258,0.0523779,1.8215,-0.0183043,3.44231,2.89933,0.117284,-0.0516672,0.0975294
3992862,0.98,-1.52132,-0.494888,0.0566002,-2.0695,1.59935,1.67505,0.782931,-1.51756,-0.493815,0.0625149,-2.06604,1.60067,1.67923,0.782633,0.75597,0.448292,1.01199,0.4343,0.488776,1.68291,-0.0365525,0.756955,0.461853,1.08066,0.449763,0.489376,1.71617,-0.0446705,9.25752,-10.4154,14.3769,22.2889,-0.0628493,-1.17167,0.0523779,1.86352,-0.0216021,3.50851,2.90929,0.110341,-0.0601108,0.0922117
3992863,0.98,-1.52059,-0.494424,0.0576505,-2.06906,1.59986,1.67675,0.782888,-1.5168,-0.493351,0.063603,-2.06559,1.60117,1.68096,0.782588,0.746765,0.448069,1.0224,0.43912,0.493817,1.67111,-0.04184,0.758494,0.463815,1.08811,0.452009,0.492093,1.72463,-0.0450281,9.3567,-10.5701,13.8453,22.1619,-0.0683424,-0.952855,0.0780126,1.89401,-0.00587643,3.55984,2.91013,0.103158,-0.0658794,0.0875197
3992864,0.98,-1.51985,-0.49397,0.0587134,-2.06862,1.60036,1.67842,0.782851,-1.51604,-0.492885,0.0646986,-2.06514,1.60166,1.68269,0.782543,0.744875,0.461051,1.02935,0.436371,0.494767,1.6704,-0.039839,0.760033,0.465777,1.09557,0.454254,0.494811,1.73309,-0.0453858,9.30909,-10.5701,13.4684,22.1381,-0.10771,-0.592137,0.0587866,1.91676,0.0174642,3.60039,2.90776,0.0958184,-0.0695915,0.083548
3992865,0.98,-1.51909,-0.493505,0.0597764,-2.06816,1.60087,1.68015,0.782811,-1.51528,-0.492417,0.0658016,-2.06468,1.60216,1.68443,0.782497,0.763732,0.463307,1.0463,0.440959,0.497552,1.68224,-0.0421355,0.761572,0.46774,1.10302,0.456499,0.497529,1.74155,-0.0457434,8.82905,-10.6455,13.1113,21.9873,-0.114119,-0.495092,0.0130102,1.93245,0.0260068,3.62903,2.91351,0.0887227,-0.0713512,0.080301
3992866,0.98,-1.51831,-0.493042,0.0608689,-2.06771,1.60138,1.68188,0.782765,-1.51452,-0.491948,0.0669121,-2.06422,1.60266,1.68618,0.782451,0.766038,0.461864,1.05982,0.443637,0.500831,1.69435,-0.0411191,0.763111,0.469702,1.11048,0.458745,0.500246,1.75001,-0.046101,8.29744,-10.6177,12.7344,21.8405,-0.114119,-0.539952,0.0130102,1.93091,0.0210228,3.63063,2.92652,0.0822817,-0.0694884,0.0777252
3992867,0.98,-1.51753,-0.492588,0.0619858,-2.06726,1.60189,1.68365,0.782714,-1.51375,-0.491477,0.0680284,-2.06376,1.60316,1.68794,0.782405,0.763966,0.460462,1.0735,0.440771,0.502381,1.70375,-0.0468769,0.763954,0.471082,1.1163,0.460414,0.50211,1.75651,-0.046461,7.89674,-10.5423,12.1751,21.7176,-0.10771,-0.713903,0.0651953,1.90996,0.0177907,3.60167,2.93996,0.0764972,-0.0635003,0.0757032
3992868,0.98,-1.51675,-0.492118,0.0630952,-2.06681,1.60241,1.68541,0.782685,-1.51299,-0.491004,0.0691505,-2.0633,1.60367,1.6897,0.782358,0.767778,0.461315,1.0894,0.447136,0.502696,1.70918,-0.0385818,0.764797,0.472462,1.12212,0.462084,0.503973,1.76301,-0.046821,7.4405,-10.5701,11.7466,21.543,-0.0683424,-0.75327,-0.0904444,1.87359,0.0239244,3.5475,2.95084,0.0712485,-0.0540937,0.0741311
3992869,0.98,-1.51596,-0.491636,0.0642469,-2.06635,1.60291,1.68714,0.782649,-1.51222,-0.49053,0.0702784,-2.06283,1.60417,1.69147,0.782311,0.770607,0.465886,1.10314,0.44956,0.500015,1.72127,-0.0394266,0.76564,0.473842,1.12794,0.463754,0.505837,1.76951,-0.047181,7.03584,-10.7209,11.2388,21.4438,-0.0738356,-0.636998,-0.200308,1.82204,0.0398192,3.469,2.95729,0.066529,-0.0417891,0.07291
3992870,0.98,-1.51519,-0.491169,0.0654143,-2.06588,1.60343,1.68891,0.782615,-1.51145,-0.490055,0.0714122,-2.06237,1.60468,1.69325,0.782263,0.767141,0.464534,1.12819,0.453631,0.502102,1.72564,-0.0352967,0.766483,0.475222,1.13376,0.465424,0.5077,1.77601,-0.0475409,6.88508,-10.82,10.6834,21.3922,-0.114119,-0.611364,-0.31658,1.75384,0.0631742,3.36414,2.95873,0.0624594,-0.0268803,0.0718121
3992871,0.98,-1.5144,-0.490692,0.0665458,-2.06542,1.60395,1.69067,0.782572,-1.51069,-0.489578,0.0725518,-2.0619,1.60519,1.69503,0.782215,0.766703,0.470404,1.13067,0.452554,0.505774,1.76733,-0.0359152,0.767326,0.476602,1.13958,0.467093,0.509563,1.78251,-0.0479009,6.63514,-10.9986,10.4532,21.3922,-0.15898,-0.67545,-0.336721,1.67312,0.0901026,3.23854,2.95686,0.0590137,-0.0104222,0.0704709
3992872,0.98,-1.51361,-0.490213,0.0676867,-2.06495,1.60447,1.69251,0.782532,-1.50992,-0.4891,0.0736972,-2.06143,1.6057,1.69682,0.782167,0.76799,0.474114,1.11774,0.456669,0.501842,1.78919,-0.032001,0.76817,0.477982,1.1454,0.468763,0.511427,1.78901,-0.0482609,6.40504,-11.2525,10.3025,21.2931,-0.15898,-1.21653,-0.336721,1.59905,0.109958,3.12174,2.95623,0.05556,0.00419523,0.0684993
3992873,0.98,-1.51285,-0.489734,0.0688345,-2.06448,1.605,1.69434,0.782496,-1.50915,-0.488621,0.0748484,-2.06096,1.60621,1.69861,0.782118,0.770132,0.475586,1.13203,0.471129,0.510576,1.79401,-0.038369,0.769013,0.479361,1.15122,0.470433,0.51329,1.79551,-0.0486209,6.38124,-11.4548,10.124,21.2931,-0.244124,-1.58365,-0.336721,1.54664,0.122032,3.0386,2.95375,0.0512698,0.0143047,0.065685
3992874,0.98,-1.51207,-0.489257,0.0699587,-2.06401,1.60551,1.69609,0.782458,-1.50838,-0.48814,0.0760054,-2.06049,1.60673,1.70041,0.782069,0.77021,0.475469,1.13413,0.467966,0.509089,1.78216,-0.0385418,0.769856,0.480741,1.15704,0.472103,0.515153,1.80201,-0.0489808,6.38124,-11.6056,10.1517,21.3446,-0.221235,-1.30076,-0.329397,1.51119,0.137286,2.98368,2.9417,0.0458683,0.0202354,0.0620227
3992875,0.98,-1.51131,-0.488789,0.0710874,-2.06353,1.60601,1.69786,0.782412,-1.50761,-0.487658,0.0771683,-2.06002,1.60725,1.70222,0.78202,0.773932,0.472498,1.11917,0.469766,0.508921,1.75027,-0.0408158,0.770699,0.482121,1.16286,0.473772,0.517017,1.80851,-0.0493408,6.71052,-11.6294,10.3779,21.3684,-0.0857374,-0.959264,-0.26531,1.49049,0.161012,2.9551,2.92028,0.0391628,0.0222188,0.0575817
3992876,0.98,-1.5106,-0.488307,0.0722248,-2.06306,1.60653,1.69962,0.782374,-1.50684,-0.487175,0.078337,-2.05954,1.60776,1.70404,0.78197,0.757164,0.471075,1.12556,0.471704,0.504842,1.75368,-0.0406934,0.771542,0.483501,1.16868,0.475442,0.51888,1.81501,-0.0497008,7.54365,-11.7325,10.5048,21.3684,0.0442674,-0.759679,-0.23876,1.49272,0.196215,2.96545,2.8911,0.0308419,0.0195248,0.0524877
3992877,0.98,-1.50986,-0.48783,0.0733856,-2.06257,1.60704,1.70144,0.782331,-1.50607,-0.48669,0.0795097,-2.05906,1.60828,1.70586,0.78192,0.747486,0.471689,1.12593,0.476464,0.50639,1.75913,-0.0413435,0.771879,0.484308,1.1727,0.476498,0.519859,1.81943,-0.0500472,8.0475,-11.8595,10.4294,21.3169,0.0506761,-0.991307,-0.18749,1.52453,0.243504,3.02114,2.8543,0.0211027,0.0118226,0.0469271
3992878,0.98,-1.50909,-0.487331,0.0745134,-2.06209,1.60757,1.70328,0.782287,-1.50529,-0.486205,0.0806864,-2.05859,1.60881,1.70768,0.78187,0.757452,0.481097,1.12531,0.471727,0.509793,1.77647,-0.0432593,0.772216,0.485115,1.17671,0.477555,0.520837,1.82386,-0.0503936,7.94435,-12.1094,10.6556,21.416,-0.0289747,-1.12681,-0.103262,1.58513,0.289194,3.11724,2.81702,0.0106619,-0.000364929,0.0410864
3992879,0.98,-1.5083,-0.486828,0.0756541,-2.06162,1.60809,1.7051,0.78225,-1.50452,-0.485719,0.0818671,-2.05811,1.60933,1.70951,0.781819,0.762264,0.486829,1.13044,0.478144,0.514734,1.809,-0.0412188,0.772553,0.485922,1.18073,0.478611,0.521815,1.82828,-0.05074,7.61903,-12.3117,11.0364,21.4676,-0.153486,-1.10026,-0.103262,1.66547,0.311779,3.2391,2.79031,0.000362731,-0.0158642,0.035159
3992880,0.98,-1.50757,-0.486332,0.0768456,-2.06115,1.60863,1.70691,0.782223,-1.50375,-0.485233,0.0830518,-2.05763,1.60985,1.71134,0.781768,0.751441,0.487847,1.13122,0.468067,0.524915,1.81215,-0.0399504,0.772889,0.486728,1.18474,0.479667,0.522793,1.8327,-0.0510864,8.01973,-12.5141,10.6834,21.7176,-0.20384,-0.97849,-0.232351,1.75912,0.302029,3.37649,2.77975,-0.0094211,-0.0340374,0.0293442
3992881,0.98,-1.50684,-0.485833,0.0780169,-2.06068,1.60915,1.70875,0.782179,-1.50297,-0.484745,0.0842406,-2.05715,1.61037,1.71318,0.781717,0.738749,0.487769,1.14824,0.46481,0.522193,1.81065,-0.0446776,0.773226,0.487535,1.18876,0.480723,0.523772,1.83712,-0.0514328,8.14668,-12.7164,10.2509,21.8405,-0.125105,-0.965673,-0.219534,1.86459,0.2625,3.52533,2.78794,-0.0186992,-0.0544113,0.0237401
3992882,0.98,-1.50606,-0.48533,0.0791838,-2.06021,1.60966,1.71058,0.782142,-1.5022,-0.484257,0.0854334,-2.05667,1.6109,1.71502,0.781665,0.743837,0.490844,1.1435,0.466351,0.519233,1.81489,-0.0410749,0.773563,0.488342,1.19277,0.481779,0.52475,1.84155,-0.0517792,7.69441,-12.8672,9.97321,22.0627,-0.000593394,-0.933629,-0.271719,1.97728,0.200485,3.67756,2.81336,-0.02746,-0.0757857,0.0183285
3992883,0.98,-1.50527,-0.484832,0.0803692,-2.05972,1.61021,1.71241,0.782087,-1.50143,-0.483768,0.0866302,-2.05618,1.61142,1.71687,0.781613,0.763187,0.496229,1.1585,0.469588,0.522592,1.80131,-0.0454495,0.7739,0.489149,1.19679,0.482836,0.525728,1.84597,-0.0521256,7.08741,-13.0219,9.33844,22.2135,-0.181868,-0.701085,-0.135305,2.08429,0.123507,3.81644,2.84993,-0.0355212,-0.0958751,0.0130627
3992884,0.98,-1.50447,-0.484342,0.0815619,-2.05926,1.61074,1.71422,0.782038,-1.50065,-0.483278,0.087831,-2.0557,1.61195,1.71872,0.78156,0.775118,0.493621,1.16842,0.467724,0.522479,1.80636,-0.0486382,0.774237,0.489955,1.20081,0.483892,0.526707,1.85039,-0.052472,6.28205,-13.0457,8.93378,22.4118,-0.340254,-0.463048,-0.103262,2.16449,0.0400738,3.91456,2.89196,-0.0424197,-0.111285,0.00795498
