shamilmamedov/beam_handling/log/param_estimation_ICRA/ocp_Xup_15cm_0.35s_3.csv
duration, success rate, q[0], q[1], q[2], q[3], q[4], q[5], q[6],q_d[0], q_d[1], q_d[2], q_d[3], q_d[4], q_d[5], q_d[6],dq[0], dq[1], dq[2], dq[3], dq[4], dq[5], dq[6],dq_d[0], dq_d[1], dq_d[2], dq_d[3], dq_d[4], dq_d[5], dq_d[6],tau_J[0], tau_J[1], tau_J[2], tau_J[3], tau_J[4], tau_J[5], tau_J[6],tau_ext_hat_filtered[0], tau_ext_hat_filtered[1], tau_ext_hat_filtered[2], tau_ext_hat_filtered[3], tau_ext_hat_filtered[4], tau_ext_hat_filtered[5], tau_ext_hat_filtered[6]
4229182,0,-1.57052,-0.522916,-2.56145e-05,-2.09578,1.57055,1.57159,0.785051,-1.5708,-0.523598,1.82629e-07,-2.09439,1.5708,1.5708,0.785398,0.000114062,3.16016e-05,0.000670203,0.000734789,0.00024272,-0.000147857,-0.00109055,0,0,0,0,0,0,0,-0.402821,-10.213,-0.409177,20.7972,0.847185,-0.617772,0.149424,-0.393221,-1.0836,0.00233907,2.31127,0.293626,-0.617619,0.165131
4229183,1,-1.57052,-0.522915,-2.56144e-05,-2.09578,1.57055,1.57159,0.785057,-1.5708,-0.523598,1.82629e-07,-2.09439,1.5708,1.5708,0.785398,-0.000480771,0.000670682,0.000446802,-0.000623763,-7.55455e-05,-0.000573289,0.00120575,0,0,0,0,0,0,0,-0.379017,-10.2408,-0.409177,20.8448,0.853594,-0.604955,0.0972387,-0.393956,-1.08614,0.00145354,2.31231,0.293682,-0.617546,0.165121
4229184,1,-1.57052,-0.522915,-2.92336e-05,-2.09578,1.57055,1.57159,0.785055,-1.5708,-0.523598,1.82629e-07,-2.09439,1.5708,1.5708,0.785398,0.000885912,-0.000202493,-0.000908558,0.0013474,-0.000457265,-0.000144834,0.000329115,0,0,0,0,0,0,0,-0.430592,-10.213,-0.357602,20.7694,0.86458,-0.611364,0.110056,-0.394516,-1.08836,0.000855573,2.31305,0.293693,-0.617497,0.165142
4229185,1,-1.57052,-0.52292,-2.75632e-05,-2.09578,1.57055,1.57159,0.785049,-1.5708,-0.523598,1.82629e-07,-2.09439,1.5708,1.5708,0.785398,-0.00182224,-0.00124862,-4.88933e-05,-0.000864972,0.000102058,0.000378162,-0.00171337,0,0,0,0,0,0,0,-0.327442,-10.1654,-0.381406,20.8448,0.853594,-0.624181,0.162241,-0.394212,-1.08844,0.00162133,2.31261,0.293616,-0.617541,0.165173
4229186,1,-1.57052,-0.522913,-2.75632e-05,-2.09579,1.57055,1.57159,0.785054,-1.5708,-0.523598,1.82629e-07,-2.09439,1.5708,1.5708,0.785398,0.000548409,0.000930825,-3.25955e-05,-0.00122626,6.80386e-05,1.4749e-05,0.000553175,0,0,0,0,0,0,0,-0.402821,-10.2408,-0.381406,20.8725,0.853594,-0.617772,0.116465,-0.39314,-1.08768,0.00344462,2.3122,0.293524,-0.617671,0.165204
4229187,1,-1.57052,-0.522912,-2.75632e-05,-2.09578,1.57055,1.57159,0.785057,-1.5708,-0.523598,1.82629e-07,-2.09439,1.5708,1.5708,0.785398,-0.000191206,0.00062055,-2.17303e-05,-0.000167893,0.000486169,-0.000227526,0.00108086,0,0,0,0,0,0,0,-0.379017,-10.2408,-0.381406,20.8448,0.841692,-0.611364,0.0972387,-0.392224,-1.08953,0.00496451,2.31349,0.293498,-0.617794,0.165261
4229188,1,-1.57052,-0.522916,-2.56143e-05,-2.09578,1.57055,1.57159,0.785053,-1.5708,-0.523598,1.82629e-07,-2.09439,1.5708,1.5708,0.785398,0.000429341,-0.000235914,0.000635127,-0.000111928,-0.000727049,8.56748e-05,-0.000466221,0,0,0,0,0,0,0,-0.402821,-10.213,-0.409177,20.8448,0.870073,-0.617772,0.129282,-0.391995,-1.09258,0.0054578,2.31527,0.2935,-0.617822,0.165338
4229189,1,-1.57052,-0.522919,-2.39439e-05,-2.09578,1.57055,1.57159,0.785056,-1.5708,-0.523598,1.82629e-07,-2.09439,1.5708,1.5708,0.785398,-0.000270584,-0.000714088,0.00098023,0.000482193,0.000125652,-0.000180242,0.000638621,0,0,0,0,0,0,0,-0.379017,-10.1892,-0.432981,20.821,0.853594,-0.611364,0.103647,-0.392609,-1.09348,0.00460219,2.31573,0.293478,-0.617693,0.165412
4229190,1,-1.57052,-0.522917,-2.56143e-05,-2.09578,1.57055,1.57159,0.785056,-1.5708,-0.523598,1.82629e-07,-2.09439,1.5708,1.5708,0.785398,-0.000737202,8.07534e-05,9.66747e-05,0.000321462,-0.000119682,-0.000120162,0.000425748,0,0,0,0,0,0,0,-0.355213,-10.213,-0.409177,20.821,0.859087,-0.611364,0.103647,-0.393496,-1.09191,0.00317052,2.31468,0.293419,-0.617486,0.165473
4229191,1,-1.57052,-0.522919,-2.75632e-05,-2.09578,1.57055,1.57159,0.785055,-1.5708,-0.523598,1.82629e-07,-2.09439,1.5708,1.5708,0.785398,0.000622156,-0.000502976,-0.000585164,0.000214308,0.000361021,0.000157251,4.64728e-05,0,0,0,0,0,0,0,-0.402821,-10.1892,-0.381406,20.821,0.847185,-0.617772,0.110056,-0.393774,-1.08944,0.00257718,2.31295,0.293316,-0.617345,0.165506
4229192,1,-1.57052,-0.522915,-2.77448e-05,-2.09578,1.57055,1.57159,0.785057,-1.5708,-0.523598,1.82629e-07,-2.09439,1.5708,1.5708,0.785398,-0.000142041,0.000871108,0.000259505,0.000142872,-0.000403579,-0.000132525,0.000743059,0,0,0,0,0,0,0,-0.379017,-10.2408,-0.409177,20.821,0.86458,-0.611364,0.09083,-0.393587,-1.08759,0.00272612,2.31141,0.293199,-0.61727,0.165495
4229193,1,-1.57052,-0.522915,-2.82733e-05,-2.09578,1.57055,1.57159,0.785054,-1.5708,-0.523598,1.82629e-07,-2.09439,1.5708,1.5708,0.785398,-9.46941e-05,-6.88751e-05,-0.000476611,9.52484e-05,0.000375207,-8.83499e-05,-0.000691422,0,0,0,0,0,0,0,-0.379017,-10.213,-0.381406,20.821,0.847185,-0.611364,0.122873,-0.393193,-1.08728,0.0031713,2.3106,0.2931,-0.617233,0.165435
4229194,1,-1.57052,-0.522918,-2.5851e-05,-2.09578,1.57055,1.57159,0.785051,-1.5708,-0.523598,1.82629e-07,-2.09439,1.5708,1.5708,0.785398,-6.31294e-05,-0.000602729,0.000331873,-0.000493313,-0.000190671,0.000178459,-0.00144429,0,0,0,0,0,0,0,-0.379017,-10.1892,-0.409177,20.8448,0.859087,-0.617772,0.149424,-0.39261,-1.08727,0.00383307,2.31008,0.293013,-0.617215,0.165327
4229195,1,-1.57052,-0.52292,-2.93125e-05,-2.09578,1.57055,1.57159,0.785056,-1.5708,-0.523598,1.82629e-07,-2.09439,1.5708,1.5708,0.785398,0.000514726,-0.000958631,-0.000985177,0.000227937,-0.000127114,-0.000355745,0.000732559,0,0,0,0,0,0,0,-0.402821,-10.1654,-0.357602,20.821,0.859087,-0.604955,0.103647,-0.39199,-1.08572,0.00455147,2.30908,0.292913,-0.617169,0.165206
4229196,1,-1.57052,-0.522915,-2.56406e-05,-2.09579,1.57055,1.57159,0.785057,-1.5708,-0.523598,1.82629e-07,-2.09439,1.5708,1.5708,0.785398,0.00034315,0.00112415,0.000549641,-0.00105447,0.000356067,0.000474913,0.000963091,0,0,0,0,0,0,0,-0.402821,-10.2408,-0.409177,20.8725,0.847185,-0.624181,0.09083,-0.391523,-1.0842,0.00511478,2.30831,0.292826,-0.617094,0.165105
4229197,1,-1.57052,-0.522917,-2.75719e-05,-2.09578,1.57055,1.57159,0.785051,-1.5708,-0.523598,1.82629e-07,-2.09439,1.5708,1.5708,0.785398,0.000878381,9.98197e-05,-0.000283186,-5.33647e-05,1.88341e-08,0.000316609,-0.00152808,0,0,0,0,0,0,0,-0.430592,-10.213,-0.381406,20.8448,0.853594,-0.624181,0.149424,-0.391564,-1.08528,0.00498277,2.30899,0.292805,-0.61698,0.165009
4229198,1,-1.57052,-0.522919,-2.75661e-05,-2.09578,1.57055,1.57159,0.785052,-1.5708,-0.523598,1.82629e-07,-2.09439,1.5708,1.5708,0.785398,-0.000620839,-0.000490265,-0.000188791,-3.55765e-05,-0.000203438,0.000211073,-0.000510093,0,0,0,0,0,0,0,-0.379017,-10.1892,-0.381406,20.8448,0.859087,-0.624181,0.135691,-0.39176,-1.08702,0.00468091,2.30997,0.292799,-0.616871,0.164908
4229199,1,-1.57052,-0.522917,-2.56153e-05,-2.09578,1.57055,1.57159,0.785057,-1.5708,-0.523598,1.82629e-07,-2.09439,1.5708,1.5708,0.785398,-0.000413892,0.000229968,0.000523753,0.000533094,6.78252e-05,-0.000571362,0.00132145,0,0,0,0,0,0,0,-0.379017,-10.213,-0.409177,20.821,0.853594,-0.604955,0.09083,-0.391616,-1.08725,0.00486507,2.31,0.292743,-0.616822,0.164836
4229200,1,-1.57052,-0.522914,-2.75635e-05,-2.09578,1.57055,1.57159,0.785051,-1.5708,-0.523598,1.82629e-07,-2.09439,1.5708,1.5708,0.785398,-0.000275928,0.00135974,-0.000300445,0.000355396,4.52168e-05,9.381e-05,-0.00128917,0,0,0,0,0,0,0,-0.379017,-10.2646,-0.381406,20.821,0.853594,-0.617772,0.149424,-0.391297,-1.08783,0.00523371,2.30985,0.292673,-0.616823,0.164801
4229201,1,-1.57052,-0.522917,-2.75633e-05,-2.09578,1.57055,1.57159,0.785053,-1.5708,-0.523598,1.82629e-07,-2.09439,1.5708,1.5708,0.785398,-0.000740764,-0.000299934,-0.000200297,0.000236931,-0.000173306,6.254e-05,-0.000113463,0,0,0,0,0,0,0,-0.355213,-10.213,-0.381406,20.821,0.859087,-0.617772,0.129282,-0.390626,-1.0896,0.00609518,2.31001,0.292601,-0.616898,0.164786
4229202,1,-1.57052,-0.522915,-2.92336e-05,-2.09579,1.57055,1.57159,0.785057,-1.5708,-0.523598,1.82629e-07,-2.09439,1.5708,1.5708,0.785398,0.000619781,-0.000199956,-0.000690343,-0.00160528,-0.000318988,0.000279052,0.00111115,0,0,0,0,0,0,0,-0.402821,-10.213,-0.357602,20.8963,0.86458,-0.624181,0.0972387,-0.389581,-1.09107,0.00753707,2.31034,0.292527,-0.617023,0.164799
4229203,1,-1.57052,-0.522917,-2.75632e-05,-2.09578,1.57055,1.57159,0.785056,-1.5708,-0.523598,1.82629e-07,-2.09439,1.5708,1.5708,0.785398,0.000413187,-0.000133304,9.65832e-05,0.000136237,-9.20804e-06,-5.13241e-05,0.00050341,0,0,0,0,0,0,0,-0.402821,-10.213,-0.381406,20.8448,0.859087,-0.617772,0.103647,-0.388821,-1.09188,0.00866283,2.31095,0.292482,-0.617096,0.164838
4229204,1,-1.57052,-0.522915,-2.92336e-05,-2.09579,1.57055,1.57159,0.785052,-1.5708,-0.523598,1.82629e-07,-2.09439,1.5708,1.5708,0.785398,-0.000281354,0.000560745,-0.000492423,-0.0011156,0.000197312,-0.000271575,-0.000851188,0,0,0,0,0,0,0,-0.379017,-10.2408,-0.357602,20.8963,0.853594,-0.611364,0.135691,-0.388488,-1.09284,0.00925068,2.3119,0.292474,-0.617112,0.164869
4229205,1,-1.57052,-0.522917,-2.75632e-05,-2.09578,1.57055,1.57159,0.785057,-1.5708,-0.523598,1.82629e-07,-2.09439,1.5708,1.5708,0.785398,0.000369243,-0.000275784,0.00022853,0.0010195,0.000131541,0.000293668,0.000856695,0,0,0,0,0,0,0,-0.402821,-10.213,-0.381406,20.821,0.853594,-0.624181,0.0972387,-0.388307,-1.09382,0.0096559,2.31272,0.292476,-0.617113,0.164882
4229206,1,-1.57052,-0.522917,-2.56143e-05,-2.09578,1.57055,1.57159,0.785058,-1.5708,-0.523598,1.82629e-07,-2.09439,1.5708,1.5708,0.785398,0.000246162,-0.000183856,0.000801967,0.000679669,-0.000115756,-0.000516298,0.00104585,0,0,0,0,0,0,0,-0.402821,-10.213,-0.409177,20.821,0.859087,-0.604955,0.0844213,-0.388749,-1.09307,0.00916022,2.31223,0.292454,-0.617012,0.164887
4229207,1,-1.57052,-0.522915,-2.56143e-05,-2.09579,1.57055,1.57159,0.785053,-1.5708,-0.523598,1.82629e-07,-2.09439,1.5708,1.5708,0.785398,-0.000949516,-0.000122571,0.000534645,-0.000753313,-0.000484072,-0.000344199,-0.000964281,0,0,0,0,0,0,0,-0.355213,-10.213,-0.409177,20.8725,0.870073,-0.604955,0.129282,-0.389826,-1.09093,0.00762908,2.31084,0.29243,-0.6168,0.164865
4229208,1,-1.57052,-0.522914,-2.75632e-05,-2.09579,1.57055,1.57159,0.785057,-1.5708,-0.523598,1.82629e-07,-2.09439,1.5708,1.5708,0.785398,-0.000633011,-8.17138e-05,-0.000293184,-0.000502209,0.000524996,0.000245252,0.000543941,0,0,0,0,0,0,0,-0.355213,-10.213,-0.381406,20.8725,0.847185,-0.617772,0.0972387,-0.390441,-1.08944,0.00660885,2.31014,0.292433,-0.616645,0.164791
4229209,1,-1.57052,-0.522916,-2.75632e-05,-2.09578,1.57055,1.57159,0.785054,-1.5708,-0.523598,1.82629e-07,-2.09439,1.5708,1.5708,0.785398,-0.000422007,-0.000611288,-0.000195456,0.000314808,0.000349997,0.000163501,-0.000586809,0,0,0,0,0,0,0,-0.355213,-10.1892,-0.381406,20.8448,0.847185,-0.617772,0.122873,-0.390074,-1.08815,0.00695744,2.30978,0.292427,-0.616615,0.164679
4229210,1,-1.57052,-0.522914,-2.92336e-05,-2.09578,1.57055,1.57159,0.785051,-1.5708,-0.523598,1.82629e-07,-2.09439,1.5708,1.5708,0.785398,0.000832286,0.000149287,-0.000687116,0.000209872,-4.02745e-06,-0.000128358,-0.00137455,0,0,0,0,0,0,0,-0.402821,-10.213,-0.357602,20.8448,0.853594,-0.611364,0.149424,-0.389269,-1.0862,0.00801887,2.30894,0.292377,-0.616626,0.164544
4229211,1,-1.57052,-0.522914,-2.56143e-05,-2.09578,1.57055,1.57159,0.785052,-1.5708,-0.523598,1.82629e-07,-2.09439,1.5708,1.5708,0.785398,0.000554857,9.95245e-05,0.000748349,0.00125354,0.000234674,-0.000322931,-0.000679008,0,0,0,0,0,0,0,-0.402821,-10.213,-0.409177,20.7972,0.847185,-0.604955,0.143015,-0.388986,-1.08415,0.00843593,2.30768,0.292306,-0.61655,0.164421
4229212,1,-1.57052,-0.522916,-2.75632e-05,-2.09578,1.57055,1.57159,0.785055,-1.5708,-0.523598,1.82629e-07,-2.09439,1.5708,1.5708,0.785398,0.000369905,6.63497e-05,-0.000150715,0.00027888,-0.000691261,0.00049679,0.000768031,0,0,0,0,0,0,0,-0.402821,-10.213,-0.381406,20.821,0.870073,-0.624181,0.110056,-0.389546,-1.08232,0.00765142,2.30616,0.292234,-0.61635,0.164354
4229213,1,-1.57052,-0.522915,-3.11824e-05,-2.09579,1.57055,1.57159,0.785049,-1.5708,-0.523598,1.82629e-07,-2.09439,1.5708,1.5708,0.785398,-0.000310209,4.42331e-05,-0.0013069,-0.00102051,0.000149511,9.38341e-05,-0.00142076,0,0,0,0,0,0,0,-0.379017,-10.213,-0.329831,20.8725,0.853594,-0.617772,0.162241,-0.389785,-1.08147,0.00738514,2.30527,0.292167,-0.616209,0.164349
4229214,1,-1.57052,-0.522918,-2.56143e-05,-2.09578,1.57055,1.57159,0.785053,-1.5708,-0.523598,1.82629e-07,-2.09439,1.5708,1.5708,0.785398,0.000350006,-0.00108414,0.000984772,-3.07231e-05,9.96738e-05,6.2556e-05,0.00027353,0,0,0,0,0,0,0,-0.402821,-10.1654,-0.409177,20.8448,0.853594,-0.617772,0.129282,-0.389381,-1.08115,0.00812009,2.30524,0.292116,-0.616171,0.164398
4229215,1,-1.57052,-0.522912,-2.56143e-05,-2.09578,1.57055,1.57159,0.785058,-1.5708,-0.523598,1.82629e-07,-2.09439,1.5708,1.5708,0.785398,0.000882951,0.00104048,0.000656514,-2.04821e-05,-0.000340452,0.000279063,0.00184387,0,0,0,0,0,0,0,-0.430592,-10.2408,-0.409177,20.8448,0.86458,-0.624181,0.0844213,-0.38981,-1.08073,0.00759436,2.30542,0.292111,-0.616021,0.164514
4229216,0.99,-1.57052,-0.522916,-2.75632e-05,-2.09579,1.57055,1.57159,0.78505,-1.5708,-0.523598,1.82629e-07,-2.09439,1.5708,1.5708,0.785398,-6.09797e-05,4.40401e-05,-0.000211938,-0.000663269,-2.35174e-05,-5.1317e-05,-0.000432268,0,0,0,0,0,0,0,-0.402821,-10.213,-0.381406,20.8725,0.859087,-0.617772,0.129282,-0.391072,-1.08183,0.00584724,2.30636,0.292165,-0.615792,0.164672
4229217,0.99,-1.57052,-0.522917,-2.75632e-05,-2.09579,1.57055,1.57159,0.785051,-1.5708,-0.523598,1.82629e-07,-2.09439,1.5708,1.5708,0.785398,-4.06531e-05,2.93601e-05,-0.000141292,-0.000442179,-0.000219129,-3.42113e-05,-0.000525538,0,0,0,0,0,0,0,-0.402821,-10.213,-0.381406,20.8725,0.86458,-0.617772,0.135691,-0.391886,-1.08417,0.00483762,2.30805,0.292239,-0.615669,0.16482
4229218,0.99,-1.57052,-0.522915,-2.39439e-05,-2.09579,1.57055,1.5716,0.785056,-1.5708,-0.523598,1.82629e-07,-2.09439,1.5708,1.5708,0.785398,-2.71021e-05,0.000669187,0.00111223,-0.000294786,0.000260815,0.00045191,0.0010738,0,0,0,0,0,0,0,-0.402821,-10.2408,-0.432981,20.8725,0.853594,-0.63059,0.0972387,-0.392367,-1.08675,0.00432594,2.30996,0.292324,-0.615622,0.164955
4229219,0.99,-1.57052,-0.522919,-2.56143e-05,-2.09578,1.57055,1.57159,0.785057,-1.5708,-0.523598,1.82629e-07,-2.09439,1.5708,1.5708,0.785398,-1.80681e-05,-0.000760301,0.000184676,0.00045309,-0.000233024,6.39146e-05,0.000715863,0,0,0,0,0,0,0,-0.402821,-10.1892,-0.409177,20.8448,0.86458,-0.624181,0.0972387,-0.39311,-1.08868,0.00336119,2.31141,0.292415,-0.615559,0.165084
4229220,0.99,-1.57052,-0.522914,-2.92336e-05,-2.09578,1.57055,1.57159,0.785049,-1.5708,-0.523598,1.82629e-07,-2.09439,1.5708,1.5708,0.785398,-1.20454e-05,0.00125637,-0.00108331,0.000858872,0.00048891,4.26097e-05,-0.00193026,0,0,0,0,0,0,0,-0.402821,-10.2646,-0.357602,20.821,0.847185,-0.624181,0.162241,-0.393452,-1.08926,0.00305578,2.31174,0.292452,-0.615573,0.165184
4229221,0.99,-1.57052,-0.522915,-2.92336e-05,-2.09578,1.57055,1.57159,0.785055,-1.5708,-0.523598,1.82629e-07,-2.09439,1.5708,1.5708,0.785398,-0.000564842,-0.000368846,-0.000722206,0.000572581,0.00032594,-0.000208952,0.000645943,0,0,0,0,0,0,0,-0.379017,-10.213,-0.357602,20.821,0.847185,-0.617772,0.110056,-0.39258,-1.08939,0.00473546,2.31131,0.292407,-0.615793,0.165251
4229222,0.99,-1.57052,-0.522915,-2.75632e-05,-2.09578,1.57055,1.57159,0.785059,-1.5708,-0.523598,1.82629e-07,-2.09439,1.5708,1.5708,0.785398,0.00018025,0.000403717,7.53414e-05,0.000381721,0.000217294,-0.000139302,0.00185478,0,0,0,0,0,0,0,-0.402821,-10.2408,-0.381406,20.821,0.847185,-0.617772,0.071604,-0.391116,-1.08905,0.00738477,2.31041,0.292308,-0.616112,0.165318
4229223,0.99,-1.57052,-0.522913,-3.11824e-05,-2.09578,1.57055,1.57159,0.785052,-1.5708,-0.523598,1.82629e-07,-2.09439,1.5708,1.5708,0.785398,-0.000993457,0.000269145,-0.0011562,-0.000302331,-0.000499398,0.000144491,-0.00140834,0,0,0,0,0,0,0,-0.355213,-10.2408,-0.329831,20.8448,0.86458,-0.624181,0.143015,-0.389583,-1.08881,0.010131,2.3097,0.292198,-0.616447,0.165369
4229224,0.99,-1.57052,-0.522913,-2.75632e-05,-2.09578,1.57055,1.57159,0.785054,-1.5708,-0.523598,1.82629e-07,-2.09439,1.5708,1.5708,0.785398,-0.000662305,0.000736242,0.000435627,-0.000201554,7.39693e-05,-0.00037839,-0.000192905,0,0,0,0,0,0,0,-0.355213,-10.2646,-0.381406,20.8448,0.853594,-0.611364,0.122873,-0.387798,-1.08998,0.0131617,2.30997,0.29211,-0.61683,0.165374
4229225,0.99,-1.57052,-0.522915,-2.92336e-05,-2.09578,1.57055,1.57159,0.785054,-1.5708,-0.523598,1.82629e-07,-2.09439,1.5708,1.5708,0.785398,0.000115276,-0.000715598,-0.000266394,0.000979254,4.93129e-05,-0.000489619,0.000108756,0,0,0,0,0,0,0,-0.379017,-10.213,-0.357602,20.7972,0.853594,-0.604955,0.116465,-0.386416,-1.09108,0.015478,2.31028,0.29204,-0.617133,0.165357
4229226,0.99,-1.57052,-0.522913,-2.75632e-05,-2.09578,1.57055,1.57159,0.785055,-1.5708,-0.523598,1.82629e-07,-2.09439,1.5708,1.5708,0.785398,0.000633662,0.00072936,0.000379216,-0.000460788,-0.000374026,0.000148305,0.000309863,0,0,0,0,0,0,0,-0.402821,-10.2646,-0.381406,20.8448,0.86458,-0.617772,0.110056,-0.386107,-1.09094,0.0161874,2.30985,0.291982,-0.617234,0.165345
4229227,0.99,-1.57052,-0.522915,-2.56143e-05,-2.09578,1.57055,1.57159,0.785053,-1.5708,-0.523598,1.82629e-07,-2.09439,1.5708,1.5708,0.785398,0.000422442,-0.000720186,0.000902425,-0.000307192,0.000157551,9.887e-05,-0.000505502,0,0,0,0,0,0,0,-0.402821,-10.213,-0.409177,20.8448,0.853594,-0.617772,0.129282,-0.38704,-1.09068,0.0150384,2.30957,0.29198,-0.617118,0.165332
4229228,0.99,-1.57052,-0.522916,-2.39439e-05,-2.09578,1.57055,1.57159,0.785056,-1.5708,-0.523598,1.82629e-07,-2.09439,1.5708,1.5708,0.785398,0.000931242,-0.000480124,0.00115843,0.000352017,0.000105034,-0.000408805,0.000612435,0,0,0,0,0,0,0,-0.430592,-10.213,-0.432981,20.821,0.853594,-0.604955,0.103647,-0.389298,-1.08958,0.0118555,2.30909,0.292032,-0.61677,0.165316
4229229,0.99,-1.57052,-0.522919,-2.96937e-05,-2.09578,1.57055,1.57159,0.785051,-1.5708,-0.523598,1.82629e-07,-2.09439,1.5708,1.5708,0.785398,-0.000585598,-0.000876894,-0.00043414,0.000234678,7.00224e-05,-3.51774e-05,-0.00128713,0,0,0,0,0,0,0,-0.379017,-10.1892,-0.381406,20.821,0.853594,-0.611364,0.149424,-0.391867,-1.08653,0.00818477,2.30757,0.292062,-0.616335,0.165301
4229230,0.99,-1.57052,-0.522917,-2.63245e-05,-2.09578,1.57055,1.57159,0.785053,-1.5708,-0.523598,1.82629e-07,-2.09439,1.5708,1.5708,0.785398,-0.000390399,-0.000584596,0.000360187,-0.00040036,-0.000156769,0.000451266,-0.000112102,0,0,0,0,0,0,0,-0.379017,-10.1892,-0.409177,20.8448,0.859087,-0.624181,0.129282,-0.393297,-1.08252,0.00616368,2.30555,0.292036,-0.616043,0.16529
4229231,0.99,-1.57052,-0.522914,-2.94703e-05,-2.09578,1.57055,1.5716,0.785057,-1.5708,-0.523598,1.82629e-07,-2.09439,1.5708,1.5708,0.785398,0.000296546,0.000167081,-0.000966301,0.000846717,-0.000104513,0.000775562,0.00111206,0,0,0,0,0,0,0,-0.402821,-10.213,-0.357602,20.7972,0.859087,-0.636998,0.0972387,-0.39346,-1.07909,0.00600551,2.30376,0.291972,-0.615944,0.165304
4229232,0.99,-1.57052,-0.522914,-3.1443e-05,-2.09578,1.57055,1.57159,0.785054,-1.5708,-0.523598,1.82629e-07,-2.09439,1.5708,1.5708,0.785398,-0.000359115,0.000111387,-0.000644201,-0.000549146,0.000133775,-0.000432394,-0.000208063,0,0,0,0,0,0,0,-0.379017,-10.213,-0.357602,20.8448,0.853594,-0.611364,0.122873,-0.392664,-1.07743,0.0073704,2.30265,0.291891,-0.616025,0.16534
4229233,0.99,-1.57052,-0.522914,-2.99701e-05,-2.09579,1.57055,1.57159,0.785054,-1.5708,-0.523598,1.82629e-07,-2.09439,1.5708,1.5708,0.785398,-0.00023941,7.42583e-05,-0.000429467,-0.00101571,-0.000317717,-0.000288263,-0.000138708,0,0,0,0,0,0,0,-0.379017,-10.213,-0.357602,20.8725,0.86458,-0.611364,0.122873,-0.391205,-1.07804,0.00978411,2.30286,0.291834,-0.616242,0.165371
4229234,0.99,-1.57052,-0.522914,-2.78087e-05,-2.09578,1.57055,1.57159,0.785056,-1.5708,-0.523598,1.82629e-07,-2.09439,1.5708,1.5708,0.785398,0.000397205,4.95055e-05,0.0002705,0.000529285,-8.36108e-06,0.000282543,0.000619605,0,0,0,0,0,0,0,-0.402821,-10.213,-0.381406,20.821,0.859087,-0.624181,0.103647,-0.389953,-1.07999,0.0118766,2.30402,0.291826,-0.616446,0.165395
4229235,0.99,-1.57052,-0.522912,-2.7645e-05,-2.09578,1.57055,1.5716,0.785057,-1.5708,-0.523598,1.82629e-07,-2.09439,1.5708,1.5708,0.785398,-0.000292008,0.000682618,0.000180334,0.000909669,-5.57405e-06,0.000425721,0.000650429,0,0,0,0,0,0,0,-0.379017,-10.2408,-0.381406,20.7972,0.859087,-0.63059,0.0972387,-0.389441,-1.08193,0.0128416,2.30479,0.29184,-0.616552,0.165414
4229236,0.99,-1.57052,-0.522918,-2.92609e-05,-2.09578,1.57055,1.57159,0.785049,-1.5708,-0.523598,1.82629e-07,-2.09439,1.5708,1.5708,0.785398,-0.000194672,-0.000751347,-0.00043659,-0.000507178,-3.71604e-06,-0.000428263,-0.00197388,0,0,0,0,0,0,0,-0.379017,-10.1892,-0.357602,20.8448,0.859087,-0.611364,0.162241,-0.389201,-1.08327,0.0133696,2.3049,0.291853,-0.616625,0.16541
4229237,0.99,-1.57052,-0.522916,-2.75723e-05,-2.09578,1.57055,1.57159,0.785057,-1.5708,-0.523598,1.82629e-07,-2.09439,1.5708,1.5708,0.785398,0.00042703,-0.000500898,0.000265752,-0.000338119,0.000438332,-4.81498e-05,0.00109158,0,0,0,0,0,0,0,-0.402821,-10.1892,-0.381406,20.8448,0.847185,-0.617772,0.0972387,-0.389021,-1.08339,0.0138205,2.30467,0.29187,-0.616677,0.165388
4229238,0.99,-1.57052,-0.52292,-2.92366e-05,-2.09578,1.57055,1.57159,0.785058,-1.5708,-0.523598,1.82629e-07,-2.09439,1.5708,1.5708,0.785398,-0.000828937,-0.000890744,-0.000379644,0.000331399,5.48625e-05,0.000205259,0.00120244,0,0,0,0,0,0,0,-0.355213,-10.1654,-0.357602,20.821,0.853594,-0.624181,0.0844213,-0.388937,-1.08189,0.0141331,2.30393,0.291874,-0.616693,0.165372
4229239,0.99,-1.57052,-0.522913,-2.75642e-05,-2.09578,1.57055,1.57159,0.785052,-1.5708,-0.523598,1.82629e-07,-2.09439,1.5708,1.5708,0.785398,0.000560999,0.00116941,0.000303716,-0.000335879,-0.000370326,-0.00010052,-0.00136851,0,0,0,0,0,0,0,-0.402821,-10.2408,-0.381406,20.8448,0.86458,-0.617772,0.143015,-0.388795,-1.08052,0.0145005,2.30324,0.291871,-0.616723,0.165347
4229240,0.99,-1.57052,-0.522918,-2.75635e-05,-2.09578,1.57055,1.57159,0.785053,-1.5708,-0.523598,1.82629e-07,-2.09439,1.5708,1.5708,0.785398,-0.000182812,-0.00042682,0.000202477,-0.000223919,-4.34335e-05,0.000170346,-0.000403717,0,0,0,0,0,0,0,-0.379017,-10.1892,-0.381406,20.8448,0.859087,-0.624181,0.129282,-0.388962,-1.08118,0.0143768,2.30355,0.291912,-0.616737,0.165292
4229241,0.99,-1.57052,-0.522917,-3.11826e-05,-2.09578,1.57055,1.57159,0.785056,-1.5708,-0.523598,1.82629e-07,-2.09439,1.5708,1.5708,0.785398,0.00108455,-0.000284547,-0.00107144,-0.00014928,0.000174495,-0.000123795,0.000680291,0,0,0,0,0,0,0,-0.430592,-10.1892,-0.329831,20.8448,0.853594,-0.617772,0.103647,-0.389327,-1.08223,0.0140439,2.30417,0.291968,-0.61673,0.165234
4229242,0.99,-1.57052,-0.522914,-2.75632e-05,-2.09579,1.57055,1.57159,0.785056,-1.5708,-0.523598,1.82629e-07,-2.09439,1.5708,1.5708,0.785398,-0.00168982,0.000367114,0.000492132,-9.95197e-05,0.000353689,-0.000319889,0.000453528,0,0,0,0,0,0,0,-0.327442,-10.213,-0.381406,20.8448,0.847185,-0.611364,0.103647,-0.389273,-1.08277,0.0144281,2.30456,0.291996,-0.616783,0.16519
4229243,0.99,-1.57052,-0.522918,-2.92336e-05,-2.09579,1.57055,1.57159,0.785052,-1.5708,-0.523598,1.82629e-07,-2.09439,1.5708,1.5708,0.785398,0.00128631,-0.000312069,-0.000228724,-6.63465e-05,-0.000205017,-0.000213259,-0.000884443,0,0,0,0,0,0,0,-0.430592,-10.1892,-0.357602,20.8448,0.859087,-0.611364,0.135691,-0.389034,-1.08349,0.0150418,2.30502,0.292014,-0.616861,0.165142
4229244,0.99,-1.57052,-0.522915,-2.56143e-05,-2.09579,1.57055,1.57159,0.785057,-1.5708,-0.523598,1.82629e-07,-2.09439,1.5708,1.5708,0.785398,-0.000348888,0.000348766,0.00105394,-0.00125066,-0.000136678,9.51861e-05,0.000834525,0,0,0,0,0,0,0,-0.379017,-10.213,-0.409177,20.8963,0.859087,-0.617772,0.0972387,-0.389438,-1.08457,0.0146652,2.30586,0.292062,-0.616834,0.165084
4229245,0.99,-1.57052,-0.522913,-2.39439e-05,-2.09579,1.57055,1.57159,0.785052,-1.5708,-0.523598,1.82629e-07,-2.09439,1.5708,1.5708,0.785398,-0.000232592,0.00143894,0.00125944,-0.000276959,-9.11186e-05,-0.000173902,-0.00113907,0,0,0,0,0,0,0,-0.379017,-10.2646,-0.432981,20.8725,0.859087,-0.611364,0.143015,-0.390685,-1.0876,0.0128852,2.30796,0.292188,-0.616691,0.165024
4229246,0.99,-1.57052,-0.522915,-2.92336e-05,-2.09578,1.57055,1.57159,0.785052,-1.5708,-0.523598,1.82629e-07,-2.09439,1.5708,1.5708,0.785398,-0.000711873,-0.000247135,-0.000923611,0.000464974,0.000380064,0.000358784,-0.000759381,0,0,0,0,0,0,0,-0.355213,-10.213,-0.357602,20.8448,0.847185,-0.624181,0.143015,-0.39172,-1.09189,0.0112364,2.31055,0.292326,-0.616583,0.164966
4229247,0.99,-1.57052,-0.522912,-2.75632e-05,-2.09579,1.57055,1.57159,0.785056,-1.5708,-0.523598,1.82629e-07,-2.09439,1.5708,1.5708,0.785398,0.000639042,0.000484857,-5.89285e-05,-0.000896443,0.000253376,-0.000472888,0.000951808,0,0,0,0,0,0,0,-0.402821,-10.2408,-0.381406,20.8963,0.847185,-0.604955,0.103647,-0.391722,-1.09499,0.0111615,2.31231,0.292383,-0.616602,0.164935
4229248,0.99,-1.57052,-0.522916,-2.92336e-05,-2.09578,1.57055,1.57159,0.785053,-1.5708,-0.523598,1.82629e-07,-2.09439,1.5708,1.5708,0.785398,0.000426028,-0.000326376,-0.000596098,0.000608797,-0.000271892,-7.78996e-05,-0.000314897,0,0,0,0,0,0,0,-0.402821,-10.213,-0.357602,20.8448,0.859087,-0.611364,0.129282,-0.391333,-1.09655,0.0118183,2.31332,0.292373,-0.616646,0.164947
4229249,0.99,-1.57052,-0.522916,-2.75632e-05,-2.09579,1.57055,1.57159,0.785053,-1.5708,-0.523598,1.82629e-07,-2.09439,1.5708,1.5708,0.785398,-0.000272793,-0.000774396,0.000159414,-0.000243749,-0.000791613,0.000422785,-0.000209931,0,0,0,0,0,0,0,-0.379017,-10.1892,-0.381406,20.8725,0.875566,-0.624181,0.129282,-0.390968,-1.09583,0.012525,2.31316,0.292304,-0.616647,0.164986
4229250,0.99,-1.57052,-0.522916,-2.75632e-05,-2.09578,1.57055,1.57159,0.785056,-1.5708,-0.523598,1.82629e-07,-2.09439,1.5708,1.5708,0.785398,0.00037495,4.05481e-05,0.000106276,0.000487115,-0.000120841,0.000281857,0.000809482,0,0,0,0,0,0,0,-0.402821,-10.213,-0.381406,20.8448,0.86458,-0.624181,0.103647,-0.390664,-1.093,0.0131095,2.31191,0.292206,-0.616613,0.165047
4229251,0.99,-1.57052,-0.522917,-2.56143e-05,-2.09578,1.57055,1.57159,0.785057,-1.5708,-0.523598,1.82629e-07,-2.09439,1.5708,1.5708,0.785398,0.000249966,-0.00052978,0.000720464,0.000324743,-8.05607e-05,0.000187904,0.000777013,0,0,0,0,0,0,0,-0.402821,-10.1892,-0.409177,20.8448,0.86458,-0.624181,0.0972387,-0.39087,-1.08949,0.0128934,2.31025,0.292136,-0.616505,0.165123
4229252,0.99,-1.57052,-0.522916,-2.75632e-05,-2.09578,1.57055,1.57159,0.785049,-1.5708,-0.523598,1.82629e-07,-2.09439,1.5708,1.5708,0.785398,0.000166644,-0.000353187,-0.000169304,0.000216495,0.000353194,-0.000112089,-0.00188949,0,0,0,0,0,0,0,-0.402821,-10.1892,-0.381406,20.8448,0.853594,-0.617772,0.162241,-0.391519,-1.08559,0.0120113,2.30831,0.292099,-0.616344,0.165185
4229253,0.99,-1.57052,-0.522919,-2.75632e-05,-2.09578,1.57055,1.57159,0.785057,-1.5708,-0.523598,1.82629e-07,-2.09439,1.5708,1.5708,0.785398,-0.000445716,-0.00144188,-0.00011287,0.00014433,-0.000171438,0.000162633,0.00114784,0,0,0,0,0,0,0,-0.379017,-10.1377,-0.381406,20.8448,0.86458,-0.624181,0.0972387,-0.391883,-1.08083,0.011566,2.30604,0.292063,-0.616231,0.165229
4229254,0.99,-1.57052,-0.522916,-2.75632e-05,-2.09578,1.57055,1.57159,0.785058,-1.5708,-0.523598,1.82629e-07,-2.09439,1.5708,1.5708,0.785398,-0.000297144,0.000801982,-7.52464e-05,9.62202e-05,8.91582e-05,0.000108422,0.00123994,0,0,0,0,0,0,0,-0.379017,-10.213,-0.381406,20.8448,0.859087,-0.624181,0.0844213,-0.391592,-1.07621,0.0120747,2.30396,0.292025,-0.616235,0.165275
4229255,0.99,-1.57052,-0.522915,-2.77448e-05,-2.09578,1.57055,1.57159,0.785051,-1.5708,-0.523598,1.82629e-07,-2.09439,1.5708,1.5708,0.785398,-0.000198096,0.00118427,0.00059945,0.000620959,-0.000144012,-0.000165078,-0.00158087,0,0,0,0,0,0,0,-0.379017,-10.2408,-0.409177,20.821,0.86458,-0.617772,0.149424,-0.391111,-1.07483,0.0127823,2.30336,0.292044,-0.616326,0.165304
4229256,0.99,-1.57052,-0.522919,-2.99438e-05,-2.09579,1.57055,1.57159,0.785054,-1.5708,-0.523598,1.82629e-07,-2.09439,1.5708,1.5708,0.785398,-0.000132064,-0.000416913,-0.000806793,-0.00190608,0.000310893,-0.000110052,-7.05683e-05,0,0,0,0,0,0,0,-0.379017,-10.1892,-0.357602,20.9201,0.853594,-0.617772,0.122873,-0.390635,-1.07697,0.0134162,2.30463,0.292141,-0.616467,0.165294
4229257,0.99,-1.57052,-0.522915,-3.14192e-05,-2.09578,1.57055,1.57159,0.785055,-1.5708,-0.523598,1.82629e-07,-2.09439,1.5708,1.5708,0.785398,-0.000644855,0.00027887,-0.00118748,0.00104933,0.000444621,-7.33679e-05,0.000427672,0,0,0,0,0,0,0,-0.355213,-10.213,-0.329831,20.821,0.847185,-0.617772,0.110056,-0.389408,-1.07978,0.0152092,2.30663,0.29224,-0.616723,0.165275
4229258,0.99,-1.57052,-0.522918,-3.12613e-05,-2.09578,1.57055,1.57159,0.785054,-1.5708,-0.523598,1.82629e-07,-2.09439,1.5708,1.5708,0.785398,0.000126909,-0.000370899,-0.000791651,0.000699554,0.000296414,0.000188447,-0.000189603,0,0,0,0,0,0,0,-0.379017,-10.1892,-0.329831,20.821,0.847185,-0.624181,0.122873,-0.387278,-1.08101,0.0184674,2.30757,0.29225,-0.617092,0.165265
4229259,0.99,-1.57052,-0.522917,-2.56406e-05,-2.09578,1.57055,1.57159,0.785054,-1.5708,-0.523598,1.82629e-07,-2.09439,1.5708,1.5708,0.785398,8.46059e-05,0.000309546,0.00132827,-9.04424e-05,0.000197609,0.000125631,0.000110957,0,0,0,0,0,0,0,-0.379017,-10.213,-0.409177,20.8448,0.847185,-0.624181,0.116465,-0.385702,-1.0808,0.0209135,2.3074,0.292219,-0.617362,0.165263
4229260,0.99,-1.57052,-0.522913,-2.92424e-05,-2.09578,1.57055,1.57159,0.785055,-1.5708,-0.523598,1.82629e-07,-2.09439,1.5708,1.5708,0.785398,0.000613216,0.000855978,-0.000320911,-6.02949e-05,0.00013174,-0.000153605,0.00031133,0,0,0,0,0,0,0,-0.402821,-10.2408,-0.357602,20.8448,0.847185,-0.617772,0.110056,-0.385642,-1.08143,0.0210143,2.30772,0.292237,-0.617416,0.165262
4229261,0.99,-1.57052,-0.522917,-2.92365e-05,-2.09578,1.57055,1.57159,0.78505,-1.5708,-0.523598,1.82629e-07,-2.09439,1.5708,1.5708,0.785398,-0.000148001,-7.8962e-05,-0.00021394,0.000516615,-0.000556434,-0.000102403,-0.00148787,0,0,0,0,0,0,0,-0.379017,-10.213,-0.357602,20.821,0.86458,-0.617772,0.155832,-0.38619,-1.08323,0.0202269,2.30864,0.292267,-0.617397,0.165258
4229262,0.99,-1.57052,-0.522915,-2.75641e-05,-2.09578,1.57055,1.57159,0.78505,-1.5708,-0.523598,1.82629e-07,-2.09439,1.5708,1.5708,0.785398,-9.86676e-05,-5.26413e-05,0.000414185,0.000901222,3.59453e-05,-0.000542987,-8.56749e-06,0,0,0,0,0,0,0,-0.379017,-10.213,-0.381406,20.7972,0.853594,-0.604955,0.129282,-0.386631,-1.08398,0.0196299,2.30882,0.292247,-0.617379,0.165264
4229263,0.99,-1.57052,-0.522914,-2.75635e-05,-2.09578,1.57055,1.57159,0.785057,-1.5708,-0.523598,1.82629e-07,-2.09439,1.5708,1.5708,0.785398,-6.57784e-05,-3.50942e-05,0.000276123,4.40028e-05,0.000261322,0.000112727,0.0016558,0,0,0,0,0,0,0,-0.379017,-10.213,-0.381406,20.821,0.847185,-0.617772,0.0844213,-0.387191,-1.08324,0.0188031,2.30807,0.292191,-0.617313,0.165308
4229264,0.99,-1.57052,-0.522916,-2.75633e-05,-2.09578,1.57055,1.57159,0.78505,-1.5708,-0.523598,1.82629e-07,-2.09439,1.5708,1.5708,0.785398,-0.000600664,-0.000580208,0.000184082,2.93352e-05,0.000174215,7.51512e-05,-0.00154099,0,0,0,0,0,0,0,-0.355213,-10.1892,-0.381406,20.821,0.847185,-0.617772,0.155832,-0.387707,-1.08181,0.0179501,2.30709,0.292125,-0.617224,0.165375
4229266,0.97,-1.57052,-0.522913,-2.92336e-05,-2.09578,1.57055,1.57159,0.785057,-1.5708,-0.523598,1.82629e-07,-2.09439,1.5708,1.5708,0.785398,0.000475454,0.000546414,-0.000289394,1.30379e-05,-0.000419895,3.34005e-05,0.00115747,0,0,0,0,0,0,0,-0.402821,-10.2408,-0.357602,20.821,0.86458,-0.617772,0.09083,-0.387999,-1.08145,0.0174011,2.30669,0.291998,-0.617136,0.165513
4229267,0.97,-1.57052,-0.522918,-2.92336e-05,-2.09578,1.57055,1.57159,0.785051,-1.5708,-0.523598,1.82629e-07,-2.09439,1.5708,1.5708,0.785398,0.000316969,-0.00139896,-0.000192929,8.69192e-06,-7.64792e-05,2.2267e-05,-0.00139849,0,0,0,0,0,0,0,-0.402821,-10.1654,-0.357602,20.821,0.859087,-0.617772,0.149424,-0.388112,-1.08232,0.0173852,2.30702,0.291943,-0.617103,0.16558
4229268,0.97,-1.57052,-0.522918,-2.75632e-05,-2.09578,1.57055,1.5716,0.785048,-1.5708,-0.523598,1.82629e-07,-2.09439,1.5708,1.5708,0.785398,-0.000902311,-0.000375829,0.000428193,0.000562607,0.000152464,0.000489563,-0.00188176,0,0,0,0,0,0,0,-0.355213,-10.1892,-0.381406,20.7972,0.853594,-0.63059,0.175059,-0.38813,-1.08052,0.0175195,2.30604,0.291862,-0.61705,0.165629
4229269,0.97,-1.57052,-0.522915,-2.75632e-05,-2.09578,1.57055,1.5716,0.785054,-1.5708,-0.523598,1.82629e-07,-2.09439,1.5708,1.5708,0.785398,0.0011617,0.000306259,0.000285462,-0.000181741,-0.000305258,0.000326375,0.000678272,0,0,0,0,0,0,0,-0.430592,-10.213,-0.381406,20.821,0.86458,-0.63059,0.122873,-0.388287,-1.07783,0.017384,2.30451,0.291794,-0.616979,0.165702
4229270,0.97,-1.57052,-0.522918,-2.92336e-05,-2.09578,1.57055,1.57159,0.785052,-1.5708,-0.523598,1.82629e-07,-2.09439,1.5708,1.5708,0.785398,0.000774465,-0.000352639,-0.000366504,-0.000677973,-5.48962e-08,-0.000257135,-0.000293804,0,0,0,0,0,0,0,-0.430592,-10.1892,-0.357602,20.8448,0.859087,-0.617772,0.143015,-0.388992,-1.0767,0.0165393,2.30384,0.291787,-0.616869,0.165842
4229271,0.97,-1.57052,-0.522919,-2.75632e-05,-2.09579,1.57055,1.57159,0.785054,-1.5708,-0.523598,1.82629e-07,-2.09439,1.5708,1.5708,0.785398,-0.00124693,-0.000235093,0.000312476,-0.00165841,-3.65975e-08,-0.000171423,0.000787475,0,0,0,0,0,0,0,-0.355213,-10.1892,-0.381406,20.8963,0.859087,-0.617772,0.116465,-0.389638,-1.07703,0.0158804,2.30443,0.291835,-0.616806,0.16604
4229272,0.97,-1.57052,-0.522917,-2.77448e-05,-2.09578,1.57055,1.57159,0.785057,-1.5708,-0.523598,1.82629e-07,-2.09439,1.5708,1.5708,0.785398,0.000282339,0.000400083,0.000857931,0.000657633,0.000203426,-0.000351641,0.00147442,0,0,0,0,0,0,0,-0.402821,-10.213,-0.409177,20.821,0.853594,-0.611364,0.09083,-0.389953,-1.07833,0.0156062,2.30581,0.291919,-0.616817,0.166275
4229273,0.97,-1.57052,-0.522913,-2.82733e-05,-2.09578,1.57055,1.57159,0.785052,-1.5708,-0.523598,1.82629e-07,-2.09439,1.5708,1.5708,0.785398,0.00139465,0.000916336,-7.76598e-05,0.000438422,-6.78331e-05,-0.000234427,-0.000678567,0,0,0,0,0,0,0,-0.454395,-10.2408,-0.381406,20.821,0.859087,-0.611364,0.135691,-0.390779,-1.08035,0.0145852,2.30704,0.292014,-0.616771,0.166511
4229274,0.97,-1.57052,-0.522917,-2.77999e-05,-2.09578,1.57055,1.57159,0.785053,-1.5708,-0.523598,1.82629e-07,-2.09439,1.5708,1.5708,0.785398,-0.00083347,-3.87231e-05,-5.17732e-05,-0.000264531,-4.52221e-05,0.000318433,-0.000215019,0,0,0,0,0,0,0,-0.379017,-10.213,-0.381406,20.8448,0.859087,-0.624181,0.129282,-0.391808,-1.08278,0.0134216,2.30794,0.292097,-0.616705,0.166714
4229275,0.97,-1.57052,-0.522917,-2.76421e-05,-2.09578,1.57055,1.57159,0.785059,-1.5708,-0.523598,1.82629e-07,-2.09439,1.5708,1.5708,0.785398,1.16522e-06,-0.000582627,-3.45155e-05,0.000380458,0.000173302,-2.50703e-05,0.00175553,0,0,0,0,0,0,0,-0.402821,-10.1892,-0.381406,20.821,0.853594,-0.617772,0.0780126,-0.392091,-1.08412,0.0133967,2.30822,0.292134,-0.616737,0.166887
4229276,0.97,-1.57052,-0.522916,-3.12087e-05,-2.09578,1.57055,1.57159,0.785052,-1.5708,-0.523598,1.82629e-07,-2.09439,1.5708,1.5708,0.785398,-0.000556035,0.000168394,-0.00122944,-0.000303173,0.000115535,-0.000254072,-0.00096588,0,0,0,0,0,0,0,-0.379017,-10.213,-0.329831,20.8448,0.853594,-0.611364,0.135691,-0.391405,-1.08377,0.0148377,2.3077,0.292108,-0.61689,0.167026
4229277,0.97,-1.57052,-0.522919,-2.92424e-05,-2.09578,1.57055,1.57159,0.785056,-1.5708,-0.523598,1.82629e-07,-2.09439,1.5708,1.5708,0.785398,0.000186122,-0.000444549,-0.00017001,-0.000202115,7.70233e-05,6.79773e-05,0.000542875,0,0,0,0,0,0,0,-0.402821,-10.1892,-0.357602,20.8448,0.853594,-0.617772,0.103647,-0.389982,-1.08299,0.0174741,2.30709,0.292045,-0.617138,0.167108
4229278,0.97,-1.57052,-0.522917,-3.33159e-05,-2.09579,1.57055,1.57159,0.785055,-1.5708,-0.523598,1.82629e-07,-2.09439,1.5708,1.5708,0.785398,-0.000989543,0.000260446,-0.000762954,-0.000784358,-0.000152102,4.53182e-05,0.000124558,0,0,0,0,0,0,0,-0.355213,-10.213,-0.329831,20.8725,0.859087,-0.617772,0.110056,-0.388282,-1.08258,0.0205512,2.30691,0.291983,-0.617417,0.167141
4229279,0.97,-1.57052,-0.522917,-2.99447e-05,-2.09578,1.57055,1.57159,0.785056,-1.5708,-0.523598,1.82629e-07,-2.09439,1.5708,1.5708,0.785398,-0.000659695,0.00017363,0.000140978,0.000683521,0.000339408,3.02121e-05,0.000320397,0,0,0,0,0,0,0,-0.355213,-10.213,-0.357602,20.821,0.847185,-0.617772,0.103647,-0.386463,-1.08281,0.0237198,2.30713,0.291929,-0.61771,0.16713
4229280,0.97,-1.57052,-0.522917,-2.58514e-05,-2.09579,1.57055,1.57159,0.78505,-1.5708,-0.523598,1.82629e-07,-2.09439,1.5708,1.5708,0.785398,-0.000439797,0.000115754,0.00130041,-0.00130756,-0.000214537,0.0002575,-0.00171918,0,0,0,0,0,0,0,-0.355213,-10.213,-0.409177,20.8963,0.859087,-0.624181,0.155832,-0.385274,-1.0836,0.0257356,2.30762,0.291909,-0.617901,0.167076
4229281,0.97,-1.57052,-0.522915,-3.14431e-05,-2.09579,1.57055,1.57159,0.785056,-1.5708,-0.523598,1.82629e-07,-2.09439,1.5708,1.5708,0.785398,0.000820426,0.000726783,-0.000339485,-0.000871705,0.000297785,0.000171667,0.000786659,0,0,0,0,0,0,0,-0.402821,-10.2408,-0.357602,20.8963,0.847185,-0.624181,0.103647,-0.38536,-1.08568,0.0256688,2.3091,0.291971,-0.617904,0.166998
4229282,0.97,-1.57052,-0.522917,-2.99701e-05,-2.09578,1.57055,1.57159,0.785055,-1.5708,-0.523598,1.82629e-07,-2.09439,1.5708,1.5708,0.785398,-9.86123e-06,-0.000721904,-0.000226323,0.0011821,-0.000242286,-0.000122914,0.00028708,0,0,0,0,0,0,0,-0.379017,-10.1892,-0.357602,20.821,0.859087,-0.617772,0.110056,-0.385986,-1.08777,0.0248469,2.31064,0.292033,-0.617824,0.166926
4229283,0.97,-1.57052,-0.522914,-2.78087e-05,-2.09579,1.57055,1.57159,0.785052,-1.5708,-0.523598,1.82629e-07,-2.09439,1.5708,1.5708,0.785398,-6.57416e-06,7.55427e-05,0.00040593,-0.00097517,4.19263e-05,-0.000319302,-0.00102932,0,0,0,0,0,0,0,-0.379017,-10.213,-0.381406,20.8963,0.853594,-0.611364,0.143015,-0.386592,-1.08768,0.0241161,2.31081,0.292025,-0.617726,0.166865
4229284,0.97,-1.57052,-0.522918,-2.93154e-05,-2.09579,1.57055,1.57159,0.785057,-1.5708,-0.523598,1.82629e-07,-2.09439,1.5708,1.5708,0.785398,0.000552429,-0.00106326,-0.000286192,-0.000650114,2.79509e-05,0.00026185,0.00124657,0,0,0,0,0,0,0,-0.402821,-10.1654,-0.357602,20.8963,0.853594,-0.624181,0.09083,-0.387282,-1.08628,0.0232334,2.31057,0.291997,-0.617594,0.166805
4229285,0.97,-1.57052,-0.522916,-2.75904e-05,-2.09579,1.57055,1.57159,0.785052,-1.5708,-0.523598,1.82629e-07,-2.09439,1.5708,1.5708,0.785398,0.000368286,0.000404782,0.000366017,0.000123403,-0.000184817,0.000174567,-0.000830467,0,0,0,0,0,0,0,-0.402821,-10.213,-0.381406,20.8725,0.859087,-0.624181,0.135691,-0.388119,-1.08447,0.0221562,2.31041,0.291972,-0.617434,0.166752
4229286,0.97,-1.57052,-0.522915,-2.75723e-05,-2.09579,1.57055,1.57159,0.785049,-1.5708,-0.523598,1.82629e-07,-2.09439,1.5708,1.5708,0.785398,0.000245524,0.000269855,0.000244011,-0.00103136,8.02394e-05,-0.00035834,-0.00153699,0,0,0,0,0,0,0,-0.402821,-10.213,-0.381406,20.9201,0.853594,-0.611364,0.162241,-0.389143,-1.0836,0.0208166,2.31073,0.291965,-0.617267,0.166699
4229287,0.97,-1.57052,-0.522916,-2.92366e-05,-2.09579,1.57055,1.57159,0.785058,-1.5708,-0.523598,1.82629e-07,-2.09439,1.5708,1.5708,0.785398,0.000163683,0.000179903,-0.000394138,0.000426054,0.000290852,0.000235824,0.00185756,0,0,0,0,0,0,0,-0.402821,-10.213,-0.357602,20.8725,0.847185,-0.624181,0.0844213,-0.390045,-1.08419,0.0196781,2.31177,0.291974,-0.617145,0.166667
4229288,0.97,-1.57052,-0.522917,-2.75642e-05,-2.09579,1.57055,1.57159,0.785054,-1.5708,-0.523598,1.82629e-07,-2.09439,1.5708,1.5708,0.785398,0.000109122,0.000119936,0.000294054,0.000284036,-4.34577e-05,-0.000317502,-0.000185783,0,0,0,0,0,0,0,-0.402821,-10.213,-0.381406,20.8725,0.853594,-0.611364,0.122873,-0.390556,-1.08468,0.0191862,2.31253,0.291944,-0.617092,0.166675
4229289,0.97,-1.57052,-0.522917,-2.75635e-05,-2.09578,1.57055,1.57159,0.785052,-1.5708,-0.523598,1.82629e-07,-2.09439,1.5708,1.5708,0.785398,-0.000484064,7.9957e-05,0.000196036,0.000838971,-0.000435873,-0.000211668,-0.000598573,0,0,0,0,0,0,0,-0.379017,-10.213,-0.381406,20.8448,0.86458,-0.611364,0.135691,-0.390862,-1.08427,0.0189968,2.31246,0.291867,-0.617068,0.166698
4229290,0.97,-1.57052,-0.522915,-2.75633e-05,-2.09578,1.57055,1.57159,0.785055,-1.5708,-0.523598,1.82629e-07,-2.09439,1.5708,1.5708,0.785398,0.000234103,5.33047e-05,0.00013069,0.00167294,0.000353678,0.000333606,0.000550387,0,0,0,0,0,0,0,-0.402821,-10.213,-0.381406,20.7972,0.847185,-0.624181,0.110056,-0.391045,-1.08263,0.01895,2.3113,0.291744,-0.617048,0.166725
4229291,0.97,-1.57052,-0.522917,-2.56144e-05,-2.09578,1.57055,1.57159,0.785054,-1.5708,-0.523598,1.82629e-07,-2.09439,1.5708,1.5708,0.785398,-0.000400744,3.55365e-05,0.000736741,1.6681e-06,-0.000205024,0.000222404,-0.000107793,0,0,0,0,0,0,0,-0.379017,-10.213,-0.409177,20.8448,0.859087,-0.624181,0.122873,-0.391264,-1.08016,0.0187996,2.30938,0.291602,-0.617015,0.166761
4229292,0.97,-1.57052,-0.522915,-2.92336e-05,-2.09578,1.57055,1.57159,0.785051,-1.5708,-0.523598,1.82629e-07,-2.09439,1.5708,1.5708,0.785398,-0.000267162,2.3691e-05,-0.000715265,1.11207e-06,-0.000340133,-8.90896e-05,-0.00105521,0,0,0,0,0,0,0,-0.379017,-10.213,-0.357602,20.8448,0.86458,-0.617772,0.149424,-0.391304,-1.07824,0.0188316,2.30799,0.291486,-0.617013,0.166795
4229293,0.97,-1.57052,-0.522914,-2.75632e-05,-2.09579,1.57055,1.57159,0.785057,-1.5708,-0.523598,1.82629e-07,-2.09439,1.5708,1.5708,0.785398,-0.000178108,1.5794e-05,7.99684e-05,-0.000648873,0.000417504,-5.9393e-05,0.00122931,0,0,0,0,0,0,0,-0.379017,-10.213,-0.381406,20.8725,0.847185,-0.617772,0.0972387,-0.390762,-1.07756,0.0196924,2.30776,0.291406,-0.617105,0.166833
4229294,0.97,-1.57052,-0.522918,-2.92336e-05,-2.09579,1.57055,1.57159,0.785054,-1.5708,-0.523598,1.82629e-07,-2.09439,1.5708,1.5708,0.785398,0.000438073,-0.000546283,-0.0005035,-0.000989394,-0.000162473,0.000197764,0.000107463,0,0,0,0,0,0,0,-0.402821,-10.1892,-0.357602,20.8963,0.859087,-0.624181,0.116465,-0.390001,-1.07771,0.020896,2.30853,0.291365,-0.617232,0.166883
4229295,0.97,-1.57052,-0.522919,-2.75632e-05,-2.09578,1.57055,1.57159,0.78505,-1.57079,-0.523597,2.68263e-06,-2.09439,1.5708,1.5708,0.785398,-0.000264763,-0.000364188,0.000221146,0.00166045,9.51351e-05,0.000131842,-0.00138642,0.00327601,0.00177767,0.0025,0.00165673,0.00155778,0.005,-0.000206637,-0.379017,-10.1892,-0.381406,20.7972,0.853594,-0.624181,0.155832,-0.389401,-1.07708,0.0218874,2.30907,0.291328,-0.617325,0.16693
4229296,0.97,-1.57052,-0.522919,-2.75632e-05,-2.09578,1.57055,1.57159,0.785057,-1.57079,-0.523593,7.68263e-06,-2.09439,1.5708,1.57081,0.785397,-0.000733321,-0.000242792,0.00014743,0.000550157,-0.000140027,-0.000149464,0.00124586,0.00655202,0.00355534,0.005,0.00331346,0.00311555,0.01,-0.000413274,-0.355213,-10.1892,-0.381406,20.821,0.859087,-0.617772,0.0972387,-0.388888,-1.07463,0.0226904,2.30812,0.291246,-0.617397,0.166979
4229297,0.97,-1.57052,-0.522917,-2.39439e-05,-2.09578,1.57055,1.57159,0.785054,-1.57078,-0.523588,1.51826e-05,-2.09438,1.57081,1.57083,0.785397,-0.000488881,-0.000161862,0.00130471,0.000366772,0.000110099,-0.000337002,-0.000118863,0.00982804,0.00533301,0.0075,0.00497018,0.00467333,0.015,-0.000619911,-0.355213,-10.1892,-0.432981,20.821,0.853594,-0.611364,0.122873,-0.388638,-1.07164,0.0228789,2.30651,0.29116,-0.617427,0.167046
4229298,0.97,-1.57052,-0.522915,-2.94388e-05,-2.09578,1.57055,1.57159,0.78505,-1.57076,-0.523581,2.51826e-05,-2.09438,1.57081,1.57085,0.785396,0.00205482,0.00186238,0.00177823,0.000244514,7.33994e-05,-0.000224668,-0.00129995,0.013104,0.00711068,0.01,0.00662691,0.00623111,0.02,-0.000826548,-0.327442,-10.1377,-0.202878,20.821,0.853594,-0.611364,0.155832,-0.389858,-1.07091,0.0206607,2.30596,0.291177,-0.617256,0.167112
4229299,0.97,-1.57052,-0.522919,-2.14804e-05,-2.09578,1.57055,1.57159,0.785054,-1.57075,-0.523572,3.76826e-05,-2.09437,1.57082,1.57087,0.785395,0.00140164,-0.000611688,0.00720406,0.00599241,0.000286292,8.75804e-05,0.000354073,0.0163801,0.00888834,0.0125,0.00828364,0.00778889,0.025,-0.00103318,-0.0497324,-9.91153,0.0986355,20.8448,0.847185,-0.617772,0.122873,-0.394913,-1.07079,0.0124703,2.30478,0.291316,-0.616515,0.167194
4229300,0.97,-1.57053,-0.522919,-6.08361e-06,-2.09578,1.57055,1.5716,0.78505,-1.57073,-0.523561,5.26826e-05,-2.09436,1.57083,1.5709,0.785394,-0.00116845,-0.000161344,0.00617878,0.00508394,0.000597762,-0.000416331,-0.000984655,0.0196561,0.010666,0.015,0.00994037,0.00934666,0.03,-0.00123982,0.477917,-9.63382,0.503299,20.821,0.836199,-0.604955,0.155832,-0.404127,-1.0651,-0.00251694,2.29885,0.291457,-0.615062,0.167331
4229301,0.97,-1.57052,-0.522914,9.09749e-06,-2.09578,1.57056,1.5716,0.785053,-1.5707,-0.523549,7.01826e-05,-2.09435,1.57084,1.57094,0.785392,-0.000105251,0.00110082,0.00671985,0.00378843,0.000805409,0.000197164,0.000326908,0.0229321,0.0124437,0.0175,0.0115971,0.0109044,0.035,-0.00144646,0.906383,-9.37991,1.01111,20.821,0.825212,-0.617772,0.129282,-0.414285,-1.05506,-0.0197541,2.28974,0.291553,-0.613295,0.167524
4229302,0.97,-1.57052,-0.522905,3.55285e-05,-2.09578,1.57056,1.5716,0.78505,-1.57068,-0.523534,9.01826e-05,-2.09433,1.57085,1.57098,0.785391,-0.000671593,0.00342222,0.010498,0.00338178,0.0108848,-0.000343275,-0.000765406,0.0262081,0.0142214,0.02,0.0132538,0.0124622,0.04,-0.0016531,1.41023,-9.17758,1.39197,20.7972,0.802324,-0.604955,0.155832,-0.423507,-1.0479,-0.0367323,2.28263,0.291697,-0.611415,0.167754
4229303,0.97,-1.57052,-0.522899,5.98591e-05,-2.09577,1.57056,1.5716,0.785052,-1.57065,-0.523518,0.000112683,-2.09432,1.57087,1.57102,0.785389,-0.000250588,0.00460298,0.0150289,0.00556245,0.00825166,-0.00022885,0.000235715,0.0294841,0.015999,0.0225,0.0149106,0.01402,0.045,-0.00185973,1.89027,-8.95145,1.84424,20.7972,0.796831,-0.604955,0.135691,-0.432787,-1.04683,-0.0557496,2.27942,0.291972,-0.609127,0.168014
4229304,0.97,-1.57051,-0.522887,9.01713e-05,-2.09577,1.57056,1.57161,0.785048,-1.57062,-0.523501,0.000137683,-2.0943,1.57088,1.57107,0.785387,0.000364804,0.00737631,0.0203183,0.00413363,0.00484026,0.00150895,-0.00130092,0.0327601,0.0177767,0.025,0.0165673,0.0155778,0.05,-0.00206637,2.37031,-8.80069,2.2251,20.7972,0.830705,-0.649816,0.175059,-0.443552,-1.0524,-0.0800341,2.28037,0.2925,-0.606071,0.168322
4229305,0.97,-1.5705,-0.52287,0.000116546,-2.09577,1.57056,1.57162,0.785059,-1.57058,-0.52348,0.000167683,-2.09428,1.5709,1.57113,0.785384,0.00514719,0.0080113,0.0179599,0.00372437,0.00775878,0.00647932,0.00272701,0.0384857,0.0208229,0.03,0.0194106,0.018265,0.06,-0.00238563,2.67183,-8.72531,2.60596,20.7694,0.847185,-0.681859,0.0780126,-0.455176,-1.06545,-0.109068,2.28663,0.293369,-0.602264,0.168686
4229306,0.97,-1.57049,-0.522862,0.000150517,-2.09576,1.57056,1.57163,0.785058,-1.57053,-0.523456,0.000202683,-2.09426,1.57092,1.5712,0.785382,0.00818899,0.00844495,0.0254863,0.00327898,0.00545712,0.00800466,0.00158065,0.0442112,0.023869,0.035,0.0222539,0.0209523,0.07,-0.0027049,2.97731,-8.52298,2.85987,20.7456,0.859087,-0.656224,0.0844213,-0.466544,-1.08386,-0.140965,2.29787,0.294577,-0.597823,0.169084
4229307,0.97,-1.57047,-0.52285,0.000180249,-2.09576,1.57056,1.57164,0.785049,-1.57048,-0.523429,0.000242683,-2.09424,1.57095,1.57128,0.785379,0.0129978,0.010591,0.0270834,0.00626947,0.00418213,0.00788303,-0.00182845,0.0499368,0.0269152,0.04,0.0250972,0.0236396,0.08,-0.00302416,3.17567,-8.39603,3.13758,20.7218,0.859087,-0.592137,0.162241,-0.478978,-1.10352,-0.17772,2.31173,0.296166,-0.592478,0.169455
4229308,0.97,-1.57045,-0.522841,0.000208739,-2.09575,1.57056,1.57165,0.78505,-1.57043,-0.523399,0.000287683,-2.09421,1.57097,1.57137,0.785375,0.020584,0.010392,0.0311572,0.00403635,0.00258578,0.00796067,-0.000981607,0.0556623,0.0299614,0.045,0.0279405,0.0263269,0.09,-0.00334342,3.33039,-8.1937,3.54224,20.7456,0.875566,-0.527135,0.155832,-0.494047,-1.12186,-0.221363,2.32641,0.298181,-0.585881,0.169775
4229309,0.97,-1.57043,-0.522834,0.000250618,-2.09574,1.57056,1.57166,0.785052,-1.57037,-0.523366,0.000337683,-2.09418,1.571,1.57147,0.785372,0.0207081,0.0131352,0.0341312,0.00300104,0.00264023,0.00699637,-0.000179687,0.0613879,0.0330075,0.05,0.0307839,0.0290141,0.1,-0.00366269,3.70729,-7.84061,3.97467,20.7456,0.859087,-0.431005,0.143015,-0.511463,-1.13924,-0.270995,2.34282,0.300661,-0.577933,0.170088
4229310,0.97,-1.5704,-0.522814,0.000303252,-2.09574,1.57057,1.57167,0.785047,-1.5703,-0.52333,0.000392683,-2.09414,1.57103,1.57158,0.785368,0.0216521,0.0151902,0.0411416,0.00350992,0.00283739,0.00512826,-0.0017813,0.0671134,0.0360537,0.055,0.0336272,0.0317014,0.11,-0.00398195,4.18733,-7.6105,4.47852,20.821,0.836199,-0.295507,0.187876,-0.529191,-1.15822,-0.323849,2.36272,0.303627,-0.568756,0.170432
4229311,0.97,-1.57036,-0.522796,0.000351953,-2.09572,1.57058,1.57169,0.785048,-1.57023,-0.523291,0.000452683,-2.09411,1.57107,1.5717,0.785363,0.0249789,0.018893,0.0404544,0.00885699,0.00331835,0.00998699,0.000236618,0.072839,0.0390999,0.06,0.0364705,0.0343887,0.12,-0.00430122,4.56422,-7.33279,5.11328,20.821,0.802324,-0.205785,0.149424,-0.544334,-1.179,-0.375749,2.38481,0.306912,-0.558556,0.170839
4229312,0.97,-1.57032,-0.52277,0.000404815,-2.09571,1.57059,1.57172,0.785044,-1.57015,-0.523249,0.000517683,-2.09407,1.5711,1.57183,0.785359,0.0289261,0.0197693,0.0434396,0.0125296,0.00444366,0.0146614,-0.000791691,0.0785646,0.042146,0.065,0.0393138,0.0370759,0.13,-0.00462048,4.89351,-7.10666,5.74408,20.8448,0.745561,-0.147191,0.175059,-0.553573,-1.19766,-0.42103,2.40481,0.310157,-0.547576,0.17134
4229313,0.97,-1.57027,-0.522735,0.00047271,-2.09569,1.5706,1.57175,0.785048,-1.57006,-0.523203,0.000587683,-2.09403,1.57114,1.57197,0.785354,0.0337867,0.0226999,0.0483084,0.0121537,0.00876341,0.023752,-5.30758e-05,0.0842901,0.0451922,0.07,0.0421571,0.0397632,0.14,-0.00493974,5.2704,-6.97971,6.14875,20.8725,0.71718,-0.121556,0.162241,-0.555931,-1.21111,-0.457487,2.42071,0.313143,-0.535756,0.171936
4229314,0.97,-1.57021,-0.522699,0.000532627,-2.09568,1.57061,1.57181,0.785049,-1.56997,-0.523155,0.000662683,-2.09398,1.57119,1.57212,0.785348,0.0453745,0.0278259,0.0498021,0.0124817,0.00586183,0.0329703,0.00118532,0.0900157,0.0482384,0.075,0.0450005,0.0424505,0.15,-0.00525901,5.44893,-6.85275,6.63275,20.9955,0.729082,-0.166417,0.129282,-0.553684,-1.2236,-0.487673,2.43607,0.315961,-0.522727,0.172607
4229315,0.97,-1.57014,-0.522663,0.000599258,-2.09567,1.57061,1.57187,0.785047,-1.56988,-0.523103,0.000745183,-2.09393,1.57123,1.57229,0.785343,0.0494226,0.0282627,0.0532471,0.0129695,0.00218475,0.0455516,0.000281587,0.0975572,0.0521452,0.0825,0.0486547,0.0461813,0.164879,-0.00563399,5.67506,-6.7258,7.00965,21.1185,0.784929,-0.257054,0.143015,-0.548395,-1.23975,-0.512942,2.45461,0.318728,-0.508394,0.173323
4229316,0.98,-1.57007,-0.522631,0.000663212,-2.09564,1.57062,1.57195,0.785036,-1.56977,-0.523047,0.000835183,-2.09388,1.57128,1.57247,0.785337,0.0538495,0.0306744,0.0556551,0.0151329,0.00544293,0.0578257,-0.00340657,0.105099,0.056052,0.09,0.0523089,0.049912,0.179759,-0.00600898,5.82582,-6.55124,7.39051,21.1701,0.81331,-0.314733,0.240061,-0.538617,-1.25662,-0.530879,2.47552,0.3214,-0.493175,0.174043
4229317,0.98,-1.56998,-0.522593,0.000735276,-2.09563,1.57063,1.57204,0.785035,-1.56966,-0.522987,0.000932683,-2.09382,1.57134,1.57266,0.78533,0.0651289,0.033556,0.0602568,0.0158786,0.00700808,0.069575,-0.00274576,0.11264,0.0599588,0.0975,0.0559631,0.0536428,0.194638,-0.00638397,5.84962,-6.42429,7.64441,21.2693,0.86458,-0.333959,0.252878,-0.524041,-1.27118,-0.540721,2.4974,0.323973,-0.47743,0.174777
4229318,0.98,-1.56989,-0.522552,0.000806687,-2.0956,1.57064,1.57214,0.785028,-1.56954,-0.522923,0.00103768,-2.09376,1.57139,1.57287,0.785324,0.0743719,0.035091,0.0666915,0.0211499,0.00998381,0.0811529,-0.0030173,0.120182,0.0638656,0.105,0.0596173,0.0573736,0.209518,-0.00675895,5.84962,-6.27353,8.02527,21.2931,0.870073,-0.308324,0.284922,-0.508869,-1.28153,-0.547869,2.5188,0.326597,-0.460894,0.17563
4229319,0.98,-1.56979,-0.522512,0.000896041,-2.09557,1.57066,1.57225,0.78502,-1.56941,-0.522855,0.00115018,-2.0937,1.57145,1.57309,0.785317,0.0817583,0.0370978,0.0780431,0.0208526,0.0125651,0.088407,-0.00418167,0.127723,0.0677724,0.1125,0.0632715,0.0611044,0.224397,-0.00713394,5.97657,-6.01962,8.40216,21.3684,0.86458,-0.237828,0.343516,-0.498841,-1.28437,-0.560511,2.53777,0.329494,-0.442965,0.176725
4229320,0.98,-1.5697,-0.522469,0.000992108,-2.09553,1.57068,1.57238,0.785011,-1.56927,-0.522784,0.00127018,-2.09363,1.57152,1.57333,0.785309,0.0839368,0.0380198,0.0875322,0.0215674,0.00993651,0.102927,-0.00978107,0.135265,0.0716792,0.12,0.0669257,0.0648351,0.239276,-0.00750893,6.35743,-5.74191,8.8584,21.3922,0.853594,-0.172826,0.394785,-0.497057,-1.27893,-0.583833,2.55499,0.332934,-0.423323,0.178173
4229321,0.98,-1.56959,-0.522415,0.00108549,-2.09549,1.5707,1.57253,0.785018,-1.56913,-0.522708,0.00139768,-2.09356,1.57159,1.57359,0.785301,0.0884188,0.0446369,0.0888901,0.0268213,0.016003,0.11759,-0.00406303,0.142807,0.075586,0.1275,0.0705799,0.0685659,0.254156,-0.00788392,6.65895,-5.58719,9.44159,21.3684,0.875566,-0.205785,0.316965,-0.499758,-1.2681,-0.612628,2.57212,0.336915,-0.40263,0.180079
4229322,0.98,-1.56947,-0.522352,0.00118734,-2.09545,1.57072,1.5727,0.785018,-1.56898,-0.522629,0.00153268,-2.09349,1.57166,1.57386,0.785293,0.0995822,0.0516696,0.0903435,0.0336205,0.021847,0.132111,-0.00207765,0.150348,0.0794929,0.135,0.0742341,0.0722967,0.269035,-0.0082589,6.91285,-5.51181,10.0248,21.3446,0.870073,-0.23142,0.291331,-0.499955,-1.25801,-0.635363,2.5896,0.341099,-0.382031,0.182481
4229323,0.98,-1.56934,-0.522288,0.00130351,-2.09541,1.57077,1.57288,0.785019,-1.56882,-0.522545,0.00167518,-2.09341,1.57174,1.57414,0.785284,0.110713,0.0556319,0.0971988,0.0367021,0.0288573,0.152571,-0.000911826,0.15789,0.0833997,0.1425,0.0778883,0.0760275,0.283914,-0.00863389,7.1866,-5.38882,10.5048,21.3922,0.791338,-0.276281,0.272104,-0.496051,-1.25297,-0.647986,2.60732,0.345293,-0.361881,0.185301
4229324,0.98,-1.5692,-0.522226,0.00141991,-2.09536,1.57082,1.5731,0.785024,-1.56866,-0.522458,0.00182518,-2.09333,1.57182,1.57444,0.785275,0.118424,0.05847,0.102296,0.0394085,0.0322971,0.170299,0.0011458,0.165431,0.0873065,0.15,0.0815426,0.0797582,0.298794,-0.00900888,7.34132,-5.26187,10.9849,21.4438,0.751055,-0.392553,0.219919,-0.49009,-1.25152,-0.653002,2.62498,0.349512,-0.341971,0.188402
4229325,0.98,-1.56906,-0.522158,0.0015476,-2.09531,1.57086,1.57334,0.785024,-1.56848,-0.522366,0.00198517,-2.09324,1.5719,1.57476,0.785266,0.126369,0.0604965,0.108144,0.0412363,0.0370072,0.192997,0.000629538,0.174021,0.0917472,0.15999,0.0857073,0.0841899,0.31596,-0.00940557,7.54365,-5.13492,11.3657,21.4914,0.779436,-0.539952,0.219919,-0.482064,-1.24953,-0.650738,2.64225,0.353691,-0.322416,0.19163
4229326,0.98,-1.56891,-0.522088,0.00167352,-2.09526,1.57092,1.57359,0.785025,-1.5683,-0.52227,0.00215515,-2.09315,1.57199,1.57509,0.785256,0.134821,0.062053,0.113576,0.0445229,0.0415591,0.214266,0.000556307,0.182611,0.0961879,0.16998,0.089872,0.0886217,0.333125,-0.00980226,7.76979,-5.00797,11.6712,21.5906,0.784929,-0.572911,0.213511,-0.470892,-1.24229,-0.63992,2.65814,0.357698,-0.303601,0.194837
4229327,0.98,-1.56875,-0.522014,0.00180541,-2.0952,1.57098,1.57385,0.785025,-1.56811,-0.522169,0.00233512,-2.09306,1.57208,1.57544,0.785246,0.144819,0.066926,0.121828,0.0501475,0.0439286,0.231092,0.000295313,0.1912,0.100629,0.17997,0.0940367,0.0930534,0.350291,-0.010199,7.84517,-4.90482,11.9489,21.5668,0.81331,-0.520726,0.213511,-0.457389,-1.22704,-0.621999,2.67135,0.361487,-0.285678,0.197922
4229328,0.98,-1.56857,-0.521932,0.00193297,-2.09513,1.57104,1.57413,0.785013,-1.56791,-0.522064,0.00252508,-2.09296,1.57218,1.57581,0.785235,0.155165,0.0710511,0.126089,0.0534569,0.0510973,0.241946,-0.00369144,0.19979,0.105069,0.18996,0.0982014,0.0974851,0.367457,-0.0105956,7.92054,-4.82944,12.429,21.5668,0.830705,-0.469457,0.316965,-0.443642,-1.20542,-0.600109,2.68196,0.365116,-0.268454,0.200838
4229329,0.98,-1.5684,-0.521855,0.00207401,-2.09506,1.57111,1.57443,0.785011,-1.5677,-0.521955,0.00272503,-2.09286,1.57228,1.57619,0.785224,0.163122,0.0761848,0.130261,0.0575346,0.0621567,0.26217,-0.00202875,0.20838,0.10951,0.19995,0.102366,0.101917,0.384623,-0.0109923,8.22206,-4.70645,12.8852,21.5152,0.825212,-0.431005,0.304148,-0.429265,-1.18126,-0.573332,2.69152,0.368592,-0.251925,0.203597
4229330,0.98,-1.56822,-0.521765,0.00223223,-2.09498,1.5712,1.57475,0.785,-1.56749,-0.521841,0.00293497,-2.09275,1.57239,1.57659,0.785213,0.168128,0.0779885,0.139169,0.0655192,0.0676851,0.283391,-0.00379187,0.216969,0.113951,0.20994,0.106531,0.106349,0.401788,-0.011389,8.60292,-4.62711,13.3652,21.4914,0.76845,-0.456639,0.36915,-0.411901,-1.15409,-0.538339,2.69907,0.371826,-0.236324,0.206286
4229331,0.98,-1.56804,-0.521676,0.00238375,-2.09491,1.57129,1.5751,0.785004,-1.56726,-0.521723,0.0031549,-2.09264,1.5725,1.57701,0.785201,0.175469,0.0806661,0.14231,0.0703828,0.0753891,0.306,0.000330394,0.225559,0.118391,0.21993,0.110696,0.11078,0.418954,-0.0117857,8.97981,-4.47635,14,21.5152,0.734575,-0.527135,0.291331,-0.389378,-1.11821,-0.492718,2.7007,0.374671,-0.221813,0.20902
4229332,0.98,-1.56783,-0.521575,0.00254861,-2.09483,1.57139,1.57547,0.785,-1.56703,-0.5216,0.00338482,-2.09253,1.57261,1.57745,0.785189,0.181628,0.0864055,0.147119,0.0754172,0.0826184,0.326828,0.000439692,0.234149,0.122832,0.22992,0.11486,0.115212,0.43612,-0.0121824,9.3329,-4.47635,14.5554,21.4914,0.661333,-0.604955,0.284922,-0.358893,-1.07299,-0.432769,2.69597,0.376995,-0.20871,0.211863
4229333,0.98,-1.56762,-0.521474,0.00272988,-2.09474,1.5715,1.57585,0.785007,-1.56678,-0.521472,0.00362473,-2.09241,1.57273,1.5779,0.785176,0.190968,0.0885004,0.155257,0.0777885,0.0925494,0.346773,-0.00092894,0.242738,0.127273,0.23991,0.119025,0.119644,0.453286,-0.0125791,9.63441,-4.40097,15.0355,21.543,0.587175,-0.669042,0.175059,-0.319928,-1.02317,-0.358021,2.68806,0.3788,-0.197083,0.214789
4229334,0.98,-1.56741,-0.521369,0.00291457,-2.09465,1.5716,1.57626,0.785012,-1.56653,-0.521341,0.00387463,-2.09229,1.57286,1.57837,0.785163,0.196618,0.0939212,0.164598,0.081882,0.0976313,0.366781,0.00110096,0.251328,0.131713,0.2499,0.12319,0.124075,0.470451,-0.0129758,9.9637,-4.3494,15.5195,21.6144,0.570696,-0.766088,0.116465,-0.275451,-0.971975,-0.273576,2.6799,0.380181,-0.18651,0.217692
4229335,0.98,-1.56719,-0.521256,0.00310394,-2.09455,1.57172,1.5767,0.785005,-1.56627,-0.521204,0.00413452,-2.09216,1.57299,1.57886,0.78515,0.207014,0.0980737,0.170316,0.0881163,0.105489,0.389179,-0.00177358,0.260321,0.136425,0.25989,0.127626,0.128836,0.488345,-0.0133746,10.3684,-4.30179,15.9241,21.5668,0.581682,-0.855809,0.175059,-0.22771,-0.921687,-0.183345,2.67284,0.381148,-0.176755,0.220397
4229336,0.98,-1.56696,-0.521139,0.00330468,-2.09445,1.57184,1.57714,0.784999,-1.566,-0.521063,0.0044044,-2.09203,1.57312,1.57937,0.785136,0.210792,0.10109,0.179413,0.092854,0.105671,0.408228,-0.00333432,0.269314,0.141138,0.26988,0.132061,0.133597,0.506239,-0.0137733,10.5945,-4.25021,16.2534,21.4914,0.62105,-0.868627,0.226328,-0.176739,-0.871709,-0.0877727,2.66603,0.381623,-0.167936,0.222756
4229337,0.98,-1.56671,-0.521019,0.00350533,-2.09434,1.57198,1.5776,0.784989,-1.56572,-0.520917,0.00468427,-2.09189,1.57326,1.57989,0.785122,0.224153,0.107741,0.18592,0.0953601,0.111766,0.42936,-0.00482018,0.278306,0.14585,0.27987,0.136497,0.138358,0.524133,-0.0141721,10.6699,-4.25021,16.5827,21.4676,0.632951,-0.830175,0.291331,-0.122807,-0.822867,0.0122679,2.66012,0.381702,-0.160114,0.22476
4229338,0.98,-1.56646,-0.520894,0.00371596,-2.09422,1.57211,1.57809,0.784981,-1.56544,-0.520767,0.00497413,-2.09175,1.5734,1.58043,0.785107,0.23231,0.111112,0.191363,0.10377,0.121805,0.445147,-0.00552594,0.287299,0.150562,0.28986,0.140933,0.143118,0.542026,-0.0145708,10.7968,-4.19864,16.8604,21.416,0.627458,-0.785314,0.349924,-0.0669204,-0.777658,0.115601,2.65621,0.381511,-0.153155,0.226515
4229339,0.98,-1.56622,-0.520767,0.00393186,-2.0941,1.57225,1.5786,0.784973,-1.56514,-0.520611,0.00527398,-2.0916,1.57355,1.58099,0.785093,0.235612,0.118203,0.205385,0.109952,0.129324,0.463285,-0.0104069,0.296292,0.155274,0.29985,0.145369,0.147879,0.55992,-0.0149696,11.023,-4.09946,17.0627,21.3684,0.615556,-0.785314,0.388376,-0.00961293,-0.735062,0.221406,2.65228,0.381046,-0.146822,0.228202
4229340,0.98,-1.56596,-0.520629,0.00415887,-2.09399,1.5724,1.57914,0.784974,-1.56483,-0.520451,0.00558382,-2.09145,1.5737,1.58157,0.785077,0.240794,0.126042,0.213554,0.115902,0.13523,0.48203,-0.00480583,0.305285,0.159986,0.30984,0.149805,0.15264,0.577814,-0.0153684,11.1737,-4.07169,17.2889,21.416,0.599077,-0.836583,0.316965,0.0489389,-0.697841,0.328203,2.64857,0.380433,-0.140943,0.230017
4229341,0.98,-1.56569,-0.520485,0.00441007,-2.09385,1.57255,1.57969,0.784976,-1.56452,-0.520287,0.00590365,-2.0913,1.57386,1.58217,0.785061,0.24929,0.131165,0.221102,0.121789,0.141201,0.504911,-0.0050275,0.314277,0.164698,0.31983,0.154241,0.157401,0.595708,-0.0157671,11.2491,-4.02011,17.4436,21.2693,0.542314,-0.868627,0.213511,0.109564,-0.670187,0.436722,2.6471,0.379781,-0.135615,0.23207
4229342,0.98,-1.56541,-0.520334,0.00465562,-2.09371,1.57272,1.58027,0.784968,-1.5642,-0.520117,0.00623347,-2.09114,1.57402,1.58278,0.785045,0.255005,0.137116,0.229181,0.128601,0.145762,0.529345,-0.00877636,0.32327,0.169411,0.32982,0.158677,0.162162,0.613601,-0.0161659,11.2769,-4.04788,17.6182,21.2455,0.480058,-0.862218,0.200693,0.173569,-0.650513,0.549246,2.64721,0.379031,-0.131078,0.234315
4229343,0.98,-1.56513,-0.520178,0.00491057,-2.09356,1.57288,1.58088,0.784972,-1.56387,-0.519943,0.00657328,-2.09098,1.57419,1.58341,0.785029,0.26196,0.141201,0.237155,0.136958,0.151757,0.555148,-0.00252125,0.332263,0.174123,0.33981,0.163113,0.166922,0.631495,-0.0165646,11.2491,-4.07169,17.8205,21.1423,0.474565,-0.952855,0.0844213,0.241827,-0.63394,0.667308,2.64619,0.378012,-0.127531,0.236591
4229344,0.98,-1.56484,-0.520021,0.00518526,-2.09342,1.57306,1.5815,0.784963,-1.56352,-0.519764,0.00692308,-2.09081,1.57436,1.58406,0.785012,0.269873,0.147727,0.249825,0.138654,0.16028,0.582894,-0.00312545,0.341256,0.178835,0.3498,0.167548,0.171683,0.649389,-0.0169634,11.3522,-4.09946,17.9475,21.1939,0.474565,-1.02976,0.103647,0.313087,-0.618112,0.789184,2.64324,0.376653,-0.124899,0.238688
4229345,0.98,-1.56454,-0.519858,0.00545791,-2.09327,1.57324,1.58216,0.784955,-1.56317,-0.519581,0.00728287,-2.09064,1.57454,1.58473,0.784994,0.27516,0.151761,0.25823,0.144098,0.171227,0.602411,-0.00239567,0.350097,0.183607,0.35979,0.172066,0.176543,0.667097,-0.017354,11.503,-4.09946,18.0506,21.1185,0.462663,-1.10666,0.0972387,0.384771,-0.60479,0.911161,2.64085,0.375056,-0.122941,0.240394
4229346,0.98,-1.56424,-0.519694,0.00574896,-2.09311,1.57342,1.58282,0.784945,-1.56281,-0.519392,0.00765265,-2.09046,1.57472,1.58541,0.784977,0.281411,0.155709,0.269763,0.14869,0.170749,0.625823,-0.0075334,0.358938,0.188378,0.36978,0.176585,0.181403,0.684806,-0.0177447,11.5506,-4.02011,18.1776,21.1185,0.462663,-1.14603,0.103647,0.456009,-0.592633,1.03197,2.63943,0.373255,-0.121602,0.241591
4229347,0.98,-1.56391,-0.519524,0.00604336,-2.09295,1.5736,1.58349,0.784936,-1.56245,-0.519199,0.00803242,-2.09028,1.5749,1.58611,0.784958,0.29442,0.160387,0.277579,0.155423,0.171153,0.632833,-0.00458508,0.367779,0.19315,0.37977,0.181103,0.186263,0.702514,-0.0181353,11.4752,-3.99631,18.3521,21.1423,0.440691,-1.04899,0.071604,0.524835,-0.577747,1.14909,2.63714,0.371282,-0.120588,0.242286
4229348,0.98,-1.5636,-0.519352,0.0063603,-2.09278,1.57379,1.58419,0.784915,-1.56207,-0.519001,0.00842218,-2.09009,1.5751,1.58684,0.78494,0.298126,0.164022,0.288166,0.157368,0.174696,0.646426,-0.0112609,0.376621,0.197922,0.38976,0.185621,0.191123,0.720223,-0.018526,11.6776,-3.9725,18.3283,21.1423,0.45717,-0.952855,0.135691,0.588777,-0.558637,1.25965,2.63362,0.369203,-0.119393,0.242516
4229349,0.98,-1.56328,-0.519174,0.00668398,-2.0926,1.57398,1.58491,0.784891,-1.56168,-0.518799,0.00882193,-2.0899,1.57529,1.58757,0.784921,0.306895,0.165993,0.299067,0.163858,0.176253,0.672446,-0.0147921,0.385462,0.202693,0.39975,0.190139,0.195983,0.737931,-0.0189166,11.7807,-3.92093,18.4315,21.0709,0.502947,-0.997716,0.16865,0.648007,-0.533388,1.36388,2.62868,0.36704,-0.117849,0.242332
4229350,0.98,-1.56294,-0.518986,0.00700948,-2.09242,1.57418,1.58567,0.784875,-1.56129,-0.518591,0.00923167,-2.08971,1.57549,1.58833,0.784902,0.312542,0.176232,0.309836,0.172158,0.182099,0.698464,-0.0130145,0.394303,0.207465,0.40974,0.194657,0.200843,0.755639,-0.0193073,11.9077,-3.9725,18.4315,20.9717,0.558794,-1.12681,0.0844213,0.703701,-0.502623,1.4628,2.62163,0.364837,-0.116098,0.24184
4229351,0.98,-1.5626,-0.518787,0.00734537,-2.09223,1.5744,1.58643,0.784843,-1.56089,-0.518379,0.0096514,-2.08951,1.5757,1.5891,0.784882,0.321221,0.180894,0.317724,0.176045,0.190524,0.723233,-0.020614,0.403145,0.212237,0.41973,0.199175,0.205703,0.773348,-0.0196979,11.8561,-4.04788,18.5306,20.9955,0.50844,-1.14603,0.09083,0.75776,-0.473235,1.55882,2.61401,0.362689,-0.11456,0.241124
4229352,0.98,-1.56223,-0.518589,0.0077057,-2.09204,1.57462,1.5872,0.784817,-1.56048,-0.518162,0.0100811,-2.08931,1.57591,1.58989,0.784862,0.334788,0.189021,0.328648,0.18116,0.201119,0.737219,-0.0226151,0.411986,0.217008,0.42972,0.203693,0.210563,0.791056,-0.0200886,11.7291,-4.09946,18.4553,21.0431,0.451677,-1.0618,0.000192821,0.810037,-0.451147,1.65202,2.6086,0.360737,-0.113315,0.240188
4229353,0.98,-1.56187,-0.518381,0.00806738,-2.09185,1.57484,1.58802,0.784777,-1.56005,-0.51794,0.0105208,-2.0891,1.57612,1.5907,0.784841,0.342634,0.197383,0.340372,0.187922,0.20397,0.754647,-0.0294606,0.420827,0.22178,0.43971,0.208211,0.215423,0.808765,-0.0204792,11.8045,-4.19864,18.4791,21.0193,0.412309,-1.07462,0.0459692,0.857044,-0.44025,1.73781,2.6074,0.359116,-0.111817,0.238992
4229354,0.98,-1.56152,-0.518167,0.00844537,-2.09165,1.57506,1.58884,0.784744,-1.55963,-0.517714,0.0109705,-2.08889,1.57634,1.59153,0.784821,0.344589,0.204114,0.351165,0.191601,0.207866,0.774282,-0.0327709,0.429668,0.226552,0.4497,0.212729,0.220283,0.826473,-0.0208698,12.0068,-4.32559,18.4315,20.9955,0.45717,-1.10026,0.0459692,0.89875,-0.443505,1.81562,2.61177,0.357826,-0.109989,0.237491
4229355,0.98,-1.56114,-0.517955,0.00882361,-2.09144,1.57529,1.58969,0.784707,-1.55919,-0.517482,0.0114302,-2.08867,1.57657,1.59237,0.784799,0.354963,0.206235,0.361617,0.199403,0.217281,0.793981,-0.038141,0.437866,0.231211,0.45969,0.217182,0.225097,0.843499,-0.0212491,12.0822,-4.32559,18.4037,20.9717,0.451677,-1.15244,0.129282,0.938203,-0.455826,1.88907,2.61951,0.35667,-0.108159,0.235682
4229356,0.98,-1.56075,-0.51774,0.00922406,-2.09124,1.57553,1.59054,0.784669,-1.55874,-0.517247,0.0118999,-2.08845,1.5768,1.59323,0.784778,0.371852,0.208034,0.370187,0.203195,0.2207,0.811234,-0.035705,0.446064,0.23587,0.46968,0.221634,0.229911,0.860526,-0.0216284,12.0307,-4.3494,18.4315,21.0947,0.423296,-1.05539,0.187876,0.974308,-0.464269,1.9569,2.62465,0.355441,-0.106002,0.233645
4229357,0.98,-1.56034,-0.517519,0.00962394,-2.09102,1.57578,1.5914,0.784628,-1.55829,-0.517006,0.0123796,-2.08822,1.57703,1.59411,0.784756,0.381176,0.213995,0.388994,0.209684,0.223578,0.824579,-0.0354793,0.454262,0.240529,0.47967,0.226086,0.234726,0.877552,-0.0220077,11.9553,-4.42477,18.5306,21.0947,0.372942,-0.933629,0.291331,1.00148,-0.461337,2.01131,2.62419,0.35421,-0.102556,0.231551
4229358,0.98,-1.55993,-0.517292,0.010051,-2.0908,1.57601,1.59231,0.78459,-1.55782,-0.516761,0.0128692,-2.08799,1.57727,1.595,0.784733,0.390678,0.218024,0.396268,0.211375,0.230379,0.846141,-0.0393893,0.46246,0.245188,0.48966,0.230539,0.23954,0.894578,-0.0223869,12.0584,-4.47635,18.5068,21.0709,0.417803,-1.08103,0.36915,1.0171,-0.449828,2.04792,2.6204,0.35314,-0.0973075,0.229628
4229359,0.98,-1.55953,-0.517058,0.0104898,-2.09057,1.57625,1.59322,0.784564,-1.55735,-0.516511,0.0133689,-2.08776,1.57752,1.59592,0.784711,0.394879,0.220204,0.406693,0.215946,0.227509,0.869692,-0.0335135,0.470658,0.249847,0.49965,0.234991,0.244354,0.911604,-0.0227662,12.2846,-4.50412,18.4037,21.0193,0.462663,-1.25498,0.349924,1.02658,-0.432532,2.07435,2.61573,0.352137,-0.0910087,0.228118
4229360,0.98,-1.55909,-0.516817,0.0109319,-2.09034,1.57651,1.59415,0.784528,-1.55687,-0.516256,0.0138785,-2.08752,1.57777,1.59684,0.784687,0.40822,0.228922,0.415362,0.218982,0.231772,0.889249,-0.0312004,0.478856,0.254506,0.50964,0.239443,0.249168,0.928631,-0.0231455,12.2092,-4.67868,18.4037,21.0193,0.469072,-1.2678,0.381968,1.036,-0.412661,2.09939,2.61216,0.351134,-0.0847558,0.22722
4229361,0.98,-1.55865,-0.51657,0.0114009,-2.09011,1.57677,1.59508,0.784507,-1.55639,-0.515997,0.0143982,-2.08727,1.57802,1.59779,0.784664,0.415347,0.230737,0.430248,0.223701,0.240992,0.899247,-0.0242115,0.487054,0.259165,0.51963,0.243896,0.253982,0.945657,-0.0235247,12.1338,-4.80563,18.2529,21.0709,0.440691,-1.17807,0.272104,1.04522,-0.39481,2.1226,2.61153,0.350249,-0.0787643,0.227031
4229362,0.98,-1.5582,-0.516314,0.0118707,-2.08987,1.57704,1.59603,0.784486,-1.55589,-0.515733,0.0149278,-2.08702,1.57828,1.59875,0.78464,0.42747,0.238805,0.435856,0.228839,0.246092,0.913562,-0.0246322,0.495252,0.263824,0.52962,0.248348,0.258796,0.962683,-0.023904,12.0307,-4.93259,18.2291,21.0193,0.446184,-1.21653,0.162241,1.05278,-0.37954,2.1419,2.61327,0.349483,-0.0728361,0.227528
4229363,0.98,-1.55774,-0.516064,0.0123573,-2.08963,1.5773,1.59699,0.784462,-1.55539,-0.515465,0.0154674,-2.08677,1.57854,1.59973,0.784616,0.430193,0.23958,0.458289,0.2288,0.244995,0.92434,-0.0218896,0.50345,0.268483,0.53961,0.2528,0.26361,0.979709,-0.0242833,12.0584,-4.98416,18.1022,20.9955,0.469072,-1.1973,0.103647,1.05764,-0.366815,2.15541,2.61738,0.348895,-0.0667442,0.228532
4229364,0.98,-1.55729,-0.5158,0.0128545,-2.08938,1.57757,1.59796,0.784422,-1.55488,-0.515192,0.016017,-2.08651,1.57881,1.60073,0.784591,0.438912,0.247885,0.470069,0.234863,0.256042,0.937969,-0.0257595,0.511648,0.273142,0.5496,0.257253,0.268424,0.996736,-0.0246625,12.0822,-5.10715,18.0228,20.9717,0.428789,-1.15885,0.200693,1.05712,-0.357262,2.15795,2.62483,0.348708,-0.0600401,0.229752
4229365,0.99,-1.55681,-0.515542,0.0133541,-2.08912,1.57784,1.59894,0.784401,-1.55436,-0.514914,0.0165766,-2.08625,1.57908,1.60174,0.784566,0.449407,0.254155,0.475653,0.240329,0.263593,0.953935,-0.0231045,0.51882,0.277548,0.55959,0.261525,0.273096,1.0128,-0.0250332,12.0068,-5.08334,17.9752,20.9201,0.400408,-1.05539,0.162241,1.05244,-0.353387,2.1516,2.63538,0.34884,-0.0529138,0.230941
4229366,1,-1.55632,-0.515269,0.0138687,-2.08887,1.57812,1.59995,0.784377,-1.55383,-0.514632,0.0171462,-2.08599,1.57936,1.60277,0.784541,0.462605,0.260673,0.488902,0.2458,0.270118,0.961838,-0.0212558,0.525991,0.281953,0.56958,0.265797,0.277767,1.02887,-0.025404,11.8799,-5.13492,17.9475,20.9439,0.350054,-0.97849,0.122873,1.04621,-0.35744,2.14189,2.64808,0.349012,-0.0456967,0.232001
4229367,1,-1.55583,-0.514993,0.0143997,-2.0886,1.5784,1.60097,0.784355,-1.5533,-0.514346,0.0177257,-2.08572,1.57964,1.60382,0.784515,0.473642,0.263613,0.498161,0.25024,0.268885,0.980738,-0.0215868,0.533162,0.286359,0.57957,0.27007,0.282438,1.04494,-0.0257747,11.8283,-5.10715,17.9475,20.9201,0.327165,-0.97849,0.129282,1.03696,-0.366508,2.12777,2.66108,0.34912,-0.0379849,0.23289
4229368,1,-1.55533,-0.514712,0.0149479,-2.08835,1.57868,1.60202,0.784333,-1.55276,-0.514055,0.0183153,-2.08544,1.57993,1.60488,0.784489,0.474156,0.271876,0.514995,0.246781,0.272078,1.00536,-0.0207661,0.540333,0.290764,0.58956,0.274342,0.28711,1.06101,-0.0261454,11.8283,-5.18649,17.6975,21.0947,0.321672,-1.03617,0.110056,1.02529,-0.381213,2.10959,2.67647,0.349246,-0.0298142,0.233542
4229369,1,-1.55483,-0.51443,0.0154889,-2.08809,1.57896,1.60309,0.784313,-1.55221,-0.51376,0.0189148,-2.08516,1.58022,1.60595,0.784462,0.486361,0.274111,0.523479,0.254778,0.279011,1.01916,-0.0198369,0.547505,0.29517,0.59955,0.278614,0.291781,1.07708,-0.0265161,11.7529,-5.26187,17.6697,21.1185,0.332659,-1.10666,0.0844213,1.0139,-0.404353,2.09027,2.69753,0.349431,-0.021652,0.233898
4229370,1,-1.5543,-0.514141,0.0160382,-2.08782,1.57926,1.60416,0.784288,-1.55166,-0.51346,0.0195244,-2.08488,1.58052,1.60705,0.784435,0.500068,0.285702,0.528944,0.258953,0.282515,1.03642,-0.0214941,0.554676,0.299576,0.60954,0.282887,0.296452,1.09315,-0.0268869,11.5784,-5.41263,17.5944,21.3169,0.366533,-1.1204,0.116465,1.00398,-0.434726,2.07258,2.72256,0.349458,-0.0137434,0.233934
4229371,1,-1.55378,-0.51385,0.0165977,-2.08755,1.57956,1.60525,0.784261,-1.5511,-0.513156,0.0201439,-2.08459,1.58082,1.60816,0.784408,0.521519,0.289299,0.536467,0.264081,0.282946,1.05044,-0.0228503,0.561847,0.303981,0.61953,0.287159,0.301124,1.10922,-0.0272576,11.503,-5.41263,17.519,21.3684,0.36104,-1.08103,0.155832,0.994104,-0.473116,2.05687,2.75037,0.349224,-0.00604807,0.233652
4229372,1,-1.55324,-0.513545,0.0171664,-2.08728,1.57985,1.60634,0.784233,-1.55053,-0.512848,0.0207734,-2.0843,1.58113,1.60928,0.78438,0.524061,0.29241,0.548942,0.266148,0.285691,1.06881,-0.0246703,0.569019,0.308387,0.62952,0.291431,0.305795,1.12529,-0.0276283,11.4514,-5.56339,17.5428,21.416,0.423296,-1.08744,0.219919,0.981871,-0.515457,2.04061,2.7796,0.348812,0.00168267,0.233119
4229373,1,-1.5527,-0.513249,0.0177421,-2.08699,1.58015,1.60746,0.784206,-1.54995,-0.512535,0.0214129,-2.08401,1.58144,1.61042,0.784352,0.528189,0.292557,0.559461,0.273098,0.293472,1.08653,-0.0248379,0.57619,0.312792,0.63951,0.295704,0.310467,1.14136,-0.027999,11.4752,-5.61496,17.5428,21.416,0.45717,-1.08744,0.259287,0.969735,-0.549936,2.02597,2.80544,0.348149,0.00916052,0.232461
4229374,1,-1.55217,-0.512942,0.0183335,-2.08671,1.58046,1.60859,0.784175,-1.54937,-0.512218,0.0220624,-2.08371,1.58175,1.61158,0.784324,0.527668,0.295706,0.564343,0.272051,0.297623,1.0918,-0.0262618,0.583361,0.317198,0.6495,0.299976,0.315138,1.15743,-0.0283697,11.63,-5.69034,17.6182,21.5152,0.406816,-1.01694,0.330698,0.964722,-0.568497,2.02177,2.82469,0.347051,0.0155136,0.231831
4229375,1,-1.55162,-0.512634,0.0189466,-2.08642,1.58077,1.60973,0.784157,-1.54878,-0.511897,0.0227219,-2.0834,1.58207,1.61275,0.784295,0.534578,0.299777,0.589859,0.278733,0.295133,1.10378,-0.0213509,0.589294,0.321242,0.65949,0.303974,0.319594,1.17234,-0.0287326,11.7291,-5.81729,17.6975,21.543,0.366533,-1.01694,0.24647,0.967551,-0.572102,2.0278,2.83878,0.345683,0.020825,0.231413
4229376,1,-1.55105,-0.512319,0.0195523,-2.08613,1.58108,1.6109,0.784143,-1.54818,-0.511572,0.0233914,-2.08309,1.5824,1.61394,0.784266,0.543481,0.305438,0.597588,0.282215,0.30575,1.11859,-0.0176382,0.595227,0.325286,0.66948,0.307972,0.32405,1.18724,-0.0290954,11.7291,-5.91647,17.7729,21.666,0.321672,-1.12681,0.149424,0.970408,-0.565793,2.03149,2.84983,0.34444,0.0263387,0.231345
4229377,1,-1.5505,-0.511999,0.0201723,-2.08583,1.58139,1.61208,0.784124,-1.54758,-0.511242,0.0240709,-2.08278,1.58272,1.61514,0.784237,0.546899,0.307201,0.604308,0.289463,0.30518,1.13714,-0.0158349,0.60116,0.32933,0.67947,0.311969,0.328506,1.20215,-0.0294583,11.8561,-5.94424,17.8205,21.789,0.304277,-1.24857,0.071604,0.972929,-0.551735,2.03294,2.85746,0.343201,0.0320478,0.231581
4229378,1,-1.54992,-0.511671,0.0207998,-2.08553,1.58172,1.6133,0.784113,-1.54697,-0.510909,0.0247603,-2.08247,1.58306,1.61636,0.784207,0.554313,0.311959,0.614296,0.29184,0.312856,1.15855,-0.0126677,0.607093,0.333375,0.68946,0.315967,0.332962,1.21706,-0.0298212,11.8561,-6.0712,17.8205,21.8405,0.321672,-1.48752,-0.0584009,0.981335,-0.529796,2.04229,2.8609,0.341588,0.0367936,0.231911
4229379,1,-1.54934,-0.511339,0.0214379,-2.08522,1.58203,1.61455,0.784102,-1.54636,-0.510571,0.0254598,-2.08215,1.5834,1.61759,0.784177,0.566003,0.315017,0.618985,0.295802,0.316254,1.18271,-0.0121165,0.613026,0.337419,0.69945,0.319965,0.337418,1.23197,-0.030184,11.7529,-6.19418,17.8721,21.8405,0.412309,-1.87388,-0.149038,0.997496,-0.502451,2.06304,2.86186,0.339504,0.0398405,0.23204
4229380,1,-1.54875,-0.510997,0.0220955,-2.08492,1.58236,1.61575,0.784096,-1.54574,-0.51023,0.0261692,-2.08182,1.58374,1.61884,0.784146,0.566008,0.322311,0.633619,0.299531,0.315994,1.19036,-0.0117084,0.618959,0.341463,0.70944,0.323963,0.341874,1.24687,-0.0305469,11.63,-6.39651,17.7729,21.8882,0.440691,-1.8281,-0.23876,1.02066,-0.475273,2.09443,2.86359,0.337096,0.0406709,0.231643
4229381,1,-1.54816,-0.510663,0.022749,-2.08461,1.58269,1.61696,0.784084,-1.54512,-0.509884,0.0268887,-2.08149,1.58408,1.6201,0.784115,0.571875,0.328514,0.642133,0.307649,0.320848,1.18803,-0.0135392,0.624892,0.345507,0.71943,0.327961,0.34633,1.26178,-0.0309097,11.6538,-6.49966,17.7451,21.8644,0.469072,-1.48752,-0.271719,1.04902,-0.45387,2.1333,2.86804,0.33461,0.0390727,0.230436
4229382,1,-1.54759,-0.510323,0.0234106,-2.08428,1.58302,1.61817,0.784063,-1.54449,-0.509535,0.0276181,-2.08116,1.58443,1.62138,0.784084,0.576814,0.330631,0.647563,0.314378,0.328589,1.18892,-0.019101,0.630825,0.349551,0.72942,0.331959,0.350786,1.27669,-0.0312726,11.7807,-6.52347,17.8483,21.789,0.519426,-1.27421,-0.18749,1.08164,-0.43659,2.1787,2.87267,0.332039,0.035288,0.228212
4229383,1,-1.54701,-0.509979,0.0240926,-2.08395,1.58336,1.61945,0.784045,-1.54385,-0.509181,0.0283575,-2.08083,1.58479,1.62267,0.784052,0.576693,0.33422,0.66031,0.316977,0.326198,1.20637,-0.0173577,0.636758,0.353596,0.73941,0.335956,0.355242,1.2916,-0.0316354,12.0307,-6.59885,17.7729,21.7414,0.531328,-1.37125,-0.10967,1.11967,-0.417193,2.23269,2.87413,0.329339,0.0297037,0.224895
4229384,1,-1.5464,-0.509626,0.024792,-2.08363,1.58371,1.62073,0.784025,-1.54321,-0.508824,0.0291069,-2.08049,1.58515,1.62397,0.78402,0.595467,0.336976,0.666852,0.320055,0.336901,1.21169,-0.0214359,0.642691,0.35764,0.7494,0.339954,0.359698,1.30651,-0.0319983,11.9315,-6.67422,17.6697,21.7176,0.339067,-1.34562,-0.0190333,1.16091,-0.39423,2.29182,2.87329,0.326794,0.0231793,0.220608
4229385,1,-1.54576,-0.50927,0.025498,-2.08331,1.58408,1.622,0.784007,-1.54256,-0.508462,0.0298663,-2.08014,1.58551,1.62529,0.783988,0.61089,0.33883,0.677702,0.322028,0.35171,1.22639,-0.0226451,0.647321,0.361241,0.75939,0.343599,0.363872,1.32008,-0.0323532,11.6538,-6.75357,17.6975,21.7176,0.191667,-1.42252,0.0258276,1.19762,-0.367219,2.34578,2.87143,0.324625,0.017232,0.215623
4229386,1,-1.54512,-0.508918,0.0262104,-2.08299,1.58445,1.6233,0.783998,-1.54191,-0.508098,0.0306357,-2.0798,1.58588,1.62663,0.783955,0.621359,0.342842,0.689464,0.321492,0.354346,1.24328,-0.0137482,0.651952,0.364843,0.76938,0.347244,0.368046,1.33366,-0.0327081,11.376,-6.80118,17.6182,21.789,0.146807,-1.4097,-0.0510767,1.22341,-0.337236,2.38587,2.87045,0.322802,0.0128991,0.210262
4229387,1,-1.54451,-0.508557,0.0269414,-2.08266,1.5848,1.62462,0.783996,-1.54125,-0.507729,0.031415,-2.07944,1.58625,1.62798,0.783922,0.623465,0.347177,0.705746,0.325685,0.352463,1.25815,-0.0110509,0.656582,0.368444,0.77937,0.350889,0.37222,1.34723,-0.033063,11.503,-6.80118,17.5428,21.8405,0.208147,-1.37125,-0.168264,1.23738,-0.309247,2.40963,2.87368,0.321227,0.01014,0.204782
4229388,1,-1.54388,-0.508189,0.0276728,-2.08232,1.58516,1.62594,0.783978,-1.54059,-0.507357,0.0322044,-2.07909,1.58663,1.62934,0.783889,0.618336,0.360017,0.711935,0.329689,0.351811,1.28051,-0.00985668,0.661212,0.372046,0.78936,0.354533,0.376394,1.36081,-0.0334179,11.5784,-6.97971,17.519,21.8167,0.366533,-1.39048,-0.135305,1.24655,-0.293328,2.42537,2.8848,0.319707,0.00767123,0.199252
4229389,1,-1.54324,-0.507816,0.0284199,-2.08197,1.58552,1.62727,0.783949,-1.53992,-0.506981,0.0330037,-2.07873,1.58701,1.63071,0.783855,0.624057,0.362366,0.720837,0.336429,0.356634,1.29367,-0.0113543,0.665842,0.375647,0.79935,0.358178,0.380568,1.37438,-0.0337729,11.503,-7.18204,17.4436,21.6898,0.417803,-1.22934,-0.0318506,1.26192,-0.297588,2.4481,2.90526,0.31799,0.00375238,0.193602
4229390,1,-1.54258,-0.507439,0.0291836,-2.08163,1.5859,1.62861,0.783921,-1.53925,-0.506602,0.0338131,-2.07837,1.58739,1.6321,0.783821,0.633663,0.362788,0.728168,0.341255,0.365494,1.31713,-0.0176483,0.670472,0.379249,0.80934,0.361823,0.384742,1.38796,-0.0341278,11.2769,-7.3566,17.3405,21.6144,0.332659,-1.12681,0.0780126,1.2864,-0.311944,2.48304,2.92845,0.315929,-0.00185936,0.187843
4229391,1,-1.54192,-0.507067,0.0299411,-2.08127,1.58629,1.62999,0.783891,-1.53858,-0.506219,0.0346324,-2.078,1.58778,1.6335,0.783786,0.640389,0.367592,0.73719,0.357474,0.375494,1.33656,-0.0220952,0.675102,0.38285,0.81933,0.365468,0.388916,1.40154,-0.0344827,11.0983,-7.43594,17.2135,21.4676,0.26491,-1.08744,0.187876,1.31684,-0.31827,2.52718,2.94296,0.313396,-0.00834169,0.182164
4229392,1,-1.54127,-0.50669,0.0307162,-2.08092,1.58668,1.6314,0.783856,-1.5379,-0.505833,0.0354617,-2.07764,1.58818,1.63492,0.783752,0.65022,0.366727,0.743655,0.356523,0.38808,1.35744,-0.0295172,0.679732,0.386451,0.82932,0.369112,0.39309,1.41511,-0.0348376,11.0468,-7.45975,17.1619,21.4438,0.191667,-1.15244,0.272104,1.35078,-0.306941,2.57828,2.94197,0.310223,-0.01502,0.176855
4229393,1,-1.54063,-0.506324,0.0315065,-2.08056,1.58708,1.63278,0.783842,-1.53721,-0.505443,0.036301,-2.07726,1.58857,1.63634,0.783716,0.645498,0.369519,0.765736,0.358727,0.390481,1.37221,-0.0220919,0.684362,0.390053,0.83931,0.372757,0.397265,1.42869,-0.0351925,11.1499,-7.33279,17.0627,21.4438,0.1523,-1.14603,0.149424,1.38515,-0.278396,2.63128,2.92854,0.306541,-0.021238,0.172212
4229394,1,-1.53997,-0.505939,0.0322975,-2.0802,1.58748,1.6342,0.783823,-1.53653,-0.505049,0.0371503,-2.07689,1.58898,1.63779,0.783681,0.64856,0.374402,0.773184,0.356905,0.405424,1.37401,-0.0227313,0.688992,0.393654,0.8493,0.376402,0.401439,1.44226,-0.0355474,11.1737,-7.45975,17.0112,21.4438,0.0900438,-1.09385,0.038645,1.4176,-0.242349,2.68056,2.91189,0.302642,-0.0265203,0.168408
4229395,1,-1.53929,-0.505553,0.0331054,-2.07982,1.58789,1.6356,0.783798,-1.53583,-0.504652,0.0380094,-2.07651,1.58938,1.63924,0.783645,0.661173,0.376709,0.776232,0.367696,0.407225,1.38358,-0.0211175,0.692447,0.396752,0.859101,0.37963,0.405253,1.45428,-0.0358959,10.9714,-7.43594,17.0112,21.2455,0.095537,-1.04258,0.000192821,1.44899,-0.205921,2.72771,2.89631,0.298388,-0.0308497,0.165373
4229396,1,-1.53861,-0.505161,0.0339275,-2.07944,1.58829,1.63703,0.783774,-1.53514,-0.504253,0.0388783,-2.07612,1.58979,1.64071,0.783609,0.669198,0.381691,0.791252,0.367984,0.403523,1.39479,-0.0184628,0.695901,0.399849,0.868902,0.382858,0.409068,1.46629,-0.0362443,10.8722,-7.51132,16.9358,21.1939,0.112016,-0.97849,-0.077627,1.47787,-0.168906,2.77249,2.88018,0.293605,-0.033972,0.162883
4229397,1,-1.53793,-0.504759,0.0347696,-2.07905,1.58869,1.6385,0.783732,-1.53444,-0.50385,0.039757,-2.07574,1.5902,1.64219,0.783572,0.674745,0.3866,0.80157,0.375794,0.400047,1.41379,-0.0235887,0.699356,0.402947,0.878703,0.386087,0.412883,1.47831,-0.0365928,10.8722,-7.63828,16.7097,21.1185,0.1523,-1.05539,0.0322363,1.50004,-0.133982,2.80889,2.86413,0.288551,-0.0354087,0.160686
4229398,1,-1.53723,-0.504358,0.0356185,-2.07866,1.58911,1.63996,0.783688,-1.53373,-0.503444,0.0406455,-2.07535,1.59062,1.64368,0.783535,0.673291,0.385577,0.81141,0.379206,0.401116,1.43643,-0.0319565,0.702811,0.406044,0.888505,0.389315,0.416698,1.49033,-0.0369413,10.6937,-7.71365,16.5827,21.0947,0.214556,-1.17167,0.135691,1.51738,-0.100229,2.83864,2.84727,0.283365,-0.0356265,0.158593
4229399,1,-1.53653,-0.503968,0.036475,-2.07828,1.58955,1.64143,0.783649,-1.53303,-0.503034,0.0415439,-2.07496,1.59104,1.64518,0.783498,0.677769,0.39078,0.827138,0.38228,0.410949,1.43673,-0.0359888,0.706266,0.409141,0.898306,0.392543,0.420513,1.50234,-0.0372897,10.4437,-7.76126,16.3526,21.0709,0.174272,-0.991307,0.187876,1.53323,-0.0631169,2.86564,2.82743,0.278054,-0.0352515,0.156592
4229400,1,-1.53582,-0.50357,0.0373533,-2.07788,1.58998,1.64288,0.783626,-1.53232,-0.502622,0.042452,-2.07456,1.59146,1.64669,0.78346,0.685396,0.392828,0.838874,0.385954,0.420688,1.44044,-0.0325817,0.70972,0.412239,0.908107,0.395771,0.424328,1.51436,-0.0376382,10.2414,-7.76126,16.178,21.1423,0.0671556,-0.75327,0.0651953,1.54421,-0.0239582,2.88472,2.80603,0.272807,-0.033754,0.154817
4229401,1,-1.53512,-0.50318,0.0382191,-2.07749,1.59042,1.64439,0.783593,-1.53161,-0.502207,0.0433699,-2.07416,1.59189,1.64822,0.783422,0.688835,0.391816,0.852047,0.387406,0.424348,1.45739,-0.0333156,0.713175,0.415336,0.917908,0.398999,0.428143,1.52637,-0.0379867,10.0906,-7.76126,15.9995,21.2455,0.0332811,-0.75327,0.0194189,1.54654,0.0185957,2.89111,2.78325,0.267684,-0.030421,0.153358
4229402,1,-1.53442,-0.50278,0.0391074,-2.07709,1.59085,1.64593,0.783559,-1.53089,-0.501788,0.0442976,-2.07376,1.59232,1.64976,0.783384,0.707912,0.392424,0.862532,0.389357,0.427349,1.48314,-0.0292223,0.71663,0.418433,0.927709,0.402228,0.431957,1.53839,-0.0383351,10.0391,-7.81284,15.9241,21.3446,-0.000593394,-0.946447,-0.0126246,1.53817,0.0697024,2.88286,2.75799,0.262644,-0.0248932,0.152137
4229403,1,-1.53371,-0.502372,0.0400301,-2.07668,1.59129,1.64744,0.783521,-1.53017,-0.501367,0.0452351,-2.07335,1.59276,1.65131,0.783345,0.711856,0.399854,0.882219,0.392164,0.428752,1.4945,-0.0261919,0.720084,0.421531,0.93751,0.405456,0.435772,1.5504,-0.0386836,9.93989,-7.88821,15.7456,21.3684,-0.0115797,-1.01053,-0.044668,1.51479,0.125906,2.85443,2.73276,0.257825,-0.0167445,0.150993
4229404,1,-1.53299,-0.501956,0.0409355,-2.07628,1.59175,1.64898,0.783479,-1.52945,-0.500942,0.0461824,-2.07294,1.5932,1.65287,0.783306,0.714815,0.410203,0.891502,0.397745,0.435552,1.5006,-0.0312502,0.723539,0.424628,0.947311,0.408684,0.439587,1.56242,-0.039032,9.83674,-8.03897,15.8488,21.3922,-0.0399611,-1.03617,-0.0190333,1.47663,0.171969,2.80531,2.71388,0.253328,-0.00632024,0.149776
4229405,1,-1.53228,-0.501532,0.0418602,-2.07587,1.5922,1.65054,0.783442,-1.52872,-0.500515,0.0471386,-2.07253,1.59364,1.65444,0.783267,0.713546,0.414352,0.898633,0.402847,0.439191,1.51865,-0.0291617,0.725957,0.427173,0.956173,0.411445,0.442935,1.57272,-0.0393813,9.78517,-8.2175,15.8726,21.4676,-0.0234816,-1.0618,-0.00621587,1.43351,0.196477,2.74919,2.70476,0.248833,0.00464368,0.148376
4229406,1,-1.53156,-0.501115,0.04278,-2.07546,1.59266,1.6521,0.783397,-1.52799,-0.500085,0.0481036,-2.07212,1.59409,1.65603,0.783227,0.706851,0.417105,0.90403,0.405361,0.44507,1.53424,-0.0335678,0.728375,0.429718,0.965035,0.414206,0.446284,1.58302,-0.0397306,9.91212,-8.34445,15.8488,21.5152,0.0158861,-1.16526,0.0258276,1.39977,0.202279,2.70694,2.70309,0.243774,0.013789,0.146747
4229407,1,-1.53083,-0.500686,0.0437209,-2.07505,1.59311,1.65372,0.783365,-1.52726,-0.499653,0.0490775,-2.0717,1.59454,1.65762,0.783187,0.707135,0.420687,0.91023,0.40513,0.439386,1.55935,-0.0334287,0.730794,0.432263,0.973897,0.416966,0.449632,1.59331,-0.0400798,10.0153,-8.54678,15.8488,21.6422,0.095537,-1.58365,-0.0318506,1.38634,0.195138,2.69428,2.70738,0.237869,0.0192485,0.14491
4229408,1,-1.53011,-0.500247,0.0446794,-2.07465,1.59357,1.6553,0.783341,-1.52653,-0.499218,0.0500603,-2.07128,1.59499,1.65922,0.783147,0.709049,0.425697,0.917261,0.403843,0.443891,1.57271,-0.0318528,0.733212,0.434808,0.982759,0.419727,0.45298,1.60361,-0.0404291,10.0629,-8.72531,15.6464,21.789,0.078142,-1.66788,-0.135305,1.39551,0.174403,2.71446,2.72033,0.231333,0.0202522,0.142897
4229409,1,-1.52937,-0.499817,0.0456156,-2.07423,1.59405,1.65689,0.783317,-1.52579,-0.498781,0.0510519,-2.07086,1.59545,1.66084,0.783106,0.71326,0.43011,0.920796,0.410806,0.450849,1.57024,-0.0305281,0.73563,0.437353,0.991621,0.422488,0.456328,1.61391,-0.0407784,9.88832,-8.92368,15.5949,21.789,0.078142,-1.51957,-0.252493,1.42347,0.139852,2.76249,2.74261,0.22441,0.0169566,0.140666
4229410,1,-1.52865,-0.499376,0.0465619,-2.07381,1.5945,1.6585,0.783293,-1.52505,-0.498341,0.0520524,-2.07043,1.59591,1.66246,0.783065,0.731627,0.434134,0.92681,0.415346,0.452263,1.57571,-0.0261474,0.738048,0.439898,1.00048,0.425249,0.459676,1.62421,-0.0411276,9.78517,-9.17758,15.6187,21.789,0.191667,-1.46738,-0.322988,1.46174,0.0978058,2.82769,2.76907,0.217166,0.0105512,0.138074
4229411,1,-1.52793,-0.498929,0.0475454,-2.07339,1.59497,1.6601,0.783263,-1.52431,-0.497899,0.0530617,-2.07001,1.59637,1.6641,0.783023,0.725584,0.441181,0.961806,0.417206,0.45706,1.58492,-0.0254577,0.740466,0.442443,1.00934,0.428009,0.463025,1.63451,-0.0414769,10.0153,-9.45529,15.3647,21.7414,0.186174,-1.4097,-0.322988,1.49431,0.0516816,2.88645,2.79707,0.210177,0.00352561,0.13492
4229412,1,-1.52721,-0.498486,0.0485092,-2.07297,1.59545,1.66174,0.78323,-1.52357,-0.497454,0.0540799,-2.06958,1.59684,1.66574,0.782981,0.722311,0.444767,0.968084,0.419771,0.469431,1.59589,-0.0271144,0.742885,0.444988,1.01821,0.43077,0.466373,1.64481,-0.0418262,10.1145,-9.65762,15.2656,21.7652,0.134905,-1.52598,-0.258901,1.5116,-0.00117363,2.92111,2.82857,0.204155,-0.00248784,0.131019
4229413,1,-1.52647,-0.49804,0.0494712,-2.07254,1.59592,1.66335,0.783202,-1.52282,-0.497006,0.055107,-2.06914,1.59731,1.6674,0.782939,0.730316,0.44433,0.957176,0.420832,0.470329,1.63188,-0.0269102,0.745303,0.447533,1.02707,0.433531,0.469721,1.65511,-0.0421754,9.88832,-9.78458,15.3925,21.789,-0.000593394,-1.31998,-0.225942,1.52589,-0.0578897,2.94893,2.86235,0.198781,-0.00916894,0.126286
4229414,1,-1.52574,-0.497602,0.0504483,-2.07212,1.59641,1.66498,0.783177,-1.52208,-0.496556,0.0561429,-2.06871,1.59778,1.66906,0.782897,0.727167,0.444681,0.96407,0.4163,0.47956,1.63523,-0.0308791,0.747721,0.450078,1.03593,0.436292,0.473069,1.66541,-0.0425247,9.81294,-9.88773,15.3409,21.9397,-0.125105,-1.09385,-0.219534,1.55465,-0.111703,2.99772,2.89627,0.193265,-0.0189944,0.120785
4229415,1,-1.52502,-0.497154,0.0514581,-2.0717,1.59689,1.66663,0.783156,-1.52133,-0.496104,0.0571863,-2.06827,1.59826,1.67073,0.782854,0.719088,0.44648,0.975285,0.415055,0.481838,1.63084,-0.033586,0.74926,0.452041,1.04339,0.438537,0.475787,1.67387,-0.0428823,9.91212,-9.91153,15.1386,22.0389,-0.136091,-0.875035,-0.219534,1.60163,-0.161259,3.07286,2.93219,0.187286,-0.0318882,0.114693
4229416,1,-1.52429,-0.496692,0.0524902,-2.07127,1.59736,1.66831,0.783115,-1.52058,-0.49565,0.0582371,-2.06783,1.59873,1.67242,0.782811,0.716343,0.450767,0.993483,0.412797,0.478148,1.65107,-0.0405952,0.750799,0.454003,1.05084,0.440782,0.478505,1.68233,-0.04324,9.9875,-10.0623,14.9363,22.1381,-0.00608656,-1.04899,-0.0840357,1.66049,-0.210757,3.16273,2.97366,0.180978,-0.0460665,0.10821
4229417,1,-1.52354,-0.496235,0.0534963,-2.07084,1.59784,1.66999,0.783083,-1.51982,-0.495194,0.0592954,-2.06738,1.59922,1.67411,0.782767,0.722607,0.4517,0.995597,0.416391,0.475018,1.66099,-0.0416125,0.752338,0.455966,1.05829,0.443028,0.481222,1.69079,-0.0435976,9.88832,-10.2408,14.9363,22.2135,0.0332811,-1.04899,-0.0510767,1.72367,-0.262482,3.25526,3.02113,0.174601,-0.0599888,0.101561
4229418,1,-1.5228,-0.49578,0.0545319,-2.07042,1.59833,1.6717,0.783053,-1.51907,-0.494736,0.0603612,-2.06694,1.5997,1.67581,0.782723,0.726088,0.446367,1.00128,0.420632,0.481681,1.66622,-0.0408932,0.753877,0.457928,1.06575,0.445273,0.48394,1.69925,-0.0439552,9.68599,-10.34,14.734,22.3127,-0.0344679,-1.01694,-0.0648096,1.78777,-0.304826,3.34736,3.06644,0.168052,-0.0729554,0.0950279
4229419,1,-1.52205,-0.495328,0.0555562,-2.06998,1.59884,1.67339,0.783006,-1.51832,-0.494276,0.0614344,-2.06649,1.60019,1.67751,0.782679,0.732424,0.44821,1.00834,0.427153,0.492346,1.67836,-0.0447659,0.755416,0.45989,1.0732,0.447518,0.486658,1.70771,-0.0443129,9.38447,-10.3678,14.5832,22.3365,-0.164473,-1.02335,0.038645,1.85075,-0.32136,3.43842,3.09855,0.161034,-0.0845355,0.0888463
4229420,1,-1.52132,-0.494865,0.0566075,-2.06954,1.59933,1.67511,0.782972,-1.51756,-0.493814,0.062515,-2.06604,1.60068,1.67923,0.782634,0.749406,0.44868,1.02761,0.431537,0.494069,1.68616,-0.042305,0.756955,0.461853,1.08066,0.449763,0.489376,1.71617,-0.0446705,9.23372,-10.4908,14.2539,22.3127,-0.10771,-1.11399,0.00660151,1.90268,-0.308518,3.51532,3.1136,0.153652,-0.0933708,0.0831821
4229421,1,-1.52059,-0.4944,0.057665,-2.0691,1.59983,1.67679,0.782932,-1.5168,-0.493351,0.0636032,-2.06559,1.60117,1.68096,0.782589,0.745387,0.452184,1.03024,0.436432,0.500883,1.69295,-0.0360444,0.758494,0.463815,1.08811,0.452009,0.492093,1.72463,-0.0450281,9.30909,-10.6177,13.8453,22.2889,-0.0802443,-0.933629,-0.0126246,1.93501,-0.272846,3.56597,3.11402,0.146127,-0.0984709,0.0781681
4229422,1,-1.51984,-0.493947,0.0587235,-2.06866,1.60034,1.67849,0.782881,-1.51604,-0.492885,0.0646987,-2.06513,1.60166,1.68269,0.782544,0.746262,0.454922,1.04266,0.440662,0.498233,1.69198,-0.040159,0.760033,0.465777,1.09557,0.454254,0.494811,1.73309,-0.0453858,9.20594,-10.6177,13.393,22.1619,-0.0857374,-0.656224,0.0651953,1.95344,-0.224476,3.59769,3.10449,0.138383,-0.100852,0.0738381
4229423,1,-1.51908,-0.493485,0.0597972,-2.0682,1.60084,1.68022,0.782843,-1.51528,-0.492417,0.0658017,-2.06468,1.60216,1.68443,0.782498,0.752877,0.456316,1.05152,0.444408,0.500317,1.70101,-0.0386558,0.761572,0.46774,1.10302,0.456499,0.497529,1.74155,-0.0457434,8.75367,-10.6177,13.1113,21.9873,-0.0683424,-0.514318,0.0194189,1.96324,-0.170804,3.61666,3.08882,0.130474,-0.101173,0.0701834
4229424,1,-1.5183,-0.493029,0.0608737,-2.06775,1.60135,1.68194,0.782801,-1.51451,-0.491947,0.0669122,-2.06422,1.60266,1.68618,0.782452,0.753044,0.458431,1.08161,0.446212,0.501145,1.70839,-0.0434798,0.763111,0.469702,1.11048,0.458745,0.500246,1.75001,-0.046101,8.27363,-10.6177,12.7344,21.8644,-0.0518629,-0.514318,-0.0126246,1.95844,-0.114661,3.61234,3.06968,0.122869,-0.0982717,0.0672081
4229425,1,-1.51752,-0.492569,0.061989,-2.06729,1.60186,1.68371,0.78275,-1.51375,-0.491476,0.0680285,-2.06376,1.60316,1.68794,0.782405,0.758783,0.458834,1.09005,0.441636,0.501347,1.72526,-0.0494861,0.763954,0.471082,1.1163,0.460414,0.50211,1.75651,-0.046461,7.86897,-10.5701,12.1512,21.666,-0.0738356,-0.656224,0.0194189,1.93201,-0.06008,3.57291,3.05178,0.116159,-0.0909912,0.0648444
4229426,1,-1.51674,-0.492094,0.0631221,-2.06684,1.60238,1.68544,0.782714,-1.51299,-0.491004,0.0691506,-2.0633,1.60367,1.6897,0.782358,0.767814,0.461744,1.10324,0.447538,0.506444,1.72955,-0.0443623,0.764797,0.472462,1.12212,0.462084,0.503973,1.76301,-0.046821,7.36512,-10.6455,11.6434,21.5668,-0.0344679,-0.720311,-0.0648096,1.88436,-0.0105928,3.49993,3.03864,0.110482,-0.0795697,0.0629644
4229427,1,-1.51595,-0.49162,0.0642604,-2.06639,1.60289,1.6872,0.782676,-1.51222,-0.49053,0.0702786,-2.06283,1.60417,1.69147,0.782311,0.767393,0.46332,1.11958,0.449955,0.499279,1.74001,-0.0412556,0.76564,0.473842,1.12794,0.463754,0.505837,1.76951,-0.047181,6.98823,-10.7962,11.1396,21.5152,-0.0683424,-0.681859,-0.141714,1.81818,0.0346242,3.3991,3.02839,0.105661,-0.0647917,0.0614477
4229428,1,-1.51516,-0.491142,0.0654201,-2.06593,1.6034,1.68897,0.78265,-1.51145,-0.490055,0.0714123,-2.06237,1.60468,1.69325,0.782264,0.777416,0.461576,1.12369,0.452887,0.497673,1.74378,-0.0348005,0.766483,0.475222,1.13376,0.465424,0.5077,1.77601,-0.0475409,6.7859,-10.9748,10.6318,21.5152,-0.0738356,-0.681859,-0.329397,1.73671,0.0803211,3.27636,3.01713,0.101491,-0.0475659,0.0601267
4229429,1,-1.51439,-0.490665,0.0665695,-2.06546,1.60392,1.69074,0.782602,-1.51069,-0.489578,0.0725519,-2.0619,1.60519,1.69503,0.782216,0.778264,0.465804,1.13047,0.456097,0.506316,1.75019,-0.0383062,0.767326,0.476602,1.13958,0.467093,0.509563,1.78251,-0.0479009,6.58357,-11.1255,10.4294,21.543,-0.125105,-0.733129,-0.303762,1.64723,0.129474,3.14408,3.00258,0.0975532,-0.02926,0.0587023
4229430,1,-1.51361,-0.490194,0.0676998,-2.06499,1.60445,1.69257,0.782562,-1.50992,-0.4891,0.0736973,-2.06143,1.6057,1.69682,0.782168,0.772027,0.468812,1.12645,0.46527,0.518401,1.77034,-0.039598,0.76817,0.477982,1.1454,0.468763,0.511427,1.78901,-0.0482609,6.45662,-11.2763,10.2509,21.3922,-0.141585,-1.18448,-0.303762,1.56372,0.178846,3.02335,2.9838,0.0931558,-0.0122042,0.0568097
4229431,1,-1.51284,-0.489712,0.0688431,-2.06452,1.60498,1.69437,0.782526,-1.50915,-0.488621,0.0748485,-2.06096,1.60621,1.69861,0.782119,0.770363,0.468284,1.12817,0.467737,0.524576,1.78793,-0.0383281,0.769013,0.479361,1.15122,0.470433,0.51329,1.79551,-0.0486209,6.43281,-11.5024,10.0764,21.3922,-0.249617,-1.52598,-0.362356,1.50264,0.227185,2.93807,2.95882,0.0875551,0.000632486,0.0542054
4229432,1,-1.51206,-0.48925,0.0699571,-2.06405,1.60549,1.69614,0.782481,-1.50838,-0.48814,0.0760056,-2.06049,1.60673,1.70041,0.78207,0.771587,0.468137,1.13139,0.47035,0.519528,1.7757,-0.037055,0.769856,0.480741,1.15704,0.472103,0.515153,1.80201,-0.0489808,6.38124,-11.554,10.1993,21.4676,-0.232222,-1.22934,-0.290945,1.46847,0.277627,2.89469,2.92671,0.080485,0.00789432,0.0508146
4229433,1,-1.51132,-0.488773,0.0710865,-2.06358,1.60599,1.69792,0.782444,-1.50761,-0.487658,0.0771684,-2.06002,1.60725,1.70222,0.782021,0.765242,0.468662,1.12141,0.473592,0.516191,1.76226,-0.0371044,0.770699,0.482121,1.16286,0.473772,0.517017,1.80851,-0.0493408,6.73433,-11.6294,10.4294,21.4676,-0.0912306,-0.940038,-0.322988,1.46,0.331411,2.89177,2.88874,0.0718911,0.00946177,0.0466739
4229434,1,-1.51059,-0.488285,0.0722445,-2.06309,1.6065,1.69969,0.782402,-1.50684,-0.487174,0.0783371,-2.05954,1.60776,1.70404,0.781971,0.747026,0.47186,1.12634,0.473798,0.509481,1.77199,-0.0405952,0.771542,0.483501,1.16868,0.475442,0.51888,1.81501,-0.0497008,7.49208,-11.8079,10.481,21.3446,0.0506761,-0.817357,-0.26531,1.48343,0.383485,2.9374,2.84868,0.0617189,0.00467765,0.0418856
4229435,1,-1.50985,-0.487805,0.0733825,-2.06261,1.60702,1.70152,0.782356,-1.50607,-0.48669,0.0795098,-2.05906,1.60828,1.70586,0.781921,0.73988,0.473151,1.12733,0.465789,0.508491,1.78586,-0.044479,0.771879,0.484308,1.1727,0.476498,0.519859,1.81943,-0.0500472,8.0951,-11.9586,10.5286,21.3684,0.095537,-1.04899,-0.161856,1.54356,0.421763,3.03497,2.81547,0.0504919,-0.00669976,0.0365572
4229436,1,-1.50908,-0.487313,0.0745228,-2.06214,1.60755,1.70334,0.782318,-1.50529,-0.486205,0.0806865,-2.05859,1.60881,1.70768,0.78187,0.752901,0.479848,1.12389,0.463709,0.512991,1.79543,-0.0395675,0.772216,0.485115,1.17671,0.477555,0.520837,1.82386,-0.0503936,7.94435,-12.1372,10.7825,21.4438,-0.0115797,-1.1204,-0.122488,1.63454,0.432815,3.17366,2.79938,0.0391208,-0.0233883,0.0308417
4229437,1,-1.5083,-0.486817,0.0756542,-2.06166,1.60808,1.70514,0.782281,-1.50452,-0.485719,0.0818672,-2.05811,1.60933,1.70951,0.78182,0.760773,0.499348,1.13163,0.472251,0.515985,1.79262,-0.0395341,0.772553,0.485922,1.18073,0.478611,0.521815,1.82828,-0.05074,7.74202,-12.3395,11.0602,21.5668,-0.136091,-1.05539,-0.128897,1.74095,0.400231,3.33141,2.80693,0.0283915,-0.0428862,0.0249934
4229438,1,-1.50758,-0.486312,0.0768418,-2.06119,1.60861,1.70696,0.782246,-1.50375,-0.485232,0.083052,-2.05763,1.60985,1.71134,0.781769,0.747876,0.496041,1.14209,0.469235,0.521387,1.8038,-0.0381961,0.772889,0.486728,1.18474,0.479667,0.522793,1.8327,-0.0510864,8.14668,-12.5894,10.6556,21.789,-0.210249,-0.965673,-0.174673,1.8491,0.317259,3.48784,2.83775,0.018684,-0.0630404,0.01927
4229439,1,-1.50685,-0.485818,0.0780278,-2.06072,1.60912,1.70879,0.782209,-1.50297,-0.484745,0.0842407,-2.05715,1.61037,1.71318,0.781717,0.74075,0.49303,1.15434,0.463941,0.514043,1.80732,-0.0360096,0.773226,0.487535,1.18876,0.480723,0.523772,1.83712,-0.0514328,8.29744,-12.7164,10.2509,21.9635,-0.102217,-1.01053,-0.258901,1.95466,0.203804,3.63453,2.88422,0.00991729,-0.0829566,0.0138109
4229440,1,-1.50606,-0.485326,0.0791774,-2.06025,1.60965,1.71064,0.782164,-1.5022,-0.484256,0.0854335,-2.05667,1.6109,1.71502,0.781665,0.748974,0.493003,1.1464,0.467501,0.513953,1.81654,-0.0381101,0.773563,0.488342,1.19277,0.481779,0.52475,1.84155,-0.0517792,7.71821,-12.7918,10.0248,22.1381,-0.00608656,-1.01053,-0.246084,2.05772,0.0856323,3.77125,2.93688,0.00177863,-0.102338,0.0086139
4229441,1,-1.50528,-0.484824,0.0803753,-2.05978,1.61019,1.71248,0.782115,-1.50143,-0.483767,0.0866303,-2.05618,1.61142,1.71687,0.781613,0.757171,0.494427,1.16061,0.472578,0.52013,1.80784,-0.0408963,0.7739,0.489149,1.19679,0.482836,0.525728,1.84597,-0.0521256,7.16279,-12.9425,9.39002,22.3365,-0.187361,-0.740453,-0.200308,2.15413,-0.021836,3.89439,2.98651,-0.00595209,-0.120342,0.003602
4229442,1,-1.50448,-0.484337,0.0815531,-2.0593,1.61073,1.71429,0.782067,-1.50065,-0.483277,0.0878311,-2.0557,1.61195,1.71872,0.781561,0.767738,0.494874,1.19474,0.467555,0.525272,1.80928,-0.0428009,0.774237,0.489955,1.20081,0.483892,0.526707,1.85039,-0.052472,6.32966,-13.0219,8.98535,22.511,-0.311873,-0.475866,-0.155447,2.22316,-0.111929,3.97498,3.02931,-0.012738,-0.13371,-0.00125663
4229443,1,-1.50369,-0.483842,0.0827469,-2.05883,1.61125,1.71615,0.782006,-1.49988,-0.482787,0.0890359,-2.05521,1.61248,1.72057,0.781508,0.778023,0.496349,1.18801,0.470253,0.537051,1.81588,-0.051418,0.774574,0.490762,1.20482,0.484948,0.527685,1.85481,-0.0528184,5.67506,-13.0219,8.6045,22.5626,-0.198347,-0.431005,-0.0510767,2.2472,-0.185766,3.98814,3.06783,-0.0181356,-0.139641,-0.00592952
