shamilmamedov/beam_handling/log/param_estimation_ICRA/ocp_Z_15cm_0.42s_5.csv
duration, success rate, q[0], q[1], q[2], q[3], q[4], q[5], q[6],q_d[0], q_d[1], q_d[2], q_d[3], q_d[4], q_d[5], q_d[6],dq[0], dq[1], dq[2], dq[3], dq[4], dq[5], dq[6],dq_d[0], dq_d[1], dq_d[2], dq_d[3], dq_d[4], dq_d[5], dq_d[6],tau_J[0], tau_J[1], tau_J[2], tau_J[3], tau_J[4], tau_J[5], tau_J[6],tau_ext_hat_filtered[0], tau_ext_hat_filtered[1], tau_ext_hat_filtered[2], tau_ext_hat_filtered[3], tau_ext_hat_filtered[4], tau_ext_hat_filtered[5], tau_ext_hat_filtered[6]
720662,0,-1.57045,-0.523476,0.000202879,-2.09688,-0.00124008,1.57119,0.785668,-1.5708,-0.5236,1.30139e-07,-2.0944,-6.15989e-07,1.5708,0.785398,0.000941509,0.00117943,0.000196953,-0.000243871,0.000160337,0.000326561,-0.000437358,0,0,0,0,0,0,0,-0.478199,-9.40768,-0.786069,21.9873,1.71236,1.39822,-0.181082,-0.44418,-0.263354,-0.307609,3.4539,0.998462,-0.260972,-0.20632
720663,1,-1.57045,-0.523477,0.000207696,-2.09688,-0.00123947,1.57119,0.785673,-1.5708,-0.5236,1.30139e-07,-2.0944,-6.15989e-07,1.5708,0.785398,0.000627673,0.00013667,0.00189454,-0.000812194,0.000311387,-0.00049437,0.0016073,0,0,0,0,0,0,0,-0.478199,-9.37991,-0.861447,22.0151,1.70687,1.41745,-0.232351,-0.445564,-0.263421,-0.309586,3.45395,0.998446,-0.261015,-0.206299
720664,1,-1.57045,-0.523479,0.000202248,-2.09688,-0.00124008,1.57119,0.785671,-1.5708,-0.5236,1.30139e-07,-2.0944,-6.15989e-07,1.5708,0.785398,-0.000695175,-0.000465699,-0.000500211,-0.000541463,4.9247e-06,-9.22208e-05,0.000359456,0,0,0,0,0,0,0,-0.430592,-9.35611,-0.786069,22.0151,1.71236,1.41104,-0.213125,-0.447468,-0.265213,-0.312391,3.45524,0.998425,-0.26094,-0.206212
720665,1,-1.57045,-0.523477,0.000202196,-2.09688,-0.00124079,1.57119,0.785668,-1.5708,-0.5236,1.30139e-07,-2.0944,-6.15989e-07,1.5708,0.785398,-0.00046345,0.000246346,-0.000333474,0.000845451,-0.000233488,0.000175878,-0.000709798,0,0,0,0,0,0,0,-0.430592,-9.37991,-0.786069,21.9635,1.71877,1.40463,-0.18749,-0.44811,-0.266283,-0.313436,3.45619,0.99845,-0.260884,-0.206118
720666,1,-1.57045,-0.523477,0.000204127,-2.09688,-0.00124008,1.57119,0.785673,-1.5708,-0.5236,1.30139e-07,-2.0944,-6.15989e-07,1.5708,0.785398,0.000804657,0.000164231,0.000427298,0.000563634,8.21412e-05,-0.000120107,0.00118831,0,0,0,0,0,0,0,-0.478199,-9.37991,-0.81384,21.9635,1.71236,1.41104,-0.232351,-0.447727,-0.266533,-0.312972,3.4562,0.998495,-0.260933,-0.20604
720667,1,-1.57045,-0.523477,0.000204121,-2.09688,-0.00124008,1.57119,0.785675,-1.5708,-0.5236,1.30139e-07,-2.0944,-6.15989e-07,1.5708,0.785398,-2.03739e-05,0.000109487,0.000284865,-0.000181056,5.50915e-05,-8.00711e-05,0.00130084,0,0,0,0,0,0,0,-0.454395,-9.37991,-0.81384,21.9873,1.71236,1.41104,-0.246084,-0.447676,-0.266625,-0.312948,3.45581,0.998506,-0.261029,-0.20597
720668,1,-1.57044,-0.523477,0.00020217,-2.09688,-0.00123947,1.57119,0.785667,-1.5708,-0.5236,1.30139e-07,-2.0944,-6.15989e-07,1.5708,0.785398,0.000543229,7.29915e-05,-0.000459704,-0.000120704,0.000240426,-5.33807e-05,-0.00177763,0,0,0,0,0,0,0,-0.478199,-9.37991,-0.786069,21.9873,1.70687,1.41104,-0.174673,-0.44781,-0.267006,-0.313145,3.45569,0.998513,-0.261081,-0.205941
720669,1,-1.57045,-0.523477,0.000204118,-2.09688,-0.00124079,1.57119,0.785673,-1.5708,-0.5236,1.30139e-07,-2.0944,-6.15989e-07,1.5708,0.785398,-0.000194659,4.8661e-05,0.000343145,-8.04694e-05,-0.000280339,-3.55872e-05,0.000951142,0,0,0,0,0,0,0,-0.454395,-9.37991,-0.81384,21.9873,1.71877,1.41104,-0.232351,-0.447739,-0.267607,-0.312992,3.45586,0.998536,-0.261085,-0.205969
720670,1,-1.57045,-0.523479,0.000204118,-2.09688,-0.00123886,1.57119,0.785673,-1.5708,-0.5236,1.30139e-07,-2.0944,-6.15989e-07,1.5708,0.785398,-0.000129773,-0.000524371,0.000228763,-0.00702674,0.000457507,-2.37248e-05,0.000396736,0,0,0,0,0,0,0,-0.454395,-9.35611,-0.81384,22.0151,1.70137,1.41104,-0.225942,-0.447612,-0.269969,-0.312809,3.45823,0.998612,-0.260825,-0.206026
720671,1,-1.57045,-0.523477,0.000202629,-2.09688,-0.00124079,1.57119,0.78567,-1.5708,-0.5236,1.30139e-07,-2.0944,-6.15989e-07,1.5708,0.785398,-8.65151e-05,0.000207231,-0.00105392,-0.00521145,-0.000339151,-0.000253175,-0.000447586,0,0,0,0,0,0,0,-0.454395,-9.37991,-0.762265,22.0151,1.71877,1.41745,-0.206716,-0.447173,-0.276664,-0.312235,3.46552,0.998818,-0.260002,-0.206109
720672,1,-1.57045,-0.523479,0.00020334,-2.09688,-0.00124008,1.57119,0.785673,-1.5708,-0.5236,1.30139e-07,-2.0944,-6.15989e-07,1.5708,0.785398,0.000499135,-0.000418658,-0.000702611,-0.00386952,1.13368e-05,0.000305934,0.000413686,0,0,0,0,0,0,0,-0.478199,-9.35611,-0.762265,22.0151,1.71236,1.40463,-0.225942,-0.446126,-0.286073,-0.310667,3.47573,0.999116,-0.258847,-0.206231
720673,1,-1.57045,-0.523477,0.000203116,-2.09688,-0.00124008,1.57119,0.785672,-1.5708,-0.5236,1.30139e-07,-2.0944,-6.15989e-07,1.5708,0.785398,-0.000224055,0.000277707,8.84043e-05,-0.00222648,7.61671e-06,-3.34028e-05,3.84316e-05,0,0,0,0,0,0,0,-0.454395,-9.37991,-0.786069,21.9873,1.71236,1.41104,-0.219534,-0.44501,-0.294383,-0.308847,3.48481,0.999385,-0.257819,-0.206385
720674,1,-1.57045,-0.523476,0.000202485,-2.09688,-0.0012414,1.57119,0.785668,-1.5708,-0.5236,1.30139e-07,-2.0944,-6.15989e-07,1.5708,0.785398,-0.00014937,0.000834752,5.89362e-05,-0.00170663,-0.000435688,-0.000259627,-0.00139853,0,0,0,0,0,0,0,-0.454395,-9.40768,-0.786069,21.9873,1.72426,1.41745,-0.181082,-0.444305,-0.300763,-0.307595,3.49132,0.999569,-0.257095,-0.206566
720675,1,-1.57045,-0.523479,0.000202274,-2.09689,-0.00124079,1.57119,0.78567,-1.5708,-0.5236,1.30139e-07,-2.0944,-6.15989e-07,1.5708,0.785398,-0.00130601,-0.000649925,3.92908e-05,-0.00306772,-8.69747e-05,6.4274e-05,1.70807e-05,0,0,0,0,0,0,0,-0.402821,-9.35611,-0.786069,22.0627,1.71877,1.41104,-0.206716,-0.443696,-0.305406,-0.306564,3.49559,0.9997,-0.25663,-0.206756
720676,1,-1.57045,-0.523479,0.000202204,-2.09688,-0.00123886,1.57119,0.785674,-1.5708,-0.5236,1.30139e-07,-2.0944,-6.15989e-07,1.5708,0.785398,-0.000221057,-0.000433283,2.61939e-05,-0.000406959,0.000586302,0.000280208,0.00119818,0,0,0,0,0,0,0,-0.430592,-9.35611,-0.786069,21.9873,1.70137,1.40463,-0.23876,-0.44291,-0.306899,-0.305406,3.49739,0.999795,-0.25641,-0.206929
720677,1,-1.57045,-0.523477,0.000202181,-2.09688,-0.00124079,1.57119,0.78567,-1.5708,-0.5236,1.30139e-07,-2.0944,-6.15989e-07,1.5708,0.785398,-0.000147371,0.000267957,1.74626e-05,-0.00101471,-0.000253374,0.000186806,-0.000625366,0,0,0,0,0,0,0,-0.430592,-9.37991,-0.786069,22.0151,1.71877,1.40463,-0.200308,-0.44229,-0.305101,-0.304542,3.49643,0.99982,-0.256482,-0.207085
720678,1,-1.57045,-0.523479,0.000202173,-2.09688,-0.00124008,1.57119,0.785667,-1.5708,-0.5236,1.30139e-07,-2.0944,-6.15989e-07,1.5708,0.785398,0.000458565,-0.000378174,1.16417e-05,0.000459614,6.84572e-05,-0.000112822,-0.00136635,0,0,0,0,0,0,0,-0.454395,-9.35611,-0.786069,21.9635,1.71236,1.41104,-0.174673,-0.442178,-0.30133,-0.30438,3.49335,0.999762,-0.256805,-0.20724
720679,1,-1.57045,-0.523481,0.0002005,-2.09688,-0.00123886,1.57119,0.785675,-1.5708,-0.5236,1.30139e-07,-2.0944,-6.15989e-07,1.5708,0.785398,-0.000900716,-0.00090173,-0.000549051,0.000810466,0.00045255,0.000162144,0.00173396,0,0,0,0,0,0,0,-0.402821,-9.32834,-0.762265,21.9397,1.70137,1.40463,-0.246084,-0.44217,-0.294981,-0.304343,3.48804,0.999641,-0.25737,-0.207381
720680,1,-1.57045,-0.523477,0.00020217,-2.09688,-0.00124008,1.57119,0.785671,-1.5708,-0.5236,1.30139e-07,-2.0944,-6.15989e-07,1.5708,0.785398,4.91365e-05,0.000605272,0.000190778,-0.00126249,-0.000105193,-0.000129263,-6.47303e-05,0,0,0,0,0,0,0,-0.430592,-9.37991,-0.786069,22.0151,1.71236,1.41104,-0.213125,-0.441834,-0.287417,-0.303882,3.48169,0.999499,-0.258045,-0.207495
720681,1,-1.57045,-0.523477,0.000202169,-2.09688,-0.00124079,1.57119,0.78567,-1.5708,-0.5236,1.30139e-07,-2.0944,-6.15989e-07,1.5708,0.785398,-0.00117367,0.000403515,0.000127185,-0.000871337,-0.000307482,-8.61752e-05,-0.000280512,0,0,0,0,0,0,0,-0.379017,-9.37991,-0.786069,22.0151,1.71877,1.41104,-0.206716,-0.44137,-0.282466,-0.303385,3.47703,0.999384,-0.258562,-0.207601
720682,1,-1.57045,-0.523474,0.000202169,-2.09688,-0.00124079,1.57119,0.785676,-1.5708,-0.5236,1.30139e-07,-2.0944,-6.15989e-07,1.5708,0.785398,0.00042398,0.00147544,8.47903e-05,0.00116009,-0.000204984,-5.74501e-05,0.00150841,0,0,0,0,0,0,0,-0.430592,-9.43149,-0.786069,21.9397,1.71877,1.41104,-0.252493,-0.440976,-0.280658,-0.303154,3.47408,0.999289,-0.258938,-0.207713
720683,1,-1.57045,-0.523479,0.000200499,-2.09688,-0.00124008,1.57119,0.785674,-1.5708,-0.5236,1.30139e-07,-2.0944,-6.15989e-07,1.5708,0.785398,0.000282654,-0.000779614,-0.000500285,-0.00100654,0.000100707,-0.000275659,0.000496982,0,0,0,0,0,0,0,-0.430592,-9.35611,-0.762265,22.0151,1.71236,1.41745,-0.23876,-0.440807,-0.279729,-0.303268,3.47139,0.999181,-0.2593,-0.207842
720684,1,-1.57045,-0.523479,0.000206249,-2.09688,-0.00124079,1.57119,0.78567,-1.5708,-0.5236,1.30139e-07,-2.0944,-6.15989e-07,1.5708,0.785398,0.000188436,-0.000519743,0.000872902,-0.000683543,-0.000170219,0.000528304,-0.00109283,0,0,0,0,0,0,0,-0.430592,-9.35611,-0.81384,22.0151,1.71877,1.39822,-0.200308,-0.441089,-0.277589,-0.304027,3.46862,0.999061,-0.259623,-0.208022
720685,1,-1.57045,-0.523483,0.000202879,-2.09688,-0.00123947,1.57119,0.785673,-1.5708,-0.5236,1.30139e-07,-2.0944,-6.15989e-07,1.5708,0.785398,0.000682436,-0.00155292,-6.7679e-05,0.000741341,0.000327332,0.000114844,0.000220881,0,0,0,0,0,0,0,-0.454395,-9.30453,-0.786069,21.9635,1.70687,1.40463,-0.225942,-0.441982,-0.272827,-0.305721,3.46511,0.998917,-0.259966,-0.208258
720686,1,-1.57045,-0.52348,0.000202406,-2.09688,-0.0012414,1.57119,0.785673,-1.5708,-0.5236,1.30139e-07,-2.0944,-6.15989e-07,1.5708,0.785398,-0.000101855,0.000727957,-4.51193e-05,0.000487185,-0.000426037,0.000313921,0.000147254,0,0,0,0,0,0,0,-0.430592,-9.37991,-0.786069,21.9635,1.72426,1.39822,-0.225942,-0.443019,-0.266316,-0.307618,3.46061,0.998754,-0.260404,-0.208525
720687,1,-1.57045,-0.523478,0.000202248,-2.09688,-0.00123947,1.57119,0.785671,-1.5708,-0.5236,1.30139e-07,-2.0944,-6.15989e-07,1.5708,0.785398,0.000488909,0.000485305,-3.00795e-05,-0.000237303,0.000360236,-2.80779e-05,-0.000376549,0,0,0,0,0,0,0,-0.454395,-9.37991,-0.786069,21.9873,1.70687,1.40463,-0.213125,-0.443679,-0.261675,-0.308935,3.45687,0.998626,-0.260809,-0.208807
720688,1,-1.57045,-0.523478,0.000202196,-2.09688,-0.00124079,1.57119,0.785675,-1.5708,-0.5236,1.30139e-07,-2.0944,-6.15989e-07,1.5708,0.785398,0.000325939,0.000323537,-2.0053e-05,-0.000162163,-0.000200651,-1.87186e-05,0.000969671,0,0,0,0,0,0,0,-0.454395,-9.37991,-0.786069,21.9873,1.71877,1.40463,-0.246084,-0.44415,-0.260129,-0.309925,3.45486,0.998548,-0.26108,-0.209098
720689,1,-1.57045,-0.523479,0.000202178,-2.09688,-0.00123947,1.57119,0.785673,-1.5708,-0.5236,1.30139e-07,-2.0944,-6.15989e-07,1.5708,0.785398,-0.000339519,-0.000341121,-1.33687e-05,-0.00131751,0.000307043,-1.24791e-05,-9.95381e-05,0,0,0,0,0,0,0,-0.430592,-9.35611,-0.786069,22.0389,1.70687,1.40463,-0.225942,-0.444419,-0.260042,-0.310592,3.45412,0.998513,-0.261229,-0.209401
720690,1,-1.57045,-0.523477,0.000202172,-2.09688,-0.00124008,1.57119,0.78567,-1.5708,-0.5236,1.30139e-07,-2.0944,-6.15989e-07,1.5708,0.785398,0.000330466,0.000329398,-8.91245e-06,0.00143948,-0.00942043,-8.31939e-06,-0.00101579,0,0,0,0,0,0,0,-0.454395,-9.37991,-0.786069,21.9397,1.71236,1.40463,-0.200308,-0.444281,-0.260035,-0.310708,3.45379,0.998543,-0.261348,-0.209724
720691,1,-1.57045,-0.523477,0.000204301,-2.09688,-0.00124008,1.57119,0.785668,-1.5708,-0.5236,1.30139e-07,-2.0944,-6.15989e-07,1.5708,0.785398,0.000220311,0.000219599,-5.94164e-06,-0.000155639,-0.00706543,-5.54626e-06,-0.00115191,0,0,0,0,0,0,0,-0.454395,-9.37991,-0.786069,21.9873,1.71236,1.40463,-0.18749,-0.443871,-0.259691,-0.310451,3.45313,0.998645,-0.261545,-0.210047
720692,1,-1.57045,-0.523476,0.000206959,-2.09688,-0.00124008,1.57119,0.785675,-1.5708,-0.5236,1.30139e-07,-2.0944,-6.15989e-07,1.5708,0.785398,-0.00105955,0.000796013,0.000645653,-0.000754626,-0.00529914,-3.69751e-06,0.0014022,0,0,0,0,0,0,0,-0.402821,-9.40768,-0.81384,22.0151,1.71236,1.40463,-0.246084,-0.443296,-0.260309,-0.310025,3.45302,0.998803,-0.261722,-0.210332
720693,1,-1.57045,-0.523479,0.000201446,-2.09688,-0.00124079,1.57119,0.785674,-1.5708,-0.5236,1.30139e-07,-2.0944,-6.15989e-07,1.5708,0.785398,0.000500058,-0.000675751,-0.000775991,0.00014559,-0.00421176,-2.465e-06,0.00066353,0,0,0,0,0,0,0,-0.454395,-9.35611,-0.762265,21.9873,1.71877,1.40463,-0.23876,-0.442459,-0.261686,-0.30928,3.45364,0.998973,-0.261817,-0.210576
720694,1,-1.57045,-0.523481,0.000200814,-2.09688,-0.00124201,1.57119,0.785669,-1.5708,-0.5236,1.30139e-07,-2.0944,-6.15989e-07,1.5708,0.785398,-0.00022344,-0.00110011,-0.000517327,-0.000553259,-0.00354597,-1.64334e-06,-0.00121916,0,0,0,0,0,0,0,-0.430592,-9.32834,-0.762265,22.0151,1.72975,1.40463,-0.193899,-0.441307,-0.26113,-0.307956,3.45353,0.999113,-0.261943,-0.210821
720695,1,-1.57045,-0.523479,0.000204405,-2.09688,-0.00124008,1.57119,0.785665,-1.5708,-0.5236,1.30139e-07,-2.0944,-6.15989e-07,1.5708,0.785398,0.000964664,-8.37956e-05,0.000211927,0.000837058,-0.00196814,-1.09556e-06,-0.00199957,0,0,0,0,0,0,0,-0.478199,-9.35611,-0.786069,21.9635,1.71236,1.40463,-0.161856,-0.440366,-0.258244,-0.306749,3.45231,0.999198,-0.262137,-0.211081
720696,1,-1.57045,-0.523479,0.000201244,-2.09688,-0.00124079,1.57119,0.785673,-1.5708,-0.5236,1.30139e-07,-2.0944,-6.15989e-07,1.5708,0.785398,-0.000470515,-5.58637e-05,-0.000415527,0.000557642,-0.00173577,0.000236629,0.00104054,0,0,0,0,0,0,0,-0.430592,-9.35611,-0.762265,21.9635,1.71877,1.39822,-0.225942,-0.440011,-0.254852,-0.306245,3.45046,0.999222,-0.262393,-0.211306
720697,1,-1.57045,-0.523477,0.000200747,-2.09688,-0.00124079,1.57119,0.785674,-1.5708,-0.5236,1.30139e-07,-2.0944,-6.15989e-07,1.5708,0.785398,0.000243135,0.000519569,-0.000277018,-0.000185348,-0.00129692,-7.96066e-05,0.00116841,0,0,0,0,0,0,0,-0.454395,-9.37991,-0.762265,21.9873,1.71877,1.40463,-0.23876,-0.439708,-0.252595,-0.305709,3.44887,0.999229,-0.262643,-0.211458
720698,1,-1.57045,-0.523479,0.000204201,-2.09688,-0.00124008,1.57119,0.78567,-1.5708,-0.5236,1.30139e-07,-2.0944,-6.15989e-07,1.5708,0.785398,0.000718902,-0.000210432,0.00102175,0.000433024,-0.000732058,-0.000527789,-0.000645211,0,0,0,0,0,0,0,-0.478199,-9.35611,-0.81384,21.9635,1.71236,1.41745,-0.200308,-0.439857,-0.251818,-0.305746,3.44805,0.999218,-0.26282,-0.211561
720699,1,-1.57045,-0.523479,0.000200526,-2.09688,-0.00124079,1.57119,0.785672,-1.5708,-0.5236,1.30139e-07,-2.0944,-6.15989e-07,1.5708,0.785398,0.000479268,-0.000140288,-0.000525261,-0.000268297,-0.000804,0.000122859,0.000281936,0,0,0,0,0,0,0,-0.478199,-9.35611,-0.762265,21.9873,1.71877,1.40463,-0.219534,-0.440954,-0.251354,-0.307048,3.44752,0.999164,-0.262949,-0.21165
720701,0.98,-1.57045,-0.523479,0.000200502,-2.09688,-0.00123947,1.57119,0.785665,-1.5708,-0.5236,1.30139e-07,-2.0944,-6.15989e-07,1.5708,0.785398,0.000398612,-6.23503e-05,-0.000419053,-0.000552497,0.000135595,5.46038e-05,-0.00177357,0,0,0,0,0,0,0,-0.478199,-9.35611,-0.762265,22.0151,1.70687,1.40463,-0.161856,-0.442795,-0.251647,-0.308827,3.44814,0.999135,-0.262962,-0.211806
720702,0.97,-1.57045,-0.523476,0.00020579,-2.09688,-0.0012414,1.57119,0.785671,-1.5708,-0.5236,1.30139e-07,-2.0944,-6.15989e-07,1.5708,0.785398,0.000265741,0.00116486,0.00148387,0.00195165,-0.000587024,3.64025e-05,0.000716494,0,0,0,0,0,0,0,-0.478199,-9.40768,-0.837644,21.9159,1.72426,1.40463,-0.213125,-0.443737,-0.252732,-0.309643,3.44888,0.999147,-0.262931,-0.211837
720703,0.97,-1.57045,-0.523479,0.000206249,-2.09688,-0.00124079,1.57119,0.785674,-1.5708,-0.5236,1.30139e-07,-2.0944,-6.15989e-07,1.5708,0.785398,-0.000379651,-0.000429853,0.000432434,-0.001019,-0.000212769,2.42684e-05,0.0014271,0,0,0,0,0,0,0,-0.454395,-9.35611,-0.81384,22.0151,1.71877,1.40463,-0.23876,-0.445306,-0.253952,-0.311413,3.44912,0.999123,-0.262981,-0.211795
720704,0.97,-1.57045,-0.523477,0.00020288,-2.09688,-0.0012414,1.57119,0.785668,-1.5708,-0.5236,1.30139e-07,-2.0944,-6.15989e-07,1.5708,0.785398,-0.000253101,0.000270243,-0.000361325,-2.97618e-05,-0.000363949,1.61789e-05,-0.000947473,0,0,0,0,0,0,0,-0.454395,-9.37991,-0.786069,21.9873,1.72426,1.40463,-0.18749,-0.446583,-0.255039,-0.312833,3.44944,0.999128,-0.263012,-0.211713
720705,0.97,-1.57045,-0.523476,0.000206485,-2.09688,-0.0012414,1.57119,0.785669,-1.5708,-0.5236,1.30139e-07,-2.0944,-6.15989e-07,1.5708,0.785398,-0.000725546,0.000829776,0.000408731,0.00109375,-0.000256623,-0.000226573,-0.000394289,0,0,0,0,0,0,0,-0.430592,-9.40768,-0.81384,21.9397,1.72426,1.41104,-0.193899,-0.446915,-0.256254,-0.312921,3.44986,0.999197,-0.263028,-0.211631
720706,0.97,-1.57045,-0.523479,0.000199339,-2.09688,-0.00124008,1.57119,0.785673,-1.5708,-0.5236,1.30139e-07,-2.0944,-6.15989e-07,1.5708,0.785398,7.31148e-05,-0.000653242,-0.00158355,-0.000384478,0.000259236,-0.000151049,0.00116129,0,0,0,0,0,0,0,-0.454395,-9.35611,-0.734494,21.9873,1.71236,1.41104,-0.232351,-0.44636,-0.257179,-0.31172,3.44983,0.999313,-0.263086,-0.211541
720707,0.97,-1.57045,-0.523479,0.000204563,-2.09688,-0.00124008,1.57119,0.785673,-1.5708,-0.5236,1.30139e-07,-2.0944,-6.15989e-07,1.5708,0.785398,-0.000508069,-0.000435495,0.000150724,-0.000256335,0.000164955,0.000374019,0.000536837,0,0,0,0,0,0,0,-0.430592,-9.35611,-0.786069,21.9873,1.71236,1.39822,-0.225942,-0.445089,-0.256805,-0.309419,3.44935,0.999467,-0.263149,-0.211444
720708,0.97,-1.57045,-0.523476,0.000204916,-2.09688,-0.00124008,1.57119,0.785668,-1.5708,-0.5236,1.30139e-07,-2.0944,-6.15989e-07,1.5708,0.785398,0.000218099,0.000916096,0.000750097,-0.000170903,0.000104068,0.000249346,-0.00106626,0,0,0,0,0,0,0,-0.454395,-9.40768,-0.81384,21.9873,1.71236,1.39822,-0.18749,-0.444177,-0.256292,-0.307692,3.4491,0.999613,-0.263171,-0.211361
720709,0.97,-1.57045,-0.523477,0.000200765,-2.09688,-0.00123947,1.57119,0.78567,-1.5708,-0.5236,1.30139e-07,-2.0944,-6.15989e-07,1.5708,0.785398,-0.000411412,-3.88832e-05,-0.000706361,-0.000113945,0.000268403,-7.11284e-05,-0.000236124,0,0,0,0,0,0,0,-0.430592,-9.37991,-0.762265,21.9873,1.70687,1.40463,-0.200308,-0.443981,-0.257093,-0.307111,3.44951,0.999729,-0.263149,-0.211296
720710,0.97,-1.57045,-0.523479,0.000202258,-2.09688,-0.0012414,1.57119,0.785672,-1.5708,-0.5236,1.30139e-07,-2.0944,-6.15989e-07,1.5708,0.785398,0.000839349,-0.000582734,8.59043e-05,0.00159447,-0.000468645,-0.000284778,0.000554661,0,0,0,0,0,0,0,-0.478199,-9.35611,-0.786069,21.9159,1.72426,1.41104,-0.219534,-0.443932,-0.257179,-0.30673,3.44932,0.999804,-0.263199,-0.211231
720711,0.97,-1.57045,-0.523479,0.000202199,-2.09688,-0.0012414,1.57119,0.785673,-1.5708,-0.5236,1.30139e-07,-2.0944,-6.15989e-07,1.5708,0.785398,2.75406e-06,-0.000388489,5.72696e-05,-5.0652e-05,-0.00031492,-0.000189852,0.000607133,0,0,0,0,0,0,0,-0.454395,-9.35611,-0.786069,21.9635,1.72426,1.41104,-0.225942,-0.444234,-0.254918,-0.306807,3.44761,0.999813,-0.263388,-0.211158
720712,0.97,-1.57045,-0.523477,0.00020431,-2.09688,-0.00124201,1.57119,0.785673,-1.5708,-0.5236,1.30139e-07,-2.0944,-6.15989e-07,1.5708,0.785398,0.000558648,0.000297819,3.81797e-05,-0.00179701,-0.000415264,-0.000126568,0.000404755,0,0,0,0,0,0,0,-0.478199,-9.37991,-0.786069,22.0389,1.72975,1.41104,-0.225942,-0.444957,-0.252985,-0.307484,3.44641,0.999815,-0.263504,-0.211089
720713,0.97,-1.57045,-0.523479,0.000199263,-2.09688,-0.0012414,1.57119,0.785676,-1.5708,-0.5236,1.30139e-07,-2.0944,-6.15989e-07,1.5708,0.785398,-0.000741192,-0.000358266,-0.00118097,-0.000641198,-7.47929e-05,-0.000321738,0.00125318,0,0,0,0,0,0,0,-0.430592,-9.35611,-0.734494,22.0151,1.72426,1.41745,-0.252493,-0.445303,-0.253347,-0.307593,3.44718,0.999895,-0.263399,-0.211053
720714,0.97,-1.57045,-0.523477,0.000206026,-2.09688,-0.0012414,1.57119,0.78567,-1.5708,-0.5236,1.30139e-07,-2.0944,-6.15989e-07,1.5708,0.785398,-0.000494128,0.000317968,0.00162554,0.000778959,-5.09123e-05,0.000260226,-0.00109733,0,0,0,0,0,0,0,-0.430592,-9.37991,-0.837644,21.9635,1.72426,1.40463,-0.200308,-0.44513,-0.254345,-0.307023,3.44837,1.00003,-0.263243,-0.211077
720715,0.97,-1.57045,-0.523479,0.000204197,-2.09688,-0.0012414,1.57119,0.785665,-1.5708,-0.5236,1.30139e-07,-2.0944,-6.15989e-07,1.5708,0.785398,-0.000329419,-0.000344833,0.000526879,-0.000687122,-3.47294e-05,0.000173484,-0.0021557,0,0,0,0,0,0,0,-0.430592,-9.35611,-0.81384,22.0151,1.72426,1.40463,-0.161856,-0.445456,-0.254787,-0.307411,3.44889,1.00015,-0.263161,-0.211163
720716,0.97,-1.57045,-0.523479,0.000200525,-2.09688,-0.0012414,1.57119,0.785673,-1.5708,-0.5236,1.30139e-07,-2.0944,-6.15989e-07,1.5708,0.785398,0.0003372,-0.000229889,-0.000855173,0.000191531,-2.37438e-05,-0.000359062,0.00117381,0,0,0,0,0,0,0,-0.454395,-9.35611,-0.762265,21.9873,1.72426,1.41745,-0.232351,-0.446086,-0.2547,-0.308345,3.44906,1.00028,-0.263111,-0.211264
720717,0.97,-1.57045,-0.523479,0.000202178,-2.09689,-0.0012414,1.57119,0.785671,-1.5708,-0.5236,1.30139e-07,-2.0944,-6.15989e-07,1.5708,0.785398,-0.000981626,-0.000153259,-1.33035e-05,-0.00163555,-1.62723e-05,-0.000239375,7.04646e-05,0,0,0,0,0,0,0,-0.402821,-9.35611,-0.786069,22.0627,1.72426,1.41745,-0.213125,-0.446021,-0.254593,-0.30824,3.44947,1.00045,-0.263021,-0.211335
720718,0.97,-1.57045,-0.523477,0.000202172,-2.09688,-0.00124079,1.57119,0.78567,-1.5708,-0.5236,1.30139e-07,-2.0944,-6.15989e-07,1.5708,0.785398,-4.80353e-06,0.000454639,-8.86898e-06,2.32558e-05,0.00019227,0.000315135,-0.000427741,0,0,0,0,0,0,0,-0.430592,-9.37991,-0.786069,22.0151,1.71877,1.40463,-0.200308,-0.445415,-0.255477,-0.307426,3.45067,1.00067,-0.262846,-0.211383
720719,0.97,-1.57045,-0.523476,0.0002005,-2.09688,-0.0012414,1.57119,0.78567,-1.5708,-0.5236,1.30139e-07,-2.0944,-6.15989e-07,1.5708,0.785398,0.00055361,0.000952707,-0.000562725,0.000665117,-7.55198e-05,-2.7269e-05,-0.000285161,0,0,0,0,0,0,0,-0.454395,-9.40768,-0.762265,21.9873,1.72426,1.41104,-0.200308,-0.444866,-0.257466,-0.306718,3.45213,1.00089,-0.262674,-0.211417
720720,0.97,-1.57045,-0.523476,0.000200499,-2.09688,-0.00124008,1.57119,0.785671,-1.5708,-0.5236,1.30139e-07,-2.0944,-6.15989e-07,1.5708,0.785398,-0.000187739,0.000635138,-0.00037515,0.000443411,0.000390276,-1.81794e-05,0.000284611,0,0,0,0,0,0,0,-0.430592,-9.40768,-0.762265,21.9873,1.71236,1.41104,-0.213125,-0.444412,-0.260033,-0.306053,3.4532,1.00108,-0.262585,-0.211428
720721,0.97,-1.57045,-0.523479,0.000202169,-2.09688,-0.00124262,1.57119,0.785665,-1.5708,-0.5236,1.30139e-07,-2.0944,-6.15989e-07,1.5708,0.785398,0.000431653,-0.000783001,0.000306712,-0.000910819,-0.000587667,0.000225239,-0.00194649,0,0,0,0,0,0,0,-0.454395,-9.35611,-0.786069,22.0389,1.73525,1.40463,-0.155447,-0.444116,-0.261982,-0.305596,3.45387,1.00125,-0.262533,-0.211412
720722,0.97,-1.57045,-0.523479,0.00019688,-2.09688,-0.00124079,1.57119,0.785668,-1.5708,-0.5236,1.30139e-07,-2.0944,-6.15989e-07,1.5708,0.785398,0.00084458,-0.000522,-0.00155876,-5.04008e-05,0.000218469,-8.71994e-05,-0.000110865,0,0,0,0,0,0,0,-0.478199,-9.35611,-0.710691,22.0151,1.71877,1.41104,-0.18749,-0.444063,-0.261974,-0.305411,3.45407,1.00141,-0.262489,-0.211355
720723,0.97,-1.57045,-0.523477,0.000200499,-2.09688,-0.00124079,1.57119,0.785672,-1.5708,-0.5236,1.30139e-07,-2.0944,-6.15989e-07,1.5708,0.785398,6.24166e-06,0.000208812,0.00016725,-0.000590413,0.000145567,-5.81329e-05,0.00111288,0,0,0,0,0,0,0,-0.454395,-9.37991,-0.762265,22.0389,1.71877,1.41104,-0.219534,-0.443941,-0.260827,-0.304929,3.45405,1.00157,-0.262446,-0.211227
720724,0.97,-1.57045,-0.523477,0.000204118,-2.09688,-0.00124008,1.57119,0.785669,-1.5708,-0.5236,1.30139e-07,-2.0944,-6.15989e-07,1.5708,0.785398,-0.000552651,0.000139208,0.00131793,0.000812817,0.000334344,-3.87553e-05,-0.000207513,0,0,0,0,0,0,0,-0.430592,-9.37991,-0.81384,21.9873,1.71236,1.41104,-0.193899,-0.444163,-0.259962,-0.304963,3.45412,1.0017,-0.26241,-0.211027
720725,0.97,-1.57045,-0.523477,0.000205789,-2.09688,-0.00124008,1.57119,0.785673,-1.5708,-0.5236,1.30139e-07,-2.0944,-6.15989e-07,1.5708,0.785398,-0.000368434,9.28052e-05,0.00143543,0.00109869,0.000222852,0.000448881,0.00104845,0,0,0,0,0,0,0,-0.430592,-9.37991,-0.837644,21.9635,1.71236,1.39822,-0.225942,-0.445313,-0.258859,-0.306604,3.45362,1.00177,-0.262464,-0.210788
720726,0.97,-1.57045,-0.523481,0.000200499,-2.09688,-0.00124079,1.57119,0.785673,-1.5708,-0.5236,1.30139e-07,-2.0944,-6.15989e-07,1.5708,0.785398,-0.000245623,-0.00114456,-0.000806285,0.00128927,-8.88243e-05,0.000299254,0.000936328,0,0,0,0,0,0,0,-0.430592,-9.32834,-0.762265,21.9397,1.71877,1.39822,-0.232351,-0.446622,-0.255963,-0.308645,3.45163,1.00178,-0.262682,-0.210545
720727,0.97,-1.57045,-0.523476,0.000204118,-2.09688,-0.00124008,1.57119,0.78567,-1.5708,-0.5236,1.30139e-07,-2.0944,-6.15989e-07,1.5708,0.785398,0.000393064,0.001093,0.000668903,-0.000903723,0.000178118,-0.000275215,-0.000562576,0,0,0,0,0,0,0,-0.454395,-9.40768,-0.81384,22.0151,1.71236,1.41104,-0.200308,-0.447339,-0.252603,-0.309805,3.44937,1.00178,-0.262929,-0.210336
720728,0.97,-1.57045,-0.523477,0.000200499,-2.09688,-0.00124201,1.57119,0.785668,-1.5708,-0.5236,1.30139e-07,-2.0944,-6.15989e-07,1.5708,0.785398,-0.000944384,7.90545e-05,-0.000760491,4.71317e-05,-0.000525534,-0.000183477,-0.000849769,0,0,0,0,0,0,0,-0.402821,-9.37991,-0.762265,21.9873,1.72975,1.41104,-0.18749,-0.447464,-0.251976,-0.310096,3.44893,1.00184,-0.263004,-0.210177
720729,0.97,-1.57045,-0.523476,0.000202169,-2.09688,-0.00124079,1.57119,0.785675,-1.5708,-0.5236,1.30139e-07,-2.0944,-6.15989e-07,1.5708,0.785398,2.00249e-05,0.000702317,4.98181e-05,3.14211e-05,5.65313e-05,-0.000359677,0.00160363,0,0,0,0,0,0,0,-0.430592,-9.40768,-0.786069,21.9873,1.71877,1.41745,-0.246084,-0.446817,-0.253676,-0.309319,3.44992,1.00194,-0.262942,-0.21005
720730,0.97,-1.57045,-0.523477,0.000204118,-2.09688,-0.00123947,1.57119,0.785673,-1.5708,-0.5236,1.30139e-07,-2.0944,-6.15989e-07,1.5708,0.785398,1.335e-05,-0.000181403,0.000682826,2.09474e-05,0.000478486,0.000234933,0.000560458,0,0,0,0,0,0,0,-0.430592,-9.37991,-0.81384,21.9873,1.70687,1.40463,-0.232351,-0.446124,-0.255767,-0.308545,3.45111,1.00205,-0.262852,-0.209943
720731,0.97,-1.57045,-0.523479,0.000202169,-2.09688,-0.00124008,1.57119,0.785667,-1.5708,-0.5236,1.30139e-07,-2.0944,-6.15989e-07,1.5708,0.785398,-0.000640714,-0.000677747,-0.000194397,0.000570777,0.000115533,-8.07367e-05,-0.00176259,0,0,0,0,0,0,0,-0.402821,-9.35611,-0.786069,21.9635,1.71236,1.41104,-0.174673,-0.445843,-0.256533,-0.308489,3.45161,1.00211,-0.262805,-0.209885
720732,0.97,-1.57045,-0.523477,0.0002043,-2.09688,-0.00124079,1.57119,0.785671,-1.5708,-0.5236,1.30139e-07,-2.0944,-6.15989e-07,1.5708,0.785398,0.000222471,0.000104981,-0.000129598,-0.000825908,-0.000160343,-0.000291183,0.000249092,0,0,0,0,0,0,0,-0.430592,-9.37991,-0.786069,22.0151,1.71877,1.41745,-0.213125,-0.445378,-0.255839,-0.308267,3.45144,1.00216,-0.262788,-0.209878
720733,0.97,-1.57045,-0.523479,0.000201209,-2.09688,-0.00124079,1.57119,0.785674,-1.5708,-0.5236,1.30139e-07,-2.0944,-6.15989e-07,1.5708,0.785398,0.000705126,-0.000486825,-0.00064321,0.000655821,-0.0001069,4.32367e-05,0.0011155,0,0,0,0,0,0,0,-0.454395,-9.35611,-0.762265,21.9635,1.71877,1.41104,-0.23876,-0.444791,-0.255012,-0.30783,3.45134,1.0022,-0.262741,-0.209882
720734,0.97,-1.57045,-0.523479,0.000202406,-2.09688,-0.00124079,1.57119,0.785673,-1.5708,-0.5236,1.30139e-07,-2.0944,-6.15989e-07,1.5708,0.785398,0.0010269,-0.00032455,0.000128005,-0.000119598,-7.12699e-05,0.000266183,0.000268947,0,0,0,0,0,0,0,-0.478199,-9.35611,-0.786069,21.9873,1.71877,1.40463,-0.225942,-0.444591,-0.25371,-0.307804,3.45093,1.00219,-0.262712,-0.209892
720735,0.97,-1.57045,-0.523477,0.000202708,-2.09688,-0.00124079,1.57119,0.785668,-1.5708,-0.5236,1.30139e-07,-2.0944,-6.15989e-07,1.5708,0.785398,0.000127785,0.000340445,-0.000471475,-0.00128616,-4.75158e-05,-5.99034e-05,-0.00124486,0,0,0,0,0,0,0,-0.454395,-9.37991,-0.762265,22.0389,1.71877,1.41104,-0.18749,-0.444812,-0.252917,-0.308252,3.45089,1.00218,-0.26264,-0.209934
720736,0.97,-1.57045,-0.523476,0.000204855,-2.09688,-0.00124008,1.57119,0.785673,-1.5708,-0.5236,1.30139e-07,-2.0944,-6.15989e-07,1.5708,0.785398,-0.000471622,0.000876577,0.000892109,-0.000300627,0.00020568,-3.99356e-05,0.000831609,0,0,0,0,0,0,0,-0.430592,-9.40768,-0.81384,22.0151,1.71236,1.41104,-0.232351,-0.44506,-0.254674,-0.308751,3.45246,1.0022,-0.262422,-0.210004
720737,0.97,-1.57045,-0.523476,0.000204364,-2.09688,-0.00124079,1.57119,0.785672,-1.5708,-0.5236,1.30139e-07,-2.0944,-6.15989e-07,1.5708,0.785398,-0.000314414,0.000584385,0.000594739,0.00156282,-0.00010024,-0.000263983,7.9688e-05,0,0,0,0,0,0,0,-0.430592,-9.40768,-0.81384,21.9397,1.71877,1.41745,-0.219534,-0.445369,-0.257957,-0.30949,3.45444,1.00222,-0.262199,-0.210082
720738,0.97,-1.57045,-0.523476,0.000208001,-2.09688,-0.00123947,1.57119,0.785668,-1.5708,-0.5236,1.30139e-07,-2.0944,-6.15989e-07,1.5708,0.785398,0.000904014,0.00038959,0.000953305,-7.17439e-05,0.000373981,0.000298729,-0.00137103,0,0,0,0,0,0,0,-0.478199,-9.40768,-0.837644,21.9873,1.70687,1.40463,-0.181082,-0.446205,-0.260701,-0.311094,3.45543,1.00218,-0.262101,-0.21017
720739,0.97,-1.57045,-0.523477,0.000202907,-2.09688,-0.00124008,1.57119,0.785668,-1.5708,-0.5236,1.30139e-07,-2.0944,-6.15989e-07,1.5708,0.785398,4.58642e-05,-0.000389887,-0.000570889,-4.78293e-05,4.58697e-05,-3.8206e-05,-0.000914019,0,0,0,0,0,0,0,-0.454395,-9.37991,-0.786069,21.9873,1.71236,1.41104,-0.181082,-0.447375,-0.262345,-0.313129,3.45574,1.00212,-0.262055,-0.210262
720740,0.97,-1.57045,-0.523477,0.000198796,-2.09688,-0.00124079,1.57119,0.785675,-1.5708,-0.5236,1.30139e-07,-2.0944,-6.15989e-07,1.5708,0.785398,3.05762e-05,-0.000259925,-0.00158702,-3.18862e-05,-0.00020678,0.000211888,0.00179815,0,0,0,0,0,0,0,-0.454395,-9.37991,-0.734494,21.9873,1.71877,1.40463,-0.246084,-0.447522,-0.262633,-0.313506,3.45561,1.00208,-0.262017,-0.210326
720741,0.97,-1.57045,-0.523479,0.000202251,-2.09688,-0.00124079,1.57119,0.78567,-1.5708,-0.5236,1.30139e-07,-2.0944,-6.15989e-07,1.5708,0.785398,0.000577196,-0.000730095,0.000148413,-0.000670871,-0.000137854,0.000378618,-0.000259294,0,0,0,0,0,0,0,-0.478199,-9.35611,-0.786069,22.0151,1.71877,1.39822,-0.206716,-0.446527,-0.261634,-0.312022,3.4551,1.00209,-0.261991,-0.210355
720742,0.97,-1.57045,-0.523477,0.000204145,-2.09688,-0.00124079,1.57119,0.785667,-1.5708,-0.5236,1.30139e-07,-2.0944,-6.15989e-07,1.5708,0.785398,-0.000172015,7.00818e-05,0.000748556,0.000202366,-9.19027e-05,-0.000459665,-0.00135966,0,0,0,0,0,0,0,-0.454395,-9.37991,-0.81384,21.9873,1.71877,1.41745,-0.174673,-0.445927,-0.260092,-0.311048,3.45459,1.00209,-0.261963,-0.21037
720743,0.97,-1.57045,-0.523477,0.000204127,-2.09688,-0.00124008,1.57119,0.78567,-1.5708,-0.5236,1.30139e-07,-2.0944,-6.15989e-07,1.5708,0.785398,-0.000114676,4.67212e-05,0.000499037,0.00124853,0.00017609,0.000168275,0.000280356,0,0,0,0,0,0,0,-0.454395,-9.37991,-0.81384,21.9397,1.71236,1.40463,-0.206716,-0.446162,-0.258491,-0.311361,3.45381,1.00204,-0.261986,-0.21037
720744,0.97,-1.57045,-0.523479,0.000204121,-2.09688,-0.00124008,1.57119,0.785673,-1.5708,-0.5236,1.30139e-07,-2.0944,-6.15989e-07,1.5708,0.785398,-0.000633263,-0.000525664,0.000332692,-0.000281267,0.000117393,-0.000125176,0.00113634,0,0,0,0,0,0,0,-0.430592,-9.35611,-0.81384,21.9873,1.71236,1.41104,-0.232351,-0.446576,-0.256652,-0.312034,3.45249,1.00197,-0.262084,-0.210331
720745,0.97,-1.57045,-0.523477,0.000204119,-2.09688,-0.00124079,1.57119,0.78567,-1.5708,-0.5236,1.30139e-07,-2.0944,-6.15989e-07,1.5708,0.785398,0.000134637,0.000206369,0.000221794,0.0003693,-0.000159097,-8.34506e-05,-0.000429235,0,0,0,0,0,0,0,-0.454395,-9.37991,-0.81384,21.9635,1.71877,1.41104,-0.200308,-0.446821,-0.254939,-0.312533,3.45125,1.00191,-0.262175,-0.210268
720746,0.97,-1.57045,-0.523476,0.000205789,-2.09688,-0.0012414,1.57119,0.785672,-1.5708,-0.5236,1.30139e-07,-2.0944,-6.15989e-07,1.5708,0.785398,-0.000467054,0.000787193,0.000704675,-0.000960226,-0.000309515,0.000181725,0.00042592,0,0,0,0,0,0,0,-0.430592,-9.40768,-0.837644,22.0151,1.72426,1.40463,-0.219534,-0.447057,-0.255028,-0.313086,3.4511,1.00187,-0.262165,-0.210205
720747,0.97,-1.57045,-0.523477,0.000204118,-2.09688,-0.00124079,1.57119,0.785672,-1.5708,-0.5236,1.30139e-07,-2.0944,-6.15989e-07,1.5708,0.785398,0.000245443,-0.000124818,-8.70287e-05,9.46351e-06,-2.89304e-06,-0.000116209,0.000283947,0,0,0,0,0,0,0,-0.454395,-9.37991,-0.81384,21.9873,1.71877,1.41104,-0.219534,-0.447335,-0.257189,-0.313777,3.45222,1.00187,-0.262042,-0.21015
720748,0.97,-1.57045,-0.523474,0.000200681,-2.09688,-0.0012414,1.57119,0.785668,-1.5708,-0.5236,1.30139e-07,-2.0944,-6.15989e-07,1.5708,0.785398,-0.000393184,0.00112321,-0.00191406,-0.000643305,-0.000205379,-7.74725e-05,-0.000997497,0,0,0,0,0,0,0,-0.430592,-9.43149,-0.734494,22.0151,1.72426,1.41104,-0.18749,-0.446843,-0.260424,-0.313291,3.45398,1.00192,-0.261859,-0.210116
720749,0.97,-1.57045,-0.523477,0.000202879,-2.09688,-0.00124079,1.57119,0.785671,-1.5708,-0.5236,1.30139e-07,-2.0944,-6.15989e-07,1.5708,0.785398,0.00029469,-0.000457617,-6.96134e-05,0.000777556,6.6531e-05,-5.16484e-05,0.000284438,0,0,0,0,0,0,0,-0.454395,-9.37991,-0.786069,21.9635,1.71877,1.41104,-0.213125,-0.445264,-0.263747,-0.311076,3.45562,1.00203,-0.261691,-0.210103
720750,0.97,-1.57045,-0.523476,0.000200736,-2.09688,-0.00124079,1.57119,0.785673,-1.5708,-0.5236,1.30139e-07,-2.0944,-6.15989e-07,1.5708,0.785398,0.00019646,0.000344536,-0.000603221,0.00627759,4.43539e-05,-3.44322e-05,0.000664343,0,0,0,0,0,0,0,-0.454395,-9.40768,-0.762265,21.9873,1.71877,1.41104,-0.225942,-0.443715,-0.263599,-0.308791,3.45417,1.00208,-0.261846,-0.210093
720751,0.97,-1.57045,-0.523481,0.000204197,-2.09688,-0.00123947,1.57119,0.785675,-1.5708,-0.5236,1.30139e-07,-2.0944,-6.15989e-07,1.5708,0.785398,-0.000425839,-0.00162635,0.000804279,0.0047114,0.000470379,-0.000260314,0.00118888,0,0,0,0,0,0,0,-0.430592,-9.32834,-0.81384,21.9873,1.70687,1.41745,-0.246084,-0.442882,-0.256619,-0.307526,3.44687,1.00197,-0.2626,-0.210089
720752,0.97,-1.57045,-0.523479,0.000202196,-2.09688,-0.00124008,1.57119,0.785668,-1.5708,-0.5236,1.30139e-07,-2.0944,-6.15989e-07,1.5708,0.785398,0.000829731,-0.000434619,-0.000113428,0.00288607,0.000110135,6.38164e-05,-0.00137755,0,0,0,0,0,0,0,-0.478199,-9.35611,-0.786069,22.0151,1.71236,1.41104,-0.18749,-0.44289,-0.24476,-0.307523,3.43609,1.00175,-0.263679,-0.210118
720753,0.97,-1.57045,-0.523479,0.000200508,-2.09688,-0.00124079,1.57119,0.785673,-1.5708,-0.5236,1.30139e-07,-2.0944,-6.15989e-07,1.5708,0.785398,-3.65771e-06,-0.000289746,-0.000632431,0.00286972,-0.000163935,4.25443e-05,0.000505786,0,0,0,0,0,0,0,-0.454395,-9.35611,-0.762265,21.9873,1.71877,1.41104,-0.225942,-0.443347,-0.233176,-0.308112,3.42613,1.00152,-0.264645,-0.210188
720754,0.97,-1.57045,-0.523479,0.000200683,-2.09688,-0.0012414,1.57119,0.785674,-1.5708,-0.5236,1.30139e-07,-2.0944,-6.15989e-07,1.5708,0.785398,-0.00055925,-0.000193164,-0.00107123,0.00148558,-0.000312741,-0.000208996,0.000811908,0,0,0,0,0,0,0,-0.430592,-9.35611,-0.734494,22.0151,1.72426,1.41745,-0.23876,-0.443138,-0.224847,-0.307623,3.419,1.00137,-0.265317,-0.210281
720755,0.97,-1.57045,-0.523477,0.00020121,-2.09688,-0.00124079,1.57119,0.78567,-1.5708,-0.5236,1.30139e-07,-2.0944,-6.15989e-07,1.5708,0.785398,0.000183978,0.000428036,-6.45423e-05,0.00180654,-5.04337e-06,-0.000139331,-0.000645522,0,0,0,0,0,0,0,-0.454395,-9.37991,-0.762265,21.9873,1.71877,1.41745,-0.206716,-0.442204,-0.22047,-0.306024,3.41515,1.00133,-0.265649,-0.210395
720756,0.97,-1.57045,-0.523477,0.000206026,-2.09688,-0.00124008,1.57119,0.785666,-1.5708,-0.5236,1.30139e-07,-2.0944,-6.15989e-07,1.5708,0.785398,0.000122652,0.000285357,0.00172021,0.000679648,0.000233997,0.00061919,-0.0018545,0,0,0,0,0,0,0,-0.454395,-9.37991,-0.837644,22.0151,1.71236,1.39822,-0.168264,-0.442082,-0.220073,-0.305639,3.41447,1.00133,-0.265665,-0.210531
720757,0.97,-1.57045,-0.523477,0.000206328,-2.09688,-0.00124079,1.57119,0.785671,-1.5708,-0.5236,1.30139e-07,-2.0944,-6.15989e-07,1.5708,0.785398,0.00063858,0.000190238,0.000589994,0.00119639,-8.13612e-05,-0.000299284,0.000425178,0,0,0,0,0,0,0,-0.478199,-9.37991,-0.81384,21.9873,1.71877,1.41745,-0.213125,-0.443654,-0.222536,-0.307816,3.4162,1.00131,-0.265442,-0.210652
720758,0.97,-1.57045,-0.523477,0.000202906,-2.09688,-0.00124008,1.57119,0.785671,-1.5708,-0.5236,1.30139e-07,-2.0944,-6.15989e-07,1.5708,0.785398,-0.000687904,0.000126825,-0.000256284,0.000218236,0.000183118,3.78365e-05,0.000283452,0,0,0,0,0,0,0,-0.430592,-9.37991,-0.786069,22.0151,1.71236,1.41104,-0.213125,-0.445617,-0.226542,-0.310597,3.41948,1.00131,-0.265061,-0.210723
720759,0.97,-1.57045,-0.523477,0.000200744,-2.09688,-0.00124079,1.57118,0.785671,-1.5708,-0.5236,1.30139e-07,-2.0944,-6.15989e-07,1.5708,0.785398,-0.000458603,8.45503e-05,-0.000727668,-0.000358628,-0.00011528,-0.000449494,0.000188968,0,0,0,0,0,0,0,-0.430592,-9.37991,-0.762265,22.0389,1.71877,1.42385,-0.213125,-0.446324,-0.231686,-0.311546,3.42404,1.00139,-0.264534,-0.210756
720760,0.97,-1.57045,-0.523476,0.000200581,-2.09688,-0.00124079,1.57119,0.785668,-1.5708,-0.5236,1.30139e-07,-2.0944,-6.15989e-07,1.5708,0.785398,-0.000305735,0.00126279,-0.000485112,0.00156367,-7.68534e-05,0.000175056,-0.00106082,0,0,0,0,0,0,0,-0.430592,-9.43149,-0.762265,21.9635,1.71877,1.41104,-0.181082,-0.44568,-0.238012,-0.310515,3.42947,1.00155,-0.263916,-0.210771
720761,0.97,-1.57045,-0.52348,0.000204145,-2.09688,-0.0012414,1.57119,0.785671,-1.5708,-0.5236,1.30139e-07,-2.0944,-6.15989e-07,1.5708,0.785398,0.000352989,-0.000921376,0.000883018,0.000515276,-0.000254686,0.000354063,0.000479584,0,0,0,0,0,0,0,-0.454395,-9.35611,-0.81384,21.9873,1.72426,1.40463,-0.213125,-0.444971,-0.243948,-0.30938,3.43435,1.00169,-0.263362,-0.210763
720762,0.97,-1.57045,-0.523478,0.000202638,-2.09688,-0.00123947,1.57119,0.785669,-1.5708,-0.5236,1.30139e-07,-2.0944,-6.15989e-07,1.5708,0.785398,-0.000321486,-5.74387e-05,-0.000617747,-0.000283867,0.000474469,0.000236042,-0.000392354,0,0,0,0,0,0,0,-0.430592,-9.37991,-0.762265,22.0151,1.70687,1.40463,-0.193899,-0.444876,-0.247836,-0.309171,3.43816,1.00179,-0.262898,-0.210718
720763,0.97,-1.57045,-0.523478,0.000204831,-2.09688,-0.00124079,1.57119,0.785667,-1.5708,-0.5236,1.30139e-07,-2.0944,-6.15989e-07,1.5708,0.785398,0.000342488,-3.82925e-05,0.000794594,0.00159067,-0.000124497,-7.99978e-05,-0.000973646,0,0,0,0,0,0,0,-0.454395,-9.37991,-0.81384,21.9397,1.71877,1.41104,-0.174673,-0.445064,-0.250283,-0.3094,3.44126,1.00186,-0.262494,-0.210639
720764,0.97,-1.57045,-0.523476,0.000200737,-2.09688,-0.00123947,1.57119,0.785675,-1.5708,-0.5236,1.30139e-07,-2.0944,-6.15989e-07,1.5708,0.785398,-0.000328487,0.000624086,-0.000676696,-0.00069029,0.000357812,0.000184027,0.00199576,0,0,0,0,0,0,0,-0.430592,-9.40768,-0.762265,22.0151,1.70687,1.40463,-0.246084,-0.445335,-0.252755,-0.309765,3.44406,1.00192,-0.262141,-0.210519
720765,0.97,-1.57045,-0.523476,0.000204197,-2.09688,-0.0012414,1.57119,0.785673,-1.5708,-0.5236,1.30139e-07,-2.0944,-6.15989e-07,1.5708,0.785398,0.000337821,0.000416057,0.000755295,-0.000450815,-0.000405719,0.000122685,0.000584521,0,0,0,0,0,0,0,-0.454395,-9.40768,-0.81384,22.0151,1.72426,1.40463,-0.225942,-0.445582,-0.256737,-0.310121,3.44769,1.00197,-0.26173,-0.210363
720766,0.97,-1.57045,-0.523476,0.000202196,-2.09688,-0.00124008,1.57119,0.785666,-1.5708,-0.5236,1.30139e-07,-2.0944,-6.15989e-07,1.5708,0.785398,0.000782026,0.000277371,-0.000146084,0.000912916,0.00017033,8.17898e-05,-0.00174655,0,0,0,0,0,0,0,-0.478199,-9.40768,-0.786069,21.9635,1.71236,1.40463,-0.168264,-0.446182,-0.261525,-0.310975,3.4517,1.00202,-0.261303,-0.210215
720767,0.97,-1.57045,-0.52348,0.000204127,-2.09688,-0.00124079,1.57119,0.785672,-1.5708,-0.5236,1.30139e-07,-2.0944,-6.15989e-07,1.5708,0.785398,-3.54614e-05,-0.0004647,0.000552225,0.000613886,-0.000123805,0.000529244,0.000734505,0,0,0,0,0,0,0,-0.454395,-9.37991,-0.81384,21.9635,1.71877,1.39181,-0.219534,-0.44722,-0.264677,-0.312414,3.45438,1.00201,-0.261031,-0.210093
720768,0.97,-1.57045,-0.52348,0.000200502,-2.09688,-0.00124008,1.57119,0.785672,-1.5708,-0.5236,1.30139e-07,-2.0944,-6.15989e-07,1.5708,0.785398,0.000533171,-0.000866612,-0.000838276,-0.00135002,0.000154822,-0.000359247,0.00048967,0,0,0,0,0,0,0,-0.478199,-9.35611,-0.762265,22.0389,1.71236,1.41104,-0.219534,-0.448075,-0.265616,-0.31354,3.45586,1.00199,-0.260876,-0.209975
720769,0.97,-1.57045,-0.523479,0.000204119,-2.09688,-0.0012414,1.57119,0.785668,-1.5708,-0.5236,1.30139e-07,-2.0944,-6.15989e-07,1.5708,0.785398,-0.000201365,-0.000577741,0.000647575,0.000866189,-0.000337595,0.00023522,-0.00109771,0,0,0,0,0,0,0,-0.454395,-9.35611,-0.81384,21.9635,1.72426,1.39822,-0.181082,-0.448545,-0.265002,-0.314054,3.45684,1.00198,-0.260757,-0.209864
720770,0.97,-1.57045,-0.523476,0.00019855,-2.09688,-0.00124008,1.57119,0.785668,-1.5708,-0.5236,1.30139e-07,-2.0944,-6.15989e-07,1.5708,0.785398,-0.000134243,0.000821265,-0.00142432,-0.000626741,0.000215746,-0.000317905,-0.000494446,0,0,0,0,0,0,0,-0.454395,-9.40768,-0.734494,22.0151,1.71236,1.41104,-0.18749,-0.448462,-0.264446,-0.313722,3.4577,1.002,-0.260675,-0.209765
720771,0.97,-1.57045,-0.523477,0.000202169,-2.09688,-0.00124008,1.57119,0.785674,-1.5708,-0.5236,1.30139e-07,-2.0944,-6.15989e-07,1.5708,0.785398,-8.94954e-05,-0.000102104,0.000256877,0.000233456,0.000143831,-0.000211936,0.00156924,0,0,0,0,0,0,0,-0.454395,-9.37991,-0.786069,21.9873,1.71236,1.41104,-0.23876,-0.447692,-0.265564,-0.312319,3.4591,1.00206,-0.260581,-0.209651
720772,0.97,-1.57045,-0.523479,0.000204118,-2.09688,-0.00123947,1.57119,0.785673,-1.5708,-0.5236,1.30139e-07,-2.0944,-6.15989e-07,1.5708,0.785398,-0.000616476,-0.000624881,0.000820865,0.000713701,0.000299338,9.6068e-05,0.000571443,0,0,0,0,0,0,0,-0.430592,-9.35611,-0.81384,21.9635,1.70687,1.40463,-0.225942,-0.44705,-0.266556,-0.311132,3.46015,1.00211,-0.260537,-0.20952
720773,0.97,-1.57045,-0.523479,0.000202169,-2.09688,-0.00124079,1.57119,0.78567,-1.5708,-0.5236,1.30139e-07,-2.0944,-6.15989e-07,1.5708,0.785398,0.000145828,-0.000416587,-0.00010237,-8.00724e-05,-0.000241251,6.40453e-05,-0.000568474,0,0,0,0,0,0,0,-0.454395,-9.35611,-0.786069,21.9873,1.71877,1.40463,-0.200308,-0.447,-0.265725,-0.310931,3.46,1.00209,-0.260606,-0.20941
720774,0.97,-1.57045,-0.523477,0.000202169,-2.09688,-0.00123947,1.57119,0.785672,-1.5708,-0.5236,1.30139e-07,-2.0944,-6.15989e-07,1.5708,0.785398,9.72188e-05,0.000279087,-6.82469e-05,-5.26775e-05,0.000279975,-0.000194662,0.000333094,0,0,0,0,0,0,0,-0.454395,-9.37991,-0.786069,21.9873,1.70687,1.41104,-0.219534,-0.44714,-0.264728,-0.311006,3.45973,1.00205,-0.260686,-0.209341
720775,0.97,-1.57045,-0.523477,0.000202169,-2.09688,-0.00124008,1.57119,0.785674,-1.5708,-0.523598,1.30185e-07,-2.0944,-6.16066e-07,1.5708,0.785398,6.48126e-05,0.000186058,-4.54979e-05,0.000522222,-1.68002e-05,0.000107584,0.00093414,1.18455e-07,0.00155352,4.60725e-08,-0.003125,-7.70999e-08,0.005,1.18982e-07,-0.454395,-9.37991,-0.786069,21.9635,1.71236,1.40463,-0.23876,-0.447283,-0.264882,-0.311023,3.45992,1.00201,-0.260729,-0.209303
720776,0.97,-1.57045,-0.523477,0.000204118,-2.09688,-0.00124079,1.57119,0.785668,-1.5708,-0.523595,1.30277e-07,-2.0944,-6.1622e-07,1.57081,0.785398,0.00060002,0.000124039,0.000619282,-0.000208268,-0.000248559,-0.000640354,-0.00127611,2.3691e-07,0.00310704,9.2145e-08,-0.00625,-1.542e-07,0.01,2.37964e-07,-0.478199,-9.37991,-0.81384,21.9873,1.71877,1.42385,-0.18749,-0.447727,-0.265842,-0.311446,3.46036,1.00194,-0.260756,-0.2093
720777,0.97,-1.57045,-0.523479,0.000202169,-2.09688,-0.00124008,1.57119,0.785667,-1.5708,-0.52359,1.30415e-07,-2.09441,-6.16451e-07,1.57083,0.785398,-0.000156798,-0.00047412,-0.000236759,0.000975076,7.16529e-05,4.78152e-05,-0.00132546,3.55365e-07,0.00466055,1.38218e-07,-0.009375,-2.313e-07,0.015,3.56946e-07,-0.454395,-9.35611,-0.786069,21.9397,1.71236,1.41104,-0.174673,-0.448533,-0.26648,-0.31238,3.46053,1.00185,-0.260789,-0.209333
720778,0.97,-1.57045,-0.523479,0.000202169,-2.09688,-0.00124008,1.57119,0.785672,-1.5708,-0.523584,1.30599e-07,-2.09443,-6.1676e-07,1.57085,0.785398,-0.000104532,0.00241745,-0.00015784,-0.00335316,4.77686e-05,3.18768e-05,0.000777873,4.73819e-07,0.00621407,1.8429e-07,-0.0125,-3.084e-07,0.02,4.75928e-07,-0.454395,-9.20535,-0.786069,21.8405,1.71236,1.41104,-0.219534,-0.449025,-0.268981,-0.312854,3.46189,1.0018,-0.260686,-0.209365
720779,0.97,-1.57045,-0.523484,0.000202169,-2.09688,-0.00124206,1.57119,0.785674,-1.5708,-0.523576,1.3083e-07,-2.09444,-6.17145e-07,1.57087,0.785398,-6.96882e-05,0.00343412,-0.000105226,-0.000867379,0.000438747,-0.000690826,0.00123066,5.92274e-07,0.00776759,2.30363e-07,-0.015625,-3.855e-07,0.025,5.9491e-07,-0.454395,-8.72531,-0.786069,21.4914,1.70137,1.43026,-0.23876,-0.448975,-0.278499,-0.312541,3.46733,1.00185,-0.260193,-0.209354
720780,0.97,-1.57045,-0.523478,0.000202629,-2.09687,-0.00124119,1.57119,0.785667,-1.5708,-0.523567,1.31106e-07,-2.09446,-6.17608e-07,1.5709,0.785398,-4.64588e-05,0.00434616,-0.000626963,0.00321152,0.000936758,-0.00140999,-0.00155315,7.10729e-07,0.00932111,2.76435e-07,-0.01875,-4.626e-07,0.03,7.13892e-07,-0.454395,-8.2175,-0.762265,21.0193,1.68398,1.4559,-0.174673,-0.448555,-0.293644,-0.311633,3.47461,1.00193,-0.259535,-0.209326
720781,0.97,-1.57045,-0.523467,0.000201209,-2.09688,-0.00123971,1.57119,0.785667,-1.5708,-0.523556,1.31429e-07,-2.09448,-6.18147e-07,1.57094,0.785398,-0.000587784,0.00790449,-0.000417975,0.00145214,0.00123486,-0.00188943,-0.00103543,8.29184e-07,0.0108746,3.22508e-07,-0.021875,-5.397e-07,0.035,8.32874e-07,-0.430592,-7.68588,-0.762265,20.5988,1.6675,1.48153,-0.174673,-0.447625,-0.311638,-0.309894,3.48062,1.00197,-0.258956,-0.209301
720782,0.97,-1.57045,-0.523445,0.000202406,-2.09688,-0.00124044,1.57119,0.785673,-1.5708,-0.523544,1.31797e-07,-2.09451,-6.18764e-07,1.57098,0.785398,0.000721768,0.0118927,0.000278162,0.000918438,0.000619787,-0.0020056,0.00120858,9.47639e-07,0.0124281,3.6858e-07,-0.025,-6.168e-07,0.04,9.51857e-07,-0.478199,-7.30899,-0.786069,20.1267,1.67299,1.50167,-0.225942,-0.446639,-0.336897,-0.308006,3.48773,1.00198,-0.258111,-0.209236
720783,0.97,-1.57045,-0.523426,0.000198629,-2.09688,-0.00123606,1.57119,0.785676,-1.5708,-0.52353,1.32212e-07,-2.09454,-6.19458e-07,1.57102,0.785398,-0.000632446,0.0142087,-0.00102098,0.000872708,0.000820093,-0.00133707,0.00178907,1.06609e-06,0.0139817,4.14653e-07,-0.028125,-6.939e-07,0.045,1.07084e-06,-0.430592,-6.90433,-0.734494,19.6268,1.662,1.50167,-0.252493,-0.445851,-0.372723,-0.306326,3.49792,1.00198,-0.256668,-0.209101
720784,0.97,-1.57045,-0.523402,0.000200525,-2.09689,-0.0012344,1.57119,0.78567,-1.5708,-0.523514,1.32672e-07,-2.09457,-6.20229e-07,1.57107,0.785398,-0.00107124,0.0151858,-3.10425e-05,0.000306303,0.000750179,0.00355716,-0.000740069,1.18455e-06,0.0155352,4.60725e-07,-0.03125,-7.70999e-07,0.05,1.18982e-06,-0.402821,-6.59885,-0.762265,19.2817,1.65651,1.50808,-0.200308,-0.444503,-0.415548,-0.303833,3.50906,1.00199,-0.25468,-0.208951
720785,0.97,-1.57045,-0.523383,0.000200508,-2.0969,-0.00123847,1.5712,0.785673,-1.5708,-0.523497,1.33209e-07,-2.0946,-6.21089e-07,1.57113,0.785398,-6.45489e-05,0.0146363,-2.0695e-05,-0.00251965,9.32182e-05,0.00350792,0.000693415,1.39022e-06,0.0176023,5.36882e-07,-0.0375,-8.60127e-07,0.0584956,1.40124e-06,-0.430592,-6.24576,-0.762265,19.0317,1.6675,1.48794,-0.232351,-0.442819,-0.458575,-0.30098,3.51803,1.00198,-0.252276,-0.208842
720786,0.97,-1.57045,-0.523368,0.000200502,-2.09691,-0.00123942,1.57121,0.78567,-1.5708,-0.523477,1.33822e-07,-2.09465,-6.22038e-07,1.5712,0.785398,-4.30326e-05,0.014234,-1.37967e-05,-0.00565431,6.21455e-05,0.00141078,-0.000487159,1.59589e-06,0.0196694,6.13039e-07,-0.04375,-9.49254e-07,0.0669912,1.61265e-06,-0.430592,-5.89267,-0.762265,18.7064,1.6675,1.5209,-0.206716,-0.441676,-0.496073,-0.29903,3.52336,1.00192,-0.249375,-0.208776
720787,0.97,-1.57045,-0.523352,0.0002005,-2.09693,-0.00123715,1.57121,0.785668,-1.5708,-0.523455,1.34512e-07,-2.0947,-6.23077e-07,1.57127,0.785398,-2.86884e-05,0.0144661,-9.19778e-06,-0.0091097,-0.00016202,0.00337508,-0.00103685,1.80156e-06,0.0217365,6.89195e-07,-0.05,-1.03838e-06,0.0754868,1.82407e-06,-0.430592,-5.56339,-0.762265,18.5596,1.67299,1.58499,-0.18749,-0.441147,-0.525346,-0.298061,3.52506,1.00183,-0.245812,-0.208745
720788,0.97,-1.57045,-0.52334,0.00020217,-2.09694,-0.00123877,1.57122,0.78567,-1.5708,-0.523431,1.35277e-07,-2.09475,-6.24204e-07,1.57136,0.785398,-1.91256e-05,0.0152788,0.00055068,-0.0108449,9.54371e-05,0.0034067,-0.000216515,2.00723e-06,0.0238035,7.65352e-07,-0.05625,-1.12751e-06,0.0839824,2.03548e-06,-0.430592,-5.13492,-0.786069,18.2621,1.6675,1.69485,-0.200308,-0.441155,-0.546027,-0.297997,3.52315,1.00175,-0.241534,-0.208726
720789,0.97,-1.57045,-0.523321,0.000204118,-2.09696,-0.00123758,1.57122,0.785675,-1.5708,-0.523406,1.36118e-07,-2.09482,-6.25421e-07,1.57145,0.785398,0.000544062,0.0187376,0.00101673,-0.0116031,0.000707885,0.00393386,0.00155108,2.2129e-06,0.0258706,8.41509e-07,-0.0625,-1.21664e-06,0.0924781,2.2469e-06,-0.454395,-4.67868,-0.81384,17.8138,1.6501,1.79739,-0.246084,-0.442002,-0.559874,-0.299291,3.51757,1.00165,-0.236523,-0.208684
720790,0.97,-1.57045,-0.523301,0.000204118,-2.09699,-0.00123726,1.57123,0.785672,-1.5708,-0.523378,1.37036e-07,-2.09489,-6.26727e-07,1.57155,0.785398,0.00091952,0.0196821,0.000677823,-0.0164778,0.00172653,0.00471748,5.07075e-05,2.41858e-06,0.0279377,9.17665e-07,-0.06875,-1.30576e-06,0.100974,2.45831e-06,-0.478199,-4.14706,-0.81384,17.3893,1.61623,1.89443,-0.219534,-0.44389,-0.570291,-0.302165,3.50927,1.00153,-0.230568,-0.208619
720791,0.97,-1.57045,-0.523273,0.000202169,-2.09701,-0.00123404,1.57125,0.785666,-1.5708,-0.523348,1.3803e-07,-2.09496,-6.28122e-07,1.57166,0.785398,0.000613013,0.0225093,-0.000197732,-0.0204364,0.00260909,0.00727501,-0.00186507,2.62425e-06,0.0300048,9.93822e-07,-0.075,-1.39489e-06,0.109469,2.66973e-06,-0.478199,-3.69479,-0.786069,16.8418,1.57686,1.9393,-0.168264,-0.446173,-0.580209,-0.305568,3.50015,1.00145,-0.223262,-0.208566
720792,0.97,-1.57045,-0.523246,0.00019855,-2.09705,-0.00122563,1.57127,0.785672,-1.5708,-0.523316,1.391e-07,-2.09504,-6.29606e-07,1.57178,0.785398,-0.000148137,0.0226066,-0.00133825,-0.0212645,0.00360435,0.0135942,0.000655494,2.82992e-06,0.0320719,1.06998e-06,-0.08125,-1.48402e-06,0.117965,2.88114e-06,-0.454395,-3.29013,-0.734494,16.3221,1.52651,1.99057,-0.219534,-0.447445,-0.588901,-0.307373,3.48948,1.00141,-0.214493,-0.208532
720793,0.97,-1.57045,-0.523215,0.000200499,-2.0971,-0.00122215,1.57131,0.785675,-1.5708,-0.523281,1.40246e-07,-2.09513,-6.31179e-07,1.5719,0.785398,-9.87577e-05,0.0262673,-0.000242551,-0.0294508,0.00325061,0.0198802,0.00142034,3.03559e-06,0.034139,1.14614e-06,-0.0875,-1.57314e-06,0.12646,3.09256e-06,-0.454395,-2.90927,-0.762265,15.9729,1.50362,1.99697,-0.246084,-0.447127,-0.595102,-0.306764,3.47585,1.00135,-0.204318,-0.208489
720794,0.97,-1.57045,-0.523185,0.000202169,-2.09714,-0.00122123,1.57135,0.78567,-1.5708,-0.523245,1.41468e-07,-2.09522,-6.32841e-07,1.57204,0.785398,-6.58385e-05,0.0266655,0.000395111,-0.029874,0.00237053,0.0305508,-0.000748528,3.24126e-06,0.0362061,1.22229e-06,-0.09375,-1.66227e-06,0.134956,3.30397e-06,-0.454395,-2.57999,-0.786069,15.5246,1.49812,1.96493,-0.200308,-0.44627,-0.599466,-0.305403,3.4593,1.00116,-0.19275,-0.208446
720795,0.97,-1.57045,-0.523158,0.000200499,-2.0972,-0.00122108,1.57142,0.785663,-1.5708,-0.523207,1.42783e-07,-2.09533,-6.3454e-07,1.57218,0.785398,-0.000600704,0.0291186,-0.000293404,-0.0406603,0.000529189,0.0455209,-0.00266916,3.50912e-06,0.0377552,1.31447e-06,-0.103125,-1.69881e-06,0.14588,3.61328e-06,-0.430592,-2.20309,-0.762265,15.2787,1.52651,1.8688,-0.141714,-0.445505,-0.601608,-0.304321,3.43936,1.00078,-0.179986,-0.208427
720796,0.97,-1.57045,-0.52313,0.000204118,-2.09726,-0.00122181,1.57149,0.785671,-1.5708,-0.523168,1.44189e-07,-2.09544,-6.36275e-07,1.57234,0.785398,-0.00040047,0.0294219,0.00101082,-0.0467414,-0.000257559,0.0552045,0.000865419,3.77699e-06,0.0393043,1.40665e-06,-0.1125,-1.73535e-06,0.156804,3.92258e-06,-0.430592,-1.89761,-0.81384,15.0803,1.54299,1.8038,-0.213125,-0.444754,-0.602398,-0.303497,3.41748,1.00027,-0.166118,-0.208398
720797,0.97,-1.57045,-0.523104,0.000204118,-2.09733,-0.00122342,1.57157,0.785668,-1.5708,-0.523127,1.45688e-07,-2.09556,-6.38047e-07,1.57251,0.785398,0.000846644,0.0290093,0.000673882,-0.0557378,0.000235195,0.060172,-0.000609849,4.04485e-06,0.0408535,1.49883e-06,-0.121875,-1.77188e-06,0.167728,4.23188e-06,-0.478199,-1.56833,-0.81384,14.9533,1.532,1.79739,-0.181082,-0.444729,-0.601018,-0.30398,3.39489,0.99968,-0.151224,-0.208298
720798,0.97,-1.57044,-0.523077,0.000207919,-2.0974,-0.00122182,1.57165,0.785666,-1.5708,-0.523085,1.47279e-07,-2.09569,-6.39856e-07,1.57269,0.785398,0.00177085,0.0292154,0.00100607,-0.0639312,0.00100451,0.0662957,-0.000881284,4.31271e-06,0.0424026,1.59101e-06,-0.13125,-1.80842e-06,0.178653,4.54118e-06,-0.529774,-1.26682,-0.837644,14.755,1.50911,1.85507,-0.168264,-0.446253,-0.594754,-0.306785,3.37162,0.998995,-0.135442,-0.208118
720799,0.97,-1.57044,-0.52305,0.000208629,-2.09748,-0.00121959,1.57175,0.785671,-1.5708,-0.523041,1.48963e-07,-2.09583,-6.417e-07,1.57288,0.785398,0.00118057,0.0278909,0.000670711,-0.0700994,0.00151738,0.0754317,0.00107399,4.58058e-06,0.0439517,1.68319e-06,-0.140625,-1.84496e-06,0.189577,4.85048e-06,-0.529774,-0.913727,-0.837644,14.4336,1.48622,1.92007,-0.213125,-0.449222,-0.580942,-0.311613,3.34692,0.998217,-0.118999,-0.207864
720800,0.98,-1.57044,-0.523017,0.000208866,-2.09757,-0.00122228,1.57185,0.78567,-1.5708,-0.522995,1.50738e-07,-2.09598,-6.43582e-07,1.57308,0.785398,0.00199347,0.0289073,0.000447141,-0.0788539,0.00121504,0.0883873,0.000478634,4.84844e-06,0.0455008,1.77537e-06,-0.15,-1.8815e-06,0.200501,5.15978e-06,-0.581349,-0.636017,-0.837644,14.1361,1.48073,1.95852,-0.206716,-0.452912,-0.55712,-0.317349,3.31895,0.997339,-0.102231,-0.207547
720801,0.99,-1.57043,-0.522984,0.000208945,-2.09767,-0.00121764,1.57199,0.785664,-1.5708,-0.522948,1.52605e-07,-2.09614,-6.455e-07,1.57329,0.785398,0.00364903,0.0269992,0.000298094,-0.0870185,0.00165774,0.104676,-0.00181714,5.1163e-06,0.04705,1.86755e-06,-0.159375,-1.91804e-06,0.211425,5.46908e-06,-0.680531,-0.382111,-0.837644,13.787,1.45784,1.9457,-0.149038,-0.457297,-0.522842,-0.323752,3.28695,0.996351,-0.0853324,-0.207208
720802,1,-1.57043,-0.522951,0.000210642,-2.09779,-0.0012107,1.57214,0.785668,-1.5708,-0.5229,1.54565e-07,-2.09631,-6.47455e-07,1.57351,0.785398,0.00131906,0.0266812,0.000755541,-0.0943513,0.0114632,0.119454,0.000212726,5.38416e-06,0.0485991,1.95973e-06,-0.16875,-1.95457e-06,0.222349,5.77838e-06,-0.632923,-0.179779,-0.861447,13.4894,1.43038,1.86148,-0.18749,-0.462556,-0.476674,-0.330928,3.24947,0.995193,-0.0685086,-0.206871
720803,1,-1.57043,-0.522921,0.000212781,-2.09791,-0.00120747,1.5723,0.785668,-1.5708,-0.52285,1.56617e-07,-2.09649,-6.49446e-07,1.57374,0.785398,0.00143619,0.027578,0.0036258,-0.103784,0.00906479,0.130954,-9.55413e-05,5.65203e-06,0.0501482,2.05191e-06,-0.178125,-1.99111e-06,0.233273,6.08768e-06,-0.656727,0.0979309,-0.861447,13.2157,1.41298,1.75894,-0.181082,-0.468813,-0.419401,-0.339308,3.20609,0.993791,-0.0518651,-0.206518
720804,1,-1.57043,-0.52289,0.000213494,-2.09804,-0.00120327,1.57249,0.785666,-1.5708,-0.522798,1.58761e-07,-2.09668,-6.51473e-07,1.57399,0.785398,0.00151427,0.0257328,0.00267738,-0.115711,0.0078816,0.148953,0.000411024,5.91989e-06,0.0516973,2.14408e-06,-0.1875,-2.02765e-06,0.244197,6.39698e-06,-0.680531,0.351837,-0.861447,13.0173,1.37911,1.64266,-0.193899,-0.476557,-0.354874,-0.349851,3.15911,0.992164,-0.0353447,-0.206127
720805,1,-1.57043,-0.522864,0.000213732,-2.0982,-0.00119871,1.57268,0.785667,-1.5708,-0.522745,1.61006e-07,-2.09688,-6.5349e-07,1.57425,0.785398,0.00100951,0.026938,0.00198005,-0.12464,0.00609915,0.167878,3.66568e-05,6.2299e-06,0.0525803,2.2452e-06,-0.19912,-2.0171e-06,0.256415,6.7686e-06,-0.680531,0.629547,-0.861447,12.9657,1.36812,1.60421,-0.18749,-0.48487,-0.285673,-0.361082,3.11034,0.990416,-0.0191055,-0.20571
720806,1,-1.57043,-0.522833,0.00021001,-2.09834,-0.00120201,1.57288,0.785669,-1.5708,-0.522692,1.63353e-07,-2.09709,-6.55497e-07,1.57451,0.785398,0.00132262,0.0294942,0.00090957,-0.131438,0.00398759,0.176664,0.000261797,6.53992e-06,0.0534633,2.34631e-06,-0.210739,-2.00656e-06,0.268633,7.14021e-06,-0.708302,0.831879,-0.837644,12.7912,1.37911,1.61703,-0.193899,-0.492071,-0.215025,-0.370276,3.06036,0.988607,-0.00348555,-0.205284
720807,1,-1.57042,-0.522797,0.000210997,-2.0985,-0.00120393,1.57311,0.785664,-1.5708,-0.522638,1.658e-07,-2.09731,-6.57493e-07,1.57479,0.785398,0.00199537,0.0331431,0.00127295,-0.140103,0.00249778,0.193342,-0.00148698,6.84993e-06,0.0543463,2.44742e-06,-0.222359,-1.99601e-06,0.28085,7.51183e-06,-0.755909,0.958832,-0.861447,12.6682,1.39009,1.61062,-0.149038,-0.497863,-0.148131,-0.376769,3.01028,0.986723,0.0113469,-0.20485
720808,1,-1.57042,-0.522766,0.000212899,-2.09866,-0.00120172,1.57333,0.785661,-1.5708,-0.522582,1.68349e-07,-2.09754,-6.59478e-07,1.57509,0.785398,0.00197986,0.0307016,0.000930957,-0.151628,0.00266371,0.202801,-0.000991321,7.15994e-06,0.0552293,2.54854e-06,-0.233978,-1.98546e-06,0.293068,7.88345e-06,-0.78368,1.16116,-0.861447,12.5174,1.36812,1.70126,-0.149038,-0.502964,-0.0868464,-0.381494,2.96129,0.984751,0.025451,-0.204389
720809,1,-1.57042,-0.52273,0.000219102,-2.09884,-0.0012024,1.57357,0.785665,-1.5708,-0.522526,1.70998e-07,-2.09779,-6.61453e-07,1.57539,0.785398,0.00187672,0.0339481,0.00253842,-0.160847,0.00171089,0.215095,5.11962e-05,7.46995e-06,0.0561123,2.64965e-06,-0.245598,-1.97491e-06,0.305286,8.25506e-06,-0.807484,1.28415,-0.940793,12.3429,1.37361,1.77816,-0.168264,-0.508232,-0.029283,-0.385782,2.91396,0.982687,0.0390465,-0.203862
720810,1,-1.57041,-0.522693,0.000217364,-2.09904,-0.00120182,1.57383,0.785668,-1.5708,-0.522469,1.73749e-07,-2.09805,-6.63418e-07,1.57571,0.785398,0.00245757,0.0335261,0.00108897,-0.171162,0.00144795,0.225562,0.000746208,7.77997e-06,0.0569953,2.75076e-06,-0.257218,-1.96437e-06,0.317503,8.62668e-06,-0.859058,1.3873,-0.913022,12.1961,1.36812,1.83584,-0.18749,-0.514156,0.0249816,-0.390417,2.86873,0.980523,0.052422,-0.203241
720811,1,-1.57042,-0.522659,0.000217895,-2.09924,-0.00120112,1.57411,0.785658,-1.5708,-0.522411,1.76601e-07,-2.09831,-6.65372e-07,1.57604,0.785398,0.000988768,0.0324408,0.000203898,-0.182372,0.00128059,0.237008,-0.00191003,8.08998e-06,0.0578783,2.85188e-06,-0.268837,-1.95382e-06,0.329721,8.99829e-06,-0.831288,1.51425,-0.889218,12.0453,1.36171,1.79098,-0.122488,-0.519842,0.0780135,-0.394058,2.82498,0.978312,0.0658381,-0.202551
720812,1,-1.57042,-0.522627,0.00021668,-2.09946,-0.00120051,1.5744,0.785657,-1.5708,-0.522353,1.79554e-07,-2.09859,-6.67315e-07,1.57638,0.785398,0.000659179,0.0333842,-0.000487635,-0.192726,0.00111562,0.254515,-0.00127335,8.39999e-06,0.0587613,2.95299e-06,-0.280457,-1.94327e-06,0.341938,9.36991e-06,-0.831288,1.68881,-0.861447,11.8708,1.35622,1.73971,-0.122488,-0.523878,0.132827,-0.394684,2.78156,0.976133,0.0794201,-0.201819
720813,1,-1.57042,-0.522588,0.000216924,-2.09969,-0.00119807,1.57472,0.785662,-1.5708,-0.522293,1.82608e-07,-2.09889,-6.69248e-07,1.57674,0.785398,-0.000674172,0.0336192,-0.000305555,-0.207845,0.00160138,0.271419,0.00108388,8.71001e-06,0.0596443,3.0541e-06,-0.292076,-1.93273e-06,0.354156,9.74153e-06,-0.78368,1.76419,-0.861447,11.724,1.33425,1.60421,-0.174673,-0.525916,0.188097,-0.391953,2.73934,0.974054,0.0932275,-0.201017
720814,1,-1.57042,-0.522551,0.000217006,-2.09993,-0.00119294,1.57505,0.785664,-1.5708,-0.522232,1.85763e-07,-2.09919,-6.7117e-07,1.5771,0.785398,-0.000449448,0.0335191,-0.000189052,-0.219191,0.00174472,0.291941,0.00143466,9.02002e-06,0.0605273,3.15521e-06,-0.303696,-1.92218e-06,0.366374,1.01131e-05,-0.78368,1.84354,-0.861447,11.5732,1.31685,1.50167,-0.193899,-0.526564,0.241652,-0.386954,2.69992,0.972098,0.107223,-0.200128
720815,1,-1.57042,-0.522511,0.000211561,-2.10019,-0.00119248,1.57539,0.785662,-1.5708,-0.522172,1.89024e-07,-2.09951,-6.73055e-07,1.57748,0.785399,-0.000949246,0.0346445,-0.00122867,-0.230578,0.000984356,0.305141,-0.00070507,9.35614e-06,0.0608632,3.26104e-06,-0.316186,-1.88514e-06,0.379007,1.05104e-05,-0.755909,1.86734,-0.81384,11.4264,1.32234,1.44949,-0.149038,-0.526415,0.293489,-0.380629,2.66285,0.970219,0.121073,-0.199203
720816,1,-1.57042,-0.522469,0.000212531,-2.10045,-0.00119213,1.57574,0.785664,-1.5708,-0.52211,1.92391e-07,-2.09984,-6.74903e-07,1.57787,0.785399,-0.00118964,0.0353496,-0.00025406,-0.24115,0.00067473,0.318391,-0.000232688,9.69227e-06,0.0611992,3.36687e-06,-0.328676,-1.84811e-06,0.39164,1.09077e-05,-0.732105,1.89114,-0.837644,11.351,1.32234,1.43667,-0.155447,-0.525776,0.343687,-0.373466,2.62699,0.968342,0.13441,-0.198284
720817,1,-1.57042,-0.52243,0.000218047,-2.10072,-0.0011914,1.57609,0.785662,-1.5708,-0.522049,1.95864e-07,-2.10018,-6.76714e-07,1.57828,0.785399,-0.000793095,0.0376517,0.00104323,-0.249069,0.00066714,0.323639,8.22336e-05,1.00284e-05,0.0615351,3.4727e-06,-0.341166,-1.81107e-06,0.404273,1.1305e-05,-0.732105,1.96652,-0.889218,11.1527,1.31685,1.52731,-0.161856,-0.525788,0.391987,-0.367286,2.59122,0.966347,0.147008,-0.19736
720818,1,-1.57042,-0.522384,0.0002146,-2.10102,-0.00118882,1.57645,0.785663,-1.5708,-0.521987,1.99442e-07,-2.10053,-6.78488e-07,1.57869,0.785399,0.000677696,0.0391491,5.0511e-05,-0.2645,0.00130287,0.336009,0.000766899,1.03645e-05,0.061871,3.57853e-06,-0.353656,-1.77404e-06,0.416906,1.17023e-05,-0.78368,1.91891,-0.861447,11.0773,1.29396,1.62985,-0.181082,-0.527714,0.436298,-0.363942,2.55622,0.964156,0.158971,-0.196407
720819,1,-1.57042,-0.522344,0.000216231,-2.10132,-0.00119013,1.57684,0.785659,-1.5708,-0.521925,2.03127e-07,-2.1009,-6.80225e-07,1.57912,0.785399,-0.000197817,0.0388474,3.71508e-05,-0.271678,0.000435574,0.350524,-0.000946796,1.07006e-05,0.062207,3.68436e-06,-0.366146,-1.737e-06,0.42954,1.20996e-05,-0.755909,1.91891,-0.861447,10.9543,1.30586,1.64266,-0.141714,-0.531326,0.475938,-0.362987,2.52257,0.961792,0.170519,-0.195439
720820,1,-1.57042,-0.522309,0.000216774,-2.10164,-0.00118941,1.57725,0.785665,-1.5708,-0.521862,2.06917e-07,-2.10127,-6.81925e-07,1.57957,0.785399,-0.00068869,0.0375759,2.73749e-05,-0.287893,0.000533593,0.363167,0.00153894,1.10368e-05,0.0625429,3.79019e-06,-0.378636,-1.69997e-06,0.442173,1.24969e-05,-0.732105,1.96652,-0.861447,10.9265,1.29946,1.60421,-0.200308,-0.535577,0.515001,-0.363,2.48832,0.959293,0.181697,-0.194484
720821,1,-1.57042,-0.522267,0.000213615,-2.10197,-0.00118819,1.57767,0.785665,-1.5708,-0.521799,2.10813e-07,-2.10167,-6.83588e-07,1.58002,0.785399,-0.000459126,0.0388314,-0.00109342,-0.299927,0.000767018,0.377964,7.65253e-05,1.13729e-05,0.0628788,3.89602e-06,-0.391126,-1.66293e-06,0.454806,1.28942e-05,-0.732105,1.91891,-0.81384,10.8789,1.28847,1.55935,-0.174673,-0.539615,0.554837,-0.362866,2.45379,0.956737,0.192747,-0.193558
720822,1,-1.57043,-0.522222,0.000210056,-2.10231,-0.00118758,1.57811,0.785659,-1.5708,-0.521736,2.14815e-07,-2.10207,-6.85214e-07,1.58049,0.785399,-0.00262613,0.0423955,-0.0019339,-0.315296,0.000718087,0.395637,-0.00116969,1.1709e-05,0.0632148,4.00184e-06,-0.403616,-1.6259e-06,0.467439,1.32915e-05,-0.632923,1.89114,-0.762265,10.8274,1.28298,1.55294,-0.141714,-0.542256,0.590111,-0.360905,2.42234,0.95427,0.203978,-0.192686
720823,1,-1.57043,-0.522178,0.000215366,-2.10268,-0.0011888,1.57857,0.785666,-1.5708,-0.521673,2.18922e-07,-2.10249,-6.86803e-07,1.58097,0.785399,-0.00175076,0.0449501,0.000475068,-0.331507,7.42921e-05,0.419493,0.000678271,1.20452e-05,0.0635507,4.10767e-06,-0.416106,-1.58886e-06,0.480072,1.36888e-05,-0.632923,1.86734,-0.837644,10.8512,1.29396,1.46871,-0.181082,-0.543365,0.612802,-0.357136,2.39814,0.952005,0.215563,-0.191864
720824,1,-1.57043,-0.522133,0.000211572,-2.10305,-0.00119134,1.57904,0.785666,-1.5708,-0.521609,2.23136e-07,-2.10291,-6.88355e-07,1.58146,0.785399,-0.00181678,0.0473498,-0.000239275,-0.345993,-0.000796331,0.434859,0.00116426,1.23813e-05,0.0638866,4.2135e-06,-0.428596,-1.55183e-06,0.492705,1.40861e-05,-0.605152,1.81577,-0.81384,10.8274,1.31685,1.39181,-0.200308,-0.544523,0.618385,-0.354065,2.38385,0.949944,0.227539,-0.191055
720825,1,-1.57043,-0.522082,0.000209375,-2.10344,-0.00119012,1.57953,0.78566,-1.5708,-0.521545,2.27456e-07,-2.10336,-6.89854e-07,1.58197,0.785399,-0.001768,0.0502957,-0.00136532,-0.359935,-0.000122598,0.44865,-0.000885341,1.27307e-05,0.0637499,4.32054e-06,-0.441086,-1.49971e-06,0.505231,1.44878e-05,-0.581349,1.71658,-0.762265,10.8512,1.30586,1.35977,-0.155447,-0.545897,0.606866,-0.351881,2.37938,0.948089,0.239779,-0.190268
720826,1,-1.57043,-0.522035,0.0002079,-2.10383,-0.00119073,1.58002,0.785658,-1.5708,-0.521481,2.31884e-07,-2.10381,-6.91302e-07,1.58248,0.785399,-0.00117867,0.0511796,-0.00155937,-0.376047,-0.000284141,0.462073,-0.00133621,1.30801e-05,0.0636132,4.42758e-06,-0.453576,-1.44759e-06,0.517757,1.48895e-05,-0.581349,1.66501,-0.734494,10.7798,1.31136,1.39181,-0.135305,-0.546682,0.580193,-0.349254,2.38382,0.946462,0.252151,-0.189527
720827,1,-1.57044,-0.521986,0.000202587,-2.10424,-0.00118941,1.58052,0.785665,-1.5708,-0.521418,2.36419e-07,-2.10428,-6.92697e-07,1.58301,0.785399,-0.0019922,0.0512,-0.00215285,-0.38821,0.000252163,0.474308,0.00151669,1.34295e-05,0.0634765,4.53462e-06,-0.466066,-1.39547e-06,0.530284,1.52911e-05,-0.529774,1.6412,-0.686887,10.752,1.29946,1.49526,-0.200308,-0.546718,0.543786,-0.345886,2.39464,0.945024,0.264442,-0.188805
720828,1,-1.57043,-0.521942,0.000201929,-2.10467,-0.00118819,1.58104,0.785669,-1.5708,-0.521354,2.4106e-07,-2.10475,-6.94041e-07,1.58356,0.785399,-0.00012171,0.0501539,-0.00143497,-0.39747,0.000575596,0.485996,0.00124849,1.37789e-05,0.0633398,4.64166e-06,-0.478556,-1.34335e-06,0.54281,1.56928e-05,-0.581349,1.66501,-0.686887,10.752,1.28847,1.53372,-0.206716,-0.546458,0.507668,-0.342381,2.4056,0.943612,0.276194,-0.18809
720829,1,-1.57043,-0.521896,0.000205511,-2.10511,-0.0011888,1.58158,0.785667,-1.5708,-0.521291,2.45809e-07,-2.10524,-6.95332e-07,1.58411,0.785399,-0.00128757,0.0486157,-0.000399642,-0.409576,0.000180719,0.503702,-0.000117112,1.41284e-05,0.0632031,4.74871e-06,-0.491046,-1.29123e-06,0.555336,1.60944e-05,-0.529774,1.58963,-0.710691,10.8036,1.29396,1.46871,-0.181082,-0.547085,0.482292,-0.340444,2.40966,0.942016,0.286924,-0.187423
720830,1,-1.57043,-0.521848,0.000202347,-2.10555,-0.00118758,1.58214,0.785665,-1.5708,-0.521228,2.50665e-07,-2.10575,-6.96571e-07,1.58468,0.785399,-0.000208763,0.0484238,-0.000823093,-0.420441,0.00052771,0.517574,-0.00102751,1.44778e-05,0.0630664,4.85575e-06,-0.503536,-1.23912e-06,0.567862,1.64961e-05,-0.557545,1.46268,-0.686887,10.8274,1.28298,1.34695,-0.155447,-0.549059,0.472846,-0.340803,2.40345,0.940149,0.296429,-0.186846
720831,1,-1.57044,-0.521801,0.00020185,-2.10602,-0.00118123,1.5827,0.785664,-1.5708,-0.521165,2.55628e-07,-2.10626,-6.97758e-07,1.58526,0.785399,-0.0013456,0.050854,-0.000548618,-0.432085,0.00140321,0.530196,0.000264429,1.48272e-05,0.0629297,4.96279e-06,-0.516026,-1.187e-06,0.580388,1.68978e-05,-0.50597,1.36349,-0.686887,10.8512,1.25459,1.31491,-0.181082,-0.551798,0.476902,-0.342605,2.38797,0.938042,0.304758,-0.186349
720832,1,-1.57044,-0.52175,0.000199735,-2.10648,-0.00118332,1.58327,0.785664,-1.5708,-0.521102,2.60697e-07,-2.10679,-6.98893e-07,1.58585,0.785399,-0.00210349,0.0532159,-0.00101528,-0.444291,-0.000115499,0.537606,0.000413645,1.51766e-05,0.062793,5.06983e-06,-0.528516,-1.13488e-06,0.592914,1.72994e-05,-0.454395,1.23654,-0.659116,10.752,1.28298,1.34695,-0.18749,-0.554209,0.48656,-0.344313,2.36727,0.935779,0.312165,-0.185893
720833,1,-1.57044,-0.521698,0.000203759,-2.10696,-0.00118418,1.58386,0.785665,-1.5708,-0.52104,2.65874e-07,-2.10733,-6.99976e-07,1.58646,0.785399,-0.00140233,0.0555668,-2.71754e-05,-0.449825,-0.000483761,0.547023,-0.000198955,1.5526e-05,0.0626563,5.17687e-06,-0.541006,-1.08276e-06,0.60544,1.77011e-05,-0.454395,1.08182,-0.686887,10.6806,1.29396,1.39181,-0.174673,-0.555791,0.496349,-0.345282,2.34357,0.933377,0.318762,-0.185459
720834,1,-1.57044,-0.521646,0.000204451,-2.10743,-0.00118661,1.58446,0.785671,-1.5708,-0.520977,2.71158e-07,-2.10789,-7.01006e-07,1.58708,0.785399,-0.000934886,0.0563915,-1.80705e-05,-0.456802,-0.00117011,0.562565,0.00152888,1.58754e-05,0.0625195,5.28391e-06,-0.553496,-1.03064e-06,0.617966,1.81027e-05,-0.454395,0.958832,-0.686887,10.5298,1.31685,1.35977,-0.219534,-0.557296,0.508012,-0.346549,2.31376,0.930735,0.324184,-0.185051
720835,1,-1.57044,-0.521596,0.000202551,-2.10793,-0.00118535,1.58508,0.785664,-1.5708,-0.520915,2.76547e-07,-2.10845,-7.01975e-07,1.58771,0.785399,-0.00118007,0.0553484,-1.20121e-05,-0.467474,-0.000373097,0.574803,-0.000404903,1.62279e-05,0.0619437,5.3892e-06,-0.565986,-9.68507e-07,0.630087,1.84974e-05,-0.430592,0.907257,-0.686887,10.3553,1.30586,1.26913,-0.181082,-0.559098,0.526093,-0.348602,2.27444,0.92782,0.328116,-0.184691
720836,1,-1.57044,-0.521547,0.000199968,-2.10845,-0.00117903,1.58571,0.785658,-1.5708,-0.520854,2.82042e-07,-2.10903,-7.02881e-07,1.58835,0.785399,-0.000229901,0.0515936,-0.000657596,-0.480832,0.00185365,0.597336,-0.00196536,1.65803e-05,0.0613678,5.49449e-06,-0.578476,-9.06371e-07,0.642207,1.88921e-05,-0.454395,0.855682,-0.659116,10.2561,1.2491,1.2499,-0.135305,-0.560913,0.554915,-0.350995,2.22514,0.924731,0.330587,-0.184415
720837,1,-1.57044,-0.521505,0.000196417,-2.10896,-0.00117328,1.58633,0.785661,-1.5708,-0.520793,2.87642e-07,-2.10962,-7.03725e-07,1.589,0.785399,-0.000153267,0.0489837,-0.001552,-0.493586,0.00208352,0.601079,-0.000326893,1.69328e-05,0.0607919,5.59977e-06,-0.590966,-8.44235e-07,0.654328,1.92868e-05,-0.454395,0.931061,-0.611508,10.1331,1.22621,1.31491,-0.161856,-0.5624,0.597792,-0.353101,2.16707,0.92155,0.331814,-0.18421
720838,1,-1.57044,-0.52146,0.000194397,-2.1095,-0.001171,1.58698,0.785666,-1.5708,-0.520733,2.93347e-07,-2.11023,-7.04508e-07,1.58967,0.785399,-0.000102178,0.0497297,-0.00168427,-0.503654,0.00179595,0.613031,0.00144358,1.72852e-05,0.0602161,5.70506e-06,-0.603456,-7.82099e-07,0.666449,1.96814e-05,-0.454395,0.907257,-0.583737,9.98233,1.21523,1.36618,-0.206716,-0.563095,0.65321,-0.354123,2.10264,0.918285,0.332205,-0.184013
720839,1,-1.57044,-0.521414,0.000194374,-2.11004,-0.0011706,1.58764,0.785664,-1.5708,-0.520673,2.99157e-07,-2.11084,-7.05228e-07,1.59035,0.785399,-6.81188e-05,0.0477941,-0.00112283,-0.51521,0.000146162,0.626323,0.000250312,1.76377e-05,0.0596402,5.81035e-06,-0.615946,-7.19964e-07,0.67857,2.00761e-05,-0.454395,0.855682,-0.583737,9.93473,1.24361,1.32772,-0.18749,-0.563056,0.716928,-0.354126,2.03377,0.914899,0.332066,-0.183804
720840,1,-1.57045,-0.521368,0.000196315,-2.11061,-0.00116748,1.58833,0.78566,-1.5708,-0.520614,3.05073e-07,-2.11147,-7.05885e-07,1.59104,0.785399,-0.000602224,0.0480394,-9.89335e-05,-0.526674,0.00074172,0.644216,-0.00200326,1.79901e-05,0.0590643,5.91564e-06,-0.628436,-6.57828e-07,0.690691,2.04708e-05,-0.430592,0.728729,-0.611508,10.0061,1.22621,1.30117,-0.128897,-0.562949,0.78608,-0.354177,1.96133,0.911373,0.331501,-0.18361
720841,1,-1.57045,-0.521317,0.000192233,-2.11119,-0.00116648,1.58904,0.785663,-1.5708,-0.520556,3.11094e-07,-2.11211,-7.06481e-07,1.59174,0.785399,-0.000401483,0.0486312,-0.000715563,-0.539169,0.000697945,0.666819,0.000359912,1.83426e-05,0.0584884,6.02093e-06,-0.640926,-5.95692e-07,0.702812,2.08654e-05,-0.430592,0.577972,-0.583737,10.1331,1.22072,1.19223,-0.174673,-0.563049,0.856585,-0.354756,1.88692,0.907758,0.330539,-0.183427
720842,1,-1.57044,-0.521271,0.000191522,-2.11178,-0.00116828,1.58974,0.785667,-1.5708,-0.520498,3.1722e-07,-2.11276,-7.07015e-07,1.59246,0.785399,0.000289157,0.0476107,-0.000477038,-0.550937,-0.000178953,0.678863,0.00166409,1.8695e-05,0.0579126,6.12621e-06,-0.653416,-5.33557e-07,0.714932,2.12601e-05,-0.454395,0.47879,-0.583737,10.3553,1.23812,1.19223,-0.213125,-0.563238,0.92455,-0.35559,1.81248,0.904112,0.329174,-0.18322
720843,1,-1.57044,-0.521225,0.000195364,-2.11239,-0.00116945,1.59046,0.785664,-1.5708,-0.520441,3.23451e-07,-2.11343,-7.07486e-07,1.59318,0.785399,0.000192771,0.0463792,0.000331592,-0.561658,-0.000526195,0.687163,0.000159961,1.90475e-05,0.0573367,6.2315e-06,-0.665906,-4.71421e-07,0.727053,2.16548e-05,-0.454395,0.399445,-0.611508,10.6052,1.2491,1.3085,-0.18749,-0.563835,0.990045,-0.357042,1.73869,0.90042,0.327434,-0.182995
720844,1,-1.57044,-0.521177,0.000195535,-2.113,-0.00116624,1.59117,0.785661,-1.5708,-0.520384,3.29788e-07,-2.11411,-7.07895e-07,1.59392,0.785399,0.000685326,0.0491308,0.000777876,-0.588307,-0.000350791,0.690522,-0.000842795,1.93999e-05,0.0567608,6.33679e-06,-0.678396,-4.09285e-07,0.739174,2.20495e-05,-0.478199,0.300262,-0.635312,10.7044,1.2491,1.41745,-0.161856,-0.565364,1.04692,-0.35991,1.67224,0.896792,0.326152,-0.182776
720845,1,-1.57044,-0.521133,0.000195035,-2.11363,-0.00116456,1.59192,0.785659,-1.5708,-0.520328,3.36226e-07,-2.1148,-7.08232e-07,1.59467,0.785399,0.0011065,0.0462935,0.000518586,-0.603629,-3.04058e-05,0.707584,-0.00103658,1.97472e-05,0.05574,6.43775e-06,-0.690886,-3.37126e-07,0.750741,2.24329e-05,-0.50597,0.276459,-0.635312,10.8274,1.24361,1.3854,-0.149038,-0.567932,1.08438,-0.36435,1.62387,0.893478,0.32667,-0.18255
720846,1,-1.57044,-0.521094,0.00019338,-2.1143,-0.00115786,1.59268,0.785668,-1.5708,-0.520273,3.42765e-07,-2.1155,-7.08497e-07,1.59544,0.785399,0.00129448,0.0437515,-0.0008607,-0.619946,0.00103089,0.724752,0.00120782,2.00945e-05,0.0547192,6.53871e-06,-0.703376,-2.64966e-07,0.762309,2.28164e-05,-0.529774,0.276459,-0.583737,11.0535,1.21523,1.35977,-0.200308,-0.570837,1.1052,-0.369191,1.59357,0.89055,0.329112,-0.182301
720847,1,-1.57044,-0.521049,0.000194035,-2.11497,-0.00115291,1.59344,0.785665,-1.5708,-0.52022,3.49404e-07,-2.11622,-7.0869e-07,1.59621,0.785399,0.00206941,0.042554,-0.000573799,-0.635733,0.00194188,0.736315,0.000567853,2.04418e-05,0.0536984,6.63967e-06,-0.715866,-1.92806e-07,0.773876,2.31999e-05,-0.581349,0.248688,-0.583737,11.1249,1.18135,1.37899,-0.193899,-0.573389,1.11807,-0.373189,1.5755,0.887924,0.332878,-0.182037
720848,1,-1.57044,-0.521008,0.000194071,-2.11565,-0.00115435,1.59421,0.785664,-1.5708,-0.520167,3.56145e-07,-2.11695,-7.08811e-07,1.597,0.785399,-0.000383631,0.0414632,0.000267082,-0.64967,0.000684235,0.740797,0.000141209,2.07891e-05,0.0526776,6.74063e-06,-0.728356,-1.20646e-07,0.785444,2.35834e-05,-0.50597,0.224884,-0.611508,11.2003,1.19783,1.44949,-0.18749,-0.575484,1.12624,-0.376213,1.56694,0.885485,0.337709,-0.181787
720849,1,-1.57044,-0.520968,0.000191485,-2.11636,-0.0011498,1.59499,0.785665,-1.5708,-0.520115,3.62986e-07,-2.11769,-7.08859e-07,1.59779,0.785399,0.000301058,0.0389068,-0.000471559,-0.667303,0.000863059,0.754926,0.000568858,2.11364e-05,0.0516568,6.84159e-06,-0.740846,-4.84866e-08,0.797011,2.39668e-05,-0.529774,0.149506,-0.583737,11.2519,1.18685,1.42385,-0.200308,-0.576783,1.13166,-0.377978,1.56615,0.883149,0.343507,-0.181573
720850,1,-1.57044,-0.520924,0.000189784,-2.11707,-0.00115052,1.5958,0.785668,-1.5708,-0.520065,3.69929e-07,-2.11844,-7.08836e-07,1.5986,0.785399,-0.00100572,0.0412898,-0.0015208,-0.681474,-3.49779e-05,0.770948,0.000379238,2.14837e-05,0.050636,6.94255e-06,-0.753336,2.36732e-08,0.808579,2.43503e-05,-0.478199,0.0225525,-0.532163,11.351,1.20333,1.37258,-0.200308,-0.576538,1.13364,-0.377402,1.57259,0.880917,0.350168,-0.18141
720851,1,-1.57044,-0.520878,0.000193861,-2.11779,-0.00114634,1.5966,0.78566,-1.5708,-0.520015,3.76973e-07,-2.11921,-7.0874e-07,1.59942,0.785399,-2.08667e-05,0.0409797,0.000842175,-0.692517,0.000180133,0.779128,-0.00191731,2.1831e-05,0.0496152,7.04351e-06,-0.765826,9.58329e-08,0.820146,2.47338e-05,-0.50597,-0.155975,-0.611508,11.2995,1.19783,1.41104,-0.141714,-0.575062,1.12981,-0.374895,1.58501,0.878745,0.357374,-0.181305
720852,1,-1.57044,-0.520845,0.000189744,-2.11852,-0.00114455,1.5974,0.78566,-1.5708,-0.519966,3.84117e-07,-2.11999,-7.08572e-07,1.60025,0.785399,0.00119251,0.0374452,-0.000644976,-0.699442,0.00032354,0.785299,-0.000769583,2.21782e-05,0.0485944,7.14447e-06,-0.778316,1.67993e-07,0.831714,2.51173e-05,-0.557545,-0.203583,-0.559934,11.2003,1.19234,1.46871,-0.155447,-0.574017,1.12597,-0.372771,1.59716,0.876409,0.364447,-0.181234
720853,1,-1.57044,-0.520806,0.000193198,-2.11926,-0.00114095,1.59823,0.785661,-1.5708,-0.519919,3.91362e-07,-2.12078,-7.08332e-07,1.6011,0.785399,-0.000411416,0.0388517,0.000776442,-0.711033,0.00492098,0.793619,-3.83372e-05,2.25255e-05,0.0475736,7.24543e-06,-0.790806,2.40152e-07,0.843281,2.55008e-05,-0.50597,-0.282928,-0.611508,11.1011,1.19234,1.48794,-0.168264,-0.573979,1.13015,-0.371728,1.6023,0.873716,0.370821,-0.181151
720854,1,-1.57044,-0.520773,0.000185904,-2.12002,-0.00113721,1.59908,0.78566,-1.5708,-0.519872,3.98709e-07,-2.12158,-7.08019e-07,1.60195,0.785399,-0.000274277,0.0380502,-0.00189522,-0.719532,0.0091981,0.821554,-0.000500276,2.28728e-05,0.0465527,7.34639e-06,-0.803296,3.12312e-07,0.854849,2.58842e-05,-0.50597,-0.282928,-0.508359,11.0019,1.16945,1.48153,-0.155447,-0.57384,1.14255,-0.370178,1.5983,0.870662,0.376236,-0.181041
720855,1,-1.57044,-0.520741,0.000189505,-2.12079,-0.00112985,1.59993,0.785662,-1.5708,-0.519827,4.0615e-07,-2.1224,-7.0762e-07,1.60282,0.785399,0.00037396,0.0375865,-5.70563e-05,-0.733064,0.00807056,0.833937,-0.000842144,2.32084e-05,0.0450417,7.44071e-06,-0.815786,3.99577e-07,0.865828,2.62584e-05,-0.529774,-0.282928,-0.559934,11.0535,1.13558,1.44949,-0.141714,-0.573025,1.1614,-0.367256,1.58498,0.867317,0.380511,-0.180915
720856,1,-1.57044,-0.520713,0.00018755,-2.12158,-0.00111986,1.60079,0.785662,-1.5708,-0.519784,4.13685e-07,-2.12322,-7.07133e-07,1.60369,0.785399,-0.000307505,0.0336413,-0.000687651,-0.744892,0.00775825,0.841359,0.000421915,2.3544e-05,0.0435306,7.53502e-06,-0.828276,4.86841e-07,0.876807,2.66325e-05,-0.50597,-0.255158,-0.532163,11.1527,1.08522,1.43667,-0.168264,-0.572203,1.18691,-0.363991,1.56372,0.863716,0.383873,-0.180751
720857,1,-1.57044,-0.520675,0.000185418,-2.12236,-0.00111516,1.60167,0.785665,-1.5708,-0.519742,4.21314e-07,-2.12406,-7.06559e-07,1.60458,0.785399,-0.000854617,0.0369875,-0.000458434,-0.756533,0.00921272,0.850725,0.00123071,2.38795e-05,0.0420196,7.62934e-06,-0.840766,5.74106e-07,0.887786,2.70067e-05,-0.478199,-0.358307,-0.532163,11.1527,1.1136,1.34695,-0.193899,-0.571372,1.21723,-0.360564,1.5375,0.859868,0.386802,-0.180526
720858,1,-1.57044,-0.520638,0.000188786,-2.12318,-0.00111372,1.60256,0.785663,-1.5708,-0.519701,4.29038e-07,-2.12492,-7.05897e-07,1.60548,0.785399,7.98688e-05,0.0335448,0.000343991,-0.772828,0.00536451,0.86035,0.000345757,2.42151e-05,0.0405085,7.72366e-06,-0.853256,6.61371e-07,0.898765,2.73808e-05,-0.50597,-0.48526,-0.559934,11.3272,1.15297,1.26913,-0.181082,-0.570535,1.24693,-0.357084,1.51071,0.855801,0.389725,-0.180254
720859,1,-1.57044,-0.520603,0.00018731,-2.12402,-0.00110977,1.60346,0.785658,-1.5708,-0.519662,4.36856e-07,-2.12578,-7.05149e-07,1.60639,0.785399,-0.000596367,0.0356526,-0.000420286,-0.787205,0.00730289,0.866905,-0.00146492,2.45507e-05,0.0389974,7.81798e-06,-0.865746,7.48635e-07,0.909744,2.7755e-05,-0.478199,-0.683624,-0.532163,11.4978,1.19234,1.2499,-0.135305,-0.57013,1.27118,-0.354249,1.48822,0.851622,0.393016,-0.179963
720860,1,-1.57044,-0.52057,0.000185798,-2.12485,-0.00110817,1.60436,0.785663,-1.5708,-0.519625,4.44768e-07,-2.12666,-7.04313e-07,1.60731,0.785399,0.000252035,0.0333268,-0.000837003,-0.798936,0.00889375,0.873721,0.00071881,2.48862e-05,0.0374864,7.91229e-06,-0.878236,8.359e-07,0.920722,2.81291e-05,-0.50597,-0.862152,-0.508359,11.7002,1.23171,1.30117,-0.181082,-0.569761,1.28803,-0.351424,1.47212,0.847454,0.396733,-0.179658
720861,1,-1.57044,-0.520536,0.00018372,-2.12571,-0.00110054,1.60526,0.785665,-1.5708,-0.519589,4.52774e-07,-2.12755,-7.0339e-07,1.60824,0.785399,0.000724835,0.0345551,-0.000558002,-0.812515,0.00771486,0.881098,0.00119128,2.52218e-05,0.0359753,8.00661e-06,-0.890726,9.23165e-07,0.931701,2.85033e-05,-0.529774,-1.04068,-0.508359,11.9461,1.20973,1.3854,-0.200308,-0.56942,1.29816,-0.348451,1.46176,0.84337,0.400675,-0.179325
720862,1,-1.57044,-0.52051,0.000181357,-2.12658,-0.00109242,1.60617,0.785665,-1.5708,-0.519554,4.60875e-07,-2.12846,-7.02379e-07,1.60919,0.785399,-7.35884e-05,0.0299115,-0.000928813,-0.827109,0.0105997,0.894095,0.000794189,2.55574e-05,0.0344643,8.10093e-06,-0.903216,1.01043e-06,0.94268,2.88775e-05,-0.50597,-1.11606,-0.484555,12.2953,1.20973,1.4559,-0.200308,-0.569312,1.30399,-0.3456,1.4562,0.839459,0.404706,-0.178988
720863,1,-1.57044,-0.520486,0.000177507,-2.12749,-0.00108458,1.6071,0.785665,-1.5708,-0.519521,4.69071e-07,-2.12937,-7.01282e-07,1.61014,0.785399,-0.00125548,0.0271263,-0.00182563,-0.844793,0.00865135,0.901251,0.000529459,2.58929e-05,0.0329532,8.19525e-06,-0.915706,1.09769e-06,0.953659,2.92516e-05,-0.454395,-1.21524,-0.432981,12.692,1.19234,1.46231,-0.200308,-0.568522,1.30952,-0.341681,1.4551,0.835836,0.408923,-0.178708
720864,1,-1.57044,-0.52046,0.000175759,-2.12841,-0.00107246,1.60803,0.785666,-1.5708,-0.51949,4.7736e-07,-2.1303,-7.00097e-07,1.6111,0.7854,-0.000836989,0.0283487,-0.0017739,-0.860865,0.012389,0.909321,0.000827691,2.62285e-05,0.0314421,8.28956e-06,-0.928196,1.18496e-06,0.964638,2.96258e-05,-0.454395,-1.31839,-0.409177,13.0173,1.15846,1.52731,-0.213125,-0.56625,1.31355,-0.335631,1.46119,0.832597,0.413763,-0.178517
720865,1,-1.57044,-0.520434,0.000172114,-2.12934,-0.00106149,1.60895,0.785665,-1.5708,-0.51946,4.85736e-07,-2.13124,-6.98809e-07,1.61208,0.7854,-0.000557993,0.0291908,-0.00238903,-0.884851,0.0108384,0.90753,-0.00087236,2.65471e-05,0.0294706,8.37575e-06,-0.940656,1.28796e-06,0.974981,2.99896e-05,-0.454395,-1.41757,-0.357602,13.3625,1.1136,1.68203,-0.174673,-0.562908,1.30569,-0.327978,1.48215,0.829808,0.420133,-0.178411
720866,1,-1.57045,-0.520405,0.000170157,-2.13028,-0.00105555,1.60991,0.785659,-1.5708,-0.519433,4.94198e-07,-2.13219,-6.97418e-07,1.61306,0.7854,-0.00157842,0.0309171,-0.0022423,-0.900237,0.00709996,0.919853,-0.00180228,2.68657e-05,0.027499,8.46193e-06,-0.953117,1.39096e-06,0.985323,3.03534e-05,-0.402821,-1.56833,-0.329831,13.5132,1.13558,1.67471,-0.141714,-0.55881,1.276,-0.319156,1.5251,0.827511,0.428883,-0.17836
720867,1,-1.57045,-0.520368,0.000164864,-2.13125,-0.00104891,1.61086,0.785668,-1.57079,-0.519407,5.02746e-07,-2.13316,-6.95924e-07,1.61406,0.7854,-0.000402667,0.0315079,-0.0032581,-0.914168,0.00911065,0.948699,0.00191806,2.71843e-05,0.0255274,8.54811e-06,-0.965577,1.49396e-06,0.995665,3.07172e-05,-0.430592,-1.82224,-0.254453,13.5886,1.15846,1.67471,-0.225942,-0.553895,1.22449,-0.309062,1.588,0.825609,0.439668,-0.178321
720868,1,-1.57046,-0.52034,0.000164682,-2.1322,-0.00104143,1.61183,0.785664,-1.57079,-0.519384,5.1138e-07,-2.13414,-6.94327e-07,1.61507,0.7854,-0.00323811,0.0292799,-0.00152246,-0.924875,0.00726017,0.947757,-0.000145449,2.75029e-05,0.0235559,8.63429e-06,-0.978038,1.59696e-06,1.00601,3.10811e-05,-0.303639,-1.97299,-0.282224,13.5132,1.14748,1.65548,-0.18749,-0.54834,1.16071,-0.297973,1.66152,0.823872,0.451363,-0.178283
720869,1,-1.57045,-0.52031,0.000162022,-2.13316,-0.0010361,1.61283,0.785659,-1.57079,-0.519362,5.20101e-07,-2.13513,-6.92627e-07,1.61608,0.7854,-0.00160193,0.0326662,-0.00166458,-0.927086,0.00437358,0.962458,-0.00152112,2.78215e-05,0.0215843,8.72047e-06,-0.990498,1.69996e-06,1.01635,3.14449e-05,-0.327442,-2.20309,-0.254453,13.291,1.17586,1.48153,-0.149038,-0.542574,1.09601,-0.286692,1.73497,0.822041,0.462924,-0.178272
720870,1,-1.57046,-0.520286,0.000161604,-2.13412,-0.00102434,1.61384,0.78566,-1.57079,-0.519343,5.28907e-07,-2.13613,-6.90824e-07,1.61711,0.7854,-0.00218158,0.0306625,-0.000460109,-0.937616,0.00883081,0.974855,-0.000776721,2.81401e-05,0.0196128,8.80666e-06,-1.00296,1.80297e-06,1.02669,3.18087e-05,-0.279835,-2.37766,-0.282224,12.8904,1.15297,1.14096,-0.155447,-0.537495,1.038,-0.276516,1.79921,0.819879,0.473316,-0.178286
720871,1,-1.57045,-0.520274,0.000158866,-2.13509,-0.00101492,1.61486,0.785668,-1.57079,-0.519325,5.378e-07,-2.13715,-6.88918e-07,1.61815,0.7854,0.000308854,0.0256933,-0.00403873,-0.943604,0.00765296,0.990435,0.00209313,2.84588e-05,0.0176412,8.89284e-06,-1.01542,1.90597e-06,1.03703,3.21726e-05,-0.355213,-2.40543,-0.254453,12.3706,1.12459,0.927638,-0.225942,-0.533247,0.995357,-0.267385,1.84741,0.817264,0.481533,-0.178299
720872,1,-1.57046,-0.520265,0.000160092,-2.13608,-0.00100329,1.61584,0.785669,-1.57079,-0.519309,5.46779e-07,-2.13817,-6.86909e-07,1.61919,0.7854,-0.00220695,0.0216738,-0.00174292,-0.952369,0.00668908,0.990534,0.00163278,2.87774e-05,0.0156696,8.97902e-06,-1.02788,2.00897e-06,1.04738,3.25364e-05,-0.252064,-2.40543,-0.306028,11.9223,1.09621,1.08877,-0.232351,-0.528971,0.978272,-0.257934,1.87412,0.814153,0.486686,-0.178327
720873,1,-1.57046,-0.520255,0.000160964,-2.13704,-0.000999154,1.61685,0.78568,-1.57079,-0.519296,5.55844e-07,-2.13921,-6.84797e-07,1.62025,0.7854,-0.000264873,0.0188887,-0.000797785,-0.951255,0.00788599,0.992837,0.00373338,2.9096e-05,0.0136981,9.0652e-06,-1.04034,2.11197e-06,1.05772,3.29002e-05,-0.303639,-2.40543,-0.329831,11.3749,1.14198,1.19863,-0.303762,-0.525145,0.992561,-0.249176,1.87512,0.810413,0.488195,-0.178428
720874,1,-1.57045,-0.52024,0.000164778,-2.13805,-0.000994717,1.6179,0.785681,-1.57079,-0.519284,5.64996e-07,-2.14027,-6.82582e-07,1.62132,0.7854,-0.00267762,0.0187553,-2.67288e-05,-0.962239,0.00534178,1.00301,0.00272628,2.94146e-05,0.0117265,9.15139e-06,-1.0528,2.21497e-06,1.06806,3.3264e-05,-0.327442,-2.4808,-0.357602,11.2519,1.15846,1.18582,-0.310171,-0.522676,1.03616,-0.242803,1.8495,0.805962,0.486083,-0.178683
720875,1,-1.57045,-0.520224,0.000163269,-2.13906,-0.000987456,1.61897,0.785675,-1.57079,-0.519274,5.74225e-07,-2.14133,-6.80259e-07,1.6224,0.7854,-0.0020399,0.0191764,-0.000126184,-0.999781,0.00839731,1.02513,-0.000318712,2.9712e-05,0.00947334,9.2291e-06,-1.06484,2.32335e-06,1.07762,3.36075e-05,-0.327442,-2.57999,-0.357602,11.2757,1.16945,0.954188,-0.252493,-0.521001,1.08838,-0.2383,1.8128,0.801276,0.482141,-0.17918
720876,1,-1.57046,-0.520203,0.000157476,-2.14009,-0.000975839,1.62004,0.78567,-1.57079,-0.519267,5.83532e-07,-2.14241,-6.77827e-07,1.62348,0.7854,-0.00210786,0.0206611,-0.00192863,-1.00779,0.00824749,1.03465,-0.00214525,3.00095e-05,0.00722019,9.30681e-06,-1.07688,2.43174e-06,1.08718,3.3951e-05,-0.303639,-2.73471,-0.282224,11.2519,1.1191,0.967006,-0.200308,-0.519109,1.12282,-0.23416,1.78676,0.797018,0.478661,-0.17995
720877,1,-1.57046,-0.520181,0.000162598,-2.14114,-0.000960564,1.6211,0.78568,-1.57079,-0.519262,5.92916e-07,-2.1435,-6.75287e-07,1.62458,0.7854,-0.00154858,0.0196329,0.000416527,-1.01672,0.0094435,1.03871,0.00192676,3.0307e-05,0.00496704,9.38453e-06,-1.08892,2.54012e-06,1.09674,3.42945e-05,-0.303639,-2.93704,-0.357602,11.3749,1.02846,1.108,-0.290945,-0.516916,1.13545,-0.229932,1.77273,0.793229,0.475706,-0.180931
720878,1,-1.57046,-0.520159,0.000160593,-2.14219,-0.000954982,1.62219,0.785686,-1.57079,-0.51926,6.02379e-07,-2.1446,-6.72638e-07,1.62569,0.7854,-0.00345994,0.0192228,-0.000417646,-1.02585,0.00588914,1.05545,0.00345465,3.06045e-05,0.00271389,9.46224e-06,-1.10096,2.6485e-06,1.1063,3.46381e-05,-0.204456,-3.16318,-0.329831,11.4264,1.05135,1.01828,-0.349539,-0.514793,1.13619,-0.226151,1.76082,0.78958,0.472266,-0.18205
720879,1,-1.57047,-0.520142,0.000157234,-2.14328,-0.000947102,1.62329,0.785683,-1.57079,-0.519259,6.11918e-07,-2.14571,-6.69881e-07,1.6268,0.7854,-0.00359368,0.0175319,-0.00142634,-1.0397,0.00385008,1.06974,0.00131975,3.09019e-05,0.000460737,9.53996e-06,-1.11301,2.75689e-06,1.11586,3.49816e-05,-0.152882,-3.33774,-0.282224,11.6486,1.06233,0.973414,-0.322988,-0.511589,1.13135,-0.221339,1.7462,0.785921,0.467891,-0.183345
720880,1,-1.57047,-0.520134,0.000153608,-2.14436,-0.000936456,1.6244,0.785683,-1.57079,-0.519261,6.21536e-07,-2.14684,-6.67016e-07,1.62793,0.7854,-0.00366268,0.0145758,-0.00218304,-1.05053,0.00322179,1.07821,0.00914199,3.11994e-05,-0.00179241,9.61767e-06,-1.12505,2.86527e-06,1.12542,3.53251e-05,-0.101307,-3.44089,-0.230649,11.6724,1.05135,0.895594,-0.290945,-0.506028,1.12477,-0.213691,1.72778,0.782225,0.46253,-0.184902
720881,1,-1.57047,-0.52013,0.000147856,-2.14545,-0.000926923,1.62552,0.785684,-1.57079,-0.519265,6.31232e-07,-2.14797,-6.64043e-07,1.62906,0.7854,-0.00128071,0.00607002,-0.00268107,-1.05973,0.00703558,1.08049,0.00688207,3.14969e-05,-0.00404557,9.69539e-06,-1.13709,2.97365e-06,1.13498,3.56686e-05,-0.152882,-3.54007,-0.179074,11.7478,1.05135,0.921229,-0.290945,-0.498808,1.12584,-0.203999,1.70226,0.778334,0.456037,-0.186744
720882,1,-1.57047,-0.520134,0.000152435,-2.14655,-0.000914242,1.62663,0.785682,-1.57079,-0.519271,6.41005e-07,-2.14912,-6.60961e-07,1.63021,0.7854,-0.000331013,0.0012748,-3.86071e-05,-1.06572,0.0073241,1.07985,0.00446653,3.17943e-05,-0.00629872,9.7731e-06,-1.14913,3.08204e-06,1.14454,3.60121e-05,-0.176685,-3.56784,-0.254453,11.7478,0.994585,1.16018,-0.271719,-0.492444,1.14784,-0.195618,1.66342,0.77395,0.448045,-0.188813
720883,1,-1.57047,-0.520139,0.000150068,-2.14765,-0.000907557,1.62774,0.785677,-1.57079,-0.51928,6.50855e-07,-2.15028,-6.5777e-07,1.63136,0.7854,-0.000246186,-0.000931403,-0.0031636,-1.07661,0.00938356,1.086,0.00270853,3.20918e-05,-0.00855187,9.85082e-06,-1.16117,3.19042e-06,1.1541,3.63556e-05,-0.176685,-3.64322,-0.254453,11.7994,1.01106,1.35977,-0.252493,-0.488188,1.19401,-0.190207,1.60948,0.768934,0.438607,-0.191026
720884,1,-1.57047,-0.520146,0.000149278,-2.14878,-0.000898327,1.62889,0.785682,-1.57079,-0.519291,6.60784e-07,-2.15146,-6.54471e-07,1.63253,0.7854,-0.000183257,-0.0026191,-0.00237779,-1.09123,0.0116563,1.09951,0.00403675,3.23893e-05,-0.010805,9.92853e-06,-1.17321,3.2988e-06,1.16366,3.66991e-05,-0.176685,-3.7186,-0.254453,11.8708,1.01106,1.36618,-0.303762,-0.484573,1.25448,-0.185599,1.54639,0.763435,0.428567,-0.193306
720885,1,-1.57047,-0.520149,0.000152635,-2.14994,-0.000883874,1.63003,0.785677,-1.57079,-0.519304,6.70782e-07,-2.15264,-6.51065e-07,1.6337,0.7854,-0.000136521,-0.00259243,-0.000580305,-1.11056,0.0103435,1.132,0.00151615,3.26623e-05,-0.0131922,9.99754e-06,-1.18453,3.40613e-06,1.17235,3.70161e-05,-0.176685,-3.84555,-0.306028,12.1723,0.966203,1.41745,-0.26531,-0.481385,1.31439,-0.181694,1.48413,0.757736,0.419031,-0.195595
720886,1,-1.57047,-0.520149,0.000152547,-2.15109,-0.000880676,1.63121,0.785678,-1.57079,-0.519319,6.80848e-07,-2.15384,-6.47552e-07,1.63488,0.7854,0.00110465,-0.00208689,-0.000538025,-1.11845,0.00652788,1.14684,0.000485548,3.29353e-05,-0.0155794,1.00666e-05,-1.19585,3.51346e-06,1.18104,3.73331e-05,-0.22826,-3.99631,-0.306028,12.2953,0.994585,1.40463,-0.246084,-0.479809,1.36226,-0.180454,1.42943,0.75204,0.410551,-0.197865
720887,1,-1.57047,-0.520152,0.000150847,-2.15229,-0.000876541,1.6324,0.785678,-1.57079,-0.519337,6.90984e-07,-2.15505,-6.43931e-07,1.63607,0.7854,0.000728361,-0.00238156,-0.00102886,-1.13967,0.0080695,1.15855,0.00117592,3.32083e-05,-0.0179665,1.01356e-05,-1.20717,3.62079e-06,1.18973,3.765e-05,-0.22826,-4.12326,-0.282224,12.815,1.03395,1.35336,-0.26531,-0.479686,1.39208,-0.181606,1.38557,0.746436,0.403485,-0.200073
720888,1,-1.57046,-0.520156,0.000151019,-2.15348,-0.000874273,1.63358,0.785683,-1.57079,-0.519358,7.01188e-07,-2.15626,-6.40203e-07,1.63727,0.7854,0.00103633,-0.00261876,-0.00142055,-1.15733,0.00489803,1.17284,0.00183849,3.34813e-05,-0.0203537,1.02046e-05,-1.21848,3.72812e-06,1.19842,3.7967e-05,-0.252064,-4.25021,-0.254453,13.291,1.06783,1.29476,-0.290945,-0.47984,1.39833,-0.183349,1.35845,0.741101,0.398588,-0.202173
720889,1,-1.57047,-0.520152,0.000153215,-2.15471,-0.000875984,1.63478,0.785683,-1.57079,-0.51938,7.11462e-07,-2.15749,-6.36367e-07,1.63847,0.7854,-0.000427276,-0.00194892,0.000195626,-1.17706,0.00153932,1.17835,0.000829771,3.37543e-05,-0.0227409,1.02736e-05,-1.2298,3.83545e-06,1.2071,3.8284e-05,-0.204456,-4.55173,-0.306028,13.8108,1.13008,1.28836,-0.278127,-0.479595,1.37658,-0.18478,1.35395,0.736263,0.396442,-0.204154
720890,1,-1.57046,-0.520167,0.00015274,-2.15597,-0.000865457,1.63596,0.785678,-1.57079,-0.519406,7.21804e-07,-2.15873,-6.32425e-07,1.63969,0.7854,0.000268556,-0.00766514,8.25908e-05,-1.20104,0.00332597,1.18176,0.000137585,3.40273e-05,-0.0251281,1.03426e-05,-1.24112,3.94278e-06,1.21579,3.8601e-05,-0.22826,-4.6033,-0.306028,14.509,1.07973,1.5209,-0.26531,-0.479149,1.32769,-0.186338,1.37543,0.732088,0.397373,-0.206029
720891,1,-1.57046,-0.520174,0.000152582,-2.15721,-0.000859906,1.63714,0.785679,-1.57079,-0.519433,7.32216e-07,-2.15999,-6.28374e-07,1.64091,0.7854,0.00249653,-0.0081196,1.91907e-05,-1.21486,0.00278078,1.18064,-0.000338652,3.43004e-05,-0.0275153,1.04116e-05,-1.25244,4.05011e-06,1.22448,3.8918e-05,-0.327442,-4.80563,-0.306028,14.7788,1.07332,1.7333,-0.252493,-0.479299,1.25819,-0.188954,1.42244,0.728578,0.401476,-0.20781
720892,1,-1.57046,-0.520183,0.000150859,-2.15846,-0.000858293,1.63835,0.785672,-1.57079,-0.519463,7.42697e-07,-2.16125,-6.24217e-07,1.64215,0.7854,0.00286887,-0.00912271,-0.000570921,-1.21898,0.00209843,1.1878,-0.00165057,3.45734e-05,-0.0299024,1.04806e-05,-1.26375,4.15744e-06,1.23317,3.9235e-05,-0.379017,-4.98416,-0.282224,14.8819,1.07332,1.81661,-0.213125,-0.480625,1.17835,-0.192919,1.4863,0.72547,0.408,-0.20949
720893,1,-1.57045,-0.520196,0.000156131,-2.15972,-0.000846421,1.63955,0.785673,-1.57079,-0.519495,7.53246e-07,-2.16253,-6.19952e-07,1.64339,0.785401,0.00246795,-0.0112084,0.00136245,-1.24692,0.00429506,1.19173,-0.000600722,3.48464e-05,-0.0322896,1.05496e-05,-1.27507,4.26477e-06,1.24186,3.95519e-05,-0.402821,-5.10715,-0.357602,14.6558,1.00008,1.99057,-0.225942,-0.483175,1.09418,-0.198068,1.56019,0.722554,0.41642,-0.211042
720894,1,-1.57045,-0.520219,0.000152506,-2.16095,-0.000833275,1.64076,0.785677,-1.57079,-0.51953,7.63865e-07,-2.16381,-6.1558e-07,1.64464,0.785401,0.00164422,-0.0117468,-0.00031326,-1.24134,0.00696823,1.195,0.00107629,3.51194e-05,-0.0346768,1.06186e-05,-1.28639,4.3721e-06,1.25054,3.98689e-05,-0.402821,-5.13492,-0.306028,14.1837,0.892961,2.14529,-0.26531,-0.486388,1.00874,-0.203641,1.64066,0.719704,0.426664,-0.212435
720895,1,-1.57045,-0.520239,0.000157794,-2.16222,-0.000819593,1.64201,0.785673,-1.57079,-0.519567,7.74544e-07,-2.16511,-6.11106e-07,1.6459,0.785401,0.00174496,-0.0165733,0.00154305,-1.24255,0.0081056,1.19955,-0.000489148,3.53653e-05,-0.0370744,1.06788e-05,-1.29675,4.47425e-06,1.2583,4.01554e-05,-0.430592,-5.2341,-0.381406,13.7116,0.802324,2.10043,-0.232351,-0.489435,0.936546,-0.20838,1.712,0.716443,0.437406,-0.213694
720896,1,-1.57045,-0.520268,0.000159742,-2.16348,-0.000811388,1.64327,0.78567,-1.57079,-0.519606,7.85283e-07,-2.16642,-6.06529e-07,1.64716,0.785401,0.0011627,-0.0223959,0.0016698,-1.25282,0.0103824,1.2269,-0.00150237,3.56112e-05,-0.039472,1.07389e-05,-1.30711,4.5764e-06,1.26606,4.04419e-05,-0.430592,-5.2341,-0.409177,13.3625,0.796831,1.68844,-0.200308,-0.492568,0.894363,-0.212663,1.7584,0.71226,0.447191,-0.214877
720897,1,-1.57045,-0.520291,0.000157793,-2.16478,-0.00081056,1.64456,0.785674,-1.57079,-0.519648,7.96082e-07,-2.16773,-6.01851e-07,1.64844,0.785401,0.000774677,-0.0240058,0.000457202,-1.25373,0.00360727,1.23875,0.000430465,3.58571e-05,-0.0418696,1.07991e-05,-1.31747,4.67854e-06,1.27382,4.07284e-05,-0.430592,-5.33725,-0.381406,13.3902,0.898454,1.2499,-0.23876,-0.495484,0.886579,-0.216176,1.77561,0.706998,0.455308,-0.216001
720898,1,-1.57045,-0.520316,0.000161412,-2.16608,-0.000816549,1.64583,0.785677,-1.57079,-0.519693,8.06941e-07,-2.16906,-5.9707e-07,1.64972,0.785401,-0.000133503,-0.0275199,0.00150644,-1.26525,-0.00166611,1.25477,0.00127624,3.6103e-05,-0.0442672,1.08592e-05,-1.32782,4.78069e-06,1.28158,4.10149e-05,-0.402821,-5.48801,-0.432981,13.291,1.01747,1.07595,-0.26531,-0.497065,0.908598,-0.217463,1.76516,0.700775,0.461113,-0.217037
720899,1,-1.57045,-0.520336,0.000163083,-2.1674,-0.000818427,1.64708,0.785671,-1.57079,-0.519739,8.1786e-07,-2.1704,-5.92187e-07,1.65101,0.785401,0.000560356,-0.0247985,0.00155751,-1.27769,-0.00441827,1.25107,-0.00107751,3.6349e-05,-0.0466648,1.09194e-05,-1.33818,4.88284e-06,1.28934,4.13014e-05,-0.430592,-5.74191,-0.456784,13.4616,1.1136,1.19223,-0.213125,-0.497522,0.946277,-0.217015,1.73711,0.693977,0.464716,-0.217977
720900,1,-1.57044,-0.520362,0.000165213,-2.16873,-0.000817891,1.64835,0.785676,-1.57079,-0.519788,8.2884e-07,-2.17175,-5.87202e-07,1.65231,0.785401,0.00445667,-0.0242332,0.00103565,-1.2901,-0.00462083,1.25327,0.000743049,3.65949e-05,-0.0490624,1.09795e-05,-1.34854,4.98499e-06,1.2971,4.1588e-05,-0.605152,-5.94424,-0.456784,13.4894,1.16396,1.34054,-0.252493,-0.498423,0.979957,-0.216842,1.70608,0.687096,0.467039,-0.218811
720901,1,-1.57043,-0.520389,0.000165923,-2.17005,-0.000816458,1.64962,0.785679,-1.57079,-0.51984,8.3988e-07,-2.17311,-5.82115e-07,1.65361,0.785401,0.0047342,-0.0238322,0.000688413,-1.30388,-0.00314177,1.26496,0.000735222,3.68408e-05,-0.05146,1.10397e-05,-1.3589,5.08714e-06,1.30486,4.18745e-05,-0.680531,-6.14658,-0.456784,13.4894,1.16945,1.35336,-0.258901,-0.501252,0.996899,-0.218511,1.68164,0.680541,0.468879,-0.219528
720902,1,-1.57043,-0.520426,0.00017145,-2.1714,-0.000803265,1.65092,0.785677,-1.57079,-0.519894,8.50979e-07,-2.17448,-5.76926e-07,1.65492,0.785401,0.00315603,-0.0254234,0.00222066,-1.31155,0.00218289,1.2693,-0.000728683,3.70867e-05,-0.0538576,1.10998e-05,-1.36926,5.18929e-06,1.31262,4.2161e-05,-0.680531,-6.27353,-0.532163,13.4894,1.05684,1.37899,-0.225942,-0.506045,0.995654,-0.221963,1.66543,0.674574,0.470468,-0.220167
720903,1,-1.57043,-0.520474,0.000169398,-2.17276,-0.00078544,1.65223,0.785677,-1.57079,-0.51995,8.62139e-07,-2.17586,-5.71635e-07,1.65624,0.785401,0.0003407,-0.0344118,0.00147931,-1.31696,0.00740142,1.29592,0.00049896,3.73326e-05,-0.0562552,1.116e-05,-1.37962,5.29144e-06,1.32037,4.24475e-05,-0.605152,-6.19418,-0.532163,13.537,0.898454,1.41745,-0.252493,-0.511358,0.989169,-0.225545,1.64915,0.669162,0.471095,-0.2208
720904,1,-1.57043,-0.520529,0.000170845,-2.17411,-0.00077275,1.65355,0.785685,-1.57079,-0.520009,8.7336e-07,-2.17725,-5.66241e-07,1.65757,0.785401,0.000876687,-0.0416715,0.000985352,-1.32935,0.00919893,1.30614,0.003182,3.75785e-05,-0.0586528,1.12202e-05,-1.38998,5.39358e-06,1.32813,4.2734e-05,-0.632923,-6.0712,-0.532163,13.6124,0.784929,1.18582,-0.329397,-0.515516,0.997172,-0.227203,1.62164,0.664037,0.469773,-0.221485
720905,1,-1.57043,-0.520577,0.000171327,-2.17549,-0.000757585,1.65489,0.785695,-1.57079,-0.520069,8.84631e-07,-2.17864,-5.60753e-07,1.65891,0.785401,-6.52016e-05,-0.0433562,0.000656263,-1.33621,0.0137587,1.31221,0.00476698,3.77953e-05,-0.060955,1.12714e-05,-1.3992,5.4877e-06,1.33492,4.29873e-05,-0.605152,-6.095,-0.532163,13.787,0.706194,1.08236,-0.400808,-0.518077,1.02611,-0.226349,1.58088,0.658846,0.466476,-0.222277
720906,1,-1.57043,-0.520624,0.000168147,-2.17686,-0.000757192,1.6562,0.785701,-1.57079,-0.520133,8.95953e-07,-2.18005,-5.55171e-07,1.66025,0.785401,0.000606112,-0.046552,-0.000676595,-1.34927,0.0114828,1.31126,0.00463664,3.8012e-05,-0.0632572,1.13226e-05,-1.40842,5.58182e-06,1.34172,4.32406e-05,-0.632923,-6.17038,-0.484555,13.8623,0.779436,1.13455,-0.440176,-0.519152,1.06856,-0.223062,1.53236,0.653272,0.461804,-0.223275
720907,1,-1.57044,-0.520659,0.000169871,-2.17826,-0.000763725,1.65755,0.785706,-1.57079,-0.520198,9.07327e-07,-2.18147,-5.49496e-07,1.6616,0.785401,-0.00135919,-0.0406583,0.000105389,-1.36402,0.00779931,1.31657,0.00356626,3.82287e-05,-0.0655594,1.13738e-05,-1.41765,5.67593e-06,1.34851,4.3494e-05,-0.557545,-6.47189,-0.508359,14.0329,0.921343,1.09518,-0.452993,-0.51862,1.10819,-0.217237,1.48691,0.647267,0.456746,-0.224594
720908,1,-1.57044,-0.5207,0.000173508,-2.1797,-0.000765504,1.65892,0.785697,-1.57079,-0.520266,9.18752e-07,-2.1829,-5.43725e-07,1.66295,0.785401,-0.000906145,-0.041564,0.00127642,-1.38011,0.00130137,1.32835,-0.000741737,3.84455e-05,-0.0678616,1.1425e-05,-1.42687,5.77005e-06,1.3553,4.37473e-05,-0.557545,-6.702,-0.559934,14.5566,1.05135,1.0375,-0.368765,-0.517083,1.12586,-0.210059,1.4569,0.641107,0.452371,-0.226315
720909,1,-1.57043,-0.520749,0.000168224,-2.18114,-0.000771963,1.66026,0.785691,-1.57079,-0.520336,9.30229e-07,-2.18433,-5.37861e-07,1.66431,0.785401,0.00115913,-0.0436614,-0.000912496,-1.39794,-0.00200519,1.33518,-0.00290174,3.86622e-05,-0.0701638,1.14762e-05,-1.43609,5.86417e-06,1.36209,4.40006e-05,-0.632923,-6.87656,-0.484555,15.2033,1.14748,1.04391,-0.303762,-0.515694,1.11486,-0.203241,1.44826,0.635191,0.449132,-0.22844
