shamilmamedov/beam_handling/log/param_estimation_ICRA/ocp_Xup_25cm_0.44s_1.csv
duration, success rate, q[0], q[1], q[2], q[3], q[4], q[5], q[6],q_d[0], q_d[1], q_d[2], q_d[3], q_d[4], q_d[5], q_d[6],dq[0], dq[1], dq[2], dq[3], dq[4], dq[5], dq[6],dq_d[0], dq_d[1], dq_d[2], dq_d[3], dq_d[4], dq_d[5], dq_d[6],tau_J[0], tau_J[1], tau_J[2], tau_J[3], tau_J[4], tau_J[5], tau_J[6],tau_ext_hat_filtered[0], tau_ext_hat_filtered[1], tau_ext_hat_filtered[2], tau_ext_hat_filtered[3], tau_ext_hat_filtered[4], tau_ext_hat_filtered[5], tau_ext_hat_filtered[6]
4509592,0,-1.57034,-0.52293,0.000179908,-2.0965,1.57068,1.57158,0.785015,-1.5708,-0.523599,1.25837e-07,-2.0944,1.5708,1.5708,0.785397,-8.53355e-05,-0.000421855,0.000111347,-9.86755e-05,-0.000549586,-1.44596e-05,0.00126313,0,0,0,0,0,0,0,-0.50597,-10.0901,-0.559934,21.5152,0.81331,-0.592137,0.122873,-0.508823,-0.978376,-0.144029,2.95972,0.236194,-0.591097,0.195121
4509593,1,-1.57034,-0.52293,0.000181579,-2.0965,1.57068,1.57158,0.785013,-1.5708,-0.523599,1.25837e-07,-2.0944,1.5708,1.5708,0.785397,0.00114954,0.000275575,0.000631043,0.000491028,-0.000366391,-0.000246999,9.61037e-05,0,0,0,0,0,0,0,-0.557545,-10.1139,-0.583737,21.4914,0.81331,-0.585729,0.143015,-0.509847,-0.977302,-0.145545,2.95997,0.236239,-0.590936,0.195132
4509594,1,-1.57034,-0.522927,0.000179908,-2.0965,1.57068,1.57158,0.785012,-1.5708,-0.523599,1.25837e-07,-2.0944,1.5708,1.5708,0.785397,0.000116743,0.000740529,-0.000136116,-0.00022946,0.00016264,7.26932e-05,-0.000410649,0,0,0,0,0,0,0,-0.529774,-10.1377,-0.559934,21.5152,0.802324,-0.592137,0.155832,-0.511224,-0.977579,-0.147504,2.96074,0.236317,-0.590741,0.195139
4509595,1,-1.57034,-0.522928,0.000176289,-2.0965,1.57068,1.57158,0.78501,-1.5708,-0.523599,1.25837e-07,-2.0944,1.5708,1.5708,0.785397,-0.000478983,-6.31261e-05,-0.00129717,-0.000802587,-9.50236e-05,4.84621e-05,0.000200952,0,0,0,0,0,0,0,-0.50597,-10.1139,-0.508359,21.543,0.807817,-0.592137,0.143015,-0.511772,-0.979761,-0.148143,2.96252,0.236416,-0.59069,0.195127
4509596,1,-1.57034,-0.522924,0.000179909,-2.0965,1.57068,1.57158,0.785007,-1.5708,-0.523599,1.25837e-07,-2.0944,1.5708,1.5708,0.785397,0.00023749,0.00116434,0.000341646,0.000671368,-6.3349e-05,0.000507026,-0.00152754,0,0,0,0,0,0,0,-0.529774,-10.1654,-0.559934,21.4914,0.807817,-0.604955,0.187876,-0.511078,-0.983088,-0.146874,2.96491,0.236507,-0.59084,0.195104
4509597,1,-1.57034,-0.522927,0.00017796,-2.0965,1.57068,1.57158,0.785011,-1.5708,-0.523599,1.25837e-07,-2.0944,1.5708,1.5708,0.785397,0.000158327,-0.000430198,-0.00042185,0.000447579,0.000364668,-0.000136701,-6.89273e-05,0,0,0,0,0,0,0,-0.529774,-10.1139,-0.532163,21.4914,0.796831,-0.592137,0.162241,-0.510315,-0.986104,-0.14546,2.96677,0.236591,-0.591009,0.195096
4509598,1,-1.57034,-0.522926,0.000181579,-2.0965,1.57068,1.57158,0.785015,-1.5708,-0.523599,1.25837e-07,-2.0944,1.5708,1.5708,0.785397,-0.000451261,0.000270013,0.000925192,0.000855198,3.96617e-05,0.000146225,0.00141211,0,0,0,0,0,0,0,-0.50597,-10.1377,-0.583737,21.4676,0.802324,-0.598546,0.122873,-0.510019,-0.987229,-0.144751,2.96726,0.236651,-0.591104,0.195137
4509599,1,-1.57034,-0.522926,0.000176289,-2.0965,1.57068,1.57158,0.785009,-1.5708,-0.523599,1.25837e-07,-2.0944,1.5708,1.5708,0.785397,0.000255971,0.000180009,-0.00114644,0.000570132,0.000229892,-0.000139875,-0.00122873,0,0,0,0,0,0,0,-0.529774,-10.1377,-0.508359,21.4676,0.796831,-0.592137,0.181467,-0.509862,-0.986924,-0.144273,2.96674,0.236679,-0.591177,0.195217
4509600,1,-1.57034,-0.522928,0.000179909,-2.0965,1.57068,1.57158,0.785012,-1.5708,-0.523599,1.25837e-07,-2.0944,1.5708,1.5708,0.785397,-0.000386164,0.000120006,0.000442131,0.0009369,0.000153261,-9.32503e-05,0.00036764,0,0,0,0,0,0,0,-0.50597,-10.1377,-0.559934,21.4438,0.796831,-0.592137,0.149424,-0.509508,-0.986177,-0.143449,2.96571,0.236674,-0.591284,0.195312
4509601,1,-1.57035,-0.522928,0.000176289,-2.0965,1.57068,1.57158,0.785015,-1.5708,-0.523599,1.25837e-07,-2.0944,1.5708,1.5708,0.785397,-0.00146387,-0.000476808,-0.000911672,-0.000489024,0.000305625,-6.21669e-05,0.000991079,0,0,0,0,0,0,0,-0.454395,-10.1139,-0.508359,21.4914,0.791338,-0.592137,0.129282,-0.508645,-0.984979,-0.141917,2.96447,0.236636,-0.59146,0.195422
4509602,1,-1.57034,-0.522929,0.000176289,-2.0965,1.57068,1.57158,0.785011,-1.5708,-0.523599,1.25837e-07,-2.0944,1.5708,1.5708,0.785397,-0.0004191,-0.000874684,-0.000607781,-0.000326016,-0.000406602,-0.000278804,-0.000559984,0,0,0,0,0,0,0,-0.478199,-10.0901,-0.508359,21.4914,0.807817,-0.585729,0.162241,-0.506931,-0.98316,-0.139243,2.96337,0.236567,-0.591737,0.195536
4509603,1,-1.57034,-0.522926,0.000179909,-2.0965,1.57068,1.57158,0.785012,-1.5708,-0.523599,1.25837e-07,-2.0944,1.5708,1.5708,0.785397,-0.0002794,0.00118012,0.000801238,0.000339468,0.000339284,5.14899e-05,0.00108474,0,0,0,0,0,0,0,-0.478199,-10.1654,-0.559934,21.4676,0.791338,-0.592137,0.122873,-0.505267,-0.981801,-0.136752,2.96276,0.236508,-0.591989,0.195632
4509604,1,-1.57034,-0.52293,0.000181579,-2.0965,1.57068,1.57158,0.785011,-1.5708,-0.523599,1.25837e-07,-2.0944,1.5708,1.5708,0.785397,0.00102016,-0.000976494,0.00109097,0.000226312,-0.000180712,-0.000440391,-0.000260185,0,0,0,0,0,0,0,-0.529774,-10.0901,-0.583737,21.4676,0.802324,-0.57932,0.149424,-0.505252,-0.981503,-0.136851,2.96253,0.236514,-0.591982,0.195707
4509605,1,-1.57034,-0.522926,0.00017796,-2.0965,1.57068,1.57158,0.785009,-1.5708,-0.523599,1.25837e-07,-2.0944,1.5708,1.5708,0.785397,0.000123294,0.000462628,-0.000479112,0.000150875,8.29759e-05,-5.62352e-05,-0.00136025,0,0,0,0,0,0,0,-0.50597,-10.1377,-0.532163,21.4676,0.796831,-0.585729,0.181467,-0.506673,-0.981027,-0.139131,2.96205,0.236551,-0.591733,0.195752
4509606,1,-1.57034,-0.52293,0.000179909,-2.0965,1.57068,1.57158,0.785015,-1.5708,-0.523599,1.25837e-07,-2.0944,1.5708,1.5708,0.785397,8.21958e-05,-0.000248394,0.000330206,0.000100583,5.53173e-05,0.000437228,0.0012633,0,0,0,0,0,0,0,-0.50597,-10.1139,-0.559934,21.4676,0.796831,-0.598546,0.122873,-0.508061,-0.980646,-0.141337,2.96152,0.236575,-0.591466,0.195777
4509607,1,-1.57034,-0.52293,0.000179909,-2.0965,1.57068,1.57158,0.785011,-1.5708,-0.523599,1.25837e-07,-2.0944,1.5708,1.5708,0.785397,5.47972e-05,-0.000722408,0.000220137,-0.000489757,-0.000370023,5.41262e-05,0.000367485,0,0,0,0,0,0,0,-0.50597,-10.0901,-0.559934,21.4914,0.807817,-0.592137,0.135691,-0.50906,-0.98028,-0.143013,2.96106,0.236582,-0.591244,0.195803
4509608,1,-1.57034,-0.522926,0.000179909,-2.0965,1.57068,1.57158,0.78501,-1.5708,-0.523599,1.25837e-07,-2.0944,1.5708,1.5708,0.785397,3.65315e-05,0.000632019,0.000146758,0.000230308,0.00036367,0.000273443,-0.000738354,0,0,0,0,0,0,0,-0.50597,-10.1377,-0.559934,21.4676,0.791338,-0.598546,0.162241,-0.509892,-0.979884,-0.144513,2.9607,0.236588,-0.591042,0.195814
4509609,1,-1.57034,-0.52293,0.000176289,-2.0965,1.57068,1.57158,0.785012,-1.5708,-0.523599,1.25837e-07,-2.0944,1.5708,1.5708,0.785397,2.43543e-05,-0.000135466,-0.00110859,-0.000403274,-0.000367905,-5.50636e-05,-1.75181e-05,0,0,0,0,0,0,0,-0.50597,-10.1139,-0.508359,21.4914,0.807817,-0.592137,0.149424,-0.510118,-0.980592,-0.145093,2.96082,0.236585,-0.59095,0.195796
4509610,1,-1.57034,-0.522929,0.000174619,-2.0965,1.57068,1.57158,0.785014,-1.5708,-0.523599,1.25837e-07,-2.0944,1.5708,1.5708,0.785397,1.62362e-05,0.000466501,-0.00129587,0.000287963,0.000161631,0.00020065,0.000496948,0,0,0,0,0,0,0,-0.50597,-10.1377,-0.484555,21.4676,0.796831,-0.598546,0.135691,-0.509196,-0.982176,-0.143808,2.96124,0.236543,-0.591052,0.195768
4509611,1,-1.57034,-0.522927,0.000181579,-2.0965,1.57068,1.57158,0.78501,-1.5708,-0.523599,1.25837e-07,-2.0944,1.5708,1.5708,0.785397,1.08241e-05,0.000311001,0.00145614,-0.000921649,-0.000299147,0.000133767,-0.00112676,0,0,0,0,0,0,0,-0.50597,-10.1377,-0.583737,21.5152,0.807817,-0.598546,0.175059,-0.508008,-0.984524,-0.14206,2.96203,0.236506,-0.591217,0.195736
4509612,1,-1.57034,-0.522926,0.00017796,-2.0965,1.57068,1.57158,0.785017,-1.5708,-0.523599,1.25837e-07,-2.0944,1.5708,1.5708,0.785397,7.21609e-06,0.000207334,-0.000235668,-0.000614432,-0.000199431,0.000326537,0.00165632,0,0,0,0,0,0,0,-0.50597,-10.1377,-0.532163,21.5152,0.807817,-0.604955,0.110056,-0.507768,-0.987772,-0.141844,2.96352,0.236546,-0.591267,0.195703
4509613,1,-1.57034,-0.522926,0.000176289,-2.0965,1.57068,1.57158,0.785014,-1.5708,-0.523599,1.25837e-07,-2.0944,1.5708,1.5708,0.785397,-0.000644803,0.000138223,-0.000713924,-0.000409622,7.04963e-05,-0.000257027,0.000154779,0,0,0,0,0,0,0,-0.478199,-10.1377,-0.508359,21.5152,0.802324,-0.592137,0.135691,-0.507607,-0.991112,-0.141791,2.96527,0.236612,-0.591327,0.19567
4509614,1,-1.57034,-0.52293,0.000179909,-2.09651,1.57068,1.57158,0.785011,-1.5708,-0.523599,1.25837e-07,-2.0944,1.5708,1.5708,0.785397,-0.000429868,-0.000464664,0.000730476,-0.00147951,0.000250448,-0.000171351,-0.000880158,0,0,0,0,0,0,0,-0.478199,-10.1139,-0.559934,21.5668,0.796831,-0.592137,0.162241,-0.506924,-0.993728,-0.140983,2.96686,0.236668,-0.591468,0.19561
4509615,1,-1.57034,-0.522926,0.000176289,-2.0965,1.57068,1.57158,0.785016,-1.5708,-0.523599,1.25837e-07,-2.0944,1.5708,1.5708,0.785397,-0.000286579,0.000247036,-0.000719442,-0.000429526,-3.64852e-05,-0.000114234,0.00110865,0,0,0,0,0,0,0,-0.478199,-10.1377,-0.508359,21.543,0.802324,-0.592137,0.116465,-0.506235,-0.995611,-0.140247,2.96839,0.236732,-0.591599,0.195518
4509616,1,-1.57034,-0.522922,0.000176289,-2.0965,1.57068,1.57158,0.785013,-1.5708,-0.523599,1.25837e-07,-2.0944,1.5708,1.5708,0.785397,0.00101537,0.00137112,-0.000479628,0.000363263,0.000382578,-0.000313515,-0.000481604,0,0,0,0,0,0,0,-0.529774,-10.1892,-0.508359,21.5152,0.791338,-0.585729,0.149424,-0.5056,-0.997864,-0.139502,2.9699,0.236785,-0.591724,0.195407
4509617,1,-1.57034,-0.522926,0.000179909,-2.0965,1.57068,1.57158,0.785009,-1.5708,-0.523599,1.25837e-07,-2.0944,1.5708,1.5708,0.785397,0.000120103,-0.000292348,0.000886674,0.000242176,-0.000151849,2.83489e-05,-0.00150786,0,0,0,0,0,0,0,-0.50597,-10.1377,-0.559934,21.5152,0.802324,-0.592137,0.181467,-0.505546,-1.00032,-0.139465,2.97092,0.236819,-0.591764,0.195276
4509618,1,-1.57034,-0.522931,0.000181579,-2.0965,1.57068,1.57158,0.785011,-1.5708,-0.523599,1.25837e-07,-2.0944,1.5708,1.5708,0.785397,-0.000569545,-0.00195814,0.00114793,0.00016145,-0.000304683,0.000493617,-0.000293166,0,0,0,0,0,0,0,-0.478199,-10.0623,-0.583737,21.5152,0.807817,-0.604955,0.162241,-0.506474,-0.999492,-0.140986,2.97013,0.236823,-0.591613,0.195151
4509619,1,-1.57034,-0.522928,0.00017796,-2.0965,1.57068,1.57158,0.785011,-1.5708,-0.523599,1.25837e-07,-2.0944,1.5708,1.5708,0.785397,0.000826729,0.000457813,-0.000441141,-0.00054198,3.28258e-07,9.17192e-05,-0.000195444,0,0,0,0,0,0,0,-0.529774,-10.1377,-0.532163,21.543,0.802324,-0.598546,0.162241,-0.507745,-0.995229,-0.143158,2.96786,0.236793,-0.591369,0.195071
4509620,1,-1.57034,-0.52293,0.000176289,-2.0965,1.57068,1.57158,0.785015,-1.5708,-0.523599,1.25837e-07,-2.0944,1.5708,1.5708,0.785397,0.000551153,-0.000808415,-0.000850906,-0.00036132,0.000203669,-0.000176213,0.00132777,0,0,0,0,0,0,0,-0.529774,-10.0901,-0.508359,21.543,0.796831,-0.592137,0.122873,-0.508569,-0.991319,-0.144517,2.96606,0.236755,-0.591203,0.195047
4509621,1,-1.57034,-0.522928,0.000176289,-2.0965,1.57068,1.57158,0.785011,-1.5708,-0.523599,1.25837e-07,-2.0944,1.5708,1.5708,0.785397,0.000367435,0.000574681,-0.00056727,0.000408734,0.00013578,0.000119884,-0.000572885,0,0,0,0,0,0,0,-0.529774,-10.1377,-0.508359,21.5152,0.796831,-0.598546,0.162241,-0.508661,-0.988717,-0.144509,2.96499,0.236698,-0.591177,0.195059
4509622,1,-1.57034,-0.522927,0.00017796,-2.0965,1.57068,1.57158,0.785011,-1.5708,-0.523599,1.25837e-07,-2.0944,1.5708,1.5708,0.785397,-0.000961468,0.00038312,0.000178632,-0.000377125,-0.000112931,-0.000157436,-0.000381923,0,0,0,0,0,0,0,-0.478199,-10.1377,-0.532163,21.543,0.802324,-0.592137,0.162241,-0.50818,-0.987731,-0.143554,2.96458,0.236634,-0.591273,0.195082
4509623,1,-1.57034,-0.522928,0.00017796,-2.0965,1.57068,1.57158,0.78501,-1.5708,-0.523599,1.25837e-07,-2.0944,1.5708,1.5708,0.785397,8.63425e-06,-0.000301398,0.000119088,-0.000251417,-7.52872e-05,0.000132401,-0.000729333,0,0,0,0,0,0,0,-0.50597,-10.1139,-0.532163,21.543,0.802324,-0.598546,0.175059,-0.507493,-0.988204,-0.142386,2.96498,0.236595,-0.591427,0.195116
4509624,1,-1.57034,-0.522929,0.000176289,-2.09651,1.57068,1.57158,0.785017,-1.5708,-0.523599,1.25837e-07,-2.0944,1.5708,1.5708,0.785397,0.00121218,-0.000757744,-0.00047742,-0.000724423,-5.01915e-05,-0.00038645,0.00192128,0,0,0,0,0,0,0,-0.557545,-10.0901,-0.508359,21.5668,0.802324,-0.585729,0.110056,-0.507168,-0.98819,-0.141717,2.96548,0.236571,-0.591523,0.195182
4509625,1,-1.57034,-0.522931,0.000183528,-2.0965,1.57068,1.57158,0.785016,-1.5708,-0.523599,1.25837e-07,-2.0944,1.5708,1.5708,0.785397,-0.00104792,-0.000505163,0.00209457,7.38633e-05,-3.3461e-05,-2.02746e-05,0.00104349,0,0,0,0,0,0,0,-0.478199,-10.0901,-0.611508,21.543,0.802324,-0.592137,0.116465,-0.507722,-0.986806,-0.142308,2.96563,0.236564,-0.591471,0.195273
4509626,1,-1.57034,-0.52293,0.00017796,-2.0965,1.57068,1.57158,0.785007,-1.5708,-0.523599,1.25837e-07,-2.0944,1.5708,1.5708,0.785397,-4.89986e-05,0.000220037,-0.000459659,0.000698856,-2.23073e-05,0.000223843,-0.00242391,0,0,0,0,0,0,0,-0.50597,-10.1139,-0.532163,21.5152,0.802324,-0.598546,0.200693,-0.508767,-0.984735,-0.143796,2.96533,0.236568,-0.591337,0.195338
4509627,1,-1.57034,-0.522932,0.000179909,-2.0965,1.57068,1.57158,0.785013,-1.5708,-0.523599,1.25837e-07,-2.0944,1.5708,1.5708,0.785397,-3.26657e-05,-0.000410121,0.000343175,-0.00018371,0.000392029,-8.81306e-05,0.000520288,0,0,0,0,0,0,0,-0.50597,-10.0901,-0.559934,21.543,0.791338,-0.592137,0.143015,-0.509428,-0.982862,-0.144775,2.96483,0.236555,-0.591262,0.195364
4509628,1,-1.57034,-0.522932,0.000179909,-2.0965,1.57068,1.57158,0.785011,-1.5708,-0.523599,1.25837e-07,-2.0944,1.5708,1.5708,0.785397,-2.17772e-05,-0.000923028,0.000228783,0.000527141,-0.000348999,0.000415964,0.000618126,0,0,0,0,0,0,0,-0.50597,-10.0623,-0.559934,21.5152,0.807817,-0.604955,0.135691,-0.50975,-0.980524,-0.145221,2.96408,0.236514,-0.591231,0.195394
4509629,1,-1.57034,-0.52293,0.00017796,-2.0965,1.57069,1.57158,0.785009,-1.5708,-0.523599,1.25837e-07,-2.0944,1.5708,1.5708,0.785397,-1.45181e-05,0.000591074,-0.000497092,0.000908239,0.000615045,-0.000197408,-0.00104598,0,0,0,0,0,0,0,-0.50597,-10.1139,-0.532163,21.4914,0.784929,-0.592137,0.175059,-0.509824,-0.977624,-0.145291,2.96291,0.23644,-0.591237,0.195434
4509630,1,-1.57034,-0.52293,0.000179909,-2.0965,1.57068,1.57158,0.785012,-1.5708,-0.523599,1.25837e-07,-2.0944,1.5708,1.5708,0.785397,-9.67874e-06,0.000394049,0.000318219,4.86808e-05,-0.00023423,0.000105753,0.000252117,0,0,0,0,0,0,0,-0.50597,-10.1139,-0.559934,21.5152,0.802324,-0.598546,0.149424,-0.509541,-0.976211,-0.144806,2.96223,0.236355,-0.591322,0.195475
4509631,1,-1.57034,-0.522927,0.000179909,-2.0965,1.57068,1.57158,0.78501,-1.5708,-0.523599,1.25837e-07,-2.0944,1.5708,1.5708,0.785397,0.000550359,0.000819512,0.000212146,0.00114608,-0.000156153,-0.000404216,-0.000781358,0,0,0,0,0,0,0,-0.529774,-10.1377,-0.559934,21.4676,0.802324,-0.585729,0.175059,-0.509446,-0.977014,-0.144614,2.96249,0.236298,-0.591412,0.19553
4509632,1,-1.57034,-0.522928,0.00017796,-2.0965,1.57068,1.57158,0.785012,-1.5708,-0.523599,1.25837e-07,-2.0944,1.5708,1.5708,0.785397,-0.000839519,0.000546341,-0.000508183,-0.000349572,-0.000104102,0.000205241,0.000428531,0,0,0,0,0,0,0,-0.478199,-10.1377,-0.532163,21.5152,0.802324,-0.598546,0.149424,-0.509374,-0.97936,-0.14449,2.96345,0.236261,-0.591518,0.195611
4509633,1,-1.57034,-0.522927,0.000179909,-2.0965,1.57068,1.57158,0.785017,-1.5708,-0.523599,1.25837e-07,-2.0944,1.5708,1.5708,0.785397,8.9934e-05,0.000364227,0.000310825,0.000880576,-6.94015e-05,-0.000337891,0.00174375,0,0,0,0,0,0,0,-0.50597,-10.1377,-0.559934,21.4676,0.802324,-0.585729,0.110056,-0.508816,-0.982423,-0.143708,2.96483,0.236227,-0.591696,0.195719
4509634,1,-1.57034,-0.522926,0.00017796,-2.0965,1.57068,1.57158,0.785015,-1.5708,-0.523599,1.25837e-07,-2.0944,1.5708,1.5708,0.785397,5.9956e-05,0.000892432,-0.000442397,0.00114386,0.000157183,1.20985e-05,0.000687782,0,0,0,0,0,0,0,-0.50597,-10.1654,-0.532163,21.4438,0.796831,-0.592137,0.122873,-0.508164,-0.985169,-0.142821,2.96585,0.236182,-0.591874,0.195829
4509635,1,-1.57034,-0.522928,0.000179909,-2.0965,1.57068,1.57158,0.785011,-1.5708,-0.523599,1.25837e-07,-2.0944,1.5708,1.5708,0.785397,3.99707e-05,-0.000611471,0.000354683,0.000762575,0.000104789,8.06565e-06,-0.000999541,0,0,0,0,0,0,0,-0.50597,-10.1139,-0.559934,21.4438,0.796831,-0.592137,0.162241,-0.507716,-0.986589,-0.142227,2.96584,0.236115,-0.591991,0.195891
4509636,1,-1.57034,-0.522928,0.00017796,-2.0965,1.57069,1.57158,0.785013,-1.5708,-0.523599,1.25837e-07,-2.0944,1.5708,1.5708,0.785397,0.000583459,-0.000407647,-0.000413159,-4.84286e-05,0.000510669,0.000242736,-0.000191643,0,0,0,0,0,0,0,-0.529774,-10.1139,-0.532163,21.4676,0.784929,-0.598546,0.149424,-0.507531,-0.985857,-0.142005,2.96482,0.236032,-0.592025,0.195889
4509637,1,-1.57034,-0.52293,0.000179909,-2.0965,1.57068,1.57158,0.785009,-1.5708,-0.523599,1.25837e-07,-2.0944,1.5708,1.5708,0.785397,0.000388973,-0.000271765,0.000374175,-3.22857e-05,-0.000507265,0.000399183,-0.000365121,0,0,0,0,0,0,0,-0.529774,-10.1139,-0.559934,21.4676,0.807817,-0.604955,0.155832,-0.507708,-0.983942,-0.142276,2.96358,0.235959,-0.591982,0.195851
4509638,1,-1.57034,-0.522927,0.00017796,-2.0965,1.57068,1.57158,0.78501,-1.5708,-0.523599,1.25837e-07,-2.0944,1.5708,1.5708,0.785397,-0.000297497,0.000375635,-0.000400164,-2.15238e-05,-0.000338177,2.8763e-05,-0.000480773,0,0,0,0,0,0,0,-0.50597,-10.1377,-0.532163,21.4676,0.807817,-0.598546,0.162241,-0.50798,-0.982702,-0.142672,2.96292,0.23591,-0.591941,0.195803
4509639,1,-1.57034,-0.522928,0.00017796,-2.0965,1.57068,1.57158,0.785015,-1.5708,-0.523599,1.25837e-07,-2.0944,1.5708,1.5708,0.785397,0.000358481,0.000250424,-0.000266776,-1.43492e-05,0.00018145,1.91754e-05,0.00113755,0,0,0,0,0,0,0,-0.529774,-10.1377,-0.532163,21.4676,0.796831,-0.598546,0.122873,-0.507936,-0.982962,-0.142574,2.96301,0.235881,-0.591984,0.195761
4509640,1,-1.57034,-0.522927,0.000179909,-2.09649,1.57068,1.57158,0.785004,-1.5708,-0.523599,1.25837e-07,-2.0944,1.5708,1.5708,0.785397,0.000238987,0.000166949,0.000471763,0.000547246,0.000120967,0.000250143,-0.00188649,0,0,0,0,0,0,0,-0.529774,-10.1377,-0.559934,21.4438,0.796831,-0.604955,0.194285,-0.507918,-0.984078,-0.142444,2.96334,0.235871,-0.592055,0.195729
4509641,1,-1.57034,-0.522928,0.00017796,-2.0965,1.57068,1.57158,0.785005,-1.5708,-0.523599,1.25837e-07,-2.0944,1.5708,1.5708,0.785397,0.000159325,-0.000445513,-0.000335105,0.000364831,8.06444e-05,-0.000545315,-0.000545585,0,0,0,0,0,0,0,-0.529774,-10.1139,-0.532163,21.4438,0.796831,-0.585729,0.175059,-0.508265,-0.984542,-0.142789,2.96307,0.235858,-0.592084,0.195711
4509642,1,-1.57034,-0.522931,0.00017796,-2.0965,1.57068,1.57158,0.785014,-1.5708,-0.523599,1.25837e-07,-2.0944,1.5708,1.5708,0.785397,0.00131264,-0.00085382,-0.000223403,-0.000870404,5.3763e-05,0.000348533,0.00156906,0,0,0,0,0,0,0,-0.581349,-10.0901,-0.532163,21.4914,0.796831,-0.604955,0.122873,-0.508832,-0.983627,-0.143303,2.96214,0.235828,-0.592078,0.195739
4509643,1,-1.57034,-0.522927,0.00017796,-2.0965,1.57068,1.57158,0.785009,-1.5708,-0.523599,1.25837e-07,-2.0944,1.5708,1.5708,0.785397,-0.000888143,0.00054441,-0.000148936,-2.34571e-05,3.5842e-05,-0.000479721,-0.000886742,0,0,0,0,0,0,0,-0.50597,-10.1377,-0.532163,21.4676,0.796831,-0.585729,0.175059,-0.50939,-0.982636,-0.14363,2.96146,0.235801,-0.592086,0.195815
4509644,1,-1.57034,-0.522929,0.000176289,-2.0965,1.57068,1.57158,0.785015,-1.5708,-0.523599,1.25837e-07,-2.0944,1.5708,1.5708,0.785397,-3.52833e-05,-0.000750684,-0.000656102,0.00119079,-0.000179556,0.000154904,0.00134162,0,0,0,0,0,0,0,-0.529774,-10.0901,-0.508359,21.416,0.802324,-0.598546,0.122873,-0.509356,-0.981965,-0.143008,2.96073,0.235746,-0.592198,0.195912
4509645,1,-1.57034,-0.522928,0.00017796,-2.0965,1.57068,1.57158,0.785015,-1.5708,-0.523599,1.25837e-07,-2.0944,1.5708,1.5708,0.785397,-0.000580334,5.63562e-05,0.00011941,-0.000412567,-0.000119704,0.000103269,0.000657053,0,0,0,0,0,0,0,-0.50597,-10.1139,-0.532163,21.4676,0.802324,-0.598546,0.129282,-0.508746,-0.980639,-0.14149,2.95926,0.235642,-0.592397,0.196016
4509646,1,-1.57034,-0.522924,0.000177778,-2.0965,1.57068,1.57158,0.785005,-1.5708,-0.523599,1.25837e-07,-2.0944,1.5708,1.5708,0.785397,0.000819536,0.001244,0.000729221,-0.000831857,0.000123648,-0.000168513,-0.0017321,0,0,0,0,0,0,0,-0.557545,-10.1654,-0.559934,21.4914,0.796831,-0.592137,0.187876,-0.508592,-0.98107,-0.140653,2.95876,0.235598,-0.592549,0.196092
4509647,1,-1.57034,-0.522927,0.000175579,-2.0965,1.57068,1.57158,0.785015,-1.5708,-0.523599,1.25837e-07,-2.0944,1.5708,1.5708,0.785397,-0.000103256,-0.000377095,-0.000720279,2.24072e-06,-0.000121019,-0.000112342,0.00149012,0,0,0,0,0,0,0,-0.529774,-10.1139,-0.508359,21.4676,0.802324,-0.592137,0.116465,-0.509189,-0.984236,-0.140888,2.95986,0.235645,-0.592618,0.196134
4509648,1,-1.57034,-0.522927,0.000176053,-2.0965,1.57068,1.57158,0.785012,-1.5708,-0.523599,1.25837e-07,-2.0944,1.5708,1.5708,0.785397,-6.88375e-05,-0.000251397,-0.000480186,-0.000555318,-8.06791e-05,-7.48946e-05,-0.000227289,0,0,0,0,0,0,0,-0.529774,-10.1139,-0.508359,21.4914,0.802324,-0.592137,0.149424,-0.509546,-0.986946,-0.140623,2.96081,0.235677,-0.592711,0.196164
4509649,1,-1.57034,-0.522926,0.00017454,-2.0965,1.57068,1.57158,0.78501,-1.5708,-0.523599,1.25837e-07,-2.0944,1.5708,1.5708,0.785397,0.000603722,0.000389214,-0.000876936,-0.000370212,0.000353115,-4.99297e-05,-0.00110096,0,0,0,0,0,0,0,-0.557545,-10.1377,-0.484555,21.4914,0.791338,-0.592137,0.175059,-0.509362,-0.988683,-0.139369,2.96134,0.235673,-0.592865,0.196172
4509650,1,-1.57034,-0.522927,0.000179882,-2.0965,1.57068,1.57158,0.785014,-1.5708,-0.523599,1.25837e-07,-2.0944,1.5708,1.5708,0.785397,-0.00145356,-0.000297336,0.00117861,-0.00080362,0.00023541,-0.000270645,0.000724088,0,0,0,0,0,0,0,-0.478199,-10.1139,-0.559934,21.5152,0.791338,-0.585729,0.135691,-0.509207,-0.990532,-0.13811,2.96203,0.23568,-0.593002,0.196165
4509651,1,-1.57034,-0.522927,0.000177951,-2.0965,1.57068,1.57158,0.785012,-1.5708,-0.523599,1.25837e-07,-2.0944,1.5708,1.5708,0.785397,-0.000969038,-0.000198224,0.000136129,-0.000535747,-0.000453412,5.69287e-05,-2.59012e-05,0,0,0,0,0,0,0,-0.478199,-10.1139,-0.532163,21.5152,0.807817,-0.592137,0.149424,-0.509209,-0.991954,-0.137333,2.96272,0.235697,-0.593091,0.196164
4509652,1,-1.57034,-0.522927,0.000179906,-2.0965,1.57068,1.57158,0.78501,-1.5708,-0.523599,1.25837e-07,-2.0944,1.5708,1.5708,0.785397,0.00121001,-0.000132149,0.000740366,-0.000357164,-0.000302274,3.79524e-05,0.000220091,0,0,0,0,0,0,0,-0.557545,-10.1139,-0.559934,21.5152,0.807817,-0.592137,0.143015,-0.509685,-0.992603,-0.137451,2.96313,0.235722,-0.593078,0.196168
4509653,1,-1.57034,-0.522929,0.000176288,-2.0965,1.57068,1.57158,0.785015,-1.5708,-0.523599,1.25837e-07,-2.0944,1.5708,1.5708,0.785397,0.000157062,-0.000644911,-0.000712848,0.000318702,1.93427e-06,2.53016e-05,0.00113007,0,0,0,0,0,0,0,-0.529774,-10.0901,-0.508359,21.4914,0.802324,-0.592137,0.116465,-0.510862,-0.992066,-0.138518,2.96283,0.235737,-0.592929,0.196167
4509654,1,-1.57034,-0.522927,0.000176289,-2.0965,1.57068,1.57158,0.785011,-1.5708,-0.523599,1.25837e-07,-2.0944,1.5708,1.5708,0.785397,-0.000452104,0.000126871,-0.000475232,-0.000344344,0.00020474,-0.000220491,-0.00094204,0,0,0,0,0,0,0,-0.50597,-10.1139,-0.508359,21.5152,0.796831,-0.585729,0.162241,-0.511671,-0.990439,-0.138896,2.96179,0.235709,-0.592812,0.196143
4509655,1,-1.57034,-0.522927,0.000179908,-2.0965,1.57068,1.57158,0.785011,-1.5708,-0.523599,1.25837e-07,-2.0944,1.5708,1.5708,0.785397,-0.000301403,8.45807e-05,0.000889604,0.000327249,0.000136493,9.03648e-05,-0.000628027,0,0,0,0,0,0,0,-0.50597,-10.1139,-0.559934,21.4914,0.796831,-0.592137,0.162241,-0.511877,-0.989077,-0.138414,2.96075,0.235667,-0.592773,0.196082
4509656,1,-1.57034,-0.522927,0.000176289,-2.0965,1.57068,1.57158,0.785016,-1.5708,-0.523599,1.25837e-07,-2.0944,1.5708,1.5708,0.785397,-0.000850548,5.63871e-05,-0.000613356,-0.00098826,-0.000112455,6.02432e-05,0.00127674,0,0,0,0,0,0,0,-0.478199,-10.1139,-0.508359,21.543,0.802324,-0.592137,0.116465,-0.51194,-0.988684,-0.1379,2.96025,0.235647,-0.59275,0.196006
4509657,1,-1.57034,-0.522924,0.000179909,-2.0965,1.57068,1.57158,0.785015,-1.5708,-0.523599,1.25837e-07,-2.0944,1.5708,1.5708,0.785397,-0.000567032,0.00124402,0.000797522,-0.00065884,0.000331931,0.00051488,0.00037644,0,0,0,0,0,0,0,-0.478199,-10.1654,-0.559934,21.543,0.791338,-0.604955,0.129282,-0.511649,-0.990298,-0.13707,2.96107,0.235664,-0.592789,0.195925
4509658,1,-1.57034,-0.52293,0.00017796,-2.0965,1.57068,1.57158,0.785011,-1.5708,-0.523599,1.25837e-07,-2.0944,1.5708,1.5708,0.785397,0.000271592,-0.000377081,-0.000117933,0.000210387,-0.000185614,-0.000131465,-0.000969743,0,0,0,0,0,0,0,-0.50597,-10.1139,-0.532163,21.5152,0.802324,-0.592137,0.162241,-0.511437,-0.993401,-0.136535,2.96277,0.235712,-0.592825,0.195816
4509659,1,-1.57034,-0.522926,0.00017796,-2.09651,1.57068,1.57158,0.785014,-1.5708,-0.523599,1.25837e-07,-2.0944,1.5708,1.5708,0.785397,0.000737873,0.000305425,-7.86219e-05,-0.00106617,-0.000123742,-8.7643e-05,0.000336849,0,0,0,0,0,0,0,-0.529774,-10.1377,-0.532163,21.5668,0.802324,-0.592137,0.135691,-0.511724,-0.995725,-0.136765,2.96415,0.235753,-0.592774,0.195679
4509660,1,-1.57034,-0.522926,0.000179909,-2.0965,1.57068,1.57158,0.785008,-1.5708,-0.523599,1.25837e-07,-2.0944,1.5708,1.5708,0.785397,-6.48965e-05,0.000203616,0.000597199,-0.000153966,0.000120956,-5.84287e-05,-0.00170821,0,0,0,0,0,0,0,-0.50597,-10.1377,-0.559934,21.543,0.796831,-0.592137,0.187876,-0.512447,-0.997436,-0.137631,2.96543,0.235797,-0.592647,0.195533
4509661,1,-1.57034,-0.522928,0.000179909,-2.0965,1.57068,1.57158,0.785011,-1.5708,-0.523599,1.25837e-07,-2.0944,1.5708,1.5708,0.785397,-4.32644e-05,-0.000421068,0.000398133,-0.000102644,0.000284088,-3.89525e-05,-0.000189374,0,0,0,0,0,0,0,-0.50597,-10.1139,-0.559934,21.543,0.791338,-0.592137,0.162241,-0.513445,-0.99835,-0.139016,2.96638,0.235837,-0.592468,0.195405
4509662,1,-1.57034,-0.522926,0.00017796,-2.0965,1.57068,1.57158,0.785014,-1.5708,-0.523599,1.25837e-07,-2.0944,1.5708,1.5708,0.785397,-2.88429e-05,0.0002761,-0.000384192,0.001138,-1.40588e-05,0.000211391,0.00180653,0,0,0,0,0,0,0,-0.50597,-10.1377,-0.532163,21.4914,0.796831,-0.598546,0.110056,-0.514201,-0.997457,-0.140135,2.96615,0.235814,-0.592308,0.19533
4509663,1,-1.57035,-0.522926,0.000179909,-2.09651,1.57068,1.57158,0.785007,-1.5708,-0.523599,1.25837e-07,-2.0944,1.5708,1.5708,0.785397,-0.00122565,0.000184067,0.000393486,-0.00100457,-0.000212823,-9.64318e-05,-0.00167786,0,0,0,0,0,0,0,-0.454395,-10.1377,-0.559934,21.5668,0.802324,-0.592137,0.187876,-0.514206,-0.99606,-0.140246,2.96544,0.235732,-0.592258,0.195299
4509664,1,-1.57034,-0.522927,0.00017796,-2.09651,1.57068,1.57158,0.785013,-1.5708,-0.523599,1.25837e-07,-2.0944,1.5708,1.5708,0.785397,-0.000260291,-0.000434101,-0.00038729,-0.000669716,-0.000141882,-6.42879e-05,0.000542938,0,0,0,0,0,0,0,-0.478199,-10.1139,-0.532163,21.5668,0.802324,-0.592137,0.143015,-0.51345,-0.995369,-0.139438,2.96546,0.23565,-0.592324,0.195282
4509665,1,-1.57034,-0.522929,0.000179909,-2.0965,1.57068,1.57158,0.785017,-1.5708,-0.523599,1.25837e-07,-2.0944,1.5708,1.5708,0.785397,0.0010329,-0.000846212,0.000391421,0.000110335,-0.000501489,-4.28586e-05,0.00158266,0,0,0,0,0,0,0,-0.529774,-10.0901,-0.559934,21.543,0.81331,-0.592137,0.110056,-0.512743,-0.993961,-0.138798,2.96559,0.235576,-0.592361,0.195288
4509666,1,-1.57034,-0.522928,0.000179909,-2.0965,1.57068,1.57158,0.78501,-1.5708,-0.523599,1.25837e-07,-2.0944,1.5708,1.5708,0.785397,-0.000517826,0.000549482,0.000260947,0.00127998,7.2575e-05,-2.85724e-05,-0.00111503,0,0,0,0,0,0,0,-0.478199,-10.1377,-0.559934,21.4914,0.802324,-0.592137,0.16865,-0.512708,-0.991108,-0.139163,2.96478,0.235496,-0.592279,0.195307
4509667,1,-1.57034,-0.522928,0.00017796,-2.0965,1.57068,1.57158,0.785015,-1.5708,-0.523599,1.25837e-07,-2.0944,1.5708,1.5708,0.785397,-0.000345218,-0.00019049,-0.000475649,-0.000353104,0.000251834,-1.90483e-05,0.000952067,0,0,0,0,0,0,0,-0.478199,-10.1139,-0.532163,21.543,0.796831,-0.592137,0.122873,-0.51258,-0.98843,-0.139474,2.96363,0.235416,-0.592211,0.195304
4509668,1,-1.57034,-0.522928,0.00017796,-2.0965,1.57068,1.57158,0.785013,-1.5708,-0.523599,1.25837e-07,-2.0944,1.5708,1.5708,0.785397,0.00097628,-0.000126994,-0.000317099,0.000971023,-3.55613e-05,0.00022466,-0.000111274,0,0,0,0,0,0,0,-0.529774,-10.1139,-0.532163,21.4914,0.802324,-0.598546,0.143015,-0.511976,-0.986298,-0.139087,2.96263,0.235337,-0.592215,0.195276
4509669,1,-1.57034,-0.522929,0.00017796,-2.0965,1.57068,1.57158,0.78501,-1.5708,-0.523599,1.25837e-07,-2.0944,1.5708,1.5708,0.785397,0.000650853,-0.000641474,-0.0002114,9.05367e-05,-0.000227158,-8.75855e-05,-0.00126098,0,0,0,0,0,0,0,-0.529774,-10.0901,-0.532163,21.5152,0.807817,-0.592137,0.175059,-0.511602,-0.983664,-0.138911,2.96139,0.235263,-0.59218,0.195223
4509670,1,-1.57034,-0.522931,0.000179909,-2.0965,1.57068,1.57158,0.785012,-1.5708,-0.523599,1.25837e-07,-2.0944,1.5708,1.5708,0.785397,0.000433902,-0.00107726,0.000508681,6.03578e-05,0.000255462,-5.83904e-05,-0.000128575,0,0,0,0,0,0,0,-0.529774,-10.0623,-0.559934,21.5152,0.796831,-0.592137,0.155832,-0.511826,-0.979957,-0.139528,2.95978,0.235209,-0.592047,0.195158
4509671,1,-1.57034,-0.522927,0.000176289,-2.0965,1.57068,1.57158,0.785014,-1.5708,-0.523599,1.25837e-07,-2.0944,1.5708,1.5708,0.785397,0.000289268,0.00048825,-0.000867305,0.000597051,0.000170308,-3.89269e-05,0.000660269,0,0,0,0,0,0,0,-0.529774,-10.1139,-0.508359,21.4914,0.796831,-0.592137,0.135691,-0.512235,-0.976168,-0.140359,2.95831,0.235178,-0.591893,0.195112
4509672,1,-1.57034,-0.522929,0.00017796,-2.0965,1.57068,1.57158,0.785009,-1.5708,-0.523599,1.25837e-07,-2.0944,1.5708,1.5708,0.785397,-0.000363966,-0.000231312,-2.13916e-05,0.000398034,-0.000496813,-2.59513e-05,-0.00125524,0,0,0,0,0,0,0,-0.50597,-10.0901,-0.532163,21.4914,0.81331,-0.592137,0.181467,-0.512133,-0.973866,-0.140336,2.95744,0.235151,-0.591848,0.19509
4509673,1,-1.57034,-0.522926,0.000179909,-2.0965,1.57068,1.57158,0.785013,-1.5708,-0.523599,1.25837e-07,-2.0944,1.5708,1.5708,0.785397,0.000314168,0.000959416,0.000635353,-0.000291456,7.56925e-05,-1.73008e-05,0.000349967,0,0,0,0,0,0,0,-0.529774,-10.1377,-0.559934,21.5152,0.802324,-0.592137,0.149424,-0.511871,-0.97378,-0.140065,2.95764,0.235166,-0.591864,0.195089
4509674,1,-1.57034,-0.522927,0.000181579,-2.0965,1.57068,1.57158,0.785015,-1.5708,-0.523599,1.25837e-07,-2.0944,1.5708,1.5708,0.785397,-0.00099698,8.27987e-05,0.000980381,0.000362508,0.000457363,0.000225825,0.000979296,0,0,0,0,0,0,0,-0.478199,-10.1139,-0.583737,21.4914,0.791338,-0.598546,0.129282,-0.512101,-0.975848,-0.140652,2.95902,0.23526,-0.591839,0.19512
4509675,1,-1.57034,-0.52293,0.00017796,-2.0965,1.57068,1.57158,0.785012,-1.5708,-0.523599,1.25837e-07,-2.0944,1.5708,1.5708,0.785397,-0.000664653,5.51992e-05,-0.000552839,0.0013553,-0.000305443,-8.68089e-05,-0.00033048,0,0,0,0,0,0,0,-0.478199,-10.1139,-0.532163,21.4438,0.807817,-0.592137,0.155832,-0.512159,-0.977938,-0.141134,2.96018,0.235352,-0.591845,0.195173
4509676,1,-1.57034,-0.522929,0.000179909,-2.0965,1.57068,1.57158,0.785013,-1.5708,-0.523599,1.25837e-07,-2.0944,1.5708,1.5708,0.785397,0.000206511,0.000593611,0.000281055,0.000903531,-0.000203629,0.000179486,0.000254398,0,0,0,0,0,0,0,-0.50597,-10.1377,-0.559934,21.4438,0.807817,-0.598546,0.143015,-0.511615,-0.978842,-0.140744,2.96022,0.23538,-0.591934,0.195225
4509677,1,-1.57034,-0.522929,0.000179909,-2.0965,1.57068,1.57158,0.785013,-1.5708,-0.523599,1.25837e-07,-2.0944,1.5708,1.5708,0.785397,-0.000511939,0.000395741,0.00018737,4.55417e-05,6.7698e-05,-0.000117701,-6.77603e-05,0,0,0,0,0,0,0,-0.478199,-10.1377,-0.559934,21.4676,0.802324,-0.592137,0.149424,-0.511052,-0.979989,-0.14033,2.96014,0.235408,-0.59203,0.195268
4509678,1,-1.57034,-0.522928,0.00017796,-2.0965,1.57068,1.57158,0.78501,-1.5708,-0.523599,1.25837e-07,-2.0944,1.5708,1.5708,0.785397,0.00030832,-0.000292985,-0.000524701,0.00123679,0.000248583,0.000158891,-0.000994609,0,0,0,0,0,0,0,-0.50597,-10.1139,-0.532163,21.416,0.796831,-0.598546,0.175059,-0.510526,-0.981111,-0.139997,2.96004,0.235449,-0.592114,0.195299
4509679,1,-1.57034,-0.522928,0.000181579,-2.0965,1.57068,1.57158,0.785017,-1.5708,-0.523599,1.25837e-07,-2.0944,1.5708,1.5708,0.785397,0.000762359,-0.000195323,0.000856625,-0.000381901,-0.000241179,-0.00036879,0.00174442,0,0,0,0,0,0,0,-0.529774,-10.1139,-0.583737,21.4676,0.807817,-0.585729,0.110056,-0.51032,-0.981007,-0.140099,2.95937,0.235487,-0.592131,0.195333
4509680,1,-1.57034,-0.522926,0.000176289,-2.0965,1.57068,1.57158,0.785015,-1.5708,-0.523599,1.25837e-07,-2.0944,1.5708,1.5708,0.785397,0.000508239,0.000426597,-0.00119215,-0.000254601,4.26643e-05,0.000228858,0.000450873,0,0,0,0,0,0,0,-0.529774,-10.1377,-0.508359,21.4676,0.802324,-0.598546,0.129282,-0.510636,-0.98102,-0.140893,2.95906,0.235558,-0.592066,0.195367
4509681,1,-1.57034,-0.522927,0.000179909,-2.0965,1.57068,1.57158,0.785008,-1.5708,-0.523599,1.25837e-07,-2.0944,1.5708,1.5708,0.785397,0.000338826,-0.000272414,0.000411656,0.000387078,2.84429e-05,-0.000322146,-0.00186956,0,0,0,0,0,0,0,-0.529774,-10.1139,-0.559934,21.4438,0.802324,-0.585729,0.187876,-0.510861,-0.981883,-0.14143,2.95935,0.23565,-0.592023,0.195368
4509682,1,-1.57034,-0.522924,0.00017796,-2.0965,1.57068,1.57158,0.785013,-1.5708,-0.523599,1.25837e-07,-2.0944,1.5708,1.5708,0.785397,0.000225884,0.00102482,-0.000375176,0.000258052,0.000425863,2.25949e-05,0.000415141,0,0,0,0,0,0,0,-0.529774,-10.1654,-0.532163,21.4438,0.791338,-0.592137,0.143015,-0.511,-0.983124,-0.141751,2.95963,0.235743,-0.592,0.195337
4509683,1,-1.57034,-0.522927,0.000179909,-2.0965,1.57068,1.57158,0.785013,-1.5708,-0.523599,1.25837e-07,-2.0944,1.5708,1.5708,0.785397,-0.000406223,-0.000523215,0.000399496,-0.000941589,-0.000122992,0.000489781,3.9402e-05,0,0,0,0,0,0,0,-0.50597,-10.1139,-0.559934,21.4914,0.802324,-0.604955,0.149424,-0.511082,-0.985082,-0.141987,2.96021,0.235846,-0.591996,0.19531
4509684,1,-1.57034,-0.522926,0.000181579,-2.0965,1.57068,1.57158,0.785013,-1.5708,-0.523599,1.25837e-07,-2.0944,1.5708,1.5708,0.785397,-0.000270815,0.000208002,0.000823143,-0.00118454,0.000121456,8.91618e-05,0.000263627,0,0,0,0,0,0,0,-0.50597,-10.1377,-0.583737,21.5152,0.796831,-0.598546,0.143015,-0.511177,-0.987462,-0.142365,2.96143,0.235976,-0.592,0.195296
4509685,1,-1.57034,-0.522924,0.00017796,-2.0965,1.57068,1.57158,0.785006,-1.5708,-0.523599,1.25837e-07,-2.0944,1.5708,1.5708,0.785397,0.000376269,0.000788282,-0.000657664,-0.00023288,8.09704e-05,-0.000415277,-0.00101104,0,0,0,0,0,0,0,-0.529774,-10.1654,-0.532163,21.4914,0.796831,-0.585729,0.175059,-0.511403,-0.990564,-0.143005,2.96333,0.236127,-0.592,0.195286
4509686,1,-1.57034,-0.522926,0.000176289,-2.0965,1.57068,1.57158,0.785013,-1.5708,-0.523599,1.25837e-07,-2.0944,1.5708,1.5708,0.785397,-0.000305966,-0.000124093,-0.000995255,0.000401559,-0.000352921,-3.94922e-05,0.000784033,0,0,0,0,0,0,0,-0.50597,-10.1377,-0.508359,21.4676,0.807817,-0.592137,0.135691,-0.511073,-0.99385,-0.142658,2.965,0.236222,-0.592097,0.195286
4509687,1,-1.57034,-0.52293,0.000176289,-2.0965,1.57068,1.57158,0.785009,-1.5708,-0.523599,1.25837e-07,-2.0944,1.5708,1.5708,0.785397,-0.000203977,-0.00063954,-0.000663503,0.000267706,-3.183e-05,-2.63281e-05,-0.00117273,0,0,0,0,0,0,0,-0.50597,-10.1139,-0.508359,21.4676,0.802324,-0.592137,0.181467,-0.509825,-0.994928,-0.14075,2.96505,0.236205,-0.59231,0.195309
4509688,1,-1.57034,-0.522928,0.000176289,-2.0965,1.57068,1.57158,0.785011,-1.5708,-0.523599,1.25837e-07,-2.0944,1.5708,1.5708,0.785397,-0.000135985,-0.00042636,-0.000442335,0.00017847,-2.122e-05,-1.75521e-05,-6.97447e-05,0,0,0,0,0,0,0,-0.50597,-10.1139,-0.508359,21.4676,0.802324,-0.592137,0.162241,-0.508226,-0.993253,-0.138213,2.96347,0.236114,-0.59254,0.195358
4509689,1,-1.57034,-0.522928,0.00017796,-2.0965,1.57068,1.57158,0.785015,-1.5708,-0.523599,1.25837e-07,-2.0944,1.5708,1.5708,0.785397,-9.06567e-05,-0.00028424,0.000261922,0.00011898,-1.41467e-05,0.000225658,0.00117421,0,0,0,0,0,0,0,-0.50597,-10.1139,-0.532163,21.4676,0.802324,-0.598546,0.129282,-0.507017,-0.990335,-0.136225,2.96119,0.236017,-0.592692,0.195446
4509690,1,-1.57034,-0.522928,0.000176289,-2.0965,1.57068,1.57158,0.785008,-1.5708,-0.523599,1.25837e-07,-2.0944,1.5708,1.5708,0.785397,-6.04378e-05,-0.000189493,-0.000382197,-0.00224073,0.000194019,-8.69206e-05,-0.00138733,0,0,0,0,0,0,0,-0.50597,-10.1139,-0.508359,21.5668,0.796831,-0.592137,0.187876,-0.506414,-0.988296,-0.135161,2.95974,0.235981,-0.592757,0.195561
4509691,1,-1.57034,-0.522927,0.000176289,-2.0965,1.57068,1.57158,0.785015,-1.5708,-0.523599,1.25837e-07,-2.0944,1.5708,1.5708,0.785397,-4.02918e-05,-0.000126329,-0.000254798,-0.000287394,-0.000277555,-5.7947e-05,0.00124525,0,0,0,0,0,0,0,-0.50597,-10.1139,-0.508359,21.5152,0.807817,-0.592137,0.129282,-0.506092,-0.98818,-0.134501,2.95996,0.23602,-0.592794,0.195685
4509692,1,-1.57034,-0.522926,0.000179909,-2.0965,1.57068,1.57158,0.785016,-1.5708,-0.523599,1.25837e-07,-2.0944,1.5708,1.5708,0.785397,-2.68612e-05,0.000472593,0.00103656,-0.00084121,0.000221865,0.000198728,0.00130488,0,0,0,0,0,0,0,-0.50597,-10.1377,-0.559934,21.543,0.796831,-0.598546,0.116465,-0.506217,-0.989417,-0.134515,2.96107,0.236105,-0.592778,0.19582
4509693,1,-1.57034,-0.522927,0.000181579,-2.0965,1.57068,1.57158,0.785013,-1.5708,-0.523599,1.25837e-07,-2.0944,1.5708,1.5708,0.785397,-1.79075e-05,-0.00024175,0.00124785,-0.000560807,0.00014791,-0.000104874,-0.00035078,0,0,0,0,0,0,0,-0.50597,-10.1139,-0.583737,21.543,0.796831,-0.592137,0.149424,-0.507408,-0.991319,-0.136247,2.96248,0.236238,-0.592614,0.19594
4509694,1,-1.57034,-0.522926,0.00017796,-2.0965,1.57068,1.57158,0.785015,-1.5708,-0.523599,1.25837e-07,-2.0944,1.5708,1.5708,0.785397,-1.19383e-05,0.000395645,-0.000374524,0.000275743,-0.000308295,-6.99159e-05,0.000512132,0,0,0,0,0,0,0,-0.50597,-10.1377,-0.532163,21.5152,0.807817,-0.592137,0.129282,-0.509144,-0.992995,-0.138893,2.96364,0.236376,-0.59237,0.196008
4509695,1,-1.57034,-0.522931,0.000176289,-2.0965,1.57068,1.57158,0.78501,-1.5708,-0.523599,1.25837e-07,-2.0944,1.5708,1.5708,0.785397,-7.95888e-06,-0.00149947,-0.000806495,0.000183829,-2.0792e-06,0.000190748,-0.001354,0,0,0,0,0,0,0,-0.50597,-10.0623,-0.508359,21.5152,0.802324,-0.598546,0.175059,-0.510087,-0.992738,-0.140268,2.96352,0.236422,-0.592225,0.196023
4509696,1,-1.57034,-0.52293,0.000176289,-2.0965,1.57068,1.57158,0.785006,-1.5708,-0.523599,1.25837e-07,-2.0944,1.5708,1.5708,0.785397,-5.30592e-06,0.000206776,-0.000537663,0.000122552,0.000202064,-0.000347552,-0.000902667,0,0,0,0,0,0,0,-0.50597,-10.1139,-0.508359,21.5152,0.796831,-0.585729,0.175059,-0.509902,-0.990062,-0.139805,2.962,0.236367,-0.59222,0.196002
4509697,1,-1.57034,-0.522928,0.00017796,-2.0965,1.57068,1.57158,0.785013,-1.5708,-0.523599,1.25837e-07,-2.0944,1.5708,1.5708,0.785397,0.000553275,0.000137851,0.00019837,-0.000567912,-0.000475642,5.65739e-06,0.00204308,0,0,0,0,0,0,0,-0.529774,-10.1139,-0.532163,21.543,0.81331,-0.592137,0.103647,-0.509478,-0.987665,-0.138892,2.96067,0.236304,-0.592252,0.195986
4509698,1,-1.57034,-0.522929,0.00017796,-2.09651,1.57068,1.57158,0.785009,-1.5708,-0.523599,1.25837e-07,-2.0944,1.5708,1.5708,0.785397,0.00036885,-0.000464911,0.000132247,-0.00093542,8.98064e-05,3.77159e-06,-0.00104545,0,0,0,0,0,0,0,-0.529774,-10.0901,-0.532163,21.5668,0.802324,-0.592137,0.16865,-0.509632,-0.986958,-0.138813,2.96058,0.236305,-0.592214,0.195982
4509699,1,-1.57034,-0.522929,0.000176289,-2.0965,1.57068,1.57158,0.785014,-1.5708,-0.523599,1.25837e-07,-2.0944,1.5708,1.5708,0.785397,-0.000310912,-0.000309941,-0.000468648,-6.68015e-05,5.98709e-05,2.51439e-06,0.00052374,0,0,0,0,0,0,0,-0.50597,-10.0901,-0.508359,21.543,0.802324,-0.592137,0.135691,-0.509999,-0.986509,-0.13903,2.96103,0.236343,-0.592142,0.195966
4509700,1,-1.57034,-0.522929,0.000179909,-2.0965,1.57068,1.57158,0.785013,-1.5708,-0.523599,1.25837e-07,-2.0944,1.5708,1.5708,0.785397,-0.000207275,-0.000206627,0.000893994,0.00060508,0.000243364,-0.000235683,7.78924e-05,0,0,0,0,0,0,0,-0.50597,-10.0901,-0.559934,21.5152,0.796831,-0.585729,0.143015,-0.510188,-0.985323,-0.139,2.96106,0.236366,-0.592086,0.195938
4509701,1,-1.57035,-0.522929,0.000183528,-2.09651,1.57068,1.57158,0.785011,-1.5708,-0.523599,1.25837e-07,-2.0944,1.5708,1.5708,0.785397,-0.00134461,-0.000137752,0.00180242,-0.000803039,0.000162243,-0.000157122,-0.000660149,0,0,0,0,0,0,0,-0.454395,-10.0901,-0.611508,21.5668,0.796831,-0.585729,0.162241,-0.510771,-0.983808,-0.139802,2.96081,0.236402,-0.591962,0.195901
4509702,1,-1.57034,-0.522929,0.00017796,-2.0965,1.57068,1.57158,0.785014,-1.5708,-0.523599,1.25837e-07,-2.0944,1.5708,1.5708,0.785397,0.000866832,-9.18343e-05,-0.000654425,2.14523e-05,-9.52885e-05,0.00036997,0.000543245,0,0,0,0,0,0,0,-0.529774,-10.0901,-0.532163,21.543,0.802324,-0.598546,0.135691,-0.511696,-0.982871,-0.141378,2.96106,0.236471,-0.591777,0.195854
4509703,1,-1.57034,-0.52293,0.00017796,-2.0965,1.57068,1.57158,0.785014,-1.5708,-0.523599,1.25837e-07,-2.0944,1.5708,1.5708,0.785397,0.000577888,0.000495589,-0.000436283,0.000663915,0.000139925,-0.000228071,0.000362163,0,0,0,0,0,0,0,-0.529774,-10.1139,-0.532163,21.5152,0.796831,-0.585729,0.135691,-0.512288,-0.982584,-0.142356,2.96158,0.236512,-0.59164,0.195807
4509704,1,-1.57034,-0.522932,0.00017796,-2.09651,1.57068,1.57158,0.78501,-1.57079,-0.523597,2.62584e-06,-2.09439,1.5708,1.5708,0.785397,0.000385258,-0.000876033,-0.000290856,-0.000763816,9.32832e-05,0.00032267,-0.00121662,0.00312491,0.001875,0.0025,0.00231139,0.00155808,0.005,0.000158622,-0.529774,-10.0623,-0.532163,21.5668,0.796831,-0.598546,0.175059,-0.512454,-0.982282,-0.142472,2.96199,0.236505,-0.591566,0.195752
4509705,1,-1.57034,-0.522933,0.000181579,-2.0965,1.57068,1.57158,0.78501,-1.57079,-0.523593,7.62584e-06,-2.09439,1.5708,1.57081,0.785397,-0.000299973,-0.000584022,0.00101252,4.76016e-05,-0.000141262,0.000215114,-0.000573721,0.00624981,0.00375,0.005,0.00462278,0.00311616,0.01,0.000317245,-0.50597,-10.0623,-0.583737,21.543,0.802324,-0.598546,0.16865,-0.512606,-0.980958,-0.142569,2.9622,0.236484,-0.591483,0.195691
4509706,1,-1.57034,-0.52293,0.000181579,-2.0965,1.57068,1.57158,0.785016,-1.57078,-0.523587,1.51258e-05,-2.09438,1.57081,1.57083,0.785398,-0.000199982,0.000260266,0.000675015,0.00123816,-9.41745e-05,-9.39499e-05,0.0015503,0.00937472,0.005625,0.0075,0.00693417,0.00467425,0.015,0.000475867,-0.50597,-10.0901,-0.583737,21.4914,0.802324,-0.592137,0.116465,-0.513113,-0.978657,-0.143377,2.96193,0.236456,-0.591348,0.195658
4509707,1,-1.57034,-0.522929,0.000176362,-2.0965,1.57068,1.57158,0.78501,-1.57076,-0.52358,2.51258e-05,-2.09437,1.57081,1.57085,0.785399,0.00168416,-0.00103292,0.00144381,0.000268628,0.000140668,-6.26332e-05,-0.00113661,0.0124996,0.0075,0.01,0.00924556,0.00623233,0.02,0.00063449,-0.454395,-10.0385,-0.357602,21.5152,0.796831,-0.592137,0.175059,-0.514512,-0.975654,-0.145631,2.96095,0.236428,-0.591093,0.195659
4509708,1,-1.57034,-0.522931,0.000181912,-2.0965,1.57068,1.57158,0.78501,-1.57075,-0.52357,3.76258e-05,-2.09436,1.57082,1.57087,0.785399,0.000893777,-0.00225105,0.00434811,0.00111739,-0.000313123,-0.000279114,-0.000757737,0.0156245,0.009375,0.0125,0.011557,0.00779041,0.025,0.000793112,-0.176685,-9.83615,-0.0521213,21.6144,0.807817,-0.585729,0.175059,-0.518165,-0.969949,-0.151346,2.95861,0.236437,-0.590477,0.195678
4509709,1,-1.57035,-0.52293,0.000196138,-2.0965,1.57068,1.57158,0.785011,-1.57073,-0.523559,5.26258e-05,-2.09435,1.57083,1.5709,0.7854,-0.00142119,-0.0028552,0.00770977,0.00165184,0.000401603,-0.000423435,-3.04403e-05,0.0187494,0.01125,0.015,0.0138683,0.00934849,0.03,0.000951734,0.32716,-9.63382,0.328738,21.7176,0.791338,-0.57932,0.162241,-0.524997,-0.959013,-0.162371,2.95383,0.236517,-0.58929,0.195735
4509710,1,-1.57035,-0.522928,0.00021427,-2.09649,1.57069,1.57158,0.785005,-1.57071,-0.523546,7.01258e-05,-2.09433,1.57084,1.57094,0.785401,-0.00103552,-0.0042977,0.0119811,0.00405873,0.000708545,-4.49312e-05,-0.00215652,0.0218743,0.013125,0.0175,0.0161797,0.0109066,0.035,0.00111036,0.755627,-9.37991,0.781009,21.7414,0.779436,-0.585729,0.219919,-0.535218,-0.940844,-0.179769,2.94548,0.236673,-0.587385,0.195863
4509711,1,-1.57035,-0.522918,0.000236766,-2.09649,1.57069,1.57158,0.78501,-1.57068,-0.523531,9.01258e-05,-2.09431,1.57085,1.57098,0.785403,0.00324246,-0.00147664,0.0132378,0.00154055,0.000879264,0.000207405,0.00022383,0.0249993,0.015,0.02,0.0184911,0.0124647,0.04,0.00126898,1.16029,-9.28073,1.21344,21.8167,0.76845,-0.592137,0.175059,-0.549456,-0.917583,-0.204778,2.93495,0.236977,-0.584559,0.196085
4509712,1,-1.57035,-0.522903,0.000265821,-2.09648,1.57069,1.57159,0.78501,-1.57066,-0.523514,0.000112626,-2.09429,1.57087,1.57102,0.785404,0.00305892,0.00168527,0.0132046,0.00590634,0.000789627,0.00013827,0.000386579,0.0281242,0.016875,0.0225,0.0208025,0.0140227,0.045,0.0014276,1.61256,-9.22916,1.56653,21.8882,0.762956,-0.592137,0.16865,-0.566499,-0.897297,-0.235381,2.92647,0.237496,-0.580946,0.196421
4509713,1,-1.57034,-0.522895,0.000292798,-2.09647,1.57069,1.5716,0.785007,-1.57062,-0.523495,0.000137626,-2.09427,1.57088,1.57107,0.785406,0.00368951,0.00466777,0.0130353,0.00804326,-0.000287384,0.00127897,-0.000929075,0.0312491,0.01875,0.025,0.0231139,0.0155808,0.05,0.00158622,2.01722,-9.0784,1.92359,21.8882,0.784929,-0.624181,0.200693,-0.582118,-0.885608,-0.265328,2.92171,0.238106,-0.577118,0.196861
4509714,1,-1.57033,-0.522879,0.000317782,-2.09646,1.57069,1.57161,0.785013,-1.57059,-0.523473,0.000167626,-2.09424,1.5709,1.57113,0.785407,0.00693374,0.00558267,0.0126105,0.00715694,0.00280997,0.00728533,0.00127949,0.0371244,0.0225,0.03,0.0272503,0.0182639,0.06,0.00174772,2.31874,-9.00302,2.30048,21.9873,0.830705,-0.669042,0.149424,-0.592549,-0.883462,-0.289325,2.92087,0.238692,-0.573564,0.197376
4509715,1,-1.57033,-0.522873,0.000354356,-2.09645,1.57069,1.57161,0.785018,-1.57054,-0.523447,0.000202626,-2.09421,1.57092,1.5712,0.785409,0.00947096,0.0063705,0.0201824,0.00779663,0.00206128,0.00935594,0.00254841,0.0429997,0.02625,0.035,0.0313867,0.020947,0.07,0.00190922,2.59645,-8.80069,2.47901,22.0389,0.836199,-0.656224,0.103647,-0.598486,-0.889278,-0.30896,2.92463,0.239375,-0.570141,0.197937
4509716,1,-1.57031,-0.522857,0.000381062,-2.09643,1.57069,1.57162,0.785011,-1.5705,-0.523417,0.000242626,-2.09417,1.57095,1.57128,0.785411,0.0106249,0.0101215,0.0231631,0.00922242,0.0018712,0.0101749,0.000512147,0.048875,0.03,0.04,0.0355231,0.0236301,0.08,0.00207072,2.77497,-8.72531,2.75672,22.0389,0.830705,-0.617772,0.135691,-0.603353,-0.901509,-0.330272,2.93316,0.240415,-0.566306,0.198491
4509717,1,-1.57029,-0.522846,0.000410214,-2.09641,1.57069,1.57163,0.785013,-1.57044,-0.523383,0.000287626,-2.09413,1.57097,1.57137,0.785414,0.0175063,0.0123344,0.0257999,0.0134704,0.00126418,0.0154919,0.000341432,0.0547503,0.03375,0.045,0.0396595,0.0263131,0.09,0.00223222,2.94954,-8.49521,3.13758,22.0389,0.836199,-0.572911,0.135691,-0.6088,-0.919925,-0.355966,2.94576,0.241925,-0.561794,0.198969
4509718,1,-1.57027,-0.522826,0.000452217,-2.09639,1.57069,1.57164,0.785016,-1.57038,-0.523345,0.000337626,-2.09409,1.571,1.57147,0.785416,0.0195246,0.0173859,0.0357024,0.0147867,0.0055033,0.0126463,0.000939698,0.0606256,0.0375,0.05,0.0437959,0.0289962,0.1,0.00239372,3.3542,-8.26907,3.59381,22.1143,0.841692,-0.469457,0.116465,-0.617063,-0.944516,-0.389028,2.96141,0.24395,-0.556217,0.19935
4509719,1,-1.57025,-0.522809,0.00049988,-2.09637,1.57069,1.57165,0.785011,-1.57031,-0.523304,0.000392626,-2.09404,1.57103,1.57158,0.785419,0.0179851,0.0184165,0.0404518,0.0189851,0.00479463,0.0131771,-0.00106896,0.0665009,0.04125,0.055,0.0479323,0.0316793,0.11,0.00255522,3.90962,-7.91599,4.177,22.1897,0.825212,-0.301915,0.162241,-0.629851,-0.974445,-0.432311,2.97944,0.246533,-0.549123,0.199636
4509720,1,-1.57022,-0.522775,0.000549059,-2.09634,1.5707,1.57167,0.785011,-1.57024,-0.523259,0.000452626,-2.09399,1.57107,1.5717,0.785421,0.0244802,0.0224445,0.0436847,0.0239252,0.00443069,0.0163772,-0.000712637,0.0723762,0.045,0.06,0.0520686,0.0343624,0.12,0.00271672,4.28651,-7.68588,4.8078,22.1897,0.802324,-0.199376,0.162241,-0.64491,-1.00549,-0.482505,2.9974,0.249521,-0.540509,0.199843
4509721,1,-1.57018,-0.522737,0.000603658,-2.09631,1.57071,1.57169,0.785013,-1.57016,-0.52321,0.000517626,-2.09393,1.5711,1.57183,0.785424,0.031433,0.0287011,0.0469795,0.0274935,0.00909213,0.0243238,0.000236985,0.0782515,0.04875,0.065,0.056205,0.0370454,0.13,0.00287822,4.69117,-7.45975,5.4148,22.1897,0.76845,-0.121556,0.143015,-0.660195,-1.03712,-0.535452,3.01442,0.252751,-0.53038,0.20001
4509722,1,-1.57013,-0.522691,0.000666467,-2.09628,1.57073,1.57174,0.785007,-1.57008,-0.523158,0.000587626,-2.09387,1.57114,1.57197,0.785427,0.0340102,0.0361915,0.052086,0.0280785,0.00811974,0.0330389,-0.00197824,0.0841268,0.0525,0.07,0.0603414,0.0397285,0.14,0.00303972,5.11964,-7.3566,5.92261,22.2889,0.729082,-0.121556,0.200693,-0.674459,-1.0773,-0.588377,3.03483,0.256254,-0.518758,0.200155
4509723,1,-1.57007,-0.52265,0.000727562,-2.09624,1.57073,1.5718,0.785012,-1.56999,-0.523102,0.000662626,-2.09381,1.57119,1.57212,0.78543,0.0417456,0.0385953,0.0523069,0.0326727,0.00460874,0.0427392,0.000342686,0.0900021,0.05625,0.075,0.0644778,0.0424116,0.15,0.00320122,5.39735,-7.13046,6.43042,22.3365,0.762956,-0.212194,0.155832,-0.68513,-1.13042,-0.637036,3.06193,0.260013,-0.505915,0.200294
4509724,1,-1.57,-0.522604,0.000791523,-2.0962,1.57074,1.57187,0.78501,-1.56989,-0.52304,0.000745126,-2.09374,1.57123,1.57229,0.785434,0.0497849,0.0424161,0.054778,0.0342552,0.00644376,0.0541107,-0.000246261,0.0984682,0.061875,0.0825,0.0701084,0.0461276,0.165,0.00319486,5.57588,-6.97971,6.85889,22.4634,0.807817,-0.295507,0.16865,-0.690127,-1.19099,-0.677419,3.09381,0.263832,-0.492114,0.200465
4509725,1,-1.56993,-0.52256,0.000867293,-2.09616,1.57075,1.57195,0.785003,-1.56978,-0.522972,0.000835126,-2.09366,1.57128,1.57247,0.785437,0.0555165,0.043361,0.0626572,0.0364944,0.00846996,0.0654337,-0.00257167,0.106934,0.0675,0.09,0.075739,0.0498435,0.18,0.0031885,5.77424,-6.75357,7.1366,22.5626,0.841692,-0.333959,0.233652,-0.690279,-1.2513,-0.710147,3.12774,0.267636,-0.477367,0.200679
4509726,1,-1.56986,-0.52251,0.000939212,-2.09611,1.57075,1.57204,0.785,-1.56967,-0.522899,0.000932626,-2.09358,1.57134,1.57266,0.78544,0.0610663,0.0452272,0.0650107,0.0410872,0.00462983,0.0737835,-0.00290124,0.1154,0.073125,0.0975,0.0813696,0.0535594,0.195,0.00318214,5.87739,-6.57504,7.41431,22.5348,0.892961,-0.366002,0.265696,-0.687221,-1.3037,-0.737742,3.16078,0.271474,-0.461667,0.200965
4509727,1,-1.56977,-0.52246,0.00101177,-2.09606,1.57076,1.57214,0.784991,-1.56954,-0.52282,0.00103763,-2.0935,1.57139,1.57287,0.785443,0.0740299,0.0480003,0.0689729,0.0431013,0.00699071,0.0826505,-0.00383303,0.123867,0.07875,0.105,0.0870002,0.0572754,0.21,0.00317578,5.9012,-6.32114,7.84674,22.5626,0.932329,-0.353185,0.316965,-0.681954,-1.34305,-0.7611,3.19049,0.275386,-0.445138,0.201418
4509728,1,-1.56968,-0.522407,0.00109289,-2.09599,1.57078,1.57225,0.784986,-1.56941,-0.522736,0.00115013,-2.0934,1.57145,1.5731,0.785446,0.0822977,0.0508952,0.0749303,0.0464275,0.0102196,0.0972111,-0.00472549,0.132333,0.084375,0.1125,0.0926308,0.0609913,0.225,0.00316942,6.1551,-5.96805,8.30298,22.511,0.932329,-0.289098,0.375559,-0.677008,-1.36975,-0.782844,3.21716,0.279531,-0.427735,0.202145
4509729,1,-1.56958,-0.522344,0.00118342,-2.09593,1.57079,1.57238,0.784986,-1.56927,-0.522646,0.00127013,-2.0933,1.57152,1.57334,0.785449,0.0890194,0.0560724,0.0795881,0.0523799,0.0133044,0.106178,-0.00243825,0.140799,0.09,0.12,0.0982614,0.0647073,0.24,0.00316307,6.53199,-5.61496,8.88617,22.4356,0.915849,-0.166417,0.356333,-0.673732,-1.38622,-0.80444,3.24133,0.284038,-0.409535,0.203261
4509730,1,-1.56948,-0.52227,0.0012831,-2.09585,1.57081,1.57253,0.784987,-1.56912,-0.52255,0.00139763,-2.0932,1.57159,1.57359,0.785453,0.0936857,0.0643423,0.0858815,0.0647015,0.0151016,0.122302,-0.00115078,0.149265,0.095625,0.1275,0.103892,0.0684232,0.255,0.00315671,6.98823,-5.28568,9.51697,22.2889,0.909441,-0.160009,0.343516,-0.670333,-1.39567,-0.823348,3.26168,0.288827,-0.390912,0.204867
4509731,1,-1.56936,-0.522183,0.00138501,-2.09577,1.57084,1.57269,0.784986,-1.56896,-0.522449,0.00153263,-2.09309,1.57166,1.57386,0.785456,0.102361,0.0735231,0.0899181,0.0685634,0.0179324,0.136112,-0.000767189,0.157731,0.10125,0.135,0.109523,0.0721392,0.27,0.00315035,7.31355,-5.08334,10.1755,22.2135,0.859087,-0.199376,0.343516,-0.66451,-1.40498,-0.836416,3.27851,0.29382,-0.372227,0.206987
4509732,1,-1.56923,-0.522097,0.0015036,-2.09569,1.57087,1.57289,0.784998,-1.5688,-0.522342,0.00167513,-2.09298,1.57173,1.57415,0.785459,0.108515,0.078991,0.0999073,0.0720699,0.025007,0.157009,0.00355755,0.166197,0.106875,0.1425,0.115153,0.0758551,0.285,0.00314399,7.69441,-4.82944,10.7072,22.2373,0.796831,-0.289098,0.233652,-0.655787,-1.42216,-0.843252,3.29619,0.299122,-0.353577,0.209555
4509733,1,-1.56908,-0.522002,0.00162628,-2.0956,1.57091,1.57311,0.785009,-1.56862,-0.52223,0.00182513,-2.09286,1.57181,1.57445,0.785462,0.120698,0.0843593,0.10476,0.0783932,0.0292471,0.178347,0.00501656,0.174663,0.1125,0.15,0.120784,0.0795711,0.3,0.00313763,7.84517,-4.62711,11.1872,22.2611,0.757463,-0.437413,0.162241,-0.645513,-1.44753,-0.846059,3.31674,0.304761,-0.334827,0.212433
4509734,1,-1.56893,-0.521907,0.00173863,-2.09551,1.57094,1.57334,0.785006,-1.56844,-0.52211,0.00198512,-2.09273,1.5719,1.57477,0.785465,0.130898,0.0877745,0.104837,0.0837503,0.0257179,0.199469,0.00168286,0.184781,0.119422,0.15999,0.127407,0.083858,0.319215,0.00304453,8.0475,-4.40097,11.695,22.2611,0.773943,-0.572911,0.207102,-0.633025,-1.47422,-0.843058,3.33755,0.310471,-0.316253,0.21541
4509735,1,-1.56878,-0.521814,0.00186712,-2.09541,1.57098,1.57359,0.785011,-1.56824,-0.521984,0.0021551,-2.09259,1.57199,1.5751,0.785468,0.136821,0.0896183,0.114684,0.0892016,0.031935,0.215768,0.00278342,0.194899,0.126343,0.16998,0.13403,0.0881448,0.33843,0.00295142,8.27363,-4.14706,12.0243,22.3365,0.81331,-0.604955,0.162241,-0.61611,-1.49321,-0.830256,3.35493,0.315925,-0.298405,0.21828
4509736,1,-1.56861,-0.521708,0.0019983,-2.0953,1.57102,1.57385,0.785004,-1.56804,-0.521851,0.00233507,-2.09245,1.57208,1.57546,0.785471,0.146313,0.0962482,0.11688,0.0919873,0.0313827,0.23101,-0.000517977,0.205016,0.133265,0.17997,0.140653,0.0924317,0.357646,0.00285832,8.44819,-3.99631,12.302,22.3365,0.870073,-0.57932,0.226328,-0.594333,-1.50047,-0.807223,3.36816,0.321041,-0.281565,0.220922
4509737,1,-1.56844,-0.521602,0.00212155,-2.09519,1.57107,1.57413,0.784984,-1.56782,-0.521711,0.00252503,-2.09231,1.57218,1.57584,0.785474,0.157762,0.0995464,0.122234,0.0986244,0.0354574,0.245498,-0.00587239,0.215134,0.140187,0.18996,0.147276,0.0967186,0.376861,0.00276521,8.57515,-3.77017,12.8098,22.2889,0.937822,-0.507909,0.375559,-0.56813,-1.49831,-0.774423,3.37924,0.325917,-0.265826,0.22329
4509738,1,-1.56825,-0.521484,0.00226652,-2.09506,1.57113,1.57443,0.784979,-1.5676,-0.521564,0.00272498,-2.09215,1.57228,1.57623,0.785476,0.16843,0.105822,0.130358,0.108844,0.040231,0.256438,-0.00533908,0.225251,0.147108,0.19995,0.153899,0.101005,0.396076,0.0026721,8.85286,-3.56784,13.2899,22.1381,0.955217,-0.418187,0.414011,-0.539944,-1.48603,-0.735038,3.38675,0.330649,-0.250787,0.225488
4509739,1,-1.56806,-0.521369,0.00241234,-2.09493,1.57119,1.57475,0.784969,-1.56736,-0.52141,0.00293492,-2.09199,1.57238,1.57665,0.785479,0.170739,0.109554,0.138391,0.114308,0.0508315,0.27585,-0.00667896,0.235369,0.15403,0.20994,0.160522,0.105292,0.415291,0.002579,9.23372,-3.18698,13.8215,22.0627,0.903948,-0.373326,0.49824,-0.511559,-1.46135,-0.692204,3.38783,0.335313,-0.235977,0.227751
4509740,1,-1.56787,-0.521243,0.00256565,-2.0948,1.57127,1.5751,0.784968,-1.56712,-0.521249,0.00315485,-2.09182,1.57249,1.57708,0.785481,0.176655,0.114462,0.141644,0.121058,0.0583097,0.29794,-0.00492736,0.245487,0.160952,0.21993,0.167145,0.109579,0.434506,0.00248589,9.66218,-2.88547,14.48,22.0151,0.870073,-0.424596,0.511057,-0.479191,-1.42459,-0.641353,3.38238,0.339886,-0.221745,0.230304
4509741,1,-1.56765,-0.521103,0.00272823,-2.09466,1.57135,1.57548,0.784978,-1.56686,-0.521081,0.00338477,-2.09165,1.57261,1.57754,0.785484,0.187014,0.120234,0.151304,0.128889,0.0650225,0.32219,7.20276e-05,0.255604,0.167873,0.22992,0.173768,0.113866,0.453721,0.00239279,10.0153,-2.68314,15.1148,21.9873,0.802324,-0.539952,0.42042,-0.439791,-1.37745,-0.578444,3.37136,0.344312,-0.208431,0.233328
4509742,1,-1.56743,-0.52096,0.00290743,-2.09451,1.57145,1.57587,0.784988,-1.5666,-0.520906,0.00362468,-2.09147,1.57272,1.57801,0.785486,0.196711,0.127199,0.158388,0.13417,0.0763625,0.344023,0.00364231,0.265722,0.174795,0.23991,0.180391,0.118153,0.472937,0.00229968,10.416,-2.45303,15.6702,21.9873,0.688799,-0.636998,0.323374,-0.395664,-1.32404,-0.506898,3.35679,0.348651,-0.195726,0.23689
4509743,1,-1.5672,-0.520799,0.0030945,-2.09435,1.57155,1.57629,0.784993,-1.56632,-0.520724,0.00387458,-2.09128,1.57285,1.5785,0.785488,0.204317,0.139142,0.167024,0.142896,0.0827961,0.36463,0.00385236,0.27584,0.181717,0.2499,0.187015,0.12244,0.492152,0.00220658,10.7691,-2.37766,16.0749,21.9159,0.62105,-0.72672,0.284922,-0.348919,-1.27341,-0.429959,3.34304,0.352945,-0.183495,0.240868
4509744,1,-1.56694,-0.520636,0.00327557,-2.09418,1.57166,1.57673,0.785002,-1.56603,-0.520535,0.00413447,-2.09109,1.57297,1.57902,0.78549,0.22275,0.148642,0.170579,0.149186,0.0897038,0.384591,0.00473838,0.286829,0.189207,0.25989,0.194241,0.126972,0.512142,0.00207259,10.9476,-2.20309,16.5827,21.8405,0.627458,-0.810948,0.226328,-0.300568,-1.23637,-0.348785,3.33486,0.357126,-0.171848,0.245023
4509745,1,-1.56669,-0.520469,0.00347262,-2.09401,1.57177,1.57719,0.785006,-1.56574,-0.520338,0.00440435,-2.09089,1.5731,1.57955,0.785492,0.227624,0.153101,0.178257,0.157952,0.0996642,0.404622,0.00410836,0.297819,0.196697,0.26988,0.201468,0.131505,0.532132,0.00193861,11.1221,-2.05234,16.9596,21.7414,0.632951,-0.80454,0.200693,-0.251046,-1.21332,-0.263405,3.33224,0.360968,-0.160879,0.249115
4509746,1,-1.56643,-0.520304,0.00367436,-2.09382,1.5719,1.57766,0.784988,-1.56543,-0.520134,0.00468422,-2.09068,1.57324,1.5801,0.785494,0.232477,0.156661,0.187422,0.167469,0.10769,0.422598,-0.00231345,0.308809,0.204187,0.27987,0.208695,0.136037,0.552122,0.00180463,11.376,-1.79843,17.2413,21.6422,0.627458,-0.791722,0.337107,-0.198159,-1.19132,-0.171248,3.32875,0.364108,-0.150862,0.252944
4509747,1,-1.56616,-0.52013,0.00387635,-2.09363,1.57202,1.57817,0.784979,-1.56511,-0.519922,0.00497408,-2.09046,1.57338,1.58067,0.785496,0.244693,0.161865,0.194923,0.173103,0.112091,0.4485,-0.00415325,0.319799,0.211677,0.28986,0.215922,0.140569,0.572112,0.00167065,11.5268,-1.6199,17.5706,21.6144,0.666826,-0.778905,0.407602,-0.14077,-1.15879,-0.0716425,3.31901,0.366398,-0.141874,0.256435
4509748,1,-1.56588,-0.519952,0.0040902,-2.09343,1.57215,1.5787,0.78497,-1.56478,-0.519703,0.00527393,-2.09024,1.57353,1.58126,0.785497,0.252066,0.167631,0.20059,0.182716,0.117398,0.47211,-0.00470161,0.330788,0.219167,0.29985,0.223149,0.145102,0.592102,0.00153667,11.63,-1.39377,17.8998,21.4914,0.661333,-0.75327,0.459788,-0.0791777,-1.11343,0.0349364,3.3026,0.36795,-0.133883,0.259694
4509749,1,-1.5656,-0.519763,0.00432951,-2.09323,1.5723,1.57924,0.784965,-1.56443,-0.519477,0.00558377,-2.09001,1.57368,1.58188,0.785499,0.267148,0.175376,0.21134,0.190135,0.127923,0.488513,-0.00455856,0.341778,0.226657,0.30984,0.230376,0.149634,0.612092,0.00140268,11.8045,-1.19144,18.0744,21.4676,0.60457,-0.681859,0.49824,-0.0149165,-1.0576,0.146593,3.28062,0.368937,-0.126627,0.262927
4509750,1,-1.56531,-0.519566,0.00456599,-2.09301,1.57245,1.57982,0.784966,-1.56408,-0.519242,0.0059036,-2.08977,1.57383,1.58251,0.7855,0.275915,0.183939,0.218338,0.203577,0.134681,0.516725,-0.00256432,0.352768,0.234147,0.31983,0.237603,0.154166,0.632082,0.0012687,12.0307,-1.08829,18.3283,21.4676,0.576189,-0.688268,0.485422,0.0487182,-0.995158,0.258793,3.25385,0.369516,-0.119513,0.266336
4509751,1,-1.56499,-0.519356,0.00480494,-2.09278,1.57259,1.58044,0.784974,-1.56372,-0.519001,0.00623342,-2.08953,1.57399,1.58316,0.785501,0.28967,0.191174,0.223448,0.210878,0.136316,0.553779,0.00117267,0.363758,0.241637,0.32982,0.24483,0.158699,0.652072,0.00113472,12.0307,-1.04068,18.6814,21.3922,0.627458,-0.817357,0.407602,0.112148,-0.929395,0.372248,3.22269,0.369702,-0.112634,0.270058
4509752,1,-1.56468,-0.519139,0.00506187,-2.09255,1.57275,1.58107,0.784981,-1.56334,-0.518752,0.00657323,-2.08927,1.57415,1.58383,0.785502,0.297935,0.202366,0.234595,0.215037,0.142097,0.571776,0.00291801,0.374747,0.249127,0.33981,0.252056,0.163231,0.672062,0.00100074,12.2092,-0.965302,18.8837,21.3684,0.570696,-0.855809,0.349924,0.17694,-0.867515,0.489013,3.19187,0.369666,-0.106352,0.274096
4509753,1,-1.56435,-0.518912,0.00532657,-2.09231,1.57293,1.58173,0.784986,-1.56296,-0.518495,0.00692303,-2.08902,1.57432,1.58452,0.785503,0.301046,0.209765,0.243256,0.22483,0.151157,0.596437,0.00265742,0.385737,0.256617,0.3498,0.259283,0.167763,0.692052,0.000866757,12.2846,-0.989105,19.0107,21.3446,0.50844,-0.940038,0.330698,0.243598,-0.817471,0.6089,3.16716,0.369655,-0.10079,0.278322
4509754,1,-1.56401,-0.518677,0.00558808,-2.09206,1.57311,1.58242,0.784993,-1.56256,-0.518231,0.00728282,-2.08875,1.57449,1.58524,0.785504,0.319697,0.217071,0.252395,0.230953,0.160595,0.628657,0.00370439,0.39694,0.264107,0.35979,0.266821,0.172336,0.712042,0.000711843,12.2608,-0.989105,19.3162,21.3446,0.496538,-1.14603,0.278513,0.312015,-0.778078,0.731281,3.14831,0.36963,-0.0959983,0.282558
4509755,1,-1.56366,-0.518443,0.00587848,-2.09179,1.57329,1.58313,0.78499,-1.56215,-0.517959,0.0076526,-2.08847,1.57467,1.58597,0.785504,0.327843,0.222427,0.262789,0.240905,0.169279,0.650305,0.00152016,0.408144,0.271597,0.36978,0.27436,0.176909,0.732032,0.000556929,12.3599,-0.965302,19.4669,21.2693,0.446184,-1.17807,0.304148,0.378879,-0.742384,0.851929,3.13184,0.369473,-0.0916801,0.286642
4509756,1,-1.56332,-0.518196,0.006185,-2.09153,1.57348,1.58385,0.784988,-1.56173,-0.51768,0.00803237,-2.08819,1.57485,1.58672,0.785505,0.334973,0.229528,0.274472,0.246804,0.175104,0.670376,0.000301362,0.419347,0.279087,0.37977,0.281898,0.181482,0.752022,0.000402014,12.5861,-0.937531,19.4431,21.2455,0.400408,-1.03617,0.323374,0.442142,-0.704424,0.967914,3.11496,0.369079,-0.0877069,0.290459
4509757,1,-1.56295,-0.517949,0.00648122,-2.09125,1.57366,1.58458,0.784994,-1.5613,-0.517394,0.00842213,-2.0879,1.57504,1.58749,0.785505,0.343268,0.236162,0.281215,0.255183,0.179353,0.687121,0.00209978,0.430551,0.286577,0.38976,0.289436,0.186055,0.772012,0.0002471,12.7646,-0.838348,19.6454,21.1701,0.469072,-0.913488,0.272104,0.503318,-0.662584,1.08094,3.09719,0.368324,-0.0842941,0.29397
4509758,1,-1.56258,-0.517688,0.0067878,-2.09096,1.57384,1.58536,0.784983,-1.56086,-0.5171,0.00882188,-2.08761,1.57523,1.58828,0.785505,0.347931,0.242816,0.28513,0.265369,0.1788,0.708949,-0.0024318,0.441754,0.294067,0.39975,0.296974,0.190628,0.792002,9.21859e-05,12.7884,-0.937531,19.8478,21.0947,0.547807,-0.946447,0.375559,0.56722,-0.616148,1.19792,3.07774,0.366994,-0.0818998,0.297177
4509759,1,-1.56219,-0.517414,0.00711928,-2.09067,1.57405,1.58614,0.784975,-1.56041,-0.516798,0.00923162,-2.0873,1.57542,1.5891,0.785505,0.356892,0.253073,0.302471,0.272637,0.187378,0.729939,-0.00304535,0.452958,0.301557,0.40974,0.304512,0.195201,0.811992,-6.27283e-05,12.9154,-1.04068,19.7446,21.1701,0.513933,-0.952855,0.414011,0.636236,-0.56654,1.32183,3.05628,0.365127,-0.0805835,0.300115
4509760,1,-1.56179,-0.517137,0.00745494,-2.09036,1.57425,1.58697,0.78498,-1.55994,-0.516489,0.00965135,-2.08699,1.57562,1.58993,0.785505,0.370394,0.258155,0.3142,0.283897,0.196862,0.75706,-0.000131364,0.464161,0.309047,0.41973,0.31205,0.199774,0.831982,-0.000217643,12.84,-1.13986,19.8716,21.1423,0.524919,-1.00412,0.362742,0.704285,-0.516239,1.44295,3.0334,0.363126,-0.0793013,0.302893
4509761,1,-1.56138,-0.516844,0.00779905,-2.09004,1.57447,1.58781,0.784976,-1.55947,-0.516172,0.0100811,-2.08667,1.57583,1.59078,0.785504,0.38157,0.26734,0.323391,0.293241,0.204726,0.781581,-0.00127437,0.475364,0.316537,0.42972,0.319589,0.204346,0.851972,-0.000372557,12.7646,-1.34219,19.9747,21.0709,0.502947,-1.07462,0.394785,0.765924,-0.463527,1.55345,3.00743,0.361188,-0.0772243,0.305632
4509762,1,-1.56097,-0.516542,0.00816007,-2.08973,1.57469,1.58866,0.78498,-1.55898,-0.515848,0.0105208,-2.08634,1.57603,1.59165,0.785504,0.388647,0.275875,0.337488,0.298552,0.207398,0.801073,0.000574573,0.486568,0.324027,0.43971,0.327127,0.208919,0.871962,-0.000527471,12.9669,-1.49295,19.8994,21.1701,0.451677,-1.03617,0.356333,0.820939,-0.411299,1.65338,2.97996,0.359416,-0.0744098,0.308376
4509763,1,-1.56054,-0.51624,0.00852774,-2.08942,1.57491,1.58956,0.78499,-1.55848,-0.515517,0.0109705,-2.08601,1.57625,1.59254,0.785503,0.398054,0.284564,0.344651,0.302561,0.212268,0.824685,0.00373998,0.497771,0.331517,0.4497,0.334665,0.213492,0.891952,-0.000682385,13.0899,-1.6199,19.8716,21.3169,0.440691,-1.15244,0.265696,0.871086,-0.367869,1.74514,2.95707,0.357996,-0.0712358,0.311124
4509764,1,-1.56009,-0.515924,0.00890085,-2.08907,1.57514,1.59046,0.784995,-1.55797,-0.515178,0.0114302,-2.08567,1.57647,1.59346,0.785502,0.418333,0.293889,0.355866,0.311364,0.221215,0.868427,0.00296804,0.508618,0.339007,0.45969,0.342303,0.21797,0.911942,-0.000859229,13.0661,-1.74686,20.0263,21.2177,0.406816,-1.18448,0.252878,0.917346,-0.338512,1.83049,2.94263,0.356975,-0.0680809,0.313797
4509765,1,-1.55963,-0.515605,0.0092856,-2.08873,1.57538,1.59137,0.784987,-1.55746,-0.514831,0.0118998,-2.08532,1.57669,1.59439,0.785501,0.430959,0.30242,0.36652,0.322334,0.228912,0.878315,-0.000903523,0.519464,0.346497,0.46968,0.349942,0.222448,0.931932,-0.00103607,13.1415,-1.77066,20.1017,21.1939,0.36104,-1.08744,0.330698,0.957033,-0.32198,1.90633,2.93476,0.356261,-0.064769,0.316269
4509766,1,-1.55916,-0.515276,0.00969304,-2.08838,1.57562,1.59233,0.784983,-1.55693,-0.514477,0.0123795,-2.08496,1.57692,1.59534,0.7855,0.439262,0.308132,0.382181,0.328397,0.233681,0.901205,-0.000839707,0.530311,0.353987,0.47967,0.35758,0.226926,0.951922,-0.00121292,13.2169,-1.77066,20.1255,21.1185,0.339067,-1.14603,0.337107,0.987654,-0.311898,1.96885,2.92911,0.355679,-0.0607614,0.318491
4509767,1,-1.55868,-0.514929,0.0101023,-2.08802,1.57586,1.59329,0.784974,-1.55638,-0.514116,0.0128692,-2.08459,1.57715,1.59631,0.785499,0.450953,0.318207,0.390014,0.334588,0.23396,0.921342,-0.00340811,0.541158,0.361477,0.48966,0.365218,0.231404,0.971912,-0.00138976,13.2169,-1.89761,20.1533,21.0709,0.406816,-1.26139,0.414011,1.0106,-0.305442,2.01921,2.92512,0.35513,-0.0560109,0.320512
4509768,1,-1.5582,-0.514593,0.0105368,-2.08766,1.5761,1.59428,0.784971,-1.55583,-0.513747,0.0133688,-2.08422,1.57738,1.5973,0.785497,0.460816,0.320732,0.409127,0.35222,0.237199,0.942932,-0.00301806,0.552004,0.368967,0.49965,0.372856,0.235882,0.991902,-0.0015666,13.3438,-1.92538,20.0739,21.0709,0.394914,-1.24857,0.434153,1.0271,-0.29726,2.05865,2.91944,0.354499,-0.0506278,0.322455
4509769,1,-1.55769,-0.51424,0.0109913,-2.0873,1.57635,1.59528,0.784981,-1.55527,-0.513371,0.0138785,-2.08384,1.57762,1.59832,0.785495,0.480198,0.332621,0.419967,0.355758,0.2429,0.955703,0.00110753,0.562851,0.376457,0.50964,0.380495,0.240359,1.01189,-0.00174345,13.3438,-1.97299,19.947,21.1939,0.406816,-1.20371,0.349924,1.03404,-0.28003,2.08256,2.90667,0.353756,-0.0441226,0.324482
4509770,1,-1.55716,-0.513872,0.0114514,-2.08692,1.5766,1.59628,0.784982,-1.5547,-0.512987,0.0143981,-2.08345,1.57787,1.59935,0.785493,0.493109,0.342348,0.435023,0.363228,0.252226,0.969332,0.00121307,0.573697,0.383947,0.51963,0.388133,0.244837,1.03188,-0.00192029,13.2407,-2.05234,19.8478,21.2455,0.428789,-1.14603,0.337107,1.02799,-0.261839,2.08626,2.89182,0.35317,-0.0359763,0.326659
4509771,1,-1.55663,-0.513497,0.0119129,-2.08654,1.57686,1.5973,0.784979,-1.55411,-0.512595,0.0149277,-2.08306,1.57812,1.6004,0.785491,0.504208,0.353145,0.43974,0.369699,0.253174,0.982896,-0.00014072,0.584544,0.391437,0.52962,0.395771,0.249315,1.05187,-0.00209714,13.0423,-2.27847,19.7962,21.3922,0.485552,-1.08744,0.362742,1.01198,-0.254786,2.07451,2.88255,0.352889,-0.0265734,0.328923
4509772,1,-1.55609,-0.513108,0.0123994,-2.08615,1.57713,1.59834,0.784982,-1.55352,-0.512196,0.0154673,-2.08265,1.57837,1.60147,0.785489,0.512911,0.36019,0.449295,0.376802,0.257834,1.00257,0.000855623,0.59539,0.398927,0.53961,0.40341,0.253793,1.07186,-0.00227398,13.0661,-2.50461,19.6216,21.4438,0.440691,-1.11399,0.337107,0.99457,-0.261315,2.06014,2.88073,0.352779,-0.0170758,0.331194
4509773,1,-1.55554,-0.512717,0.0128933,-2.08574,1.57739,1.59941,0.784984,-1.55291,-0.51179,0.0160169,-2.08224,1.57863,1.60256,0.785487,0.523036,0.369757,0.461083,0.385678,0.261467,1.01939,0.0013164,0.606237,0.406417,0.5496,0.411048,0.258271,1.09185,-0.00245082,13.0899,-2.75851,19.5423,21.5152,0.389421,-1.10026,0.316965,0.981379,-0.278315,2.05127,2.88499,0.352728,-0.00823691,0.333431
4509774,1,-1.55498,-0.512319,0.0133929,-2.08534,1.57766,1.60051,0.784982,-1.55229,-0.511376,0.0165765,-2.08182,1.57889,1.60367,0.785484,0.539629,0.379131,0.468476,0.393646,0.262663,1.03876,0.000131615,0.616215,0.413907,0.55959,0.418646,0.262554,1.11106,-0.00267178,13.0423,-2.83389,19.5701,21.6422,0.36104,-1.13962,0.337107,0.972205,-0.303258,2.0476,2.89355,0.352719,-2.01331e-05,0.335597
4509775,1,-1.5544,-0.51191,0.0139036,-2.08493,1.57794,1.60159,0.784987,-1.55167,-0.510955,0.0171461,-2.0814,1.57916,1.6048,0.785481,0.557558,0.38352,0.482558,0.398564,0.27412,1.05404,0.00178316,0.626194,0.421397,0.56958,0.426245,0.266836,1.13026,-0.00289274,12.9907,-2.93704,19.5939,21.789,0.276811,-1.02976,0.291331,0.96291,-0.332958,2.04372,2.90517,0.352747,0.00819005,0.337657
4509776,1,-1.55382,-0.511509,0.0144318,-2.08452,1.57822,1.60272,0.784996,-1.55103,-0.510526,0.0177257,-2.08096,1.57943,1.60595,0.785478,0.554537,0.389,0.490329,0.404834,0.278233,1.07438,0.00407099,0.636173,0.428887,0.57957,0.433843,0.271119,1.14947,-0.0031137,13.0423,-2.8577,19.5701,21.8644,0.220049,-0.972081,0.213511,0.953097,-0.360085,2.03883,2.91783,0.352627,0.0165605,0.339568
4509777,1,-1.55322,-0.511095,0.0149587,-2.08409,1.57849,1.60386,0.784993,-1.55038,-0.510089,0.0183152,-2.08052,1.57971,1.60712,0.785475,0.570179,0.393334,0.497416,0.411627,0.277371,1.10034,0.00173065,0.646151,0.436377,0.58956,0.441441,0.275402,1.16868,-0.00333466,13.1177,-2.81009,19.5423,21.8405,0.259416,-1.01694,0.240061,0.949818,-0.378067,2.04235,2.92922,0.35196,0.0241602,0.341245
4509778,1,-1.5526,-0.510673,0.0154997,-2.08365,1.57875,1.60503,0.78499,-1.54973,-0.509645,0.0189148,-2.08007,1.57999,1.60831,0.785471,0.587502,0.408597,0.511161,0.415542,0.274233,1.12664,-0.000745105,0.65613,0.443867,0.59955,0.449039,0.279685,1.18788,-0.00355562,13.0899,-2.81009,19.5185,21.8644,0.378435,-1.1204,0.291331,0.95317,-0.39201,2.05464,2.94212,0.350788,0.0308624,0.342595
4509779,1,-1.552,-0.51024,0.0160485,-2.08322,1.57903,1.60622,0.784992,-1.54906,-0.509194,0.0195243,-2.07962,1.58027,1.60952,0.785467,0.59997,0.412686,0.517814,0.422667,0.279621,1.1423,0.000690058,0.666108,0.451357,0.60954,0.456638,0.283967,1.20709,-0.00377658,13.1653,-2.78232,19.5423,21.8405,0.417803,-1.13321,0.259287,0.957156,-0.412924,2.06744,2.96197,0.349532,0.0373491,0.343599
4509780,1,-1.55136,-0.509792,0.016592,-2.08277,1.57932,1.6074,0.784991,-1.54839,-0.508735,0.0201438,-2.07915,1.58056,1.61074,0.785463,0.605567,0.418317,0.523243,0.428625,0.280871,1.15263,0.000460039,0.676087,0.458847,0.61953,0.464236,0.28825,1.2263,-0.00399754,13.0899,-2.88547,19.5423,21.7652,0.417803,-1.10666,0.259287,0.963485,-0.437269,2.0835,2.98671,0.348184,0.0434291,0.344311
4509781,1,-1.55073,-0.509346,0.0171501,-2.08232,1.57961,1.60862,0.78498,-1.5477,-0.508269,0.0207734,-2.07868,1.58085,1.61199,0.785459,0.616241,0.426252,0.535802,0.443443,0.277136,1.16341,-0.0032876,0.686065,0.466337,0.62952,0.471834,0.292533,1.2455,-0.0042185,13.1415,-2.98465,19.697,21.666,0.412309,-1.11399,0.356333,0.975912,-0.45464,2.10811,3.00941,0.34656,0.0487421,0.344795
4509782,1,-1.55009,-0.508874,0.0177296,-2.08186,1.5799,1.60986,0.784985,-1.547,-0.507795,0.0214129,-2.0782,1.58115,1.61325,0.785455,0.613508,0.439287,0.54902,0.44451,0.277736,1.21042,-0.000496312,0.696044,0.473827,0.63951,0.479432,0.296815,1.26471,-0.00443946,13.3676,-3.16318,19.697,21.5668,0.423296,-1.2678,0.310557,0.995536,-0.468337,2.1414,3.02954,0.344857,0.0529352,0.34513
4509783,1,-1.54944,-0.508413,0.0183147,-2.08139,1.5802,1.61113,0.784986,-1.5463,-0.507314,0.0220624,-2.07771,1.58145,1.61454,0.78545,0.62758,0.444114,0.557349,0.452167,0.282366,1.23308,0.000143843,0.706022,0.481317,0.6495,0.487031,0.301098,1.28392,-0.00466042,13.5462,-3.1116,19.6693,21.4438,0.339067,-1.4097,0.297739,1.02439,-0.488767,2.18477,3.05262,0.343397,0.0552066,0.345386
4509784,1,-1.54878,-0.507961,0.0189134,-2.08092,1.58051,1.61242,0.784992,-1.54558,-0.506825,0.0227219,-2.07722,1.58175,1.61584,0.785445,0.633537,0.446413,0.568394,0.458154,0.29077,1.25064,0.00199477,0.714656,0.488807,0.65949,0.494514,0.305152,1.30173,-0.00497442,13.4708,-2.98465,19.7962,21.3169,0.236528,-1.46097,0.24647,1.06152,-0.510384,2.23705,3.07676,0.342115,0.0555377,0.345604
4509785,1,-1.5481,-0.507488,0.0195172,-2.08042,1.58082,1.61372,0.784999,-1.54486,-0.506329,0.0233913,-2.07672,1.58206,1.61716,0.78544,0.643965,0.45482,0.579937,0.466622,0.29185,1.27075,0.00349998,0.723289,0.496297,0.66948,0.501997,0.309206,1.31955,-0.00528842,13.4192,-2.90927,19.8478,21.1185,0.146807,-1.69352,0.187876,1.1033,-0.521618,2.29351,3.09593,0.340721,0.0545191,0.345776
4509786,1,-1.54742,-0.507013,0.0201387,-2.07992,1.5811,1.61506,0.785011,-1.54413,-0.505825,0.0240708,-2.07621,1.58238,1.6185,0.785434,0.655019,0.460543,0.593052,0.476334,0.290815,1.2899,0.00640233,0.731922,0.503787,0.67947,0.50948,0.31326,1.33737,-0.00560241,13.5977,-2.88547,19.7962,20.9201,0.225542,-1.95078,0.0780126,1.14536,-0.520671,2.34821,3.10798,0.339053,0.0525944,0.345842
4509787,1,-1.54674,-0.506528,0.0207672,-2.07941,1.5814,1.61639,0.785013,-1.54339,-0.505314,0.0247603,-2.07569,1.58269,1.61985,0.785428,0.67155,0.464158,0.601262,0.486169,0.29568,1.29579,0.00403086,0.740555,0.511277,0.68946,0.516963,0.317314,1.35518,-0.00591641,13.6731,-2.83389,19.8478,20.7456,0.276811,-1.82169,0.0844213,1.18244,-0.504047,2.39467,3.10963,0.33695,0.0502409,0.345678
4509788,1,-1.54603,-0.506029,0.0213844,-2.07888,1.58171,1.61769,0.785017,-1.54264,-0.504795,0.0254597,-2.07517,1.58301,1.62123,0.785422,0.685442,0.47845,0.600686,0.496099,0.297885,1.29482,0.00339932,0.749188,0.518767,0.69945,0.524447,0.321367,1.373,-0.00623041,13.5977,-2.8577,19.9747,20.571,0.400408,-1.53238,0.0651953,1.21388,-0.472956,2.43402,3.09998,0.334225,0.0474151,0.34512
4509789,1,-1.54532,-0.505528,0.0220299,-2.07835,1.58202,1.61905,0.785018,-1.54188,-0.504269,0.0261692,-2.07463,1.58334,1.62262,0.785415,0.687965,0.487529,0.612904,0.508875,0.299375,1.30446,0.00250357,0.757821,0.526257,0.70944,0.53193,0.325421,1.39081,-0.0065444,13.6215,-2.83389,19.9747,20.325,0.406816,-1.40329,0.0587866,1.24484,-0.439377,2.47471,3.08296,0.330868,0.0435105,0.34405
4509790,1,-1.54461,-0.505015,0.0226828,-2.07781,1.58235,1.62042,0.785,-1.54111,-0.503735,0.0268886,-2.07409,1.58367,1.62402,0.785409,0.698481,0.493648,0.620674,0.514996,0.306275,1.32981,-0.00311204,0.766454,0.533747,0.71943,0.539413,0.329475,1.40863,-0.0068584,13.7207,-2.83389,19.8994,20.2259,0.366533,-1.46097,0.187876,1.2795,-0.408521,2.52178,3.06046,0.32712,0.0382874,0.342419
4509791,1,-1.54387,-0.504502,0.023337,-2.07725,1.58268,1.62183,0.784999,-1.54034,-0.503194,0.027618,-2.07355,1.584,1.62545,0.785401,0.713388,0.498011,0.629844,0.529239,0.314179,1.34912,-0.00207469,0.775087,0.541237,0.72942,0.546896,0.333529,1.42644,-0.0071724,13.5462,-2.90927,19.9985,20.1267,0.253923,-1.66056,0.187876,1.31729,-0.373467,2.57377,3.0298,0.32319,0.032204,0.340274
4509792,1,-1.54313,-0.503977,0.024025,-2.07672,1.58303,1.62325,0.785003,-1.53956,-0.502645,0.0283574,-2.07299,1.58434,1.6269,0.785394,0.715247,0.504476,0.646577,0.52974,0.325253,1.35693,4.10249e-05,0.78372,0.548727,0.73941,0.554379,0.337583,1.44426,-0.0074864,13.2922,-2.8577,19.9232,20.325,0.10103,-1.71274,0.149424,1.35471,-0.328326,2.62521,2.98962,0.319189,0.0260187,0.337783
4509793,1,-1.54238,-0.503442,0.0247091,-2.07616,1.58337,1.62464,0.785004,-1.53876,-0.502089,0.0291068,-2.07243,1.58468,1.62836,0.785386,0.721313,0.513671,0.655407,0.529713,0.340193,1.36966,0.000264709,0.792353,0.556217,0.7494,0.561862,0.341637,1.46208,-0.00780039,13.2684,-2.8577,19.824,20.5234,-0.0179884,-1.53879,0.143015,1.39061,-0.281707,2.67312,2.94863,0.315254,0.0199054,0.335069
4509794,1,-1.54164,-0.502922,0.0254135,-2.0756,1.5837,1.62608,0.785007,-1.53796,-0.501525,0.0298662,-2.07186,1.58503,1.62984,0.785378,0.715071,0.51517,0.667604,0.54014,0.342154,1.38745,0.00139718,0.799187,0.563692,0.75939,0.569215,0.34543,1.47824,-0.00829532,13.2684,-2.75851,19.7724,20.6226,0.0387743,-1.39048,0.110056,1.4296,-0.240263,2.72337,2.91349,0.311141,0.0130836,0.332174
4509795,1,-1.54088,-0.502364,0.0261106,-2.07504,1.58404,1.62751,0.785003,-1.53716,-0.500954,0.0306356,-2.07129,1.58538,1.63133,0.785369,0.724565,0.527083,0.6752,0.545518,0.340717,1.4038,-0.00171341,0.806021,0.571168,0.76938,0.576568,0.349223,1.4944,-0.00879024,13.3676,-2.88547,19.8478,20.821,0.163286,-1.25498,0.181467,1.47674,-0.200447,2.78316,2.882,0.306405,0.00487547,0.329135
4509796,1,-1.5401,-0.501801,0.0268342,-2.07445,1.58439,1.629,0.784981,-1.53634,-0.500375,0.031415,-2.0707,1.58573,1.63284,0.78536,0.738348,0.55137,0.696029,0.555351,0.338387,1.43159,-0.00761878,0.812855,0.578644,0.77937,0.58392,0.353017,1.51057,-0.00928516,13.4192,-3.0878,19.824,20.7972,0.225542,-1.24216,0.356333,1.5272,-0.178997,2.84586,2.86065,0.301426,-0.00401376,0.326006
4509797,1,-1.53931,-0.501232,0.0275607,-2.07387,1.58475,1.63049,0.784956,-1.53553,-0.499789,0.0322043,-2.07011,1.58609,1.63437,0.78535,0.748176,0.555089,0.703807,0.559761,0.34598,1.43752,-0.0167824,0.819689,0.586119,0.78936,0.591273,0.35681,1.52673,-0.00978008,13.1177,-3.23856,19.9747,20.8963,0.157793,-1.14603,0.544016,1.57097,-0.195745,2.89754,2.85811,0.29698,-0.0120165,0.322954
4509798,1,-1.53851,-0.500646,0.028282,-2.07329,1.58511,1.632,0.784941,-1.5347,-0.499195,0.0330037,-2.06951,1.58645,1.63591,0.78534,0.76397,0.566497,0.713286,0.563056,0.349727,1.45946,-0.0139578,0.826523,0.593595,0.79935,0.598626,0.360603,1.5429,-0.010275,12.9392,-3.38931,19.9985,21.0431,0.146807,-1.21653,0.608103,1.60482,-0.24434,2.9351,2.87269,0.293229,-0.0182192,0.320318
4509799,1,-1.53771,-0.500069,0.0290342,-2.07271,1.58548,1.63354,0.784951,-1.53387,-0.498594,0.033813,-2.06891,1.58681,1.63747,0.785329,0.77724,0.567612,0.719721,0.581685,0.351519,1.4813,-0.00434641,0.833357,0.601071,0.80934,0.605978,0.364396,1.55906,-0.0107699,13.0145,-3.46469,19.8478,21.2177,0.157793,-1.30076,0.466196,1.62977,-0.303937,2.9626,2.89408,0.289801,-0.022479,0.318515
4509800,1,-1.53693,-0.49949,0.0297963,-2.07213,1.58584,1.6351,0.784956,-1.53303,-0.497986,0.0346323,-2.06829,1.58718,1.63904,0.785318,0.782468,0.571473,0.735295,0.57916,0.353843,1.52716,-7.77231e-07,0.840191,0.608546,0.81933,0.613331,0.36819,1.57523,-0.0112649,13.1415,-3.41708,19.6454,21.4676,0.129411,-1.3328,0.381968,1.64809,-0.351567,2.98429,2.91005,0.286308,-0.0252579,0.317788
4509801,1,-1.53611,-0.498881,0.0305467,-2.07152,1.58621,1.63661,0.784965,-1.53218,-0.49737,0.0354617,-2.06767,1.58755,1.64064,0.785306,0.79729,0.58345,0.739001,0.584716,0.360757,1.51687,0.00461351,0.847025,0.616022,0.82932,0.620684,0.371983,1.59139,-0.0117598,12.9154,-3.56784,19.6693,21.6422,0.10103,-1.08103,0.252878,1.66251,-0.384879,3.00335,2.9223,0.282767,-0.0271681,0.318041
4509802,1,-1.53529,-0.498273,0.0313056,-2.07093,1.58659,1.63817,0.78497,-1.53132,-0.496746,0.036301,-2.06704,1.58793,1.64224,0.785294,0.800698,0.592675,0.739386,0.586863,0.370296,1.52981,0.00512052,0.853859,0.623498,0.83931,0.628036,0.375776,1.60756,-0.0122547,12.6138,-3.77017,19.7446,21.789,0.0845506,-0.965673,0.194285,1.67835,-0.419232,3.02761,2.94076,0.279114,-0.0288004,0.318947
4509803,1,-1.53447,-0.497652,0.0320814,-2.07031,1.58697,1.63976,0.784964,-1.53046,-0.496115,0.0371503,-2.06641,1.58831,1.64387,0.785281,0.807774,0.598828,0.750709,0.595176,0.372259,1.54853,0.00043749,0.860692,0.630973,0.8493,0.635389,0.37957,1.62372,-0.0127496,12.5623,-3.86935,19.697,21.7414,0.078142,-1.0618,0.272104,1.70242,-0.46019,3.06723,2.96794,0.275047,-0.0308188,0.320118
4509804,1,-1.53365,-0.497028,0.0328794,-2.06968,1.58734,1.64138,0.784965,-1.5296,-0.495477,0.0380096,-2.06577,1.58869,1.64551,0.785267,0.817732,0.606326,0.76505,0.60232,0.376487,1.5602,0.000221181,0.865507,0.638195,0.85929,0.642455,0.383075,1.63802,-0.0133713,12.5345,-4.02011,19.6454,21.666,0.123918,-1.18448,0.272104,1.73204,-0.501566,3.11761,2.99957,0.270592,-0.0326963,0.321278
4509805,1,-1.5328,-0.4964,0.0337053,-2.06907,1.58774,1.64301,0.784959,-1.52873,-0.494832,0.0388788,-2.06512,1.58908,1.64716,0.785254,0.835195,0.609623,0.777015,0.608126,0.382736,1.57765,-0.00180428,0.870322,0.645416,0.86928,0.64952,0.38658,1.65233,-0.0139931,12.3084,-4.07169,19.5423,21.6898,0.0726488,-1.13321,0.323374,1.75652,-0.534766,3.16309,3.03035,0.266024,-0.0329348,0.322336
4509806,1,-1.53193,-0.495767,0.0345352,-2.06844,1.58814,1.6446,0.784971,-1.52785,-0.494179,0.0397581,-2.06446,1.58947,1.64882,0.785239,0.848399,0.618217,0.791947,0.612339,0.386309,1.58259,0.00353859,0.875136,0.652638,0.87927,0.656586,0.390085,1.66663,-0.0146148,12.0307,-3.9725,19.1654,21.6898,-0.0573561,-0.868627,0.194285,1.76632,-0.555774,3.19025,3.05843,0.261646,-0.0303365,0.323296
4509807,1,-1.53105,-0.495137,0.0353858,-2.0678,1.58854,1.64624,0.784978,-1.52697,-0.493519,0.0406474,-2.0638,1.58986,1.65051,0.785224,0.851167,0.618792,0.808873,0.620958,0.391518,1.58977,0.00521154,0.879951,0.659859,0.88926,0.663651,0.39359,1.68093,-0.0152365,11.5784,-3.89713,18.7845,21.6422,-0.141585,-0.720311,0.116465,1.7573,-0.561848,3.19258,3.08244,0.257528,-0.024286,0.324158
4509808,1,-1.53014,-0.494492,0.03625,-2.06715,1.58893,1.64791,0.784984,-1.52609,-0.492852,0.0415466,-2.06313,1.59026,1.6522,0.785208,0.868276,0.625527,0.812027,0.626585,0.39261,1.61646,0.00535093,0.884766,0.667081,0.89925,0.670717,0.397095,1.69523,-0.0158582,10.9238,-3.84555,18.2767,21.4676,-0.0289747,-0.946447,0.0651953,1.73285,-0.547503,3.17464,3.09887,0.253316,-0.015119,0.324804
4509809,1,-1.52924,-0.493856,0.037141,-2.06649,1.58933,1.64963,0.784984,-1.5252,-0.492178,0.0424559,-2.06245,1.59066,1.65391,0.785191,0.872842,0.627275,0.833214,0.634059,0.391423,1.64471,0.0131194,0.88958,0.674302,0.90924,0.677782,0.4006,1.70953,-0.01648,10.5707,-3.7186,17.7729,21.2931,0.027788,-1.30076,0.0587866,1.6974,-0.510808,3.1433,3.10597,0.248739,-0.00371487,0.325031
4509810,1,-1.52834,-0.493211,0.0380376,-2.06582,1.58974,1.65134,0.784984,-1.5243,-0.491496,0.0433751,-2.06176,1.59106,1.65563,0.785174,0.868101,0.634023,0.857952,0.64629,0.396382,1.65449,0.00951133,0.894395,0.681524,0.91923,0.684848,0.404105,1.72384,-0.0171017,10.1898,-3.54007,17.2889,21.0947,0.0387743,-1.41611,0.0587866,1.65052,-0.45115,3.09629,3.10201,0.243953,0.00939021,0.324693
4509811,1,-1.52742,-0.492549,0.0389123,-2.06513,1.59016,1.65304,0.784977,-1.5234,-0.490808,0.0443043,-2.06107,1.59147,1.65737,0.785156,0.880849,0.643961,0.86869,0.656259,0.401862,1.66876,0.0045411,0.89921,0.688745,0.92922,0.691913,0.40761,1.73814,-0.0177234,9.78517,-3.44089,17.2413,20.7972,0.0158861,-1.50675,0.122873,1.59111,-0.372717,3.03031,3.08625,0.239173,0.0236338,0.323743
4509812,1,-1.52653,-0.491885,0.0398309,-2.06445,1.59057,1.65476,0.784976,-1.5225,-0.490112,0.0452435,-2.06037,1.59188,1.65912,0.785138,0.873294,0.649111,0.881617,0.670306,0.40117,1.6738,0.00416984,0.904024,0.695967,0.93921,0.698979,0.411115,1.75244,-0.0183451,9.76136,-3.49246,17.0627,20.5472,-0.000593394,-1.42893,0.103647,1.5237,-0.282793,2.9528,3.05947,0.234303,0.0376864,0.322226
4509813,1,-1.52566,-0.491199,0.0407483,-2.06375,1.59098,1.65646,0.784983,-1.52159,-0.489408,0.0461927,-2.05967,1.5923,1.66089,0.785119,0.873566,0.659705,0.910137,0.674335,0.404672,1.67865,0.00574751,0.908839,0.703188,0.9492,0.706044,0.41462,1.76674,-0.0189669,10.3684,-3.66702,17.0389,20.448,-0.0179884,-1.16526,0.0322363,1.45227,-0.186931,2.86941,3.02378,0.229325,0.0506101,0.320257
4509814,1,-1.52476,-0.490517,0.0416678,-2.06304,1.59139,1.65821,0.784984,-1.52068,-0.488698,0.0471519,-2.05895,1.59271,1.66267,0.7851,0.877753,0.687194,0.916987,0.68064,0.40935,1.69369,0.00454847,0.911526,0.709977,0.95919,0.712687,0.417796,1.77908,-0.0196779,10.8444,-3.82175,17.2413,20.325,0.0616625,-1.1973,0.0194189,1.37682,-0.112302,2.77861,2.99378,0.2247,0.0623109,0.317883
4509815,1,-1.52388,-0.489822,0.0425813,-2.06233,1.59182,1.65998,0.784977,-1.51977,-0.487982,0.0481211,-2.05823,1.59313,1.66446,0.785079,0.876985,0.688489,0.910467,0.689331,0.412502,1.70547,0.00104373,0.914214,0.716766,0.96918,0.71933,0.420971,1.79141,-0.0203889,11.2769,-3.9725,17.6459,20.1743,0.0222948,-1.25498,0.0780126,1.30909,-0.0849806,2.69786,2.98245,0.220352,0.0712975,0.315048
4509816,1,-1.52297,-0.489118,0.043501,-2.06162,1.59227,1.66176,0.784977,-1.51885,-0.487258,0.0491003,-2.05751,1.59356,1.66627,0.785058,0.890114,0.692951,0.911836,0.69631,0.423536,1.72757,0.000594629,0.916901,0.723554,0.97917,0.725972,0.424146,1.80375,-0.0210999,11.4514,-4.04788,17.8483,20.325,-0.130598,-1.48752,0.0844213,1.26588,-0.0883471,2.65369,2.98158,0.215452,0.0756806,0.311744
4509817,1,-1.52207,-0.488414,0.044433,-2.06091,1.59272,1.66355,0.784978,-1.51793,-0.486528,0.0500894,-2.05677,1.59399,1.66808,0.785036,0.894272,0.696484,0.90838,0.719359,0.436455,1.73806,0.00219397,0.919589,0.730343,0.98916,0.732615,0.427322,1.81608,-0.021811,11.63,-4.22244,18.0506,20.4242,-0.288985,-1.55161,0.038645,1.25239,-0.088399,2.65576,2.97279,0.209184,0.0751511,0.308068
4509818,1,-1.52117,-0.487697,0.045366,-2.06018,1.59315,1.66538,0.784977,-1.51701,-0.485791,0.0510886,-2.05604,1.59442,1.66991,0.785014,0.882961,0.700202,0.914624,0.725117,0.4318,1.79368,0.00126797,0.922276,0.737132,0.99915,0.739258,0.430497,1.82842,-0.022522,11.7807,-4.32559,18.3283,20.571,-0.221235,-1.62851,0.0459692,1.2731,-0.0640159,2.70993,2.94298,0.200904,0.0689824,0.304122
4509819,1,-1.52028,-0.486961,0.046303,-2.05944,1.59357,1.66716,0.784977,-1.51608,-0.485047,0.0520977,-2.05529,1.59485,1.67175,0.78499,0.878173,0.706343,0.923307,0.722895,0.428829,1.79862,0.00212346,0.924964,0.743921,1.00914,0.745901,0.433673,1.84075,-0.023233,12.233,-4.55173,18.3045,20.8448,-0.130598,-1.42252,0.0130102,1.33218,-0.0177734,2.81852,2.8974,0.1907,0.0561879,0.299937
4509820,1,-1.51941,-0.486212,0.0472735,-2.05871,1.59402,1.66899,0.784966,-1.51515,-0.484296,0.0531168,-2.05454,1.59529,1.6736,0.784967,0.864449,0.725211,0.946344,0.728359,0.431236,1.79228,-0.000474054,0.927651,0.750709,1.01913,0.752543,0.436848,1.85309,-0.0239441,12.6614,-5.00797,18.1776,21.1185,-0.0289747,-1.19089,0.0651953,1.42178,0.0240767,2.96565,2.85591,0.179531,0.0381041,0.295527
4509821,1,-1.51848,-0.485448,0.0482145,-2.05796,1.59447,1.67081,0.784955,-1.51422,-0.483538,0.054146,-2.05378,1.59573,1.67547,0.784942,0.883597,0.736038,0.954501,0.736015,0.430857,1.80424,-0.00265731,0.930339,0.757498,1.02912,0.759186,0.440023,1.86542,-0.0246551,12.4115,-5.41263,18.3521,21.2177,0.0103929,-1.01053,0.129282,1.52431,0.0356887,3.12344,2.83309,0.16851,0.0180293,0.29095
4509822,1,-1.51755,-0.484692,0.0491963,-2.05721,1.59492,1.67269,0.784928,-1.51329,-0.482774,0.0551851,-2.05301,1.59617,1.67735,0.784916,0.902507,0.747615,0.960213,0.735927,0.434402,1.81772,-0.0117629,0.933026,0.764287,1.03911,0.765829,0.443199,1.87776,-0.0253661,12.106,-5.76572,18.1498,21.4676,-0.0454542,-1.10666,0.272104,1.62206,0.00903829,3.2682,2.83303,0.158445,-0.000767033,0.28632
4509823,1,-1.51665,-0.483932,0.0501994,-2.05647,1.59539,1.6746,0.784913,-1.51236,-0.482003,0.0562342,-2.05224,1.59662,1.67924,0.78489,0.911306,0.748722,0.973348,0.738099,0.439566,1.83626,-0.0133856,0.935713,0.771076,1.0491,0.772472,0.446374,1.89009,-0.0260771,11.983,-5.78952,17.9236,21.6144,-0.215742,-1.26139,0.284922,1.70424,-0.0478877,3.38771,2.85407,0.149716,-0.016254,0.281835
4509824,1,-1.51573,-0.483168,0.0512093,-2.05571,1.59584,1.67646,0.784907,-1.51142,-0.481226,0.0572933,-2.05146,1.59707,1.68114,0.784864,0.915304,0.748609,0.989099,0.742411,0.444834,1.84635,-0.0106282,0.936262,0.777298,1.05909,0.778578,0.449153,1.90044,-0.0268549,11.8045,-5.74191,17.5428,21.5906,-0.272505,-1.20371,0.187876,1.76661,-0.111864,3.47681,2.88686,0.142204,-0.0276312,0.27775
4509825,1,-1.51482,-0.482395,0.0522395,-2.05495,1.59629,1.67834,0.78489,-1.51048,-0.480442,0.0583623,-2.05068,1.59752,1.68305,0.784836,0.907105,0.756054,0.998229,0.752258,0.450568,1.84637,-0.0156969,0.93681,0.78352,1.06908,0.784684,0.451932,1.9108,-0.0276327,11.6776,-5.86887,17.3682,21.4676,-0.25511,-1.02976,0.143015,1.81272,-0.161255,3.53996,2.91968,0.135281,-0.0353891,0.274232
4509826,1,-1.51391,-0.481618,0.0532719,-2.05417,1.59675,1.68021,0.784888,-1.50955,-0.479653,0.0594414,-2.04989,1.59797,1.68497,0.784808,0.910753,0.757877,1.01112,0.755109,0.449875,1.85738,-0.0141522,0.937359,0.789742,1.07907,0.79079,0.454712,1.92115,-0.0284106,11.6776,-5.89267,17.0865,21.2455,-0.237715,-0.798131,-0.0510767,1.85109,-0.190072,3.58878,2.94702,0.128296,-0.0407549,0.271246
4509827,1,-1.51297,-0.480843,0.0543224,-2.05336,1.59721,1.68212,0.784866,-1.50861,-0.478857,0.0605305,-2.04909,1.59843,1.6869,0.784778,0.915036,0.764096,1.01405,0.766315,0.454723,1.87473,-0.0192539,0.937907,0.795964,1.08906,0.796896,0.457491,1.93151,-0.0291884,11.376,-5.94424,16.8842,20.8725,-0.221235,-0.636998,-0.0904444,1.88713,-0.197176,3.6316,2.96626,0.120908,-0.0444814,0.268573
4509828,1,-1.51204,-0.48006,0.0553822,-2.05256,1.59768,1.68408,0.784826,-1.50767,-0.478054,0.0616295,-2.04829,1.59889,1.68884,0.784748,0.906136,0.765405,1.02181,0.77493,0.452851,1.8882,-0.0282862,0.938456,0.802187,1.09905,0.803002,0.46027,1.94186,-0.0299662,10.9476,-5.96805,16.785,20.4996,-0.198347,-0.778905,0.0130102,1.92772,-0.179907,3.67928,2.97302,0.112805,-0.0474326,0.265882
4509829,1,-1.51111,-0.479272,0.0564433,-2.05174,1.59816,1.68602,0.784784,-1.50673,-0.477246,0.0627386,-2.04748,1.59935,1.69079,0.784718,0.91076,0.770145,1.04373,0.78546,0.459909,1.90548,-0.0330197,0.939004,0.808409,1.10904,0.809108,0.463049,1.95221,-0.030744,10.7214,-5.86887,16.5311,20.2497,-0.260603,-1.00412,0.0780126,1.97448,-0.135116,3.7341,2.96287,0.103967,-0.0497532,0.262936
4509830,1,-1.51019,-0.478498,0.0575254,-2.05093,1.59864,1.68799,0.784754,-1.50579,-0.476431,0.0638576,-2.04666,1.59982,1.69276,0.784686,0.917968,0.772635,1.05147,0.793052,0.471356,1.90809,-0.032412,0.939553,0.814631,1.11903,0.815214,0.465828,1.96257,-0.0315218,10.5945,-5.71414,16.178,20.0751,-0.368635,-1.15885,0.038645,2.01711,-0.0622926,3.78195,2.93424,0.0947428,-0.0501731,0.25973
4509831,1,-1.50925,-0.477704,0.058607,-2.0501,1.59914,1.68994,0.784719,-1.50485,-0.47561,0.0649866,-2.04584,1.60029,1.69473,0.784654,0.929992,0.776673,1.08369,0.802635,0.472766,1.96385,-0.0330461,0.940101,0.820853,1.12902,0.82132,0.468608,1.97292,-0.0322996,10.2414,-5.58719,15.8964,19.8767,-0.436384,-1.24857,0.0194189,2.04191,0.0365983,3.80429,2.88786,0.0855537,-0.0474861,0.256349
4509832,1,-1.50831,-0.476906,0.0597236,-2.04928,1.59961,1.69194,0.784698,-1.50391,-0.474783,0.0661256,-2.04501,1.60076,1.69671,0.784621,0.940974,0.776157,1.10615,0.803052,0.470667,1.96557,-0.0298742,0.94065,0.827075,1.13901,0.827427,0.471387,1.98327,-0.0330774,9.93989,-5.48801,15.5949,19.9759,-0.390608,-1.46097,-0.0968531,2.03295,0.159361,3.77793,2.82688,0.0770278,-0.0404311,0.252854
4509833,1,-1.50737,-0.476104,0.0608552,-2.04845,1.60009,1.69398,0.784675,-1.50297,-0.47395,0.0672746,-2.04418,1.60123,1.69871,0.784587,0.932923,0.784878,1.10644,0.809028,0.470093,1.98302,-0.0284074,0.941198,0.833297,1.149,0.833533,0.474166,1.99363,-0.0338552,9.70979,-5.53958,15.2378,19.9997,-0.249617,-1.95719,-0.200308,1.99136,0.29739,3.70454,2.75848,0.0692258,-0.0298169,0.249202
4509834,1,-1.50641,-0.475273,0.0619807,-2.04763,1.60057,1.69596,0.78465,-1.50203,-0.473111,0.0684332,-2.04334,1.60171,1.70071,0.784552,0.941744,0.796053,1.11687,0.807004,0.471917,1.98319,-0.029755,0.939915,0.838854,1.15855,0.839012,0.476441,2.00185,-0.0346894,9.25752,-5.81729,14.9601,20.2259,-0.15898,-1.88669,-0.246084,1.9377,0.427902,3.61473,2.69532,0.061671,-0.0192424,0.245203
4509835,1,-1.50543,-0.474427,0.0631312,-2.04679,1.60105,1.69794,0.784593,-1.50109,-0.472267,0.0696013,-2.0425,1.60219,1.70272,0.784517,0.954451,0.812524,1.13096,0.831955,0.473494,1.9619,-0.0413591,0.938632,0.844411,1.1681,0.844492,0.478716,2.01007,-0.0355237,8.7021,-6.27353,14.8093,20.2735,-0.0518629,-1.59647,0.000192821,1.87757,0.529739,3.51824,2.64522,0.0543786,-0.0101277,0.240661
4509836,1,-1.50449,-0.473572,0.0643287,-2.04594,1.60154,1.69994,0.784554,-1.50015,-0.471417,0.0707789,-2.04165,1.60267,1.70474,0.78448,0.950868,0.820053,1.1517,0.828418,0.477544,1.96576,-0.038721,0.937349,0.849968,1.17764,0.849972,0.480991,2.0183,-0.0363579,8.65052,-6.7258,14.3015,20.3965,-0.0518629,-1.30076,0.09083,1.80316,0.597104,3.40501,2.60705,0.0477422,-0.00140993,0.235584
4509837,1,-1.50356,-0.472721,0.0655247,-2.04508,1.60203,1.70193,0.784515,-1.49922,-0.470561,0.0719661,-2.04079,1.60315,1.70676,0.784443,0.944047,0.826532,1.16905,0.83202,0.479703,1.9764,-0.0414176,0.936066,0.855525,1.18719,0.855451,0.483265,2.02652,-0.0371922,8.80128,-6.92813,13.7977,20.5472,-0.136091,-1.1973,0.187876,1.71541,0.630536,3.27485,2.58309,0.0421682,0.00707101,0.23021
4509838,1,-1.50261,-0.471882,0.0667093,-2.04425,1.60253,1.70394,0.784485,-1.49828,-0.4697,0.0731628,-2.03993,1.60364,1.7088,0.784405,0.939274,0.829848,1.17084,0.829773,0.478162,1.97064,-0.0388092,0.934783,0.861082,1.19674,0.860931,0.48554,2.03474,-0.0380264,8.62672,-7.07889,13.6945,20.9201,-0.141585,-1.05539,0.162241,1.62614,0.635223,3.1429,2.57591,0.0376039,0.0142277,0.224881
4509839,1,-1.50164,-0.47104,0.0678683,-2.0434,1.60303,1.7059,0.78446,-1.49735,-0.468834,0.0743691,-2.03906,1.60413,1.71084,0.784366,0.953043,0.831558,1.16958,0.831641,0.483919,1.96704,-0.034586,0.9335,0.866638,1.20629,0.866411,0.487815,2.04296,-0.0388607,8.24983,-7.00351,13.8215,21.2693,-0.345747,-0.592137,0.0651953,1.54775,0.622891,3.02808,2.58255,0.033446,0.019176,0.219899
4509840,1,-1.50069,-0.470196,0.0690665,-2.04255,1.60353,1.70791,0.784439,-1.49642,-0.467961,0.075585,-2.03819,1.60462,1.71289,0.784327,0.950787,0.832501,1.17835,0.838079,0.48998,1.9734,-0.034655,0.932216,0.872195,1.21583,0.87189,0.49009,2.05119,-0.0396949,8.29744,-7.07889,13.6191,21.4676,-0.475752,-0.40537,-0.0840357,1.4837,0.610182,2.93791,2.59547,0.0290493,0.0223546,0.215393
4509841,1,-1.49977,-0.469336,0.0702587,-2.04168,1.60402,1.70997,0.784415,-1.49548,-0.467084,0.0768103,-2.03731,1.60511,1.71495,0.784286,0.929687,0.835937,1.17615,0.848976,0.482699,1.98706,-0.0323367,0.930933,0.877752,1.22538,0.87737,0.492365,2.05941,-0.0405291,8.49977,-7.13046,13.8215,21.3446,-0.452864,-0.546361,-0.181082,1.44145,0.612142,2.88323,2.60469,0.0236218,0.0235258,0.211264
4509842,1,-1.49884,-0.468462,0.0714456,-2.04079,1.60451,1.71203,0.784371,-1.49456,-0.4662,0.0780453,-2.03643,1.6056,1.71702,0.784245,0.922801,0.847628,1.18514,0.855332,0.48972,2.01515,-0.0373534,0.92965,0.883309,1.23493,0.88285,0.49464,2.06763,-0.0413634,8.6783,-7.28122,14.0238,21.0947,-0.413496,-0.940038,-0.0968531,1.43516,0.627052,2.88197,2.60741,0.0164637,0.0210474,0.207221
4509843,1,-1.49793,-0.467596,0.0726643,-2.03993,1.60503,1.71408,0.784346,-1.49363,-0.465312,0.0792897,-2.03554,1.6061,1.7191,0.784202,0.901402,0.854275,1.18838,0.860741,0.497483,2.01417,-0.0344639,0.928367,0.888866,1.24448,0.888329,0.496915,2.07586,-0.0421976,8.95601,-7.38437,14.0516,20.9955,-0.492232,-0.894261,-0.174673,1.4707,0.639221,2.94004,2.60953,0.00745006,0.0139327,0.202967
4509844,1,-1.497,-0.466733,0.0738722,-2.03905,1.60553,1.71607,0.784306,-1.4927,-0.464418,0.0805428,-2.03465,1.6066,1.72118,0.784159,0.909844,0.849141,1.17045,0.864879,0.497506,2.00869,-0.033099,0.925652,0.893692,1.25309,0.893102,0.498509,2.08187,-0.0430842,9.00361,-7.25742,14.0516,20.8963,-0.554487,-0.617772,-0.116079,1.54953,0.648951,3.05999,2.61123,-0.0035966,0.001816,0.19836
4509845,1,-1.49605,-0.465865,0.0750884,-2.03814,1.60602,1.71813,0.784265,-1.49178,-0.463519,0.0818046,-2.03375,1.6071,1.72327,0.784115,0.922256,0.870683,1.17646,0.871137,0.494448,2.02059,-0.0369356,0.922937,0.898518,1.26171,0.897875,0.500103,2.08788,-0.0439708,8.87666,-7.25742,14.3293,20.6464,-0.40251,-0.553685,-0.044668,1.66394,0.658728,3.234,2.61163,-0.0166454,-0.0142419,0.193368
4509846,1,-1.49516,-0.464974,0.0763538,-2.03726,1.60652,1.72021,0.78422,-1.49086,-0.462616,0.0830749,-2.03285,1.6076,1.72536,0.784071,0.905567,0.875856,1.1965,0.878735,0.49599,2.03582,-0.0417416,0.920221,0.903345,1.27033,0.902648,0.501697,2.09389,-0.0448574,9.3567,-7.3566,14.0992,20.5234,-0.356734,-0.527135,0.0844213,1.79421,0.651675,3.43327,2.61807,-0.0307565,-0.0315261,0.188073
4509847,1,-1.49426,-0.464065,0.0776336,-2.03635,1.60705,1.72227,0.784175,-1.48994,-0.461708,0.0843538,-2.03194,1.6081,1.72746,0.784025,0.902753,0.885992,1.2209,0.88592,0.503348,2.04407,-0.0422378,0.917506,0.908171,1.27895,0.907421,0.503291,2.0999,-0.045744,9.68599,-7.6105,13.393,20.2735,-0.447371,-0.572911,0.143015,1.9213,0.622393,3.62597,2.63251,-0.0447746,-0.0473049,0.182702
4509848,1,-1.49329,-0.46316,0.0788803,-2.03545,1.60755,1.72438,0.784137,-1.48903,-0.460795,0.0856414,-2.03103,1.60861,1.72957,0.783978,0.927783,0.899745,1.21627,0.898123,0.502897,2.0565,-0.0403304,0.914791,0.912997,1.28756,0.912194,0.504885,2.10591,-0.0466306,8.7259,-7.99136,13.3414,20.1743,-0.40251,-0.707494,0.135691,2.03024,0.574773,3.78894,2.65171,-0.058005,-0.0593514,0.177561
4509849,1,-1.49232,-0.462247,0.0801406,-2.03454,1.60807,1.72646,0.784082,-1.48811,-0.459877,0.0869376,-2.03011,1.60911,1.73168,0.783931,0.942928,0.901175,1.24009,0.901525,0.504963,2.10935,-0.043907,0.912076,0.917823,1.29618,0.916967,0.506479,2.11192,-0.0475172,7.81739,-8.2413,13.036,20.0751,-0.429976,-0.80454,0.259287,2.10837,0.513595,3.90603,2.67222,-0.0700597,-0.0662515,0.172902
4509850,1,-1.49141,-0.461334,0.0814531,-2.03363,1.60858,1.72857,0.784044,-1.4872,-0.458954,0.0882424,-2.02919,1.60962,1.73379,0.783882,0.92846,0.904406,1.26502,0.89768,0.511481,2.11096,-0.0437338,0.90936,0.92265,1.3048,0.92174,0.508073,2.11793,-0.0484038,7.71821,-8.36826,12.302,20.3489,-0.447371,-0.836583,0.187876,2.14678,0.450657,3.96455,2.69204,-0.0804989,-0.0674754,0.168895
4509851,1,-1.4905,-0.460422,0.082763,-2.03274,1.60908,1.73073,0.784001,-1.4863,-0.458027,0.0895558,-2.02826,1.61013,1.73592,0.783833,0.913851,0.905634,1.27547,0.89689,0.504641,2.12409,-0.0452951,0.906645,0.927476,1.31341,0.926512,0.509666,2.12394,-0.0492904,7.4167,-8.59836,11.9211,20.7456,-0.266096,-1.17167,0.149424,2.15246,0.392146,3.97213,2.71401,-0.0893225,-0.0644181,0.165653
4509852,1,-1.48956,-0.459479,0.0840245,-2.03182,1.60958,1.7329,0.783952,-1.48539,-0.457095,0.0908778,-2.02733,1.61064,1.73805,0.783783,0.917316,0.915218,1.27005,0.900077,0.49988,2.14714,-0.0473287,0.90393,0.932302,1.32203,0.931285,0.51126,2.12995,-0.050177,6.96046,-8.97525,12.0005,20.9201,-0.0857374,-1.78324,0.129282,2.14702,0.335212,3.95983,2.74133,-0.0971316,-0.0606027,0.163164
4509853,1,-1.48865,-0.458544,0.0853697,-2.03092,1.61012,1.73499,0.783921,-1.48449,-0.456157,0.0922085,-2.0264,1.61116,1.74018,0.783732,0.908701,0.926366,1.29536,0.919572,0.507867,2.11897,-0.0427423,0.901215,0.937128,1.33065,0.936058,0.512854,2.13596,-0.0510636,7.06361,-9.32834,11.3895,21.2931,-0.333845,-1.27421,-0.0584009,2.14105,0.275161,3.94535,2.77188,-0.104282,-0.0582744,0.161323
4509854,1,-1.48775,-0.457605,0.0867098,-2.03,1.61065,1.73711,0.783884,-1.4836,-0.455216,0.0935465,-2.02546,1.61167,1.74232,0.78368,0.901517,0.925012,1.30143,0.91682,0.510025,2.10971,-0.0428104,0.897472,0.941188,1.33803,0.940057,0.513642,2.13983,-0.0519927,7.01204,-9.43149,11.1396,21.4676,-0.526106,-0.933629,-0.168264,2.13014,0.216884,3.92385,2.79906,-0.110807,-0.057113,0.15995
