shamilmamedov/beam_handling/log/param_estimation_ICRA/ocp_Xup_15cm_0.35s_5.csv
duration, success rate, q[0], q[1], q[2], q[3], q[4], q[5], q[6],q_d[0], q_d[1], q_d[2], q_d[3], q_d[4], q_d[5], q_d[6],dq[0], dq[1], dq[2], dq[3], dq[4], dq[5], dq[6],dq_d[0], dq_d[1], dq_d[2], dq_d[3], dq_d[4], dq_d[5], dq_d[6],tau_J[0], tau_J[1], tau_J[2], tau_J[3], tau_J[4], tau_J[5], tau_J[6],tau_ext_hat_filtered[0], tau_ext_hat_filtered[1], tau_ext_hat_filtered[2], tau_ext_hat_filtered[3], tau_ext_hat_filtered[4], tau_ext_hat_filtered[5], tau_ext_hat_filtered[6]
4341443,0,-1.57043,-0.522901,-5.46498e-05,-2.09645,1.57046,1.5716,0.785031,-1.5708,-0.523598,6.6685e-07,-2.0944,1.5708,1.5708,0.785397,-0.00049735,-0.000760989,0.000790613,0.000405012,-8.68894e-05,0.000220103,0.00043594,0,0,0,0,0,0,0,-0.430592,-10.1654,-0.484555,21.416,0.86458,-0.656224,0.110056,-0.456009,-1.05711,-0.0633613,2.89548,0.297602,-0.652893,0.170822
4341444,1,-1.57043,-0.5229,-5.66909e-05,-2.09646,1.57046,1.5716,0.785027,-1.5708,-0.523598,6.6685e-07,-2.0944,1.5708,1.5708,0.785397,0.000225245,4.94859e-05,-0.000679351,-0.00149323,0.000348975,0.000146735,-0.00116587,0,0,0,0,0,0,0,-0.454395,-10.1892,-0.432981,21.4914,0.853594,-0.656224,0.149424,-0.455386,-1.05478,-0.0625124,2.89427,0.297501,-0.652904,0.170864
4341445,1,-1.57043,-0.522899,-5.78353e-05,-2.09646,1.57046,1.57161,0.785033,-1.5708,-0.523598,6.6685e-07,-2.0944,1.5708,1.5708,0.785397,-0.000406648,-0.000523821,-0.00100971,-0.000438675,-0.000174251,9.78235e-05,0.00115671,0,0,0,0,0,0,0,-0.430592,-10.1654,-0.409177,21.4676,0.86458,-0.656224,0.0972387,-0.454509,-1.05342,-0.0612465,2.89403,0.297433,-0.652956,0.170877
4341446,1,-1.57043,-0.522901,-5.59895e-05,-2.09646,1.57046,1.5716,0.78503,-1.5708,-0.523598,6.6685e-07,-2.0944,1.5708,1.5708,0.785397,-0.000271099,-0.000349214,-0.00011633,0.000913976,-0.000523069,0.000302575,-0.000177412,0,0,0,0,0,0,0,-0.430592,-10.1654,-0.432981,21.416,0.875566,-0.662633,0.122873,-0.453098,-1.05203,-0.0591133,2.89381,0.297344,-0.653091,0.170878
4341447,1,-1.57043,-0.522899,-5.23118e-05,-2.09646,1.57046,1.5716,0.785027,-1.5708,-0.523598,6.6685e-07,-2.0944,1.5708,1.5708,0.785397,0.000376079,-0.000232809,0.00112887,-0.000597108,0.000261639,-0.000273001,-0.00110096,0,0,0,0,0,0,0,-0.454395,-10.1654,-0.484555,21.4676,0.859087,-0.649816,0.149424,-0.452314,-1.04979,-0.0579633,2.89286,0.297262,-0.653135,0.170864
4341448,1,-1.57043,-0.522903,-5.42411e-05,-2.09646,1.57046,1.5716,0.785033,-1.5708,-0.523598,6.6685e-07,-2.0944,1.5708,1.5708,0.785397,-0.000306092,-0.00080482,0.000102968,-0.000398072,0.000174426,-0.000182001,0.00119931,0,0,0,0,0,0,0,-0.430592,-10.1377,-0.456784,21.4676,0.859087,-0.649816,0.0972387,-0.452764,-1.04755,-0.0587684,2.89204,0.297249,-0.652998,0.170842
4341449,1,-1.57043,-0.522899,-5.63652e-05,-2.09646,1.57046,1.5716,0.785032,-1.5708,-0.523598,6.6685e-07,-2.0944,1.5708,1.5708,0.785397,0.000909562,0.000669879,6.86453e-05,0.00029143,0.000116284,-0.000358693,0.00056255,0,0,0,0,0,0,0,-0.478199,-10.1892,-0.456784,21.4438,0.859087,-0.643407,0.103647,-0.453727,-1.04594,-0.0603593,2.89169,0.297275,-0.652789,0.170822
4341450,1,-1.57043,-0.522901,-5.49426e-05,-2.09646,1.57046,1.5716,0.785025,-1.5708,-0.523598,6.6685e-07,-2.0944,1.5708,1.5708,0.785397,-0.000507249,-0.000110226,4.57635e-05,-0.000362525,0.000518332,0.000235589,-0.00179483,0,0,0,0,0,0,0,-0.430592,-10.1654,-0.456784,21.4676,0.847185,-0.656224,0.162241,-0.454632,-1.0457,-0.0618085,2.8919,0.297309,-0.652601,0.170784
4341451,1,-1.57043,-0.5229,-5.44685e-05,-2.09646,1.57046,1.57161,0.785028,-1.5708,-0.523598,6.6685e-07,-2.0944,1.5708,1.5708,0.785397,0.000775458,0.000483328,3.0509e-05,0.000315129,-0.000298705,0.00015706,-0.000484265,0,0,0,0,0,0,0,-0.478199,-10.1892,-0.456784,21.4438,0.86458,-0.656224,0.143015,-0.455303,-1.04662,-0.0628902,2.89261,0.297341,-0.652459,0.170727
4341452,1,-1.57043,-0.522903,-5.06911e-05,-2.09645,1.57047,1.57161,0.785035,-1.5708,-0.523598,6.6685e-07,-2.0944,1.5708,1.5708,0.785397,-3.984e-05,-0.000884207,0.00122677,0.0008597,0.000207764,0.000342065,0.00208481,0,0,0,0,0,0,0,-0.454395,-10.1377,-0.508359,21.416,0.853594,-0.662633,0.0780126,-0.456188,-1.0469,-0.0643047,2.89283,0.297347,-0.652286,0.170698
4341453,1,-1.57043,-0.522898,-5.23089e-05,-2.09646,1.57046,1.57161,0.785028,-1.5708,-0.523598,6.6685e-07,-2.0944,1.5708,1.5708,0.785397,-2.656e-05,0.000616954,0.000261032,-7.64808e-05,-0.000471842,-9.31542e-06,-0.000746238,0,0,0,0,0,0,0,-0.454395,-10.1892,-0.484555,21.4438,0.870073,-0.656224,0.135691,-0.457466,-1.04599,-0.066394,2.8923,0.297327,-0.652057,0.170698
4341454,1,-1.57043,-0.522899,-5.80411e-05,-2.09646,1.57046,1.5716,0.785031,-1.5708,-0.523598,6.6685e-07,-2.0944,1.5708,1.5708,0.785397,-1.77067e-05,0.000411303,-0.0010324,-0.000607799,-0.000314561,0.000231149,0.000452032,0,0,0,0,0,0,0,-0.454395,-10.1892,-0.432981,21.4676,0.870073,-0.662633,0.110056,-0.458121,-1.04627,-0.0675839,2.89252,0.297307,-0.651955,0.170686
4341455,1,-1.57043,-0.522901,-5.49445e-05,-2.09646,1.57046,1.5716,0.785031,-1.5708,-0.523598,6.6685e-07,-2.0944,1.5708,1.5708,0.785397,-0.000568616,-0.00028261,-0.000131458,0.000801226,0.000638003,0.000154099,0.000301421,0,0,0,0,0,0,0,-0.430592,-10.1654,-0.456784,21.416,0.847185,-0.662633,0.110056,-0.457501,-1.04774,-0.0668028,2.8935,0.297269,-0.652074,0.170648
4341456,1,-1.57043,-0.522901,-5.61395e-05,-2.09646,1.57046,1.5716,0.785026,-1.5708,-0.523598,6.6685e-07,-2.0944,1.5708,1.5708,0.785397,0.000177734,-0.000188407,-0.000644451,-0.000672275,-0.000218925,-0.000371985,-0.00149442,0,0,0,0,0,0,0,-0.454395,-10.1654,-0.432981,21.4676,0.86458,-0.649816,0.155832,-0.45615,-1.04824,-0.0648863,2.89401,0.297194,-0.652307,0.170587
4341457,1,-1.57043,-0.522894,-5.43106e-05,-2.09646,1.57046,1.57161,0.785032,-1.5708,-0.523598,6.6685e-07,-2.0944,1.5708,1.5708,0.785397,0.00011849,0.00163763,0.000127178,0.000108629,-0.00014595,-0.00024799,0.000936535,0,0,0,0,0,0,0,-0.454395,-10.2408,-0.456784,21.4438,0.86458,-0.649816,0.103647,-0.454884,-1.04946,-0.0630568,2.89499,0.297137,-0.652544,0.170514
4341458,1,-1.57043,-0.522899,-5.59282e-05,-2.09645,1.57046,1.5716,0.785029,-1.5708,-0.523598,6.6685e-07,-2.0944,1.5708,1.5708,0.785397,0.00128542,-0.00011467,-0.000472026,0.00127885,0.000106151,0.000309391,-0.000325051,0,0,0,0,0,0,0,-0.50597,-10.1892,-0.432981,21.3922,0.859087,-0.662633,0.129282,-0.454257,-1.05215,-0.0620638,2.89645,0.297114,-0.652712,0.170453
4341459,1,-1.57044,-0.522899,-5.22913e-05,-2.09646,1.57046,1.5716,0.785027,-1.5708,-0.523598,6.6685e-07,-2.0944,1.5708,1.5708,0.785397,-0.00034948,-7.64469e-05,0.000891742,-0.000353863,7.07671e-05,-0.000268457,-0.000962665,0,0,0,0,0,0,0,-0.454395,-10.1892,-0.484555,21.4438,0.859087,-0.649816,0.149424,-0.45445,-1.05363,-0.062173,2.89697,0.297088,-0.652751,0.170405
4341460,1,-1.57043,-0.522898,-5.42343e-05,-2.09646,1.57046,1.5716,0.78503,-1.5708,-0.523598,6.6685e-07,-2.0944,1.5708,1.5708,0.785397,-0.000232986,0.000505847,-5.51196e-05,-0.000235908,4.71781e-05,5.83875e-05,0.000578942,0,0,0,0,0,0,0,-0.454395,-10.213,-0.456784,21.4438,0.859087,-0.656224,0.116465,-0.455016,-1.05419,-0.0628899,2.89722,0.297079,-0.652725,0.170373
4341461,1,-1.57043,-0.5229,-5.59028e-05,-2.09646,1.57046,1.5716,0.785031,-1.5708,-0.523598,6.6685e-07,-2.0944,1.5708,1.5708,0.785397,-0.000155324,-0.00021958,-0.000593558,0.000492342,3.1452e-05,3.8925e-05,0.000623332,0,0,0,0,0,0,0,-0.454395,-10.1892,-0.432981,21.416,0.859087,-0.656224,0.110056,-0.455156,-1.05484,-0.0630109,2.8977,0.297068,-0.652763,0.170369
4341462,1,-1.57043,-0.522898,-5.42317e-05,-2.09646,1.57046,1.5716,0.785025,-1.5708,-0.523598,6.6685e-07,-2.0944,1.5708,1.5708,0.785397,0.000453262,0.000410425,0.000161106,0.000328228,-0.000182482,-0.000211409,-0.00175458,0,0,0,0,0,0,0,-0.478199,-10.213,-0.456784,21.416,0.86458,-0.649816,0.16865,-0.454896,-1.05485,-0.0624375,2.89768,0.297021,-0.652853,0.170381
4341463,1,-1.57043,-0.5229,-5.22826e-05,-2.09646,1.57046,1.5716,0.785028,-1.5708,-0.523598,6.6685e-07,-2.0944,1.5708,1.5708,0.785397,-0.000254637,-0.000283195,0.000757018,-0.000430795,-0.000325106,9.64197e-05,-0.000220274,0,0,0,0,0,0,0,-0.454395,-10.1892,-0.484555,21.4438,0.870073,-0.656224,0.143015,-0.455035,-1.05451,-0.0624286,2.89746,0.296985,-0.652877,0.170409
4341464,1,-1.57043,-0.522894,-5.59019e-05,-2.09645,1.57046,1.5716,0.785034,-1.5708,-0.523598,6.6685e-07,-2.0944,1.5708,1.5708,0.785397,-0.000169758,0.00101763,-0.000701747,0.000919229,-0.000216737,6.42798e-05,0.00202329,0,0,0,0,0,0,0,-0.454395,-10.2408,-0.432981,21.3922,0.870073,-0.656224,0.0844213,-0.455361,-1.05458,-0.0627385,2.89743,0.296977,-0.652876,0.170481
4341465,1,-1.57043,-0.522901,-5.06121e-05,-2.09646,1.57046,1.5716,0.785027,-1.5708,-0.523598,6.6685e-07,-2.0944,1.5708,1.5708,0.785397,-0.000113172,-0.00108482,0.00129541,5.60074e-05,5.89592e-05,-0.000194506,-0.00105863,0,0,0,0,0,0,0,-0.454395,-10.1654,-0.508359,21.416,0.86458,-0.649816,0.149424,-0.455574,-1.05437,-0.0629086,2.89705,0.296968,-0.652886,0.17059
4341466,1,-1.57043,-0.522899,-5.59018e-05,-2.09646,1.57046,1.57161,0.785029,-1.5708,-0.523598,6.6685e-07,-2.0944,1.5708,1.5708,0.785397,-7.5448e-05,-0.0001664,-0.000899634,3.73382e-05,3.93061e-05,0.000107688,4.02338e-05,0,0,0,0,0,0,0,-0.454395,-10.1892,-0.432981,21.416,0.86458,-0.656224,0.129282,-0.455875,-1.05259,-0.063247,2.89589,0.29696,-0.652856,0.170698
4341467,1,-1.57043,-0.522901,-5.59018e-05,-2.09646,1.57046,1.5716,0.785032,-1.5708,-0.523598,6.6685e-07,-2.0944,1.5708,1.5708,0.785397,0.000506513,-0.000667746,-0.000599756,-0.000624722,2.62041e-05,-0.000165567,0.00097626,0,0,0,0,0,0,0,-0.478199,-10.1654,-0.432981,21.4438,0.86458,-0.649816,0.103647,-0.455769,-1.05004,-0.0628893,2.8946,0.296949,-0.652864,0.170802
4341468,1,-1.57043,-0.5229,-5.42314e-05,-2.09646,1.57046,1.5716,0.785031,-1.5708,-0.523598,6.6685e-07,-2.0944,1.5708,1.5708,0.785397,-0.000219136,0.000111648,0.000156975,0.000789945,0.00022092,-0.000110378,0.000413483,0,0,0,0,0,0,0,-0.454395,-10.1892,-0.456784,21.3922,0.859087,-0.649816,0.110056,-0.455325,-1.04776,-0.0618971,2.89354,0.296938,-0.652917,0.170901
4341469,1,-1.57043,-0.522903,-5.42314e-05,-2.09645,1.57046,1.5716,0.785027,-1.5708,-0.523598,6.6685e-07,-2.0944,1.5708,1.5708,0.785397,0.000410721,-0.00113199,0.00010465,0.00164025,0.00035073,0.000163774,-0.00118241,0,0,0,0,0,0,0,-0.478199,-10.1377,-0.456784,21.3446,0.853594,-0.656224,0.149424,-0.455192,-1.04456,-0.0613358,2.89154,0.296909,-0.652911,0.170973
4341470,1,-1.57043,-0.5229,-4.89417e-05,-2.09645,1.57046,1.5716,0.785028,-1.5708,-0.523598,6.6685e-07,-2.0944,1.5708,1.5708,0.785397,-0.000282998,0.000451763,0.001833,-2.01214e-05,-0.000376531,0.000109183,-0.000279643,0,0,0,0,0,0,0,-0.454395,-10.1892,-0.532163,21.3922,0.870073,-0.656224,0.135691,-0.455884,-1.04045,-0.0620956,2.88858,0.296879,-0.652772,0.17102
4341471,1,-1.57043,-0.5229,-5.59018e-05,-2.09645,1.57046,1.5716,0.785033,-1.5708,-0.523598,6.6685e-07,-2.0944,1.5708,1.5708,0.785397,-0.000188665,0.000301176,-0.00109805,-0.000570226,-4.75703e-05,7.27883e-05,0.00123773,0,0,0,0,0,0,0,-0.454395,-10.1892,-0.432981,21.416,0.86458,-0.656224,0.0972387,-0.456965,-1.03861,-0.0635952,2.8869,0.296913,-0.652603,0.171064
4341472,1,-1.57043,-0.5229,-5.80323e-05,-2.09645,1.57046,1.5716,0.785025,-1.5708,-0.523598,6.6685e-07,-2.0944,1.5708,1.5708,0.785397,0.000431035,0.000200784,-0.000732031,0.000176661,0.000171737,4.85256e-05,-0.00158235,0,0,0,0,0,0,0,-0.478199,-10.1892,-0.432981,21.3922,0.859087,-0.656224,0.162241,-0.457137,-1.03983,-0.0636913,2.88706,0.296977,-0.652606,0.171105
4341473,1,-1.57043,-0.522898,-5.87425e-05,-2.09646,1.57046,1.5716,0.785032,-1.5708,-0.523598,6.6685e-07,-2.0944,1.5708,1.5708,0.785397,0.000287357,0.000133856,-0.000488021,-0.00108865,0.000555301,-0.000205009,0.00111524,0,0,0,0,0,0,0,-0.478199,-10.1892,-0.432981,21.4438,0.847185,-0.649816,0.103647,-0.456527,-1.04245,-0.0624217,2.88813,0.297035,-0.652743,0.171138
4341474,1,-1.57043,-0.522899,-5.51783e-05,-2.09645,1.57046,1.5716,0.785027,-1.5708,-0.523598,6.6685e-07,-2.0944,1.5708,1.5708,0.785397,-0.000365241,8.92372e-05,0.000231465,-7.61539e-05,-0.000274059,0.000100687,-0.000951927,0,0,0,0,0,0,0,-0.454395,-10.1892,-0.456784,21.416,0.86458,-0.656224,0.149424,-0.455939,-1.04569,-0.0611155,2.88976,0.297103,-0.652884,0.171175
4341475,1,-1.57043,-0.522897,-5.4547e-05,-2.09646,1.57046,1.5716,0.785028,-1.5708,-0.523598,6.6685e-07,-2.0944,1.5708,1.5708,0.785397,-0.000243494,5.94915e-05,0.00015431,-5.07693e-05,0.000461554,6.71244e-05,-0.000125991,0,0,0,0,0,0,0,-0.454395,-10.1892,-0.456784,21.416,0.847185,-0.656224,0.135691,-0.455582,-1.04864,-0.060225,2.89125,0.297162,-0.652991,0.171223
4341476,1,-1.57043,-0.522897,-5.6007e-05,-2.09646,1.57046,1.57161,0.785032,-1.5708,-0.523598,6.6685e-07,-2.0944,1.5708,1.5708,0.785397,-0.000162329,0.000596473,-0.000453939,0.000522966,-0.000336558,-0.000192609,0.0011028,0,0,0,0,0,0,0,-0.454395,-10.213,-0.432981,21.3922,0.86458,-0.649816,0.103647,-0.455299,-1.051,-0.0594922,2.89214,0.297183,-0.653084,0.171291
4341477,1,-1.57043,-0.522899,-5.6397e-05,-2.09646,1.57046,1.5716,0.785033,-1.5708,-0.523598,6.6685e-07,-2.0944,1.5708,1.5708,0.785397,-0.000108219,-0.000159163,0.000254186,-0.000208168,0.000182529,0.000108953,0.00097256,0,0,0,0,0,0,0,-0.454395,-10.1892,-0.456784,21.416,0.853594,-0.656224,0.0972387,-0.454994,-1.05297,-0.0587152,2.89256,0.297162,-0.65318,0.171375
4341478,1,-1.57043,-0.522898,-5.49532e-05,-2.09646,1.57046,1.5716,0.785028,-1.5708,-0.523598,6.6685e-07,-2.0944,1.5708,1.5708,0.785397,-7.21463e-05,-0.000106109,0.000169457,-0.000788393,-8.17643e-05,-0.000402083,-0.000775781,0,0,0,0,0,0,0,-0.454395,-10.1892,-0.456784,21.4438,0.859087,-0.643407,0.135691,-0.454965,-1.05437,-0.0583794,2.89282,0.297132,-0.653219,0.171436
4341479,1,-1.57043,-0.522895,-5.61424e-05,-2.09645,1.57046,1.5716,0.785033,-1.5708,-0.523598,6.6685e-07,-2.0944,1.5708,1.5708,0.785397,-4.80976e-05,0.000486073,-0.00044384,0.000124019,0.000148941,0.000681381,0.000906967,0,0,0,0,0,0,0,-0.454395,-10.213,-0.432981,21.416,0.853594,-0.669042,0.0972387,-0.455087,-1.05567,-0.0582967,2.89327,0.297106,-0.653222,0.171451
4341480,1,-1.57043,-0.522899,-5.5982e-05,-2.09646,1.57046,1.5716,0.785032,-1.5708,-0.523598,6.6685e-07,-2.0944,1.5708,1.5708,0.785397,0.000524747,-0.000232763,-0.000295894,8.26792e-05,-0.000511058,-2.04641e-05,0.000367286,0,0,0,0,0,0,0,-0.478199,-10.1892,-0.432981,21.416,0.870073,-0.656224,0.103647,-0.455072,-1.05685,-0.0579403,2.89356,0.297054,-0.653246,0.171426
4341481,1,-1.57043,-0.522897,-5.97295e-05,-2.09646,1.57046,1.5716,0.785028,-1.5708,-0.523598,6.6685e-07,-2.0944,1.5708,1.5708,0.785397,-0.000206981,-0.000155176,-0.000754074,5.51195e-05,6.6196e-05,-0.000251002,-0.0012132,0,0,0,0,0,0,0,-0.454395,-10.1892,-0.409177,21.416,0.859087,-0.649816,0.143015,-0.454898,-1.05699,-0.0572211,2.89317,0.296963,-0.653288,0.171355
4341482,1,-1.57043,-0.522895,-5.7081e-05,-2.09646,1.57046,1.5716,0.785032,-1.5708,-0.523598,6.6685e-07,-2.0944,1.5708,1.5708,0.785397,0.00106844,0.00110298,0.000610908,3.67463e-05,4.41307e-05,7.00245e-05,0.000649259,0,0,0,0,0,0,0,-0.50597,-10.2408,-0.456784,21.416,0.859087,-0.656224,0.103647,-0.454948,-1.05713,-0.0567247,2.89269,0.296878,-0.653304,0.171242
4341483,1,-1.57043,-0.522901,-5.51813e-05,-2.09646,1.57046,1.5716,0.785033,-1.5708,-0.523598,6.6685e-07,-2.0944,1.5708,1.5708,0.785397,-0.000494133,-0.00102792,0.000407272,-0.000625116,2.94204e-05,4.6683e-05,0.000670198,0,0,0,0,0,0,0,-0.454395,-10.1654,-0.456784,21.4438,0.859087,-0.656224,0.0972387,-0.455772,-1.0579,-0.0573673,2.89259,0.296842,-0.653216,0.171111
4341484,1,-1.57043,-0.5229,-5.62184e-05,-2.09646,1.57046,1.5716,0.785025,-1.5708,-0.523598,6.6685e-07,-2.0944,1.5708,1.5708,0.785397,-0.000329422,-0.000128469,-0.000285297,-0.00208718,-0.000183837,3.1122e-05,-0.0019607,0,0,0,0,0,0,0,-0.454395,-10.1892,-0.432981,21.5152,0.86458,-0.656224,0.162241,-0.456697,-1.05828,-0.0582426,2.89292,0.296842,-0.653108,0.170954
4341485,1,-1.57043,-0.522901,-5.43369e-05,-2.09646,1.57046,1.57161,0.78503,-1.5708,-0.523598,6.6685e-07,-2.0944,1.5708,1.5708,0.785397,0.000337197,-0.000642458,0.000366614,0.000278982,0.000284343,2.0748e-05,0.000150929,0,0,0,0,0,0,0,-0.478199,-10.1654,-0.456784,21.4438,0.853594,-0.656224,0.122873,-0.457241,-1.0582,-0.0585867,2.89363,0.296854,-0.653048,0.170779
4341486,1,-1.57043,-0.522903,-5.5937e-05,-2.09646,1.57046,1.5716,0.78503,-1.5708,-0.523598,6.6685e-07,-2.0944,1.5708,1.5708,0.785397,-0.000888826,-0.00107792,-0.000312403,0.000185988,-1.38884e-05,-0.000460886,0.00010062,0,0,0,0,0,0,0,-0.430592,-10.1377,-0.432981,21.4438,0.859087,-0.643407,0.122873,-0.457607,-1.05625,-0.0586451,2.89327,0.296817,-0.652998,0.170631
4341487,1,-1.57043,-0.522901,-5.42431e-05,-2.09646,1.57046,1.5716,0.78503,-1.5708,-0.523598,6.6685e-07,-2.0944,1.5708,1.5708,0.785397,-3.57386e-05,-6.89988e-05,0.000348543,-0.00043282,-0.000619611,-0.000307257,0.000304439,0,0,0,0,0,0,0,-0.454395,-10.1654,-0.456784,21.4676,0.875566,-0.643407,0.116465,-0.457663,-1.05253,-0.0582753,2.89174,0.29672,-0.652971,0.170523
4341488,1,-1.57043,-0.522898,-5.42353e-05,-2.09646,1.57046,1.5716,0.785029,-1.5708,-0.523598,6.6685e-07,-2.0944,1.5708,1.5708,0.785397,-0.000580638,0.00106762,0.000232362,0.000917879,0.000400728,3.25208e-05,-0.000271759,0,0,0,0,0,0,0,-0.430592,-10.213,-0.456784,21.416,0.853594,-0.649816,0.129282,-0.457644,-1.05023,-0.0578868,2.89067,0.296636,-0.652957,0.17044
4341489,1,-1.57043,-0.5229,-5.44144e-05,-2.09646,1.57046,1.57161,0.785035,-1.5708,-0.523598,6.6685e-07,-2.0944,1.5708,1.5708,0.785397,0.00016972,0.000154938,0.000804522,0.00061192,-0.000139749,2.16805e-05,0.0017177,0,0,0,0,0,0,0,-0.454395,-10.1892,-0.484555,21.416,0.86458,-0.649816,0.0780126,-0.457915,-1.0501,-0.0580529,2.89017,0.29659,-0.65291,0.170373
4341490,1,-1.57043,-0.5229,-5.29932e-05,-2.09646,1.57046,1.5716,0.785027,-1.5708,-0.523598,6.6685e-07,-2.0944,1.5708,1.5708,0.785397,-0.000443665,0.000103292,0.000536348,-0.00135529,0.000313735,1.44537e-05,-0.00149972,0,0,0,0,0,0,0,-0.430592,-10.1892,-0.484555,21.4914,0.853594,-0.649816,0.149424,-0.458584,-1.05102,-0.0589756,2.89019,0.296586,-0.652791,0.170299
4341491,1,-1.57043,-0.522898,-5.44683e-05,-2.09646,1.57046,1.5716,0.785025,-1.5708,-0.523598,6.6685e-07,-2.0944,1.5708,1.5708,0.785397,0.000261035,0.000625673,-0.000292049,-0.000346716,-0.000401195,0.000246995,-0.00147453,0,0,0,0,0,0,0,-0.454395,-10.213,-0.456784,21.4676,0.870073,-0.656224,0.162241,-0.459218,-1.05322,-0.0599904,2.89144,0.296636,-0.652663,0.1702
4341492,1,-1.57044,-0.5229,-5.59808e-05,-2.09646,1.57046,1.5716,0.785033,-1.5708,-0.523598,6.6685e-07,-2.0944,1.5708,1.5708,0.785397,-0.0010324,-0.000139696,-0.000751511,-0.000787956,0.000139438,0.000164663,0.00166183,0,0,0,0,0,0,0,-0.402821,-10.1892,-0.432981,21.4914,0.859087,-0.656224,0.09083,-0.458956,-1.05632,-0.0597362,2.89355,0.296687,-0.652661,0.17011
4341493,1,-1.57043,-0.522898,-5.42577e-05,-2.09646,1.57046,1.57161,0.78503,-1.5708,-0.523598,6.6685e-07,-2.0944,1.5708,1.5708,0.785397,-3.86544e-05,-9.3131e-05,5.58046e-05,0.00058832,-0.000110492,0.000109775,-7.89053e-05,0,0,0,0,0,0,0,-0.430592,-10.1892,-0.456784,21.4438,0.86458,-0.656224,0.122873,-0.457719,-1.05843,-0.0581029,2.89521,0.296686,-0.652785,0.170061
4341494,1,-1.57044,-0.522899,-5.22913e-05,-2.09646,1.57046,1.5716,0.785029,-1.5708,-0.523598,6.6685e-07,-2.0944,1.5708,1.5708,0.785397,-2.57696e-05,-6.20873e-05,0.000686817,0.00104183,-7.36613e-05,-0.000164175,-0.000289962,0,0,0,0,0,0,0,-0.430592,-10.1892,-0.484555,21.416,0.86458,-0.649816,0.129282,-0.456668,-1.05835,-0.0568692,2.89538,0.296641,-0.652854,0.170032
4341495,1,-1.57043,-0.522899,-5.42343e-05,-2.09646,1.57046,1.5716,0.785032,-1.5708,-0.523598,6.6685e-07,-2.0944,1.5708,1.5708,0.785397,0.00109644,-4.13915e-05,-0.000191736,4.49376e-05,-4.91075e-05,0.000602627,0.000756127,0,0,0,0,0,0,0,-0.478199,-10.1892,-0.456784,21.4438,0.86458,-0.669042,0.103647,-0.456561,-1.05668,-0.0571092,2.89436,0.296592,-0.652769,0.170008
4341496,1,-1.57044,-0.522898,-5.63629e-05,-2.09646,1.57047,1.57161,0.785031,-1.5708,-0.523598,6.6685e-07,-2.0944,1.5708,1.5708,0.785397,-0.00103228,0.000529218,-0.000127824,2.99584e-05,0.000611522,-7.29668e-05,0.000266726,0,0,0,0,0,0,0,-0.402821,-10.213,-0.456784,21.4438,0.847185,-0.656224,0.110056,-0.456654,-1.05533,-0.0576682,2.89351,0.296561,-0.652667,0.16998
4341497,1,-1.57044,-0.522899,-5.2993e-05,-2.09646,1.57047,1.5716,0.785029,-1.5708,-0.523598,6.6685e-07,-2.0944,1.5708,1.5708,0.785397,-0.000688183,-0.000760812,0.000564398,-0.00053684,-3.31284e-05,-4.86445e-05,-0.000534259,0,0,0,0,0,0,0,-0.402821,-10.1654,-0.484555,21.4676,0.859087,-0.656224,0.129282,-0.456194,-1.05473,-0.0575807,2.89331,0.296542,-0.652665,0.169928
4341498,1,-1.57043,-0.522901,-5.08489e-05,-2.09646,1.57046,1.5716,0.785031,-1.5708,-0.523598,6.6685e-07,-2.0944,1.5708,1.5708,0.785397,0.000747637,-0.000507208,0.000933077,-0.000357893,-0.000225536,-0.000269789,0.000355904,0,0,0,0,0,0,0,-0.454395,-10.1654,-0.508359,21.4676,0.86458,-0.649816,0.110056,-0.455962,-1.0535,-0.0580846,2.89325,0.29654,-0.652623,0.169852
4341499,1,-1.57044,-0.522899,-5.28216e-05,-2.09646,1.57046,1.57161,0.78503,-1.5708,-0.523598,6.6685e-07,-2.0944,1.5708,1.5708,0.785397,-0.000708001,-0.000338139,0.000622052,0.000318217,5.30931e-05,-0.000179859,-8.97104e-08,0,0,0,0,0,0,0,-0.402821,-10.1654,-0.508359,21.4438,0.859087,-0.649816,0.116465,-0.456542,-1.05134,-0.0599791,2.89296,0.296555,-0.652446,0.169765
4341500,1,-1.57043,-0.522897,-5.49679e-05,-2.09646,1.57046,1.5716,0.785028,-1.5708,-0.523598,6.6685e-07,-2.0944,1.5708,1.5708,0.785397,0.00129124,0.000888198,-0.000791725,0.00141857,3.53954e-05,0.000117453,-0.000712137,0,0,0,0,0,0,0,-0.478199,-10.213,-0.456784,21.3922,0.859087,-0.656224,0.135691,-0.457106,-1.04932,-0.0618929,2.89233,0.296543,-0.652276,0.169668
4341501,1,-1.57043,-0.522898,-5.2528e-05,-2.09646,1.57047,1.5716,0.785034,-1.5708,-0.523598,6.6685e-07,-2.0944,1.5708,1.5708,0.785397,-0.000252799,0.000592132,0.000121797,0.000388902,0.000227047,-0.000159057,0.00142411,0,0,0,0,0,0,0,-0.430592,-10.213,-0.484555,21.416,0.853594,-0.649816,0.0844213,-0.457152,-1.04874,-0.0629193,2.89173,0.296494,-0.652205,0.169566
4341502,1,-1.57043,-0.522896,-5.43132e-05,-2.09645,1.57046,1.5716,0.785028,-1.5708,-0.523598,6.6685e-07,-2.0944,1.5708,1.5708,0.785397,0.000388279,0.00104437,-0.000568416,0.00081608,-5.20855e-05,-0.000106038,-0.00122073,0,0,0,0,0,0,0,-0.454395,-10.2408,-0.456784,21.3922,0.859087,-0.649816,0.143015,-0.456709,-1.05008,-0.0631546,2.89172,0.296434,-0.652232,0.169457
4341503,1,-1.57043,-0.5229,-5.42587e-05,-2.09646,1.57046,1.5716,0.785026,-1.5708,-0.523598,6.6685e-07,-2.0944,1.5708,1.5708,0.785397,0.000258853,-0.00051018,-0.000378944,-0.00121918,-3.47237e-05,0.000404026,-0.00128854,0,0,0,0,0,0,0,-0.454395,-10.1892,-0.456784,21.4676,0.859087,-0.662633,0.155832,-0.455844,-1.05246,-0.0627239,2.89243,0.296382,-0.652328,0.169333
4341504,1,-1.57044,-0.522898,-5.42405e-05,-2.09645,1.57046,1.5716,0.785034,-1.5708,-0.523598,6.6685e-07,-2.0944,1.5708,1.5708,0.785397,-0.000384243,0.000216692,-0.000252629,0.000393636,0.00041766,0.000269351,0.00178583,0,0,0,0,0,0,0,-0.430592,-10.213,-0.456784,21.416,0.847185,-0.662633,0.0844213,-0.454663,-1.05449,-0.0617857,2.89347,0.296334,-0.652464,0.169221
4341505,1,-1.57043,-0.5229,-5.59048e-05,-2.09645,1.57046,1.5716,0.785029,-1.5708,-0.523598,6.6685e-07,-2.0944,1.5708,1.5708,0.785397,0.000857462,-0.000412351,-0.000725231,0.000262424,-0.00036582,-5.77919e-05,-0.000470958,0,0,0,0,0,0,0,-0.478199,-10.1892,-0.432981,21.416,0.86458,-0.656224,0.129282,-0.45334,-1.05525,-0.0605684,2.89402,0.296255,-0.652618,0.169145
4341506,1,-1.57043,-0.522901,-5.22836e-05,-2.09645,1.57047,1.5716,0.785029,-1.5708,-0.523598,6.6685e-07,-2.0944,1.5708,1.5708,0.785397,0.000571641,-0.000831712,0.000722938,0.000174949,0.000163021,-3.85279e-05,-0.000313972,0,0,0,0,0,0,0,-0.478199,-10.1654,-0.484555,21.416,0.853594,-0.656224,0.129282,-0.452598,-1.05406,-0.0600547,2.89348,0.296146,-0.652683,0.169083
4341507,1,-1.57043,-0.522898,-5.63623e-05,-2.09645,1.57046,1.5716,0.78503,-1.5708,-0.523598,6.6685e-07,-2.0944,1.5708,1.5708,0.785397,-0.000175718,0.000559149,-0.000167655,0.000673445,0.00034604,-2.56853e-05,0.000265403,0,0,0,0,0,0,0,-0.454395,-10.213,-0.456784,21.3922,0.847185,-0.656224,0.116465,-0.452675,-1.05174,-0.0606646,2.89225,0.296037,-0.652634,0.169027
4341508,1,-1.57043,-0.522898,-5.82825e-05,-2.09645,1.57046,1.5716,0.785034,-1.5708,-0.523598,6.6685e-07,-2.0944,1.5708,1.5708,0.785397,0.000439667,0.000372766,-0.00122539,-0.000107849,-6.66578e-06,-1.71235e-05,0.00136373,0,0,0,0,0,0,0,-0.478199,-10.213,-0.409177,21.416,0.853594,-0.656224,0.0844213,-0.45255,-1.05067,-0.0608398,2.89142,0.295921,-0.652651,0.16898
4341509,1,-1.57044,-0.522896,-5.7809e-05,-2.09646,1.57046,1.5716,0.785026,-1.5708,-0.523598,6.6685e-07,-2.0944,1.5708,1.5708,0.785397,-0.000263701,0.000898125,-0.000816929,-0.000721513,-0.000411345,-0.000486134,-0.0017357,0,0,0,0,0,0,0,-0.454395,-10.2408,-0.409177,21.4438,0.86458,-0.643407,0.155832,-0.451567,-1.05224,-0.0594865,2.89195,0.295802,-0.652843,0.168919
4341510,1,-1.57043,-0.522901,-5.59807e-05,-2.09646,1.57046,1.57161,0.78503,-1.5708,-0.523598,6.6685e-07,-2.0944,1.5708,1.5708,0.785397,-0.000732613,-0.00116449,1.21924e-05,-0.000481009,-7.07794e-05,0.000625347,0.000300927,0,0,0,0,0,0,0,-0.430592,-10.1654,-0.432981,21.4438,0.859087,-0.669042,0.116465,-0.450093,-1.05488,-0.0572749,2.89336,0.295696,-0.653122,0.168834
4341511,1,-1.57043,-0.522903,-5.42577e-05,-2.09645,1.57046,1.5716,0.785034,-1.5708,-0.523598,6.6685e-07,-2.0944,1.5708,1.5708,0.785397,0.000625216,-0.00142594,0.00056494,0.000328941,-4.71863e-05,0.000179539,0.00138741,0,0,0,0,0,0,0,-0.478199,-10.1377,-0.456784,21.416,0.859087,-0.662633,0.0844213,-0.449122,-1.05462,-0.0558112,2.89358,0.295583,-0.653295,0.168755
4341512,1,-1.57043,-0.522898,-5.27514e-05,-2.09646,1.57046,1.57161,0.785027,-1.5708,-0.523598,6.6685e-07,-2.0944,1.5708,1.5708,0.785397,-0.000696814,0.000812612,0.00158305,-0.000987132,0.000171993,-0.000355025,-0.00148256,0,0,0,0,0,0,0,-0.430592,-10.213,-0.508359,21.4676,0.853594,-0.649816,0.149424,-0.449554,-1.05227,-0.0564941,2.89284,0.295501,-0.653243,0.168681
4341513,1,-1.57043,-0.522901,-5.49445e-05,-2.09646,1.57046,1.57161,0.785029,-1.5708,-0.523598,6.6685e-07,-2.0944,1.5708,1.5708,0.785397,9.22696e-05,-0.0012215,-0.000151057,-0.000101276,0.000352021,-0.000236684,-0.000242386,0,0,0,0,0,0,0,-0.454395,-10.1377,-0.456784,21.4438,0.847185,-0.649816,0.129282,-0.450891,-1.05094,-0.0586259,2.89271,0.295485,-0.653074,0.168591
4341514,1,-1.57044,-0.522899,-5.29803e-05,-2.09646,1.57046,1.57161,0.78503,-1.5708,-0.523598,6.6685e-07,-2.0944,1.5708,1.5708,0.785397,-0.000495299,0.000392095,0.00110572,-0.000624329,-0.000206129,-0.000157789,7.57685e-05,0,0,0,0,0,0,0,-0.430592,-10.1892,-0.508359,21.4676,0.859087,-0.649816,0.122873,-0.452217,-1.05012,-0.060796,2.8929,0.295474,-0.652905,0.168509
4341515,1,-1.57043,-0.522899,-5.66912e-05,-2.09645,1.57046,1.57161,0.785028,-1.5708,-0.523598,6.6685e-07,-2.0944,1.5708,1.5708,0.785397,0.000226613,-0.000295415,-0.00102609,0.00134702,-0.000137419,-0.000342552,-0.000695473,0,0,0,0,0,0,0,-0.454395,-10.1654,-0.432981,21.3922,0.859087,-0.643407,0.143015,-0.45312,-1.04939,-0.0623203,2.89285,0.295422,-0.652793,0.168456
4341516,1,-1.57043,-0.522899,-5.08752e-05,-2.09645,1.57046,1.57161,0.78503,-1.5708,-0.523598,6.6685e-07,-2.0944,1.5708,1.5708,0.785397,-0.000405737,0.000359868,0.00107918,0.00201164,-0.000295063,8.99119e-06,0.000519696,0,0,0,0,0,0,0,-0.430592,-10.1892,-0.508359,21.3446,0.86458,-0.649816,0.116465,-0.453504,-1.04804,-0.0630232,2.89159,0.295291,-0.652741,0.16844
4341517,1,-1.57043,-0.522898,-5.43191e-05,-2.09646,1.57046,1.5716,0.78503,-1.5708,-0.523598,6.6685e-07,-2.0944,1.5708,1.5708,0.785397,-0.000270491,0.000796724,-0.000486974,-0.000978959,6.74163e-06,0.000243353,0.000109105,0,0,0,0,0,0,0,-0.430592,-10.213,-0.456784,21.4438,0.859087,-0.656224,0.122873,-0.453577,-1.04717,-0.0633254,2.88998,0.295138,-0.652725,0.168461
4341518,1,-1.57043,-0.522898,-5.63912e-05,-2.09645,1.57046,1.57161,0.785026,-1.5708,-0.523598,6.6685e-07,-2.0944,1.5708,1.5708,0.785397,-0.000180327,0.000531149,-0.000324649,0.000553787,0.000207945,-7.51236e-05,-0.00114797,0,0,0,0,0,0,0,-0.430592,-10.213,-0.456784,21.3922,0.853594,-0.649816,0.155832,-0.453105,-1.04901,-0.062905,2.88995,0.295039,-0.652797,0.168499
4341519,1,-1.57044,-0.522901,-5.66217e-05,-2.09646,1.57046,1.5716,0.785028,-1.5708,-0.523598,6.6685e-07,-2.0944,1.5708,1.5708,0.785397,-0.000769832,-0.000759524,-0.000773245,-0.00139405,-6.48206e-05,-0.000287441,-1.93258e-05,0,0,0,0,0,0,0,-0.402821,-10.1654,-0.432981,21.4676,0.859087,-0.643407,0.135691,-0.451812,-1.05178,-0.061298,2.8909,0.294962,-0.652972,0.168554
4341520,1,-1.57043,-0.522898,-5.78122e-05,-2.09646,1.57046,1.57161,0.785032,-1.5708,-0.523598,6.6685e-07,-2.0944,1.5708,1.5708,0.785397,0.000693204,5.04624e-05,-0.00107231,-0.000929365,0.000160237,4.57314e-05,0.00117391,0,0,0,0,0,0,0,-0.454395,-10.1892,-0.409177,21.4676,0.853594,-0.649816,0.103647,-0.449929,-1.05393,-0.0588015,2.89225,0.294886,-0.653192,0.168646
4341521,1,-1.57044,-0.522897,-5.76522e-05,-2.09645,1.57046,1.5716,0.785025,-1.5708,-0.523598,6.6685e-07,-2.0944,1.5708,1.5708,0.785397,-0.00074429,0.000590454,-0.000714872,0.00058685,0.000344183,0.000267847,-0.00138753,0,0,0,0,0,0,0,-0.402821,-10.213,-0.409177,21.416,0.847185,-0.656224,0.162241,-0.447792,-1.0561,-0.0558421,2.89387,0.294809,-0.653423,0.168769
4341522,1,-1.57043,-0.522899,-5.59285e-05,-2.09646,1.57046,1.5716,0.785031,-1.5708,-0.523598,6.6685e-07,-2.0944,1.5708,1.5708,0.785397,0.000153421,-0.000163176,8.02304e-05,-0.000815193,-0.000414804,0.000415923,0.00100776,0,0,0,0,0,0,0,-0.430592,-10.1892,-0.432981,21.4676,0.86458,-0.662633,0.110056,-0.44583,-1.05831,-0.0531488,2.89525,0.294726,-0.65362,0.16891
4341523,1,-1.57043,-0.5229,-5.59107e-05,-2.09646,1.57046,1.5716,0.785034,-1.5708,-0.523598,6.6685e-07,-2.0944,1.5708,1.5708,0.785397,0.000659093,-0.000108784,5.34869e-05,-0.000543462,-7.30857e-05,-0.000197436,0.00162127,0,0,0,0,0,0,0,-0.454395,-10.1892,-0.432981,21.4676,0.859087,-0.649816,0.0844213,-0.444819,-1.06,-0.0519167,2.89647,0.294669,-0.653668,0.169071
4341524,1,-1.57043,-0.522901,-5.42343e-05,-2.09646,1.57046,1.5716,0.785026,-1.5708,-0.523598,6.6685e-07,-2.0944,1.5708,1.5708,0.785397,0.000439395,-0.000629335,0.00059247,-0.00091912,0.000154727,-0.000131624,-0.00156401,0,0,0,0,0,0,0,-0.454395,-10.1654,-0.456784,21.4914,0.853594,-0.649816,0.155832,-0.445164,-1.06077,-0.0526787,2.89756,0.294658,-0.653504,0.169222
4341525,1,-1.57043,-0.522899,-5.22835e-05,-2.09646,1.57047,1.5716,0.785029,-1.5708,-0.523598,6.6685e-07,-2.0944,1.5708,1.5708,0.785397,-0.000263882,-0.000419556,0.00104459,0.00115049,0.00034051,0.00014961,-5.9327e-05,0,0,0,0,0,0,0,-0.430592,-10.1654,-0.484555,21.416,0.847185,-0.656224,0.129282,-0.446526,-1.05974,-0.0549892,2.89774,0.294657,-0.653173,0.169339
4341526,1,-1.57043,-0.522899,-5.42317e-05,-2.09646,1.57046,1.5716,0.785033,-1.5708,-0.523598,6.6685e-07,-2.0944,1.5708,1.5708,0.785397,0.000937703,0.000277108,4.6782e-05,0.00011738,-0.000620704,-0.000374978,0.0013846,0,0,0,0,0,0,0,-0.478199,-10.1892,-0.456784,21.4438,0.870073,-0.643407,0.09083,-0.448377,-1.05728,-0.0580634,2.89672,0.294625,-0.652767,0.169444
4341527,1,-1.57043,-0.522899,-5.42315e-05,-2.09646,1.57046,1.5716,0.78503,-1.5708,-0.523598,6.6685e-07,-2.0944,1.5708,1.5708,0.785397,6.83231e-05,0.000184738,3.1188e-05,-0.00103537,0.000196549,0.000224733,-2.63676e-05,0,0,0,0,0,0,0,-0.454395,-10.1892,-0.456784,21.4914,0.853594,-0.656224,0.116465,-0.45011,-1.05581,-0.0608685,2.89607,0.294588,-0.652402,0.169538
4341528,1,-1.57043,-0.5229,-5.22826e-05,-2.09646,1.57046,1.5716,0.785028,-1.5708,-0.523598,6.6685e-07,-2.0944,1.5708,1.5708,0.785397,4.55487e-05,0.000123159,0.000670406,0.000423377,-0.000682769,0.000387181,-0.000729655,0,0,0,0,0,0,0,-0.454395,-10.1892,-0.484555,21.4438,0.875566,-0.662633,0.135691,-0.4514,-1.05602,-0.0629632,2.8965,0.29458,-0.652133,0.169589
4341529,1,-1.57043,-0.522898,-5.63619e-05,-2.09646,1.57046,1.5716,0.785032,-1.5708,-0.523598,6.6685e-07,-2.0944,1.5708,1.5708,0.785397,3.03658e-05,8.2106e-05,-0.000202677,0.000282251,-4.82785e-05,2.07615e-05,0.000700358,0,0,0,0,0,0,0,-0.454395,-10.1892,-0.456784,21.4438,0.86458,-0.656224,0.103647,-0.452257,-1.05637,-0.0644186,2.8969,0.294571,-0.65195,0.169602
4341530,1,-1.57043,-0.522897,-5.49416e-05,-2.09646,1.57046,1.5716,0.785029,-1.5708,-0.523598,6.6685e-07,-2.0944,1.5708,1.5708,0.785397,2.02439e-05,0.000611549,-0.000135118,-0.000368644,0.000374715,1.3841e-05,-0.00048253,0,0,0,0,0,0,0,-0.454395,-10.213,-0.456784,21.4676,0.853594,-0.656224,0.129282,-0.45252,-1.05689,-0.0649306,2.89723,0.294556,-0.651882,0.169591
4341531,1,-1.57043,-0.522899,-5.65986e-05,-2.09646,1.57046,1.57161,0.785026,-1.5708,-0.523598,6.6685e-07,-2.0944,1.5708,1.5708,0.785397,1.34959e-05,-0.000149112,-9.00785e-05,-0.000245763,4.63597e-05,-0.000228132,-0.00130503,0,0,0,0,0,0,0,-0.454395,-10.1892,-0.456784,21.4676,0.859087,-0.649816,0.155832,-0.452247,-1.05812,-0.064567,2.89805,0.294556,-0.651918,0.169557
4341532,1,-1.57043,-0.522899,-5.50205e-05,-2.09646,1.57046,1.5716,0.785032,-1.5708,-0.523598,6.6685e-07,-2.0944,1.5708,1.5708,0.785397,8.99728e-06,-0.00065622,-6.00523e-05,-0.000720654,3.09065e-05,8.52712e-05,0.00106276,0,0,0,0,0,0,0,-0.454395,-10.1654,-0.456784,21.4914,0.859087,-0.656224,0.103647,-0.451766,-1.05877,-0.0638482,2.89889,0.29456,-0.651986,0.169524
4341533,1,-1.57043,-0.522901,-5.61648e-05,-2.09646,1.57046,1.5716,0.785032,-1.5708,-0.523598,6.6685e-07,-2.0944,1.5708,1.5708,0.785397,0.00056281,-0.00043748,-0.000596847,0.0012828,-0.000386297,5.68475e-05,0.000708506,0,0,0,0,0,0,0,-0.478199,-10.1654,-0.432981,21.416,0.870073,-0.656224,0.103647,-0.451213,-1.05742,-0.062926,2.89882,0.294527,-0.652053,0.169518
4341534,1,-1.57044,-0.522899,-5.64496e-05,-2.09646,1.57046,1.57161,0.785028,-1.5708,-0.523598,6.6685e-07,-2.0944,1.5708,1.5708,0.785397,-0.00138803,0.000265159,0.000158914,-0.000908037,0.00014937,-0.000199461,-0.000985725,0,0,0,0,0,0,0,-0.402821,-10.1892,-0.456784,21.4914,0.859087,-0.649816,0.143015,-0.4504,-1.05507,-0.0615576,2.89805,0.294463,-0.652161,0.169517
4341535,1,-1.57043,-0.5229,-5.49708e-05,-2.09646,1.57046,1.5716,0.78503,-1.5708,-0.523598,6.6685e-07,-2.0944,1.5708,1.5708,0.785397,0.000281072,0.000176772,0.000105943,-4.85458e-05,-0.000307321,-0.000132974,8.88355e-05,0,0,0,0,0,0,0,-0.454395,-10.1892,-0.456784,21.4676,0.870073,-0.649816,0.122873,-0.449391,-1.05407,-0.0599932,2.89806,0.294438,-0.652315,0.169501
4341536,1,-1.57043,-0.522901,-5.2529e-05,-2.09646,1.57046,1.5716,0.785031,-1.5708,-0.523598,6.6685e-07,-2.0944,1.5708,1.5708,0.785397,0.000187381,-0.000438964,0.000720242,0.000524448,0.00020202,0.00014871,0.000533942,0,0,0,0,0,0,0,-0.454395,-10.1654,-0.484555,21.4438,0.859087,-0.656224,0.110056,-0.448969,-1.05374,-0.0593793,2.89847,0.294465,-0.652386,0.169487
4341537,1,-1.57043,-0.522901,-5.5984e-05,-2.09646,1.57046,1.5716,0.785028,-1.5708,-0.523598,6.6685e-07,-2.0944,1.5708,1.5708,0.785397,0.000124921,-0.000292642,-0.000726264,0.000349632,-6.87703e-05,9.91398e-05,-0.000593475,0,0,0,0,0,0,0,-0.454395,-10.1654,-0.432981,21.4438,0.86458,-0.656224,0.135691,-0.449124,-1.05222,-0.0595886,2.89809,0.294492,-0.652355,0.169481
4341538,1,-1.57043,-0.522898,-5.42588e-05,-2.09646,1.57046,1.5716,0.785034,-1.5708,-0.523598,6.6685e-07,-2.0944,1.5708,1.5708,0.785397,-0.000473531,0.000918529,7.26358e-05,-0.000323724,0.000157604,6.60932e-05,0.00150322,0,0,0,0,0,0,0,-0.430592,-10.213,-0.456784,21.4676,0.859087,-0.656224,0.0844213,-0.448974,-1.05101,-0.0593006,2.89777,0.294517,-0.652374,0.169472
4341539,1,-1.57043,-0.522898,-5.75814e-05,-2.09646,1.57046,1.57161,0.785032,-1.5708,-0.523598,6.6685e-07,-2.0944,1.5708,1.5708,0.785397,-0.000315688,5.55407e-05,-0.0010652,0.000340996,0.000105069,4.40622e-05,0.000290071,0,0,0,0,0,0,0,-0.430592,-10.1892,-0.409177,21.4438,0.859087,-0.656224,0.103647,-0.448127,-1.05173,-0.0579655,2.89843,0.294553,-0.652523,0.169445
4341540,1,-1.57043,-0.522901,-5.42344e-05,-2.09646,1.57046,1.5716,0.785027,-1.5708,-0.523598,6.6685e-07,-2.0944,1.5708,1.5708,0.785397,-0.000210458,-0.0011694,0.000403491,0.00143376,0.000273497,0.000266734,-0.00150204,0,0,0,0,0,0,0,-0.430592,-10.1377,-0.456784,21.3922,0.853594,-0.662633,0.149424,-0.446904,-1.05146,-0.0560665,2.89839,0.294551,-0.652719,0.16938
4341541,1,-1.57043,-0.522899,-5.22836e-05,-2.09645,1.57046,1.57161,0.785031,-1.5708,-0.523598,6.6685e-07,-2.0944,1.5708,1.5708,0.785397,0.000416506,0.000426827,0.000918608,0.000955838,-2.11195e-05,-5.95365e-05,0.000456702,0,0,0,0,0,0,0,-0.454395,-10.1892,-0.484555,21.3922,0.859087,-0.656224,0.110056,-0.446431,-1.04842,-0.0553382,2.89654,0.294511,-0.652777,0.169285
4341542,1,-1.57043,-0.522896,-5.42317e-05,-2.09646,1.57046,1.57161,0.78503,-1.5708,-0.523598,6.6685e-07,-2.0944,1.5708,1.5708,0.785397,0.000277671,0.000841363,-3.72089e-05,-0.000569201,0.000189371,-3.9691e-05,-0.00017025,0,0,0,0,0,0,0,-0.454395,-10.213,-0.456784,21.4438,0.853594,-0.656224,0.122873,-0.4471,-1.04642,-0.0563865,2.89512,0.29452,-0.652686,0.169186
4341543,1,-1.57043,-0.522897,-4.89418e-05,-2.09646,1.57046,1.5716,0.785025,-1.5708,-0.523598,6.6685e-07,-2.0944,1.5708,1.5708,0.785397,-0.000371698,4.09677e-06,0.00173843,-0.000379467,-7.72033e-05,-2.64607e-05,-0.00157156,0,0,0,0,0,0,0,-0.430592,-10.1892,-0.532163,21.4438,0.859087,-0.656224,0.162241,-0.448383,-1.04759,-0.0584741,2.8957,0.294619,-0.652542,0.169089
4341544,1,-1.57044,-0.522899,-5.44131e-05,-2.09646,1.57046,1.5716,0.78503,-1.5708,-0.523598,6.6685e-07,-2.0944,1.5708,1.5708,0.785397,-0.000247799,2.73118e-06,4.53307e-05,-0.000252978,-0.00045837,-0.000254999,0.000647713,0,0,0,0,0,0,0,-0.430592,-10.1892,-0.484555,21.4438,0.870073,-0.649816,0.116465,-0.449884,-1.04979,-0.061114,2.89725,0.294762,-0.652375,0.169012
4341545,1,-1.57043,-0.522899,-5.6612e-05,-2.09646,1.57046,1.5716,0.785033,-1.5708,-0.523598,6.6685e-07,-2.0944,1.5708,1.5708,0.785397,0.000391613,1.82079e-06,-0.00117621,-0.000168652,-0.000102129,-0.00017,0.00114389,0,0,0,0,0,0,0,-0.454395,-10.1892,-0.432981,21.4438,0.86458,-0.649816,0.0972387,-0.450644,-1.05159,-0.0626914,2.89876,0.294869,-0.652307,0.16898
4341546,1,-1.57043,-0.522901,-5.65986e-05,-2.09646,1.57046,1.5716,0.785027,-1.5708,-0.523598,6.6685e-07,-2.0944,1.5708,1.5708,0.785397,0.0014675,-0.000555598,-0.000227325,-0.000112435,0.000135364,0.000124026,-0.00117019,0,0,0,0,0,0,0,-0.50597,-10.1654,-0.456784,21.4438,0.859087,-0.656224,0.149424,-0.450574,-1.05248,-0.0627905,2.8998,0.294917,-0.652344,0.168976
4341547,1,-1.57043,-0.522898,-5.66909e-05,-2.09645,1.57046,1.5716,0.785027,-1.5708,-0.523598,6.6685e-07,-2.0944,1.5708,1.5708,0.785397,-0.000784904,0.000186413,-0.000708362,0.00113147,0.000293693,-0.000154675,-0.000780126,0,0,0,0,0,0,0,-0.430592,-10.1892,-0.432981,21.3922,0.853594,-0.649816,0.149424,-0.450238,-1.05198,-0.0622708,2.89988,0.29492,-0.652402,0.168979
4341548,1,-1.57043,-0.522899,-5.46761e-05,-2.09646,1.57046,1.5716,0.785034,-1.5708,-0.523598,6.6685e-07,-2.0944,1.5708,1.5708,0.785397,3.35429e-05,-0.000432536,0.000734185,-0.000452113,0.000195796,-0.000103117,0.00188741,0,0,0,0,0,0,0,-0.454395,-10.1654,-0.484555,21.4438,0.853594,-0.649816,0.0844213,-0.449634,-1.05065,-0.0613551,2.89919,0.294888,-0.65249,0.169008
4341549,1,-1.57043,-0.522897,-5.88302e-05,-2.09646,1.57046,1.5716,0.785028,-1.5708,-0.523598,6.6685e-07,-2.0944,1.5708,1.5708,0.785397,-0.00053445,0.000268454,-0.000716969,-0.000301409,-7.29201e-05,0.000168614,-0.000640596,0,0,0,0,0,0,0,-0.430592,-10.1892,-0.432981,21.4438,0.859087,-0.656224,0.135691,-0.44893,-1.04973,-0.0603961,2.89879,0.294862,-0.65259,0.169064
4341550,1,-1.57043,-0.522897,-5.15882e-05,-2.09646,1.57046,1.5716,0.785031,-1.5708,-0.523598,6.6685e-07,-2.0944,1.5708,1.5708,0.785397,0.000757324,0.00017897,0.00128526,-0.000757751,-4.86134e-05,0.00011241,0.000522372,0,0,0,0,0,0,0,-0.478199,-10.1892,-0.508359,21.4676,0.859087,-0.656224,0.110056,-0.448566,-1.05027,-0.0600056,2.89943,0.294882,-0.652649,0.169114
4341551,1,-1.57043,-0.522899,-5.45568e-05,-2.09646,1.57046,1.57161,0.785033,-1.5708,-0.523598,6.6685e-07,-2.0944,1.5708,1.5708,0.785397,0.0011545,0.000119313,-0.000349587,5.16446e-05,0.000171042,-0.000162419,0.000822966,0,0,0,0,0,0,0,-0.50597,-10.1892,-0.456784,21.4438,0.853594,-0.649816,0.0972387,-0.449227,-1.05189,-0.0610876,2.90075,0.294952,-0.652569,0.169148
4341552,1,-1.57043,-0.522901,-5.43398e-05,-2.09646,1.57046,1.5716,0.785031,-1.5708,-0.523598,6.6685e-07,-2.0944,1.5708,1.5708,0.785397,-0.000436761,-0.00047727,-0.000233058,0.000684044,0.000351387,0.000129079,7.3926e-05,0,0,0,0,0,0,0,-0.454395,-10.1654,-0.456784,21.416,0.847185,-0.656224,0.110056,-0.450243,-1.05271,-0.0625276,2.90147,0.294992,-0.652434,0.169157
4341553,1,-1.57043,-0.5229,-5.42675e-05,-2.09645,1.57046,1.5716,0.785032,-1.5708,-0.523598,6.6685e-07,-2.0944,1.5708,1.5708,0.785397,0.000265638,0.000238632,-0.000155372,0.000456029,-0.000206552,-0.000151306,0.000286643,0,0,0,0,0,0,0,-0.478199,-10.1892,-0.456784,21.416,0.859087,-0.649816,0.103647,-0.450598,-1.05198,-0.0628531,2.90098,0.294942,-0.652392,0.169119
4341554,1,-1.57043,-0.522901,-5.80444e-05,-2.09646,1.57046,1.5716,0.785029,-1.5708,-0.523598,6.6685e-07,-2.0944,1.5708,1.5708,0.785397,-0.000936532,-0.00104734,-0.000660393,0.000304019,-0.000137701,-0.000100871,-0.00075834,0,0,0,0,0,0,0,-0.430592,-10.1377,-0.432981,21.416,0.859087,-0.649816,0.129282,-0.450235,-1.05008,-0.0620577,2.89966,0.294823,-0.652451,0.169031
4341555,1,-1.57043,-0.522899,-5.6616e-05,-2.09646,1.57047,1.5716,0.785028,-1.57079,-0.523597,3.16685e-06,-2.09439,1.5708,1.5708,0.785397,-6.75428e-05,0.000508201,-0.000440262,0.000759492,0.00011165,0.000170112,-0.000742919,0.00327601,0.00177767,0.0025,0.00165673,0.00155778,0.005,-0.000206637,-0.454395,-10.1892,-0.432981,21.3922,0.853594,-0.656224,0.135691,-0.44913,-1.04745,-0.0601183,2.89788,0.294653,-0.652611,0.168903
4341556,1,-1.57043,-0.522896,-5.44694e-05,-2.09646,1.57046,1.57161,0.78503,-1.57079,-0.523593,8.16685e-06,-2.09439,1.5708,1.57081,0.785396,-4.50285e-05,0.00154523,0.000263304,-5.04842e-05,0.000311792,0.000113408,0.000216797,0.00655202,0.00355534,0.005,0.00331346,0.00311555,0.01,-0.000413274,-0.454395,-10.2408,-0.456784,21.416,0.847185,-0.656224,0.116465,-0.447965,-1.04687,-0.0580643,2.89694,0.294508,-0.652804,0.168764
4341557,1,-1.57043,-0.5229,-5.64413e-05,-2.09646,1.57046,1.5716,0.78503,-1.57078,-0.523588,1.56669e-05,-2.09439,1.5708,1.57083,0.785396,0.000526793,-0.000176275,0.000175536,-3.36562e-05,-0.000436399,7.56053e-05,-9.28274e-05,0.00982804,0.00533301,0.0075,0.00497018,0.00467333,0.015,-0.000619911,-0.478199,-10.1892,-0.456784,21.416,0.86458,-0.656224,0.122873,-0.447608,-1.04939,-0.0572027,2.89755,0.294441,-0.652914,0.168639
4341558,1,-1.57043,-0.522897,-5.65652e-05,-2.09645,1.57046,1.57161,0.785026,-1.57076,-0.523581,2.56669e-05,-2.09438,1.57081,1.57085,0.785395,0.00117191,0.00176831,0.0024639,0.000534375,-8.74819e-05,5.04035e-05,-0.00128259,0.013104,0.00711068,0.01,0.00662691,0.00623111,0.02,-0.000826548,-0.379017,-10.1377,-0.282224,21.3922,0.859087,-0.656224,0.155832,-0.448968,-1.05315,-0.0589224,2.89886,0.29446,-0.652789,0.168536
4341559,1,-1.57043,-0.522898,-4.98829e-05,-2.09646,1.57046,1.57161,0.785025,-1.57075,-0.523572,3.81669e-05,-2.09437,1.57082,1.57087,0.785394,0.00447547,-0.000217348,0.00319993,-0.000850176,-5.83212e-05,-0.000441116,-0.00109242,0.0163801,0.00888834,0.0125,0.00828364,0.00778889,0.025,-0.00103318,-0.125111,-9.93533,0.0748318,21.4438,0.859087,-0.643407,0.162241,-0.453848,-1.05748,-0.065827,2.90056,0.294626,-0.652153,0.16847
4341560,1,-1.57044,-0.522904,-3.16634e-05,-2.09645,1.57046,1.57161,0.785028,-1.57073,-0.523561,5.31669e-05,-2.09436,1.57083,1.5709,0.785393,0.00156533,-0.00162349,0.00755483,8.28298e-05,0.00121573,-0.000531436,-1.62016e-05,0.0196561,0.010666,0.015,0.00994037,0.00934666,0.03,-0.00123982,0.378734,-9.58224,0.451724,21.416,0.825212,-0.636998,0.143015,-0.463454,-1.05922,-0.0798271,2.90156,0.294962,-0.650745,0.168483
4341561,1,-1.57044,-0.522901,-1.14699e-05,-2.09645,1.57047,1.57161,0.785027,-1.5707,-0.523549,7.06669e-05,-2.09435,1.57084,1.57094,0.785391,0.000375501,-0.00305106,0.0107821,0.00172566,0.00101394,-0.000116932,-0.00024816,0.0229321,0.0124437,0.0175,0.0115971,0.0109044,0.035,-0.00144646,0.88258,-9.32834,0.98334,21.3446,0.819719,-0.643407,0.149424,-0.477069,-1.05307,-0.100733,2.89918,0.295382,-0.648508,0.168606
4341562,1,-1.57044,-0.522889,1.82907e-05,-2.09645,1.57047,1.57161,0.785023,-1.57068,-0.523534,9.06669e-05,-2.09434,1.57085,1.57098,0.785389,-0.000765272,-0.00149125,0.0152948,0.002764,0.00196448,0.000159404,-0.00135223,0.0262081,0.0142214,0.02,0.0132538,0.0124622,0.04,-0.0016531,1.41023,-9.17758,1.43958,21.416,0.784929,-0.649816,0.181467,-0.493311,-1.03795,-0.127602,2.89235,0.295825,-0.645487,0.168843
4341563,1,-1.57044,-0.522876,4.73464e-05,-2.09644,1.57047,1.57161,0.785029,-1.57065,-0.523518,0.000113167,-2.09432,1.57087,1.57102,0.785388,-0.000724071,0.00325755,0.0155639,0.00378677,0.00577483,0.00433223,0.00103129,0.0294841,0.015999,0.0225,0.0149106,0.01402,0.045,-0.00185973,1.91804,-9.05063,1.89582,21.3446,0.791338,-0.636998,0.129282,-0.510011,-1.02101,-0.157864,2.88412,0.2963,-0.641946,0.169186
4341564,1,-1.57044,-0.522861,8.1457e-05,-2.09644,1.57048,1.57162,0.785031,-1.57062,-0.523501,0.000138167,-2.0943,1.57088,1.57107,0.785386,6.09415e-06,0.00786059,0.0175939,0.00272976,0.00383486,0.00988872,0.0013996,0.0327601,0.0177767,0.025,0.0165673,0.0155778,0.05,-0.00206637,2.39412,-8.97525,2.27667,21.3446,0.802324,-0.688268,0.110056,-0.523834,-1.01448,-0.186847,2.88042,0.296864,-0.638417,0.169612
4341565,1,-1.57043,-0.522855,0.000113177,-2.09644,1.57047,1.57163,0.78503,-1.57058,-0.52348,0.000168167,-2.09428,1.5709,1.57113,0.785383,0.00179197,0.00751312,0.0226573,0.0044688,0.00139242,0.0129233,0.000458351,0.0384857,0.0208229,0.03,0.0194106,0.018265,0.06,-0.00238563,2.6996,-8.74911,2.62976,21.3684,0.841692,-0.713903,0.122873,-0.533681,-1.0231,-0.213371,2.88406,0.297624,-0.635026,0.170071
4341566,1,-1.57042,-0.522843,0.000142991,-2.09644,1.57047,1.57164,0.785031,-1.57053,-0.523456,0.000203167,-2.09426,1.57092,1.5712,0.78538,0.0061227,0.00932632,0.0243643,0.00360286,0.00114871,0.0146474,0.000780285,0.0442112,0.023869,0.035,0.0222539,0.0209523,0.07,-0.0027049,3.00111,-8.59836,2.95905,21.4914,0.841692,-0.72672,0.110056,-0.541198,-1.04142,-0.240218,2.89299,0.298652,-0.631375,0.170517
4341567,1,-1.5704,-0.522832,0.000178572,-2.09643,1.57047,1.57165,0.78503,-1.57048,-0.523429,0.000243167,-2.09424,1.57094,1.57128,0.785377,0.0120251,0.0112785,0.0275526,0.00728503,0.000490322,0.0140052,4.54723e-05,0.0499368,0.0269152,0.04,0.0250972,0.0236396,0.08,-0.00302416,3.17567,-8.47141,3.18915,21.4438,0.853594,-0.688268,0.122873,-0.548221,-1.06415,-0.269658,2.90477,0.299968,-0.627064,0.170928
4341568,1,-1.57038,-0.522819,0.000209846,-2.09642,1.57047,1.57166,0.785027,-1.57043,-0.523399,0.000288167,-2.09421,1.57097,1.57137,0.785374,0.0153837,0.0114275,0.0294157,0.00644896,0.000247424,0.0123671,-0.000953029,0.0556623,0.0299614,0.045,0.0279405,0.0263269,0.09,-0.00334342,3.378,-8.29288,3.56604,21.543,0.859087,-0.611364,0.149424,-0.55577,-1.08743,-0.302511,2.91741,0.301544,-0.621828,0.171296
4341569,1,-1.57036,-0.522805,0.000254135,-2.0964,1.57047,1.57166,0.785022,-1.57037,-0.523366,0.000338167,-2.09418,1.571,1.57147,0.78537,0.0224434,0.0129507,0.0358648,0.0076606,0.000257944,0.00847707,-0.00229687,0.0613879,0.0330075,0.05,0.0307839,0.0290141,0.1,-0.00366269,3.65571,-8.03897,3.99848,21.5668,0.859087,-0.456639,0.194285,-0.565227,-1.10791,-0.340402,2.9299,0.303408,-0.615292,0.17164
4341570,1,-1.57034,-0.522788,0.000302003,-2.09638,1.57048,1.57167,0.785024,-1.5703,-0.52333,0.000393167,-2.09415,1.57103,1.57158,0.785366,0.0205779,0.0135447,0.0411908,0.00867204,0.000885968,0.00924382,0.000367628,0.0671134,0.0360537,0.055,0.0336272,0.0317014,0.11,-0.00398195,4.2389,-7.76126,4.58167,21.5906,0.841692,-0.263463,0.143015,-0.57783,-1.12377,-0.385239,2.94196,0.305624,-0.607049,0.172018
4341571,1,-1.57031,-0.522761,0.000353381,-2.09637,1.57049,1.57169,0.785022,-1.57023,-0.523291,0.000453167,-2.09411,1.57106,1.5717,0.785362,0.0280778,0.0173358,0.0443845,0.00806066,0.00145676,0.0127382,-0.000229633,0.072839,0.0390999,0.06,0.0364705,0.0343887,0.12,-0.00430122,4.59199,-7.6105,5.21247,21.666,0.819719,-0.140783,0.155832,-0.592061,-1.13619,-0.434998,2.95452,0.308197,-0.597053,0.172476
4341572,1,-1.57026,-0.522732,0.000415673,-2.09635,1.5705,1.57172,0.785017,-1.57015,-0.523249,0.000518167,-2.09407,1.5711,1.57183,0.785357,0.0382258,0.0181974,0.0496812,0.0117717,0.00290927,0.0168189,-0.0018146,0.0785646,0.042146,0.065,0.0393138,0.0370759,0.13,-0.00462048,4.89351,-7.38437,5.72028,21.7176,0.76845,-0.0510608,0.200693,-0.607717,-1.14741,-0.488664,2.96862,0.31112,-0.585016,0.173015
4341573,1,-1.57021,-0.522697,0.000474465,-2.09633,1.57051,1.57177,0.78503,-1.57006,-0.523204,0.000588167,-2.09403,1.57114,1.57197,0.785353,0.0430869,0.0249825,0.0537414,0.0137049,0.00386781,0.0279163,0.0021472,0.0842901,0.0451922,0.07,0.0421571,0.0397632,0.14,-0.00493974,5.17122,-7.28122,6.22809,21.789,0.71718,-0.0574695,0.110056,-0.62588,-1.15918,-0.546833,2.98414,0.31434,-0.570527,0.173637
4341574,1,-1.57015,-0.522661,0.000537659,-2.0963,1.57052,1.57183,0.785031,-1.56997,-0.523155,0.000663167,-2.09398,1.57118,1.57212,0.785347,0.0510263,0.0287415,0.0559685,0.0176714,0.00195635,0.0386568,0.00143147,0.0900157,0.0482384,0.075,0.0450005,0.0424505,0.15,-0.00525901,5.39735,-7.13046,6.65656,21.7652,0.734575,-0.140783,0.110056,-0.644189,-1.17609,-0.60544,3.00216,0.317718,-0.55391,0.174335
4341575,1,-1.57008,-0.522626,0.000609554,-2.09628,1.57053,1.5719,0.785028,-1.56988,-0.523103,0.000745667,-2.09393,1.57123,1.57229,0.785342,0.0596176,0.031016,0.0590661,0.0192512,0.00864585,0.0476916,4.87517e-06,0.0975572,0.0521452,0.0825,0.0486547,0.0461813,0.164879,-0.00563399,5.49653,-6.9559,6.98584,21.9159,0.791338,-0.257054,0.135691,-0.659899,-1.19878,-0.659607,3.02255,0.321037,-0.535678,0.175038
4341576,1,-1.57001,-0.522589,0.000683058,-2.09625,1.57054,1.57198,0.785024,-1.56977,-0.523047,0.000835667,-2.09388,1.57128,1.57247,0.785336,0.0620129,0.0331412,0.0631027,0.0241267,0.00896426,0.0564529,-0.000268017,0.105099,0.056052,0.09,0.0523089,0.049912,0.179759,-0.00600898,5.75044,-6.80118,7.23975,21.9159,0.853594,-0.314733,0.143015,-0.671272,-1.22165,-0.706172,3.04264,0.324086,-0.516285,0.175681
4341577,1,-1.56993,-0.52255,0.000753666,-2.09622,1.57055,1.57207,0.785021,-1.56966,-0.522987,0.000933167,-2.09383,1.57133,1.57266,0.785329,0.0692135,0.0353336,0.0648739,0.0242591,0.00913452,0.0663666,-0.000890755,0.11264,0.0599588,0.0975,0.0559631,0.0536428,0.194638,-0.00638397,5.77424,-6.67422,7.51746,21.9397,0.921343,-0.340367,0.162241,-0.675984,-1.2402,-0.741675,3.06073,0.326819,-0.496432,0.176256
4341578,1,-1.56984,-0.522512,0.000823477,-2.09618,1.57056,1.57217,0.785006,-1.56954,-0.522923,0.00103817,-2.09377,1.57139,1.57287,0.785323,0.0774531,0.0384031,0.0694432,0.025682,0.00556104,0.0767837,-0.00537492,0.120182,0.0638656,0.105,0.0596173,0.0573736,0.209518,-0.00675895,5.80201,-6.47189,7.92212,21.8882,0.966203,-0.314733,0.291331,-0.673717,-1.2545,-0.765415,3.0782,0.32947,-0.476624,0.176792
4341579,1,-1.56974,-0.522465,0.000907287,-2.09614,1.57058,1.57227,0.784996,-1.56941,-0.522856,0.00115067,-2.0937,1.57145,1.5731,0.785315,0.0834389,0.0382337,0.0758578,0.0335156,0.0137217,0.0870888,-0.00599078,0.127723,0.0677724,0.1125,0.0632715,0.0611044,0.224397,-0.00713394,5.95277,-6.29733,8.37836,21.8405,0.971697,-0.23142,0.356333,-0.667119,-1.26187,-0.780918,3.09381,0.332278,-0.456825,0.17739
4341580,1,-1.56965,-0.522414,0.00100762,-2.0961,1.5706,1.5724,0.785,-1.56927,-0.522784,0.00127067,-2.09364,1.57152,1.57333,0.785308,0.0860294,0.0437703,0.0799501,0.0356747,0.0166234,0.0998409,-0.00229843,0.135265,0.0716792,0.12,0.0669257,0.0648351,0.239276,-0.00750893,6.32966,-6.095,8.8346,21.789,0.937822,-0.140783,0.310557,-0.657328,-1.25803,-0.789705,3.1039,0.335269,-0.437054,0.178242
4341581,1,-1.56955,-0.522358,0.0011003,-2.09605,1.57063,1.57255,0.784995,-1.56913,-0.522708,0.00139817,-2.09356,1.57159,1.57359,0.7853,0.0922999,0.048601,0.084066,0.0396971,0.0214991,0.118021,-0.00299035,0.142807,0.075586,0.1275,0.0705799,0.0685659,0.254156,-0.00788392,6.65895,-5.91647,9.41779,21.7652,0.949724,-0.147191,0.349924,-0.642493,-1.24831,-0.788961,3.11044,0.338497,-0.417736,0.179502
4341582,1,-1.56943,-0.522292,0.00120432,-2.096,1.57067,1.57271,0.784996,-1.56898,-0.522629,0.00153317,-2.09349,1.57166,1.57386,0.785292,0.104057,0.0544478,0.0896881,0.0427034,0.0259819,0.133046,-0.00175621,0.150348,0.0794929,0.135,0.0742341,0.0722967,0.269035,-0.0082589,6.93666,-5.84109,9.99701,21.7652,0.937822,-0.192968,0.343516,-0.623038,-1.24113,-0.778882,3.11759,0.342104,-0.398896,0.181223
4341583,1,-1.5693,-0.522226,0.00131537,-2.09594,1.57073,1.5729,0.785006,-1.56882,-0.522545,0.00167567,-2.09341,1.57173,1.57414,0.785283,0.113246,0.0609072,0.100864,0.0478604,0.0376345,0.148854,0.00218613,0.15789,0.0833997,0.1425,0.0778883,0.0760275,0.283914,-0.00863389,7.23817,-5.74191,10.5286,21.7652,0.830705,-0.244237,0.252878,-0.604151,-1.24124,-0.766702,3.12745,0.346263,-0.379784,0.183412
4341584,1,-1.56916,-0.522159,0.00143312,-2.09588,1.57079,1.57311,0.78501,-1.56866,-0.522458,0.00182567,-2.09333,1.57181,1.57444,0.785274,0.119289,0.0623312,0.106375,0.0512485,0.0445439,0.168622,0.00291548,0.165431,0.0873065,0.15,0.0815426,0.0797582,0.298794,-0.00900888,7.4405,-5.61496,11.0126,21.789,0.762956,-0.398961,0.213511,-0.589393,-1.24766,-0.757889,3.13935,0.350955,-0.359887,0.186008
4341585,1,-1.56902,-0.522086,0.00156331,-2.09583,1.57084,1.57335,0.785011,-1.56848,-0.522366,0.00198566,-2.09325,1.5719,1.57476,0.785265,0.129353,0.0644897,0.1121,0.052066,0.0526405,0.196325,0.00218101,0.174021,0.0917472,0.15999,0.0857073,0.0841899,0.31596,-0.00940557,7.54365,-5.53958,11.3657,21.8882,0.745561,-0.546361,0.207102,-0.576823,-1.25388,-0.749708,3.15112,0.355872,-0.339631,0.188838
4341586,1,-1.56887,-0.522012,0.00168773,-2.09576,1.5709,1.57359,0.785015,-1.5683,-0.52227,0.00215564,-2.09316,1.57199,1.57509,0.785255,0.133545,0.0654284,0.113917,0.0558988,0.0535757,0.213831,0.00287816,0.182611,0.0961879,0.16998,0.089872,0.0886217,0.333125,-0.00980226,7.76979,-5.43643,11.695,21.8405,0.740068,-0.585729,0.16865,-0.561843,-1.25399,-0.73501,3.16137,0.360632,-0.32001,0.191709
4341587,1,-1.56871,-0.521939,0.00181923,-2.0957,1.57097,1.57385,0.785012,-1.56811,-0.522169,0.00233561,-2.09306,1.57208,1.57544,0.785245,0.139395,0.0674911,0.116511,0.0584688,0.0576343,0.22787,0.00073198,0.1912,0.100629,0.17997,0.0940367,0.0930534,0.350291,-0.010199,7.89674,-5.26187,11.9489,21.9159,0.76845,-0.520726,0.200693,-0.539123,-1.24379,-0.705564,3.16861,0.36486,-0.302071,0.194479
4341588,1,-1.56854,-0.521855,0.0019461,-2.09561,1.57104,1.57413,0.784999,-1.56791,-0.522064,0.00252557,-2.09296,1.57218,1.57581,0.785234,0.150328,0.0721747,0.120104,0.0683852,0.0598817,0.244343,-0.00358102,0.19979,0.105069,0.18996,0.0982014,0.0974851,0.367457,-0.0105956,7.99592,-5.2103,12.429,21.8167,0.81331,-0.469457,0.310557,-0.506723,-1.22156,-0.658099,3.17083,0.368322,-0.286196,0.197068
4341589,1,-1.56837,-0.521773,0.00208904,-2.09553,1.57112,1.57443,0.784994,-1.5677,-0.521955,0.00272552,-2.09286,1.57228,1.57619,0.785223,0.156499,0.0774062,0.129854,0.0749457,0.0682193,0.260822,-0.00781555,0.20838,0.10951,0.19995,0.102366,0.101917,0.384623,-0.0109923,8.29744,-5.10715,12.8852,21.7414,0.825212,-0.40537,0.330698,-0.468135,-1.18884,-0.597645,3.16615,0.371058,-0.271868,0.199518
4341590,1,-1.5682,-0.521682,0.00224382,-2.09544,1.5712,1.57475,0.784983,-1.56749,-0.521841,0.00293546,-2.09275,1.57239,1.57659,0.785212,0.159236,0.0812839,0.139298,0.075837,0.0760628,0.276063,-0.0126688,0.216969,0.113951,0.20994,0.106531,0.106349,0.401788,-0.011389,8.7021,-5.00797,13.393,21.7414,0.791338,-0.40537,0.394785,-0.4273,-1.15063,-0.531042,3.1565,0.373378,-0.258367,0.201962
4341591,1,-1.56801,-0.521587,0.00239994,-2.09535,1.5713,1.57509,0.784982,-1.56726,-0.521723,0.00315539,-2.09264,1.5725,1.57701,0.7852,0.164971,0.0849359,0.145007,0.0821274,0.0816144,0.299771,-0.0125367,0.225559,0.118391,0.21993,0.110696,0.11078,0.418954,-0.0117857,9.10676,-4.93259,13.9246,21.7176,0.762956,-0.482274,0.362742,-0.384476,-1.1114,-0.459973,3.14559,0.375558,-0.245454,0.204544
4341592,1,-1.56781,-0.521483,0.00256819,-2.09526,1.5714,1.57546,0.784992,-1.56703,-0.5216,0.00338531,-2.09253,1.57261,1.57745,0.785188,0.176524,0.0918225,0.153714,0.0872604,0.0867402,0.31786,-0.00518452,0.234149,0.122832,0.22992,0.11486,0.115212,0.43612,-0.0121824,9.48365,-4.90482,14.48,21.7176,0.700701,-0.592137,0.252878,-0.339626,-1.07349,-0.384673,3.13471,0.377682,-0.233035,0.207371
4341593,1,-1.5676,-0.521375,0.0027491,-2.09516,1.57151,1.57585,0.784999,-1.56678,-0.521472,0.00362522,-2.09241,1.57273,1.5779,0.785175,0.187002,0.0968942,0.162274,0.0937609,0.0957989,0.340897,-0.00053384,0.242738,0.127273,0.23991,0.119025,0.119644,0.453286,-0.0125791,9.78517,-4.88101,15.0117,21.7176,0.627458,-0.694677,0.155832,-0.295875,-1.03989,-0.309487,3.1246,0.379812,-0.22069,0.210434
4341594,1,-1.56739,-0.521272,0.00293682,-2.09505,1.57162,1.57625,0.784999,-1.56653,-0.521341,0.00387512,-2.09229,1.57286,1.57837,0.785162,0.189848,0.097816,0.16748,0.0963995,0.102053,0.357327,-0.000622372,0.251328,0.131713,0.2499,0.12319,0.124075,0.470451,-0.0129758,10.1383,-4.73026,15.4679,21.666,0.570696,-0.778905,0.149424,-0.253304,-1.00903,-0.234656,3.11475,0.381814,-0.208455,0.213553
4341595,1,-1.56717,-0.521158,0.00312822,-2.09495,1.57174,1.57668,0.785003,-1.56627,-0.521204,0.00413501,-2.09216,1.57298,1.57886,0.785149,0.201074,0.100133,0.172809,0.0948409,0.108416,0.379344,0.000902628,0.260321,0.136425,0.25989,0.127626,0.128836,0.488345,-0.0133746,10.3922,-4.65488,15.8488,21.6898,0.587175,-0.868627,0.103647,-0.207794,-0.976618,-0.154346,3.10539,0.383433,-0.196972,0.21648
4341596,1,-1.56694,-0.52104,0.00331954,-2.09483,1.57186,1.57712,0.784994,-1.566,-0.521063,0.00440489,-2.09203,1.57312,1.57937,0.785135,0.210079,0.103273,0.175565,0.101409,0.112873,0.402273,-0.00280123,0.269314,0.141138,0.26988,0.132061,0.133597,0.506239,-0.0137733,10.6183,-4.62711,16.2534,21.5906,0.62105,-0.881444,0.187876,-0.156651,-0.941396,-0.0642445,3.0979,0.384525,-0.18679,0.21902
4341597,1,-1.56669,-0.520914,0.00352501,-2.09471,1.57199,1.57759,0.784982,-1.56572,-0.520917,0.00468476,-2.09189,1.57326,1.57989,0.785121,0.222117,0.112433,0.188621,0.109492,0.117926,0.416636,-0.0059117,0.278306,0.14585,0.27987,0.136497,0.138358,0.524133,-0.0141721,10.7453,-4.62711,16.5549,21.543,0.615556,-0.836583,0.291331,-0.10154,-0.905182,0.0334098,3.09136,0.385095,-0.177853,0.221109
4341598,1,-1.56646,-0.520786,0.00373632,-2.09459,1.57213,1.57807,0.784978,-1.56544,-0.520767,0.00497462,-2.09175,1.5734,1.58043,0.785106,0.226716,0.117332,0.19067,0.113687,0.121497,0.433272,-0.00457527,0.287299,0.150562,0.28986,0.140933,0.143118,0.542026,-0.0145708,10.9238,-4.55173,16.8366,21.5152,0.610063,-0.785314,0.304148,-0.0449984,-0.873188,0.134493,3.08569,0.385289,-0.169829,0.222851
4341599,1,-1.5662,-0.520657,0.00395449,-2.09445,1.57227,1.57858,0.784973,-1.56514,-0.520611,0.00527447,-2.0916,1.57355,1.58099,0.785091,0.22971,0.117439,0.201215,0.122291,0.129037,0.456927,-0.00316974,0.296292,0.155274,0.29985,0.145369,0.147879,0.55992,-0.0149696,11.0983,-4.45255,17.0112,21.3922,0.60457,-0.772496,0.304148,0.0157055,-0.842922,0.242302,3.07875,0.38504,-0.162965,0.224442
4341600,1,-1.56595,-0.520521,0.0041818,-2.09432,1.57242,1.57912,0.784962,-1.56483,-0.520452,0.00558431,-2.09145,1.5737,1.58157,0.785076,0.24539,0.123367,0.212496,0.126252,0.135205,0.48013,-0.00437297,0.305285,0.159986,0.30984,0.149805,0.15264,0.577814,-0.0153684,11.1737,-4.3494,17.2651,21.3684,0.581682,-0.798131,0.362742,0.0800452,-0.80633,0.355317,3.06649,0.384327,-0.156984,0.226053
4341601,1,-1.56568,-0.520376,0.00442568,-2.09418,1.57257,1.57967,0.784965,-1.56452,-0.520287,0.00590414,-2.0913,1.57386,1.58217,0.78506,0.252662,0.13189,0.227709,0.128217,0.140057,0.506595,-0.000575071,0.314277,0.164698,0.31983,0.154241,0.157401,0.595708,-0.0157671,11.2253,-4.30179,17.4436,21.3922,0.553301,-0.798131,0.297739,0.140535,-0.769164,0.461992,3.05268,0.383622,-0.150786,0.227799
4341602,1,-1.56541,-0.520223,0.0046736,-2.09403,1.57273,1.58025,0.784972,-1.5642,-0.520117,0.00623396,-2.09114,1.57402,1.58278,0.785044,0.255742,0.137543,0.235716,0.135683,0.143994,0.530759,0.00363519,0.32327,0.169411,0.32982,0.158677,0.162162,0.613601,-0.0161659,11.3522,-4.32559,17.6182,21.2931,0.519426,-0.836583,0.187876,0.195074,-0.742288,0.558497,3.04356,0.383277,-0.144172,0.229742
4341603,1,-1.56512,-0.520067,0.00492953,-2.09388,1.57289,1.58086,0.78497,-1.56386,-0.519943,0.00657377,-2.09098,1.57419,1.58341,0.785027,0.265902,0.144759,0.241773,0.139774,0.149989,0.567134,0.00309771,0.332263,0.174123,0.33981,0.163113,0.166922,0.631495,-0.0165646,11.3007,-4.3494,17.8483,21.2693,0.524919,-0.919896,0.16865,0.249062,-0.727941,0.652747,3.03967,0.383114,-0.138036,0.231811
4341604,1,-1.56484,-0.519905,0.00520409,-2.09372,1.57306,1.58148,0.784963,-1.56352,-0.519764,0.00692357,-2.09081,1.57436,1.58406,0.78501,0.271842,0.150705,0.251497,0.146688,0.156519,0.588228,0.00156205,0.341256,0.178835,0.3498,0.167548,0.171683,0.649389,-0.0169634,11.4276,-4.40097,17.8998,21.1939,0.485552,-0.991307,0.181467,0.306543,-0.725134,0.751626,3.03988,0.382889,-0.133092,0.233828
4341605,1,-1.56454,-0.519745,0.00548161,-2.09356,1.57324,1.58214,0.784967,-1.56317,-0.519581,0.00728336,-2.09064,1.57453,1.58473,0.784993,0.278922,0.152425,0.259316,0.154486,0.160022,0.604142,0.0039023,0.350097,0.183607,0.35979,0.172066,0.176543,0.667097,-0.017354,11.4752,-4.3494,17.999,21.1185,0.469072,-1.10026,0.103647,0.36768,-0.726935,0.856071,3.04018,0.382379,-0.129301,0.235657
4341606,1,-1.56424,-0.519581,0.00577206,-2.0934,1.57342,1.5828,0.784964,-1.56281,-0.519392,0.00765314,-2.09046,1.57472,1.58541,0.784975,0.284325,0.156693,0.271,0.158352,0.166607,0.625247,-0.00167859,0.358938,0.188378,0.36978,0.176585,0.181403,0.684806,-0.0177447,11.503,-4.27402,18.126,21.1701,0.45717,-1.17807,0.09083,0.43131,-0.723017,0.964494,3.03552,0.381387,-0.126357,0.237218
4341607,1,-1.56392,-0.51942,0.00607172,-2.09322,1.57361,1.58347,0.784949,-1.56245,-0.519199,0.00803291,-2.09028,1.5749,1.58612,0.784957,0.295857,0.158791,0.28004,0.164216,0.172357,0.634054,-0.0095743,0.367779,0.19315,0.37977,0.181103,0.186263,0.702514,-0.0181353,11.5784,-4.14706,18.2529,21.0947,0.451677,-1.08103,0.181467,0.494576,-0.708577,1.07276,3.02463,0.37992,-0.123835,0.238424
4341608,1,-1.56361,-0.519246,0.00638977,-2.09305,1.5738,1.58417,0.784951,-1.56207,-0.519001,0.00842267,-2.0901,1.57509,1.58684,0.784939,0.303555,0.165792,0.291867,0.169369,0.176039,0.650074,-0.00467148,0.376621,0.197922,0.38976,0.185621,0.191123,0.720223,-0.018526,11.7291,-4.12326,18.2529,21.1185,0.45717,-0.952855,0.116465,0.553582,-0.684103,1.17556,3.00854,0.378094,-0.121168,0.239252
4341609,1,-1.56328,-0.519071,0.00670631,-2.09286,1.57398,1.58489,0.784937,-1.56168,-0.518799,0.00882242,-2.08991,1.57529,1.58757,0.78492,0.311968,0.166846,0.298399,0.172365,0.171588,0.671976,-0.00461975,0.385462,0.202693,0.39975,0.190139,0.195983,0.737931,-0.0189166,11.7807,-4.04788,18.3799,21.0431,0.536821,-0.952855,0.143015,0.607607,-0.652626,1.27189,2.98953,0.376044,-0.118205,0.239748
4341610,1,-1.56294,-0.518883,0.00703109,-2.09267,1.57418,1.58565,0.78492,-1.56129,-0.518591,0.00923216,-2.08971,1.57549,1.58833,0.784901,0.316166,0.172575,0.310324,0.178631,0.178911,0.694355,-0.00939521,0.394303,0.207465,0.40974,0.194657,0.200843,0.755639,-0.0193073,11.9077,-4.04788,18.4553,20.9955,0.576189,-1.04899,0.175059,0.659487,-0.615356,1.36536,2.96898,0.373871,-0.115253,0.23995
4341611,1,-1.5626,-0.518686,0.00737547,-2.09248,1.5744,1.5864,0.784909,-1.56089,-0.518379,0.00965189,-2.08951,1.5757,1.5891,0.784881,0.324401,0.178708,0.321431,0.180826,0.189347,0.719882,-0.00973394,0.403145,0.212237,0.41973,0.199175,0.205703,0.773348,-0.0196979,11.8283,-4.12326,18.4553,20.9955,0.496538,-1.07462,0.122873,0.710967,-0.576154,1.45764,2.94875,0.37175,-0.112532,0.239896
4341612,1,-1.56223,-0.518485,0.00772721,-2.09228,1.57462,1.58718,0.784896,-1.56048,-0.518162,0.0100816,-2.08931,1.57591,1.58989,0.784861,0.336044,0.187224,0.324313,0.186018,0.195986,0.73233,-0.00801725,0.411986,0.217008,0.42972,0.203693,0.210563,0.791056,-0.0200886,11.7291,-4.25021,18.4791,20.9717,0.435198,-1.04899,0.0130102,0.762593,-0.544029,1.54974,2.93299,0.369841,-0.110208,0.239624
4341613,1,-1.56188,-0.518277,0.00809002,-2.09207,1.57484,1.58799,0.784868,-1.56005,-0.51794,0.0105213,-2.0891,1.57612,1.5907,0.78484,0.341433,0.192321,0.334066,0.188989,0.204245,0.757919,-0.0150587,0.420827,0.22178,0.43971,0.208211,0.215423,0.808765,-0.0204792,11.8045,-4.3494,18.4791,20.9717,0.394914,-1.06821,-0.00621587,0.816099,-0.525039,1.64526,2.92433,0.368066,-0.108599,0.239091
4341614,1,-1.56152,-0.518074,0.00845931,-2.09187,1.57506,1.58881,0.784845,-1.55962,-0.517714,0.010971,-2.08889,1.57634,1.59153,0.784819,0.345791,0.194201,0.339868,0.194821,0.209173,0.777722,-0.0179227,0.429668,0.226552,0.4497,0.212729,0.220283,0.826473,-0.0208698,12.0068,-4.3494,18.4315,20.9955,0.412309,-1.11399,-0.0904444,0.874136,-0.515281,1.74814,2.92057,0.366165,-0.108086,0.23818
4341615,1,-1.56114,-0.517858,0.00884122,-2.09166,1.57529,1.58967,0.784815,-1.55919,-0.517482,0.0114307,-2.08867,1.57657,1.59237,0.784798,0.356492,0.197414,0.354966,0.198445,0.217968,0.797658,-0.0221464,0.437866,0.231211,0.45969,0.217182,0.225097,0.843499,-0.0212491,12.0307,-4.42477,18.4315,21.0431,0.412309,-1.21012,-0.122488,0.935883,-0.504736,1.85643,2.91678,0.36395,-0.108453,0.23677
4341616,1,-1.56074,-0.517644,0.00924169,-2.09144,1.57553,1.59051,0.784771,-1.55874,-0.517247,0.0119004,-2.08845,1.5768,1.59323,0.784776,0.373969,0.201703,0.366545,0.201531,0.225142,0.817046,-0.0299575,0.446064,0.23587,0.46968,0.221634,0.229911,0.860526,-0.0216284,11.9315,-4.45255,18.4553,21.0709,0.400408,-1.13962,-0.0254419,0.993124,-0.488774,1.95765,2.91114,0.361611,-0.108459,0.234749
4341617,1,-1.56034,-0.517422,0.00965058,-2.09122,1.57577,1.59137,0.784717,-1.55829,-0.517006,0.0123801,-2.08822,1.57703,1.59411,0.784754,0.382478,0.206308,0.38056,0.206744,0.231773,0.825112,-0.039786,0.454262,0.240529,0.47967,0.226086,0.234726,0.877552,-0.0220077,11.9553,-4.52792,18.4553,21.0947,0.36104,-0.991307,0.187876,1.03741,-0.468445,2.03941,2.90455,0.359446,-0.106862,0.232096
4341618,1,-1.55994,-0.517199,0.0100745,-2.09099,1.576,1.59228,0.784673,-1.55782,-0.516761,0.0128697,-2.08799,1.57727,1.59501,0.784732,0.398792,0.213703,0.38817,0.208791,0.231354,0.848397,-0.0376813,0.46246,0.245188,0.48966,0.230539,0.23954,0.894578,-0.0223869,12.0307,-4.52792,18.4553,21.0709,0.446184,-1.08103,0.291331,1.06682,-0.448218,2.09912,2.89912,0.357577,-0.103303,0.229008
4341619,1,-1.55953,-0.516968,0.0105008,-2.09077,1.57624,1.5932,0.784636,-1.55735,-0.516511,0.0133694,-2.08776,1.57752,1.59592,0.784709,0.401955,0.222639,0.402283,0.211442,0.232175,0.867289,-0.0381656,0.470658,0.249847,0.49965,0.234991,0.244354,0.911604,-0.0227662,12.2092,-4.5795,18.4315,21.1423,0.524919,-1.20371,0.323374,1.08445,-0.438261,2.14109,2.90008,0.356141,-0.0982594,0.225877
4341620,1,-1.55909,-0.516733,0.0109581,-2.09053,1.57649,1.59412,0.784594,-1.55687,-0.516257,0.013879,-2.08752,1.57776,1.59685,0.784686,0.414878,0.224913,0.416776,0.216907,0.240136,0.882342,-0.0402862,0.478856,0.254506,0.50964,0.239443,0.249168,0.928631,-0.0231455,12.1814,-4.65488,18.3045,21.1939,0.536821,-1.16526,0.401194,1.09303,-0.442505,2.16817,2.90929,0.355286,-0.0921794,0.223117
4341621,1,-1.55865,-0.516486,0.0114222,-2.0903,1.57676,1.59504,0.784568,-1.55639,-0.515997,0.0143986,-2.08727,1.57802,1.59779,0.784663,0.423876,0.231566,0.429721,0.220125,0.248293,0.909674,-0.0352972,0.487054,0.259165,0.51963,0.243896,0.253982,0.945657,-0.0235247,12.0822,-4.80563,18.2529,21.2931,0.485552,-1.1204,0.304148,1.09266,-0.454475,2.17961,2.92307,0.355059,-0.0850929,0.221039
4341622,1,-1.5582,-0.516244,0.0118857,-2.09006,1.57702,1.596,0.78454,-1.55589,-0.515734,0.0149283,-2.08702,1.57828,1.59875,0.784639,0.432464,0.237148,0.441267,0.224777,0.248055,0.925611,-0.0322007,0.495252,0.263824,0.52962,0.248348,0.258796,0.962683,-0.023904,11.983,-4.85721,18.1776,21.2693,0.474565,-1.1973,0.213511,1.0852,-0.471185,2.17789,2.93964,0.355435,-0.0773426,0.219794
4341623,1,-1.55775,-0.51599,0.0123775,-2.08981,1.57728,1.59697,0.784508,-1.55539,-0.515465,0.0154679,-2.08677,1.57854,1.59973,0.784614,0.437683,0.23985,0.459209,0.237967,0.252804,0.93449,-0.0328085,0.50345,0.268483,0.53961,0.2528,0.26361,0.979709,-0.0242833,11.983,-4.98416,18.0506,21.1939,0.446184,-1.21653,0.187876,1.07261,-0.48698,2.16564,2.9546,0.356214,-0.069112,0.219346
4341624,1,-1.55728,-0.51573,0.0128728,-2.08956,1.57755,1.59793,0.78447,-1.55488,-0.515192,0.0160175,-2.08651,1.57881,1.60073,0.78459,0.444154,0.244063,0.468332,0.242925,0.265762,0.949677,-0.0354157,0.511648,0.273142,0.5496,0.257253,0.268424,0.996736,-0.0246625,11.983,-5.05954,18.0228,21.1185,0.389421,-1.17807,0.219919,1.05617,-0.490684,2.1447,2.96002,0.356985,-0.0603787,0.219511
4341625,1,-1.55681,-0.515472,0.0133749,-2.08929,1.57782,1.59892,0.784445,-1.55436,-0.514914,0.0165771,-2.08625,1.57908,1.60174,0.784565,0.453415,0.24729,0.480426,0.248953,0.270668,0.957035,-0.0331391,0.51882,0.277548,0.55959,0.261525,0.273096,1.0128,-0.0250332,11.9077,-5.00797,17.9475,21.0709,0.372942,-1.06821,0.143015,1.03878,-0.478772,2.11998,2.95397,0.357405,-0.0514748,0.220076
4341626,1,-1.55632,-0.5152,0.0138916,-2.08904,1.57811,1.59992,0.784408,-1.55383,-0.514632,0.0171466,-2.08599,1.57936,1.60277,0.784539,0.465051,0.251852,0.491408,0.249252,0.27456,0.963733,-0.0356687,0.525991,0.281953,0.56958,0.265797,0.277767,1.02887,-0.025404,11.7807,-5.05954,17.9236,21.0709,0.350054,-0.959264,0.175059,1.02075,-0.455299,2.09305,2.94056,0.357432,-0.0423329,0.22087
4341627,1,-1.55583,-0.514931,0.0144144,-2.08877,1.57838,1.60093,0.78437,-1.5533,-0.514346,0.0177262,-2.08572,1.57964,1.60382,0.784514,0.473477,0.251472,0.501176,0.251013,0.277331,0.975751,-0.0376864,0.533162,0.286359,0.57957,0.27007,0.282438,1.04494,-0.0257747,11.8045,-5.05954,17.8998,20.9955,0.332659,-0.907079,0.213511,1.00114,-0.423863,2.06345,2.92458,0.357167,-0.0326125,0.221747
4341628,1,-1.55533,-0.514653,0.0149575,-2.0885,1.57866,1.60198,0.784351,-1.55276,-0.514055,0.0183158,-2.08544,1.57993,1.60488,0.784487,0.473873,0.258047,0.514061,0.2559,0.282452,0.991162,-0.0337923,0.540333,0.290764,0.58956,0.274342,0.28711,1.06101,-0.0261454,11.8045,-5.08334,17.7967,21.0431,0.34456,-0.940038,0.110056,0.982788,-0.385924,2.03533,2.90821,0.356573,-0.0225702,0.22262
4341629,1,-1.55482,-0.514376,0.0155053,-2.08823,1.57895,1.60303,0.784323,-1.55221,-0.51376,0.0189153,-2.08516,1.58022,1.60596,0.784461,0.487181,0.259885,0.522912,0.257827,0.281627,1.00743,-0.0345006,0.547505,0.29517,0.59955,0.278614,0.291781,1.07708,-0.0265161,11.6776,-5.10715,17.6975,21.0431,0.366533,-1.03617,0.0972387,0.968753,-0.344737,2.01277,2.89262,0.355613,-0.012658,0.22344
4341630,1,-1.5543,-0.514092,0.0160571,-2.08796,1.57924,1.60411,0.784292,-1.55166,-0.513461,0.0195249,-2.08488,1.58052,1.60705,0.784434,0.499823,0.267384,0.532241,0.258961,0.290868,1.02588,-0.0315032,0.554676,0.299576,0.60954,0.282887,0.296452,1.09315,-0.0268869,11.5268,-5.26187,17.5944,21.1701,0.383928,-1.07462,0.116465,0.958011,-0.306073,1.99506,2.8807,0.354424,-0.00292096,0.224096
4341631,1,-1.55377,-0.513801,0.016624,-2.08769,1.57954,1.60521,0.784267,-1.55109,-0.513157,0.0201444,-2.08459,1.58082,1.60816,0.784407,0.508329,0.271906,0.537113,0.263725,0.293149,1.04472,-0.0328798,0.561847,0.303981,0.61953,0.287159,0.301124,1.10922,-0.0272576,11.4514,-5.26187,17.4158,21.2931,0.378435,-1.08744,0.110056,0.950316,-0.276216,1.98309,2.87531,0.353104,0.00632863,0.22448
4341632,1,-1.55324,-0.513498,0.0171787,-2.08741,1.57983,1.60631,0.784239,-1.55053,-0.512848,0.0207739,-2.0843,1.58113,1.60928,0.784379,0.51593,0.281173,0.559596,0.264732,0.297959,1.05977,-0.0308847,0.569019,0.308387,0.62952,0.291431,0.305795,1.12529,-0.0276283,11.4514,-5.48801,17.519,21.3922,0.440691,-1.16526,0.149424,0.944731,-0.260745,1.97523,2.87846,0.351828,0.014899,0.224565
4341633,1,-1.5527,-0.513203,0.0177586,-2.08712,1.58013,1.60742,0.784201,-1.54995,-0.512535,0.0214134,-2.08401,1.58144,1.61042,0.784351,0.523628,0.283944,0.570019,0.270719,0.298425,1.06444,-0.0323355,0.57619,0.312792,0.63951,0.295704,0.310467,1.14136,-0.027999,11.4752,-5.53958,17.5706,21.416,0.469072,-1.13321,0.272104,0.935792,-0.261148,1.96207,2.89058,0.350933,0.0234682,0.224399
4341634,1,-1.55217,-0.512894,0.0183579,-2.08683,1.58045,1.60853,0.784169,-1.54937,-0.512218,0.0220629,-2.08371,1.58175,1.61158,0.784323,0.522833,0.290916,0.568994,0.275691,0.307241,1.07252,-0.0311702,0.583361,0.317198,0.6495,0.299976,0.315138,1.15743,-0.0283697,11.6776,-5.66653,17.5706,21.416,0.383928,-1.01053,0.343516,0.927274,-0.272208,1.94919,2.90803,0.350239,0.0315553,0.22411
4341635,1,-1.55161,-0.512591,0.0189579,-2.08653,1.58075,1.60967,0.784149,-1.54878,-0.511897,0.0227224,-2.0834,1.58207,1.61275,0.784294,0.528236,0.29181,0.580819,0.282253,0.306787,1.08753,-0.0299046,0.589294,0.321242,0.65949,0.303974,0.319594,1.17234,-0.0287326,11.7291,-5.74191,17.6975,21.5152,0.36104,-0.997716,0.278513,0.930232,-0.28585,1.95349,2.92532,0.349195,0.0376814,0.223918
4341636,1,-1.55105,-0.51228,0.0195678,-2.08624,1.58107,1.61086,0.784122,-1.54818,-0.511572,0.0233919,-2.0831,1.58239,1.61394,0.784265,0.551714,0.297216,0.590387,0.290031,0.310904,1.10871,-0.0312343,0.595227,0.325286,0.66948,0.307972,0.32405,1.18724,-0.0290954,11.7807,-5.78952,17.8483,21.543,0.332659,-1.13321,0.265696,0.942213,-0.293435,1.9719,2.93717,0.347694,0.0423258,0.224037
4341637,1,-1.55049,-0.511968,0.0201873,-2.08594,1.58138,1.61204,0.784108,-1.54758,-0.511242,0.0240714,-2.08278,1.58272,1.61514,0.784236,0.54917,0.306039,0.602958,0.28926,0.314802,1.12838,-0.0279833,0.60116,0.32933,0.67947,0.311969,0.328506,1.20215,-0.0294583,11.9077,-5.81729,17.7967,21.6898,0.293291,-1.22934,0.135691,0.954982,-0.29728,1.99257,2.94497,0.346018,0.0466146,0.224529
4341638,1,-1.54992,-0.511646,0.0208213,-2.08563,1.58171,1.61325,0.784088,-1.54697,-0.510909,0.0247608,-2.08247,1.58306,1.61636,0.784206,0.552778,0.308838,0.611901,0.293467,0.320668,1.1481,-0.0231964,0.607093,0.333375,0.68946,0.315967,0.332962,1.21706,-0.0298212,11.9077,-5.86887,17.8205,21.789,0.298784,-1.44175,0.0587866,0.970729,-0.307443,2.01717,2.95567,0.344298,0.0499934,0.225268
4341639,1,-1.54933,-0.511312,0.0214616,-2.08532,1.58203,1.61449,0.784082,-1.54636,-0.510572,0.0254603,-2.08215,1.58339,1.61759,0.784176,0.566951,0.313364,0.615476,0.299147,0.321713,1.17607,-0.0111659,0.613026,0.337419,0.69945,0.319965,0.337418,1.23197,-0.030184,11.7291,-6.01962,17.8483,21.7652,0.389421,-1.80887,-0.122488,0.994151,-0.322632,2.05199,2.96959,0.34232,0.0514737,0.226012
4341640,1,-1.54875,-0.510981,0.0221071,-2.085,1.58235,1.61571,0.784079,-1.54574,-0.51023,0.0261697,-2.08182,1.58374,1.61884,0.784145,0.564123,0.319811,0.623197,0.305733,0.324957,1.19227,-0.00444051,0.618959,0.341463,0.70944,0.323963,0.341874,1.24687,-0.0305469,11.6776,-6.17038,17.7729,21.7414,0.428789,-1.82169,-0.252493,1.02785,-0.338251,2.10178,2.98347,0.33985,0.0501461,0.226429
4341641,1,-1.54816,-0.510642,0.0227716,-2.08469,1.58268,1.61692,0.78406,-1.54512,-0.509885,0.0268891,-2.0815,1.58408,1.6201,0.784114,0.569905,0.327334,0.641406,0.313787,0.326446,1.19149,-0.00905979,0.624892,0.345507,0.71943,0.327961,0.34633,1.26178,-0.0309097,11.7053,-6.32114,17.7213,21.8167,0.480058,-1.50034,-0.252493,1.07081,-0.35525,2.16456,2.99631,0.336999,0.0456971,0.226149
4341642,1,-1.54759,-0.510295,0.0234418,-2.08436,1.58301,1.61813,0.784036,-1.54449,-0.509535,0.0276186,-2.08116,1.58443,1.62138,0.784083,0.575181,0.332665,0.648742,0.320456,0.32998,1.19395,-0.0110482,0.630825,0.349551,0.72942,0.331959,0.350786,1.27669,-0.0312726,11.8283,-6.44809,17.7451,21.666,0.565202,-1.30716,-0.155447,1.11614,-0.374188,2.22958,3.00729,0.334126,0.0392349,0.224867
4341643,1,-1.54701,-0.50995,0.0241234,-2.08403,1.58335,1.61941,0.78402,-1.54385,-0.509181,0.028358,-2.08083,1.58479,1.62267,0.784051,0.575051,0.333392,0.657068,0.32233,0.328784,1.20909,-0.0151052,0.636758,0.353596,0.73941,0.335956,0.355242,1.2916,-0.0316354,12.0822,-6.57504,17.7213,21.6144,0.553301,-1.37125,-0.103262,1.16228,-0.391306,2.2948,3.01539,0.331424,0.0315563,0.222473
4341644,1,-1.54641,-0.509601,0.0248272,-2.0837,1.58371,1.62068,0.784002,-1.54321,-0.508824,0.0291074,-2.08049,1.58515,1.62398,0.784019,0.580187,0.335203,0.665115,0.323073,0.343428,1.21599,-0.0195138,0.642691,0.35764,0.7494,0.339954,0.359698,1.30651,-0.0319983,12.0584,-6.65042,17.5706,21.6144,0.366533,-1.30716,-0.00621587,1.21314,-0.401125,2.36588,3.02057,0.328955,0.0227368,0.219067
4341645,1,-1.54576,-0.509258,0.025516,-2.08338,1.58407,1.62196,0.783986,-1.54256,-0.508463,0.0298668,-2.08014,1.58551,1.6253,0.783987,0.602376,0.339208,0.675172,0.325783,0.352866,1.23386,-0.0204537,0.647321,0.361241,0.75939,0.343599,0.363872,1.32008,-0.0323532,11.6538,-6.67422,17.6975,21.6422,0.208147,-1.42252,0.0322363,1.26521,-0.402364,2.43825,3.02424,0.326822,0.0137427,0.21489
4341646,1,-1.54513,-0.508908,0.0262356,-2.08305,1.58444,1.62326,0.783981,-1.54191,-0.508098,0.0306361,-2.0798,1.58588,1.62663,0.783954,0.612145,0.344461,0.692478,0.327493,0.355498,1.23952,-0.0111601,0.651952,0.364843,0.76938,0.347244,0.368046,1.33366,-0.0327081,11.4752,-6.65042,17.6182,21.7176,0.146807,-1.42893,-0.0712183,1.30695,-0.399216,2.49619,3.02897,0.325168,0.00640402,0.210265
4341647,1,-1.54451,-0.508546,0.0269763,-2.08271,1.5848,1.62456,0.78398,-1.54125,-0.507729,0.0314155,-2.07945,1.58625,1.62798,0.783921,0.613402,0.349031,0.712368,0.326629,0.358499,1.25388,-0.00856266,0.656582,0.368444,0.77937,0.350889,0.37222,1.34723,-0.033063,11.5784,-6.65042,17.4674,21.7414,0.180681,-1.37766,-0.193899,1.33031,-0.398518,2.52724,3.03885,0.324083,0.00181725,0.205444
4341648,1,-1.54388,-0.508187,0.0277059,-2.08237,1.58515,1.6259,0.78396,-1.54059,-0.507357,0.0322049,-2.07909,1.58663,1.62934,0.783888,0.610749,0.35151,0.719502,0.333273,0.356674,1.27685,-0.0132042,0.661212,0.372046,0.78936,0.354533,0.376394,1.36081,-0.0334179,11.6538,-6.7258,17.4912,21.7176,0.34456,-1.39689,-0.149038,1.34008,-0.402271,2.53662,3.05491,0.323306,-0.000897107,0.200465
4341649,1,-1.54324,-0.50782,0.0284516,-2.08202,1.58552,1.62724,0.783937,-1.53992,-0.506982,0.0330042,-2.07873,1.58701,1.63071,0.783854,0.632473,0.353638,0.725238,0.340888,0.360068,1.29353,-0.0176806,0.665842,0.375647,0.79935,0.358178,0.380568,1.37438,-0.0337729,11.5506,-6.85275,17.4436,21.5906,0.383928,-1.25498,-0.0712183,1.34556,-0.40264,2.53862,3.07067,0.322314,-0.00321827,0.195256
4341650,1,-1.54259,-0.507441,0.0292005,-2.08166,1.5859,1.62858,0.783907,-1.53925,-0.506602,0.0338136,-2.07837,1.58739,1.6321,0.78382,0.639407,0.368536,0.721559,0.347912,0.366815,1.31563,-0.0230903,0.670472,0.379249,0.80934,0.361823,0.384742,1.38796,-0.0341278,11.3522,-7.20584,17.3405,21.3922,0.332659,-1.13962,0.071604,1.35265,-0.400278,2.54508,3.0826,0.320824,-0.00607317,0.189817
4341651,1,-1.54193,-0.507063,0.0299606,-2.0813,1.58628,1.62996,0.78387,-1.53858,-0.506219,0.0346329,-2.07801,1.58778,1.6335,0.783785,0.647257,0.369376,0.732321,0.353991,0.366528,1.33244,-0.0277664,0.675102,0.38285,0.81933,0.365468,0.388916,1.40154,-0.0344827,11.1221,-7.33279,17.2889,21.2693,0.287798,-1.08744,0.240061,1.36722,-0.405469,2.56625,3.0931,0.318807,-0.0102655,0.184306
4341652,1,-1.54129,-0.50669,0.0307402,-2.08095,1.58668,1.63134,0.783836,-1.5379,-0.505833,0.0354622,-2.07764,1.58818,1.63492,0.78375,0.645595,0.36677,0.744806,0.351576,0.372237,1.38054,-0.0276863,0.679732,0.386451,0.82932,0.369112,0.39309,1.41511,-0.0348376,11.0983,-7.30899,17.2413,21.3169,0.202654,-1.11399,0.323374,1.39123,-0.412757,2.60372,3.10078,0.316372,-0.0159117,0.179043
4341653,1,-1.54064,-0.50632,0.031517,-2.08058,1.58708,1.63275,0.783824,-1.53721,-0.505443,0.0363015,-2.07726,1.58857,1.63635,0.783715,0.640211,0.368361,0.75963,0.352121,0.376133,1.38676,-0.0241209,0.684362,0.390053,0.83931,0.372757,0.397265,1.42869,-0.0351925,11.2253,-7.28122,17.1143,21.2455,0.134905,-1.12681,0.181467,1.42431,-0.411189,2.65411,3.10436,0.313657,-0.0227729,0.174415
4341654,1,-1.53997,-0.505948,0.0323157,-2.08022,1.58748,1.63417,0.783807,-1.53652,-0.505049,0.0371508,-2.07689,1.58897,1.63779,0.78368,0.643214,0.365075,0.76755,0.358112,0.376999,1.38853,-0.0226249,0.688992,0.393654,0.8493,0.376402,0.401439,1.44226,-0.0355474,11.2491,-7.23361,17.0627,21.2693,0.0900438,-1.11399,0.0523779,1.46565,-0.393957,2.71473,3.10234,0.310526,-0.0302956,0.170694
4341655,1,-1.5393,-0.50556,0.0331297,-2.07984,1.58788,1.63558,0.783779,-1.53583,-0.504653,0.0380099,-2.07651,1.58938,1.63924,0.783644,0.655719,0.379244,0.77525,0.362855,0.386411,1.39608,-0.0249215,0.692447,0.396752,0.859101,0.37963,0.405253,1.45428,-0.0358959,11.0983,-7.28122,17.0112,21.1185,0.0845506,-1.09385,0.00660151,1.51102,-0.362748,2.7804,3.09379,0.306752,-0.0374633,0.167858
4341656,1,-1.53862,-0.505165,0.0339491,-2.07945,1.58829,1.63701,0.783761,-1.53514,-0.504253,0.0388788,-2.07612,1.58979,1.64071,0.783607,0.666549,0.387548,0.792376,0.367344,0.394077,1.40101,-0.0199219,0.695901,0.399849,0.868902,0.382858,0.409068,1.46629,-0.0362443,10.9714,-7.40817,16.9874,21.0431,0.0671556,-0.991307,-0.0968531,1.55172,-0.337434,2.8399,3.086,0.302523,-0.0430429,0.165633
4341657,1,-1.53794,-0.50477,0.0347898,-2.07907,1.5887,1.63848,0.783717,-1.53444,-0.50385,0.0397575,-2.07574,1.5902,1.64219,0.783571,0.669924,0.388493,0.805025,0.375466,0.391735,1.41648,-0.0284359,0.699356,0.402947,0.878703,0.386087,0.412883,1.47831,-0.0365928,10.9238,-7.45975,16.785,20.9201,0.140398,-1.04258,0.000192821,1.57951,-0.326476,2.88132,3.08171,0.298123,-0.0459212,0.163703
4341658,1,-1.53724,-0.504377,0.0356186,-2.07867,1.58911,1.63994,0.783673,-1.53373,-0.503444,0.040646,-2.07535,1.59062,1.64368,0.783534,0.669959,0.390775,0.812641,0.375498,0.399365,1.4395,-0.0355942,0.702811,0.406044,0.888505,0.389315,0.416698,1.49033,-0.0369413,10.7453,-7.55893,16.7335,20.8725,0.225542,-1.15244,0.129282,1.597,-0.319188,2.90788,3.07577,0.293481,-0.0465596,0.161822
4341659,1,-1.53654,-0.503985,0.0364841,-2.07827,1.58954,1.64141,0.783635,-1.53303,-0.503035,0.0415443,-2.07496,1.59104,1.64518,0.783497,0.676956,0.390431,0.834418,0.389557,0.403663,1.43866,-0.0376885,0.706266,0.409141,0.898306,0.392543,0.420513,1.50234,-0.0372897,10.4913,-7.5867,16.4558,20.8448,0.202654,-0.997716,0.181467,1.60787,-0.303146,2.92451,3.06218,0.288532,-0.0456077,0.159949
4341660,1,-1.53584,-0.503586,0.0373681,-2.07788,1.58998,1.64286,0.783604,-1.53232,-0.502622,0.0424524,-2.07456,1.59146,1.64669,0.783459,0.684603,0.390242,0.846254,0.39002,0.411491,1.43927,-0.034371,0.70972,0.412239,0.908107,0.395771,0.424328,1.51436,-0.0376382,10.293,-7.5867,16.2256,20.9201,0.078142,-0.778905,0.103647,1.60634,-0.26595,2.92301,3.03434,0.28344,-0.0421369,0.158258
4341661,1,-1.53513,-0.503196,0.0382343,-2.07748,1.59042,1.64437,0.783572,-1.5316,-0.502207,0.0433703,-2.07416,1.59189,1.64822,0.783421,0.685435,0.39048,0.861006,0.390952,0.414025,1.45622,-0.0330563,0.713175,0.415336,0.917908,0.398999,0.428143,1.52637,-0.0379867,10.0906,-7.6105,16.0511,20.9717,0.0332811,-0.740453,0.0459692,1.59011,-0.205342,2.90049,2.99345,0.278372,-0.0356834,0.156879
4341662,1,-1.53443,-0.502796,0.0391301,-2.07708,1.59086,1.64591,0.783537,-1.53089,-0.501789,0.0442981,-2.07376,1.59232,1.64976,0.783383,0.693693,0.393444,0.870399,0.393454,0.415919,1.48165,-0.0377455,0.71663,0.418433,0.927709,0.402228,0.431957,1.53839,-0.0383351,10.0153,-7.66208,15.8726,21.1185,-0.0289747,-0.887853,0.0130102,1.56427,-0.129574,2.86442,2.94662,0.273354,-0.0270896,0.155763
4341663,1,-1.53372,-0.502393,0.0400305,-2.07668,1.5913,1.64742,0.783503,-1.53017,-0.501367,0.0452356,-2.07335,1.59276,1.65131,0.783344,0.701531,0.398493,0.887492,0.395086,0.425399,1.49707,-0.0412753,0.720084,0.421531,0.93751,0.405456,0.435772,1.5504,-0.0386836,9.88832,-7.78903,15.7694,21.1423,-0.0344679,-0.959264,-0.0254419,1.53119,-0.0498459,2.81862,2.90027,0.268395,-0.0169945,0.15477
4341664,1,-1.533,-0.50198,0.0409435,-2.07627,1.59175,1.64897,0.783464,-1.52944,-0.500942,0.0461829,-2.07295,1.5932,1.65287,0.783305,0.704724,0.401441,0.900156,0.396876,0.432224,1.50024,-0.0408317,0.723539,0.424628,0.947311,0.408684,0.439587,1.56242,-0.039032,9.83674,-7.88821,15.8964,21.2693,-0.0518629,-1.07462,-0.0190333,1.48981,0.0238827,2.7616,2.85966,0.263503,-0.00547709,0.153744
4341665,1,-1.53229,-0.501555,0.0418746,-2.07585,1.59221,1.65051,0.783424,-1.52872,-0.500515,0.0471391,-2.07253,1.59364,1.65444,0.783266,0.706964,0.40525,0.911429,0.404357,0.436429,1.51529,-0.0414739,0.725957,0.427173,0.956173,0.411445,0.442935,1.57272,-0.0393813,9.70979,-8.06674,15.8726,21.2931,-0.0289747,-1.15244,0.0194189,1.44242,0.0891974,2.69669,2.82523,0.258477,0.00693344,0.152569
4341666,1,-1.53157,-0.501134,0.042801,-2.07544,1.59267,1.65208,0.783382,-1.52799,-0.500085,0.0481041,-2.07212,1.59409,1.65603,0.783226,0.701805,0.408927,0.901909,0.405419,0.445512,1.52437,-0.0421958,0.728375,0.429718,0.965035,0.414206,0.446284,1.58302,-0.0397306,9.81294,-8.29288,15.7694,21.3446,-0.0344679,-1.1973,0.0651953,1.40231,0.146487,2.64422,2.79507,0.25273,0.0179628,0.151183
4341667,1,-1.53084,-0.500714,0.0437435,-2.07504,1.59312,1.65369,0.783352,-1.52726,-0.499653,0.049078,-2.0717,1.59454,1.65762,0.783186,0.717981,0.410269,0.905345,0.403868,0.437712,1.54714,-0.0335939,0.730794,0.432263,0.973897,0.416966,0.449632,1.59331,-0.0400798,9.88832,-8.36826,15.7218,21.5152,0.0671556,-1.5452,-0.00621587,1.38419,0.193477,2.62767,2.77074,0.245788,0.025023,0.149597
4341668,1,-1.53012,-0.500284,0.0446833,-2.07463,1.59358,1.65527,0.783333,-1.52653,-0.499218,0.0500607,-2.07128,1.59499,1.65922,0.783145,0.716536,0.424635,0.916804,0.405286,0.441906,1.56199,-0.029199,0.733212,0.434808,0.982759,0.419727,0.45298,1.60361,-0.0404291,9.91212,-8.54678,15.5949,21.6144,0.0726488,-1.60288,-0.155447,1.38725,0.219888,2.64625,2.75895,0.238036,0.0276532,0.147853
4341669,1,-1.52938,-0.499851,0.0456391,-2.0742,1.59405,1.65686,0.783301,-1.52579,-0.498781,0.0510524,-2.07086,1.59545,1.66084,0.783105,0.721927,0.424906,0.929334,0.403355,0.448813,1.55748,-0.0314206,0.73563,0.437353,0.991621,0.422488,0.456328,1.61391,-0.0407784,9.78517,-8.69754,15.4441,21.666,0.10103,-1.45456,-0.168264,1.40194,0.214217,2.68383,2.76617,0.230239,0.0267974,0.145899
4341670,1,-1.52865,-0.499406,0.0465878,-2.07379,1.59451,1.65844,0.783275,-1.52505,-0.498341,0.0520528,-2.07044,1.59591,1.66246,0.783063,0.725408,0.429352,0.936999,0.406658,0.450795,1.60168,-0.0306961,0.738048,0.439898,1.00048,0.425249,0.459676,1.62421,-0.0411276,9.70979,-9.02682,15.4917,21.666,0.214556,-1.41611,-0.23876,1.42182,0.181837,2.72917,2.7902,0.222787,0.0232349,0.143568
4341671,1,-1.52793,-0.498968,0.0475469,-2.07336,1.59497,1.66005,0.783251,-1.52431,-0.497899,0.0530622,-2.07001,1.59637,1.6641,0.783022,0.725175,0.433776,0.950844,0.411828,0.456351,1.60068,-0.0259225,0.740466,0.442443,1.00934,0.428009,0.463025,1.63451,-0.0414769,9.83674,-9.28073,15.3647,21.6422,0.220049,-1.35843,-0.297354,1.4446,0.134893,2.778,2.8236,0.21581,0.0173004,0.140697
4341672,1,-1.5272,-0.498521,0.0485187,-2.07294,1.59546,1.6617,0.783216,-1.52357,-0.497454,0.0540804,-2.06958,1.59684,1.66574,0.78298,0.726434,0.438806,0.955785,0.421716,0.459693,1.60327,-0.0265264,0.742885,0.444988,1.01821,0.43077,0.466373,1.64481,-0.0418262,9.9637,-9.53067,15.2894,21.6898,0.095537,-1.44816,-0.246084,1.46965,0.0820457,2.82904,2.85847,0.209282,0.00956718,0.137174
4341673,1,-1.52647,-0.498075,0.049493,-2.07251,1.59593,1.66331,0.783192,-1.52282,-0.497006,0.0551075,-2.06914,1.5973,1.6674,0.782938,0.729468,0.440533,0.952486,0.423327,0.47432,1.61161,-0.0242778,0.745303,0.447533,1.02707,0.433531,0.469721,1.65511,-0.0421754,9.86055,-9.65762,15.3171,21.6898,-0.0454542,-1.29343,-0.258901,1.50105,0.0310402,2.88915,2.88819,0.202817,8.49072e-05,0.132929
4341674,1,-1.52574,-0.497634,0.0504702,-2.07208,1.59642,1.66495,0.783165,-1.52208,-0.496556,0.0561434,-2.06871,1.59778,1.66906,0.782895,0.730317,0.438358,0.966632,0.417692,0.482959,1.61657,-0.0225847,0.747721,0.450078,1.03593,0.436292,0.473069,1.66541,-0.0425247,9.76136,-9.76077,15.2894,21.8405,-0.169966,-1.13962,-0.271719,1.54272,-0.0131298,2.96463,2.91244,0.196032,-0.0112888,0.127961
4341675,1,-1.52501,-0.497188,0.0514842,-2.07167,1.5969,1.6666,0.78314,-1.52133,-0.496104,0.0571868,-2.06827,1.59825,1.67074,0.782853,0.726536,0.438312,0.981151,0.417057,0.47867,1.61089,-0.0205368,0.74926,0.452041,1.04339,0.438537,0.475787,1.67387,-0.0428823,9.76136,-9.80838,15.0355,21.9873,-0.153486,-0.913488,-0.303762,1.58906,-0.0470643,3.04592,2.93468,0.188991,-0.0232164,0.122342
4341676,1,-1.52428,-0.496745,0.0524937,-2.07123,1.59736,1.66826,0.783091,-1.52058,-0.49565,0.0582376,-2.06783,1.59873,1.67242,0.782809,0.720822,0.437737,0.998001,0.41653,0.47719,1.62737,-0.0273087,0.750799,0.454003,1.05084,0.440782,0.478505,1.68233,-0.04324,9.88832,-9.80838,14.8847,22.0905,-0.0454542,-0.997716,-0.116079,1.63325,-0.068633,3.12076,2.95655,0.18188,-0.0341413,0.116178
4341677,1,-1.52353,-0.496284,0.0535112,-2.0708,1.59784,1.66995,0.783059,-1.51982,-0.495194,0.0592959,-2.06738,1.59921,1.67411,0.782766,0.725449,0.441728,0.998607,0.421558,0.471622,1.64179,-0.0259563,0.752338,0.455966,1.05829,0.443028,0.481222,1.69079,-0.0435976,9.78517,-9.98691,14.9363,22.1381,0.0561693,-0.991307,-0.0840357,1.67558,-0.0788393,3.18866,2.97757,0.174697,-0.0438475,0.109633
4341678,1,-1.52279,-0.495829,0.0545465,-2.07038,1.59834,1.67163,0.783017,-1.51907,-0.494736,0.0603617,-2.06694,1.5997,1.67581,0.782722,0.729564,0.442889,1.00508,0.421085,0.473851,1.65228,-0.0317465,0.753877,0.457928,1.06575,0.445273,0.48394,1.69925,-0.0439552,9.63441,-10.0901,14.8093,22.2135,0.00489977,-1.00412,0.00660151,1.71979,-0.0818215,3.25662,2.99752,0.167383,-0.0528973,0.102981
4341679,1,-1.52204,-0.495372,0.0555833,-2.06994,1.59884,1.67334,0.782975,-1.51831,-0.494276,0.0614349,-2.06649,1.60018,1.67752,0.782677,0.731085,0.446971,1.01869,0.425941,0.491582,1.66131,-0.0355772,0.755416,0.45989,1.0732,0.447518,0.486658,1.70771,-0.0443129,9.48365,-10.1892,14.5038,22.2135,-0.0967238,-1.01694,0.0844213,1.76504,-0.081429,3.32489,3.01676,0.16003,-0.0611946,0.0965248
4341680,1,-1.52131,-0.494907,0.0566263,-2.0695,1.59933,1.67506,0.782934,-1.51756,-0.493814,0.0625155,-2.06604,1.60067,1.67923,0.782633,0.748599,0.447183,1.0335,0.428576,0.490008,1.6773,-0.03571,0.756955,0.461853,1.08066,0.449763,0.489376,1.71617,-0.0446705,9.30909,-10.34,14.3015,22.2611,-0.0802443,-1.06821,0.09083,1.80171,-0.0774777,3.38019,3.03402,0.15289,-0.0674172,0.0905556
4341681,1,-1.52057,-0.494453,0.0576623,-2.06906,1.59983,1.67674,0.782901,-1.5168,-0.493351,0.0636036,-2.06559,1.60117,1.68096,0.782588,0.747142,0.450736,1.03227,0.434848,0.495393,1.68045,-0.0338542,0.758494,0.463815,1.08811,0.452009,0.492093,1.72463,-0.0450281,9.25752,-10.4669,13.8969,22.2611,-0.0967238,-0.881444,0.038645,1.82406,-0.0673546,3.41544,3.04671,0.145973,-0.0709212,0.0853268
4341682,1,-1.51983,-0.493992,0.058735,-2.06862,1.60034,1.67845,0.782861,-1.51604,-0.492885,0.0646992,-2.06514,1.60166,1.68269,0.782542,0.7443,0.451702,1.04824,0.43337,0.494761,1.67714,-0.0389062,0.760033,0.465777,1.09557,0.454254,0.494811,1.73309,-0.0453858,9.28132,-10.5185,13.4168,22.2373,-0.114119,-0.649816,0.0258276,1.83842,-0.0521568,3.43997,3.05499,0.138996,-0.0726514,0.0809492
4341683,1,-1.51907,-0.493528,0.0598143,-2.06817,1.60085,1.68016,0.782821,-1.51528,-0.492417,0.0658022,-2.06468,1.60216,1.68443,0.782497,0.753904,0.451138,1.05899,0.44018,0.49698,1.69332,-0.0424365,0.761572,0.46774,1.10302,0.456499,0.497529,1.74155,-0.0457434,8.85286,-10.5185,13.1113,21.9873,-0.0857374,-0.604955,0.00660151,1.84672,-0.0314284,3.45501,3.05943,0.131947,-0.0726565,0.0773936
4341684,1,-1.5183,-0.493073,0.0608922,-2.06771,1.60136,1.6819,0.78277,-1.51451,-0.491947,0.0669127,-2.06422,1.60266,1.68618,0.782451,0.754723,0.454084,1.05334,0.442426,0.504894,1.70051,-0.04392,0.763111,0.469702,1.11048,0.458745,0.500246,1.75001,-0.046101,8.44819,-10.5185,12.7344,21.8167,-0.0857374,-0.611364,0.0780126,1.85029,-0.00206944,3.46253,3.05804,0.12473,-0.0709295,0.0745435
4341685,1,-1.51753,-0.492614,0.0620063,-2.06725,1.60188,1.68366,0.782728,-1.51375,-0.491476,0.068029,-2.06376,1.60316,1.68794,0.782404,0.769796,0.454238,1.0668,0.446715,0.511169,1.71177,-0.0453826,0.763954,0.471082,1.1163,0.460414,0.50211,1.75651,-0.046461,8.0713,-10.4669,12.1751,21.5668,-0.125105,-0.656224,0.038645,1.85349,0.0351528,3.47036,3.05014,0.117105,-0.0680552,0.0722742
4341686,1,-1.51673,-0.492147,0.0631074,-2.0668,1.60238,1.6854,0.782695,-1.51299,-0.491004,0.0691511,-2.0633,1.60366,1.6897,0.782357,0.773312,0.466366,1.08517,0.450133,0.512887,1.71965,-0.0430905,0.764797,0.472462,1.12212,0.462084,0.503973,1.76301,-0.046821,7.51588,-10.4669,11.822,21.4438,-0.0454542,-0.694677,-0.0968531,1.84819,0.0716438,3.46677,3.03953,0.10947,-0.0630421,0.070524
4341687,1,-1.51595,-0.491677,0.0642545,-2.06634,1.60289,1.68716,0.782651,-1.51222,-0.49053,0.0702791,-2.06283,1.60417,1.69147,0.78231,0.772437,0.465349,1.10909,0.448512,0.508005,1.72729,-0.0412244,0.76564,0.473842,1.12794,0.463754,0.505837,1.76951,-0.047181,7.21437,-10.5701,11.3657,21.3684,-0.0573561,-0.643407,-0.122488,1.82279,0.094875,3.43255,3.03313,0.102597,-0.0545718,0.0691787
4341688,1,-1.51518,-0.491197,0.0654213,-2.06588,1.6034,1.68891,0.782628,-1.51145,-0.490055,0.0714128,-2.06237,1.60468,1.69325,0.782263,0.772655,0.463339,1.12222,0.448552,0.508428,1.77402,-0.0322806,0.766483,0.475222,1.13376,0.465424,0.5077,1.77601,-0.0475409,7.06361,-10.7724,10.7825,21.3922,-0.0518629,-0.701085,-0.349539,1.77543,0.107256,3.36291,3.03237,0.0969058,-0.0429216,0.0679925
4341689,1,-1.5144,-0.490726,0.0665537,-2.06542,1.60393,1.6907,0.782594,-1.51069,-0.489578,0.0725524,-2.0619,1.60519,1.69503,0.782215,0.773182,0.468127,1.13153,0.452048,0.511992,1.77663,-0.0320144,0.767326,0.476602,1.13958,0.467093,0.509563,1.78251,-0.0479009,6.86128,-10.9748,10.5286,21.3446,-0.130598,-0.785314,-0.413626,1.71349,0.117422,3.26864,3.03394,0.0922208,-0.0297132,0.0666205
4341690,1,-1.51361,-0.490242,0.0676939,-2.06494,1.60444,1.69255,0.782544,-1.50992,-0.4891,0.0736978,-2.06143,1.6057,1.69682,0.782166,0.776597,0.474993,1.12677,0.465251,0.511729,1.79182,-0.0413923,0.76817,0.477982,1.1454,0.468763,0.511427,1.78901,-0.0482609,6.58357,-11.2247,10.3541,21.3169,-0.169966,-1.27421,-0.349539,1.64951,0.124423,3.16996,3.03434,0.0878636,-0.0169753,0.064673
4341691,1,-1.51284,-0.48976,0.0688372,-2.06447,1.60498,1.69435,0.782504,-1.50915,-0.488621,0.074849,-2.06096,1.60621,1.69861,0.782118,0.774168,0.476011,1.12721,0.46573,0.531905,1.79813,-0.0408099,0.769013,0.479361,1.15122,0.470433,0.51329,1.79551,-0.0486209,6.53199,-11.427,10.2271,21.2693,-0.299971,-1.59006,-0.349539,1.59739,0.126926,3.0899,3.02969,0.0829065,-0.00698025,0.0618592
4341692,1,-1.51207,-0.489296,0.069963,-2.064,1.60549,1.69611,0.782473,-1.50838,-0.48814,0.076006,-2.06049,1.60673,1.70041,0.782069,0.768142,0.47094,1.13797,0.465703,0.520046,1.78116,-0.0387922,0.769856,0.480741,1.15704,0.472103,0.515153,1.80201,-0.0489808,6.60737,-11.5024,10.1993,21.3446,-0.266096,-1.24857,-0.387991,1.56338,0.131182,3.03847,3.01819,0.0767817,-0.00110103,0.0581027
4341693,1,-1.51133,-0.488822,0.0710869,-2.06354,1.606,1.6979,0.782425,-1.50761,-0.487658,0.0771689,-2.06002,1.60724,1.70222,0.782019,0.763777,0.468818,1.12424,0.463949,0.520939,1.76392,-0.0432836,0.770699,0.482121,1.16286,0.473772,0.517017,1.80851,-0.0493408,6.88508,-11.554,10.481,21.416,-0.114119,-0.965673,-0.26531,1.54943,0.146856,3.01853,2.99957,0.0692281,0.000228612,0.0534746
4341694,1,-1.51061,-0.488345,0.0722239,-2.06305,1.60649,1.69967,0.782385,-1.50684,-0.487174,0.0783376,-2.05954,1.60776,1.70404,0.78197,0.749385,0.470079,1.13122,0.467415,0.509799,1.77324,-0.0388782,0.771542,0.483501,1.16868,0.475442,0.51888,1.81501,-0.0497008,7.66664,-11.6809,10.5802,21.3684,0.118425,-0.862218,-0.213125,1.56331,0.175124,3.04117,2.97526,0.0600515,-0.00384527,0.0481065
4341695,1,-1.50986,-0.487861,0.0733876,-2.06257,1.60702,1.7015,0.782335,-1.50607,-0.48669,0.0795103,-2.05907,1.60828,1.70586,0.78192,0.747911,0.471574,1.14798,0.469936,0.510878,1.78124,-0.0426075,0.771879,0.484308,1.1727,0.476498,0.519859,1.81943,-0.0500472,8.0951,-11.8317,10.4532,21.3684,0.095537,-1.02976,-0.0968531,1.60317,0.210237,3.10104,2.94777,0.0498634,-0.0126208,0.0422395
4341696,1,-1.50909,-0.487361,0.0745212,-2.06209,1.60755,1.7033,0.782301,-1.50529,-0.486205,0.080687,-2.05859,1.6088,1.70768,0.781869,0.759322,0.477342,1.14259,0.469489,0.518962,1.79261,-0.0395651,0.772216,0.485115,1.17671,0.477555,0.520837,1.82386,-0.0503936,7.89674,-12.0578,10.8341,21.3169,0.0103929,-1.10026,-0.128897,1.65598,0.243142,3.17687,2.92115,0.0397486,-0.0237941,0.0361856
4341697,1,-1.50832,-0.486863,0.0756678,-2.06161,1.60808,1.70511,0.782256,-1.50452,-0.485719,0.0818677,-2.05811,1.60933,1.70951,0.781819,0.760611,0.485671,1.15105,0.470004,0.522843,1.7873,-0.0411566,0.772553,0.485922,1.18073,0.478611,0.521815,1.82828,-0.05074,7.74202,-12.3117,10.9373,21.4438,-0.15898,-1.05539,-0.0648096,1.7137,0.258066,3.25724,2.9031,0.0303044,-0.0359498,0.0302154
4341698,1,-1.50759,-0.486362,0.076853,-2.06115,1.60861,1.70695,0.782222,-1.50375,-0.485232,0.0830525,-2.05763,1.60985,1.71134,0.781767,0.760298,0.485764,1.15336,0.466086,0.529243,1.79887,-0.0362525,0.772889,0.486728,1.18474,0.479667,0.522793,1.8327,-0.0510864,8.0475,-12.4903,10.5802,21.6898,-0.198347,-1.01053,-0.161856,1.77343,0.244223,3.33819,2.89963,0.0216584,-0.0485513,0.024522
4341699,1,-1.50685,-0.485873,0.078017,-2.06067,1.60912,1.70877,0.782189,-1.50297,-0.484745,0.0842412,-2.05715,1.61037,1.71318,0.781716,0.749527,0.495769,1.16003,0.465983,0.524814,1.8079,-0.0342427,0.773226,0.487535,1.18876,0.480723,0.523772,1.83712,-0.0514328,8.0713,-12.641,10.2509,21.8405,-0.0857374,-1.01694,-0.225942,1.83762,0.198328,3.42222,2.91366,0.01363,-0.0619326,0.0191949
4341700,1,-1.50607,-0.485377,0.0791869,-2.0602,1.60964,1.71062,0.782142,-1.5022,-0.484257,0.085434,-2.05667,1.6109,1.71502,0.781664,0.75276,0.496393,1.16509,0.463124,0.527747,1.81259,-0.0367772,0.773563,0.488342,1.19277,0.481779,0.52475,1.84155,-0.0517792,7.59126,-12.768,9.89783,22.1143,-0.00608656,-0.952855,-0.18749,1.90942,0.118542,3.51229,2.94673,0.00606061,-0.0765047,0.01419
4341701,1,-1.50528,-0.484871,0.080391,-2.05973,1.61019,1.71242,0.782094,-1.50143,-0.483767,0.0866308,-2.05618,1.61142,1.71687,0.781612,0.75931,0.500501,1.17776,0.467206,0.530315,1.80361,-0.0386623,0.7739,0.489149,1.19679,0.482836,0.525728,1.84597,-0.0521256,6.91285,-12.9187,9.29084,22.2611,-0.181868,-0.688268,-0.141714,1.98097,0.0138166,3.59711,2.99446,-0.000899407,-0.0908724,0.00941993
4341702,1,-1.50448,-0.484384,0.081577,-2.05925,1.61072,1.71426,0.782044,-1.50065,-0.483277,0.0878316,-2.0557,1.61195,1.71872,0.78156,0.769757,0.495615,1.16859,0.466659,0.528351,1.80288,-0.0395029,0.774237,0.489955,1.20081,0.483892,0.526707,1.85039,-0.052472,6.1551,-12.9941,8.80683,22.4872,-0.277998,-0.463048,-0.10967,2.04234,-0.0964524,3.66528,3.04679,-0.00726677,-0.103212,0.00487747
4341703,1,-1.50368,-0.483888,0.082772,-2.05878,1.61125,1.71612,0.781986,-1.49988,-0.482787,0.0890364,-2.05522,1.61248,1.72057,0.781507,0.789104,0.495586,1.17437,0.470787,0.524599,1.80409,-0.0471433,0.774574,0.490762,1.20482,0.484948,0.527685,1.85481,-0.0528184,5.49653,-12.9941,8.45374,22.4634,-0.215742,-0.411779,-0.0126246,2.08883,-0.192329,3.71468,3.09353,-0.0134283,-0.112493,0.000630935
4341704,1,-1.50293,-0.48339,0.0839957,-2.05829,1.61177,1.71795,0.781931,-1.4991,-0.482295,0.0902453,-2.05473,1.61301,1.72243,0.781454,0.77819,0.502508,1.19281,0.472291,0.522354,1.81122,-0.0492488,0.774911,0.491569,1.20884,0.486004,0.528663,1.85924,-0.0531648,5.44893,-12.9703,7.89832,22.3603,-0.130598,-0.366002,-0.00621587,2.11426,-0.269244,3.73813,3.13198,-0.019435,-0.117671,-0.00319909
