shamilmamedov/beam_handling/log/param_estimation_ICRA/ocp_Xdown_25cm_0.44s_3.csv
duration, success rate, q[0], q[1], q[2], q[3], q[4], q[5], q[6],q_d[0], q_d[1], q_d[2], q_d[3], q_d[4], q_d[5], q_d[6],dq[0], dq[1], dq[2], dq[3], dq[4], dq[5], dq[6],dq_d[0], dq_d[1], dq_d[2], dq_d[3], dq_d[4], dq_d[5], dq_d[6],tau_J[0], tau_J[1], tau_J[2], tau_J[3], tau_J[4], tau_J[5], tau_J[6],tau_ext_hat_filtered[0], tau_ext_hat_filtered[1], tau_ext_hat_filtered[2], tau_ext_hat_filtered[3], tau_ext_hat_filtered[4], tau_ext_hat_filtered[5], tau_ext_hat_filtered[6]
2623001,0,-1.57087,-0.522827,-0.000484596,-2.09654,-1.57071,1.57143,0.785484,-1.5708,-0.523599,-3.02234e-07,-2.0944,-1.5708,1.5708,0.785398,-0.000186941,-0.00162706,0.000308196,-0.00017607,0.000652708,-0.000107816,0.000253632,0,0,0,0,0,0,0,0.0256461,-10.1377,0.757205,21.6144,-0.814497,-0.488683,-0.122488,0.0100645,-1.07542,0.602872,3.06863,-0.238996,-0.494101,-0.150896
2623002,1,-1.57087,-0.522821,-0.000484578,-2.09654,-1.57071,1.57143,0.785479,-1.5708,-0.523599,-3.02234e-07,-2.0944,-1.5708,1.5708,0.785398,0.000524987,0.000678528,0.000205464,-0.00132385,0.000231688,0.000165481,-0.00149242,0,0,0,0,0,0,0,-0.00212494,-10.213,0.757205,21.666,-0.809004,-0.495092,-0.077627,0.0107479,-1.07196,0.603633,3.06729,-0.238816,-0.493865,-0.150912
2623003,1,-1.57087,-0.522825,-0.000486243,-2.09654,-1.57071,1.57143,0.785482,-1.5708,-0.523599,-3.02234e-07,-2.0944,-1.5708,1.5708,0.785398,0.000349991,-0.000661272,-0.000419836,-0.000325782,-4.89919e-05,0.000110321,-4.55138e-05,0,0,0,0,0,0,0,-0.00212494,-10.1654,0.781009,21.6422,-0.803511,-0.495092,-0.103262,0.0106653,-1.07045,0.603376,3.06723,-0.238718,-0.493765,-0.15097
2623004,1,-1.57087,-0.522823,-0.00048457,-2.09654,-1.57071,1.57143,0.785484,-1.5708,-0.523599,-3.02234e-07,-2.0944,-1.5708,1.5708,0.785398,-0.000416287,0.000115964,0.000276921,0.000432404,-3.26613e-05,-0.000163812,0.000681734,0,0,0,0,0,0,0,0.0256461,-10.1892,0.757205,21.6144,-0.803511,-0.488683,-0.122488,0.0104402,-1.06985,0.602974,3.06754,-0.238653,-0.493704,-0.151034
2623005,1,-1.57087,-0.522819,-0.00048624,-2.09654,-1.57071,1.57143,0.785482,-1.5708,-0.523599,-3.02234e-07,-2.0944,-1.5708,1.5708,0.785398,0.00037209,0.00128374,-0.000372198,0.000288252,-0.000225225,0.000128151,-0.000257587,0,0,0,0,0,0,0,-0.00212494,-10.2408,0.781009,21.6144,-0.798018,-0.495092,-0.103262,0.0103197,-1.07002,0.602723,3.06772,-0.238594,-0.493649,-0.151093
2623006,1,-1.57087,-0.522821,-0.000484569,-2.09654,-1.57071,1.57143,0.78548,-1.5708,-0.523599,-3.02234e-07,-2.0944,-1.5708,1.5708,0.785398,-0.000958366,0.00020621,0.00030868,0.000748967,0.000256751,8.54341e-05,-0.000646443,0,0,0,0,0,0,0,0.0494498,-10.213,0.757205,21.5906,-0.809004,-0.495092,-0.0904444,0.0103312,-1.0718,0.60266,3.0682,-0.238548,-0.493605,-0.151156
2623007,1,-1.57087,-0.522823,-0.000484569,-2.09654,-1.57071,1.57143,0.785482,-1.5708,-0.523599,-3.02234e-07,-2.0944,-1.5708,1.5708,0.785398,0.000567515,-0.000419339,0.000205787,-0.00126394,0.000171167,-0.000417762,4.3756e-05,0,0,0,0,0,0,0,-0.00212494,-10.1892,0.757205,21.666,-0.809004,-0.482274,-0.103262,0.0103605,-1.07357,0.602527,3.06872,-0.238516,-0.493563,-0.151219
2623008,1,-1.57087,-0.522823,-0.000488189,-2.09654,-1.57071,1.57143,0.785482,-1.5708,-0.523599,-3.02234e-07,-2.0944,-1.5708,1.5708,0.785398,0.000378343,-0.000279559,-0.00106923,-0.000285819,0.000554921,0.00019621,2.91707e-05,0,0,0,0,0,0,0,-0.00212494,-10.1892,0.80878,21.6422,-0.820906,-0.495092,-0.103262,0.0103256,-1.07441,0.6023,3.06942,-0.238513,-0.493512,-0.151265
2623009,1,-1.57087,-0.522819,-0.000484569,-2.09654,-1.57071,1.57143,0.785484,-1.5708,-0.523599,-3.02234e-07,-2.0944,-1.5708,1.5708,0.785398,0.000252229,0.00102005,0.000493603,0.00101587,0.000369947,-0.000106552,0.000968883,0,0,0,0,0,0,0,-0.00212494,-10.2408,0.757205,21.5906,-0.820906,-0.488683,-0.128897,0.0103028,-1.07501,0.602215,3.07014,-0.238535,-0.493449,-0.151293
2623010,1,-1.57087,-0.522823,-0.000482899,-2.09654,-1.57071,1.57143,0.785481,-1.5708,-0.523599,-3.02234e-07,-2.0944,-1.5708,1.5708,0.785398,-0.00103827,-0.000526391,0.00088588,-0.00108599,-0.000397628,0.000403682,-0.000540873,0,0,0,0,0,0,0,0.0494498,-10.1892,0.733401,21.666,-0.803511,-0.5015,-0.0968531,0.010013,-1.07582,0.601677,3.07073,-0.238596,-0.493433,-0.151317
2623011,1,-1.57087,-0.522821,-0.000488189,-2.09654,-1.57071,1.57143,0.785482,-1.5708,-0.523599,-3.02234e-07,-2.0944,-1.5708,1.5708,0.785398,0.000514244,0.000205885,-0.00117265,0.000482428,0.00877782,3.17635e-05,0.000114136,0,0,0,0,0,0,0,-0.00212494,-10.213,0.80878,21.6144,-0.792525,-0.495092,-0.10967,0.00974103,-1.07639,0.601028,3.07143,-0.238727,-0.493405,-0.151358
2623012,1,-1.57087,-0.522821,-0.00048624,-2.09654,-1.57071,1.57143,0.785479,-1.5708,-0.523599,-3.02234e-07,-2.0944,-1.5708,1.5708,0.785398,0.000342829,0.000137257,-0.000132153,-0.000327997,0.00745316,0.000495892,-0.000873345,0,0,0,0,0,0,0,-0.00212494,-10.213,0.781009,21.6422,-0.814497,-0.507909,-0.0840357,0.00980146,-1.07682,0.60094,3.07232,-0.238936,-0.493307,-0.151423
2623013,1,-1.57087,-0.522821,-0.000488189,-2.09654,-1.57071,1.57143,0.785479,-1.5708,-0.523599,-3.02234e-07,-2.0944,-1.5708,1.5708,0.785398,0.000228553,9.15044e-05,-0.000737716,-0.000218667,0.00494904,-0.000144122,-0.00058223,0,0,0,0,0,0,0,-0.00212494,-10.213,0.80878,21.6422,-0.798018,-0.495092,-0.0840357,0.00992832,-1.07761,0.601112,3.07351,-0.239189,-0.493199,-0.15149
2623014,1,-1.57087,-0.522819,-0.000484569,-2.09654,-1.57071,1.57143,0.785479,-1.5708,-0.523599,-3.02234e-07,-2.0944,-1.5708,1.5708,0.785398,0.00126599,0.000710617,0.000714615,-0.000145779,0.00435267,-0.00033344,-0.000625512,0,0,0,0,0,0,0,-0.0497324,-10.2408,0.757205,21.6422,-0.814497,-0.488683,-0.077627,0.00962345,-1.07896,0.600804,3.07504,-0.23945,-0.49318,-0.151522
2623015,1,-1.57087,-0.522825,-0.00048624,-2.09654,-1.57071,1.57143,0.785477,-1.5708,-0.523599,-3.02234e-07,-2.0944,-1.5708,1.5708,0.785398,0.000287183,-0.00128949,-8.04019e-05,0.000552427,0.00262365,0.000252423,-0.000891726,0,0,0,0,0,0,0,-0.0259286,-10.1654,0.781009,21.6144,-0.798018,-0.5015,-0.0648096,0.00847764,-1.07956,0.599389,3.07604,-0.239675,-0.493298,-0.151494
2623016,1,-1.57087,-0.522821,-0.000484569,-2.09654,-1.57071,1.57143,0.785481,-1.5708,-0.523599,-3.02234e-07,-2.0944,-1.5708,1.5708,0.785398,-0.000365357,0.000253962,0.000503211,-0.000838142,0.00284597,0.000405641,0.000592311,0,0,0,0,0,0,0,-0.00212494,-10.213,0.757205,21.666,-0.820906,-0.507909,-0.0968531,0.00712621,-1.07826,0.597693,3.07605,-0.239826,-0.493443,-0.151387
2623019,0.97,-1.57087,-0.522821,-0.000484569,-2.09654,-1.57071,1.57143,0.785484,-1.5708,-0.523599,-3.02234e-07,-2.0944,-1.5708,1.5708,0.785398,0.000448558,7.52479e-05,0.000272835,0.000246605,0.000906339,-9.07953e-05,0.000782083,0,0,0,0,0,0,0,-0.0259286,-10.213,0.757205,21.6144,-0.803511,-0.495092,-0.122488,0.00557635,-1.0753,0.596366,3.07586,-0.240019,-0.493652,-0.150679
2623020,0.96,-1.57087,-0.522825,-0.000484569,-2.09654,-1.57071,1.57143,0.785484,-1.5708,-0.523599,-3.02234e-07,-2.0944,-1.5708,1.5708,0.785398,-0.000257773,-0.00106346,0.00018189,0.000164403,0.000886514,-6.05302e-05,0.000521389,0,0,0,0,0,0,0,-0.00212494,-10.1654,0.757205,21.6144,-0.809004,-0.495092,-0.122488,0.00502852,-1.07322,0.595914,3.07468,-0.239991,-0.493743,-0.150459
2623021,0.96,-1.57087,-0.522821,-0.000484569,-2.09654,-1.57071,1.57143,0.785479,-1.5708,-0.523599,-3.02234e-07,-2.0944,-1.5708,1.5708,0.785398,-0.000821463,0.000404651,0.00012126,0.000109602,0.000650137,-0.000515071,-0.00107656,0,0,0,0,0,0,0,0.0256461,-10.213,0.757205,21.6144,-0.809004,-0.482274,-0.0840357,0.00481877,-1.0705,0.5959,3.07338,-0.239935,-0.493767,-0.150301
2623022,0.96,-1.57087,-0.522821,-0.00048624,-2.09654,-1.57071,1.57143,0.785479,-1.5708,-0.523599,-3.02234e-07,-2.0944,-1.5708,1.5708,0.785398,0.000101972,0.000269768,-0.000475972,0.00062988,0.00091858,0.000131337,-0.000955066,0,0,0,0,0,0,0,-0.00212494,-10.213,0.781009,21.5906,-0.820906,-0.495092,-0.077627,0.00522133,-1.06874,0.596743,3.07256,-0.239872,-0.493699,-0.150201
2623023,0.96,-1.57087,-0.522821,-0.00048624,-2.09654,-1.57071,1.57143,0.785478,-1.5708,-0.523599,-3.02234e-07,-2.0944,-1.5708,1.5708,0.785398,-0.000581633,0.000179845,-0.000317315,-0.000136892,1.38626e-06,0.000324916,-0.00087407,0,0,0,0,0,0,0,0.0256461,-10.213,0.781009,21.6144,-0.803511,-0.5015,-0.0712183,0.00606645,-1.06841,0.598278,3.07234,-0.239823,-0.493569,-0.150117
2623024,0.96,-1.57087,-0.522821,-0.000484569,-2.09654,-1.57071,1.57143,0.785481,-1.5708,-0.523599,-3.02234e-07,-2.0944,-1.5708,1.5708,0.785398,0.000818671,0.000119897,0.000345269,0.00046555,2.58688e-05,-0.000258106,0.000366723,0,0,0,0,0,0,0,-0.0259286,-10.213,0.757205,21.5906,-0.803511,-0.488683,-0.0968531,0.00677566,-1.06876,0.599648,3.07246,-0.239804,-0.493464,-0.150005
2623025,0.96,-1.57087,-0.522818,-0.00048624,-2.09654,-1.57071,1.57143,0.785484,-1.5708,-0.523599,-3.02234e-07,-2.0944,-1.5708,1.5708,0.785398,-0.000660645,0.00128636,-0.000326633,0.000310367,3.59543e-05,6.52881e-05,0.00143128,0,0,0,0,0,0,0,0.0256461,-10.2646,0.781009,21.5906,-0.803511,-0.495092,-0.128897,0.00699915,-1.07007,0.600327,3.07294,-0.239827,-0.493443,-0.149843
2623026,0.96,-1.57087,-0.522818,-0.000484569,-2.09654,-1.57071,1.57143,0.785484,-1.5708,-0.523599,-3.02234e-07,-2.0944,-1.5708,1.5708,0.785398,0.000765996,0.000857571,-0.00581145,-0.000999515,0.000444902,4.35254e-05,0.000954184,0,0,0,0,0,0,0,-0.0259286,-10.2646,0.757205,21.6422,-0.814497,-0.495092,-0.128897,0.00864198,-1.0736,0.6034,3.07453,-0.239853,-0.493223,-0.149656
2623027,0.96,-1.57087,-0.522823,-0.000484569,-2.09653,-1.57071,1.57143,0.785485,-1.5708,-0.523599,-3.02234e-07,-2.0944,-1.5708,1.5708,0.785398,-0.000695762,-0.00119152,-0.00438684,0.00165371,-0.000303227,2.90169e-05,0.000873482,0,0,0,0,0,0,0,0.0256461,-10.1892,0.757205,21.543,-0.798018,-0.495092,-0.135305,0.0138062,-1.07692,0.612179,3.07614,-0.239774,-0.492449,-0.149502
2623028,0.96,-1.57087,-0.522821,-0.000484569,-2.09653,-1.57071,1.57143,0.785484,-1.5708,-0.523599,-3.02234e-07,-2.0944,-1.5708,1.5708,0.785398,0.000185773,-0.000237537,-0.00330897,0.00110247,0.000212642,0.000256702,0.000107603,0,0,0,0,0,0,0,-0.00212494,-10.213,0.757205,21.543,-0.809004,-0.5015,-0.122488,0.0211338,-1.07615,0.624266,3.07533,-0.23954,-0.491296,-0.149436
2623029,0.96,-1.57087,-0.522819,-0.000482899,-2.09654,-1.57071,1.57143,0.78548,-1.5708,-0.523599,-3.02234e-07,-2.0944,-1.5708,1.5708,0.785398,0.00068066,0.000491256,-0.00193747,-0.000378643,-5.57694e-05,-6.62229e-05,-0.00111506,0,0,0,0,0,0,0,-0.0259286,-10.2408,0.733401,21.5906,-0.803511,-0.495092,-0.0904444,0.0275248,-1.07362,0.63477,3.07332,-0.239291,-0.490269,-0.149467
2623030,0.96,-1.57087,-0.522823,-0.00048624,-2.09654,-1.57071,1.57143,0.785479,-1.5708,-0.523599,-3.02234e-07,-2.0944,-1.5708,1.5708,0.785398,-0.000752652,-0.000878922,-0.0026215,-0.000809241,-0.000236191,-4.41486e-05,-3.1296e-05,0,0,0,0,0,0,0,0.0256461,-10.1892,0.781009,21.6144,-0.798018,-0.495092,-0.10967,0.0319118,-1.07237,0.642058,3.07235,-0.239148,-0.489562,-0.149566
2623031,0.96,-1.57087,-0.522825,-0.000484569,-2.09653,-1.57071,1.57143,0.785476,-1.5708,-0.523599,-3.02234e-07,-2.0944,-1.5708,1.5708,0.785398,-0.000501768,-0.00114276,-0.00135303,0.00113094,4.93199e-05,-0.000266791,-0.00168238,0,0,0,0,0,0,0,0.0256461,-10.1654,0.757205,21.543,-0.803511,-0.488683,-0.0648096,0.0349937,-1.07032,0.646985,3.07138,-0.23905,-0.489047,-0.149697
2623032,0.96,-1.57087,-0.522819,-0.00048624,-2.09654,-1.57071,1.57143,0.78548,-1.5708,-0.523599,-3.02234e-07,-2.0944,-1.5708,1.5708,0.785398,0.000315102,0.0010014,-0.00158046,-0.000359663,0.000442278,0.000296856,-0.000172149,0,0,0,0,0,0,0,-0.00212494,-10.2408,0.781009,21.5906,-0.814497,-0.5015,-0.0904444,0.0366666,-1.06753,0.649444,3.06986,-0.238971,-0.488743,-0.149823
2623033,0.96,-1.57087,-0.522819,-0.000484569,-2.09654,-1.57071,1.57143,0.785483,-1.5708,-0.523599,-3.02234e-07,-2.0944,-1.5708,1.5708,0.785398,0.00076688,0.000667599,-0.000588049,-0.000796587,-0.000110176,-0.000276813,0.00083467,0,0,0,0,0,0,0,-0.0259286,-10.2408,0.757205,21.6144,-0.803511,-0.488683,-0.116079,0.0363138,-1.06778,0.648815,3.06979,-0.239006,-0.488788,-0.149894
2623034,0.96,-1.57087,-0.522821,-0.00048624,-2.09653,-1.57071,1.57143,0.785484,-1.5708,-0.523599,-3.02234e-07,-2.0944,-1.5708,1.5708,0.785398,-4.55587e-05,-0.000204548,-0.00101726,0.00113938,0.000131405,5.2817e-05,0.00103116,0,0,0,0,0,0,0,-0.00212494,-10.213,0.781009,21.543,-0.809004,-0.495092,-0.128897,0.0342353,-1.07032,0.645617,3.0708,-0.239141,-0.489122,-0.149909
2623035,0.96,-1.57087,-0.522819,-0.00048624,-2.09654,-1.57071,1.57143,0.785485,-1.5708,-0.523599,-3.02234e-07,-2.0944,-1.5708,1.5708,0.785398,-3.03725e-05,0.000513248,-0.000729486,-0.000910851,8.86566e-05,0.000272569,0.000924802,0,0,0,0,0,0,0,-0.00212494,-10.2408,0.781009,21.6144,-0.809004,-0.5015,-0.135305,0.0314354,-1.07249,0.641265,3.0714,-0.23929,-0.489561,-0.149914
2623036,0.96,-1.57087,-0.522823,-0.00048624,-2.09654,-1.57071,1.57143,0.785484,-1.5708,-0.523599,-3.02234e-07,-2.0944,-1.5708,1.5708,0.785398,-2.02483e-05,-0.00086426,-0.000524808,-0.000607234,5.98946e-05,-5.5645e-05,0.000379176,0,0,0,0,0,0,0,-0.00212494,-10.1892,0.781009,21.6144,-0.809004,-0.495092,-0.128897,0.0284436,-1.07432,0.636574,3.07204,-0.239458,-0.490023,-0.149951
2623037,0.96,-1.57087,-0.522818,-0.00048624,-2.09654,-1.57071,1.57143,0.785483,-1.5708,-0.523599,-3.02234e-07,-2.0944,-1.5708,1.5708,0.785398,-1.34989e-05,0.00118706,-0.000378735,0.000151989,-0.000162928,-0.000274456,-0.000221934,0,0,0,0,0,0,0,-0.00212494,-10.2646,0.781009,21.5906,-0.803511,-0.488683,-0.116079,0.0252876,-1.07609,0.631629,3.07286,-0.239648,-0.490508,-0.15005
2623038,0.96,-1.57087,-0.522821,-0.000488189,-2.09654,-1.57071,1.57143,0.785484,-1.5708,-0.523599,-3.02234e-07,-2.0944,-1.5708,1.5708,0.785398,-0.000658613,-0.00041505,-0.000923751,-0.000455486,9.52762e-05,-0.00018297,0.000326762,0,0,0,0,0,0,0,0.0256461,-10.213,0.80878,21.6144,-0.809004,-0.488683,-0.128897,0.0223893,-1.07814,0.627086,3.07369,-0.239834,-0.490955,-0.150216
2623039,0.96,-1.57087,-0.522821,-0.000488189,-2.09654,-1.57071,1.57143,0.785478,-1.5708,-0.523599,-3.02234e-07,-2.0944,-1.5708,1.5708,0.785398,-0.000439075,-0.0002767,-0.00063207,0.000253155,6.38508e-05,0.000115379,-0.000731595,0,0,0,0,0,0,0,0.0256461,-10.213,0.80878,21.5906,-0.809004,-0.495092,-0.103262,0.0202394,-1.07939,0.623645,3.07403,-0.23998,-0.491274,-0.15044
2623040,0.96,-1.57087,-0.522818,-0.000488189,-2.09654,-1.57071,1.57143,0.785481,-1.5708,-0.523599,-3.02234e-07,-2.0944,-1.5708,1.5708,0.785398,0.000913709,0.00102196,-0.000433556,0.00016877,0.000246268,0.000314277,-0.000250371,0,0,0,0,0,0,0,-0.0259286,-10.2646,0.80878,21.5906,-0.814497,-0.5015,-0.10967,0.0182964,-1.07991,0.620597,3.07383,-0.240099,-0.49155,-0.150707
2623041,0.96,-1.57088,-0.522819,-0.000484569,-2.09654,-1.57071,1.57143,0.785476,-1.5708,-0.523599,-3.02234e-07,-2.0944,-1.5708,1.5708,0.785398,-0.00171091,0.000124494,0.000908256,-0.000444299,-0.000242535,-0.000265199,-0.00206579,0,0,0,0,0,0,0,0.0732535,-10.2408,0.757205,21.6144,-0.803511,-0.488683,-0.0584009,0.0159376,-1.08143,0.617012,3.07394,-0.240243,-0.491905,-0.150988
2623042,0.96,-1.57087,-0.522823,-0.00048624,-2.09654,-1.57071,1.57143,0.785484,-1.5708,-0.523599,-3.02234e-07,-2.0944,-1.5708,1.5708,0.785398,-2.69831e-05,-0.00112343,4.18426e-05,-0.000296199,-0.000365,6.05597e-05,0.000996399,0,0,0,0,0,0,0,0.0256461,-10.1892,0.781009,21.6144,-0.798018,-0.495092,-0.122488,0.0135027,-1.08244,0.613144,3.07398,-0.240399,-0.492275,-0.151239
2623043,0.96,-1.57087,-0.522823,-0.000484569,-2.09654,-1.57071,1.57143,0.785477,-1.5708,-0.523599,-3.02234e-07,-2.0944,-1.5708,1.5708,0.785398,-1.79887e-05,-0.000748953,0.00057957,-0.00084708,-3.97773e-05,-0.000434345,-0.00170932,0,0,0,0,0,0,0,0.0256461,-10.1892,0.757205,21.6422,-0.803511,-0.482274,-0.0584009,0.011081,-1.08114,0.609129,3.0733,-0.240532,-0.492619,-0.151431
2623044,0.96,-1.57087,-0.522823,-0.00048624,-2.09654,-1.57071,1.57143,0.785481,-1.5708,-0.523599,-3.02234e-07,-2.0944,-1.5708,1.5708,0.785398,0.00119443,-0.000499302,-0.000174285,8.48939e-05,-0.00022989,0.000185155,0.000284605,0,0,0,0,0,0,0,-0.0259286,-10.1892,0.781009,21.6144,-0.798018,-0.495092,-0.0968531,0.00837608,-1.07852,0.604735,3.07223,-0.240645,-0.492988,-0.151556
2623045,0.96,-1.57087,-0.522823,-0.000482899,-2.09654,-1.57071,1.57143,0.785482,-1.5708,-0.523599,-3.02234e-07,-2.0944,-1.5708,1.5708,0.785398,0.000796289,-0.000332868,-0.0052742,5.65959e-05,0.000253701,0.000123436,0.000664454,0,0,0,0,0,0,0,-0.0259286,-10.1892,0.733401,21.6144,-0.809004,-0.495092,-0.10967,0.0069071,-1.07574,0.602576,3.07101,-0.240686,-0.493156,-0.1516
2623046,0.96,-1.57087,-0.522823,-0.000484569,-2.09654,-1.57071,1.57143,0.785482,-1.5708,-0.523599,-3.02234e-07,-2.0944,-1.5708,1.5708,0.785398,-2.59527e-05,-0.000221912,-0.00459751,-0.0011687,0.000372629,0.000319649,0.000205611,0,0,0,0,0,0,0,-0.00212494,-10.1892,0.757205,21.666,-0.814497,-0.5015,-0.103262,0.00910177,-1.0737,0.606502,3.07022,-0.240604,-0.49276,-0.151574
2623047,0.96,-1.57087,-0.522819,-0.000484569,-2.09654,-1.57071,1.57143,0.785482,-1.5708,-0.523599,-3.02234e-07,-2.0944,-1.5708,1.5708,0.785398,-0.000666916,0.00105848,-0.00345843,0.000427296,-0.000158448,-0.000261618,0.000374433,0,0,0,0,0,0,0,0.0256461,-10.2408,0.757205,21.6144,-0.803511,-0.488683,-0.10967,0.0144198,-1.07371,0.615382,3.0706,-0.240459,-0.491905,-0.151505
2623048,0.96,-1.57087,-0.522821,-0.000482899,-2.09654,-1.57071,1.57143,0.785485,-1.5708,-0.523599,-3.02234e-07,-2.0944,-1.5708,1.5708,0.785398,0.000205003,5.60424e-05,-0.00204387,-0.00036475,-0.000105607,6.29472e-05,0.00119906,0,0,0,0,0,0,0,-0.00212494,-10.213,0.733401,21.6422,-0.803511,-0.495092,-0.135305,0.0201142,-1.07565,0.624682,3.07177,-0.240332,-0.491022,-0.151417
2623049,0.96,-1.57087,-0.522823,-0.00048624,-2.09654,-1.57071,1.57143,0.78548,-1.5708,-0.523599,-3.02234e-07,-2.0944,-1.5708,1.5708,0.785398,-0.000512945,-0.00051945,-0.0026975,-0.000243167,-0.000273837,-0.000195394,-0.000862141,0,0,0,0,0,0,0,0.0256461,-10.1892,0.781009,21.6422,-0.798018,-0.488683,-0.0904444,0.0246078,-1.0775,0.63187,3.07283,-0.240237,-0.490329,-0.151344
2623050,0.95,-1.57087,-0.522821,-0.00048624,-2.09654,-1.57071,1.57143,0.785483,-1.5708,-0.523599,-3.02234e-07,-2.0944,-1.5708,1.5708,0.785398,0.000864463,0.000210512,-0.00196431,0.00104431,2.09069e-05,0.000107096,0.000374675,0,0,0,0,0,0,0,-0.0259286,-10.213,0.781009,21.5906,-0.803511,-0.495092,-0.116079,0.027695,-1.07789,0.636675,3.07311,-0.240148,-0.489834,-0.151311
2623051,0.94,-1.57087,-0.522823,-0.000489859,-2.09654,-1.57071,1.57143,0.785477,-1.5708,-0.523599,-3.02234e-07,-2.0944,-1.5708,1.5708,0.785398,-0.000630118,-0.000416471,-0.00264045,-0.00162384,1.39485e-05,7.13975e-05,-0.00164909,0,0,0,0,0,0,0,0.0256461,-10.1892,0.832583,21.6898,-0.803511,-0.495092,-0.0648096,0.0295742,-1.07763,0.63953,3.07305,-0.240067,-0.489514,-0.151306
2623052,0.94,-1.57087,-0.522818,-0.000482899,-2.09654,-1.57071,1.57143,0.785478,-1.5708,-0.523599,-3.02234e-07,-2.0944,-1.5708,1.5708,0.785398,0.00134316,0.00148559,0.00046639,0.000680678,9.3069e-06,4.75983e-05,-0.000862033,0,0,0,0,0,0,0,-0.0497324,-10.2646,0.733401,21.6144,-0.803511,-0.495092,-0.0712183,0.0298001,-1.07861,0.639857,3.07387,-0.240057,-0.489458,-0.151297
2623053,0.94,-1.57087,-0.522823,-0.000484569,-2.09654,-1.57071,1.57143,0.785479,-1.5708,-0.523599,-3.02234e-07,-2.0944,-1.5708,1.5708,0.785398,0.000338628,-0.000772844,-0.000315906,0.0010106,0.000209661,3.17322e-05,-9.99709e-05,0,0,0,0,0,0,0,-0.0259286,-10.1892,0.757205,21.5906,-0.809004,-0.495092,-0.0840357,0.0273843,-1.08019,0.636187,3.07469,-0.240115,-0.489813,-0.151246
2623054,0.94,-1.57087,-0.522821,-0.00048624,-2.09654,-1.57071,1.57143,0.785479,-1.5708,-0.523599,-3.02234e-07,-2.0944,-1.5708,1.5708,0.785398,0.000782564,4.15826e-05,-0.000819931,0.00011692,-6.3672e-05,-0.000216204,-0.000304006,0,0,0,0,0,0,0,-0.0497324,-10.213,0.781009,21.6144,-0.803511,-0.488683,-0.077627,0.0232592,-1.07997,0.629928,3.0742,-0.240171,-0.490405,-0.15113
2623055,0.94,-1.57087,-0.522819,-0.00048624,-2.09654,-1.57071,1.57143,0.785482,-1.5708,-0.523599,-3.02234e-07,-2.0944,-1.5708,1.5708,0.785398,-3.51028e-05,0.000677336,-0.000586007,7.79463e-05,-0.000245895,0.000330581,0.000746765,0,0,0,0,0,0,0,-0.0259286,-10.2408,0.781009,21.6144,-0.798018,-0.5015,-0.103262,0.0190328,-1.07926,0.623598,3.07352,-0.240225,-0.490995,-0.150942
2623056,0.94,-1.57087,-0.522819,-0.00048624,-2.09654,-1.57071,1.57143,0.785486,-1.5708,-0.523599,-3.02234e-07,-2.0944,-1.5708,1.5708,0.785398,-0.00122983,0.000451557,-0.000420212,5.19642e-05,3.95229e-05,0.000220387,0.001922,0,0,0,0,0,0,0,0.0256461,-10.2408,0.781009,21.6144,-0.803511,-0.5015,-0.141714,0.0154164,-1.08001,0.618237,3.07369,-0.240296,-0.491503,-0.15069
2623057,0.94,-1.57087,-0.522821,-0.000484569,-2.09654,-1.57071,1.57143,0.785484,-1.5708,-0.523599,-3.02234e-07,-2.0944,-1.5708,1.5708,0.785398,-0.000819885,-0.000348576,0.000254516,-0.00117178,-0.0001771,0.000146925,0.000569254,0,0,0,0,0,0,0,0.0256461,-10.213,0.757205,21.666,-0.798018,-0.5015,-0.122488,0.0126241,-1.08148,0.61399,3.07457,-0.240372,-0.4919,-0.150426
2623058,0.94,-1.57087,-0.522819,-0.000484569,-2.09654,-1.57071,1.57143,0.785485,-1.5708,-0.523599,-3.02234e-07,-2.0944,-1.5708,1.5708,0.785398,0.000659836,0.00041723,0.000153061,-0.000224377,-0.000118065,9.79498e-05,0.000854221,0,0,0,0,0,0,0,-0.0259286,-10.2408,0.757205,21.6422,-0.798018,-0.5015,-0.135305,0.00986115,-1.08296,0.609715,3.07596,-0.240465,-0.492306,-0.150213
2623059,0.94,-1.57087,-0.522823,-0.00048624,-2.09654,-1.57071,1.57143,0.785482,-1.5708,-0.523599,-3.02234e-07,-2.0944,-1.5708,1.5708,0.785398,-0.000116921,-0.000928273,-0.000467233,-0.000149585,0.000328192,6.52999e-05,-0.000617314,0,0,0,0,0,0,0,-0.00212494,-10.1892,0.781009,21.6422,-0.809004,-0.5015,-0.103262,0.00678386,-1.0837,0.605048,3.07716,-0.240547,-0.492768,-0.150092
2623060,0.94,-1.57087,-0.522818,-0.000484569,-2.09654,-1.57071,1.57143,0.78548,-1.5708,-0.523599,-3.02234e-07,-2.0944,-1.5708,1.5708,0.785398,-7.79476e-05,0.00114439,0.000235976,-9.9723e-05,0.000218795,4.35333e-05,-0.000886261,0,0,0,0,0,0,0,-0.00212494,-10.2646,0.757205,21.6422,-0.809004,-0.5015,-0.0904444,0.00391963,-1.08374,0.600769,3.07792,-0.24059,-0.493207,-0.150066
2623061,0.94,-1.57087,-0.522819,-0.000484569,-2.09654,-1.57071,1.57143,0.785479,-1.5708,-0.523599,-3.02234e-07,-2.0944,-1.5708,1.5708,0.785398,-5.19651e-05,0.000206114,0.000150308,0.000583132,-0.000261037,-0.000208336,-0.000828199,0,0,0,0,0,0,0,-0.00212494,-10.2408,0.757205,21.6144,-0.798018,-0.495092,-0.0840357,0.00130732,-1.08452,0.596894,3.07873,-0.240622,-0.493637,-0.150097
2623062,0.94,-1.57087,-0.522821,-0.000484569,-2.09654,-1.57071,1.57143,0.78548,-1.5708,-0.523599,-3.02234e-07,-2.0944,-1.5708,1.5708,0.785398,-3.46434e-05,-0.000512204,9.49476e-05,-0.000260859,-0.000174024,9.84674e-05,-0.000314774,0,0,0,0,0,0,0,-0.00212494,-10.213,0.757205,21.6422,-0.798018,-0.5015,-0.0904444,-0.0011211,-1.08509,0.593278,3.07917,-0.240635,-0.494054,-0.15014
2623063,0.94,-1.57087,-0.522823,-0.000488189,-2.09653,-1.57071,1.57143,0.785481,-1.5708,-0.523599,-3.02234e-07,-2.0944,-1.5708,1.5708,0.785398,-2.30956e-05,-0.000898282,-0.00114707,0.00214614,0.000290885,0.000303004,2.75096e-05,0,0,0,0,0,0,0,-0.00212494,-10.1892,0.80878,21.543,-0.809004,-0.507909,-0.0968531,-0.00287206,-1.08303,0.590641,3.07806,-0.240566,-0.494351,-0.150167
2623064,0.94,-1.57087,-0.522821,-0.00048624,-2.09654,-1.57071,1.57143,0.785483,-1.5708,-0.523599,-3.02234e-07,-2.0944,-1.5708,1.5708,0.785398,0.000541415,-4.20424e-05,-0.000118057,-0.000239673,-0.000212977,-3.53564e-05,0.000730417,0,0,0,0,0,0,0,-0.0259286,-10.213,0.781009,21.6144,-0.798018,-0.5015,-0.116079,-0.00384518,-1.0787,0.589228,3.07543,-0.240416,-0.494519,-0.150168
2623065,0.94,-1.57087,-0.522823,-0.000484569,-2.09653,-1.57071,1.57143,0.785484,-1.5708,-0.523599,-3.02234e-07,-2.0944,-1.5708,1.5708,0.785398,-0.000195869,-0.00058484,0.000475889,0.00151065,6.14659e-05,-0.000260929,0.000961662,0,0,0,0,0,0,0,-0.00212494,-10.1892,0.757205,21.543,-0.803511,-0.495092,-0.128897,-0.00480095,-1.0742,0.587924,3.07258,-0.240261,-0.494696,-0.150146
2623066,0.94,-1.57087,-0.522821,-0.00048624,-2.09654,-1.57071,1.57143,0.785484,-1.5708,-0.523599,-3.02234e-07,-2.0944,-1.5708,1.5708,0.785398,0.000426233,0.000166918,-0.000241216,-0.000106522,0.000244428,-0.000411311,0.000403749,0,0,0,0,0,0,0,-0.0259286,-10.213,0.781009,21.5906,-0.809004,-0.488683,-0.122488,-0.00602444,-1.07044,0.586258,3.07008,-0.240138,-0.494927,-0.15013
2623067,0.94,-1.57087,-0.522823,-0.000489859,-2.09654,-1.57071,1.57143,0.785484,-1.5708,-0.523599,-3.02234e-07,-2.0944,-1.5708,1.5708,0.785398,-0.000922271,-0.000445533,-0.00136848,0.000485798,-4.04985e-05,-3.68487e-05,0.000269166,0,0,0,0,0,0,0,0.0256461,-10.1892,0.832583,21.5668,-0.803511,-0.495092,-0.122488,-0.00658442,-1.06792,0.585664,3.06832,-0.240033,-0.495061,-0.150151
2623068,0.94,-1.57087,-0.522823,-0.000484569,-2.09654,-1.57071,1.57143,0.785484,-1.5708,-0.523599,-3.02234e-07,-2.0944,-1.5708,1.5708,0.785398,3.47668e-05,-0.000297022,0.000849979,0.000323865,-0.0004339,0.000212792,0.000179444,0,0,0,0,0,0,0,-0.00212494,-10.1892,0.757205,21.5668,-0.792525,-0.5015,-0.122488,-0.00629688,-1.06618,0.586376,3.06714,-0.239936,-0.495062,-0.150224
2623069,0.94,-1.57087,-0.522819,-0.00048624,-2.09654,-1.57071,1.57143,0.785481,-1.5708,-0.523599,-3.02234e-07,-2.0944,-1.5708,1.5708,0.785398,2.31779e-05,0.00100841,9.13916e-06,-0.000897714,-8.58161e-05,-9.54965e-05,0.000119629,0,0,0,0,0,0,0,-0.00212494,-10.2408,0.781009,21.6144,-0.798018,-0.495092,-0.122488,-0.00638732,-1.06605,0.586548,3.06693,-0.239893,-0.495132,-0.150349
2623070,0.94,-1.57087,-0.522819,-0.000484569,-2.09654,-1.57071,1.57143,0.785483,-1.5708,-0.523599,-3.02234e-07,-2.0944,-1.5708,1.5708,0.785398,0.000572264,0.000672274,0.000562378,0.000515148,0.00034969,-6.36643e-05,7.97529e-05,0,0,0,0,0,0,0,-0.0259286,-10.2408,0.757205,21.5668,-0.809004,-0.495092,-0.122488,-0.00732849,-1.06904,0.585566,3.06841,-0.239933,-0.495359,-0.150519
2623071,0.94,-1.57087,-0.522823,-0.000484569,-2.09654,-1.57071,1.57143,0.785481,-1.5708,-0.523599,-3.02234e-07,-2.0944,-1.5708,1.5708,0.785398,-0.000824917,-0.000758243,0.000374524,-0.00021338,0.000233127,-0.000279802,-0.000896267,0,0,0,0,0,0,0,0.0256461,-10.1892,0.757205,21.5906,-0.809004,-0.488683,-0.0968531,-0.0085987,-1.07269,0.584098,3.07016,-0.23999,-0.495633,-0.150737
2623072,0.94,-1.57087,-0.522823,-0.000488189,-2.09654,-1.57071,1.57143,0.785477,-1.5708,-0.523599,-3.02234e-07,-2.0944,-1.5708,1.5708,0.785398,9.96695e-05,-0.000505495,-0.000957039,-0.000142253,-4.80325e-05,5.08244e-05,-0.00178431,0,0,0,0,0,0,0,-0.00212494,-10.1892,0.80878,21.5906,-0.803511,-0.495092,-0.0648096,-0.00929103,-1.07426,0.583364,3.07094,-0.240001,-0.495777,-0.150989
2623073,0.94,-1.57087,-0.522823,-0.000484569,-2.09654,-1.57071,1.57143,0.785482,-1.5708,-0.523599,-3.02234e-07,-2.0944,-1.5708,1.5708,0.785398,6.64463e-05,-0.000336997,0.000568178,-0.000651647,0.000171429,-0.000203476,0.000471975,0,0,0,0,0,0,0,-0.00212494,-10.1892,0.757205,21.6144,-0.809004,-0.488683,-0.10967,-0.00931377,-1.07434,0.583595,3.07122,-0.239986,-0.495785,-0.151226
2623074,0.94,-1.57087,-0.522821,-0.000484569,-2.09654,-1.57071,1.57143,0.785481,-1.5708,-0.523599,-3.02234e-07,-2.0944,-1.5708,1.5708,0.785398,4.42976e-05,0.000332147,0.000378619,-0.000434432,-8.91646e-05,-0.000135651,-0.000160068,0,0,0,0,0,0,0,-0.00212494,-10.213,0.757205,21.6144,-0.803511,-0.488683,-0.0968531,-0.00957459,-1.07476,0.583474,3.07184,-0.240004,-0.495817,-0.1514
2623075,0.94,-1.57087,-0.522821,-0.00048624,-2.09654,-1.57071,1.57143,0.785485,-1.5708,-0.523599,-3.02234e-07,-2.0944,-1.5708,1.5708,0.785398,0.000586344,0.000221432,-0.000304524,-0.000289621,0.000144007,0.000621642,0.00131744,0,0,0,0,0,0,0,-0.0259286,-10.213,0.781009,21.6144,-0.809004,-0.507909,-0.135305,-0.0102087,-1.07634,0.582834,3.07302,-0.240066,-0.495907,-0.151511
2623076,0.94,-1.57087,-0.522823,-0.000484569,-2.09654,-1.57071,1.57143,0.785482,-1.5708,-0.523599,-3.02234e-07,-2.0944,-1.5708,1.5708,0.785398,-0.000165916,-0.000409191,0.000353702,0.000920543,9.6005e-05,-6.02888e-05,-7.11412e-05,0,0,0,0,0,0,0,-0.00212494,-10.1892,0.757205,21.5668,-0.809004,-0.495092,-0.10967,-0.0108433,-1.07776,0.582239,3.0738,-0.240119,-0.495991,-0.151591
2623077,0.94,-1.57087,-0.522823,-0.000484569,-2.09654,-1.57071,1.57143,0.785483,-1.5708,-0.523599,-3.02234e-07,-2.0944,-1.5708,1.5708,0.785398,0.000446201,-0.000272794,0.000235731,-0.000499928,-0.000139447,-4.01925e-05,0.000189931,0,0,0,0,0,0,0,-0.0259286,-10.1892,0.757205,21.6144,-0.803511,-0.495092,-0.116079,-0.0114623,-1.07769,0.581619,3.07351,-0.240141,-0.496058,-0.151676
2623078,0.94,-1.57087,-0.522821,-0.000484569,-2.09654,-1.57071,1.57143,0.785482,-1.5708,-0.523599,-3.02234e-07,-2.0944,-1.5708,1.5708,0.785398,-0.000908958,0.000374949,0.000157101,-0.000333286,0.000110486,0.000210563,-0.000110738,0,0,0,0,0,0,0,0.0256461,-10.213,0.757205,21.6144,-0.809004,-0.5015,-0.10967,-0.0119195,-1.07744,0.581164,3.0732,-0.240168,-0.4961,-0.151775
2623079,0.94,-1.57087,-0.522821,-0.00048624,-2.09654,-1.57071,1.57143,0.785481,-1.5708,-0.523599,-3.02234e-07,-2.0944,-1.5708,1.5708,0.785398,4.36416e-05,0.000249966,-0.000452117,-0.000871804,-0.000129793,0.000140375,-0.000548543,0,0,0,0,0,0,0,-0.00212494,-10.213,0.781009,21.6422,-0.803511,-0.5015,-0.0968531,-0.0117752,-1.07859,0.581552,3.07387,-0.240222,-0.496072,-0.151882
2623080,0.94,-1.57087,-0.522821,-0.000488189,-2.09654,-1.57071,1.57143,0.785477,-1.5708,-0.523599,-3.02234e-07,-2.0944,-1.5708,1.5708,0.785398,0.00114272,0.000166644,-0.000951055,-0.00113801,0.000116922,-0.000143774,-0.00178985,0,0,0,0,0,0,0,-0.0497324,-10.213,0.80878,21.666,-0.809004,-0.495092,-0.0584009,-0.0111583,-1.08106,0.582757,3.07556,-0.240301,-0.495992,-0.151988
2623081,0.94,-1.57087,-0.522819,-0.000484569,-2.09654,-1.57071,1.57143,0.785482,-1.5708,-0.523599,-3.02234e-07,-2.0944,-1.5708,1.5708,0.785398,-0.00100143,0.00076071,0.000572367,0.00100456,-0.000532404,0.000141508,0.000705639,0,0,0,0,0,0,0,0.0256461,-10.2408,0.757205,21.5906,-0.792525,-0.5015,-0.10967,-0.0105132,-1.08395,0.584143,3.07747,-0.240381,-0.49592,-0.15206
2623082,0.94,-1.57087,-0.522821,-0.000484569,-2.09654,-1.57071,1.57143,0.78548,-1.5708,-0.523599,-3.02234e-07,-2.0944,-1.5708,1.5708,0.785398,-0.000667617,-0.000142474,0.000381561,0.000669708,0.000255416,9.43388e-05,-0.000241651,0,0,0,0,0,0,0,0.0256461,-10.213,0.757205,21.5906,-0.809004,-0.5015,-0.0904444,-0.0099191,-1.0858,0.585287,3.07821,-0.240413,-0.495864,-0.152073
2623083,0.94,-1.57087,-0.522821,-0.00048624,-2.09654,-1.57071,1.57143,0.785483,-1.5708,-0.523599,-3.02234e-07,-2.0944,-1.5708,1.5708,0.785398,0.000761348,-9.49826e-05,-0.00030245,-0.000759954,0.000170277,-0.000411824,0.000788335,0,0,0,0,0,0,0,-0.0259286,-10.213,0.781009,21.6422,-0.809004,-0.488683,-0.116079,-0.00946338,-1.08607,0.586048,3.07788,-0.240404,-0.495827,-0.152034
2623084,0.94,-1.57087,-0.522823,-0.00048624,-2.09654,-1.57071,1.57143,0.785484,-1.5708,-0.523599,-3.02234e-07,-2.0944,-1.5708,1.5708,0.785398,-0.000698861,-0.000620134,-0.000201643,-0.000506636,0.000113518,-3.71905e-05,0.000762916,0,0,0,0,0,0,0,0.0256461,-10.1892,0.781009,21.6422,-0.809004,-0.495092,-0.122488,-0.00903862,-1.08542,0.586767,3.07753,-0.240397,-0.495784,-0.151962
2623085,0.94,-1.57087,-0.522823,-0.00048624,-2.09654,-1.57071,1.57143,0.785484,-1.5708,-0.523599,-3.02234e-07,-2.0944,-1.5708,1.5708,0.785398,-0.000465907,-0.000413422,-0.000134436,-0.000337757,7.56787e-05,-2.47937e-05,0.00050861,0,0,0,0,0,0,0,0.0256461,-10.1892,0.781009,21.6422,-0.809004,-0.495092,-0.122488,-0.0082427,-1.08392,0.587969,3.07722,-0.240389,-0.49567,-0.151887
2623086,0.94,-1.57087,-0.522823,-0.000484569,-2.09654,-1.57071,1.57143,0.785482,-1.5708,-0.523599,-3.02234e-07,-2.0944,-1.5708,1.5708,0.785398,-0.000867417,-0.000275615,0.000467183,0.000424442,-0.000152998,-0.000253888,-0.000135644,0,0,0,0,0,0,0,0.0494498,-10.1892,0.757205,21.6144,-0.803511,-0.488683,-0.10967,-0.0071795,-1.08158,0.589386,3.07655,-0.240367,-0.495509,-0.151844
2623087,0.94,-1.57087,-0.522823,-0.000484569,-2.09654,-1.57071,1.57143,0.785482,-1.5708,-0.523599,-3.02234e-07,-2.0944,-1.5708,1.5708,0.785398,-2.14658e-05,-0.000183743,0.000311451,-0.000923464,0.000101452,6.81002e-05,-0.000327788,0,0,0,0,0,0,0,0.0256461,-10.1892,0.757205,21.666,-0.809004,-0.495092,-0.103262,-0.00635395,-1.07924,0.590269,3.07583,-0.240355,-0.495388,-0.151844
2623088,0.94,-1.57087,-0.522819,-0.00048624,-2.09654,-1.57071,1.57143,0.785477,-1.5708,-0.523599,-3.02234e-07,-2.0944,-1.5708,1.5708,0.785398,0.00119212,0.00108393,-0.000349181,0.000590783,6.76346e-05,-0.000191959,-0.00188004,0,0,0,0,0,0,0,-0.0259286,-10.2408,0.781009,21.6144,-0.809004,-0.488683,-0.0584009,-0.00613866,-1.07839,0.590266,3.07585,-0.240385,-0.495377,-0.151873
2623089,0.94,-1.57087,-0.522819,-0.000484569,-2.09654,-1.57071,1.57143,0.78548,-1.5708,-0.523599,-3.02234e-07,-2.0944,-1.5708,1.5708,0.785398,-0.000411682,0.00072262,0.000324023,-0.000255759,4.50897e-05,0.000109386,-6.65641e-05,0,0,0,0,0,0,0,0.0256461,-10.2408,0.757205,21.6422,-0.809004,-0.495092,-0.0904444,-0.00641967,-1.07988,0.589674,3.07677,-0.240457,-0.495462,-0.151893
2623090,0.94,-1.57087,-0.522821,-0.000484569,-2.09654,-1.57071,1.57143,0.785478,-1.5708,-0.523599,-3.02234e-07,-2.0944,-1.5708,1.5708,0.785398,-0.000274455,-0.000167867,0.000216013,0.000479108,3.00598e-05,7.29243e-05,-0.000756453,0,0,0,0,0,0,0,0.0256461,-10.213,0.757205,21.6144,-0.809004,-0.495092,-0.0712183,-0.00668363,-1.08209,0.589053,3.07787,-0.240538,-0.495548,-0.151862
2623091,0.94,-1.57087,-0.522823,-0.000484569,-2.09654,-1.57071,1.57143,0.785477,-1.5708,-0.523599,-3.02234e-07,-2.0944,-1.5708,1.5708,0.785398,0.00102346,-0.000668723,0.000144008,-0.000330208,2.00399e-05,-0.000188743,-0.000741661,0,0,0,0,0,0,0,-0.0259286,-10.1892,0.757205,21.6422,-0.809004,-0.488683,-0.0648096,-0.00695085,-1.08265,0.588296,3.0782,-0.240599,-0.495608,-0.151763
2623092,0.94,-1.57087,-0.522821,-0.000482899,-2.09654,-1.57071,1.57143,0.785482,-1.5708,-0.523599,-3.02234e-07,-2.0944,-1.5708,1.5708,0.785398,0.000125492,0.000110996,0.000652816,-0.000776951,-0.000190091,0.000348888,0.000929713,0,0,0,0,0,0,0,-0.00212494,-10.213,0.733401,21.666,-0.803511,-0.5015,-0.103262,-0.00764397,-1.08187,0.586896,3.07822,-0.24067,-0.495706,-0.151583
2623093,0.94,-1.57087,-0.522819,-0.000488189,-2.09654,-1.57071,1.57143,0.785484,-1.5708,-0.523599,-3.02234e-07,-2.0944,-1.5708,1.5708,0.785398,-0.000565953,0.000723612,-0.00132803,0.000688459,-0.000126727,-4.76565e-06,0.00156924,0,0,0,0,0,0,0,0.0256461,-10.2408,0.80878,21.6144,-0.803511,-0.495092,-0.128897,-0.00799758,-1.0817,0.586018,3.07871,-0.240753,-0.495754,-0.151321
2623094,0.94,-1.57087,-0.522821,-0.000488189,-2.09654,-1.57071,1.57143,0.785483,-1.5708,-0.523599,-3.02234e-07,-2.0944,-1.5708,1.5708,0.785398,0.000829124,-0.000167206,-0.000885352,-0.000190642,-8.44847e-05,-3.1771e-06,0.000571445,0,0,0,0,0,0,0,-0.0259286,-10.213,0.80878,21.6422,-0.803511,-0.495092,-0.116079,-0.0070938,-1.08218,0.5871,3.07931,-0.240797,-0.49562,-0.151025
2623095,0.94,-1.57087,-0.522821,-0.000484569,-2.09654,-1.57071,1.57143,0.785484,-1.5708,-0.523599,-3.02234e-07,-2.0944,-1.5708,1.5708,0.785398,-4.06251e-06,-0.000111471,0.000616191,-0.000127094,-5.63231e-05,-2.11807e-06,0.000618322,0,0,0,0,0,0,0,-0.00212494,-10.213,0.757205,21.6422,-0.803511,-0.495092,-0.122488,-0.0059198,-1.08226,0.588709,3.07969,-0.240814,-0.495437,-0.150759
2623096,0.94,-1.57087,-0.522823,-0.00048624,-2.09654,-1.57071,1.57143,0.785482,-1.5708,-0.523599,-3.02234e-07,-2.0944,-1.5708,1.5708,0.785398,-0.000652322,-0.000631126,-0.000146019,-8.47296e-05,-3.75488e-05,-1.41205e-06,-6.2503e-05,0,0,0,0,0,0,0,0.0256461,-10.1892,0.781009,21.6422,-0.803511,-0.495092,-0.10967,-0.00520607,-1.08136,0.589594,3.07976,-0.240824,-0.49531,-0.150558
2623097,0.94,-1.57087,-0.522821,-0.000485029,-2.09654,-1.57071,1.57143,0.785479,-1.5708,-0.523599,-3.02234e-07,-2.0944,-1.5708,1.5708,0.785398,0.000214732,0.000136061,-0.00526232,-5.64864e-05,-2.50325e-05,0.000236416,-0.000991104,0,0,0,0,0,0,0,-0.00212494,-10.213,0.733401,21.6422,-0.803511,-0.5015,-0.0840357,-0.00307595,-1.07977,0.592703,3.0796,-0.240769,-0.494956,-0.150429
2623098,0.94,-1.57087,-0.522823,-0.00048166,-2.09654,-1.57071,1.57143,0.785479,-1.5708,-0.523599,-3.02234e-07,-2.0944,-1.5708,1.5708,0.785398,0.000143155,-0.000466104,-0.00338181,-0.00059447,0.000390213,-7.97469e-05,-0.000660736,0,0,0,0,0,0,0,-0.00212494,-10.1892,0.70563,21.666,-0.814497,-0.495092,-0.0840357,0.00199429,-1.07838,0.600634,3.07972,-0.240615,-0.494152,-0.150353
2623099,0.94,-1.57087,-0.522819,-0.000486476,-2.09654,-1.57071,1.57143,0.785477,-1.5708,-0.523599,-3.02234e-07,-2.0944,-1.5708,1.5708,0.785398,-0.000554177,0.00089569,-0.00441019,0.00136692,-0.00035021,-5.31646e-05,-0.00115257,0,0,0,0,0,0,0,0.0256461,-10.2408,0.781009,21.5906,-0.798018,-0.495092,-0.0648096,0.00897656,-1.0776,0.611665,3.08004,-0.240397,-0.493066,-0.150288
2623100,0.94,-1.57087,-0.522821,-0.000484648,-2.09654,-1.57071,1.57143,0.785478,-1.5708,-0.523599,-3.02234e-07,-2.0944,-1.5708,1.5708,0.785398,0.000836974,-5.24875e-05,-0.00267763,0.000354471,0.000173428,-3.5443e-05,-0.00053102,0,0,0,0,0,0,0,-0.0259286,-10.213,0.757205,21.6144,-0.809004,-0.495092,-0.0712183,0.0160837,-1.0773,0.622837,3.08006,-0.240156,-0.491977,-0.150193
2623101,0.94,-1.57087,-0.522823,-0.000488215,-2.09654,-1.57071,1.57143,0.785485,-1.5708,-0.523599,-3.02234e-07,-2.0944,-1.5708,1.5708,0.785398,0.00111479,-0.000591804,-0.00321224,-0.0004133,-8.78319e-05,-0.000260988,0.00201958,0,0,0,0,0,0,0,-0.0497324,-10.1892,0.80878,21.6422,-0.803511,-0.488683,-0.135305,0.0216781,-1.07679,0.631709,3.07983,-0.239952,-0.491116,-0.150036
2623102,0.94,-1.57087,-0.522821,-0.000488197,-2.09654,-1.57071,1.57143,0.785483,-1.5708,-0.523599,-3.02234e-07,-2.0944,-1.5708,1.5708,0.785398,-0.000370427,0.000162276,-0.00230704,0.0014877,0.000144896,6.33672e-05,0.000634307,0,0,0,0,0,0,0,-0.00212494,-10.213,0.80878,21.5668,-0.809004,-0.495092,-0.116079,0.0254444,-1.07546,0.637799,3.07929,-0.239798,-0.490513,-0.149831
2623103,0.94,-1.57087,-0.522821,-0.000488192,-2.09654,-1.57071,1.57143,0.785485,-1.5708,-0.523599,-3.02234e-07,-2.0944,-1.5708,1.5708,0.785398,0.00030986,0.000108184,-0.00166219,-0.000121821,-0.000106853,-0.000195114,0.00113495,0,0,0,0,0,0,0,-0.0259286,-10.213,0.80878,21.6144,-0.803511,-0.488683,-0.135305,0.0277497,-1.07395,0.641581,3.07841,-0.239684,-0.490121,-0.149634
2623104,0.94,-1.57087,-0.522819,-0.000486241,-2.09654,-1.57071,1.57143,0.785483,-1.5708,-0.523599,-3.02234e-07,-2.0944,-1.5708,1.5708,0.785398,0.000206574,0.000721737,-0.000551634,0.00103241,-7.12355e-05,0.000107283,4.45555e-05,0,0,0,0,0,0,0,-0.0259286,-10.2408,0.781009,21.5668,-0.803511,-0.495092,-0.116079,0.0281196,-1.07344,0.642388,3.07783,-0.239645,-0.490024,-0.149489
2623105,0.94,-1.57087,-0.522821,-0.00048624,-2.09653,-1.57071,1.57143,0.785481,-1.5708,-0.523599,-3.02234e-07,-2.0944,-1.5708,1.5708,0.785398,0.000137716,-0.000168456,-0.000437597,0.00124509,0.00059677,7.15219e-05,-0.000682373,0,0,0,0,0,0,0,-0.0259286,-10.213,0.781009,21.543,-0.820906,-0.495092,-0.0968531,0.0263844,-1.07347,0.640004,3.07719,-0.239671,-0.490242,-0.149423
2623106,0.94,-1.57087,-0.522821,-0.00048624,-2.09653,-1.57071,1.57143,0.78548,-1.5708,-0.523599,-3.02234e-07,-2.0944,-1.5708,1.5708,0.785398,-0.00111462,-0.000112304,-0.000344112,0.000830057,-0.000246414,4.76813e-05,-0.000692274,0,0,0,0,0,0,0,0.0256461,-10.213,0.781009,21.543,-0.803511,-0.495092,-0.0904444,0.0234805,-1.07262,0.635745,3.07576,-0.239714,-0.490617,-0.14943
2623107,0.94,-1.57087,-0.522821,-0.00048095,-2.09654,-1.57071,1.57143,0.785481,-1.5708,-0.523599,-3.02234e-07,-2.0944,-1.5708,1.5708,0.785398,0.000463349,-7.48694e-05,0.00149454,-0.000560253,-0.000367726,-0.000205571,-0.000224157,0,0,0,0,0,0,0,-0.0259286,-10.213,0.70563,21.5906,-0.798018,-0.488683,-0.0968531,0.0197361,-1.07141,0.630063,3.07429,-0.239804,-0.49111,-0.149468
2623108,0.94,-1.57087,-0.522823,-0.000488189,-2.09654,-1.57071,1.57143,0.785478,-1.5708,-0.523599,-3.02234e-07,-2.0944,-1.5708,1.5708,0.785398,-0.000247913,-0.000606725,-0.00144595,-0.000373502,-0.000245151,0.000100311,-0.00109887,0,0,0,0,0,0,0,-0.00212494,-10.1892,0.80878,21.5906,-0.798018,-0.495092,-0.0712183,0.0152738,-1.07079,0.623268,3.07368,-0.239963,-0.491709,-0.149502
2623109,0.94,-1.57087,-0.522819,-0.000489859,-2.09654,-1.57071,1.57143,0.785484,-1.5708,-0.523599,-3.02234e-07,-2.0944,-1.5708,1.5708,0.785398,-0.0013717,0.000801943,-0.00154288,-0.000805813,0.000446918,6.68742e-05,0.00140365,0,0,0,0,0,0,0,0.0494498,-10.2408,0.832583,21.6144,-0.814497,-0.495092,-0.128897,0.0120493,-1.07129,0.618403,3.07418,-0.240127,-0.492123,-0.149503
2623110,0.94,-1.57087,-0.522819,-0.000484569,-2.09654,-1.57071,1.57143,0.785481,-1.5708,-0.523599,-3.02234e-07,-2.0944,-1.5708,1.5708,0.785398,-0.000357655,0.000534628,0.000718078,1.96032e-05,-0.000515857,-0.000430135,-0.000251029,0,0,0,0,0,0,0,0.0256461,-10.2408,0.757205,21.5906,-0.792525,-0.482274,-0.0968531,0.0103889,-1.07383,0.615892,3.07583,-0.240284,-0.492324,-0.149467
2623111,0.94,-1.57087,-0.522821,-0.000482899,-2.09654,-1.57071,1.57143,0.785485,-1.5708,-0.523599,-3.02234e-07,-2.0944,-1.5708,1.5708,0.785398,0.000411177,-0.000293195,0.0010231,-0.000543743,0.000266447,0.000187961,0.0012568,0,0,0,0,0,0,0,-0.00212494,-10.213,0.733401,21.6144,-0.809004,-0.495092,-0.135305,0.00805989,-1.07715,0.612304,3.07775,-0.240468,-0.492644,-0.14942
2623112,0.94,-1.57087,-0.522821,-0.00048624,-2.09654,-1.57071,1.57143,0.785484,-1.5708,-0.523599,-3.02234e-07,-2.0944,-1.5708,1.5708,0.785398,0.00083093,-0.000195463,-0.000440879,0.000751128,-2.58192e-05,0.000362665,0.000600508,0,0,0,0,0,0,0,-0.0259286,-10.213,0.781009,21.5668,-0.803511,-0.5015,-0.128897,0.00448559,-1.07907,0.606845,3.07873,-0.240643,-0.493143,-0.149397
2623113,0.94,-1.57087,-0.522823,-0.00048624,-2.09654,-1.57071,1.57143,0.785483,-1.5708,-0.523599,-3.02234e-07,-2.0944,-1.5708,1.5708,0.785398,-0.000652473,-0.000687121,-0.000300912,-0.00126249,-1.72128e-05,4.41902e-06,-7.43791e-05,0,0,0,0,0,0,0,0.0256461,-10.1892,0.781009,21.6422,-0.803511,-0.495092,-0.116079,0.00113196,-1.07926,0.601763,3.07876,-0.240765,-0.493592,-0.149428
2623114,0.94,-1.57087,-0.522821,-0.000484569,-2.09654,-1.57071,1.57143,0.785481,-1.5708,-0.523599,-3.02234e-07,-2.0944,-1.5708,1.5708,0.785398,-0.000991794,9.87314e-05,0.00035096,0.000921581,0.000395426,0.000240304,-0.000761663,0,0,0,0,0,0,0,0.0494498,-10.213,0.757205,21.5668,-0.814497,-0.5015,-0.0968531,-0.0010568,-1.07855,0.598303,3.07839,-0.240832,-0.493866,-0.149525
2623115,0.94,-1.57087,-0.522818,-0.000484569,-2.09653,-1.57071,1.57143,0.785479,-1.5708,-0.523597,-2.80223e-06,-2.09439,-1.5708,1.5708,0.785398,0.00110204,0.00127225,0.000230041,0.0011712,-0.000143284,0.000160203,-0.000982493,-0.00312521,0.001875,-0.0025,0.00231151,-0.00155837,0.005,-0.000158103,-0.0259286,-10.2646,0.757205,21.543,-0.803511,-0.5015,-0.0840357,-0.00279244,-1.07824,0.595402,3.07766,-0.240868,-0.494102,-0.14967
2623116,0.94,-1.57087,-0.522823,-0.00048624,-2.09654,-1.57071,1.57143,0.785477,-1.57081,-0.523593,-7.80223e-06,-2.09439,-1.5708,1.57081,0.785398,-0.000471731,-0.000915073,-0.000406401,-0.000332824,0.000107928,-0.000130556,-0.00136707,-0.00625042,0.00375,-0.005,0.00462301,-0.00311674,0.01,-0.000316207,0.0256461,-10.1892,0.781009,21.5906,-0.809004,-0.495092,-0.0648096,-0.0045629,-1.07854,0.592487,3.07664,-0.240892,-0.494379,-0.149822
2623117,0.95,-1.57087,-0.522821,-0.00048624,-2.09654,-1.57071,1.57143,0.785478,-1.57082,-0.523587,-1.53022e-05,-2.09438,-1.57081,1.57083,0.785398,0.000335126,-5.32369e-05,-0.000273147,-0.000778695,-0.000334949,-8.70374e-05,-0.000674023,-0.00937563,0.005625,-0.0075,0.00693452,-0.00467511,0.015,-0.00047431,-0.00212494,-10.213,0.781009,21.6144,-0.798018,-0.495092,-0.0712183,-0.00575482,-1.07845,0.590454,3.07578,-0.240915,-0.494578,-0.149931
2623118,0.96,-1.57087,-0.52282,-0.000490392,-2.09654,-1.57071,1.57143,0.785479,-1.57083,-0.52358,-2.53022e-05,-2.09437,-1.57081,1.57085,0.785397,-0.00183342,0.00227273,-0.00352199,-0.00116874,0.000827862,0.000416692,-0.000211989,-0.0125008,0.0075,-0.01,0.00924603,-0.00623348,0.02,-0.000632413,-0.0497324,-10.1654,0.658023,21.6422,-0.826399,-0.507909,-0.077627,-0.00507607,-1.08044,0.591301,3.07656,-0.240953,-0.494525,-0.149946
2623119,0.97,-1.57088,-0.522825,-0.000487743,-2.09654,-1.5707,1.57143,0.785481,-1.57084,-0.52357,-3.78022e-05,-2.09436,-1.57082,1.57087,0.785396,-0.00255723,0.000547779,-0.00217331,-0.00119076,-0.00256094,-0.000196922,0.000570751,-0.0156261,0.009375,-0.0125,0.0115575,-0.00779185,0.025,-0.000790516,-0.279835,-9.9631,0.225589,21.789,-0.865767,-0.495092,-0.0968531,-0.00111737,-1.08659,0.597108,3.07984,-0.240989,-0.494042,-0.149844
2623120,0.98,-1.57087,-0.522823,-0.000503695,-2.09653,-1.57071,1.57142,0.785486,-1.57086,-0.523559,-5.28022e-05,-2.09435,-1.57083,1.5709,0.785395,-8.30776e-06,-0.000371359,-0.00433128,0.00185782,-0.00124049,-0.000843358,0.00204201,-0.0187513,0.01125,-0.015,0.013869,-0.00935022,0.03,-0.00094862,-0.78368,-9.76077,-0.103696,21.8167,-0.888655,-0.475866,-0.141714,0.00529294,-1.09196,0.606495,3.08275,-0.240958,-0.493174,-0.149653
2623121,0.98,-1.57087,-0.522817,-0.000517116,-2.09653,-1.57071,1.57143,0.785483,-1.57088,-0.523546,-7.03022e-05,-2.09433,-1.57084,1.57094,0.785394,0.00189555,-0.000882241,-0.00589063,0.00208739,-0.000909225,-0.00032488,0.000411906,-0.0218765,0.013125,-0.0175,0.0161806,-0.0109086,0.035,-0.00110672,-1.18834,-9.55844,-0.583737,21.9397,-0.894148,-0.482274,-0.116079,0.0119293,-1.09105,0.616594,3.08209,-0.240852,-0.492092,-0.149449
2623122,0.98,-1.57088,-0.522805,-0.000531271,-2.09653,-1.57071,1.57143,0.785484,-1.57091,-0.523531,-9.03022e-05,-2.09431,-1.57085,1.57098,0.785393,-0.00207417,0.00183,-0.00690163,0.00393922,-0.00041351,-0.000453946,0.000749322,-0.0250017,0.015,-0.02,0.0184921,-0.012467,0.04,-0.00126483,-1.51366,-9.48306,-1.09155,21.9873,-0.905134,-0.475866,-0.128897,0.0180874,-1.08492,0.62689,3.07842,-0.240748,-0.490755,-0.149298
2623123,0.98,-1.57088,-0.522792,-0.000557179,-2.09652,-1.57071,1.57143,0.785481,-1.57094,-0.523514,-0.000112802,-2.09429,-1.57087,1.57102,0.785391,-0.0038292,0.00437192,-0.0115986,0.00518053,-0.00104672,-6.52714e-05,-0.000687247,-0.0281269,0.016875,-0.0225,0.0208036,-0.0140253,0.045,-0.00142293,-1.89452,-9.43149,-1.44464,22.0389,-0.888655,-0.482274,-0.0968531,0.0254914,-1.07916,0.640054,3.07458,-0.240707,-0.488822,-0.149218
2623124,0.98,-1.57089,-0.522771,-0.000582924,-2.09651,-1.57071,1.57144,0.78548,-1.57097,-0.523495,-0.000137802,-2.09427,-1.57088,1.57107,0.78539,-0.00589805,0.00735256,-0.0154526,0.0105164,-0.000818336,0.001618,-0.000695523,-0.0312521,0.01875,-0.025,0.0231151,-0.0155837,0.05,-0.00158103,-2.24761,-9.43149,-1.77392,22.0389,-0.888655,-0.527135,-0.0904444,0.0363587,-1.07772,0.659652,3.07185,-0.240671,-0.485882,-0.149197
2623125,0.98,-1.5709,-0.522761,-0.00060444,-2.0965,-1.57071,1.57145,0.785474,-1.57101,-0.523473,-0.000167802,-2.09424,-1.5709,1.57113,0.785388,-0.00822352,0.00701316,-0.0172984,0.0120099,-2.55973e-05,0.00155338,-0.00239646,-0.037128,0.0225,-0.03,0.0272517,-0.0182673,0.06,-0.00174171,-2.57293,-9.32834,-2.15478,22.1381,-0.905134,-0.539952,-0.0382593,0.050713,-1.07924,0.686016,3.06882,-0.240528,-0.481828,-0.149217
2623126,0.98,-1.57091,-0.52276,-0.000630399,-2.09649,-1.57071,1.57146,0.785478,-1.57105,-0.523447,-0.000202802,-2.09421,-1.57092,1.5712,0.785386,-0.00729723,0.0033005,-0.0185453,0.00975892,0.000966303,8.61527e-05,-0.000376938,-0.0430039,0.02625,-0.035,0.0313884,-0.020951,0.07,-0.0019024,-2.87841,-9.0784,-2.40869,22.2611,-0.933516,-0.514318,-0.0712183,0.065832,-1.07787,0.715213,3.06422,-0.240289,-0.476919,-0.149229
2623127,0.98,-1.57093,-0.522753,-0.000655331,-2.09648,-1.57071,1.57146,0.785476,-1.5711,-0.523417,-0.000242802,-2.09417,-1.57095,1.57128,0.785384,-0.0153401,0.00544884,-0.0187616,0.00963102,0.00123762,0.000699517,-1.39333e-05,-0.0488798,0.03,-0.04,0.035525,-0.0236346,0.08,-0.00206308,-3.07677,-8.87607,-2.6864,22.3127,-0.950911,-0.411779,-0.077627,0.0791364,-1.07014,0.743243,3.05929,-0.240097,-0.471423,-0.149169
2623128,0.98,-1.57095,-0.522734,-0.000677959,-2.09647,-1.57071,1.57147,0.785483,-1.57115,-0.523383,-0.000287802,-2.09413,-1.57097,1.57137,0.785382,-0.0202992,0.0127242,-0.02202,0.0152703,0.00285536,0.00251453,0.00188958,-0.0547557,0.03375,-0.045,0.0396617,-0.0263183,0.09,-0.00222376,-3.30687,-8.77292,-3.09106,22.388,-1.00676,-0.333959,-0.128897,0.0912964,-1.06227,0.770686,3.05712,-0.24007,-0.465268,-0.148997
2623129,0.98,-1.57099,-0.522728,-0.000710464,-2.09645,-1.57071,1.57148,0.78548,-1.57121,-0.523345,-0.000337802,-2.09409,-1.571,1.57147,0.785379,-0.0266467,0.0111928,-0.0286716,0.0120306,0.0044181,0.00389213,0.00102236,-0.0606316,0.0375,-0.05,0.0437983,-0.0290019,0.1,-0.00238444,-3.55681,-8.36826,-3.59887,22.511,-1.07542,-0.250646,-0.122488,0.105425,-1.06136,0.802121,3.06018,-0.240236,-0.457957,-0.148736
2623130,0.98,-1.57101,-0.522705,-0.000755345,-2.09643,-1.57071,1.57149,0.785483,-1.57128,-0.523304,-0.000392802,-2.09404,-1.57103,1.57158,0.785377,-0.0253959,0.0142312,-0.0339556,0.0146877,0.00499237,0.00528965,0.000681575,-0.0665075,0.04125,-0.055,0.047935,-0.0316856,0.11,-0.00254512,-4.18761,-8.11832,-4.10272,22.5626,-1.13127,-0.172826,-0.122488,0.123306,-1.06661,0.84066,3.06913,-0.24064,-0.448989,-0.148455
2623131,0.98,-1.57104,-0.522669,-0.00080611,-2.09641,-1.57071,1.57151,0.785477,-1.57135,-0.523259,-0.000452802,-2.09399,-1.57107,1.5717,0.785374,-0.0299729,0.0182635,-0.0380165,0.0164596,-7.5339e-05,0.00696923,-0.000495052,-0.0723834,0.045,-0.06,0.0520716,-0.0343692,0.12,-0.0027058,-4.61608,-7.93979,-4.61053,22.6102,-1.16514,-0.115148,-0.0968531,0.143099,-1.07699,0.884204,3.08372,-0.241398,-0.438384,-0.148208
2623132,0.98,-1.5711,-0.522626,-0.00085623,-2.09638,-1.57072,1.57154,0.785474,-1.57143,-0.52321,-0.000517802,-2.09393,-1.5711,1.57183,0.785371,-0.0359824,0.0257788,-0.042105,0.0182431,-0.000856035,0.019071,-0.00127947,-0.0782594,0.04875,-0.065,0.0562083,-0.0370529,0.13,-0.00286648,-4.94536,-7.81284,-5.21753,22.634,-1.15416,-0.089513,-0.0712183,0.162555,-1.09726,0.929726,3.10524,-0.242662,-0.426378,-0.14799
2623133,0.98,-1.57114,-0.522578,-0.000916904,-2.09634,-1.57073,1.57158,0.785466,-1.57151,-0.523158,-0.000587802,-2.09387,-1.57114,1.57197,0.785368,-0.0411656,0.032549,-0.0457207,0.0275459,-0.00471359,0.0242908,-0.00326048,-0.0841353,0.0525,-0.07,0.0603449,-0.0397365,0.14,-0.00302716,-5.37383,-7.73746,-5.67376,22.5864,-1.17705,-0.0959217,-0.00621587,0.180455,-1.1323,0.975259,3.13399,-0.244479,-0.413167,-0.147763
2623134,0.98,-1.5712,-0.522537,-0.000975439,-2.0963,-1.57074,1.57164,0.785465,-1.5716,-0.523102,-0.000662802,-2.09381,-1.57119,1.57212,0.785365,-0.0467543,0.0338009,-0.0516697,0.0301584,-0.00824018,0.0348894,-0.00264837,-0.0900112,0.05625,-0.075,0.0644816,-0.0424201,0.15,-0.00318785,-5.72692,-7.51132,-6.13,22.5864,-1.18254,-0.1536,0.00660151,0.196012,-1.1781,1.01929,3.16567,-0.246674,-0.398818,-0.147466
2623135,0.98,-1.57127,-0.522492,-0.00102584,-2.09626,-1.57075,1.57172,0.785455,-1.5717,-0.52304,-0.000745302,-2.09374,-1.57123,1.57229,0.785362,-0.0549964,0.0353216,-0.051119,0.0333726,-0.00997835,0.0497608,-0.00488515,-0.0984782,0.061875,-0.0825,0.0701127,-0.046137,0.165,-0.0031804,-5.90545,-7.30899,-6.66162,22.6618,-1.21092,-0.282689,0.09083,0.208117,-1.22448,1.05951,3.19565,-0.249075,-0.383482,-0.147018
2623136,0.98,-1.57135,-0.522457,-0.00108995,-2.09623,-1.57076,1.5718,0.78546,-1.57181,-0.522972,-0.000835302,-2.09366,-1.57128,1.57247,0.785359,-0.0636937,0.0371684,-0.0547788,0.0347818,-0.0107764,0.0676227,-0.00159526,-0.106945,0.0675,-0.09,0.0757438,-0.0498538,0.18,-0.00317296,-6.08001,-6.97971,-7.01471,22.7848,-1.25578,-0.353185,0.0459692,0.214905,-1.26443,1.09214,3.2225,-0.251677,-0.367668,-0.146315
2623137,0.98,-1.57142,-0.522415,-0.00115354,-2.09618,-1.57077,1.57189,0.785457,-1.57193,-0.522899,-0.000932802,-2.09358,-1.57134,1.57266,0.785356,-0.0671771,0.0365625,-0.0553613,0.0384587,-0.0157276,0.0771055,-0.0010635,-0.115412,0.073125,-0.0975,0.081375,-0.0535706,0.195,-0.00316552,-6.25853,-6.702,-7.32019,22.8086,-1.30705,-0.314733,0.0459692,0.214605,-1.29319,1.11371,3.24545,-0.254519,-0.351995,-0.145269
2623138,0.98,-1.57152,-0.522377,-0.0012185,-2.09613,-1.57078,1.57199,0.785459,-1.57205,-0.52282,-0.0010378,-2.0935,-1.57139,1.57287,0.785352,-0.0789286,0.0361876,-0.0609572,0.0425402,-0.0195133,0.0827694,-0.00448886,-0.123879,0.07875,-0.105,0.0870061,-0.0572874,0.21,-0.00315808,-6.30614,-6.27353,-7.80023,22.9077,-1.36381,-0.225011,0.0194189,0.207604,-1.30389,1.12413,3.26193,-0.257542,-0.336588,-0.143861
2623139,0.98,-1.57161,-0.522321,-0.00129504,-2.09608,-1.57079,1.5721,0.785457,-1.57218,-0.522736,-0.0011503,-2.0934,-1.57145,1.5731,0.785349,-0.0863943,0.043077,-0.0670761,0.0426861,-0.0167873,0.0922028,-0.00386422,-0.132346,0.084375,-0.1125,0.0926372,-0.0610043,0.225,-0.00315063,-6.53228,-5.99185,-8.33185,23.0069,-1.44255,-0.140783,0.0322363,0.198353,-1.29759,1.12937,3.27312,-0.260771,-0.320852,-0.142123
2623140,0.98,-1.57171,-0.522261,-0.00138981,-2.09601,-1.57081,1.57223,0.785455,-1.57232,-0.522646,-0.0012703,-2.0933,-1.57152,1.57334,0.785346,-0.0890464,0.0498442,-0.0749734,0.044885,-0.0198994,0.105108,-0.00338247,-0.140814,0.09,-0.12,0.0982684,-0.0647211,0.24,-0.00314319,-7.01232,-5.63876,-8.73651,23.0069,-1.51579,-0.0766956,0.0459692,0.189784,-1.28847,1.13409,3.2869,-0.264536,-0.30447,-0.140088
2623141,0.98,-1.57181,-0.522178,-0.00148943,-2.09594,-1.57084,1.57239,0.785445,-1.57247,-0.52255,-0.0013978,-2.0932,-1.57159,1.57359,0.785343,-0.0936412,0.0605107,-0.080648,0.0519958,-0.0223745,0.123065,-0.00485185,-0.149281,0.095625,-0.1275,0.1039,-0.0684379,0.255,-0.00313575,-7.41698,-5.51181,-9.26812,22.9077,-1.58354,-0.115148,0.110056,0.180221,-1.29083,1.13692,3.3093,-0.269175,-0.287807,-0.13779
2623142,0.98,-1.57195,-0.522095,-0.00158474,-2.09586,-1.57088,1.57258,0.785446,-1.57263,-0.522449,-0.0015328,-2.09309,-1.57166,1.57386,0.78534,-0.109515,0.0658109,-0.0878377,0.0589629,-0.0309954,0.138316,-0.00268994,-0.157748,0.10125,-0.135,0.109531,-0.0721547,0.27,-0.00312831,-7.56774,-5.28568,-9.92669,22.8601,-1.59544,-0.23142,0.09083,0.169899,-1.309,1.1384,3.33964,-0.274699,-0.270875,-0.135232
2623143,0.98,-1.57208,-0.522002,-0.00169641,-2.09579,-1.57091,1.57278,0.785442,-1.5728,-0.522342,-0.0016753,-2.09298,-1.57174,1.57415,0.785337,-0.114621,0.0722076,-0.0947674,0.0657255,-0.0324247,0.157637,-0.00334304,-0.166215,0.106875,-0.1425,0.115162,-0.0758716,0.285,-0.00312086,-7.84545,-5.13492,-10.4345,22.8601,-1.61192,-0.32755,0.129282,0.161687,-1.3379,1.14191,3.37339,-0.280913,-0.253275,-0.1324
2623144,0.98,-1.57221,-0.521914,-0.00182513,-2.0957,-1.57096,1.57301,0.785438,-1.57297,-0.52223,-0.0018253,-2.09286,-1.57181,1.57445,0.785334,-0.122735,0.0741688,-0.103517,0.0730922,-0.0398464,0.176497,-0.00232289,-0.174682,0.1125,-0.15,0.120793,-0.0795884,0.3,-0.00311342,-8.22234,-4.90482,-10.7876,22.7848,-1.57805,-0.437413,0.129282,0.155663,-1.36807,1.14717,3.40528,-0.287629,-0.235109,-0.129305
2623145,0.98,-1.57237,-0.521824,-0.00194228,-2.09561,-1.57102,1.57324,0.785439,-1.57315,-0.52211,-0.00198529,-2.09273,-1.5719,1.57477,0.785331,-0.133649,0.0785079,-0.104208,0.0779397,-0.0405407,0.197248,-0.000907161,-0.184801,0.119423,-0.15999,0.127417,-0.0838764,0.319216,-0.00301908,-8.40087,-4.65488,-11.2438,22.8601,-1.54967,-0.546361,0.110056,0.149408,-1.39033,1.15013,3.43125,-0.294717,-0.216941,-0.125964
2623146,0.98,-1.57253,-0.521734,-0.00206012,-2.09552,-1.57107,1.5735,0.785439,-1.57335,-0.521984,-0.00215527,-2.09259,-1.57199,1.5751,0.785328,-0.138451,0.0829012,-0.107664,0.0806803,-0.0502651,0.213818,-0.000657758,-0.194919,0.126345,-0.16998,0.134041,-0.0881644,0.338431,-0.00292475,-8.5794,-4.32559,-11.7001,22.9831,-1.52128,-0.566503,0.110056,0.138482,-1.40213,1.14359,3.45164,-0.302212,-0.199718,-0.12239
2623147,0.98,-1.57269,-0.521638,-0.00218348,-2.09542,-1.57113,1.57377,0.785436,-1.57355,-0.521851,-0.00233524,-2.09245,-1.57208,1.57546,0.785325,-0.144129,0.0860069,-0.112269,0.0890817,-0.0503111,0.226,-0.00142768,-0.205038,0.133268,-0.17997,0.140664,-0.0924524,0.357647,-0.00283041,-8.80553,-4.09946,-12.0809,22.9831,-1.56157,-0.463048,0.135691,0.118427,-1.40354,1.12105,3.46781,-0.310123,-0.184303,-0.118621
2623148,0.98,-1.57286,-0.521537,-0.00230273,-2.09531,-1.57119,1.57405,0.785433,-1.57377,-0.521711,-0.0025252,-2.09231,-1.57218,1.57584,0.785322,-0.154587,0.0870042,-0.118206,0.0940124,-0.0502646,0.246432,-0.00671501,-0.215157,0.140191,-0.18996,0.147288,-0.0967403,0.376863,-0.00273607,-9.00786,-3.82175,-12.6125,23.0347,-1.60643,-0.373326,0.162241,0.0892291,-1.38962,1.08247,3.47767,-0.318243,-0.170668,-0.114714
2623149,0.98,-1.57304,-0.521426,-0.00243802,-2.0952,-1.57125,1.57437,0.785438,-1.574,-0.521563,-0.00272515,-2.09215,-1.57228,1.57623,0.785319,-0.165571,0.0960843,-0.12389,0.0991511,-0.0533805,0.263972,-0.00225001,-0.225276,0.147113,-0.19995,0.153912,-0.101028,0.396079,-0.00264174,-9.234,-3.59164,-13.2195,23.0347,-1.69157,-0.353185,0.09083,0.054356,-1.36065,1.03253,3.48188,-0.326449,-0.158193,-0.110683
2623150,0.99,-1.57323,-0.521302,-0.00259424,-2.09507,-1.57132,1.5747,0.785433,-1.57423,-0.521409,-0.00293509,-2.09199,-1.57238,1.57665,0.785317,-0.170906,0.103307,-0.133833,0.108687,-0.0576026,0.286916,-0.00300044,-0.235394,0.154036,-0.20994,0.160536,-0.105316,0.415294,-0.0025474,-9.71404,-3.38931,-13.7512,22.9077,-1.73643,-0.333959,0.122873,0.0168939,-1.32619,0.97593,3.48465,-0.33479,-0.146351,-0.10653
2623151,1,-1.57342,-0.521168,-0.00276187,-2.09494,-1.57138,1.57507,0.785438,-1.57448,-0.521248,-0.00315502,-2.09182,-1.57249,1.57708,0.785314,-0.17565,0.109536,-0.144954,0.115153,-0.064932,0.309517,-0.000336658,-0.245513,0.160959,-0.21993,0.16716,-0.109604,0.43451,-0.00245306,-10.3171,-3.21475,-14.255,22.8086,-1.7932,-0.450231,0.071604,-0.0218857,-1.29231,0.915696,3.48743,-0.343283,-0.134841,-0.10231
2623152,1,-1.57364,-0.521026,-0.00292773,-2.0948,-1.57147,1.57547,0.785436,-1.57473,-0.521081,-0.00338494,-2.09165,-1.57261,1.57754,0.785312,-0.194912,0.121995,-0.153583,0.122858,-0.0676621,0.338492,-0.00586042,-0.255632,0.167881,-0.22992,0.173784,-0.113892,0.453726,-0.00235873,-10.5432,-3.0878,-14.8898,22.7094,-1.79869,-0.649816,0.09083,-0.0593539,-1.26397,0.856492,3.49179,-0.351946,-0.123241,-0.0980834
2623153,1,-1.57386,-0.520872,-0.00310924,-2.09465,-1.57155,1.57588,0.785433,-1.575,-0.520906,-0.00362485,-2.09147,-1.57272,1.57801,0.78531,-0.200275,0.1312,-0.163169,0.131649,-0.0747869,0.361447,-0.00443489,-0.265751,0.174804,-0.23991,0.180407,-0.11818,0.472941,-0.00226439,-10.8487,-2.98465,-15.3976,22.6102,-1.7932,-0.772496,0.09083,-0.0927045,-1.24913,0.802485,3.50078,-0.360864,-0.111322,-0.0938911
2623154,1,-1.57409,-0.520717,-0.00330431,-2.0945,-1.57164,1.5763,0.785428,-1.57527,-0.520724,-0.00387475,-2.09128,-1.57285,1.5785,0.785308,-0.210473,0.136664,-0.172822,0.137783,-0.0756005,0.378804,-0.00453935,-0.27587,0.181726,-0.2499,0.187031,-0.122468,0.492157,-0.00217005,-11.2533,-2.81009,-15.7745,22.5348,-1.7758,-0.791722,0.122873,-0.122866,-1.2477,0.752586,3.514,-0.37009,-0.0993991,-0.0897776
2623155,1,-1.57432,-0.520551,-0.00348906,-2.09433,-1.57173,1.57675,0.785426,-1.57556,-0.520535,-0.00413464,-2.09109,-1.57297,1.57902,0.785306,-0.217896,0.145699,-0.174331,0.145225,-0.0852321,0.405711,-0.00406918,-0.286861,0.189216,-0.25989,0.194259,-0.127002,0.512147,-0.00203487,-11.6064,-2.68314,-16.2585,22.4634,-1.75383,-0.842992,0.143015,-0.154274,-1.25397,0.700325,3.5294,-0.379669,-0.0882357,-0.0857579
2623156,1,-1.57457,-0.520391,-0.0036789,-2.09416,-1.57183,1.57723,0.785417,-1.57586,-0.520338,-0.00440452,-2.09089,-1.57311,1.57955,0.785304,-0.225506,0.145213,-0.176865,0.150534,-0.0925667,0.427024,-0.00928477,-0.297852,0.196706,-0.26988,0.201487,-0.131535,0.532137,-0.0018997,-11.8564,-2.40543,-16.6869,22.4118,-1.74193,-0.849401,0.187876,-0.194326,-1.26004,0.634394,3.5441,-0.389613,-0.0790021,-0.0818057
2623157,1,-1.57482,-0.520224,-0.00388314,-2.09399,-1.57194,1.57773,0.785421,-1.57617,-0.520134,-0.00468439,-2.09068,-1.57324,1.5801,0.785302,-0.230721,0.150328,-0.182794,0.157033,-0.096886,0.449254,-0.00508602,-0.308843,0.204196,-0.27987,0.208715,-0.136069,0.552127,-0.00176452,-12.1341,-2.20309,-17.0678,22.388,-1.75932,-0.778905,0.143015,-0.248653,-1.25445,0.546404,3.55384,-0.39981,-0.0724282,-0.077875
2623158,1,-1.57509,-0.52005,-0.00409997,-2.0938,-1.57204,1.57824,0.785417,-1.57649,-0.519922,-0.00497425,-2.09046,-1.57338,1.58067,0.7853,-0.242737,0.157044,-0.196525,0.164887,-0.0992143,0.469439,-0.00404631,-0.319834,0.211686,-0.28986,0.215942,-0.140603,0.572117,-0.00162934,-12.3126,-2.00076,-17.3217,22.388,-1.80968,-0.694677,0.149424,-0.314744,-1.23335,0.440604,3.55724,-0.41007,-0.0679519,-0.0739251
2623159,1,-1.57537,-0.519871,-0.00431365,-2.09361,-1.57215,1.57879,0.785425,-1.57682,-0.519703,-0.0052741,-2.09024,-1.57353,1.58126,0.785299,-0.255046,0.168385,-0.199937,0.173658,-0.101173,0.494103,0.000108336,-0.330825,0.219176,-0.29985,0.22317,-0.145136,0.592107,-0.00149416,-12.3602,-1.79843,-17.6986,22.388,-1.84996,-0.72672,0.0651953,-0.385874,-1.20386,0.327203,3.55675,-0.420281,-0.0644271,-0.0699445
2623160,1,-1.57566,-0.519676,-0.00454902,-2.0934,-1.57226,1.57937,0.785428,-1.57716,-0.519476,-0.00558394,-2.09001,-1.57368,1.58188,0.785298,-0.26345,0.174243,-0.216243,0.181909,-0.103039,0.522836,0.00105765,-0.341816,0.226666,-0.30984,0.230398,-0.14967,0.612097,-0.00135899,-12.4118,-1.72305,-17.8533,22.3127,-1.88383,-0.875035,0.0322363,-0.457781,-1.17345,0.212517,3.55488,-0.430448,-0.0611296,-0.0659837
2623161,1,-1.57595,-0.519471,-0.00479309,-2.09319,-1.57237,1.57997,0.785432,-1.57751,-0.519242,-0.00590377,-2.08977,-1.57383,1.58251,0.785296,-0.272318,0.184538,-0.226273,0.190882,-0.104604,0.551169,0.0019528,-0.352807,0.234156,-0.31983,0.237626,-0.154203,0.632087,-0.00122381,-12.5903,-1.69528,-18.0041,22.2611,-1.91771,-0.984899,-0.00621587,-0.527492,-1.14466,0.101471,3.55239,-0.440551,-0.0576497,-0.0621693
2623162,1,-1.57626,-0.519264,-0.0050421,-2.09297,-1.57249,1.5806,0.785433,-1.57788,-0.519001,-0.00623359,-2.08953,-1.57399,1.58316,0.785295,-0.286472,0.193525,-0.230167,0.201283,-0.110887,0.573879,0.00140688,-0.363798,0.241646,-0.32982,0.244853,-0.158737,0.652077,-0.00108863,-12.6141,-1.64767,-18.1548,22.1897,-1.93419,-1.02335,-0.0126246,-0.594561,-1.11932,-0.00549863,3.54945,-0.450644,-0.0541311,-0.0586394
2623163,1,-1.57658,-0.519043,-0.00529357,-2.09274,-1.57262,1.58123,0.785434,-1.57825,-0.518751,-0.0065734,-2.08927,-1.57415,1.58383,0.785294,-0.300748,0.203072,-0.237774,0.210928,-0.121022,0.596736,0.00107602,-0.374789,0.249136,-0.33981,0.252081,-0.16327,0.672067,-0.000953452,-12.5903,-1.6199,-18.3849,22.1619,-1.93419,-1.05539,-0.0190333,-0.66016,-1.09854,-0.111499,3.54558,-0.460802,-0.0510017,-0.0554851
2623164,1,-1.57691,-0.518816,-0.00556757,-2.0925,-1.57275,1.5819,0.785435,-1.57864,-0.518495,-0.0069232,-2.08902,-1.57432,1.58452,0.785293,-0.308626,0.211848,-0.249174,0.215646,-0.124099,0.616239,0.000880266,-0.38578,0.256626,-0.3498,0.259309,-0.167804,0.692057,-0.000818274,-12.8165,-1.54453,-18.4841,22.1143,-1.92869,-1.04899,-0.0254419,-0.723462,-1.08331,-0.215893,3.54183,-0.471074,-0.0482795,-0.0527462
2623165,1,-1.57723,-0.518581,-0.00584832,-2.09225,-1.57289,1.5826,0.785428,-1.57903,-0.518231,-0.00728299,-2.08875,-1.57449,1.58524,0.785293,-0.311645,0.218722,-0.257373,0.224258,-0.130578,0.638343,-0.00282592,-0.396985,0.264116,-0.35979,0.266848,-0.172378,0.712047,-0.000662276,-13.0426,-1.56833,-18.6111,22.1143,-1.93419,-1.13962,0.0651953,-0.785783,-1.07398,-0.319658,3.5402,-0.481574,-0.0461498,-0.0504333
2623166,1,-1.57759,-0.518347,-0.00613141,-2.09199,-1.57304,1.58329,0.785432,-1.57944,-0.517959,-0.00765277,-2.08847,-1.57467,1.58597,0.785292,-0.32884,0.224018,-0.264037,0.23171,-0.135347,0.655736,0.000244317,-0.40819,0.271606,-0.36978,0.274387,-0.176952,0.732037,-0.000506279,-13.0188,-1.46915,-18.8372,22.0905,-1.9406,-1.09385,0.00660151,-0.849499,-1.06505,-0.425748,3.53904,-0.492297,-0.0448551,-0.0485112
2623167,1,-1.57795,-0.518102,-0.00642519,-2.09174,-1.57319,1.584,0.785429,-1.57986,-0.51768,-0.00803254,-2.08819,-1.57485,1.58672,0.785292,-0.348673,0.230722,-0.269655,0.235889,-0.139536,0.659557,-0.000817963,-0.419395,0.279096,-0.37977,0.281926,-0.181527,0.752027,-0.000350281,-13.0188,-1.46915,-19.0157,22.1143,-1.9232,-0.952855,0.0322363,-0.911313,-1.05059,-0.530782,3.53661,-0.503132,-0.0437149,-0.0468779
2623168,1,-1.57832,-0.51785,-0.00672608,-2.09147,-1.57335,1.58473,0.785428,-1.58029,-0.517393,-0.0084223,-2.0879,-1.57504,1.58749,0.785292,-0.354896,0.235632,-0.280707,0.243694,-0.141737,0.69125,-0.000806222,-0.4306,0.286586,-0.38976,0.289465,-0.186101,0.772017,-0.000194284,-13.2172,-1.46915,-19.0673,22.1897,-1.9406,-0.933629,0.038645,-0.967559,-1.02846,-0.630498,3.53325,-0.514015,-0.0419683,-0.0454543
2623169,1,-1.5787,-0.517582,-0.00704599,-2.09119,-1.57351,1.58551,0.785426,-1.58073,-0.517099,-0.00882205,-2.08761,-1.57523,1.58828,0.785292,-0.361995,0.24584,-0.294306,0.256273,-0.148913,0.718736,-0.00106377,-0.441805,0.294076,-0.39975,0.297004,-0.190675,0.792007,-3.8286e-05,-13.2965,-1.5961,-19.1427,22.1381,-1.93419,-1.09385,0.0523779,-1.01983,-0.998293,-0.725739,3.52758,-0.524803,-0.0397759,-0.0442133
2623170,1,-1.57909,-0.517301,-0.00736983,-2.0909,-1.57367,1.5863,0.785425,-1.58119,-0.516798,-0.00923179,-2.0873,-1.57542,1.5891,0.785292,-0.373474,0.258638,-0.302169,0.26527,-0.148628,0.742131,-0.00095979,-0.45301,0.301566,-0.40974,0.304543,-0.195249,0.811997,0.000117711,-13.2687,-1.79843,-19.3212,22.1143,-1.95158,-1.23575,0.0587866,-1.07039,-0.966315,-0.817877,3.5196,-0.535403,-0.0375648,-0.0431078
2623171,1,-1.57949,-0.51702,-0.00771734,-2.09059,-1.57383,1.58709,0.785427,-1.58165,-0.516489,-0.00965152,-2.08699,-1.57562,1.58993,0.785292,-0.378882,0.264307,-0.320308,0.274974,-0.151635,0.7566,9.61883e-05,-0.464214,0.309056,-0.41973,0.312082,-0.199823,0.831987,0.000273709,-13.3203,-1.89761,-19.2458,22.0905,-2.01384,-1.19089,0.038645,-1.11884,-0.939113,-0.905387,3.51115,-0.545837,-0.0353845,-0.0420746
2623172,1,-1.5799,-0.516724,-0.0080667,-2.09028,-1.57401,1.5879,0.785434,-1.58213,-0.516172,-0.0100812,-2.08667,-1.57583,1.59078,0.785293,-0.39041,0.272335,-0.326689,0.286608,-0.155613,0.773079,0.0021929,-0.475419,0.316546,-0.42972,0.319621,-0.204398,0.851977,0.000429707,-13.3719,-2.12772,-19.2935,22.0151,-2.02482,-1.06821,-0.0190333,-1.16377,-0.913078,-0.985969,3.50026,-0.556048,-0.0330276,-0.0410865
2623173,1,-1.58032,-0.516421,-0.00842075,-2.08997,-1.5742,1.58874,0.785435,-1.58261,-0.515848,-0.010521,-2.08634,-1.57604,1.59165,0.785293,-0.400661,0.283167,-0.346815,0.292686,-0.166504,0.814828,0.0016937,-0.486624,0.324036,-0.43971,0.32716,-0.208972,0.871967,0.000585704,-13.3441,-2.27847,-19.2935,22.0151,-2.04771,-1.04899,-0.0254419,-1.20397,-0.887042,-1.0579,3.48633,-0.565995,-0.030418,-0.0401606
2623174,1,-1.58075,-0.516111,-0.00879397,-2.08966,-1.57438,1.58961,0.785422,-1.58311,-0.515517,-0.0109707,-2.08601,-1.57625,1.59254,0.785294,-0.406451,0.290188,-0.355231,0.303253,-0.171762,0.831117,-0.00294407,-0.497829,0.331526,-0.4497,0.3347,-0.213546,0.891957,0.000741702,-13.4949,-2.37766,-19.2697,22.1143,-2.0587,-1.11399,0.0844213,-1.23906,-0.86554,-1.1202,3.4721,-0.575729,-0.0276165,-0.0393468
2623175,1,-1.58118,-0.515806,-0.00918136,-2.08932,-1.57458,1.59049,0.785424,-1.58362,-0.515178,-0.0114303,-2.08567,-1.57647,1.59346,0.785295,-0.415581,0.29647,-0.364716,0.310967,-0.174956,0.841025,-0.00125378,-0.508677,0.339016,-0.45969,0.342339,-0.218025,0.911947,0.000919523,-13.6218,-2.37766,-19.2181,22.0389,-2.08159,-1.10666,0.0651953,-1.27209,-0.846422,-1.17743,3.45715,-0.585389,-0.0248037,-0.0386539
2623176,1,-1.58166,-0.515479,-0.00956624,-2.08898,-1.57477,1.59137,0.785426,-1.58414,-0.514831,-0.0119,-2.08532,-1.57669,1.59439,0.785296,-0.434027,0.305513,-0.371476,0.32131,-0.182887,0.852087,-0.000363492,-0.519525,0.346506,-0.46968,0.349978,-0.222504,0.931937,0.00109734,-13.4949,-2.42923,-19.3212,22.0389,-2.09257,-0.959264,0.0523779,-1.30454,-0.825535,-1.23308,3.43993,-0.595119,-0.0218301,-0.0379941
2623177,1,-1.58213,-0.515148,-0.00996733,-2.08864,-1.57497,1.5923,0.785427,-1.58467,-0.514477,-0.0123797,-2.08496,-1.57692,1.59534,0.785297,-0.445839,0.317743,-0.381948,0.329555,-0.185268,0.868941,0.00026453,-0.530373,0.353996,-0.47967,0.357618,-0.226983,0.951927,0.00127517,-13.4949,-2.4808,-19.2935,22.0151,-2.06419,-0.991307,0.038645,-1.33411,-0.806438,-1.28506,3.42216,-0.605005,-0.0182145,-0.0372742
2623178,1,-1.5826,-0.514799,-0.0103826,-2.08829,-1.57517,1.59327,0.785423,-1.58521,-0.514116,-0.0128694,-2.08459,-1.57715,1.59631,0.785299,-0.449129,0.327998,-0.402338,0.333549,-0.187077,0.893362,-0.0003336,-0.541221,0.361486,-0.48966,0.365257,-0.231462,0.971917,0.00145299,-13.6972,-2.63156,-19.2181,22.0627,-2.03673,-1.13321,0.0523779,-1.35925,-0.798796,-1.33025,3.40936,-0.615187,-0.0137183,-0.0364656
2623179,1,-1.58308,-0.514439,-0.0108092,-2.08793,-1.57538,1.59424,0.78542,-1.58576,-0.513747,-0.013369,-2.08422,-1.57739,1.5973,0.7853,-0.461216,0.336979,-0.410835,0.342113,-0.192799,0.919637,-0.000698112,-0.55207,0.368976,-0.49965,0.372896,-0.235942,0.991907,0.00163081,-13.8479,-2.8577,-19.2458,22.0389,-2.01384,-1.25498,0.0651953,-1.38027,-0.808118,-1.36714,3.40579,-0.625703,-0.00853129,-0.0355803
2623180,1,-1.58358,-0.514083,-0.011243,-2.08758,-1.5756,1.59523,0.78542,-1.58633,-0.51337,-0.0138786,-2.08384,-1.57763,1.59832,0.785302,-0.471677,0.34815,-0.416009,0.34869,-0.194573,0.938941,-0.000466154,-0.562918,0.376466,-0.50964,0.380536,-0.240421,1.0119,0.00180863,-13.8757,-2.96085,-19.3212,22.1381,-2.05321,-1.29343,0.0651953,-1.40104,-0.833552,-1.40128,3.4113,-0.636524,-0.00351331,-0.0346256
2623181,1,-1.58409,-0.513711,-0.0116759,-2.0872,-1.57581,1.59623,0.785421,-1.5869,-0.512986,-0.0143983,-2.08345,-1.57787,1.59935,0.785304,-0.483984,0.356226,-0.423574,0.354089,-0.201296,0.95996,-7.39702e-05,-0.573766,0.383956,-0.51963,0.388175,-0.2449,1.03189,0.00198645,-13.9749,-3.0878,-19.3966,22.1897,-2.08159,-1.18448,0.0587866,-1.42639,-0.873613,-1.4406,3.42521,-0.647693,0.000350338,-0.0335873
2623182,1,-1.58461,-0.513326,-0.0121379,-2.08683,-1.57603,1.59724,0.785427,-1.58748,-0.512595,-0.0149279,-2.08306,-1.57812,1.6004,0.785306,-0.492558,0.374913,-0.435492,0.358526,-0.200393,0.979181,0.00117097,-0.584614,0.391446,-0.52962,0.395815,-0.249379,1.05188,0.00216427,-14.1019,-3.23856,-19.4482,22.2611,-2.14934,-1.04899,0.0258276,-1.4574,-0.933248,-1.4867,3.45061,-0.659337,0.00273444,-0.0324423
2623183,1,-1.58512,-0.512941,-0.0126196,-2.08645,-1.57625,1.5983,0.785425,-1.58808,-0.512196,-0.0154675,-2.08265,-1.57837,1.60147,0.785309,-0.497867,0.377996,-0.449189,0.363715,-0.210582,1.00455,-0.000440371,-0.595462,0.398936,-0.53961,0.403454,-0.253858,1.07187,0.00234209,-14.2804,-3.41708,-19.472,22.388,-2.17772,-1.04258,0.0587866,-1.49293,-1.01667,-1.53679,3.49015,-0.671531,0.00388593,-0.0312023
2623184,1,-1.58566,-0.512538,-0.0130996,-2.08606,-1.57648,1.59937,0.785426,-1.58869,-0.511789,-0.0160171,-2.08224,-1.57863,1.60256,0.785311,-0.507096,0.384795,-0.457563,0.369657,-0.212809,1.02423,0.000180901,-0.60631,0.406426,-0.5496,0.411093,-0.258337,1.09186,0.00251992,-14.4549,-3.66702,-19.4204,22.5626,-2.22899,-1.06821,0.0459692,-1.53274,-1.11145,-1.5898,3.5384,-0.68412,0.00423159,-0.0299333
2623185,1,-1.58621,-0.512141,-0.0135988,-2.08566,-1.57672,1.60048,0.78543,-1.5893,-0.511375,-0.0165767,-2.08182,-1.57889,1.60367,0.785314,-0.522992,0.388955,-0.468223,0.373988,-0.216089,1.04685,0.00110377,-0.61629,0.413916,-0.55959,0.418693,-0.262621,1.11106,0.00274184,-14.4549,-3.7186,-19.3966,22.761,-2.22258,-1.13321,0.0194189,-1.5756,-1.20147,-1.64458,3.58812,-0.696935,0.00435589,-0.0286887
2623186,1,-1.58678,-0.511736,-0.0141045,-2.08526,-1.57695,1.60159,0.785428,-1.58993,-0.510954,-0.0171463,-2.0814,-1.57916,1.6048,0.785317,-0.536451,0.391429,-0.478436,0.38273,-0.226165,1.07082,0.00121043,-0.626271,0.421406,-0.56958,0.426293,-0.266905,1.13027,0.00296377,-14.3558,-3.7186,-19.3212,22.8363,-2.23997,-1.18448,0.00660151,-1.61763,-1.27496,-1.69664,3.63362,-0.709767,0.00501637,-0.0275121
2623187,1,-1.58737,-0.51131,-0.0146217,-2.08485,-1.57719,1.60274,0.785434,-1.59056,-0.510525,-0.0177258,-2.08096,-1.57943,1.60595,0.78532,-0.547473,0.399727,-0.489397,0.390504,-0.231145,1.08758,0.00199365,-0.636251,0.428896,-0.57957,0.433892,-0.271189,1.14948,0.00318569,-14.201,-3.84555,-19.2458,22.8839,-2.23448,-1.27421,-0.0254419,-1.6561,-1.32432,-1.74258,3.67003,-0.722372,0.00660857,-0.026461
2623188,1,-1.58795,-0.510892,-0.0151592,-2.08443,-1.57743,1.60391,0.785434,-1.59121,-0.510089,-0.0183154,-2.08052,-1.57971,1.60712,0.785323,-0.560776,0.406816,-0.505501,0.396511,-0.234235,1.11148,0.00109167,-0.646231,0.436386,-0.58956,0.441492,-0.275472,1.16869,0.00340762,-14.2288,-3.84555,-19.1189,22.9077,-2.24547,-1.37766,-0.0190333,-1.6889,-1.35349,-1.77917,3.69813,-0.734703,0.00925486,-0.0255824
2623189,1,-1.58855,-0.510446,-0.0157105,-2.084,-1.57768,1.6051,0.785428,-1.59187,-0.509645,-0.018915,-2.08007,-1.57999,1.60831,0.785327,-0.570398,0.414432,-0.523878,0.402713,-0.24247,1.14289,-0.00117115,-0.656211,0.443876,-0.59955,0.449092,-0.279756,1.18789,0.00362954,-14.2288,-3.99631,-18.9642,22.8601,-2.22258,-1.4097,0.0322363,-1.71224,-1.37066,-1.8001,3.72187,-0.746739,0.0131217,-0.0249136
2623190,1,-1.58916,-0.510013,-0.0162705,-2.08357,-1.57794,1.60626,0.785426,-1.59253,-0.509194,-0.0195245,-2.07961,-1.58027,1.60952,0.785331,-0.577879,0.420589,-0.528325,0.406215,-0.251624,1.14799,-0.00152679,-0.666192,0.451366,-0.60954,0.456691,-0.28404,1.2071,0.00385147,-14.1534,-3.9725,-18.865,22.8601,-2.22899,-1.31998,0.0523779,-1.72727,-1.38129,-1.80646,3.74446,-0.758541,0.0176961,-0.0244365
2623191,1,-1.58978,-0.509555,-0.0168282,-2.08313,-1.5782,1.60745,0.785427,-1.59321,-0.508735,-0.020144,-2.07915,-1.58056,1.61074,0.785335,-0.593247,0.429746,-0.536934,0.418038,-0.256549,1.17473,-0.000780535,-0.676172,0.458856,-0.61953,0.464291,-0.288324,1.22631,0.0040734,-14.0265,-4.14706,-18.8888,22.8086,-2.26286,-1.09385,0.0459692,-1.74045,-1.38801,-1.80837,3.76662,-0.770297,0.0219349,-0.0240672
2623192,1,-1.59042,-0.509091,-0.0174136,-2.08268,-1.57846,1.60863,0.785423,-1.5939,-0.508268,-0.0207735,-2.07868,-1.58085,1.61199,0.785339,-0.609265,0.438622,-0.549087,0.43386,-0.256476,1.16962,-0.00075774,-0.686152,0.466346,-0.62952,0.47189,-0.292607,1.24551,0.00429532,-13.9233,-4.25021,-18.7896,22.6618,-2.31322,-0.959264,0.0523779,-1.75213,-1.38968,-1.80795,3.78409,-0.781923,0.0260052,-0.023738
2623193,1,-1.59106,-0.508635,-0.0179967,-2.08222,-1.57873,1.60989,0.785427,-1.59459,-0.507794,-0.0214131,-2.0782,-1.58115,1.61325,0.785344,-0.62228,0.441398,-0.555075,0.443115,-0.258288,1.19025,0.000240808,-0.696132,0.473836,-0.63951,0.47949,-0.296891,1.26472,0.00451725,-13.8479,-4.19864,-18.8134,22.5864,-2.31322,-1.13321,0.0322363,-1.75889,-1.37999,-1.80179,3.79033,-0.793239,0.0309794,-0.0234285
2623194,1,-1.59173,-0.508165,-0.0185954,-2.08175,-1.57901,1.61117,0.785428,-1.5953,-0.507313,-0.0220626,-2.07771,-1.58145,1.61454,0.785348,-0.633536,0.445042,-0.57142,0.45191,-0.264253,1.23164,0.000160525,-0.706113,0.481326,-0.6495,0.48709,-0.301175,1.28393,0.00473917,-13.6734,-4.22244,-18.738,22.4356,-2.31871,-1.35203,0.0322363,-1.76136,-1.35119,-1.79133,3.78195,-0.804198,0.0369991,-0.023155
2623195,1,-1.59241,-0.507707,-0.019216,-2.08128,-1.5793,1.61244,0.785434,-1.59601,-0.506824,-0.022722,-2.07722,-1.58176,1.61584,0.785353,-0.640812,0.45617,-0.585464,0.461981,-0.269323,1.23858,0.00105644,-0.714748,0.488816,-0.65949,0.494575,-0.30523,1.30175,0.00505434,-13.5702,-4.12326,-18.6627,22.2611,-2.29674,-1.4802,0.00660151,-1.76008,-1.30522,-1.77633,3.76112,-0.814814,0.0436431,-0.0229313
2623196,1,-1.59309,-0.507222,-0.0198396,-2.08079,-1.57959,1.61374,0.785443,-1.59674,-0.506328,-0.0233915,-2.07671,-1.58207,1.61716,0.785359,-0.649296,0.460016,-0.61331,0.469782,-0.275266,1.25524,0.00334914,-0.723383,0.496306,-0.66948,0.50206,-0.309285,1.31956,0.0053695,-13.4711,-4.12326,-18.5595,22.0389,-2.22899,-1.64133,-0.0648096,-1.75059,-1.25053,-1.74871,3.7326,-0.825078,0.0512178,-0.0227532
2623197,1,-1.59378,-0.506724,-0.0204807,-2.08029,-1.57989,1.61506,0.785455,-1.59747,-0.505824,-0.024071,-2.07621,-1.58238,1.6185,0.785365,-0.664593,0.470914,-0.617907,0.475443,-0.280961,1.28007,0.0107614,-0.732018,0.503796,-0.67947,0.509545,-0.313339,1.33738,0.00568467,-13.4473,-4.17484,-18.4841,21.8644,-2.11546,-1.86747,-0.168264,-1.72882,-1.19382,-1.70202,3.70102,-0.834978,0.059876,-0.0226598
2623198,1,-1.59448,-0.506234,-0.0211309,-2.07978,-1.58019,1.61637,0.785459,-1.59821,-0.505313,-0.0247605,-2.07569,-1.5827,1.61985,0.785371,-0.675879,0.475094,-0.623925,0.487571,-0.287049,1.28262,0.00780303,-0.740653,0.511286,-0.68946,0.51703,-0.317394,1.3552,0.00599984,-13.4949,-4.19864,-18.4326,21.6144,-2.06419,-1.64774,-0.174673,-1.69979,-1.13885,-1.64533,3.66875,-0.844619,0.0682805,-0.0227775
2623199,1,-1.59519,-0.505722,-0.021778,-2.07926,-1.58049,1.61769,0.785455,-1.59896,-0.504794,-0.0254599,-2.07516,-1.58302,1.62123,0.785377,-0.688304,0.484736,-0.632295,0.498835,-0.287502,1.3036,0.00380015,-0.749288,0.518776,-0.69945,0.524516,-0.321449,1.37301,0.006315,-13.3957,-4.25021,-18.3849,21.4914,-2.13835,-1.30716,-0.128897,-1.6713,-1.08358,-1.59184,3.63314,-0.853965,0.0749918,-0.0232863
2623200,1,-1.59593,-0.505211,-0.0224366,-2.07874,-1.58078,1.61905,0.785467,-1.59972,-0.504268,-0.0261693,-2.07463,-1.58334,1.62262,0.785383,-0.701748,0.497093,-0.635359,0.507712,-0.286805,1.32719,0.00563582,-0.757923,0.526266,-0.70944,0.532001,-0.325504,1.39083,0.00663017,-13.2687,-4.19864,-18.4326,21.3922,-2.24547,-1.28061,-0.206716,-1.6483,-1.03182,-1.54922,3.59437,-0.863018,0.0793358,-0.0242875
2623201,1,-1.59664,-0.504704,-0.0231074,-2.07819,-1.58109,1.62044,0.78547,-1.60048,-0.503734,-0.0268888,-2.07409,-1.58367,1.62402,0.78539,-0.703715,0.499082,-0.645406,0.51624,-0.289211,1.34939,0.00439706,-0.766558,0.533756,-0.71943,0.539486,-0.329559,1.40864,0.00694533,-13.3441,-4.12326,-18.3334,21.2177,-2.28483,-1.37766,-0.219534,-1.63614,-0.988233,-1.52485,3.55491,-0.872025,0.0809053,-0.0258038
2623202,1,-1.59739,-0.504183,-0.0237871,-2.07764,-1.5814,1.62183,0.78548,-1.60126,-0.503193,-0.0276182,-2.07355,-1.58401,1.62545,0.785398,-0.712016,0.503072,-0.656524,0.525732,-0.297307,1.36186,0.00617479,-0.775193,0.541246,-0.72942,0.546971,-0.333613,1.42646,0.0072605,-13.2172,-4.04788,-18.2064,21.1701,-2.28483,-1.50675,-0.303762,-1.63698,-0.943299,-1.52091,3.51148,-0.881076,0.0799756,-0.0278845
2623203,1,-1.59815,-0.503663,-0.0244773,-2.07709,-1.58173,1.62325,0.785499,-1.60204,-0.502644,-0.0283576,-2.07299,-1.58434,1.6269,0.785405,-0.734233,0.507303,-0.662801,0.537428,-0.30328,1.37077,0.0104486,-0.783828,0.548736,-0.73941,0.554456,-0.337668,1.44428,0.00757567,-12.9156,-3.9725,-18.2064,21.0947,-2.25645,-1.59006,-0.472219,-1.6452,-0.885138,-1.5295,3.45885,-0.890025,0.0777925,-0.0305913
2623204,1,-1.59891,-0.503123,-0.025174,-2.07652,-1.58204,1.62469,0.785503,-1.60283,-0.502088,-0.029107,-2.07243,-1.58469,1.62836,0.785413,-0.73535,0.513763,-0.672332,0.547379,-0.31236,1.40217,0.00632329,-0.792462,0.556226,-0.7494,0.561942,-0.341723,1.46209,0.00789083,-12.9156,-4.02011,-18.2064,21.0431,-2.2061,-1.59006,-0.452993,-1.65563,-0.810196,-1.54411,3.39493,-0.898749,0.0750533,-0.0340476
2623205,1,-1.59966,-0.502565,-0.0258957,-2.07595,-1.58237,1.62611,0.785497,-1.60363,-0.501524,-0.0298664,-2.07186,-1.58503,1.62984,0.785422,-0.732617,0.52467,-0.680549,0.555661,-0.315161,1.41506,0.000673483,-0.799298,0.563705,-0.75939,0.569297,-0.345517,1.47826,0.0083875,-13.1933,-4.19864,-18.1826,21.1423,-2.17222,-1.57724,-0.355947,-1.67334,-0.726594,-1.57077,3.32369,-0.907434,0.0706465,-0.03842
2623206,1,-1.60042,-0.502006,-0.0266078,-2.07537,-1.5827,1.62756,0.785484,-1.60444,-0.500953,-0.0306358,-2.07128,-1.58538,1.63133,0.78543,-0.7375,0.532344,-0.687097,0.557788,-0.319345,1.41866,-0.00551362,-0.806134,0.571184,-0.76938,0.576653,-0.349311,1.49442,0.00888417,-13.3957,-4.3494,-18.4088,21.1701,-2.2061,-1.41611,-0.193899,-1.70529,-0.64958,-1.61737,3.25447,-0.916482,0.063467,-0.0437047
2623207,1,-1.6012,-0.50143,-0.0273146,-2.07479,-1.58302,1.62901,0.785475,-1.60525,-0.500374,-0.0314151,-2.0707,-1.58573,1.63284,0.78544,-0.748728,0.541163,-0.694511,0.566668,-0.320603,1.43461,-0.00842744,-0.81297,0.578662,-0.77937,0.584009,-0.353105,1.51059,0.00938084,-13.4711,-4.5795,-18.6865,21.2931,-2.31322,-1.30716,-0.0648096,-1.75067,-0.588505,-1.68238,3.19451,-0.926092,0.0539072,-0.049646
2623208,1,-1.60199,-0.500856,-0.0280431,-2.07421,-1.58335,1.63046,0.78547,-1.60607,-0.499788,-0.0322045,-2.07011,-1.58609,1.63437,0.78545,-0.7565,0.554332,-0.704496,0.571023,-0.320587,1.43069,-0.00776639,-0.819805,0.586141,-0.78936,0.591365,-0.3569,1.52675,0.00987751,-13.6496,-4.75406,-18.738,21.3922,-2.42674,-1.01694,-0.00621587,-1.80349,-0.548971,-1.7576,3.14745,-0.936292,0.043271,-0.055813
2623209,1,-1.60277,-0.500271,-0.028768,-2.07362,-1.58369,1.63195,0.78546,-1.6069,-0.499195,-0.0330039,-2.06951,-1.58645,1.63591,0.78546,-0.767684,0.55802,-0.715237,0.576167,-0.331675,1.45174,-0.00756856,-0.826641,0.593619,-0.79935,0.59872,-0.360694,1.54292,0.0103742,-13.6972,-4.82944,-18.8372,21.4914,-2.46611,-0.984899,0.0587866,-1.85736,-0.533379,-1.83389,3.11515,-0.947129,0.033068,-0.0617357
2623210,1,-1.60358,-0.499684,-0.0295139,-2.07303,-1.58404,1.63349,0.785455,-1.60773,-0.498594,-0.0338132,-2.0689,-1.58682,1.63747,0.785471,-0.77754,0.560176,-0.723356,0.577938,-0.335155,1.48339,-0.00527067,-0.833477,0.601098,-0.80934,0.606076,-0.364488,1.55909,0.0108708,-13.6496,-4.85721,-18.7896,21.7414,-2.43223,-1.15244,0.0651953,-1.90881,-0.531507,-1.90653,3.09457,-0.958544,0.0242532,-0.06706
2623211,1,-1.60438,-0.49909,-0.0302944,-2.07243,-1.58439,1.63506,0.785448,-1.60857,-0.497985,-0.0346325,-2.06829,-1.58718,1.63904,0.785482,-0.790704,0.570901,-0.740515,0.583195,-0.34277,1.50583,-0.00564071,-0.840312,0.608576,-0.81933,0.613432,-0.368282,1.57525,0.0113675,-13.5226,-4.95639,-18.5119,21.9635,-2.36998,-1.37125,0.122873,-1.95501,-0.53483,-1.97146,3.08306,-0.970419,0.0173154,-0.0715595
2623212,1,-1.60521,-0.498475,-0.0310686,-2.07182,-1.58473,1.63659,0.785435,-1.60942,-0.497369,-0.0354618,-2.06767,-1.58756,1.64064,0.785494,-0.807865,0.585409,-0.749638,0.585724,-0.340649,1.51303,-0.00785642,-0.847148,0.616055,-0.82932,0.620788,-0.372076,1.59142,0.0118642,-13.2172,-5.10715,-18.258,22.0905,-2.39836,-1.28061,0.233652,-1.98996,-0.552402,-2.01979,3.08499,-0.982711,0.0128905,-0.0750608
2623213,1,-1.60606,-0.497866,-0.0318585,-2.07122,-1.58509,1.63814,0.785429,-1.61027,-0.496745,-0.0363012,-2.06704,-1.58793,1.64224,0.785507,-0.823443,0.606783,-0.757112,0.59097,-0.344964,1.5121,-0.00713125,-0.853984,0.623533,-0.83931,0.628143,-0.37587,1.60758,0.0123609,-12.7649,-5.2103,-18.1548,22.2373,-2.38646,-1.08103,0.284922,-2.01,-0.604924,-2.04655,3.10936,-0.995599,0.0111928,-0.0773752
2623214,1,-1.60688,-0.497238,-0.032659,-2.07061,-1.58545,1.63973,0.785423,-1.61113,-0.496114,-0.0371505,-2.06641,-1.58831,1.64387,0.785519,-0.826041,0.611802,-0.761268,0.594141,-0.347043,1.52889,-0.00668303,-0.860819,0.631012,-0.8493,0.635499,-0.379664,1.62375,0.0128575,-12.6895,-5.28568,-18.0557,22.388,-2.42033,-0.894261,0.337107,-2.02029,-0.702115,-2.05974,3.15984,-1.00932,0.0113108,-0.0783384
2623215,1,-1.60771,-0.496598,-0.0334702,-2.06999,-1.58581,1.64131,0.785427,-1.612,-0.495476,-0.0380097,-2.06576,-1.58869,1.64551,0.785533,-0.826962,0.613353,-0.775813,0.602906,-0.353229,1.53743,-0.00323171,-0.865636,0.638238,-0.85929,0.642569,-0.38317,1.63805,0.0134816,-12.8403,-5.43643,-17.8256,22.5626,-2.44871,-0.72672,0.304148,-2.02993,-0.82304,-2.07257,3.22588,-1.02372,0.0121053,-0.0779219
2623216,1,-1.60856,-0.495969,-0.0342923,-2.06937,-1.58617,1.64293,0.785443,-1.61287,-0.494831,-0.038879,-2.06511,-1.58908,1.64716,0.785547,-0.838549,0.61927,-0.782713,0.608366,-0.35627,1.54553,0.0033409,-0.870452,0.645464,-0.86928,0.649638,-0.386676,1.65235,0.0141056,-12.6379,-5.4642,-17.7502,22.6618,-2.51097,-0.681859,0.155832,-2.0417,-0.93805,-2.08915,3.29254,-1.03836,0.0136582,-0.0762106
2623217,1,-1.60943,-0.49533,-0.0351221,-2.06874,-1.58654,1.64458,0.785458,-1.61375,-0.494178,-0.0397583,-2.06446,-1.58947,1.64882,0.785562,-0.851342,0.616937,-0.795026,0.612584,-0.35977,1.58955,0.00704392,-0.875268,0.65269,-0.87927,0.656708,-0.390182,1.66665,0.0147296,-12.388,-5.38882,-17.6986,22.6856,-2.55675,-0.778905,0.0258276,-2.05275,-1.02939,-2.10599,3.35143,-1.05289,0.0166627,-0.0734268
2623218,1,-1.6103,-0.494683,-0.0359854,-2.06811,-1.58691,1.64622,0.785472,-1.61463,-0.493518,-0.0406476,-2.06379,-1.58987,1.65051,0.785577,-0.852598,0.634782,-0.806226,0.618115,-0.359898,1.60184,0.00852884,-0.880084,0.659916,-0.88926,0.663777,-0.393688,1.68096,0.0153536,-12.2333,-5.36105,-17.3971,22.6618,-2.54484,-0.868627,-0.077627,-2.06192,-1.09684,-2.12137,3.40291,-1.06732,0.0210779,-0.0699618
2623219,1,-1.61118,-0.494043,-0.0368575,-2.06746,-1.58729,1.6479,0.785472,-1.61551,-0.492851,-0.0415468,-2.06312,-1.59026,1.6522,0.785593,-0.860545,0.635673,-0.819905,0.624504,-0.360665,1.61979,0.0039914,-0.884901,0.667142,-0.89925,0.670847,-0.397194,1.69526,0.0159777,-11.9079,-5.2341,-17.167,22.6618,-2.51646,-1.09385,-0.0318506,-2.06992,-1.15278,-2.13516,3.45208,-1.08185,0.0265117,-0.0662707
2623220,1,-1.61206,-0.493394,-0.0377232,-2.0668,-1.58767,1.64958,0.785479,-1.6164,-0.492177,-0.042456,-2.06244,-1.59066,1.65391,0.78561,-0.862946,0.634868,-0.832672,0.635426,-0.368969,1.64642,0.00740052,-0.889717,0.674368,-0.90924,0.677917,-0.400699,1.70956,0.0166017,-11.6064,-5.08334,-16.9409,22.4118,-2.40385,-1.44175,-0.0318506,-2.07592,-1.1901,-2.14609,3.49412,-1.09632,0.0327701,-0.0627824
2623221,1,-1.61293,-0.492749,-0.0386241,-2.06614,-1.58806,1.65128,0.785484,-1.61729,-0.491495,-0.0433753,-2.06176,-1.59107,1.65563,0.785627,-0.876834,0.637854,-0.845536,0.644993,-0.370465,1.65294,0.00978318,-0.894533,0.681594,-0.91923,0.684986,-0.404205,1.72386,0.0172257,-11.6064,-4.88101,-16.6116,22.1897,-2.38646,-1.51957,-0.0254419,-2.07673,-1.19011,-2.15077,3.51818,-1.11022,0.0397308,-0.059772
2623222,1,-1.61382,-0.492073,-0.0395102,-2.06546,-1.58844,1.65298,0.785495,-1.61819,-0.490806,-0.0443045,-2.06107,-1.59148,1.65737,0.785645,-0.879325,0.646953,-0.861,0.651218,-0.379604,1.66939,0.00890507,-0.899349,0.68882,-0.92922,0.692056,-0.407711,1.73817,0.0178497,-11.5033,-4.95639,-16.3815,21.9397,-2.36449,-1.56443,-0.0712183,-2.06811,-1.1541,-2.14377,3.52364,-1.12325,0.0472492,-0.0573039
2623223,1,-1.61473,-0.491391,-0.0404107,-2.06479,-1.58884,1.65471,0.785517,-1.6191,-0.49011,-0.0452437,-2.06037,-1.59189,1.65912,0.785663,-0.88358,0.651048,-0.871848,0.659232,-0.384177,1.67959,0.0121829,-0.904165,0.696046,-0.93921,0.699125,-0.411217,1.75247,0.0184738,-11.2771,-5.08334,-16.3339,21.7176,-2.3416,-1.60288,-0.225942,-2.05039,-1.09579,-2.12466,3.51683,-1.13544,0.054616,-0.0553564
2623224,1,-1.61562,-0.490695,-0.0413248,-2.06409,-1.58924,1.65643,0.785518,-1.62001,-0.489407,-0.0461929,-2.05966,-1.5923,1.66089,0.785682,-0.889615,0.664378,-0.886469,0.670463,-0.385574,1.6852,0.00637242,-0.908982,0.703272,-0.9492,0.706195,-0.414723,1.76677,0.0190978,-11.2256,-5.36105,-16.2823,21.5668,-2.36449,-1.26139,-0.168264,-2.02637,-1.02741,-2.09659,3.50242,-1.14692,0.0610654,-0.0539806
2623225,1,-1.61652,-0.489999,-0.0422472,-2.0634,-1.58963,1.65817,0.785536,-1.62092,-0.488697,-0.0471521,-2.05895,-1.59272,1.66267,0.785702,-0.886059,0.669101,-0.89545,0.678895,-0.386829,1.70374,0.0109406,-0.91167,0.710067,-0.95919,0.712843,-0.417899,1.77911,0.0198114,-11.3525,-5.51181,-16.2069,21.543,-2.39836,-1.15885,-0.213125,-1.99972,-0.958809,-2.06435,3.48311,-1.15783,0.0660639,-0.0532978
2623226,1,-1.61743,-0.489296,-0.0431861,-2.0627,-1.59003,1.65994,0.785551,-1.62183,-0.48798,-0.0481213,-2.05823,-1.59314,1.66446,0.785723,-0.892591,0.69261,-0.907457,0.684276,-0.392186,1.71338,0.0131513,-0.914359,0.716861,-0.96918,0.71949,-0.421075,1.79144,0.020525,-11.4279,-5.74191,-16.2307,21.4438,-2.42674,-1.13962,-0.225942,-1.97639,-0.906214,-2.0356,3.466,-1.16856,0.0690275,-0.053342
2623227,1,-1.61833,-0.488582,-0.0441146,-2.06199,-1.59045,1.66173,0.785562,-1.62275,-0.487256,-0.0491004,-2.0575,-1.59356,1.66627,0.785744,-0.899974,0.698176,-0.905963,0.684946,-0.400891,1.73568,0.0124423,-0.917048,0.723656,-0.97917,0.726138,-0.424251,1.80378,0.0212386,-11.5271,-5.89267,-16.3339,21.4438,-2.39836,-1.39689,-0.174673,-1.96128,-0.890448,-2.01719,3.46277,-1.17964,0.0696001,-0.0540461
2623228,1,-1.61924,-0.487868,-0.0450773,-2.06128,-1.59087,1.66353,0.78559,-1.62367,-0.486526,-0.0500896,-2.05677,-1.59399,1.66808,0.785766,-0.898804,0.702352,-0.916524,0.700293,-0.403766,1.75087,0.0168623,-0.919736,0.73045,-0.98916,0.732785,-0.427427,1.81611,0.0219523,-11.7056,-5.89267,-16.2585,21.4676,-2.40935,-1.39689,-0.252493,-1.9591,-0.905647,-2.01692,3.47177,-1.19118,0.0673805,-0.0553686
2623229,1,-1.62014,-0.487141,-0.0460498,-2.06056,-1.5913,1.66536,0.785612,-1.62459,-0.485789,-0.0510888,-2.05603,-1.59442,1.66991,0.785788,-0.901197,0.707593,-0.932891,0.704859,-0.41402,1.76564,0.0171578,-0.922425,0.737244,-0.99915,0.739432,-0.430603,1.82845,0.0226659,-11.7056,-6.1188,-16.2069,21.5906,-2.31871,-1.46738,-0.252493,-1.96915,-0.926963,-2.03383,3.48013,-1.20282,0.0626939,-0.057303
2623230,1,-1.62106,-0.486389,-0.0470214,-2.05982,-1.59174,1.66716,0.785619,-1.62552,-0.485044,-0.0520979,-2.05528,-1.59486,1.67175,0.785812,-0.896533,0.713647,-0.950048,0.713048,-0.419819,1.7806,0.0155663,-0.925114,0.744039,-1.00914,0.74608,-0.433779,1.84078,0.0233795,-11.6818,-6.49966,-16.1038,21.7414,-2.27934,-1.40329,-0.077627,-1.98489,-0.942597,-2.05687,3.48265,-1.21413,0.0566273,-0.05983
2623231,1,-1.62196,-0.485619,-0.0480163,-2.0591,-1.59217,1.66898,0.785631,-1.62645,-0.484294,-0.053117,-2.05453,-1.59529,1.6736,0.785836,-0.88947,0.740776,-0.961917,0.71151,-0.424167,1.78259,0.0175134,-0.927802,0.750833,-1.01913,0.752727,-0.436955,1.85312,0.0240931,-11.9318,-6.9559,-15.826,22.0151,-2.23448,-1.26139,0.0322363,-2.00519,-0.969716,-2.08181,3.48959,-1.22525,0.0493861,-0.0627821
2623232,1,-1.62285,-0.484863,-0.0489975,-2.05836,-1.5926,1.67081,0.785641,-1.62738,-0.483536,-0.0541461,-2.05377,-1.59573,1.67547,0.785861,-0.889773,0.74151,-0.968186,0.717867,-0.424617,1.7884,0.0182827,-0.930491,0.757628,-1.02912,0.759375,-0.440131,1.86545,0.0248067,-11.9833,-7.30899,-15.6475,22.2373,-2.39287,-0.984899,0.162241,-2.03468,-1.03293,-2.11357,3.51481,-1.23662,0.0404954,-0.0657937
2623233,1,-1.62379,-0.484105,-0.0499931,-2.05762,-1.59302,1.67265,0.785663,-1.62831,-0.482772,-0.0551853,-2.05301,-1.59618,1.67735,0.785886,-0.898828,0.743898,-0.973545,0.719627,-0.421308,1.81112,0.0194678,-0.93318,0.764422,-1.03911,0.766022,-0.443307,1.87779,0.0255204,-11.7056,-7.30899,-15.6237,22.4872,-2.55125,-0.881444,0.155832,-2.07501,-1.11975,-2.15613,3.55438,-1.24825,0.0302286,-0.0685013
2623234,1,-1.6247,-0.483361,-0.0510168,-2.05688,-1.59345,1.67452,0.785682,-1.62924,-0.482,-0.0562344,-2.05223,-1.59662,1.67924,0.785913,-0.90075,0.743792,-0.988377,0.729762,-0.420798,1.81759,0.0196931,-0.935868,0.771217,-1.0491,0.77267,-0.446483,1.89012,0.026234,-11.5549,-7.15427,-15.473,22.6102,-2.64097,-0.875035,0.162241,-2.12132,-1.19953,-2.20516,3.59452,-1.25986,0.019937,-0.070639
2623235,1,-1.62562,-0.482587,-0.0520419,-2.05613,-1.59389,1.67639,0.785702,-1.63018,-0.481223,-0.0572934,-2.05145,-1.59707,1.68114,0.78594,-0.907175,0.74743,-1.00314,0.73482,-0.423748,1.84273,0.0200292,-0.936418,0.777445,-1.05909,0.778781,-0.449263,1.90047,0.0270145,-11.5787,-7.18204,-15.2706,22.6618,-2.66386,-0.707494,0.155832,-2.16504,-1.25359,-2.24968,3.62569,-1.2713,0.0113404,-0.0720542
2623236,1,-1.62655,-0.481807,-0.0530697,-2.05538,-1.59433,1.67826,0.785716,-1.63112,-0.480439,-0.0583625,-2.05067,-1.59752,1.68305,0.785967,-0.912842,0.748642,-1.00794,0.741896,-0.423049,1.84187,0.018323,-0.936967,0.783673,-1.06908,0.784892,-0.452042,1.91083,0.027795,-11.5549,-7.23361,-15.2944,22.6102,-2.64097,-0.617772,0.200693,-2.20105,-1.27495,-2.28334,3.64416,-1.28262,0.00543997,-0.0726998
2623237,1,-1.62747,-0.481029,-0.0541123,-2.0546,-1.59476,1.68017,0.785723,-1.63206,-0.479649,-0.0594416,-2.04988,-1.59798,1.68497,0.785996,-0.918233,0.753519,-1.01225,0.748706,-0.42288,1.86135,0.0145462,-0.937517,0.789902,-1.07907,0.791003,-0.454822,1.92118,0.0285755,-11.5033,-7.30899,-15.346,22.4634,-2.59611,-0.694677,0.316965,-2.23206,-1.2644,-2.3113,3.65006,-1.29412,0.00208909,-0.0725729
2623238,1,-1.62839,-0.480234,-0.0551628,-2.05381,-1.5952,1.68207,0.785745,-1.63299,-0.478853,-0.0605307,-2.04908,-1.59844,1.6869,0.786025,-0.912035,0.756671,-1.02546,0.762393,-0.428862,1.87896,0.0173951,-0.938066,0.79613,-1.08906,0.797115,-0.457602,1.93154,0.0293561,-11.5271,-7.43594,-15.2429,22.1143,-2.51097,-0.694677,0.284922,-2.26398,-1.22481,-2.34207,3.64259,-1.30593,0.000456461,-0.0716545
2623239,1,-1.62934,-0.479458,-0.0562174,-2.05302,-1.59565,1.68402,0.785764,-1.63393,-0.478051,-0.0616297,-2.04828,-1.5989,1.68884,0.786055,-0.931851,0.76273,-1.03083,0.773299,-0.431361,1.87536,0.014265,-0.938615,0.802359,-1.09905,0.803226,-0.460381,1.94189,0.0301366,-11.174,-7.38437,-15.2191,21.8167,-2.44871,-0.887853,0.259287,-2.29622,-1.15848,-2.37471,3.61932,-1.31778,0.000497,-0.0698929
2623240,1,-1.63028,-0.478672,-0.0572666,-2.0522,-1.5961,1.68593,0.785791,-1.63487,-0.477242,-0.0627387,-2.04747,-1.59936,1.6908,0.786086,-0.936755,0.766314,-1.0348,0.78328,-0.447479,1.92745,0.018254,-0.939165,0.808587,-1.10904,0.809337,-0.463161,1.95224,0.0309171,-10.7733,-7.25742,-15.1675,21.3684,-2.3361,-0.972081,0.181467,-2.32478,-1.06907,-2.40501,3.57961,-1.32928,0.00232793,-0.0672967
2623241,1,-1.63123,-0.477877,-0.0583743,-2.05138,-1.59655,1.68788,0.78582,-1.63581,-0.476427,-0.0638578,-2.04665,-1.59983,1.69276,0.786118,-0.935755,0.768859,-1.05871,0.792506,-0.447761,1.9168,0.0263247,-0.939714,0.814816,-1.11903,0.815448,-0.465941,1.9626,0.0316976,-10.5194,-7.10666,-14.7628,21.0193,-2.21709,-1.06821,0.0844213,-2.34765,-0.960007,-2.43033,3.52467,-1.34006,0.00546755,-0.0640149
2623242,1,-1.63217,-0.477094,-0.059497,-2.05056,-1.597,1.68986,0.785854,-1.63675,-0.475606,-0.0649868,-2.04583,-1.6003,1.69473,0.78615,-0.940675,0.774365,-1.07608,0.803043,-0.445084,1.93217,0.0289962,-0.940263,0.821044,-1.12902,0.821559,-0.468721,1.97295,0.0324781,-10.1901,-6.92813,-14.3343,20.7972,-2.16673,-1.09385,-0.044668,-2.35748,-0.833625,-2.43892,3.45594,-1.34971,0.01058,-0.0603198
2623243,1,-1.63312,-0.476297,-0.0606028,-2.04972,-1.59745,1.69183,0.785891,-1.63769,-0.474779,-0.0661258,-2.045,-1.60077,1.69671,0.786184,-0.941694,0.781322,-1.08311,0.808933,-0.446338,1.94301,0.0356107,-0.940813,0.827272,-1.13901,0.827671,-0.4715,1.9833,0.0332586,-9.91637,-6.82895,-14.0289,20.6226,-2.16673,-1.27421,-0.181082,-2.35099,-0.698121,-2.42548,3.37791,-1.3581,0.0177839,-0.0565566
2623244,1,-1.63408,-0.475502,-0.0617568,-2.04889,-1.59791,1.69385,0.785927,-1.63863,-0.473946,-0.0672748,-2.04417,-1.60124,1.69871,0.786218,-0.946509,0.804575,-1.10487,0.814112,-0.449789,1.96087,0.0384278,-0.941362,0.833501,-1.149,0.833782,-0.47428,1.99366,0.0340392,-9.68627,-6.75357,-13.5726,20.5988,-2.2061,-1.72556,-0.26531,-2.33192,-0.578824,-2.39447,3.30376,-1.36547,0.0258534,-0.0530782
2623245,1,-1.63502,-0.474669,-0.0628969,-2.04804,-1.59836,1.6958,0.785981,-1.63957,-0.473107,-0.0684334,-2.04333,-1.60172,1.70071,0.786253,-0.947299,0.812591,-1.14064,0.818689,-0.45125,1.96213,0.0438281,-0.94008,0.839064,-1.15855,0.839267,-0.476555,2.00188,0.0348761,-9.43633,-6.9559,-13.1918,20.5988,-2.29674,-1.50675,-0.440176,-2.29328,-0.504646,-2.3335,3.24892,-1.37195,0.0350487,-0.0502182
2623246,1,-1.63598,-0.473827,-0.0640353,-2.04719,-1.59882,1.69779,0.786019,-1.64051,-0.472262,-0.0696014,-2.04249,-1.6022,1.70272,0.786288,-0.942757,0.815751,-1.13537,0.823879,-0.452552,1.95317,0.0405502,-0.938797,0.844627,-1.16809,0.844751,-0.47883,2.0101,0.035713,-9.18242,-7.20584,-13.0648,20.7456,-2.39836,-1.28061,-0.420034,-2.23212,-0.473864,-2.2375,3.2146,-1.37764,0.0453829,-0.0483475
2623247,1,-1.63692,-0.472984,-0.0651992,-2.04635,-1.59928,1.6998,0.78607,-1.64145,-0.471412,-0.0707791,-2.04164,-1.60268,1.70474,0.786325,-0.936243,0.827819,-1.14173,0.828266,-0.45043,1.95958,0.0455586,-0.937515,0.850191,-1.17764,0.850236,-0.481105,2.01833,0.0365499,-9.2578,-7.5867,-13.0172,20.8963,-2.44322,-1.08103,-0.465811,-2.16792,-0.471298,-2.13598,3.1948,-1.38327,0.0541397,-0.0478008
2623248,1,-1.63785,-0.472138,-0.0663699,-2.0455,-1.59973,1.70185,0.786117,-1.64239,-0.470556,-0.0719663,-2.04078,-1.60316,1.70677,0.786362,-0.929494,0.831549,-1.14903,0.834721,-0.454498,2.00702,0.0454798,-0.936232,0.855754,-1.18719,0.855721,-0.48338,2.02655,0.0373868,-9.43633,-7.81284,-12.8387,21.1423,-2.48259,-1.24857,-0.407217,-2.12115,-0.491297,-2.05897,3.1868,-1.38961,0.0584846,-0.0487609
2623249,1,-1.6388,-0.471291,-0.0675442,-2.04466,-1.6002,1.70386,0.786175,-1.64332,-0.469695,-0.073163,-2.03992,-1.60365,1.7088,0.786401,-0.931378,0.851255,-1.1539,0.834341,-0.452847,2.00681,0.0488186,-0.934949,0.861317,-1.19674,0.861206,-0.485655,2.03477,0.0382238,-9.48394,-7.88821,-12.8387,21.543,-2.51646,-1.30076,-0.426443,-2.09911,-0.53725,-2.01644,3.1926,-1.39704,0.0574399,-0.0512167
2623250,1,-1.63976,-0.470444,-0.0687209,-2.04381,-1.60068,1.70588,0.786238,-1.64426,-0.468828,-0.0743693,-2.03905,-1.60413,1.71084,0.78644,-0.943985,0.848654,-1.15272,0.839752,-0.458811,2.00556,0.0549267,-0.933667,0.866881,-1.20628,0.866691,-0.487931,2.04299,0.0390607,-9.20623,-8.03897,-13.0648,21.8405,-2.48259,-1.04258,-0.420034,-2.09861,-0.610952,-2.00502,3.21464,-1.40577,0.0518897,-0.0549894
2623251,1,-1.6407,-0.469586,-0.0699062,-2.04294,-1.60116,1.70787,0.786273,-1.64519,-0.467955,-0.0755851,-2.03818,-1.60462,1.71289,0.786479,-0.939427,0.848103,-1.16374,0.844027,-0.465453,2.00844,0.0453712,-0.932384,0.872444,-1.21583,0.872175,-0.490206,2.05122,0.0398976,-9.13085,-8.16592,-13.041,21.9159,-2.38646,-0.855809,-0.149038,-2.1111,-0.688572,-2.0153,3.2431,-1.41551,0.0437614,-0.0598954
2623252,1,-1.6416,-0.468727,-0.0711088,-2.04208,-1.60165,1.70989,0.786317,-1.64612,-0.467077,-0.0768105,-2.0373,-1.60512,1.71495,0.78652,-0.92141,0.84746,-1.16749,0.850289,-0.46556,1.99963,0.042462,-0.931102,0.878007,-1.22538,0.87766,-0.492481,2.05944,0.0407345,-9.53551,-8.34445,-12.9418,21.9635,-2.26835,-0.656224,0.0258276,-2.13556,-0.741884,-2.04638,3.26499,-1.42585,0.0340283,-0.0656714
2623253,1,-1.64251,-0.467851,-0.0723088,-2.04119,-1.60211,1.71196,0.786335,-1.64705,-0.466194,-0.0780454,-2.03642,-1.60561,1.71702,0.786562,-0.90978,0.84961,-1.17714,0.851438,-0.466104,2.04475,0.0339518,-0.929819,0.883571,-1.23493,0.883145,-0.494756,2.06766,0.0415715,-9.76165,-8.52298,-12.8149,21.789,-2.26835,-0.72672,0.375559,-2.1802,-0.763461,-2.10779,3.27684,-1.43664,0.0221176,-0.0718075
2623254,1,-1.64344,-0.46699,-0.0735266,-2.04032,-1.60259,1.714,0.786377,-1.64798,-0.465305,-0.0792899,-2.03553,-1.60611,1.7191,0.786604,-0.912081,0.844365,-1.17965,0.856971,-0.46532,2.03982,0.0292525,-0.928537,0.889134,-1.24447,0.88863,-0.497031,2.07588,0.0424084,-9.76165,-8.36826,-12.8387,21.6144,-2.31322,-0.778905,0.453379,-2.2476,-0.751567,-2.20166,3.27816,-1.44757,0.0079551,-0.0775901
2623255,1,-1.64437,-0.466128,-0.0747754,-2.03942,-1.60307,1.71603,0.78642,-1.6489,-0.464411,-0.080543,-2.03464,-1.60661,1.72118,0.786647,-0.919054,0.84699,-1.19543,0.865742,-0.460747,2.03241,0.0330731,-0.925822,0.893966,-1.25309,0.893407,-0.498625,2.08189,0.0432975,-9.55931,-8.32065,-12.5848,21.3446,-2.46611,-0.560094,0.44697,-2.32472,-0.700206,-2.31027,3.26492,-1.4581,-0.00612412,-0.0822411
2623256,1,-1.64531,-0.465233,-0.0760069,-2.03851,-1.60355,1.71807,0.786449,-1.64983,-0.463512,-0.0818047,-2.03374,-1.60711,1.72327,0.786692,-0.925028,0.856249,-1.20681,0.880383,-0.471397,2.0393,0.0325057,-0.923107,0.898799,-1.26171,0.898185,-0.500218,2.0879,0.0441866,-9.33318,-8.52298,-12.3586,20.9955,-2.52287,-0.398961,0.518381,-2.39235,-0.613299,-2.40708,3.23461,-1.46779,-0.0169813,-0.0851764
