shamilmamedov/beam_handling/log/param_estimation_ICRA/ocp_Z_25cm_0.50s_2.csv
duration, success rate, q[0], q[1], q[2], q[3], q[4], q[5], q[6],q_d[0], q_d[1], q_d[2], q_d[3], q_d[4], q_d[5], q_d[6],dq[0], dq[1], dq[2], dq[3], dq[4], dq[5], dq[6],dq_d[0], dq_d[1], dq_d[2], dq_d[3], dq_d[4], dq_d[5], dq_d[6],tau_J[0], tau_J[1], tau_J[2], tau_J[3], tau_J[4], tau_J[5], tau_J[6],tau_ext_hat_filtered[0], tau_ext_hat_filtered[1], tau_ext_hat_filtered[2], tau_ext_hat_filtered[3], tau_ext_hat_filtered[4], tau_ext_hat_filtered[5], tau_ext_hat_filtered[6]
1096090,0,-1.57087,-0.522941,0.000335291,-2.09672,-0.000971086,1.57114,0.784965,-1.5708,-0.523599,5.09298e-07,-2.0944,-9.63998e-07,1.5708,0.785397,-0.000109529,-0.000235442,-0.000580608,0.00168782,-0.000186747,0.000332889,-0.000926937,0,0,0,0,0,0,0,0.0732535,-10.0385,-0.861447,21.7414,1.49172,1.44308,0.278513,0.0703086,-0.920188,-0.415493,3.26551,0.770504,-0.219059,0.253722
1096091,1,-1.57087,-0.522938,0.00033724,-2.09673,-0.000969255,1.57114,0.784962,-1.5708,-0.523599,5.09298e-07,-2.0944,-9.63998e-07,1.5708,0.785397,-0.000722633,0.00104946,0.000262542,-0.000638023,0.000485853,0.000221926,-0.00156739,0,0,0,0,0,0,0,0.101024,-10.0901,-0.889218,21.8167,1.47524,1.44308,0.304148,0.0709428,-0.920412,-0.414429,3.26527,0.770519,-0.21914,0.253705
1096092,1,-1.57087,-0.522936,0.00033891,-2.09673,-0.000971086,1.57114,0.78497,-1.5708,-0.523599,5.09298e-07,-2.0944,-9.63998e-07,1.5708,0.785397,0.000167858,0.000699643,0.00073184,-0.000982161,-0.000286449,-8.94081e-05,0.00156602,0,0,0,0,0,0,0,0.0732535,-10.0901,-0.913022,21.8405,1.49172,1.44949,0.233652,0.0712953,-0.923253,-0.413898,3.26654,0.77056,-0.219094,0.253745
1096093,1,-1.57087,-0.522939,0.000335291,-2.09673,-0.000970476,1.57114,0.784971,-1.5708,-0.523599,5.09298e-07,-2.0944,-9.63998e-07,1.5708,0.785397,0.000111906,-0.000739997,-0.000718533,-0.000654774,1.24842e-05,-0.000296964,0.00155264,0,0,0,0,0,0,0,0.0732535,-10.0385,-0.861447,21.8405,1.48622,1.4559,0.219919,0.0711515,-0.927592,-0.414153,3.2692,0.770605,-0.218902,0.253857
1096094,1,-1.57086,-0.52294,0.00033724,-2.09673,-0.000971086,1.57114,0.784965,-1.5708,-0.523599,5.09298e-07,-2.0944,-9.63998e-07,1.5708,0.785397,0.00118823,6.34805e-05,0.000170592,0.000120296,-0.000195128,3.93827e-05,5.17486e-05,0,0,0,0,0,0,0,0.0256461,-10.0623,-0.889218,21.8167,1.49172,1.44949,0.24647,0.0707537,-0.930313,-0.414658,3.27137,0.770628,-0.218734,0.253988
1096095,1,-1.57087,-0.522938,0.00033724,-2.09672,-0.000971086,1.57114,0.784968,-1.5708,-0.523599,5.09298e-07,-2.0944,-9.63998e-07,1.5708,0.785397,-0.000971086,4.23203e-05,0.000113728,0.00128662,-0.000130085,2.62551e-05,0.000271858,0,0,0,0,0,0,0,0.101024,-10.0623,-0.889218,21.7652,1.49172,1.44949,0.240061,0.0701692,-0.93107,-0.415341,3.27216,0.770618,-0.218701,0.254077
1096096,1,-1.57086,-0.522938,0.00033724,-2.09672,-0.000971086,1.57114,0.784965,-1.5708,-0.523599,5.09298e-07,-2.0944,-9.63998e-07,1.5708,0.785397,0.000559035,2.82136e-05,7.58187e-05,0.00141456,-8.67234e-05,1.75034e-05,-0.00100556,0,0,0,0,0,0,0,0.0494498,-10.0623,-0.889218,21.7414,1.49172,1.44949,0.272104,0.069697,-0.930206,-0.415891,3.2713,0.770589,-0.218849,0.254111
1096097,1,-1.57087,-0.522938,0.00033891,-2.09673,-0.000969255,1.57114,0.784964,-1.5708,-0.523599,5.09298e-07,-2.0944,-9.63998e-07,1.5708,0.785397,-0.000833736,1.8809e-05,0.000607358,-0.00137701,0.000552536,1.1669e-05,-0.00090773,0,0,0,0,0,0,0,0.101024,-10.0623,-0.913022,21.8405,1.47524,1.44949,0.278513,0.0693089,-0.928913,-0.416386,3.26998,0.770572,-0.219039,0.254104
1096098,1,-1.57086,-0.522937,0.000340859,-2.09673,-0.000970476,1.57114,0.784969,-1.5708,-0.523599,5.09298e-07,-2.0944,-9.63998e-07,1.5708,0.785397,0.000650602,1.25394e-05,0.00105452,-0.000918006,-3.85437e-05,0.000245138,0.00105636,0,0,0,0,0,0,0,0.0494498,-10.0623,-0.940793,21.8405,1.48622,1.44308,0.233652,0.06853,-0.929031,-0.417573,3.27008,0.770581,-0.21906,0.2541
1096099,1,-1.57087,-0.522937,0.00033891,-2.09672,-0.000970476,1.57114,0.784971,-1.5708,-0.523599,5.09298e-07,-2.0944,-9.63998e-07,1.5708,0.785397,-0.000123077,8.35957e-06,5.33988e-05,0.000594422,-2.56958e-05,0.000163425,0.00121287,0,0,0,0,0,0,0,0.0732535,-10.0623,-0.913022,21.789,1.48622,1.44308,0.219919,0.0673115,-0.929999,-0.419487,3.27108,0.770586,-0.218986,0.254117
1096100,1,-1.57087,-0.522935,0.00033891,-2.09672,-0.000970476,1.57114,0.784965,-1.5708,-0.523599,5.09298e-07,-2.0944,-9.63998e-07,1.5708,0.785397,-8.20515e-05,0.000655187,3.55992e-05,0.000396281,-1.71306e-05,-0.000128409,-0.0011242,0,0,0,0,0,0,0,0.0732535,-10.0901,-0.913022,21.789,1.48622,1.44949,0.272104,0.0663973,-0.930812,-0.420972,3.27164,0.770584,-0.218979,0.25412
1096101,1,-1.57087,-0.522934,0.000335291,-2.09673,-0.000971086,1.57114,0.784965,-1.5708,-0.523599,5.09298e-07,-2.0944,-9.63998e-07,1.5708,0.785397,-5.4701e-05,0.000993603,-0.00118269,0.000264187,-0.000214871,-8.56057e-05,-0.000749468,0,0,0,0,0,0,0,0.0732535,-10.1139,-0.861447,21.789,1.49172,1.44949,0.272104,0.0665056,-0.932451,-0.420932,3.27213,0.770619,-0.219012,0.254082
1096102,1,-1.57087,-0.522941,0.00033891,-2.09672,-0.000971086,1.57114,0.784965,-1.5708,-0.523599,5.09298e-07,-2.0944,-9.63998e-07,1.5708,0.785397,-3.64673e-05,-0.00175045,0.000417964,0.000732937,-0.000143247,0.000417647,-0.000499646,0,0,0,0,0,0,0,0.0732535,-10.0107,-0.913022,21.7652,1.49172,1.43667,0.272104,0.0673828,-0.933404,-0.419724,3.27204,0.770681,-0.219103,0.254031
1096103,1,-1.57087,-0.522938,0.000335291,-2.09673,-0.000969255,1.57114,0.78497,-1.5708,-0.523599,5.09298e-07,-2.0944,-9.63998e-07,1.5708,0.785397,-2.43116e-05,0.000689073,-0.000927783,-6.81873e-05,0.000514853,-0.000433645,0.00231176,0,0,0,0,0,0,0,0.0732535,-10.0901,-0.861447,21.789,1.47524,1.4559,0.200693,0.0684154,-0.931885,-0.418281,3.27071,0.770731,-0.219288,0.254002
1096104,1,-1.57086,-0.522942,0.000340859,-2.09672,-0.000971798,1.57114,0.784967,-1.5708,-0.523599,5.09298e-07,-2.0944,-9.63998e-07,1.5708,0.785397,0.000540604,-0.00139666,0.00123752,-4.54582e-05,-0.000504475,-5.17379e-05,-0.000154248,0,0,0,0,0,0,0,0.0494498,-10.0107,-0.940793,21.789,1.49812,1.44949,0.24647,0.0690273,-0.929499,-0.417454,3.26917,0.77076,-0.219471,0.253991
1096105,1,-1.57086,-0.522939,0.000340859,-2.09672,-0.000970476,1.57114,0.784966,-1.5708,-0.523599,5.09298e-07,-2.0944,-9.63998e-07,1.5708,0.785397,0.000917215,-0.000281491,0.000825012,0.000526506,0.000104493,-3.44919e-05,-0.000814909,0,0,0,0,0,0,0,0.0256461,-10.0385,-0.940793,21.7652,1.48622,1.44949,0.265696,0.0682959,-0.926361,-0.418606,3.26747,0.770726,-0.219648,0.253956
1096106,1,-1.57087,-0.522941,0.00033724,-2.09672,-0.000970476,1.57114,0.784962,-1.5708,-0.523599,5.09298e-07,-2.0944,-9.63998e-07,1.5708,0.785397,-0.000502147,-0.000837275,-0.000656418,-0.000205808,6.96619e-05,0.000214364,-0.00196743,0,0,0,0,0,0,0,0.0732535,-10.0107,-0.889218,21.789,1.48622,1.44308,0.304148,0.0669002,-0.922548,-0.420726,3.26547,0.770666,-0.219836,0.253888
1096107,1,-1.57086,-0.52294,0.00033891,-2.09673,-0.000970476,1.57114,0.784967,-1.5708,-0.523599,5.09298e-07,-2.0944,-9.63998e-07,1.5708,0.785397,0.000778859,0.000648243,0.0001192,-0.000786819,4.64413e-05,-0.000331808,0.0015706,0,0,0,0,0,0,0,0.0256461,-10.0623,-0.913022,21.8167,1.48622,1.4559,0.226328,0.0661993,-0.920217,-0.421771,3.26436,0.770668,-0.219935,0.25383
1096108,1,-1.57086,-0.52294,0.000335291,-2.09672,-0.000971086,1.57114,0.784967,-1.5708,-0.523599,5.09298e-07,-2.0944,-9.63998e-07,1.5708,0.785397,-3.75726e-05,-0.00012465,-0.00112696,0.00068188,-0.00017249,0.000253512,0.00128442,0,0,0,0,0,0,0,0.0494498,-10.0385,-0.861447,21.7652,1.49172,1.44308,0.219919,0.0661738,-0.920219,-0.421696,3.26448,0.770724,-0.219928,0.253815
1096109,1,-1.57087,-0.522941,0.00033724,-2.09672,-0.000969865,1.57114,0.784964,-1.5708,-0.523599,5.09298e-07,-2.0944,-9.63998e-07,1.5708,0.785397,-0.00058186,-0.000732714,-0.000101692,-0.000102225,0.000291908,0.000169008,0.000110298,0,0,0,0,0,0,0,0.0732535,-10.0107,-0.889218,21.789,1.48073,1.44308,0.240061,0.0668815,-0.920481,-0.42044,3.2645,0.770811,-0.219944,0.253803
1096110,1,-1.57087,-0.522938,0.00033724,-2.09673,-0.000969865,1.57114,0.784966,-1.5708,-0.523599,5.09298e-07,-2.0944,-9.63998e-07,1.5708,0.785397,-0.000387907,0.00071795,-6.77948e-05,-0.000717764,0.000194605,-0.000124687,-0.000401186,0,0,0,0,0,0,0,0.0732535,-10.0623,-0.889218,21.8167,1.48073,1.44949,0.252878,0.0680586,-0.920668,-0.418522,3.26448,0.770924,-0.219961,0.253747
1096111,1,-1.57087,-0.522941,0.00033891,-2.09672,-0.000969255,1.57114,0.784967,-1.5708,-0.523599,5.09298e-07,-2.0944,-9.63998e-07,1.5708,0.785397,-0.000258605,-7.81787e-05,0.000511615,0.000171104,0.000333187,-8.31245e-05,-0.000267457,0,0,0,0,0,0,0,0.0732535,-10.0385,-0.913022,21.789,1.47524,1.44949,0.252878,0.0689489,-0.92225,-0.417098,3.26533,0.771034,-0.219907,0.25365
1096112,1,-1.57087,-0.52294,0.00033724,-2.09673,-0.000971086,1.57114,0.784966,-1.5708,-0.523599,5.09298e-07,-2.0944,-9.63998e-07,1.5708,0.785397,0.000384409,-5.21191e-05,-0.000215735,-0.00109236,-0.000388227,-5.54164e-05,-0.000653023,0,0,0,0,0,0,0,0.0494498,-10.0385,-0.889218,21.8405,1.49172,1.44949,0.265696,0.0692467,-0.92441,-0.416559,3.26659,0.771108,-0.219817,0.253535
1096113,1,-1.57086,-0.52294,0.00033724,-2.09673,-0.000969865,1.57114,0.784967,-1.5708,-0.523599,5.09298e-07,-2.0944,-9.63998e-07,1.5708,0.785397,0.000256273,0.000522066,-0.000143823,-0.000728237,0.000148083,-3.69442e-05,3.93694e-05,0,0,0,0,0,0,0,0.0494498,-10.0623,-0.889218,21.8405,1.48073,1.44949,0.252878,0.0691268,-0.926999,-0.41655,3.26838,0.771154,-0.219674,0.253422
1096114,1,-1.57087,-0.522942,0.00033891,-2.09672,-0.000971086,1.57114,0.784971,-1.5708,-0.523599,5.09298e-07,-2.0944,-9.63998e-07,1.5708,0.785397,-0.000385964,-0.000858382,0.00046093,0.000720934,-0.000308179,-0.000261988,0.00124695,0,0,0,0,0,0,0,0.0732535,-10.0107,-0.913022,21.789,1.49172,1.4559,0.219919,0.06882,-0.92917,-0.416765,3.26999,0.771174,-0.21955,0.253326
1096115,1,-1.57087,-0.52294,0.00033724,-2.09673,-0.000971798,1.57114,0.784967,-1.5708,-0.523599,5.09298e-07,-2.0944,-9.63998e-07,1.5708,0.785397,-0.000906923,0.000634171,-0.000249525,-0.000168991,-0.000442812,6.27e-05,-0.000389404,0,0,0,0,0,0,0,0.101024,-10.0623,-0.889218,21.8167,1.49812,1.44949,0.252878,0.0687045,-0.929652,-0.416796,3.27044,0.77117,-0.219545,0.253234
1096118,0.97,-1.57086,-0.52294,0.00033891,-2.09673,-0.000970476,1.57114,0.784967,-1.5708,-0.523599,5.09298e-07,-2.0944,-9.63998e-07,1.5708,0.785397,0.000576811,4.35439e-05,0.000627237,-0.000452213,-2.57105e-05,4.4951e-05,0.00057786,0,0,0,0,0,0,0,0.0494498,-10.0623,-0.913022,21.8167,1.48622,1.44949,0.226328,0.0702778,-0.934193,-0.414141,3.27168,0.771249,-0.219633,0.252839
1096119,0.96,-1.57087,-0.522942,0.000335291,-2.09673,-0.000973019,1.57114,0.784961,-1.5708,-0.523599,5.09298e-07,-2.0944,-9.63998e-07,1.5708,0.785397,-0.000172271,-0.0011774,-0.000788268,0.000348138,-0.000864851,-0.000207392,-0.00131018,0,0,0,0,0,0,0,0.0732535,-10.0107,-0.861447,21.789,1.50911,1.4559,0.272104,0.0697742,-0.933384,-0.414715,3.27094,0.771203,-0.219741,0.252667
1096120,0.96,-1.57087,-0.522939,0.00033891,-2.09672,-0.000969865,1.57114,0.784963,-1.5708,-0.523599,5.09298e-07,-2.0944,-9.63998e-07,1.5708,0.785397,-0.000764461,-0.000135317,0.000680914,0.000788904,0.000474594,-0.00037562,-0.00111081,0,0,0,0,0,0,0,0.101024,-10.0385,-0.913022,21.7652,1.48073,1.46231,0.278513,0.0695213,-0.930329,-0.414973,3.26922,0.771169,-0.219897,0.252467
1096121,0.96,-1.57087,-0.522938,0.00033724,-2.09673,-0.000971086,1.57114,0.784963,-1.5708,-0.523599,5.09298e-07,-2.0944,-9.63998e-07,1.5708,0.785397,-0.000509641,0.000466601,-0.000102869,-0.0012373,-9.05052e-05,0.000224305,-0.000977901,0,0,0,0,0,0,0,0.101024,-10.0623,-0.889218,21.8405,1.49172,1.44949,0.284922,0.0696073,-0.927419,-0.414901,3.26764,0.771177,-0.220015,0.252283
1096122,0.96,-1.57087,-0.522937,0.00033724,-2.09673,-0.000969865,1.57114,0.784965,-1.5708,-0.523599,5.09298e-07,-2.0944,-9.63998e-07,1.5708,0.785397,0.000309853,0.000311067,-6.85795e-05,-0.000824868,0.000346564,-8.78226e-05,-0.000177216,0,0,0,0,0,0,0,0.0732535,-10.0623,-0.889218,21.8405,1.48073,1.4559,0.272104,0.0697658,-0.927342,-0.414828,3.26793,0.77124,-0.219935,0.252169
1096123,0.96,-1.57087,-0.522936,0.000335291,-2.09673,-0.000970476,1.57114,0.784969,-1.5708,-0.523599,5.09298e-07,-2.0944,-9.63998e-07,1.5708,0.785397,0.000206569,0.0014138,-0.000695334,0.000656514,2.75923e-05,0.000416169,0.00130601,0,0,0,0,0,0,0,0.0732535,-10.1139,-0.861447,21.789,1.48622,1.44308,0.233652,0.069966,-0.929773,-0.414638,3.26959,0.771331,-0.219733,0.252149
1096124,0.96,-1.57086,-0.52294,0.000335291,-2.09673,-0.000971798,1.57114,0.784968,-1.5708,-0.523599,5.09298e-07,-2.0944,-9.63998e-07,1.5708,0.785397,0.000694525,-0.00026389,-0.000463556,-0.00132556,-0.000422415,-0.000197272,0.000395955,0,0,0,0,0,0,0,0.0494498,-10.0623,-0.861447,21.8644,1.49812,1.4559,0.24647,0.0702269,-0.933264,-0.414216,3.27158,0.771417,-0.219522,0.252202
1096125,0.96,-1.57086,-0.522942,0.00033891,-2.09673,-0.000971086,1.57114,0.784965,-1.5708,-0.523599,5.09298e-07,-2.0944,-9.63998e-07,1.5708,0.785397,0.000463016,-0.000732739,0.000897389,0.000229916,-4.42508e-05,-0.000368873,-0.000685466,0,0,0,0,0,0,0,0.0494498,-10.0385,-0.913022,21.8167,1.49172,1.46231,0.272104,0.0700063,-0.935388,-0.4144,3.2731,0.771473,-0.219335,0.252283
1096126,0.96,-1.57087,-0.522937,0.00033362,-2.09672,-0.000971086,1.57114,0.784965,-1.5708,-0.523599,5.09298e-07,-2.0944,-9.63998e-07,1.5708,0.785397,-0.000248134,0.000717934,-0.00116498,0.000802891,-2.95005e-05,0.000228802,-0.000694336,0,0,0,0,0,0,0,0.0732535,-10.0901,-0.837644,21.789,1.49172,1.44949,0.278513,0.0694102,-0.935194,-0.4151,3.27338,0.771496,-0.219252,0.252371
1096127,0.96,-1.57087,-0.522934,0.00033724,-2.09672,-0.000971798,1.57114,0.784966,-1.5708,-0.523599,5.09298e-07,-2.0944,-9.63998e-07,1.5708,0.785397,-0.000815037,0.00103543,0.000429773,0.000535261,-0.000257026,-0.000322183,0.00119862,0,0,0,0,0,0,0,0.101024,-10.1139,-0.889218,21.789,1.49812,1.46231,0.233652,0.0694843,-0.935032,-0.414828,3.27302,0.771546,-0.219255,0.252476
1096128,0.96,-1.57087,-0.522936,0.000335291,-2.09673,-0.000968034,1.57114,0.784971,-1.5708,-0.523599,5.09298e-07,-2.0944,-9.63998e-07,1.5708,0.785397,0.000106256,0.000133478,-0.000363098,-0.000849585,0.00108326,0.000259929,0.00154507,0,0,0,0,0,0,0,0.0732535,-10.0901,-0.861447,21.8405,1.46425,1.44949,0.213511,0.0700506,-0.936243,-0.413895,3.27313,0.771635,-0.219223,0.252603
1096129,0.96,-1.57087,-0.522937,0.00033891,-2.09673,-0.000969865,1.57114,0.784964,-1.5708,-0.523599,5.09298e-07,-2.0944,-9.63998e-07,1.5708,0.785397,-0.000578777,-0.000560629,0.00096436,-0.00056639,0.000111822,-6.40728e-05,-0.000428018,0,0,0,0,0,0,0,0.101024,-10.0623,-0.913022,21.8405,1.48073,1.4559,0.252878,0.0703347,-0.937393,-0.413447,3.27368,0.771723,-0.219114,0.252713
1096130,0.96,-1.57087,-0.522941,0.000335291,-2.09673,-0.000971086,1.57114,0.784969,-1.5708,-0.523599,5.09298e-07,-2.0944,-9.63998e-07,1.5708,0.785397,0.000263763,-0.00158018,-0.000563519,0.000179218,-0.000332353,0.000194644,0.000697999,0,0,0,0,0,0,0,0.0732535,-10.0107,-0.861447,21.8167,1.49172,1.44949,0.226328,0.0702764,-0.935995,-0.413569,3.27343,0.771767,-0.219034,0.252764
1096131,0.96,-1.57087,-0.522937,0.00033362,-2.09673,-0.000971798,1.57114,0.784966,-1.5708,-0.523599,5.09298e-07,-2.0944,-9.63998e-07,1.5708,0.785397,-0.00103058,0.000152974,-0.000932491,-0.000437333,-0.000458927,0.000129762,-0.000992729,0,0,0,0,0,0,0,0.124828,-10.0623,-0.837644,21.8405,1.49812,1.44949,0.265696,0.0707306,-0.932191,-0.412944,3.27209,0.771795,-0.219037,0.252746
1096132,0.96,-1.57086,-0.522937,0.00033891,-2.09673,-0.000970476,1.57114,0.784969,-1.5708,-0.523599,5.09298e-07,-2.0944,-9.63998e-07,1.5708,0.785397,0.00163299,0.000101982,0.00114158,0.000265257,0.000134858,8.65083e-05,0.000287616,0,0,0,0,0,0,0,0.0256461,-10.0623,-0.913022,21.8167,1.48622,1.44949,0.240061,0.071327,-0.929027,-0.412059,3.27099,0.771824,-0.219043,0.252679
1096133,0.96,-1.57087,-0.522936,0.00033724,-2.09673,-0.000968645,1.57114,0.784965,-1.5708,-0.523599,5.09298e-07,-2.0944,-9.63998e-07,1.5708,0.785397,-0.000674575,0.00127441,0.000204239,0.000826452,0.000700257,-0.000179687,-4.56148e-05,0,0,0,0,0,0,0,0.101024,-10.1139,-0.889218,21.789,1.46974,1.4559,0.24647,0.0707965,-0.928061,-0.412793,3.27061,0.771802,-0.219037,0.252592
1096134,0.96,-1.57087,-0.522936,0.00033724,-2.09673,-0.000970476,1.57114,0.784969,-1.5708,-0.523599,5.09298e-07,-2.0944,-9.63998e-07,1.5708,0.785397,-0.000449717,0.000292797,0.00013616,-0.000655458,-0.000143514,0.000354927,0.000715575,0,0,0,0,0,0,0,0.101024,-10.0901,-0.889218,21.8405,1.48622,1.44308,0.226328,0.0700464,-0.92928,-0.413929,3.27095,0.77177,-0.219009,0.25249
1096135,0.96,-1.57087,-0.522939,0.00033724,-2.09673,-0.000969865,1.57114,0.784967,-1.5708,-0.523599,5.09298e-07,-2.0944,-9.63998e-07,1.5708,0.785397,-0.000299811,-0.00101123,9.07731e-05,0.00011984,0.000107775,0.000236618,-0.000506294,0,0,0,0,0,0,0,0.101024,-10.0385,-0.889218,21.8167,1.48073,1.44308,0.252878,0.0699521,-0.93063,-0.414251,3.27152,0.77176,-0.218963,0.252361
1096136,0.96,-1.57087,-0.522941,0.00033724,-2.09673,-0.000971086,1.57114,0.784964,-1.5708,-0.523599,5.09298e-07,-2.0944,-9.63998e-07,1.5708,0.785397,0.00044974,-0.00132377,6.05154e-05,0.000729507,-0.000335051,0.000157745,-0.00152432,0,0,0,0,0,0,0,0.0732535,-10.0107,-0.889218,21.789,1.49172,1.44308,0.284922,0.0700176,-0.928835,-0.414401,3.27072,0.771717,-0.219027,0.2522
1096137,0.96,-1.57087,-0.52294,0.000335291,-2.09673,-0.000971086,1.57114,0.78496,-1.5708,-0.523599,5.09298e-07,-2.0944,-9.63998e-07,1.5708,0.785397,0.000299827,0.000323915,-0.00060927,-0.000163276,-0.000223367,-0.000132195,-0.00125357,0,0,0,0,0,0,0,0.0732535,-10.0623,-0.861447,21.8167,1.49172,1.44949,0.291331,0.0700772,-0.924871,-0.414506,3.26881,0.771644,-0.2192,0.252038
1096138,0.96,-1.57086,-0.522938,0.00033724,-2.09672,-0.000969865,1.57114,0.784962,-1.5708,-0.523599,5.09298e-07,-2.0944,-9.63998e-07,1.5708,0.785397,0.00131351,0.000215944,0.000243434,0.000540763,0.000257989,-0.000325489,0.000113719,0,0,0,0,0,0,0,0.0256461,-10.0623,-0.889218,21.789,1.48073,1.4559,0.265696,0.0699671,-0.922287,-0.414709,3.26753,0.77157,-0.219342,0.251936
1096139,0.96,-1.57087,-0.522936,0.00033891,-2.09673,-0.000969865,1.57114,0.784967,-1.5708,-0.523599,5.09298e-07,-2.0944,-9.63998e-07,1.5708,0.785397,-0.000237952,0.00135039,0.000719101,0.000360509,0.000171993,0.000257725,0.00102525,0,0,0,0,0,0,0,0.0732535,-10.1139,-0.913022,21.789,1.48073,1.44308,0.240061,0.0692713,-0.92244,-0.415669,3.2674,0.771486,-0.219416,0.25193
1096140,0.96,-1.57087,-0.52294,0.000337421,-2.09672,-0.000969865,1.57114,0.784965,-1.5708,-0.523599,5.09298e-07,-2.0944,-9.63998e-07,1.5708,0.785397,-0.000158634,-0.000862979,-0.000727025,0.000240339,0.000114662,-6.55422e-05,0.000683499,0,0,0,0,0,0,0,0.0732535,-10.0385,-0.861447,21.789,1.48073,1.44949,0.240061,0.0686366,-0.924002,-0.416566,3.26779,0.771411,-0.219464,0.251996
1096141,0.96,-1.57087,-0.522939,0.00033795,-2.09673,-0.000970476,1.57114,0.784968,-1.5708,-0.523599,5.09298e-07,-2.0944,-9.63998e-07,1.5708,0.785397,-0.000105756,-0.000575319,0.00016493,-0.000489388,-0.000127009,-4.36948e-05,0.000693025,0,0,0,0,0,0,0,0.0732535,-10.0385,-0.889218,21.8167,1.48622,1.44949,0.233652,0.0687888,-0.924407,-0.416336,3.26781,0.771366,-0.21952,0.252081
1096142,0.96,-1.57087,-0.522938,0.000335527,-2.09673,-0.000971086,1.57114,0.784966,-1.5708,-0.523599,5.09298e-07,-2.0944,-9.63998e-07,1.5708,0.785397,0.000486308,0.000173266,-0.00053966,-0.000326258,-0.000288123,0.000682947,-0.000487419,0,0,0,0,0,0,0,0.0494498,-10.0623,-0.861447,21.8167,1.49172,1.43026,0.259287,0.0692906,-0.923935,-0.415544,3.2678,0.771341,-0.219551,0.252148
1096143,0.96,-1.57086,-0.522941,0.000340938,-2.09672,-0.000971798,1.57114,0.784963,-1.5708,-0.523599,5.09298e-07,-2.0944,-9.63998e-07,1.5708,0.785397,0.000324205,-0.000441301,0.00149627,0.00098892,-0.000429441,-0.000256779,-0.00151174,0,0,0,0,0,0,0,0.0494498,-10.0385,-0.940793,21.7652,1.49812,1.44949,0.291331,0.0692856,-0.92356,-0.415433,3.26785,0.771301,-0.219591,0.252188
1096144,0.96,-1.57087,-0.522942,0.000340885,-2.09673,-0.000969255,1.57114,0.784963,-1.5708,-0.523599,5.09298e-07,-2.0944,-9.63998e-07,1.5708,0.785397,-0.000990289,-0.000294201,0.000997511,-0.000547146,0.000561416,6.6173e-05,0.000178968,0,0,0,0,0,0,0,0.101024,-10.0385,-0.940793,21.8167,1.47524,1.44308,0.259287,0.0684146,-0.922597,-0.416704,3.26745,0.771226,-0.219693,0.25223
1096145,0.96,-1.57087,-0.522938,0.000338919,-2.09672,-0.000970476,1.57114,0.784969,-1.5708,-0.523599,5.09298e-07,-2.0944,-9.63998e-07,1.5708,0.785397,-1.05788e-05,0.000360678,1.53933e-05,0.00028485,-3.26234e-05,4.41154e-05,0.00134001,0,0,0,0,0,0,0,0.0732535,-10.0623,-0.913022,21.789,1.48622,1.44308,0.226328,0.0675156,-0.921923,-0.418218,3.26721,0.771168,-0.219791,0.252305
1096146,0.96,-1.57086,-0.522939,0.000337242,-2.09672,-0.000969865,1.57114,0.784971,-1.5708,-0.523599,5.09298e-07,-2.0944,-9.63998e-07,1.5708,0.785397,0.000549759,-0.00031636,-0.00054655,0.000746712,0.000181702,-0.000207949,0.00136806,0,0,0,0,0,0,0,0.0494498,-10.0385,-0.889218,21.7652,1.48073,1.44949,0.213511,0.0672621,-0.92186,-0.418776,3.26711,0.77114,-0.219893,0.252397
1096147,0.96,-1.57086,-0.52294,0.000337241,-2.09673,-0.000969865,1.57114,0.784964,-1.5708,-0.523599,5.09298e-07,-2.0944,-9.63998e-07,1.5708,0.785397,0.000366506,0.000345905,-0.000364366,-5.90039e-05,0.000121134,9.87265e-05,-0.00173282,0,0,0,0,0,0,0,0.0494498,-10.0623,-0.889218,21.789,1.48073,1.44308,0.284922,0.0674853,-0.921818,-0.418463,3.26675,0.771121,-0.220032,0.252456
1096148,0.96,-1.57087,-0.522938,0.00033724,-2.09673,-0.000970476,1.57114,0.784965,-1.5708,-0.523599,5.09298e-07,-2.0944,-9.63998e-07,1.5708,0.785397,0.000244338,0.000230604,-0.000242911,-3.9336e-05,-0.000122694,-0.000171541,-0.000917852,0,0,0,0,0,0,0,0.0494498,-10.0623,-0.889218,21.789,1.48622,1.44949,0.278513,0.0679347,-0.922557,-0.417685,3.26678,0.771117,-0.220134,0.252466
1096149,0.96,-1.57087,-0.522941,0.00033891,-2.09673,-0.000970476,1.57114,0.784966,-1.5708,-0.523599,5.09298e-07,-2.0944,-9.63998e-07,1.5708,0.785397,-0.00104353,-0.000403076,0.000394871,-0.00123265,-8.17962e-05,-0.000114361,-0.000137183,0,0,0,0,0,0,0,0.101024,-10.0385,-0.913022,21.8405,1.48622,1.44949,0.265696,0.0685475,-0.924162,-0.416705,3.26758,0.771139,-0.220144,0.252472
1096150,0.96,-1.57087,-0.522938,0.00033724,-2.09672,-0.000971798,1.57114,0.784965,-1.5708,-0.523599,5.09298e-07,-2.0944,-9.63998e-07,1.5708,0.785397,0.000510736,0.000288094,-0.000293564,0.000941471,-0.00049534,-7.62406e-05,0.000620621,0,0,0,0,0,0,0,0.0494498,-10.0623,-0.889218,21.7652,1.49812,1.44949,0.24647,0.0692691,-0.925672,-0.415682,3.26861,0.771173,-0.220114,0.252513
1096151,0.96,-1.57086,-0.522938,0.00033724,-2.09672,-0.000969865,1.57114,0.784968,-1.5708,-0.523599,5.09298e-07,-2.0944,-9.63998e-07,1.5708,0.785397,0.000340491,0.000192063,-0.00019571,7.08356e-05,0.000314033,-5.0827e-05,0.000888465,0,0,0,0,0,0,0,0.0494498,-10.0623,-0.889218,21.789,1.48073,1.44949,0.233652,0.0698145,-0.926762,-0.414872,3.26913,0.771189,-0.220137,0.252591
1096152,0.96,-1.57086,-0.522939,0.00033891,-2.09673,-0.000969255,1.57114,0.784968,-1.5708,-0.523599,5.09298e-07,-2.0944,-9.63998e-07,1.5708,0.785397,0.000226994,-0.00042877,0.000426339,-0.00060239,0.000412806,-0.000271244,0.000117592,0,0,0,0,0,0,0,0.0494498,-10.0385,-0.913022,21.8167,1.47524,1.4559,0.24647,0.0699054,-0.927514,-0.414622,3.26934,0.771183,-0.220179,0.252674
1096153,0.96,-1.57087,-0.522939,0.00033724,-2.09673,-0.000969865,1.57114,0.784967,-1.5708,-0.523599,5.09298e-07,-2.0944,-9.63998e-07,1.5708,0.785397,-0.000405483,-0.000285847,-0.000272586,0.00024802,7.17534e-05,-0.000180829,-0.000158964,0,0,0,0,0,0,0,0.0732535,-10.0385,-0.889218,21.789,1.48073,1.4559,0.252878,0.0697467,-0.927568,-0.414737,3.26943,0.771167,-0.220197,0.252734
1096154,0.96,-1.57086,-0.522937,0.00033891,-2.09673,-0.000971086,1.57114,0.784962,-1.5708,-0.523599,5.09298e-07,-2.0944,-9.63998e-07,1.5708,0.785397,0.00028649,0.000366248,0.000375088,-0.000484267,-0.000359065,0.000116806,-0.00200485,0,0,0,0,0,0,0,0.0494498,-10.0623,-0.913022,21.8167,1.49172,1.44949,0.304148,0.0696421,-0.927366,-0.414798,3.26944,0.771149,-0.2202,0.252763
1096155,0.96,-1.57086,-0.522941,0.00033724,-2.09673,-0.000970476,1.57114,0.784965,-1.5708,-0.523599,5.09298e-07,-2.0944,-9.63998e-07,1.5708,0.785397,0.000190993,-0.000962261,-0.000306753,-0.000879657,-3.59264e-05,7.78708e-05,0.000799665,0,0,0,0,0,0,0,0.0494498,-10.0107,-0.889218,21.8405,1.48622,1.44949,0.24647,0.0694409,-0.927419,-0.414978,3.26977,0.771131,-0.220153,0.252795
1096156,0.96,-1.57087,-0.522941,0.000340859,-2.09672,-0.000971086,1.57114,0.784966,-1.5708,-0.523599,5.09298e-07,-2.0944,-9.63998e-07,1.5708,0.785397,-0.000429483,8.10669e-06,0.00100192,0.000619988,-0.000227401,0.000289273,0.0012791,0,0,0,0,0,0,0,0.0732535,-10.0385,-0.940793,21.789,1.49172,1.44308,0.226328,0.069039,-0.926794,-0.415462,3.26992,0.771103,-0.220107,0.252864
1096157,0.96,-1.57087,-0.52294,0.00033724,-2.09673,-0.000971086,1.57114,0.784966,-1.5708,-0.523599,5.09298e-07,-2.0944,-9.63998e-07,1.5708,0.785397,-0.000286322,5.40446e-06,-0.000538477,-0.00134991,-0.000151601,-0.000281869,0.00085273,0,0,0,0,0,0,0,0.0732535,-10.0385,-0.889218,21.8644,1.49172,1.4559,0.226328,0.0687077,-0.926055,-0.415934,3.26997,0.771079,-0.220078,0.252952
1096158,0.96,-1.57086,-0.522941,0.00033891,-2.09673,-0.000971086,1.57114,0.784962,-1.5708,-0.523599,5.09298e-07,-2.0944,-9.63998e-07,1.5708,0.785397,0.000365931,3.60297e-06,0.000197827,0.000213682,-0.000101067,4.9446e-05,-0.000652216,0,0,0,0,0,0,0,0.0494498,-10.0385,-0.913022,21.8167,1.49172,1.44949,0.259287,0.0686533,-0.926296,-0.416021,3.27063,0.771091,-0.220003,0.253007
1096159,0.96,-1.57086,-0.522942,0.000340859,-2.09672,-0.000970476,1.57114,0.784964,-1.5708,-0.523599,5.09298e-07,-2.0944,-9.63998e-07,1.5708,0.785397,0.000243954,-0.000647212,0.000781499,0.00134888,0.000136072,0.000270323,-0.000909529,0,0,0,0,0,0,0,0.0494498,-10.0107,-0.940793,21.7652,1.48622,1.44308,0.272104,0.068291,-0.925778,-0.416525,3.27062,0.771087,-0.220005,0.253012
1096160,0.96,-1.57087,-0.522936,0.00033724,-2.09673,-0.000970476,1.57114,0.784969,-1.5708,-0.523599,5.09298e-07,-2.0944,-9.63998e-07,1.5708,0.785397,-0.000394176,0.00142457,-0.000685427,-0.000863984,9.07149e-05,-5.71436e-05,0.000817801,0,0,0,0,0,0,0,0.0732535,-10.0901,-0.889218,21.8405,1.48622,1.44949,0.233652,0.0676962,-0.92488,-0.417379,3.26995,0.771069,-0.220099,0.25299
1096161,0.96,-1.57087,-0.522941,0.00033891,-2.09673,-0.000971086,1.57114,0.784966,-1.5708,-0.523599,5.09298e-07,-2.0944,-9.63998e-07,1.5708,0.785397,-0.000262784,-0.00090633,9.98609e-05,-0.0011328,-0.000142974,-3.80958e-05,0.000545201,0,0,0,0,0,0,0,0.0732535,-10.0107,-0.913022,21.8644,1.49172,1.44949,0.233652,0.0677322,-0.925859,-0.417347,3.27052,0.771115,-0.220083,0.252963
1096162,0.96,-1.57086,-0.52294,0.00033891,-2.09673,-0.000969865,1.57114,0.784966,-1.5708,-0.523599,5.09298e-07,-2.0944,-9.63998e-07,1.5708,0.785397,0.000381623,0.000602206,6.65739e-05,0.000358423,0.000311585,-2.53972e-05,-0.00034861,0,0,0,0,0,0,0,0.0494498,-10.0623,-0.913022,21.8167,1.48073,1.44949,0.252878,0.0680224,-0.927382,-0.416977,3.27186,0.771196,-0.219984,0.252918
1096163,0.96,-1.57086,-0.522938,0.000340859,-2.09673,-0.000970476,1.57114,0.784963,-1.5708,-0.523599,5.09298e-07,-2.0944,-9.63998e-07,1.5708,0.785397,0.000811227,0.000401471,0.000693997,-0.000317863,4.27287e-06,-0.00025429,-0.0014192,0,0,0,0,0,0,0,0.0256461,-10.0623,-0.940793,21.8405,1.48622,1.4559,0.284922,0.0676244,-0.92876,-0.417584,3.27306,0.77124,-0.219909,0.252848
1096164,0.96,-1.57087,-0.52294,0.00033724,-2.09673,-0.000969865,1.57114,0.784965,-1.5708,-0.523599,5.09298e-07,-2.0944,-9.63998e-07,1.5708,0.785397,-0.000572806,0.000267647,-0.000743762,-0.000211909,0.000206299,6.7832e-05,-0.000471416,0,0,0,0,0,0,0,0.0732535,-10.0623,-0.889218,21.8405,1.48073,1.44949,0.272104,0.0668819,-0.930603,-0.418656,3.2744,0.771265,-0.219837,0.252776
1096165,0.96,-1.57087,-0.522938,0.000335291,-2.09672,-0.000971798,1.57114,0.784969,-1.5708,-0.523599,5.09298e-07,-2.0944,-9.63998e-07,1.5708,0.785397,0.000174941,0.000178431,-0.00114545,0.00162197,-0.000506727,4.52213e-05,0.00110988,0,0,0,0,0,0,0,0.0494498,-10.0623,-0.861447,21.7652,1.49812,1.44949,0.233652,0.0670772,-0.931743,-0.418299,3.27508,0.771312,-0.219833,0.252734
1096166,0.96,-1.57087,-0.522939,0.00033724,-2.09673,-0.000971086,1.57114,0.784967,-1.5708,-0.523599,5.09298e-07,-2.0944,-9.63998e-07,1.5708,0.785397,-0.000440184,-0.000437858,-0.000114023,-0.000125116,-0.000100459,-0.000207211,2.78406e-05,0,0,0,0,0,0,0,0.0732535,-10.0385,-0.889218,21.8167,1.49172,1.4559,0.252878,0.0682158,-0.931082,-0.416483,3.27441,0.771368,-0.219961,0.252727
1096167,0.96,-1.57087,-0.522934,0.00033724,-2.09672,-0.000970476,1.57114,0.784967,-1.5708,-0.523599,5.09298e-07,-2.0944,-9.63998e-07,1.5708,0.785397,-0.000293456,0.00147133,-7.60151e-05,0.000566203,0.000136478,9.9218e-05,1.85604e-05,0,0,0,0,0,0,0,0.0732535,-10.1139,-0.889218,21.789,1.48622,1.44949,0.252878,0.0693815,-0.930213,-0.414639,3.27354,0.771428,-0.220098,0.252736
1096168,0.96,-1.57087,-0.522937,0.000340859,-2.09672,-0.000971086,1.57114,0.784968,-1.5708,-0.523599,5.09298e-07,-2.0944,-9.63998e-07,1.5708,0.785397,-0.000195638,-0.000225537,0.00115575,0.000934281,-0.000112465,0.000303504,0.000249733,0,0,0,0,0,0,0,0.0732535,-10.0623,-0.940793,21.7652,1.49172,1.44308,0.24647,0.0698767,-0.930392,-0.413882,3.27307,0.771474,-0.220201,0.25275
1096169,0.96,-1.57087,-0.522938,0.00033724,-2.09672,-0.000971086,1.57114,0.784961,-1.5708,-0.523599,5.09298e-07,-2.0944,-9.63998e-07,1.5708,0.785397,-0.000130425,0.000499256,-0.000435926,6.6042e-05,-7.49769e-05,-3.50227e-05,-0.00125767,0,0,0,0,0,0,0,0.0732535,-10.0901,-0.889218,21.789,1.49172,1.44949,0.284922,0.0696237,-0.930399,-0.41432,3.27238,0.77149,-0.220319,0.252765
1096170,0.96,-1.57086,-0.522938,0.000340859,-2.09673,-0.000970476,1.57114,0.784962,-1.5708,-0.523599,5.09298e-07,-2.0944,-9.63998e-07,1.5708,0.785397,0.000469862,-0.000316777,0.000915808,-0.000605586,0.000153466,-0.000260707,-0.0010758,0,0,0,0,0,0,0,0.0494498,-10.0623,-0.940793,21.8167,1.48622,1.4559,0.291331,0.0689472,-0.930223,-0.415409,3.27194,0.771505,-0.22038,0.252789
1096171,0.96,-1.57087,-0.52294,0.00033362,-2.09673,-0.000968645,1.57114,0.784971,-1.5708,-0.523599,5.09298e-07,-2.0944,-9.63998e-07,1.5708,0.785397,-0.000243571,-0.000211185,-0.00180231,0.00024589,0.000712662,0.000300913,0.00216501,0,0,0,0,0,0,0,0.0732535,-10.0623,-0.837644,21.789,1.46974,1.44308,0.213511,0.0683875,-0.929831,-0.416267,3.27182,0.77154,-0.22037,0.252853
1096172,0.96,-1.57087,-0.522938,0.00033724,-2.09672,-0.000969865,1.57114,0.78497,-1.5708,-0.523599,5.09298e-07,-2.0944,-9.63998e-07,1.5708,0.785397,-0.00136881,-0.00014079,4.88392e-06,0.000163927,6.82071e-05,-0.000748827,0.000968625,0,0,0,0,0,0,0,0.124828,-10.0623,-0.889218,21.789,1.48073,1.46871,0.226328,0.0690019,-0.928687,-0.415383,3.27137,0.771613,-0.220365,0.252952
1096173,0.96,-1.57087,-0.522939,0.00033724,-2.09672,-0.000970476,1.57114,0.784967,-1.5708,-0.523599,5.09298e-07,-2.0944,-9.63998e-07,1.5708,0.785397,0.000293888,-0.000650672,3.25595e-06,0.000109284,-0.000157979,-2.45002e-05,-0.000574953,0,0,0,0,0,0,0,0.0732535,-10.0385,-0.889218,21.789,1.48622,1.4559,0.259287,0.0702968,-0.926838,-0.413608,3.27051,0.771685,-0.220376,0.253035
1096174,0.96,-1.57087,-0.522941,0.00033724,-2.09673,-0.000969865,1.57114,0.784968,-1.5708,-0.523599,5.09298e-07,-2.0944,-9.63998e-07,1.5708,0.785397,-0.000453688,-0.000433781,2.17063e-06,-0.000576758,9.81311e-05,0.000221025,9.14157e-05,0,0,0,0,0,0,0,0.101024,-10.0385,-0.889218,21.8167,1.48073,1.44949,0.24647,0.0710828,-0.924433,-0.412671,3.26949,0.771708,-0.22037,0.253074
1096175,0.96,-1.57086,-0.522938,0.00033891,-2.09673,-0.000971798,1.57114,0.784969,-1.5708,-0.523599,5.09298e-07,-2.0944,-9.63998e-07,1.5708,0.785397,0.000903967,0.000267625,0.000558259,0.000265109,-0.000578839,0.00014735,0.000298303,0,0,0,0,0,0,0,0.0494498,-10.0623,-0.913022,21.789,1.49812,1.44949,0.240061,0.0710716,-0.922499,-0.412922,3.26882,0.771684,-0.22032,0.25308
1096176,0.96,-1.57087,-0.522938,0.000335291,-2.09672,-0.000969865,1.57114,0.784965,-1.5708,-0.523599,5.09298e-07,-2.0944,-9.63998e-07,1.5708,0.785397,4.58327e-05,0.000178416,-0.000834253,0.000176739,0.000258367,0.000335592,-0.00122529,0,0,0,0,0,0,0,0.0732535,-10.0623,-0.861447,21.789,1.48073,1.44308,0.278513,0.0704752,-0.921802,-0.413975,3.26856,0.771627,-0.22025,0.253062
1096177,0.96,-1.57087,-0.522941,0.000340859,-2.09673,-0.000970476,1.57114,0.784964,-1.5708,-0.523599,5.09298e-07,-2.0944,-9.63998e-07,1.5708,0.785397,3.05551e-05,-0.00108748,0.00129987,-0.000531788,-3.12058e-05,-1.36306e-05,0.000132579,0,0,0,0,0,0,0,0.0732535,-10.0107,-0.940793,21.8167,1.48622,1.44949,0.252878,0.0696952,-0.921297,-0.415269,3.2683,0.771563,-0.22019,0.253026
1096178,0.96,-1.57087,-0.52294,0.00033891,-2.09673,-0.000971086,1.57114,0.784967,-1.5708,-0.523599,5.09298e-07,-2.0944,-9.63998e-07,1.5708,0.785397,2.03701e-05,0.000481438,0.000216967,-0.000354525,-0.000224254,-0.000246446,0.000325745,0,0,0,0,0,0,0,0.0732535,-10.0623,-0.913022,21.8167,1.49172,1.4559,0.24647,0.0685692,-0.920567,-0.417177,3.26818,0.771488,-0.220111,0.253002
1096179,0.96,-1.57087,-0.52294,0.00033891,-2.09673,-0.000971086,1.57114,0.784964,-1.5708,-0.523599,5.09298e-07,-2.0944,-9.63998e-07,1.5708,0.785397,-0.000636034,-0.000235853,0.000144644,-0.00023635,-0.000149503,-0.000164297,-2.01956e-05,0,0,0,0,0,0,0,0.101024,-10.0385,-0.913022,21.8167,1.49172,1.4559,0.252878,0.067547,-0.920708,-0.419055,3.26864,0.771432,-0.219988,0.252992
1096180,0.96,-1.57087,-0.522936,0.000340859,-2.09673,-0.000971086,1.57114,0.784963,-1.5708,-0.523599,5.09298e-07,-2.0944,-9.63998e-07,1.5708,0.785397,-0.000424023,0.00104919,0.000746044,-0.000157567,-9.96686e-05,0.000127827,-0.00120026,0,0,0,0,0,0,0,0.101024,-10.0901,-0.940793,21.8167,1.49172,1.44949,0.284922,0.067115,-0.922227,-0.420217,3.26969,0.771423,-0.219831,0.252986
1096181,0.96,-1.57087,-0.522941,0.00033891,-2.09673,-0.000970476,1.57114,0.784964,-1.5708,-0.523599,5.09298e-07,-2.0944,-9.63998e-07,1.5708,0.785397,0.000366932,-0.000506966,-0.000152252,-0.000105045,0.000137005,8.52183e-05,-0.000562813,0,0,0,0,0,0,0,0.0732535,-10.0385,-0.913022,21.8167,1.48622,1.44949,0.278513,0.0668847,-0.924498,-0.421204,3.27096,0.771438,-0.219672,0.252993
1096182,0.96,-1.57087,-0.522938,0.00033891,-2.09672,-0.000971086,1.57114,0.784967,-1.5708,-0.523599,5.09298e-07,-2.0944,-9.63998e-07,1.5708,0.785397,0.000244621,0.000218835,-0.000101501,0.000579584,-0.000112114,0.000294171,0.000574227,0,0,0,0,0,0,0,0.0732535,-10.0623,-0.913022,21.789,1.49172,1.44308,0.252878,0.0667521,-0.925918,-0.422031,3.27162,0.771453,-0.21958,0.253043
1096183,0.96,-1.57086,-0.522938,0.00033724,-2.09673,-0.000970476,1.57114,0.784971,-1.5708,-0.523599,5.09298e-07,-2.0944,-9.63998e-07,1.5708,0.785397,0.000719893,0.00014589,-0.000624479,-0.000263224,0.000128708,-0.000515963,0.00160352,0,0,0,0,0,0,0,0.0494498,-10.0623,-0.889218,21.8167,1.48622,1.46231,0.219919,0.0668411,-0.926464,-0.422425,3.27166,0.771468,-0.219558,0.253144
1096184,0.96,-1.57087,-0.522943,0.00033724,-2.09673,-0.000969865,1.57114,0.784964,-1.5708,-0.523599,5.09298e-07,-2.0944,-9.63998e-07,1.5708,0.785397,-7.68833e-05,-0.00110917,-0.00041632,-0.000175483,0.000289256,0.000368102,-0.000151689,0,0,0,0,0,0,0,0.0732535,-10.0107,-0.889218,21.8167,1.48073,1.44308,0.252878,0.06725,-0.926293,-0.422234,3.27145,0.771496,-0.219551,0.25326
1096185,0.96,-1.57087,-0.522938,0.00033891,-2.09672,-0.000971798,1.57114,0.784963,-1.5708,-0.523599,5.09298e-07,-2.0944,-9.63998e-07,1.5708,0.785397,-5.12556e-05,0.000466982,0.000279266,0.00164625,-0.000451423,0.000245401,-0.00105056,0,0,0,0,0,0,0,0.0732535,-10.0623,-0.913022,21.7414,1.49812,1.44308,0.278513,0.0678767,-0.924587,-0.421698,3.27038,0.771523,-0.219621,0.253345
1096186,0.96,-1.57087,-0.52294,0.000335291,-2.09673,-0.000971086,1.57114,0.784965,-1.5708,-0.523599,5.09298e-07,-2.0944,-9.63998e-07,1.5708,0.785397,-3.41704e-05,0.000311321,-0.00102025,-0.000665738,-6.35896e-05,-7.37582e-05,-0.000463016,0,0,0,0,0,0,0,0.0732535,-10.0623,-0.861447,21.8167,1.49172,1.44949,0.272104,0.0686807,-0.922988,-0.420906,3.26899,0.771556,-0.21975,0.253407
1096187,0.96,-1.57087,-0.522938,0.00033724,-2.09673,-0.000970476,1.57114,0.784968,-1.5708,-0.523599,5.09298e-07,-2.0944,-9.63998e-07,1.5708,0.785397,-2.27802e-05,0.000207548,-3.05519e-05,-0.00100064,0.000161057,0.000425546,0.000640759,0,0,0,0,0,0,0,0.0732535,-10.0623,-0.889218,21.8405,1.48622,1.43667,0.24647,0.0697722,-0.923451,-0.419633,3.26891,0.77164,-0.219769,0.25348
1096188,0.96,-1.57087,-0.522943,0.00033724,-2.09673,-0.000969865,1.57114,0.784968,-1.5708,-0.523599,5.09298e-07,-2.0944,-9.63998e-07,1.5708,0.785397,-1.51868e-05,-0.00106806,-2.0368e-05,-0.00011028,0.000310822,4.63382e-05,0.000427172,0,0,0,0,0,0,0,0.0732535,-10.0107,-0.889218,21.8167,1.48073,1.44308,0.24647,0.0707259,-0.924444,-0.418519,3.26969,0.771747,-0.219698,0.253577
1096189,0.96,-1.57087,-0.522942,0.00033724,-2.09673,-0.000970476,1.57114,0.784972,-1.5708,-0.523599,5.09298e-07,-2.0944,-9.63998e-07,1.5708,0.785397,0.000546687,-6.24266e-05,-1.35786e-05,-7.35198e-05,3.76425e-06,0.000268251,0.00174284,0,0,0,0,0,0,0,0.0494498,-10.0385,-0.889218,21.8167,1.48622,1.43667,0.207102,0.0711123,-0.923912,-0.418181,3.26992,0.771816,-0.219686,0.253676
1096190,0.96,-1.57086,-0.522938,0.00033891,-2.09673,-0.000969865,1.57114,0.784969,-1.5708,-0.523599,5.09298e-07,-2.0944,-9.63998e-07,1.5708,0.785397,0.000364458,0.000515194,0.00054776,-4.90132e-05,0.00020596,-0.000295884,-5.88073e-05,0,0,0,0,0,0,0,0.0494498,-10.0623,-0.913022,21.8167,1.48073,1.44949,0.240061,0.0707836,-0.923213,-0.418786,3.26998,0.771835,-0.219729,0.253744
1096191,0.96,-1.57086,-0.522936,0.000335291,-2.09672,-0.000971798,1.57114,0.784963,-1.5708,-0.523599,5.09298e-07,-2.0944,-9.63998e-07,1.5708,0.785397,0.000242972,0.00154989,-0.000841253,0.00117375,-0.000506953,4.01031e-05,-0.00193808,0,0,0,0,0,0,0,0.0494498,-10.1139,-0.861447,21.7652,1.49812,1.44308,0.291331,0.0701371,-0.924452,-0.419727,3.27056,0.771832,-0.219786,0.253746
1096192,0.96,-1.57087,-0.52294,0.00033891,-2.09672,-0.000971798,1.57114,0.784965,-1.5708,-0.523599,5.09298e-07,-2.0944,-9.63998e-07,1.5708,0.785397,-0.000394831,-0.000729979,0.000645591,0.000225688,-0.000337969,-0.000210624,-0.000817333,0,0,0,0,0,0,0,0.0732535,-10.0385,-0.913022,21.789,1.49812,1.44949,0.278513,0.0697865,-0.926505,-0.420138,3.27102,0.771836,-0.2199,0.253696
1096193,0.96,-1.57087,-0.52294,0.00033724,-2.09672,-0.000970476,1.57114,0.784969,-1.5708,-0.523599,5.09298e-07,-2.0944,-9.63998e-07,1.5708,0.785397,-0.000912834,7.01595e-05,-0.000126418,0.000150459,0.000215497,-0.000140416,0.000879265,0,0,0,0,0,0,0,0.101024,-10.0623,-0.889218,21.789,1.48622,1.44949,0.240061,0.0697993,-0.927093,-0.420076,3.27071,0.771857,-0.220074,0.253653
1096194,0.96,-1.57087,-0.522938,0.00033891,-2.09672,-0.000971086,1.57114,0.784972,-1.5708,-0.523599,5.09298e-07,-2.0944,-9.63998e-07,1.5708,0.785397,4.10578e-05,4.6773e-05,0.000472533,0.00121393,-5.97859e-05,-9.36105e-05,0.00156952,0,0,0,0,0,0,0,0.0732535,-10.0623,-0.913022,21.7414,1.49172,1.44949,0.213511,0.0700253,-0.926316,-0.419807,3.26974,0.771888,-0.220286,0.253644
1096195,0.96,-1.57087,-0.522938,0.00033724,-2.09673,-0.000969865,1.57114,0.784967,-1.5708,-0.523599,5.09298e-07,-2.0944,-9.63998e-07,1.5708,0.785397,0.000584184,3.1182e-05,-0.00024179,-0.000953951,0.000367044,0.000174952,-0.000649074,0,0,0,0,0,0,0,0.0494498,-10.0623,-0.889218,21.8167,1.48073,1.44308,0.259287,0.0700146,-0.925417,-0.419854,3.26868,0.771915,-0.220487,0.253638
1096196,0.96,-1.57087,-0.522938,0.000335291,-2.09673,-0.000969865,1.57114,0.784965,-1.5708,-0.523599,5.09298e-07,-2.0944,-9.63998e-07,1.5708,0.785397,-0.000167356,2.0788e-05,-0.000810807,-0.00119278,0.000244696,0.000353994,-0.00114479,0,0,0,0,0,0,0,0.0732535,-10.0623,-0.861447,21.8405,1.48073,1.43667,0.278513,0.0699579,-0.925601,-0.419835,3.26872,0.77197,-0.220551,0.253598
1096197,0.96,-1.57086,-0.52294,0.00033724,-2.09672,-0.000971086,1.57114,0.784965,-1.5708,-0.523599,5.09298e-07,-2.0944,-9.63998e-07,1.5708,0.785397,0.000445241,1.38587e-05,0.000109076,0.000968052,-0.00024377,-0.000476081,-0.000763195,0,0,0,0,0,0,0,0.0494498,-10.0623,-0.889218,21.7652,1.49172,1.4559,0.278513,0.0702043,-0.92652,-0.419254,3.26951,0.772054,-0.220525,0.253541
1096198,0.96,-1.57087,-0.522942,0.00033891,-2.09673,-0.000969865,1.57114,0.784966,-1.5708,-0.523599,5.09298e-07,-2.0944,-9.63998e-07,1.5708,0.785397,-0.000259984,-0.000547573,0.000629529,-0.000561058,0.000244387,-8.00285e-05,-3.40789e-05,0,0,0,0,0,0,0,0.0732535,-10.0385,-0.913022,21.8167,1.48073,1.44949,0.265696,0.070147,-0.926533,-0.419097,3.26968,0.772099,-0.220556,0.253514
1096199,0.96,-1.57087,-0.522938,0.00033891,-2.09673,-0.000970476,1.57114,0.78497,-1.5708,-0.523599,5.09298e-07,-2.0944,-9.63998e-07,1.5708,0.785397,-0.00137975,0.000191763,0.000419686,-0.000374039,-4.05256e-05,0.000184007,0.00143534,0,0,0,0,0,0,0,0.124828,-10.0623,-0.913022,21.8167,1.48622,1.44308,0.226328,0.0698678,-0.925965,-0.419427,3.2696,0.772118,-0.220603,0.253541
1096200,0.96,-1.57087,-0.52294,0.00033724,-2.09673,-0.000969865,1.57114,0.784971,-1.5708,-0.523599,5.09298e-07,-2.0944,-9.63998e-07,1.5708,0.785397,0.000286593,0.000127842,-0.000277021,-0.00136298,0.000176433,0.00036003,0.00119425,0,0,0,0,0,0,0,0.0732535,-10.0623,-0.889218,21.8644,1.48073,1.43667,0.219919,0.069972,-0.926428,-0.419391,3.27031,0.772159,-0.220571,0.253601
1096201,0.96,-1.57087,-0.522938,0.000335291,-2.09673,-0.000970476,1.57114,0.784968,-1.5708,-0.523599,5.09298e-07,-2.0944,-9.63998e-07,1.5708,0.785397,0.000191062,8.52282e-05,-0.000834295,-0.000351843,-8.58282e-05,-0.000234698,0.000796169,0,0,0,0,0,0,0,0.0732535,-10.0623,-0.861447,21.8405,1.48622,1.44949,0.219919,0.0704443,-0.928111,-0.418784,3.2719,0.772216,-0.220468,0.253642
1096202,0.96,-1.57086,-0.522939,0.00033891,-2.09673,-0.000971086,1.57114,0.784966,-1.5708,-0.523599,5.09298e-07,-2.0944,-9.63998e-07,1.5708,0.785397,0.000684187,-0.000499993,0.000650229,0.000971864,-0.000260669,-0.000156465,-0.000927282,0,0,0,0,0,0,0,0.0494498,-10.0385,-0.913022,21.789,1.49172,1.44949,0.259287,0.0707466,-0.929056,-0.418289,3.27292,0.772233,-0.220437,0.253617
1096203,0.96,-1.57086,-0.522938,0.00033724,-2.09672,-0.000971086,1.57114,0.784961,-1.5708,-0.523599,5.09298e-07,-2.0944,-9.63998e-07,1.5708,0.785397,0.000456125,0.000223483,-0.000123326,0.00120472,-0.00017378,-0.00010431,-0.00133027,0,0,0,0,0,0,0,0.0494498,-10.0623,-0.889218,21.7652,1.49172,1.44949,0.278513,0.0703204,-0.927899,-0.418778,3.27218,0.772167,-0.220601,0.253522
1096204,0.96,-1.57086,-0.522936,0.000335291,-2.09673,-0.000970476,1.57114,0.784965,-1.5708,-0.523597,3.0093e-06,-2.0944,5.30787e-07,1.5708,0.785396,0.000860895,0.000798603,-0.000731831,0.000246335,8.75975e-05,-6.95401e-05,-0.000412126,-0.00325272,0.001875,0.0025,-0.003125,0.00149478,0.005,-0.0012878,0.0256461,-10.0901,-0.861447,21.789,1.48622,1.44949,0.265696,0.0695887,-0.926473,-0.419576,3.27068,0.772071,-0.220861,0.253395
1096205,0.96,-1.57086,-0.522939,0.00033724,-2.09672,-0.000971086,1.57114,0.784967,-1.57081,-0.523593,8.0093e-06,-2.0944,3.52035e-06,1.57081,0.785393,0.00057393,-0.000674024,0.000161727,0.000721036,-0.000145052,-4.63601e-05,0.000199968,-0.00650544,0.00375,0.005,-0.00625,0.00298957,0.01,-0.00257561,0.0256461,-10.0385,-0.889218,21.7652,1.49172,1.44949,0.252878,0.0689343,-0.925707,-0.420061,3.26934,0.771991,-0.221103,0.253289
1096206,0.96,-1.57087,-0.522937,0.000335291,-2.09673,-0.000969865,1.57114,0.784969,-1.57082,-0.523587,1.55093e-05,-2.09441,8.00471e-06,1.57083,0.785389,-0.000731004,0.000107463,-0.000541796,-0.000725736,0.0003102,0.000206452,0.00060803,-0.00975816,0.005625,0.0075,-0.009375,0.00448435,0.015,-0.00386341,0.0732535,-10.0623,-0.861447,21.8167,1.48073,1.44308,0.240061,0.068504,-0.924648,-0.420127,3.26809,0.771939,-0.221302,0.253218
1096207,0.96,-1.57086,-0.522935,0.000336211,-2.09673,-0.000970476,1.57114,0.784961,-1.57083,-0.52358,2.55093e-05,-2.09443,1.39838e-05,1.57085,0.785384,0.000626288,0.00279291,0.00165709,-0.00377075,3.3492e-06,-0.000574442,-0.0010188,-0.0130109,0.0075,0.01,-0.0125,0.00597914,0.02,-0.00515121,0.0256461,-9.91153,-0.81384,21.666,1.48622,1.46231,0.278513,0.0680694,-0.927347,-0.42025,3.26968,0.771962,-0.221202,0.253177
1096208,0.96,-1.57087,-0.522944,0.000340404,-2.09672,-0.000971798,1.57114,0.784962,-1.57085,-0.52357,3.80093e-05,-2.09444,2.14578e-05,1.57087,0.785378,-0.00200058,0.00196883,0.00642558,-0.00106117,-0.000438577,-0.0013324,3.28764e-05,-0.0162636,0.009375,0.0125,-0.015625,0.00747392,0.025,-0.00643902,-0.00212494,-9.35611,-0.762265,21.2931,1.49812,1.48794,0.259287,0.0655925,-0.937376,-0.423756,3.27609,0.771997,-0.220633,0.253179
1096209,0.96,-1.57087,-0.522941,0.000344109,-2.09673,-0.000970476,1.57114,0.784961,-1.57087,-0.523559,5.30093e-05,-2.09446,3.04265e-05,1.5709,0.78537,-0.00300535,0.00232834,0.00638634,-0.00165325,0.000148425,-0.00139689,-0.0004528,-0.0195163,0.01125,0.015,-0.01875,0.0089687,0.03,-0.00772682,-0.0775034,-8.80069,-0.686887,20.8448,1.48622,1.50167,0.272104,0.0600124,-0.950702,-0.432589,3.28432,0.771938,-0.219835,0.253241
1096210,0.96,-1.57088,-0.522932,0.00035034,-2.09673,-0.000970476,1.57114,0.784961,-1.57089,-0.523546,7.05093e-05,-2.09448,4.089e-05,1.57094,0.785361,-0.00628031,0.0024979,0.00642334,-0.00144995,0.00956149,-0.00140598,-6.45079e-05,-0.022769,0.013125,0.0175,-0.021875,0.0104635,0.035,-0.00901462,-0.0497324,-8.2175,-0.611508,20.3489,1.48622,1.51449,0.265696,0.0534076,-0.963101,-0.443496,3.29145,0.771817,-0.218958,0.253345
1096211,0.96,-1.5709,-0.522914,0.000355464,-2.09673,-0.00096789,1.57114,0.784966,-1.57091,-0.523531,9.05093e-05,-2.09451,5.28482e-05,1.57098,0.785351,-0.00906274,0.00689408,0.00587488,1.63064e-05,0.00695942,0.00401746,0.00141506,-0.0260218,0.015,0.02,-0.025,0.0119583,0.04,-0.0103024,-0.00212494,-7.78903,-0.508359,19.7776,1.49172,1.50808,0.226328,0.0489132,-0.975172,-0.451403,3.29662,0.771749,-0.218004,0.253464
1096212,0.96,-1.5709,-0.522888,0.000370238,-2.09675,-0.000964994,1.57115,0.784962,-1.57094,-0.523514,0.000113009,-2.09454,6.63013e-05,1.57102,0.785339,-0.00814103,0.0118783,0.0111056,-0.00344962,0.00584137,0.00693071,-0.00844688,-0.0292745,0.016875,0.0225,-0.028125,0.0134531,0.045,-0.0115902,-0.0775034,-7.43594,-0.508359,19.3808,1.47524,1.53372,0.226328,0.0464536,-0.99335,-0.456126,3.30188,0.771833,-0.21682,0.253598
1096213,0.96,-1.57092,-0.522862,0.000383684,-2.09675,-0.000967182,1.57115,0.784959,-1.57098,-0.523495,0.000138009,-2.09457,8.12491e-05,1.57107,0.785326,-0.0099855,0.0160491,0.0148426,-0.00766605,0.00349009,0.00626547,-0.00715976,-0.0325272,0.01875,0.025,-0.03125,0.0149478,0.05,-0.012878,-0.0497324,-7.10666,-0.508359,18.9087,1.49812,1.50808,0.24647,0.0421638,-1.02639,-0.463241,3.31229,0.772075,-0.21486,0.253757
1096214,0.96,-1.57093,-0.522841,0.00039733,-2.09677,-0.000967674,1.57117,0.784958,-1.57101,-0.523474,0.000167399,-2.0946,9.85774e-05,1.57113,0.785311,-0.0124298,0.0185662,0.0164049,-0.00899843,0.00245595,0.00544464,-0.00559742,-0.0381573,0.0218234,0.0293902,-0.0375,0.0173283,0.0598248,-0.0149077,-0.101307,-6.75357,-0.456784,18.635,1.50362,1.48794,0.252878,0.0344119,-1.07666,-0.475207,3.33014,0.772484,-0.211697,0.25393
1096215,0.96,-1.57094,-0.522823,0.000414198,-2.09679,-0.000970178,1.57117,0.784961,-1.57106,-0.523449,0.00020118,-2.09465,0.000118286,1.5712,0.785294,-0.0125745,0.0196545,0.0151119,-0.0104025,0.00103909,0.00808962,-0.00318844,-0.0437874,0.0248967,0.0337804,-0.04375,0.0197087,0.0696497,-0.0169374,-0.101307,-6.37271,-0.432981,18.4088,1.52651,1.50808,0.226328,0.0253155,-1.13789,-0.488626,3.35197,0.773116,-0.207503,0.254097
1096216,0.97,-1.57096,-0.522808,0.000439092,-2.09681,-0.00096819,1.57118,0.784961,-1.57111,-0.523421,0.00023935,-2.0947,0.000140375,1.57128,0.785275,-0.015794,0.0166524,0.0183579,-0.0153986,0.000472949,0.00771204,-0.00245575,-0.0494175,0.0279701,0.0381706,-0.05,0.0220892,0.0794745,-0.0189671,-0.101307,-5.96805,-0.456784,18.2105,1.53749,1.5914,0.226328,0.0167643,-1.19887,-0.500317,3.37236,0.773996,-0.202665,0.254233
1096217,0.98,-1.57098,-0.522795,0.000464338,-2.09682,-0.000970273,1.57119,0.78496,-1.57116,-0.52339,0.000281911,-2.09475,0.000164845,1.57137,0.785254,-0.0168691,0.0155653,0.0227064,-0.016365,-0.000595518,0.00620995,-0.00553623,-0.0550476,0.0310435,0.0425608,-0.05625,0.0244696,0.0892993,-0.0209969,-0.152882,-5.4642,-0.432981,17.8891,1.56587,1.71408,0.200693,0.00803803,-1.24798,-0.511548,3.38681,0.775055,-0.197409,0.254315
1096218,0.99,-1.57101,-0.522779,0.000488297,-2.09685,-0.000964178,1.5712,0.784958,-1.57122,-0.523356,0.000328862,-2.09482,0.000191695,1.57147,0.785231,-0.0190446,0.0181462,0.0229468,-0.0192599,0.000555957,0.00553455,-0.0037852,-0.0606777,0.0341169,0.046951,-0.0625,0.0268501,0.0991242,-0.0230266,-0.279835,-4.82944,-0.282224,17.5162,1.54299,1.83584,0.187876,-0.00201844,-1.28071,-0.524233,3.39324,0.776228,-0.191737,0.254323
1096219,1,-1.57104,-0.522754,0.000523427,-2.09688,-0.000960451,1.57121,0.784947,-1.57129,-0.523318,0.000380203,-2.09489,0.000220926,1.57158,0.785206,-0.0221534,0.0211588,0.0294897,-0.0224531,0.00129729,0.0106807,-0.00952179,-0.0663078,0.0371902,0.0513412,-0.06875,0.0292305,0.108949,-0.0250563,-0.355213,-4.22244,-0.254453,17.0441,1.5201,1.93289,0.240061,-0.0135524,-1.30202,-0.538526,3.39345,0.777553,-0.185354,0.254226
1096220,1,-1.57107,-0.522722,0.000560784,-2.09692,-0.00094929,1.57123,0.784941,-1.57136,-0.523278,0.000435935,-2.09496,0.000252537,1.5717,0.785179,-0.0294772,0.021052,0.0295033,-0.028156,0.00238213,0.0157359,-0.00752926,-0.0719379,0.0402636,0.0557314,-0.075,0.031611,0.118774,-0.027086,-0.355213,-3.64322,-0.155271,16.4212,1.48073,2.00338,0.252878,-0.0255853,-1.31684,-0.553146,3.38989,0.779126,-0.177887,0.254011
1096221,1,-1.57112,-0.522689,0.000604356,-2.09696,-0.000941289,1.57127,0.784939,-1.57144,-0.523235,0.000496056,-2.09504,0.000286528,1.57183,0.78515,-0.0339293,0.0241867,0.0363897,-0.0282852,0.00720952,0.0268052,-0.00928099,-0.077568,0.043337,0.0601216,-0.08125,0.0339914,0.128599,-0.0291157,-0.402821,-3.06003,-0.0798923,15.8738,1.45784,2.00338,0.226328,-0.0362281,-1.32502,-0.565532,3.38198,0.780979,-0.169249,0.253702
1096222,1,-1.57117,-0.522653,0.000649623,-2.09701,-0.000926873,1.57131,0.784943,-1.57152,-0.523188,0.000560568,-2.09513,0.0003229,1.57196,0.785119,-0.0372985,0.0278994,0.040983,-0.0368129,0.00730217,0.0360033,-0.00531623,-0.0831981,0.0464104,0.0645117,-0.0875,0.0363719,0.138423,-0.0311454,-0.430592,-2.53238,0.0232571,15.354,1.40199,1.96493,0.181467,-0.046555,-1.32855,-0.577216,3.36958,0.782968,-0.15943,0.253351
1096223,1,-1.57123,-0.522607,0.000701855,-2.09707,-0.00091638,1.57138,0.784937,-1.57161,-0.523139,0.00062947,-2.09522,0.000361652,1.57211,0.785086,-0.0435693,0.0334548,0.0455412,-0.0430031,0.00457832,0.046631,-0.00956201,-0.0888282,0.0494837,0.0689019,-0.09375,0.0387523,0.148248,-0.0331751,-0.430592,-2.12772,0.0748318,15.0049,1.41847,1.84225,0.200693,-0.0582053,-1.33535,-0.590392,3.35692,0.785031,-0.148102,0.252974
1096224,1,-1.57128,-0.522574,0.000759282,-2.09713,-0.000905227,1.57145,0.784918,-1.57171,-0.523086,0.000704116,-2.09533,0.000403324,1.57227,0.78505,-0.0505972,0.0350684,0.0524378,-0.0493239,0.00244493,0.0581529,-0.0108063,-0.0961242,0.0528777,0.0746464,-0.103125,0.0416723,0.161023,-0.0356223,-0.478199,-1.6199,0.0986355,14.7312,1.44136,1.72048,0.297739,-0.0706307,-1.35017,-0.604356,3.34695,0.787214,-0.135171,0.25255
1096225,1,-1.57135,-0.522534,0.000821592,-2.0972,-0.000895449,1.57154,0.784907,-1.57181,-0.52303,0.000784507,-2.09544,0.000447917,1.57245,0.785012,-0.0562053,0.0354506,0.0584949,-0.0554118,0.00523974,0.0694453,-0.0132302,-0.10342,0.0562716,0.0803908,-0.1125,0.0445923,0.173798,-0.0380696,-0.50597,-1.21524,0.0986355,14.5566,1.48073,1.66189,0.316965,-0.083934,-1.36793,-0.619538,3.33722,0.789452,-0.121167,0.252101
1096226,1,-1.57141,-0.522501,0.000887103,-2.09728,-0.000881102,1.57163,0.784894,-1.57192,-0.52297,0.000870642,-2.09556,0.000495429,1.57263,0.784972,-0.0577159,0.0344503,0.0597279,-0.0620267,0.0126376,0.0739388,-0.014656,-0.110716,0.0596655,0.0861352,-0.121875,0.0475122,0.186573,-0.0405168,-0.656727,-0.76297,0.0986355,14.4574,1.50911,1.69485,0.323374,-0.0986281,-1.37908,-0.636129,3.32362,0.791619,-0.10674,0.251723
1096227,1,-1.57148,-0.522472,0.000959612,-2.09735,-0.000865639,1.57173,0.784882,-1.57204,-0.522907,0.000962522,-2.09569,0.000545861,1.57283,0.784929,-0.0605027,0.0355944,0.0643396,-0.0655555,0.00858519,0.0790746,-0.00915005,-0.118012,0.0630594,0.0918796,-0.13125,0.0504322,0.199349,-0.0429641,-0.859058,-0.255158,0.0748318,14.1837,1.53749,1.81021,0.278513,-0.114958,-1.37623,-0.653238,3.30295,0.793648,-0.0923656,0.251519
1096228,1,-1.57155,-0.522435,0.00102971,-2.09744,-0.000845429,1.57184,0.784864,-1.57216,-0.522841,0.00106015,-2.09583,0.000599213,1.57305,0.784883,-0.0670524,0.0388371,0.0671893,-0.0744282,0.0117515,0.0882335,-0.0113292,-0.125308,0.0664533,0.097624,-0.140625,0.0533522,0.212124,-0.0454113,-1.03362,0.276459,0.201785,13.8623,1.52651,1.92648,0.272104,-0.132504,-1.35934,-0.669565,3.27539,0.795648,-0.0781682,0.251534
1096229,1,-1.57165,-0.522392,0.00111783,-2.09754,-0.000818645,1.57197,0.784843,-1.5723,-0.522771,0.00116351,-2.09598,0.000655485,1.57327,0.784835,-0.0769103,0.0416188,0.0726301,-0.0833379,0.0151038,0.101592,-0.0130044,-0.132604,0.0698472,0.103368,-0.15,0.0562721,0.224899,-0.0478586,-1.00982,0.804108,0.201785,13.4894,1.48622,2.00338,0.265696,-0.149118,-1.33521,-0.682146,3.2451,0.797909,-0.0638009,0.251735
1096230,1,-1.57175,-0.52234,0.0012037,-2.09764,-0.000783243,1.57212,0.784819,-1.57244,-0.522698,0.00127263,-2.09614,0.000714677,1.57351,0.784785,-0.0815805,0.0460622,0.0779318,-0.0923596,0.0226961,0.119569,-0.013595,-0.1399,0.0732411,0.109113,-0.159375,0.0591921,0.237674,-0.0503058,-1.06139,1.23654,0.277163,13.0649,1.43587,1.99057,0.240061,-0.163725,-1.31073,-0.689693,3.21611,0.800598,-0.0488486,0.252057
1096231,1,-1.57185,-0.522291,0.00128807,-2.09776,-0.00074524,1.57229,0.784787,-1.57258,-0.522621,0.00138748,-2.09631,0.00077679,1.57376,0.784732,-0.091282,0.0461814,0.0789253,-0.0997024,0.0283701,0.136195,-0.0152939,-0.147196,0.0766351,0.114857,-0.16875,0.0621121,0.250449,-0.0527531,-1.109,1.66501,0.479495,12.6444,1.3846,1.89443,0.24647,-0.175928,-1.28704,-0.691521,3.18852,0.80367,-0.0332552,0.252421
1096232,1,-1.57196,-0.522239,0.00138807,-2.09789,-0.000700725,1.57248,0.784756,-1.57274,-0.522541,0.00150809,-2.09649,0.000841822,1.57402,0.784677,-0.0968991,0.0473469,0.0862709,-0.111014,0.0321651,0.152794,-0.0192276,-0.154492,0.080029,0.120602,-0.178125,0.065032,0.263224,-0.0552003,-1.08519,2.04587,0.554873,12.3429,1.33974,1.79098,0.200693,-0.184884,-1.25974,-0.68626,3.15988,0.807011,-0.0172009,0.252752
1096233,1,-1.57208,-0.522185,0.00148715,-2.09803,-0.000651072,1.57269,0.784723,-1.5729,-0.522457,0.00163443,-2.09668,0.000909774,1.5743,0.78462,-0.104687,0.0479305,0.0900053,-0.121177,0.0392827,0.172751,-0.0226246,-0.161788,0.0834229,0.126346,-0.1875,0.067952,0.275999,-0.0576476,-1.06139,2.42276,0.70563,12.0969,1.32784,1.66189,0.162241,-0.191959,-1.22545,-0.67589,3.1291,0.810416,-0.000871329,0.252996
1096234,1,-1.57221,-0.522132,0.00159512,-2.09818,-0.000599113,1.5729,0.784675,-1.57307,-0.522371,0.00176744,-2.09688,0.000981015,1.57459,0.784559,-0.111305,0.0509175,0.0946087,-0.129623,0.0414547,0.18867,-0.0334376,-0.170166,0.0865008,0.133011,-0.19999,0.0712417,0.290605,-0.0603285,-1.00982,2.80362,0.781009,11.8985,1.37911,1.57858,0.219919,-0.198217,-1.18384,-0.661907,3.09585,0.813708,0.015421,0.253087
1096235,1,-1.57235,-0.522077,0.00170336,-2.09834,-0.000538264,1.57314,0.784632,-1.57325,-0.522281,0.00190712,-2.09709,0.00105555,1.57489,0.784496,-0.118035,0.0511708,0.099128,-0.137087,0.0435133,0.205179,-0.038923,-0.178545,0.0895787,0.139677,-0.21248,0.0745315,0.305211,-0.0630094,-0.958241,3.15671,0.80878,11.7002,1.43587,1.5209,0.226328,-0.203622,-1.13419,-0.644239,3.0586,0.816803,0.0311649,0.252976
1096236,1,-1.57248,-0.522017,0.00182364,-2.09851,-0.000472317,1.57338,0.784581,-1.57344,-0.522189,0.00205346,-2.09731,0.00113337,1.57521,0.784431,-0.123931,0.0534842,0.108505,-0.148201,0.0502458,0.217168,-0.0438057,-0.186923,0.0926566,0.146342,-0.22497,0.0778212,0.319817,-0.0656903,-1.03362,3.41061,0.832583,11.6486,1.47524,1.58499,0.240061,-0.210085,-1.07544,-0.625986,3.01648,0.819626,0.045999,0.2527
1096237,1,-1.57262,-0.521964,0.00194589,-2.09868,-0.000393979,1.57363,0.784516,-1.57363,-0.522093,0.00220647,-2.09755,0.00121448,1.57555,0.784362,-0.128245,0.0521269,0.111229,-0.158637,0.0578601,0.223189,-0.050193,-0.195302,0.0957345,0.153008,-0.23746,0.0811109,0.334424,-0.0683712,-1.13677,3.78751,0.884158,11.4264,1.44136,1.7333,0.330698,-0.220213,-1.00745,-0.611227,2.97075,0.822145,0.06003,0.252333
1096238,1,-1.57278,-0.521901,0.00207463,-2.09887,-0.000311029,1.57391,0.78446,-1.57383,-0.521994,0.00236614,-2.0978,0.00129888,1.5759,0.784291,-0.135559,0.0578202,0.115893,-0.170983,0.0635803,0.234861,-0.0513882,-0.20368,0.0988124,0.159673,-0.24995,0.0844007,0.34903,-0.0710521,-1.18834,4.14059,0.98334,11.1527,1.40749,1.82943,0.330698,-0.233694,-0.933365,-0.599309,2.92452,0.824493,0.0737594,0.251967
1096239,1,-1.57296,-0.521835,0.00221805,-2.09905,-0.000221455,1.5742,0.784397,-1.57405,-0.521892,0.00253248,-2.09806,0.00138657,1.57626,0.784217,-0.149688,0.0590821,0.124235,-0.179276,0.0748632,0.251558,-0.0557971,-0.212059,0.10189,0.166339,-0.26244,0.0876904,0.363636,-0.073733,-1.06139,4.49765,1.01111,10.752,1.32784,1.84866,0.297739,-0.247859,-0.858918,-0.586816,2.8805,0.826857,0.0876341,0.25172
1096240,1,-1.57314,-0.521764,0.00235968,-2.09927,-0.000129495,1.57451,0.784329,-1.57427,-0.521787,0.00270549,-2.09834,0.00147755,1.57664,0.784141,-0.161049,0.0644921,0.128812,-0.189517,0.0819081,0.270033,-0.0587901,-0.220438,0.104968,0.173004,-0.27493,0.0909802,0.378242,-0.0764139,-0.986012,4.79916,1.11029,10.4544,1.26009,1.81661,0.24647,-0.259559,-0.786814,-0.570452,2.83827,0.829314,0.10172,0.251656
1096241,1,-1.57333,-0.521695,0.0025047,-2.09949,-4.00631e-05,1.57484,0.78426,-1.5745,-0.521679,0.00288516,-2.09863,0.00157182,1.57703,0.784062,-0.168409,0.06821,0.134371,-0.200947,0.0863652,0.286199,-0.0609805,-0.228816,0.108046,0.179669,-0.28742,0.0942699,0.392848,-0.0790948,-0.958241,5.10068,1.23725,10.0815,1.22621,1.71408,0.187876,-0.266853,-0.719772,-0.547974,2.79778,0.831834,0.116071,0.251749
1096242,1,-1.57352,-0.521618,0.00265576,-2.09973,5.61728e-05,1.57519,0.78418,-1.57473,-0.521568,0.00307149,-2.09893,0.00166938,1.57744,0.78398,-0.178302,0.0722188,0.141351,-0.211308,0.0944279,0.302459,-0.0644928,-0.237195,0.111124,0.186335,-0.29991,0.0975597,0.407455,-0.0817757,-1.00982,5.35458,1.3642,9.78397,1.19234,1.62985,0.187876,-0.270574,-0.66036,-0.520513,2.75997,0.83425,0.130779,0.251909
1096243,1,-1.57373,-0.521535,0.00281941,-2.09998,0.00014898,1.57557,0.784097,-1.57498,-0.521454,0.00326449,-2.09924,0.00177023,1.57786,0.783896,-0.183665,0.0762835,0.151098,-0.223104,0.0939358,0.322494,-0.0681142,-0.245573,0.114202,0.193,-0.3124,0.100849,0.422061,-0.0844567,-1.00982,5.55692,1.3404,9.48642,1.20973,1.47512,0.207102,-0.273996,-0.608286,-0.492774,2.72447,0.836297,0.145682,0.252028
1096244,1,-1.57395,-0.521455,0.00299058,-2.10025,0.000245272,1.57595,0.784006,-1.57523,-0.521337,0.00346476,-2.09956,0.00187464,1.5783,0.783808,-0.196096,0.0753305,0.157282,-0.234225,0.0925177,0.344386,-0.0768251,-0.25455,0.117015,0.200268,-0.32489,0.104406,0.437376,-0.0872818,-0.934437,5.78702,1.3404,9.31186,1.26009,1.36618,0.265696,-0.279652,-0.559253,-0.468503,2.6891,0.837832,0.160304,0.252045
1096245,1,-1.57418,-0.521375,0.0031663,-2.10052,0.000346999,1.57635,0.78392,-1.5755,-0.521217,0.00367229,-2.0999,0.0019826,1.57875,0.783718,-0.203581,0.0746098,0.163421,-0.244112,0.0968947,0.361162,-0.0778371,-0.263527,0.119828,0.207536,-0.33738,0.107963,0.452692,-0.0901069,-0.934437,6.01315,1.28882,9.08969,1.28298,1.35336,0.304148,-0.286453,-0.502749,-0.44627,2.64872,0.838901,0.173887,0.251954
1096246,1,-1.57442,-0.521291,0.00334465,-2.1008,0.000452674,1.57675,0.783837,-1.57577,-0.521094,0.0038871,-2.10025,0.00209412,1.57922,0.783625,-0.212004,0.0775746,0.170009,-0.252595,0.101288,0.383237,-0.0808087,-0.272504,0.122641,0.214804,-0.34987,0.111519,0.468007,-0.092932,-1.06139,6.21548,1.26502,8.88736,1.27748,1.43667,0.278513,-0.293296,-0.431165,-0.424392,2.59875,0.83955,0.185759,0.251817
1096247,1,-1.57464,-0.521207,0.00352804,-2.1011,0.00056759,1.57717,0.783752,-1.57605,-0.520969,0.00410917,-2.10061,0.00220919,1.5797,0.78353,-0.220532,0.0805885,0.176652,-0.263103,0.104947,0.39283,-0.0815449,-0.281481,0.125454,0.222072,-0.36236,0.115076,0.483323,-0.0957571,-1.26372,6.39005,1.31262,8.71677,1.27748,1.5209,0.213511,-0.300511,-0.34633,-0.403185,2.53911,0.839822,0.195799,0.251724
1096248,1,-1.5749,-0.52111,0.00372997,-2.10142,0.000683205,1.57762,0.783657,-1.57634,-0.520841,0.00433851,-2.10099,0.00232782,1.5802,0.783431,-0.227253,0.0861718,0.183937,-0.278737,0.107683,0.409767,-0.0861527,-0.290457,0.128268,0.22934,-0.37485,0.118632,0.498639,-0.0985823,-1.23595,6.41782,1.26502,8.74057,1.27199,1.5978,0.24647,-0.308843,-0.257507,-0.383472,2.47533,0.839852,0.204716,0.251711
1096249,1,-1.57517,-0.521014,0.00394086,-2.10174,0.000801434,1.57809,0.783559,-1.57664,-0.52071,0.00457512,-2.10138,0.00245001,1.58071,0.78333,-0.24295,0.0875175,0.191539,-0.291671,0.114429,0.429724,-0.0893614,-0.299434,0.131081,0.236608,-0.38734,0.122189,0.513954,-0.101407,-1.109,6.41782,1.23725,8.689,1.27199,1.62344,0.278513,-0.31802,-0.173646,-0.364873,2.41394,0.839852,0.213421,0.251739
1096250,1,-1.57545,-0.520922,0.00414325,-2.10208,0.000929716,1.57858,0.783451,-1.57695,-0.520576,0.00481899,-2.10177,0.00257576,1.58124,0.783225,-0.252683,0.0913347,0.198878,-0.304405,0.118844,0.451339,-0.0927253,-0.308411,0.133894,0.243876,-0.39983,0.125745,0.52927,-0.104233,-1.00982,6.41782,1.28882,8.6652,1.27748,1.57858,0.337107,-0.325812,-0.096323,-0.344865,2.35652,0.840006,0.222274,0.251775
1096251,1,-1.57573,-0.520823,0.00435725,-2.10243,0.00106151,1.5791,0.783356,-1.57727,-0.520439,0.00507014,-2.10219,0.00270506,1.58179,0.783118,-0.256419,0.0937573,0.205113,-0.325675,0.125055,0.475548,-0.0907219,-0.317388,0.136707,0.251144,-0.41232,0.129302,0.544585,-0.107058,-1.08519,6.41782,1.31262,8.76438,1.25459,1.55294,0.278513,-0.332634,-0.0269975,-0.32414,2.30496,0.840355,0.231566,0.25187
1096252,1,-1.57603,-0.520721,0.0045791,-2.1028,0.00119723,1.57962,0.783256,-1.57759,-0.5203,0.00532855,-2.10261,0.00283792,1.58235,0.783008,-0.273489,0.0975412,0.211564,-0.336925,0.133742,0.489443,-0.0899158,-0.326365,0.13952,0.258412,-0.42481,0.132859,0.559901,-0.109883,-0.958241,6.44162,1.39197,8.88736,1.22621,1.53372,0.24647,-0.339124,0.0309934,-0.30342,2.26268,0.840918,0.241685,0.252086
1096253,1,-1.57634,-0.520615,0.00481026,-2.10318,0.00133151,1.58017,0.783152,-1.57793,-0.520157,0.00559423,-2.10305,0.00297433,1.58292,0.782896,-0.281894,0.102771,0.216037,-0.35092,0.133397,0.512431,-0.0986481,-0.335342,0.142333,0.26568,-0.4373,0.136415,0.575216,-0.112708,-0.882862,6.39005,1.3642,8.96274,1.22072,1.46871,0.213511,-0.342018,0.0769578,-0.278401,2.22939,0.841781,0.252561,0.252394
1096254,1,-1.57666,-0.520505,0.00504283,-2.10357,0.00146498,1.58073,0.783047,-1.57827,-0.520012,0.00586753,-2.1035,0.00311444,1.58351,0.78278,-0.292372,0.107124,0.220202,-0.359643,0.132074,0.528285,-0.0961704,-0.34458,0.144991,0.273302,-0.44979,0.140106,0.590468,-0.115587,-0.859058,6.31467,1.41577,8.93894,1.25459,1.40463,0.16865,-0.338771,0.111813,-0.245433,2.2024,0.84297,0.263725,0.252716
1096255,1,-1.57698,-0.520389,0.00528394,-2.10397,0.00160782,1.58132,0.78293,-1.57863,-0.519865,0.00614846,-2.10396,0.00325824,1.58412,0.782662,-0.299092,0.113373,0.232303,-0.37211,0.132411,0.550018,-0.101078,-0.353819,0.14765,0.280925,-0.46228,0.143796,0.605719,-0.118467,-0.859058,6.23929,1.43958,8.91513,1.24361,1.35977,0.200693,-0.331588,0.136963,-0.207631,2.17917,0.844326,0.274664,0.25297
1096256,1,-1.57731,-0.520278,0.00554596,-2.10439,0.00175283,1.58192,0.782822,-1.57899,-0.519714,0.006437,-2.10444,0.00340572,1.58474,0.78254,-0.31051,0.10861,0.240355,-0.393458,0.134622,0.569147,-0.10782,-0.363057,0.150308,0.288548,-0.47477,0.147487,0.62097,-0.121346,-0.882862,6.29086,1.43958,8.88736,1.22621,1.33413,0.16865,-0.325418,0.156459,-0.172635,2.15915,0.845652,0.285206,0.253097
1096257,1,-1.57765,-0.520164,0.00580865,-2.10481,0.00190397,1.58253,0.782719,-1.57936,-0.519561,0.00673317,-2.10492,0.0035569,1.58538,0.782416,-0.322857,0.106665,0.248062,-0.402649,0.141118,0.576166,-0.106627,-0.372295,0.152967,0.296171,-0.48726,0.151177,0.636222,-0.124225,-0.934437,6.29086,1.49115,8.88736,1.18685,1.37899,0.103647,-0.321485,0.182561,-0.142734,2.13972,0.846861,0.295301,0.253043
1096258,1,-1.57801,-0.520048,0.00607702,-2.10525,0.00205398,1.58315,0.782614,-1.57974,-0.519406,0.00703697,-2.10542,0.00371177,1.58603,0.782289,-0.330938,0.110793,0.257268,-0.408609,0.142024,0.589822,-0.106739,-0.381534,0.155625,0.303794,-0.49975,0.154867,0.651473,-0.127105,-0.807484,6.31467,1.54273,8.88736,1.22621,1.42385,0.0523779,-0.318925,0.226505,-0.116659,2.11407,0.847753,0.304465,0.25273
1096259,1,-1.5784,-0.519928,0.00636518,-2.1057,0.00220714,1.58378,0.7825,-1.58013,-0.519247,0.00734839,-2.10594,0.00387033,1.5867,0.782159,-0.346748,0.113581,0.265899,-0.416242,0.145208,0.601116,-0.108942,-0.390772,0.158283,0.311417,-0.51224,0.158558,0.666724,-0.129984,-0.557545,6.34244,1.49115,8.83976,1.26009,1.46871,0.0651953,-0.317535,0.288328,-0.0939851,2.07773,0.848144,0.312215,0.252054
1096260,1,-1.57877,-0.519799,0.00665196,-2.10615,0.00235986,1.58444,0.782374,-1.58053,-0.519086,0.00766742,-2.10646,0.00403257,1.58738,0.782026,-0.354901,0.118514,0.274158,-0.42884,0.148372,0.616009,-0.112645,-0.40001,0.160942,0.319039,-0.52473,0.162248,0.681976,-0.132863,-0.50597,6.26706,1.51892,8.78818,1.33425,1.47512,0.135691,-0.316033,0.361009,-0.0731604,2.03234,0.848122,0.318694,0.250927
1096261,1,-1.57916,-0.519659,0.00694197,-2.10663,0.00251202,1.58512,0.782252,-1.58094,-0.518923,0.00799409,-2.107,0.00419851,1.58807,0.78189,-0.363199,0.127018,0.281243,-0.437702,0.148239,0.63349,-0.114901,-0.409249,0.1636,0.326662,-0.53722,0.165939,0.697227,-0.135743,-0.478199,6.11234,1.64191,8.689,1.36812,1.40463,0.194285,-0.314405,0.432599,-0.0541271,1.9839,0.847901,0.324476,0.249367
1096262,1,-1.57957,-0.519518,0.00725095,-2.1071,0.00267712,1.5858,0.782131,-1.58136,-0.518757,0.00832837,-2.10755,0.00436814,1.58879,0.781752,-0.380517,0.131828,0.284892,-0.45021,0.156365,0.646722,-0.113707,-0.418487,0.166259,0.334285,-0.54971,0.169629,0.712478,-0.138622,-0.355213,6.01315,1.69348,8.54221,1.32784,1.36618,0.181467,-0.310325,0.491872,-0.033392,1.93786,0.847829,0.330023,0.247498
1096263,1,-1.57999,-0.519374,0.00756923,-2.10759,0.00283989,1.58651,0.782017,-1.58179,-0.518588,0.00867028,-2.10811,0.00454146,1.58951,0.78161,-0.393291,0.132266,0.294211,-0.457712,0.161461,0.662866,-0.115175,-0.427726,0.168917,0.341908,-0.5622,0.17332,0.72773,-0.141502,-0.125111,5.91,1.61811,8.39145,1.29396,1.36618,0.0972387,-0.298906,0.539705,-0.00434432,1.89386,0.848212,0.335331,0.245445
1096264,1,-1.58041,-0.51923,0.00788623,-2.10808,0.00300733,1.58723,0.781893,-1.58223,-0.518416,0.00901997,-2.10868,0.0047185,1.59026,0.781466,-0.397526,0.135315,0.299042,-0.467413,0.163779,0.683383,-0.117571,-0.436969,0.171216,0.349693,-0.57469,0.177041,0.742677,-0.144373,-0.101307,5.81082,1.74506,8.19309,1.29946,1.32131,0.038645,-0.280836,0.586072,0.0320514,1.84669,0.848934,0.339916,0.243278
1096265,1,-1.58083,-0.519092,0.00821385,-2.10859,0.00317764,1.58797,0.78176,-1.58267,-0.518243,0.00937745,-2.10927,0.00489927,1.59101,0.781319,-0.407835,0.13658,0.303663,-0.47917,0.170702,0.70229,-0.116437,-0.446212,0.173515,0.357478,-0.58718,0.180762,0.757625,-0.147244,-0.101307,5.8624,1.72126,8.04233,1.27748,1.28195,0.0322363,-0.259347,0.636848,0.0719677,1.79334,0.849762,0.343441,0.240957
1096266,1,-1.58127,-0.51895,0.00854621,-2.10912,0.00336013,1.58874,0.781625,-1.58313,-0.518067,0.00974272,-2.10987,0.00508375,1.59179,0.781168,-0.408885,0.138116,0.315996,-0.492923,0.177427,0.71617,-0.121099,-0.455455,0.175814,0.365264,-0.59967,0.184484,0.772572,-0.150115,-0.101307,5.93777,1.72126,7.91935,1.23171,1.23068,0.0459692,-0.238544,0.692668,0.110119,1.73506,0.850483,0.346079,0.238402
1096267,1,-1.58171,-0.518796,0.00889348,-2.10966,0.00354333,1.58951,0.781495,-1.58359,-0.517889,0.0101158,-2.11048,0.00527195,1.59258,0.781015,-0.42072,0.142936,0.321159,-0.503962,0.179693,0.733108,-0.126332,-0.464698,0.178113,0.373049,-0.61216,0.188205,0.787519,-0.152987,-0.176685,5.8624,1.72126,7.84397,1.26558,1.16018,-0.0190333,-0.223269,0.750811,0.139659,1.67485,0.850876,0.348175,0.235591
1096268,1,-1.58215,-0.518648,0.00924277,-2.11021,0.0037277,1.5903,0.781359,-1.58407,-0.517709,0.0104966,-2.11111,0.00546388,1.59338,0.78086,-0.423705,0.144705,0.330792,-0.515826,0.181799,0.749836,-0.132118,-0.473941,0.180412,0.380834,-0.62465,0.191926,0.802467,-0.155858,-0.279835,5.8624,1.64191,7.87174,1.26009,1.21786,-0.0382593,-0.21428,0.807502,0.159518,1.61479,0.850917,0.34984,0.232525
1096269,1,-1.58262,-0.518494,0.00961656,-2.11078,0.00391043,1.59111,0.781221,-1.58455,-0.517526,0.0108852,-2.11174,0.00565953,1.59419,0.780701,-0.432892,0.145111,0.340581,-0.544077,0.182465,0.769387,-0.132159,-0.483184,0.182711,0.388619,-0.63714,0.195648,0.817414,-0.158729,-0.303639,5.75925,1.43958,7.91935,1.28847,1.29476,-0.044668,-0.212319,0.859032,0.168665,1.55964,0.850723,0.351517,0.229174
1096270,1,-1.58308,-0.518333,0.0099831,-2.11136,0.00409966,1.59193,0.781079,-1.58504,-0.517341,0.0112816,-2.11239,0.0058589,1.59503,0.780539,-0.44021,0.151432,0.349406,-0.556008,0.189291,0.786437,-0.135476,-0.492427,0.18501,0.396404,-0.64963,0.199369,0.832362,-0.1616,-0.355213,5.63229,1.41577,8.01853,1.32234,1.26272,-0.077627,-0.21809,0.898121,0.165837,1.51748,0.850496,0.354109,0.22551
1096271,1,-1.58355,-0.518174,0.0103655,-2.11197,0.00429624,1.59278,0.780926,-1.58554,-0.517154,0.0116858,-2.11306,0.00606199,1.59587,0.780375,-0.445381,0.153069,0.358435,-0.571712,0.19008,0.803222,-0.14007,-0.50167,0.187309,0.40419,-0.66212,0.20309,0.847309,-0.164471,-0.529774,5.53311,1.31262,8.21689,1.31136,1.17941,-0.0254419,-0.230974,0.921109,0.151888,1.48967,0.850322,0.357815,0.221512
1096272,1,-1.58404,-0.518008,0.0107632,-2.11258,0.00450067,1.59363,0.780771,-1.58606,-0.516964,0.0120978,-2.11373,0.0062688,1.59674,0.780207,-0.455315,0.155218,0.368509,-0.584083,0.194337,0.814725,-0.143977,-0.510913,0.189608,0.411975,-0.67461,0.206812,0.862257,-0.167343,-0.632923,5.38235,1.16187,8.49063,1.26558,1.16659,0.00660151,-0.250679,0.932825,0.12743,1.47153,0.850153,0.362214,0.217192
1096273,1,-1.58452,-0.517838,0.0111622,-2.1132,0.00471017,1.5945,0.78062,-1.58658,-0.516772,0.0125175,-2.11442,0.00647933,1.59761,0.780037,-0.463267,0.159612,0.387795,-0.593719,0.197903,0.827919,-0.1474,-0.520156,0.191907,0.41976,-0.6871,0.210533,0.877204,-0.170214,-0.831288,5.2554,1.11029,8.56601,1.24361,1.173,-0.0712183,-0.278699,0.939278,0.0898407,1.45822,0.849818,0.366792,0.212645
1096274,1,-1.58502,-0.517665,0.0115772,-2.11385,0.00492042,1.5954,0.780462,-1.5871,-0.516578,0.0129451,-2.11512,0.00669354,1.59851,0.779864,-0.469912,0.162625,0.397233,-0.622873,0.197393,0.84344,-0.151756,-0.529206,0.193697,0.427557,-0.69959,0.214209,0.891703,-0.173035,-0.958241,5.12845,0.959536,8.6652,1.23812,1.14736,-0.103262,-0.318188,0.937967,0.0341103,1.45186,0.849176,0.371674,0.207991
1096275,1,-1.58552,-0.51749,0.0120107,-2.11451,0.00513087,1.59626,0.780295,-1.58764,-0.516383,0.0133805,-2.11583,0.00691143,1.59941,0.779688,-0.487122,0.167053,0.409931,-0.631444,0.202383,0.853505,-0.15771,-0.538255,0.195487,0.435355,-0.71208,0.217885,0.906201,-0.175856,-1.08519,5.05307,0.832583,8.76438,1.20973,1.32131,-0.0648096,-0.36674,0.922059,-0.0363483,1.4589,0.848435,0.377484,0.203237
1096276,1,-1.58603,-0.517317,0.0124441,-2.11519,0.00535013,1.59716,0.780118,-1.58819,-0.516186,0.0138236,-2.11655,0.00713299,1.60033,0.77951,-0.486424,0.166178,0.420317,-0.642889,0.210022,0.858942,-0.164231,-0.547305,0.197276,0.443152,-0.72457,0.221561,0.9207,-0.178677,-1.18834,5.0253,0.681826,8.83976,1.18135,1.50167,0.0322363,-0.420653,0.897234,-0.115661,1.47494,0.847565,0.383919,0.19833
1096277,1,-1.58655,-0.517148,0.0128854,-2.11587,0.00557049,1.59807,0.779942,-1.58875,-0.515986,0.0142746,-2.11729,0.00735822,1.60127,0.779328,-0.49774,0.16643,0.426462,-0.655409,0.214628,0.874413,-0.168362,-0.556355,0.199066,0.450949,-0.73706,0.225237,0.935198,-0.181498,-1.3391,5.07687,0.681826,8.86356,1.16945,1.55294,0.110056,-0.479324,0.877579,-0.201373,1.48995,0.84626,0.390348,0.19331
1096278,1,-1.58708,-0.516966,0.0133322,-2.11659,0.00580513,1.59901,0.779765,-1.58931,-0.515786,0.0147333,-2.11804,0.00758714,1.60222,0.779144,-0.504216,0.171594,0.440129,-0.66403,0.222417,0.894961,-0.168959,-0.565404,0.200856,0.458747,-0.74955,0.228912,0.949697,-0.184319,-1.46209,4.94992,0.630252,8.99051,1.15297,1.48794,0.143015,-0.540913,0.86913,-0.289811,1.4988,0.844421,0.396517,0.188332
1096279,1,-1.58761,-0.516783,0.0137904,-2.11731,0.00604069,1.59998,0.779585,-1.58989,-0.515583,0.0151999,-2.1188,0.00781972,1.60318,0.778957,-0.507421,0.172761,0.443712,-0.681507,0.223982,0.92163,-0.17476,-0.574454,0.202646,0.466544,-0.76204,0.232588,0.964195,-0.18714,-1.54143,4.79916,0.578677,9.01432,1.16945,1.35977,0.175059,-0.604604,0.869154,-0.379116,1.50119,0.842068,0.402326,0.183606
1096280,1,-1.58817,-0.516598,0.0142551,-2.11804,0.00628337,1.60093,0.779399,-1.59047,-0.515379,0.0156742,-2.11958,0.00805599,1.60416,0.778767,-0.529472,0.176495,0.447783,-0.693691,0.226847,0.929857,-0.17881,-0.583504,0.204436,0.474342,-0.77453,0.236264,0.978694,-0.189961,-1.51366,4.64841,0.578677,8.99051,1.13558,1.41104,0.200693,-0.664606,0.872769,-0.460504,1.50029,0.839562,0.407965,0.179295
1096281,1,-1.58872,-0.516415,0.014717,-2.11878,0.00652722,1.6019,0.779208,-1.59106,-0.515172,0.0161563,-2.12036,0.00829593,1.60515,0.778574,-0.539543,0.177412,0.451359,-0.702606,0.226774,0.940998,-0.180653,-0.592553,0.206225,0.482139,-0.78702,0.23994,0.993192,-0.192781,-1.48986,4.57303,0.606448,8.88736,1.12459,1.44949,0.187876,-0.70995,0.878619,-0.518934,1.49699,0.837421,0.413513,0.175476
1096282,1,-1.5893,-0.516229,0.0151908,-2.11953,0.00676788,1.60289,0.77903,-1.59166,-0.514964,0.0166463,-2.12116,0.00853954,1.60616,0.778378,-0.547509,0.180168,0.460807,-0.730113,0.231313,0.954078,-0.178817,-0.601603,0.208015,0.489936,-0.79951,0.243616,1.00769,-0.195602,-1.38671,4.52145,0.733401,8.91513,1.12459,1.3854,0.09083,-0.738782,0.88431,-0.55213,1.49421,0.83578,0.419357,0.172216
1096283,1,-1.58987,-0.516041,0.015675,-2.12029,0.00702387,1.60391,0.778835,-1.59227,-0.514755,0.017144,-2.12198,0.00878684,1.60718,0.77818,-0.556813,0.185467,0.465646,-0.732563,0.239169,0.978378,-0.184291,-0.610653,0.209805,0.497734,-0.812,0.247292,1.02219,-0.198423,-1.3391,4.49765,0.832583,8.78818,1.12459,1.173,0.0459692,-0.756543,0.883793,-0.567719,1.49674,0.834483,0.425919,0.169497
1096284,1,-1.59046,-0.515843,0.0161543,-2.12107,0.00728493,1.60493,0.778636,-1.59289,-0.514544,0.0176494,-2.1228,0.00903771,1.60822,0.777979,-0.561062,0.188251,0.467652,-0.750521,0.247322,0.986977,-0.190935,-0.619354,0.210983,0.505422,-0.82449,0.250876,1.03615,-0.201168,-1.31133,4.3945,1.01111,8.83976,1.09621,1.16018,0.0587866,-0.766261,0.876163,-0.569442,1.50232,0.833302,0.432659,0.167157
1096285,1,-1.59105,-0.515652,0.0166431,-2.12185,0.00753647,1.60594,0.778431,-1.59352,-0.514331,0.0181625,-2.12364,0.00929217,1.60927,0.777775,-0.569867,0.187218,0.467707,-0.755688,0.246499,0.987032,-0.196723,-0.628055,0.212162,0.513111,-0.83698,0.25446,1.05011,-0.203912,-1.28753,4.4183,1.08649,8.78818,1.1017,1.23068,0.0972387,-0.767644,0.867459,-0.555833,1.50621,0.832111,0.438971,0.164998
1096286,1,-1.59166,-0.515456,0.017144,-2.12265,0.00779309,1.60696,0.778223,-1.59416,-0.514118,0.0186833,-2.12449,0.00955022,1.61033,0.777568,-0.574708,0.189184,0.474187,-0.76586,0.250244,0.988701,-0.199752,-0.636756,0.21334,0.520799,-0.84947,0.258044,1.06408,-0.206656,-1.13677,4.34293,1.06269,8.83976,1.1017,1.39181,0.103647,-0.760898,0.867182,-0.526719,1.50316,0.830777,0.444468,0.162922
1096287,1,-1.59229,-0.515254,0.0176424,-2.12346,0.00805059,1.60801,0.778013,-1.5948,-0.513904,0.0192118,-2.12535,0.00981184,1.61141,0.777359,-0.589679,0.190581,0.478689,-0.792559,0.253438,1.01251,-0.202055,-0.645457,0.214518,0.528488,-0.86196,0.261628,1.07804,-0.2094,-0.986012,4.24374,1.18964,8.93894,1.10719,1.4559,0.110056,-0.747475,0.874796,-0.485099,1.49536,0.829334,0.449472,0.160916
1096288,1,-1.59292,-0.515053,0.0181492,-2.1243,0.0083169,1.60906,0.777805,-1.59546,-0.513688,0.019748,-2.12622,0.0100771,1.6125,0.777147,-0.60038,0.19116,0.485956,-0.802914,0.261386,1.02942,-0.201035,-0.654157,0.215697,0.536176,-0.87445,0.265212,1.092,-0.212144,-0.910633,4.04141,1.26502,9.08969,1.15297,1.4559,0.0844213,-0.727105,0.882561,-0.432582,1.49054,0.828049,0.454779,0.15898
1096289,1,-1.59356,-0.514855,0.018655,-2.12516,0.00858637,1.61015,0.7776,-1.59612,-0.513471,0.0202919,-2.12711,0.0103459,1.61361,0.776932,-0.616692,0.193828,0.489339,-0.81527,0.261701,1.04405,-0.201017,-0.662858,0.216875,0.543865,-0.88694,0.268796,1.10596,-0.214888,-0.755909,3.86288,1.43958,9.38724,1.18135,1.3085,0.0322363,-0.698149,0.890658,-0.368505,1.4879,0.827041,0.460324,0.157083
1096290,1,-1.59422,-0.514654,0.0191751,-2.12602,0.00886252,1.61124,0.777391,-1.59679,-0.513253,0.0208434,-2.12801,0.0106182,1.61473,0.776714,-0.62044,0.197971,0.500567,-0.835405,0.264975,1.06019,-0.201378,-0.671559,0.218053,0.551553,-0.89943,0.27238,1.11992,-0.217633,-0.581349,3.71213,1.61811,9.80777,1.12459,1.22427,-0.0126246,-0.662141,0.896627,-0.295877,1.48758,0.826331,0.466056,0.155194
1096291,1,-1.59488,-0.514449,0.0196875,-2.12691,0.00913524,1.61235,0.777175,-1.59747,-0.513034,0.0214027,-2.12892,0.0108942,1.61586,0.776494,-0.627802,0.201382,0.516559,-0.849338,0.271158,1.07638,-0.205679,-0.68026,0.219232,0.559242,-0.91192,0.275964,1.13389,-0.220377,-0.327442,3.56137,1.79663,10.0815,1.1191,1.12814,-0.0382593,-0.628631,0.892697,-0.228661,1.49518,0.825702,0.472284,0.153286
1096292,1,-1.59556,-0.514238,0.0202151,-2.12782,0.00940118,1.61348,0.776964,-1.59816,-0.512813,0.0219696,-2.12985,0.0111737,1.61701,0.776271,-0.644316,0.202618,0.517822,-0.886428,0.264545,1.09505,-0.204639,-0.688961,0.22041,0.56693,-0.92441,0.279548,1.14785,-0.223121,-0.204456,3.33524,2.02277,10.3791,1.18135,0.999049,-0.0840357,-0.602177,0.87092,-0.174065,1.5192,0.825163,0.479555,0.151286
1096293,1,-1.59624,-0.514022,0.0207596,-2.12873,0.00967631,1.61461,0.776748,-1.59886,-0.512592,0.0225442,-2.13078,0.0114569,1.61817,0.776045,-0.658242,0.203345,0.525315,-0.897728,0.269855,1.10837,-0.207085,-0.697662,0.221588,0.574619,-0.9369,0.283132,1.16181,-0.225865,-0.0775034,3.10513,2.09815,10.6528,1.22072,0.882777,-0.168264,-0.574557,0.827036,-0.121181,1.56675,0.825244,0.48832,0.149051
1096294,1,-1.59693,-0.513814,0.021295,-2.12966,0.00995357,1.61573,0.776533,-1.59957,-0.51237,0.0231263,-2.13173,0.0117435,1.61935,0.775816,-0.662351,0.202662,0.528593,-0.897795,0.269316,1.10402,-0.205331,-0.705893,0.222095,0.582102,-0.94939,0.286596,1.17519,-0.228517,-0.0497324,2.93057,2.14972,10.7798,1.20333,1.08236,-0.232351,-0.540841,0.77541,-0.0623368,1.62657,0.825883,0.497215,0.146413
1096295,1,-1.59763,-0.513592,0.0218391,-2.13058,0.010218,1.61685,0.776312,-1.60028,-0.512147,0.0237159,-2.13269,0.0120335,1.62054,0.775585,-0.667853,0.20723,0.530727,-0.904365,0.267164,1.11625,-0.213692,-0.714123,0.222602,0.589585,-0.96188,0.290059,1.18856,-0.231168,-0.152882,2.6489,2.30048,10.7798,1.23171,1.31491,-0.206716,-0.502689,0.73568,0.00219552,1.67937,0.826546,0.504156,0.143214
1096296,1,-1.59833,-0.513378,0.0224011,-2.13153,0.0104963,1.618,0.77609,-1.601,-0.511924,0.024313,-2.13367,0.0123271,1.62174,0.775351,-0.676159,0.207874,0.540486,-0.914389,0.266498,1.11653,-0.213722,-0.722354,0.22311,0.597067,-0.97437,0.293523,1.20194,-0.23382,-0.0775034,2.49814,2.30048,10.6806,1.22621,1.43667,-0.155447,-0.462513,0.712142,0.0703536,1.71853,0.827,0.508621,0.139353
1096297,1,-1.59905,-0.51315,0.0229549,-2.13249,0.0107851,1.61919,0.775866,-1.60173,-0.5117,0.0249175,-2.13466,0.012624,1.62295,0.775115,-0.682502,0.212073,0.54662,-0.925119,0.271417,1.1353,-0.21949,-0.730585,0.223617,0.60455,-0.98686,0.296986,1.21531,-0.236471,-0.0259286,2.19662,2.30048,10.5298,1.21523,1.34054,-0.0840357,-0.423665,0.70091,0.137461,1.74596,0.827188,0.511261,0.134861
1096298,1,-1.59977,-0.512937,0.0235315,-2.13344,0.0110795,1.62037,0.775645,-1.60247,-0.511476,0.0255295,-2.13565,0.0129245,1.62418,0.774876,-0.703754,0.211331,0.550455,-0.929869,0.27876,1.14014,-0.220649,-0.738815,0.224124,0.612033,-0.99935,0.30045,1.22868,-0.239123,-0.0775034,2.04587,2.30048,10.2561,1.12459,1.34054,-0.0968531,-0.384232,0.700363,0.205599,1.76191,0.827189,0.512527,0.129848
1096299,1,-1.60051,-0.512724,0.024111,-2.13441,0.0113831,1.62158,0.775427,-1.60322,-0.511251,0.0261491,-2.13667,0.0132284,1.62543,0.774634,-0.713988,0.213694,0.557961,-0.93478,0.287531,1.15683,-0.219806,-0.747046,0.224631,0.619516,-1.01184,0.303913,1.24206,-0.241774,-0.0497324,1.91891,2.27667,9.98233,1.02846,1.18582,-0.155447,-0.338067,0.714135,0.28244,1.76214,0.827073,0.512221,0.124449
1096300,1,-1.60127,-0.512504,0.024705,-2.13537,0.0116731,1.6228,0.775216,-1.60397,-0.511026,0.0267761,-2.13769,0.0135358,1.62668,0.77439,-0.728726,0.212003,0.570607,-0.937184,0.291439,1.17739,-0.214476,-0.755276,0.225138,0.626999,-1.02433,0.307377,1.25543,-0.244425,0.148632,1.79196,2.17353,9.66098,1.02297,0.99264,-0.219534,-0.285898,0.748007,0.366236,1.74093,0.826545,0.509723,0.118773
1096301,1,-1.60203,-0.512274,0.0253171,-2.13636,0.0119661,1.62405,0.774994,-1.60474,-0.510801,0.0274105,-2.13873,0.0138466,1.62795,0.774142,-0.747386,0.223584,0.580092,-0.946518,0.287015,1.1955,-0.215946,-0.763507,0.225645,0.634481,-1.03682,0.310841,1.26881,-0.247077,0.101024,1.48648,2.09815,9.41105,1.15297,0.837916,-0.258901,-0.230817,0.797137,0.451448,1.69911,0.825386,0.504706,0.112857
1096302,1,-1.60278,-0.512055,0.0259194,-2.13736,0.0122662,1.62531,0.774766,-1.60551,-0.510575,0.0280525,-2.13978,0.0141609,1.62923,0.773893,-0.743932,0.219656,0.582876,-0.965542,0.288595,1.20527,-0.224329,-0.771737,0.226153,0.641964,-1.04931,0.314304,1.28218,-0.249728,-0.00212494,1.36349,2.07434,9.23648,1.21523,0.689601,-0.206716,-0.174445,0.845419,0.535587,1.64783,0.823798,0.497934,0.10669
1096303,1,-1.60355,-0.511827,0.0265435,-2.13837,0.012571,1.62655,0.774534,-1.60629,-0.510348,0.028702,-2.14084,0.0144787,1.63053,0.77364,-0.748415,0.220395,0.596099,-0.975573,0.294763,1.20931,-0.230176,-0.779968,0.22666,0.649447,-1.0618,0.317768,1.29556,-0.25238,-0.101307,1.20877,1.92359,9.28806,1.17586,0.825099,-0.193899,-0.12413,0.887734,0.610286,1.59607,0.821847,0.490334,0.100294
1096304,1,-1.60431,-0.511601,0.0271607,-2.13938,0.0128796,1.62782,0.774285,-1.60708,-0.510121,0.0293586,-2.14191,0.0147998,1.63184,0.773385,-0.749664,0.224394,0.601676,-0.977724,0.296297,1.21759,-0.234177,-0.787633,0.226476,0.656647,-1.07429,0.321093,1.30832,-0.25493,-0.327442,1.05801,1.87201,9.23648,1.16945,0.967006,-0.0584009,-0.0879989,0.928543,0.665772,1.54278,0.819334,0.481869,0.0937556
1096305,1,-1.6051,-0.511372,0.0277801,-2.14043,0.0131944,1.62911,0.774052,-1.60787,-0.509895,0.0300224,-2.143,0.0151242,1.63316,0.773128,-0.760332,0.22626,0.605389,-1.02348,0.308099,1.24133,-0.23739,-0.795298,0.226291,0.663848,-1.08678,0.324419,1.32108,-0.25748,-0.303639,0.931061,1.97119,9.43485,1.15846,1.06314,-0.0382593,-0.0650808,0.957763,0.703935,1.49598,0.816546,0.473416,0.0872071
1096306,1,-1.6059,-0.511142,0.0284325,-2.14149,0.0135275,1.63038,0.773812,-1.60868,-0.509669,0.0306935,-2.1441,0.0154519,1.63449,0.772868,-0.773506,0.227092,0.613543,-1.03317,0.31221,1.24739,-0.237421,-0.802963,0.226107,0.671048,-1.09927,0.327744,1.33384,-0.26003,-0.101307,0.855682,1.84424,9.53403,1.05684,1.33413,-0.0712183,-0.047785,0.958459,0.7349,1.47291,0.814213,0.467076,0.0808264
1096307,1,-1.60672,-0.51092,0.0290737,-2.14257,0.0138615,1.6317,0.773557,-1.60949,-0.509443,0.0313717,-2.14521,0.015783,1.63584,0.772605,-0.786122,0.223491,0.621775,-1.04181,0.317326,1.25984,-0.245403,-0.810629,0.225923,0.678248,-1.11176,0.33107,1.34659,-0.26258,0.101024,0.831879,1.89582,9.60941,0.971697,1.44308,-0.00621587,-0.0303912,0.938384,0.765594,1.46956,0.812438,0.462966,0.0747525
1096308,1,-1.60753,-0.510695,0.029715,-2.14365,0.014194,1.63302,0.773315,-1.6103,-0.509217,0.0320572,-2.14634,0.0161174,1.6372,0.77234,-0.791484,0.225509,0.630263,-1.05159,0.320416,1.28605,-0.246782,-0.818294,0.225739,0.685449,-1.12425,0.334395,1.35935,-0.26513,0.176403,0.728729,2.07434,9.76017,0.909441,1.47512,-0.0904444,-0.0124066,0.918278,0.796155,1.46847,0.810718,0.459734,0.0690608
1096309,1,-1.60835,-0.510467,0.0303761,-2.14477,0.0145425,1.63439,0.773057,-1.61113,-0.508992,0.0327498,-2.14747,0.0164551,1.63857,0.772073,-0.803058,0.226685,0.647934,-1.06363,0.327588,1.31186,-0.245318,-0.825959,0.225555,0.692649,-1.13674,0.337721,1.37211,-0.267679,0.275585,0.526398,2.07434,10.0061,0.819719,1.33413,-0.10967,0.00189435,0.905119,0.820002,1.46188,0.808519,0.4567,0.0638013
1096310,1,-1.60918,-0.510245,0.0310326,-2.14589,0.0148761,1.63577,0.772793,-1.61196,-0.508766,0.0334497,-2.14862,0.0167962,1.63995,0.771802,-0.808924,0.225882,0.650591,-1.09728,0.330933,1.33192,-0.253349,-0.833624,0.22537,0.699849,-1.14923,0.341046,1.38487,-0.270229,0.32716,0.375641,2.02277,10.1331,0.847185,1.23068,-0.0584009,0.00958558,0.892421,0.832341,1.45568,0.805648,0.454492,0.0589415
1096311,1,-1.61002,-0.510023,0.0316987,-2.14699,0.0152032,1.63712,0.772545,-1.61281,-0.508541,0.0341567,-2.14978,0.0171406,1.64135,0.77153,-0.827526,0.225534,0.651869,-1.10132,0.33005,1.34595,-0.253212,-0.841289,0.225186,0.70705,-1.16172,0.344372,1.39763,-0.272779,0.251781,0.224884,2.09815,10.0815,0.983598,1.30117,-0.135305,0.017861,0.873636,0.843326,1.45809,0.802391,0.453939,0.0543795
1096312,1,-1.61085,-0.509812,0.0323815,-2.14813,0.0155451,1.63851,0.772277,-1.61365,-0.508316,0.034871,-2.15096,0.0174883,1.64276,0.771254,-0.83164,0.219304,0.660543,-1.1036,0.337915,1.3601,-0.258519,-0.848954,0.225002,0.71425,-1.17421,0.347697,1.41039,-0.275329,0.251781,0.197113,1.87201,10.0815,1.09072,1.33413,-0.0712183,0.0346981,0.862054,0.86484,1.45845,0.798781,0.453813,0.0500063
1096313,1,-1.61169,-0.509605,0.0330804,-2.14927,0.0158963,1.63989,0.772011,-1.61451,-0.508091,0.0355924,-2.15214,0.0178393,1.64418,0.770976,-0.834136,0.211762,0.673631,-1.11158,0.342638,1.3911,-0.260129,-0.856619,0.224818,0.72145,-1.1867,0.351023,1.42315,-0.277879,0.101024,0.276459,1.66968,10.3315,1.1191,1.41104,-0.0712183,0.0540189,0.88298,0.889478,1.43745,0.794372,0.452017,0.0457616
1096314,1,-1.61252,-0.509396,0.0337921,-2.15044,0.0162472,1.64131,0.771745,-1.61537,-0.507867,0.0363207,-2.15334,0.0181935,1.64562,0.770696,-0.835545,0.20829,0.687358,-1.12357,0.340685,1.39237,-0.263464,-0.863649,0.22396,0.728305,-1.19919,0.354199,1.43528,-0.280321,-0.204456,0.300262,1.51892,10.4544,1.15297,1.44308,-0.10967,0.0628588,0.94758,0.899809,1.38929,0.788913,0.447991,0.0416925
1096315,1,-1.61337,-0.509177,0.0345081,-2.15164,0.01661,1.64275,0.771469,-1.61624,-0.507644,0.0370559,-2.15455,0.0185508,1.64707,0.770413,-0.837097,0.210722,0.696418,-1.13896,0.349787,1.41828,-0.265703,-0.870678,0.223103,0.73516,-1.21168,0.357376,1.44741,-0.282763,-0.454395,0.248688,1.26502,10.6806,1.07973,1.3854,-0.0510767,0.0537681,1.04387,0.885686,1.32347,0.782609,0.442821,0.0378651
1096316,1,-1.61423,-0.508955,0.0352517,-2.15284,0.0169774,1.64417,0.771206,-1.61712,-0.507422,0.0377979,-2.15578,0.0189114,1.64853,0.770128,-0.863835,0.213416,0.703929,-1.15941,0.3577,1.4204,-0.261244,-0.877708,0.222246,0.742014,-1.22417,0.360552,1.45955,-0.285205,-0.529774,0.149506,0.907962,11.1527,0.994585,1.4559,-0.161856,0.0326176,1.14555,0.854592,1.25735,0.776136,0.438245,0.034253
1096317,1,-1.61509,-0.508734,0.0359784,-2.15408,0.0173376,1.64562,0.770921,-1.61801,-0.507201,0.0385468,-2.15702,0.0192751,1.65,0.76984,-0.865943,0.216062,0.705556,-1.17308,0.358675,1.42687,-0.26756,-0.884737,0.221388,0.748869,-1.23666,0.363729,1.47168,-0.287647,-0.656727,-0.104401,0.70563,11.5732,0.955217,1.48153,-0.149038,0.013478,1.22974,0.824982,1.206,0.77025,0.435773,0.0307696
1096318,1,-1.61596,-0.508505,0.0367154,-2.15532,0.0176921,1.64708,0.770646,-1.6189,-0.50698,0.0393025,-2.15826,0.019642,1.65148,0.76955,-0.86046,0.222443,0.71392,-1.22133,0.357642,1.43243,-0.270241,-0.891766,0.220531,0.755724,-1.24915,0.366905,1.48381,-0.290089,-0.859058,-0.457489,0.630252,12.0691,0.989092,1.51449,-0.18749,-0.0017136,1.274,0.800455,1.18797,0.765283,0.437392,0.0273682
1096319,1,-1.61682,-0.508274,0.0374712,-2.15659,0.0180721,1.64851,0.770368,-1.6198,-0.506761,0.0400651,-2.15953,0.0200121,1.65298,0.769258,-0.863194,0.226715,0.71869,-1.23693,0.368726,1.43201,-0.271955,-0.898796,0.219674,0.762579,-1.26164,0.370082,1.49594,-0.292531,-1.03362,-0.838348,0.53107,12.5452,0.915849,1.62985,-0.219534,-0.0209218,1.25606,0.771552,1.22349,0.761242,0.445261,0.0240383
1096320,1,-1.6177,-0.508056,0.0382362,-2.15788,0.0184525,1.65,0.770072,-1.6207,-0.506542,0.0408345,-2.1608,0.0203854,1.65449,0.768963,-0.863221,0.227683,0.729511,-1.25197,0.368238,1.44535,-0.284582,-0.905825,0.218817,0.769434,-1.27413,0.373258,1.50807,-0.294973,-1.109,-1.08829,0.352542,12.7912,0.909441,1.47512,-0.044668,-0.0488633,1.18026,0.732583,1.30879,0.757746,0.458925,0.0207138
1096321,1,-1.6186,-0.507846,0.0389967,-2.15913,0.018827,1.65147,0.769778,-1.62162,-0.506324,0.0416108,-2.16209,0.0207618,1.65601,0.768665,-0.866546,0.221758,0.729423,-1.25035,0.371059,1.45837,-0.287362,-0.912854,0.217959,0.776288,-1.28662,0.376434,1.5202,-0.297415,-1.06139,-1.19144,0.376346,12.7158,0.921343,1.43667,0.0459692,-0.0859938,1.07994,0.683881,1.41632,0.754137,0.475247,0.0173513
1096322,1,-1.61949,-0.507643,0.0397632,-2.16041,0.0192111,1.65299,0.769479,-1.62254,-0.506107,0.042394,-2.16339,0.0211414,1.65754,0.768365,-0.867076,0.218129,0.742169,-1.24565,0.376847,1.47294,-0.291233,-0.919884,0.217102,0.783143,-1.29911,0.379611,1.53234,-0.299857,-1.00982,-1.16763,0.328738,12.3944,0.921343,1.24349,0.071604,-0.13128,0.997334,0.627814,1.512,0.749701,0.490279,0.0140661
1096323,1,-1.6204,-0.507443,0.0405455,-2.16168,0.0196011,1.65452,0.769187,-1.62346,-0.50589,0.043184,-2.1647,0.0215242,1.65908,0.768063,-0.876156,0.212352,0.753262,-1.2728,0.379257,1.49751,-0.291975,-0.926913,0.216245,0.789998,-1.3116,0.382787,1.54447,-0.302299,-0.910633,-1.01291,0.42792,11.8232,0.86458,1.08877,0.0322363,-0.185752,0.955191,0.562146,1.57894,0.744093,0.50185,0.0110849
1096324,1,-1.62133,-0.507234,0.0413391,-2.16295,0.0199778,1.65602,0.768905,-1.6244,-0.505676,0.0439804,-2.16602,0.02191,1.66064,0.767759,-0.900983,0.209518,0.768001,-1.27121,0.383601,1.4963,-0.284906,-0.933266,0.214772,0.796447,-1.32409,0.385808,1.55597,-0.304618,-0.732105,-1.01291,0.578677,11.3987,0.926836,1.17941,-0.161856,-0.245339,0.952197,0.489204,1.62068,0.737619,0.510023,0.00855313
1096325,1,-1.62224,-0.507025,0.042123,-2.16425,0.0203639,1.65757,0.768605,-1.62534,-0.505462,0.0447833,-2.16736,0.0222988,1.66221,0.767452,-0.90532,0.208946,0.772089,-1.27331,0.384329,1.51328,-0.28878,-0.939619,0.213299,0.802895,-1.33658,0.388829,1.56748,-0.306938,-0.581349,-1.08829,0.757205,11.0535,0.989092,1.06314,-0.18749,-0.300883,0.986334,0.419127,1.63555,0.730563,0.514443,0.00638453
1096326,1,-1.62319,-0.506807,0.0429258,-2.16555,0.0207515,1.65912,0.76831,-1.62628,-0.50525,0.0455926,-2.16871,0.0226907,1.66379,0.767142,-0.919121,0.214251,0.778188,-1.27734,0.375397,1.5267,-0.290293,-0.945973,0.211827,0.809344,-1.34907,0.391849,1.57898,-0.309257,-0.355213,-1.29062,0.781009,10.9781,1.06783,0.812281,-0.246084,-0.346324,1.05028,0.36052,1.62108,0.723161,0.514625,0.00432769
1096327,1,-1.62412,-0.506584,0.0437311,-2.16688,0.021152,1.66071,0.768011,-1.62723,-0.50504,0.0464084,-2.17007,0.0230856,1.66538,0.766831,-0.925633,0.218254,0.798547,-1.29204,0.384389,1.55068,-0.289231,-0.952326,0.210354,0.815793,-1.36156,0.39487,1.59049,-0.311576,-0.176685,-1.6199,0.80878,10.8274,1.03945,0.59347,-0.303762,-0.382585,1.12365,0.312001,1.58679,0.715796,0.511193,0.00215421
1096328,1,-1.62506,-0.50636,0.044527,-2.16823,0.0215521,1.66229,0.767724,-1.62819,-0.504831,0.0472307,-2.17144,0.0234835,1.66698,0.766517,-0.915682,0.218033,0.803989,-1.30777,0.396342,1.55521,-0.288539,-0.958679,0.208881,0.822242,-1.37405,0.397891,1.60199,-0.313895,-0.152882,-1.97299,0.860354,10.7044,0.989092,0.657557,-0.420034,-0.420302,1.18828,0.25896,1.54683,0.708524,0.50535,-0.000293389
1096329,1,-1.626,-0.506142,0.0453248,-2.16957,0.0219685,1.66384,0.767451,-1.62916,-0.504624,0.0480594,-2.17283,0.0238844,1.66859,0.766201,-0.920672,0.216458,0.801577,-1.31607,0.400962,1.55181,-0.285396,-0.965033,0.207408,0.828691,-1.38654,0.400911,1.6135,-0.316214,-0.0775034,-2.27847,1.06269,10.6052,0.926836,0.954188,-0.614126,-0.464714,1.23996,0.196536,1.50859,0.701258,0.498027,-0.00322274
1096330,1,-1.62698,-0.505933,0.0461285,-2.17092,0.0223773,1.66544,0.767149,-1.63013,-0.504418,0.0488945,-2.17423,0.0242883,1.67022,0.765882,-0.933384,0.215948,0.807281,-1.31307,0.400605,1.55707,-0.290003,-0.971386,0.205936,0.83514,-1.39903,0.403932,1.625,-0.318533,0.227978,-2.4808,1.08649,10.3315,0.892961,1.08877,-0.627859,-0.506504,1.28705,0.139043,1.46676,0.694076,0.489122,-0.00697666
1096331,1,-1.62796,-0.505724,0.0469377,-2.17227,0.022782,1.66705,0.766845,-1.63111,-0.504213,0.0497361,-2.17564,0.0246952,1.67185,0.765561,-0.941333,0.212192,0.805003,-1.32164,0.405813,1.60781,-0.294736,-0.977739,0.204463,0.841588,-1.41152,0.406952,1.63651,-0.320853,0.477917,-2.55618,1.21344,10.1569,0.881059,1.08877,-0.556448,-0.53435,1.34192,0.101614,1.40969,0.687079,0.477669,-0.0119432
1096332,1,-1.62892,-0.505526,0.0477523,-2.17364,0.0232079,1.66869,0.766538,-1.63209,-0.50401,0.0505841,-2.17706,0.0251052,1.6735,0.765238,-0.949113,0.2085,0.809816,-1.32813,0.414661,1.61167,-0.298856,-0.984092,0.20299,0.848037,-1.42401,0.409973,1.64801,-0.323172,0.426342,-2.55618,1.41577,10.0061,0.847185,0.999049,-0.485037,-0.543003,1.41257,0.0909231,1.33136,0.680299,0.46325,-0.0183246
1096333,1,-1.62993,-0.505335,0.0485708,-2.17503,0.0236429,1.67035,0.76622,-1.63308,-0.503809,0.0514386,-2.1785,0.0255182,1.67516,0.764913,-0.961803,0.203539,0.818411,-1.35407,0.418971,1.62005,-0.302115,-0.990446,0.201518,0.854486,-1.4365,0.412994,1.65952,-0.325491,0.60487,-2.45303,1.49115,9.98233,0.729082,1.06954,-0.284536,-0.533545,1.49617,0.104246,1.23916,0.673777,0.447315,-0.0260016
1096334,1,-1.63093,-0.505143,0.0493975,-2.17643,0.0240609,1.67198,0.765896,-1.63408,-0.503609,0.0522991,-2.17995,0.0259341,1.67683,0.764585,-0.966063,0.198264,0.825371,-1.37049,0.424543,1.62777,-0.307567,-0.996093,0.199529,0.860483,-1.44899,0.415853,1.67041,-0.327678,0.628673,-2.40543,1.66968,10.1569,0.706194,1.16018,-0.122488,-0.511048,1.58312,0.133124,1.14801,0.667557,0.432163,-0.034579
1096335,1,-1.63193,-0.504943,0.050211,-2.17785,0.024484,1.67366,0.765576,-1.63508,-0.503412,0.0531656,-2.18141,0.0263528,1.67851,0.764255,-0.969569,0.198037,0.84035,-1.37555,0.419194,1.63674,-0.313505,-1.00174,0.197541,0.866481,-1.46148,0.418713,1.68131,-0.329864,0.680248,-2.50461,1.89582,10.3791,0.762956,1.12814,-0.0254419,-0.484549,1.66948,0.164902,1.06336,0.661326,0.418699,-0.0434483
1096336,1,-1.63297,-0.504736,0.0510595,-2.17929,0.0248925,1.67535,0.765254,-1.63609,-0.503216,0.0540381,-2.18289,0.0267744,1.6802,0.763923,-0.98666,0.200345,0.845376,-1.42637,0.415135,1.64668,-0.313426,-1.00739,0.195553,0.872478,-1.47397,0.421572,1.6922,-0.332051,1.00953,-2.73471,1.82044,10.9027,0.847185,1.173,0.071604,-0.459011,1.74017,0.19217,0.996528,0.65512,0.408184,-0.0519432
1096337,1,-1.63398,-0.504524,0.0519152,-2.18077,0.0253057,1.67702,0.764942,-1.6371,-0.503023,0.0549165,-2.18437,0.0271988,1.68191,0.763589,-0.998535,0.20633,0.844996,-1.43388,0.422988,1.65973,-0.312592,-1.01304,0.193565,0.878475,-1.48646,0.424432,1.70309,-0.334238,1.05714,-3.06003,1.76886,11.3987,1.00008,1.29476,0.0459692,-0.426181,1.76605,0.225132,0.969432,0.649714,0.402791,-0.0595654
1096338,1,-1.63497,-0.504315,0.0527576,-2.18228,0.0257386,1.67871,0.764621,-1.63812,-0.502831,0.055801,-2.18587,0.0276261,1.68362,0.763252,-0.984187,0.206471,0.848418,-1.44911,0.423443,1.66086,-0.321419,-1.01868,0.191577,0.884472,-1.49895,0.427292,1.71398,-0.336424,0.553295,-3.44089,1.79663,12.1207,1.01106,1.4559,0.038645,-0.382823,1.74145,0.269891,0.981909,0.645271,0.402313,-0.066
1096339,1,-1.63598,-0.504115,0.0536306,-2.18377,0.0261734,1.68039,0.764287,-1.63914,-0.502642,0.0566915,-2.18738,0.0280562,1.68535,0.762914,-0.986554,0.202999,0.849787,-1.45942,0.426236,1.64779,-0.325312,-1.02433,0.189589,0.89047,-1.51144,0.430151,1.72488,-0.338611,0.200207,-3.69479,1.5943,12.5928,0.96071,1.63626,0.0322363,-0.338634,1.68496,0.316944,1.01848,0.64131,0.405364,-0.0710807
1096340,1,-1.63699,-0.503916,0.0545125,-2.18527,0.0266174,1.68211,0.763952,-1.64017,-0.502454,0.0575879,-2.18891,0.0284892,1.68708,0.762573,-0.993807,0.200785,0.873302,-1.46201,0.432242,1.6686,-0.327424,-1.02998,0.187601,0.896467,-1.52393,0.433011,1.73577,-0.340798,-0.00212494,-3.94473,1.21344,12.692,0.898454,1.7333,0.00660151,-0.303243,1.62002,0.354552,1.0634,0.637377,0.410625,-0.0748132
1096341,1,-1.63801,-0.503735,0.0554086,-2.18678,0.0270594,1.68383,0.763628,-1.64121,-0.502268,0.0584904,-2.19044,0.0289251,1.68883,0.76223,-0.995712,0.192385,0.873987,-1.46499,0.432341,1.68782,-0.326089,-1.03563,0.185613,0.902464,-1.53642,0.43587,1.74666,-0.342984,-0.279835,-3.92093,0.884158,12.4698,0.791338,1.84225,-0.10967,-0.282596,1.5721,0.37422,1.09738,0.632996,0.415966,-0.0773424
1096342,1,-1.63903,-0.503565,0.056314,-2.18828,0.0275138,1.68554,0.763308,-1.64225,-0.502085,0.0593989,-2.19199,0.0293638,1.69059,0.761885,-1.01985,0.183263,0.876447,-1.47263,0.439658,1.69656,-0.324374,-1.04127,0.183625,0.908462,-1.54891,0.43873,1.75756,-0.345171,-0.402821,-3.7424,0.630252,12.3191,0.666826,1.84225,-0.368765,-0.269367,1.5624,0.385965,1.10566,0.62806,0.419789,-0.0789889
1096343,1,-1.64006,-0.503398,0.0572131,-2.18982,0.0279795,1.68729,0.762973,-1.6433,-0.501903,0.0603133,-2.19355,0.0298054,1.69235,0.761537,-1.01711,0.178308,0.881052,-1.47942,0.449953,1.71437,-0.329457,-1.04692,0.181636,0.914459,-1.5614,0.441589,1.76845,-0.347358,-0.656727,-3.61942,0.352542,12.2199,0.587175,1.73971,-0.465811,-0.251596,1.59864,0.406035,1.0841,0.622635,0.42185,-0.0802615
1096344,1,-1.64109,-0.503224,0.0581172,-2.19137,0.0284245,1.68906,0.76264,-1.64435,-0.501724,0.0612333,-2.19513,0.0302497,1.69413,0.761188,-1.01928,0.176071,0.880945,-1.50102,0.43946,1.73423,-0.331934,-1.05184,0.179511,0.919978,-1.57389,0.444278,1.77853,-0.349405,-1.00982,-3.56784,0.300967,12.4698,0.627458,1.2499,-0.491445,-0.229931,1.67014,0.434245,1.04101,0.616629,0.422968,-0.0817131
1096345,1,-1.64212,-0.503036,0.0590266,-2.19295,0.0288756,1.69086,0.76229,-1.64541,-0.501546,0.0621588,-2.19671,0.0306967,1.69592,0.760837,-1.02265,0.178406,0.887749,-1.52423,0.438922,1.75364,-0.33547,-1.05677,0.177386,0.925497,-1.58638,0.446967,1.78861,-0.351452,-1.06139,-3.79398,0.300967,12.6444,0.706194,0.882777,-0.446585,-0.208452,1.74998,0.465524,0.996704,0.61025,0.424714,-0.083772
1096346,1,-1.64317,-0.502838,0.0599454,-2.19454,0.0293262,1.69269,0.761932,-1.64647,-0.501371,0.0630898,-2.19831,0.0311463,1.69772,0.760483,-1.02387,0.182051,0.899854,-1.53742,0.441853,1.76901,-0.344812,-1.06169,0.175261,0.931016,-1.59887,0.449656,1.79869,-0.353499,-0.910633,-4.12326,0.15021,12.569,0.791338,0.41952,-0.362356,-0.192293,1.81109,0.492169,0.969602,0.603745,0.427957,-0.0866342
1096347,1,-1.64423,-0.502638,0.0608924,-2.19612,0.0297864,1.69446,0.761589,-1.64753,-0.501198,0.0640264,-2.19992,0.0315987,1.69953,0.760128,-1.05432,0.188366,0.920285,-1.55083,0.446874,1.7759,-0.343563,-1.06661,0.173136,0.936534,-1.61136,0.452345,1.80877,-0.355546,-0.859058,-4.50412,-0.103696,12.4182,0.819719,0.457972,-0.362356,-0.184934,1.83767,0.506692,0.96648,0.59722,0.432094,-0.0902742
