shamilmamedov/beam_handling/log/param_estimation_ICRA/ocp_Xup_25cm_0.44s_2.csv
duration, success rate, q[0], q[1], q[2], q[3], q[4], q[5], q[6],q_d[0], q_d[1], q_d[2], q_d[3], q_d[4], q_d[5], q_d[6],dq[0], dq[1], dq[2], dq[3], dq[4], dq[5], dq[6],dq_d[0], dq_d[1], dq_d[2], dq_d[3], dq_d[4], dq_d[5], dq_d[6],tau_J[0], tau_J[1], tau_J[2], tau_J[3], tau_J[4], tau_J[5], tau_J[6],tau_ext_hat_filtered[0], tau_ext_hat_filtered[1], tau_ext_hat_filtered[2], tau_ext_hat_filtered[3], tau_ext_hat_filtered[4], tau_ext_hat_filtered[5], tau_ext_hat_filtered[6]
4582401,0,-1.57052,-0.522819,3.63527e-05,-2.09581,1.57044,1.57158,0.785006,-1.5708,-0.523599,8.85724e-08,-2.09439,1.5708,1.5708,0.785397,0.000393146,0.00107984,6.8088e-05,-0.000240141,-0.000247883,-0.000120663,-0.00119939,0,0,0,0,0,0,0,-0.402821,-10.2924,-0.381406,20.8725,0.875566,-0.592137,0.16865,-0.393254,-1.12879,0.00199723,2.32495,0.30648,-0.594199,0.182922
4582402,1,-1.57052,-0.522821,3.83016e-05,-2.0958,1.57044,1.57158,0.785013,-1.5708,-0.523599,8.85724e-08,-2.09439,1.5708,1.5708,0.785397,0.000262097,7.02769e-05,0.000694786,0.00048952,3.81951e-05,0.000631635,0.00184526,0,0,0,0,0,0,0,-0.402821,-10.2646,-0.409177,20.8448,0.870073,-0.611364,0.0972387,-0.393951,-1.13099,0.00101393,2.32653,0.306535,-0.594064,0.182995
4582403,1,-1.57052,-0.522816,3.83016e-05,-2.0958,1.57044,1.57158,0.785008,-1.5708,-0.523599,8.85724e-08,-2.09439,1.5708,1.5708,0.785397,-0.00038208,0.00181009,0.000463026,-0.000323267,-0.000177987,0.000183731,-0.000465246,0,0,0,0,0,0,0,-0.379017,-10.34,-0.409177,20.8725,0.875566,-0.604955,0.143015,-0.394806,-1.1346,-0.000301852,2.32841,0.306612,-0.593951,0.183072
4582404,1,-1.57052,-0.522821,3.46823e-05,-2.0958,1.57044,1.57158,0.785006,-1.5708,-0.523599,8.85724e-08,-2.09439,1.5708,1.5708,0.785397,-0.000811532,-0.000556512,-0.000897866,-0.000215511,0.000491693,-0.000352231,-0.0012596,0,0,0,0,0,0,0,-0.355213,-10.2646,-0.357602,20.8725,0.859087,-0.592137,0.16865,-0.394948,-1.13913,-0.000645398,2.33059,0.306683,-0.59398,0.183127
4582405,1,-1.57052,-0.522823,3.63527e-05,-2.0958,1.57044,1.57158,0.785009,-1.5708,-0.523599,8.85724e-08,-2.09439,1.5708,1.5708,0.785397,0.000572602,-0.00092782,-4.18578e-05,-0.000143674,-7.91054e-05,2.53852e-06,0.00038097,0,0,0,0,0,0,0,-0.402821,-10.2408,-0.381406,20.8725,0.870073,-0.598546,0.135691,-0.394095,-1.14138,0.000528286,2.33177,0.306684,-0.594142,0.183169
4582406,1,-1.57052,-0.522819,3.83016e-05,-2.0958,1.57044,1.57158,0.785006,-1.5708,-0.523599,8.85724e-08,-2.09439,1.5708,1.5708,0.785397,-0.000731889,0.000587879,0.000621639,0.00111064,0.000150714,1.69235e-06,-0.000729364,0,0,0,0,0,0,0,-0.355213,-10.2924,-0.409177,20.821,0.86458,-0.598546,0.162241,-0.393254,-1.1404,0.00171247,2.33124,0.306616,-0.594272,0.183235
4582407,1,-1.57052,-0.522821,3.83016e-05,-2.0958,1.57044,1.57158,0.785012,-1.5708,-0.523599,8.85724e-08,-2.09439,1.5708,1.5708,0.785397,6.8886e-05,-0.000257694,0.000414374,0.000183617,-0.000102975,1.12823e-06,0.00144654,0,0,0,0,0,0,0,-0.379017,-10.2646,-0.409177,20.8448,0.870073,-0.598546,0.110056,-0.3929,-1.13856,0.00206058,2.32988,0.306529,-0.59433,0.183333
4582408,1,-1.57052,-0.522819,3.46823e-05,-2.09581,1.57044,1.57158,0.785011,-1.5708,-0.523599,8.85724e-08,-2.09439,1.5708,1.5708,0.785397,0.000602736,0.000477818,-0.000930216,-0.00108401,-0.0002721,-0.000236607,0.000726999,0,0,0,0,0,0,0,-0.402821,-10.2924,-0.357602,20.8963,0.875566,-0.592137,0.116465,-0.392687,-1.1375,0.00217991,2.32897,0.306453,-0.594379,0.183447
4582409,1,-1.57052,-0.522821,3.83016e-05,-2.0958,1.57044,1.57158,0.785006,-1.5708,-0.523599,8.85724e-08,-2.09439,1.5708,1.5708,0.785397,-0.000154988,-0.000331069,0.000586253,-0.000165865,2.20503e-05,7.96211e-05,-0.00144811,0,0,0,0,0,0,0,-0.379017,-10.2646,-0.409177,20.8725,0.870073,-0.598546,0.16865,-0.392409,-1.13771,0.00247878,2.32916,0.306409,-0.594446,0.183539
4582410,1,-1.57052,-0.522821,4.21025e-05,-2.0958,1.57044,1.57158,0.785011,-1.5708,-0.523599,8.85724e-08,-2.09439,1.5708,1.5708,0.785397,0.000453487,-0.000220713,0.000947625,0.000539038,1.47002e-05,0.00029044,0.000730012,0,0,0,0,0,0,0,-0.402821,-10.2646,-0.432981,20.8448,0.870073,-0.604955,0.122873,-0.392596,-1.13752,0.00204053,2.32926,0.306388,-0.594437,0.183601
4582411,1,-1.57051,-0.522819,3.53925e-05,-2.09581,1.57044,1.57158,0.785009,-1.5708,-0.523599,8.85724e-08,-2.09439,1.5708,1.5708,0.785397,0.000951938,0.000502472,-0.0011315,-0.000290256,0.000416701,-0.000281091,1.19567e-05,0,0,0,0,0,0,0,-0.430592,-10.2924,-0.357602,20.8725,0.859087,-0.592137,0.135691,-0.393277,-1.13671,0.000897674,2.32882,0.306366,-0.594355,0.183654
4582412,1,-1.57052,-0.522819,3.29702e-05,-2.09581,1.57044,1.57158,0.785007,-1.5708,-0.523599,8.85724e-08,-2.09439,1.5708,1.5708,0.785397,-0.0005718,0.000334982,-0.00140396,-0.000193504,-0.000332551,-0.000187394,-0.000738014,0,0,0,0,0,0,0,-0.379017,-10.2924,-0.329831,20.8725,0.875566,-0.592137,0.155832,-0.393078,-1.13705,0.0013096,2.32888,0.306314,-0.594425,0.183695
4582413,1,-1.57052,-0.522823,3.83805e-05,-2.0958,1.57044,1.57158,0.785013,-1.5708,-0.523599,8.85724e-08,-2.09439,1.5708,1.5708,0.785397,0.000825226,-0.000983105,0.000920056,0.000520611,0.000185201,0.000349788,0.00144077,0,0,0,0,0,0,0,-0.430592,-10.2408,-0.409177,20.8448,0.86458,-0.604955,0.103647,-0.392099,-1.13727,0.00305341,2.32886,0.306221,-0.594616,0.183728
4582414,1,-1.57052,-0.522821,3.47086e-05,-2.09581,1.57044,1.57158,0.785007,-1.5708,-0.523599,8.85724e-08,-2.09439,1.5708,1.5708,0.785397,-0.000656275,-9.85913e-05,-0.000593062,-0.00030254,-7.99835e-05,-0.000241526,-0.000972266,0,0,0,0,0,0,0,-0.379017,-10.2646,-0.357602,20.8725,0.870073,-0.592137,0.155832,-0.39154,-1.13563,0.0041863,2.3279,0.306112,-0.594728,0.183758
4582415,1,-1.57051,-0.522823,3.63615e-05,-2.0958,1.57044,1.57158,0.785011,-1.5708,-0.523599,8.85724e-08,-2.09439,1.5708,1.5708,0.785397,0.000768909,-0.000622539,0.000161432,0.00100473,0.000150128,0.000313701,0.000572526,0,0,0,0,0,0,0,-0.430592,-10.2408,-0.381406,20.821,0.86458,-0.604955,0.122873,-0.391262,-1.13286,0.0049479,2.32633,0.305992,-0.594792,0.183772
4582416,1,-1.57052,-0.522817,3.63556e-05,-2.09581,1.57044,1.57158,0.785013,-1.5708,-0.523599,8.85724e-08,-2.09439,1.5708,1.5708,0.785397,-0.00069382,0.00134821,0.000107617,-0.000536604,-0.000306816,0.000209134,0.00133112,0,0,0,0,0,0,0,-0.379017,-10.3162,-0.381406,20.8725,0.875566,-0.604955,0.0972387,-0.391119,-1.13103,0.00556559,2.32508,0.305885,-0.594862,0.18377
4582417,1,-1.57052,-0.522819,3.46832e-05,-2.09581,1.57044,1.57158,0.785006,-1.5708,-0.523599,8.85724e-08,-2.09439,1.5708,1.5708,0.785397,-0.000462547,0.000341996,-0.00048507,-0.000357736,-0.000407994,-9.79364e-05,-0.00152008,0,0,0,0,0,0,0,-0.379017,-10.2924,-0.357602,20.8725,0.881059,-0.598546,0.162241,-0.390794,-1.13236,0.00642789,2.32548,0.305836,-0.595011,0.183734
4582418,1,-1.57052,-0.522821,3.83019e-05,-2.09581,1.57044,1.57158,0.785011,-1.5708,-0.523599,8.85724e-08,-2.09439,1.5708,1.5708,0.785397,-0.000308364,-0.000421617,0.000883044,-0.000795303,0.000338355,-6.52909e-05,0.000682031,0,0,0,0,0,0,0,-0.379017,-10.2646,-0.409177,20.8963,0.86458,-0.598546,0.116465,-0.390264,-1.13528,0.00752577,2.32703,0.30584,-0.595214,0.183653
4582419,1,-1.57052,-0.522819,3.63528e-05,-2.0958,1.57044,1.57158,0.785007,-1.5708,-0.523599,8.85724e-08,-2.09439,1.5708,1.5708,0.785397,-0.000205576,-0.000281078,-6.09198e-05,0.00123304,2.21197e-05,-4.35273e-05,-0.00100337,0,0,0,0,0,0,0,-0.379017,-10.2646,-0.381406,20.821,0.870073,-0.598546,0.155832,-0.390147,-1.1365,0.00793997,2.32781,0.30585,-0.595334,0.183552
4582420,1,-1.57052,-0.522818,3.46823e-05,-2.09581,1.57044,1.57158,0.785005,-1.5708,-0.523599,8.85724e-08,-2.09439,1.5708,1.5708,0.785397,-0.000693863,0.000462229,-0.000597426,-0.000384402,-0.000188704,-0.000266377,-0.00138099,0,0,0,0,0,0,0,-0.355213,-10.2924,-0.357602,20.8725,0.875566,-0.592137,0.175059,-0.389924,-1.1362,0.00849193,2.32752,0.305824,-0.595449,0.183451
4582421,1,-1.57052,-0.522817,3.63527e-05,-2.09581,1.57044,1.57158,0.785011,-1.5708,-0.523599,8.85724e-08,-2.09439,1.5708,1.5708,0.785397,0.000651049,0.000864964,0.000158527,-0.00081308,-0.000125803,-0.000177585,0.00124948,0,0,0,0,0,0,0,-0.402821,-10.3162,-0.381406,20.8963,0.875566,-0.592137,0.116465,-0.389378,-1.13732,0.00954255,2.32794,0.305814,-0.595615,0.183377
4582422,1,-1.57052,-0.522821,3.83016e-05,-2.0958,1.57044,1.57158,0.785007,-1.5708,-0.523599,8.85724e-08,-2.09439,1.5708,1.5708,0.785397,0.000434032,-0.000629783,0.000755298,-0.000542053,0.000119582,-0.000355749,-0.000625078,0,0,0,0,0,0,0,-0.402821,-10.2646,-0.409177,20.8963,0.870073,-0.585729,0.155832,-0.389567,-1.13995,0.00950115,2.32949,0.305879,-0.595666,0.183353
4582423,1,-1.57052,-0.522819,3.63527e-05,-2.0958,1.57044,1.57158,0.785012,-1.5708,-0.523599,8.85724e-08,-2.09439,1.5708,1.5708,0.785397,-0.00147388,0.000229759,-0.000146083,0.00140187,-0.00032718,0.000237552,0.0012787,0,0,0,0,0,0,0,-0.327442,-10.2924,-0.381406,20.821,0.881059,-0.598546,0.110056,-0.390221,-1.14115,0.00867331,2.3303,0.305945,-0.595607,0.183368
4582424,1,-1.57052,-0.522819,3.63527e-05,-2.0958,1.57044,1.57158,0.785012,-1.5708,-0.523599,8.85724e-08,-2.09439,1.5708,1.5708,0.785397,0.000223837,0.000153172,-9.73888e-05,-0.000271847,0.000188781,0.000395727,0.000852468,0,0,0,0,0,0,0,-0.379017,-10.2924,-0.381406,20.8725,0.870073,-0.604955,0.110056,-0.390177,-1.14079,0.00873754,2.32984,0.305954,-0.595617,0.1834
4582425,1,-1.57052,-0.522819,3.27334e-05,-2.0958,1.57044,1.57158,0.785003,-1.5708,-0.523599,8.85724e-08,-2.09439,1.5708,1.5708,0.785397,0.000149225,0.000102115,-0.00127135,0.00102519,-7.75963e-05,0.000263818,-0.0023139,0,0,0,0,0,0,0,-0.379017,-10.2924,-0.329831,20.821,0.875566,-0.604955,0.187876,-0.38943,-1.1402,0.00986611,2.32896,0.30593,-0.595718,0.183412
4582426,1,-1.57052,-0.522819,3.63527e-05,-2.0958,1.57044,1.57158,0.785011,-1.5708,-0.523599,8.85724e-08,-2.09439,1.5708,1.5708,0.785397,-0.00110694,6.80766e-05,0.000358858,0.000126651,-5.17309e-05,-6.14803e-05,0.000864896,0,0,0,0,0,0,0,-0.327442,-10.2924,-0.381406,20.8448,0.875566,-0.598546,0.122873,-0.388205,-1.13936,0.0117439,2.32779,0.30589,-0.595884,0.183401
4582427,1,-1.57052,-0.522823,3.83016e-05,-2.0958,1.57044,1.57158,0.785006,-1.5708,-0.523599,8.85724e-08,-2.09439,1.5708,1.5708,0.785397,0.00102528,-0.00116104,0.000888852,8.44342e-05,0.000168963,-0.000515705,-0.000881465,0,0,0,0,0,0,0,-0.402821,-10.2408,-0.409177,20.8448,0.870073,-0.585729,0.162241,-0.387455,-1.13756,0.0127756,2.32623,0.30587,-0.595961,0.183406
4582428,1,-1.57052,-0.522823,3.63527e-05,-2.0958,1.57044,1.57158,0.785006,-1.5708,-0.523599,8.85724e-08,-2.09439,1.5708,1.5708,0.785397,0.000683517,-0.000774028,-5.70459e-05,5.62895e-05,-9.08083e-05,-0.000106444,-0.000825002,0,0,0,0,0,0,0,-0.402821,-10.2408,-0.381406,20.8448,0.875566,-0.592137,0.16865,-0.388113,-1.13401,0.0116492,2.32413,0.305895,-0.595792,0.183442
4582429,1,-1.57052,-0.522821,3.83016e-05,-2.0958,1.57044,1.57158,0.785013,-1.5708,-0.523599,8.85724e-08,-2.09439,1.5708,1.5708,0.785397,-0.000101134,4.07935e-05,0.000611583,3.75263e-05,-6.05389e-05,-7.09628e-05,0.0018575,0,0,0,0,0,0,0,-0.379017,-10.2646,-0.409177,20.8448,0.875566,-0.592137,0.103647,-0.389428,-1.13006,0.0095625,2.32204,0.305946,-0.595507,0.183521
4582430,1,-1.57052,-0.522821,3.63527e-05,-2.0958,1.57044,1.57158,0.785005,-1.5708,-0.523599,8.85724e-08,-2.09439,1.5708,1.5708,0.785397,0.000489389,2.71957e-05,-0.000241892,0.000581829,-4.03593e-05,-4.73085e-05,-0.00140653,0,0,0,0,0,0,0,-0.402821,-10.2646,-0.381406,20.821,0.875566,-0.592137,0.175059,-0.390562,-1.12761,0.00772138,2.32063,0.306018,-0.595259,0.183638
4582431,1,-1.57052,-0.522821,3.83016e-05,-2.0958,1.57044,1.57158,0.785007,-1.5708,-0.523599,8.85724e-08,-2.09439,1.5708,1.5708,0.785397,0.00032626,1.81305e-05,0.000488353,-0.000168926,-0.000230357,0.00020582,0.000995096,0,0,0,0,0,0,0,-0.402821,-10.2646,-0.409177,20.8448,0.881059,-0.598546,0.122873,-0.391467,-1.12668,0.00623982,2.31982,0.306108,-0.59506,0.183769
4582432,1,-1.57052,-0.522821,3.63527e-05,-2.0958,1.57044,1.57158,0.785009,-1.5708,-0.523599,8.85724e-08,-2.09439,1.5708,1.5708,0.785397,-0.000339306,1.2087e-05,-0.000324046,-0.000762231,0.000660231,0.000137213,0.00137547,0,0,0,0,0,0,0,-0.379017,-10.2646,-0.381406,20.8725,0.859087,-0.598546,0.103647,-0.392019,-1.12716,0.00528857,2.31988,0.306223,-0.59493,0.183906
4582433,1,-1.57052,-0.522821,3.83016e-05,-2.0958,1.57044,1.57158,0.785006,-1.5708,-0.523599,8.85724e-08,-2.09439,1.5708,1.5708,0.785397,0.000330608,8.05798e-06,0.000433584,0.00014146,-0.000170198,0.000328834,-0.0010158,0,0,0,0,0,0,0,-0.402821,-10.2646,-0.409177,20.8448,0.875566,-0.604955,0.155832,-0.392103,-1.12875,0.00501061,2.32074,0.306354,-0.594886,0.184023
4582434,1,-1.57052,-0.522823,3.63527e-05,-2.0958,1.57044,1.57158,0.785011,-1.5708,-0.523599,8.85724e-08,-2.09439,1.5708,1.5708,0.785397,0.000220406,-0.00055144,-0.000360558,0.000651119,0.000293436,-1.8136e-05,0.000780864,0,0,0,0,0,0,0,-0.402821,-10.2408,-0.381406,20.821,0.86458,-0.598546,0.116465,-0.392035,-1.12976,0.00499945,2.32118,0.306455,-0.594874,0.184098
4582435,1,-1.57052,-0.522819,3.83016e-05,-2.09581,1.57044,1.57158,0.785005,-1.5708,-0.523599,8.85724e-08,-2.09439,1.5708,1.5708,0.785397,-0.000409875,0.000838799,0.000409242,-0.000772347,-0.000211277,-1.20906e-05,-0.0014122,0,0,0,0,0,0,0,-0.379017,-10.2924,-0.409177,20.8725,0.875566,-0.598546,0.16865,-0.391857,-1.13041,0.00519066,2.32127,0.306525,-0.594896,0.184138
4582436,1,-1.57052,-0.522821,3.46823e-05,-2.09581,1.57044,1.57158,0.785007,-1.5708,-0.523599,8.85724e-08,-2.09439,1.5708,1.5708,0.785397,-0.000830062,-9.04144e-05,-0.000933598,-0.000514898,-0.000344302,-8.06043e-06,-0.000466751,0,0,0,0,0,0,0,-0.355213,-10.2646,-0.357602,20.8725,0.881059,-0.598546,0.155832,-0.391065,-1.13259,0.00624388,2.3223,0.3066,-0.595042,0.184155
4582437,1,-1.57052,-0.522823,3.46823e-05,-2.0958,1.57044,1.57158,0.785012,-1.5708,-0.523599,8.85724e-08,-2.09439,1.5708,1.5708,0.785397,3.43734e-06,-0.000617088,-0.000622399,0.000306349,-2.60841e-05,-0.000242733,0.00138425,0,0,0,0,0,0,0,-0.379017,-10.2408,-0.357602,20.8448,0.875566,-0.592137,0.110056,-0.389387,-1.13473,0.00861792,2.32347,0.306643,-0.595326,0.184182
4582438,1,-1.57052,-0.522821,3.27334e-05,-2.0958,1.57044,1.57158,0.785007,-1.5708,-0.523599,8.85724e-08,-2.09439,1.5708,1.5708,0.785397,2.29156e-06,0.00014542,-0.00106455,0.000204232,0.000186061,7.55372e-05,-0.000772585,0,0,0,0,0,0,0,-0.379017,-10.2646,-0.329831,20.8448,0.870073,-0.598546,0.155832,-0.387272,-1.13507,0.0117799,2.32357,0.306627,-0.595657,0.184232
4582439,1,-1.57052,-0.522821,3.63527e-05,-2.0958,1.57044,1.57158,0.785011,-1.5708,-0.523599,8.85724e-08,-2.09439,1.5708,1.5708,0.785397,0.00055834,9.69465e-05,0.000496728,-0.000513459,0.000124041,-0.000187001,0.000705646,0,0,0,0,0,0,0,-0.402821,-10.2646,-0.381406,20.8725,0.870073,-0.592137,0.122873,-0.385627,-1.13514,0.0143678,2.32343,0.306616,-0.595911,0.184281
4582440,1,-1.57052,-0.522825,3.63527e-05,-2.0958,1.57044,1.57158,0.78501,-1.5708,-0.523599,8.85724e-08,-2.09439,1.5708,1.5708,0.785397,0.000372226,-0.00114179,0.000331152,0.000307308,-0.000120757,0.000112692,0.000233072,0,0,0,0,0,0,0,-0.402821,-10.213,-0.381406,20.8448,0.875566,-0.598546,0.129282,-0.385281,-1.13481,0.0150537,2.32321,0.306651,-0.595962,0.184326
4582441,1,-1.57052,-0.522819,3.63527e-05,-2.0958,1.57044,1.57158,0.785007,-1.5708,-0.523599,8.85724e-08,-2.09439,1.5708,1.5708,0.785397,-0.000865473,0.00109484,0.000220768,0.000204872,-8.05045e-05,7.51278e-05,-0.000827963,0,0,0,0,0,0,0,-0.355213,-10.2924,-0.381406,20.8448,0.875566,-0.598546,0.155832,-0.385768,-1.13374,0.0144484,2.3226,0.306704,-0.595881,0.184358
4582442,1,-1.57052,-0.522821,3.46823e-05,-2.09581,1.57044,1.57158,0.785011,-1.5708,-0.523599,8.85724e-08,-2.09439,1.5708,1.5708,0.785397,-2.017e-05,8.02816e-05,-0.000409633,-0.000513033,0.000353231,-0.000187274,0.000668728,0,0,0,0,0,0,0,-0.379017,-10.2646,-0.357602,20.8725,0.86458,-0.592137,0.122873,-0.385968,-1.13414,0.0141987,2.3226,0.306773,-0.595861,0.184373
4582443,1,-1.57052,-0.522819,3.46823e-05,-2.09581,1.57044,1.57158,0.78501,-1.5708,-0.523599,8.85724e-08,-2.09439,1.5708,1.5708,0.785397,-1.34467e-05,0.000703135,-0.000273089,-0.000342022,-0.000374864,-0.000124849,0.00020846,0,0,0,0,0,0,0,-0.379017,-10.2924,-0.357602,20.8725,0.881059,-0.592137,0.129282,-0.385735,-1.13645,0.0146143,2.3237,0.30686,-0.595921,0.184379
4582444,1,-1.57052,-0.522823,3.63527e-05,-2.0958,1.57044,1.57158,0.785005,-1.5708,-0.523599,8.85724e-08,-2.09439,1.5708,1.5708,0.785397,0.000547848,-0.000737669,0.000374753,0.000978411,-4.64588e-05,-8.32328e-05,-0.00155645,0,0,0,0,0,0,0,-0.402821,-10.2408,-0.381406,20.821,0.875566,-0.592137,0.175059,-0.385684,-1.13836,0.0148404,2.32458,0.306939,-0.59594,0.184374
4582445,1,-1.57052,-0.522821,3.46823e-05,-2.0958,1.57044,1.57158,0.78501,-1.5708,-0.523599,8.85724e-08,-2.09439,1.5708,1.5708,0.785397,-0.000748392,6.50325e-05,-0.000306977,9.54623e-05,-0.000234423,0.00018187,0.000657789,0,0,0,0,0,0,0,-0.355213,-10.2646,-0.357602,20.8448,0.881059,-0.598546,0.129282,-0.385911,-1.13807,0.0146832,2.3241,0.306982,-0.595883,0.184371
4582446,1,-1.57052,-0.522819,3.83016e-05,-2.0958,1.57044,1.57158,0.785009,-1.5708,-0.523599,8.85724e-08,-2.09439,1.5708,1.5708,0.785397,0.000614696,0.000692969,0.00100177,6.36415e-05,0.000250619,-0.000116112,0.000201167,0,0,0,0,0,0,0,-0.402821,-10.2924,-0.409177,20.8448,0.870073,-0.592137,0.135691,-0.38627,-1.13737,0.0142833,2.32333,0.307031,-0.595794,0.18439
4582447,1,-1.57052,-0.522821,3.46823e-05,-2.09581,1.57044,1.57158,0.78501,-1.5708,-0.523599,8.85724e-08,-2.09439,1.5708,1.5708,0.785397,-0.000147015,-0.000187635,-0.000538576,-0.001164,-3.63712e-05,-0.000314767,0.00037147,0,0,0,0,0,0,0,-0.379017,-10.2646,-0.357602,20.8963,0.875566,-0.585729,0.129282,-0.386931,-1.13818,0.0133996,2.32357,0.307136,-0.595667,0.184424
4582448,1,-1.57052,-0.522826,3.63527e-05,-2.09581,1.57044,1.57158,0.785011,-1.5708,-0.523599,8.85724e-08,-2.09439,1.5708,1.5708,0.785397,-0.000654822,-0.00188833,0.000197761,-0.000219187,0.000179203,2.75143e-05,0.000722365,0,0,0,0,0,0,0,-0.355213,-10.1892,-0.381406,20.8725,0.870073,-0.592137,0.116465,-0.387287,-1.13805,0.0129538,2.32389,0.307239,-0.595552,0.184454
4582449,1,-1.57052,-0.522821,4.04321e-05,-2.09581,1.57044,1.57158,0.785006,-1.5708,-0.523599,8.85724e-08,-2.09439,1.5708,1.5708,0.785397,0.000677076,0.000504353,0.000781455,-0.000146125,0.000119469,0.000255702,-0.0014512,0,0,0,0,0,0,0,-0.402821,-10.2646,-0.409177,20.8725,0.870073,-0.598546,0.16865,-0.387472,-1.13562,0.0126972,2.32334,0.307309,-0.595418,0.184463
4582450,1,-1.57052,-0.522821,3.53925e-05,-2.09581,1.57044,1.57158,0.78501,-1.5708,-0.523599,8.85724e-08,-2.09439,1.5708,1.5708,0.785397,0.000451384,0.000336235,-0.000685456,-9.74164e-05,-0.000123805,-6.68911e-05,0.000490593,0,0,0,0,0,0,0,-0.402821,-10.2646,-0.357602,20.8725,0.875566,-0.592137,0.129282,-0.388057,-1.13395,0.0118606,2.32301,0.30739,-0.595229,0.184454
4582451,1,-1.57052,-0.522819,3.65894e-05,-2.09581,1.57044,1.57158,0.785012,-1.5708,-0.523599,8.85724e-08,-2.09439,1.5708,1.5708,0.785397,-0.000255889,0.000873771,9.98412e-05,-0.000621756,-0.000523346,-4.4594e-05,0.00103914,0,0,0,0,0,0,0,-0.379017,-10.2924,-0.381406,20.8963,0.887468,-0.592137,0.110056,-0.38842,-1.135,0.011446,2.3239,0.307489,-0.59511,0.184445
4582452,1,-1.57052,-0.522821,3.64316e-05,-2.09581,1.57044,1.57158,0.785008,-1.5708,-0.523599,8.85724e-08,-2.09439,1.5708,1.5708,0.785397,-0.00137702,-6.71001e-05,6.65608e-05,-0.000414504,0.000295363,-2.97294e-05,-0.000765303,0,0,0,0,0,0,0,-0.327442,-10.2646,-0.381406,20.8963,0.870073,-0.592137,0.149424,-0.388048,-1.13775,0.0120441,2.32569,0.307594,-0.595122,0.184428
4582453,1,-1.57052,-0.522817,3.6379e-05,-2.09581,1.57044,1.57158,0.785009,-1.5708,-0.523599,8.85724e-08,-2.09439,1.5708,1.5708,0.785397,-0.000268399,0.00116169,4.43739e-05,0.000280476,0.000196908,-1.98196e-05,-1.57557e-06,0,0,0,0,0,0,0,-0.355213,-10.3162,-0.381406,20.8725,0.870073,-0.592137,0.135691,-0.387045,-1.14093,0.013384,2.32765,0.307695,-0.595224,0.184386
4582454,1,-1.57052,-0.522819,3.63615e-05,-2.09581,1.57044,1.57158,0.785009,-1.5708,-0.523599,8.85724e-08,-2.09439,1.5708,1.5708,0.785397,0.000934692,0.00021765,2.95826e-05,-0.000369828,-0.000275629,0.000224146,-1.05038e-06,0,0,0,0,0,0,0,-0.402821,-10.2924,-0.381406,20.8963,0.881059,-0.598546,0.135691,-0.386186,-1.14425,0.0144554,2.32946,0.307795,-0.595299,0.184333
4582455,1,-1.57052,-0.522821,3.84862e-05,-2.09581,1.57044,1.57158,0.785008,-1.5708,-0.523599,8.85724e-08,-2.09439,1.5708,1.5708,0.785397,6.63157e-05,-0.000504514,0.0063057,-0.000246552,-0.000421111,-8.79283e-05,-0.000509327,0,0,0,0,0,0,0,-0.379017,-10.2646,-0.381406,20.8963,0.887468,-0.592137,0.149424,-0.387801,-1.14646,0.0115873,2.33083,0.307978,-0.594986,0.184285
4582456,1,-1.57052,-0.522819,3.70639e-05,-2.0958,1.57044,1.57158,0.785013,-1.5708,-0.523599,8.85724e-08,-2.09439,1.5708,1.5708,0.785397,4.42105e-05,0.000313271,0.00472763,0.00159887,-4.3382e-05,-0.000295978,0.00135587,0,0,0,0,0,0,0,-0.379017,-10.2924,-0.381406,20.821,0.881059,-0.585729,0.103647,-0.393669,-1.14606,0.00170502,2.33091,0.308306,-0.594008,0.184256
4582457,1,-1.57052,-0.522823,3.65898e-05,-2.0958,1.57044,1.57158,0.785008,-1.5708,-0.523599,8.85724e-08,-2.09439,1.5708,1.5708,0.785397,2.94737e-05,-0.000997578,0.00354463,0.000509101,-2.89213e-05,4.00404e-05,-0.000791508,0,0,0,0,0,0,0,-0.379017,-10.2408,-0.381406,20.8448,0.881059,-0.592137,0.149424,-0.401787,-1.14297,-0.01194,2.3292,0.308683,-0.592663,0.184237
4582458,1,-1.57052,-0.522821,3.83806e-05,-2.09581,1.57044,1.57158,0.785011,-1.5708,-0.523599,8.85724e-08,-2.09439,1.5708,1.5708,0.785397,1.96491e-05,-0.00010824,0.00330736,-0.00142384,0.00018417,0.000501411,0.000693031,0,0,0,0,0,0,0,-0.379017,-10.2646,-0.409177,20.9201,0.875566,-0.604955,0.116465,-0.409286,-1.13871,-0.0245908,2.32705,0.309042,-0.591391,0.184201
4582459,1,-1.57052,-0.522823,3.99983e-05,-2.0958,1.57044,1.57158,0.785008,-1.5708,-0.523599,8.85724e-08,-2.09439,1.5708,1.5708,0.785397,1.30994e-05,-0.000628972,0.00298271,0.000814013,0.00032623,-0.000377803,-0.000758682,0,0,0,0,0,0,0,-0.379017,-10.2408,-0.432981,20.8448,0.870073,-0.585729,0.149424,-0.415262,-1.13502,-0.0347653,2.3257,0.309384,-0.590348,0.18414
4582460,1,-1.57052,-0.522821,3.83103e-05,-2.09581,1.57044,1.57158,0.785006,-1.5708,-0.523599,8.85724e-08,-2.09439,1.5708,1.5708,0.785397,-0.000548079,0.000137497,0.0015974,-0.00122056,1.40363e-05,0.00022285,-0.00121786,0,0,0,0,0,0,0,-0.355213,-10.2646,-0.409177,20.9201,0.875566,-0.598546,0.16865,-0.419152,-1.13221,-0.0415839,2.32495,0.309661,-0.589628,0.18406
4582461,1,-1.57052,-0.522819,3.63556e-05,-2.09581,1.57044,1.57158,0.785013,-1.5708,-0.523599,8.85724e-08,-2.09439,1.5708,1.5708,0.785397,-0.000365386,0.000741279,0.000539629,0.000299916,-0.000194093,-8.87926e-05,0.00183295,0,0,0,0,0,0,0,-0.355213,-10.2924,-0.381406,20.8725,0.881059,-0.592137,0.0972387,-0.420137,-1.13152,-0.0437979,2.32529,0.309848,-0.589369,0.183987
4582462,1,-1.57052,-0.522821,3.46832e-05,-2.0958,1.57044,1.57158,0.785006,-1.5708,-0.523599,8.85724e-08,-2.09439,1.5708,1.5708,0.785397,0.000870033,-0.00071224,-0.000103828,0.000849558,-0.000366754,-0.000296554,-0.00118553,0,0,0,0,0,0,0,-0.402821,-10.2408,-0.357602,20.8448,0.887468,-0.585729,0.162241,-0.418428,-1.13194,-0.0416069,2.32588,0.309911,-0.589532,0.183935
4582463,1,-1.57052,-0.52282,3.99723e-05,-2.09581,1.57044,1.57158,0.785012,-1.5708,-0.523599,8.85724e-08,-2.09439,1.5708,1.5708,0.785397,2.32102e-05,8.19852e-05,0.00176394,-0.000640054,0.000399757,0.000277015,0.00114242,0,0,0,0,0,0,0,-0.379017,-10.2646,-0.432981,20.8963,0.870073,-0.598546,0.110056,-0.415569,-1.13134,-0.0373555,2.32567,0.309884,-0.589857,0.183891
4582464,1,-1.57052,-0.522817,3.99721e-05,-2.09581,1.57044,1.57158,0.785011,-1.5708,-0.523599,8.85724e-08,-2.09439,1.5708,1.5708,0.785397,1.54735e-05,0.00126108,0.0012284,0.000130109,6.30542e-05,-5.26821e-05,0.000286898,0,0,0,0,0,0,0,-0.379017,-10.3162,-0.432981,20.8725,0.875566,-0.592137,0.122873,-0.412815,-1.13183,-0.0332251,2.32608,0.309885,-0.590179,0.183844
4582465,1,-1.57052,-0.522817,3.83016e-05,-2.0958,1.57044,1.57158,0.785005,-1.5708,-0.523599,8.85724e-08,-2.09439,1.5708,1.5708,0.785397,1.03156e-05,0.000840722,0.000301456,0.000736353,-0.000161414,-0.00027248,-0.00174151,0,0,0,0,0,0,0,-0.379017,-10.3162,-0.409177,20.8448,0.881059,-0.585729,0.175059,-0.410029,-1.13484,-0.0291105,2.32756,0.309921,-0.59054,0.18378
4582466,1,-1.57052,-0.522821,3.9972e-05,-2.09581,1.57044,1.57158,0.785013,-1.5708,-0.523599,8.85724e-08,-2.09439,1.5708,1.5708,0.785397,6.8771e-06,-0.000645945,0.000787281,-0.000158712,-0.00010761,0.000293064,0.00172121,0,0,0,0,0,0,0,-0.379017,-10.2646,-0.432981,20.8725,0.881059,-0.598546,0.0972387,-0.406849,-1.13781,-0.0244146,2.32876,0.309926,-0.590962,0.183706
4582467,1,-1.57052,-0.522819,4.04321e-05,-2.0958,1.57044,1.57158,0.785008,-1.5708,-0.523599,8.85724e-08,-2.09439,1.5708,1.5708,0.785397,-0.000552227,0.000218984,-9.83371e-06,0.000543806,0.000131711,0.000195376,-0.000785309,0,0,0,0,0,0,0,-0.355213,-10.2924,-0.409177,20.8448,0.875566,-0.598546,0.149424,-0.403278,-1.13875,-0.019201,2.32897,0.309885,-0.591417,0.183639
4582468,1,-1.57052,-0.522819,3.70629e-05,-2.0958,1.57044,1.57158,0.785008,-1.5708,-0.523599,8.85724e-08,-2.09439,1.5708,1.5708,0.785397,0.00018866,0.000145989,-0.000639577,-0.000287076,0.000291258,-0.000344467,-0.000523539,0,0,0,0,0,0,0,-0.379017,-10.2924,-0.381406,20.8725,0.870073,-0.585729,0.149424,-0.399119,-1.13879,-0.013152,2.32878,0.30981,-0.591949,0.183567
4582469,1,-1.57052,-0.522819,3.65894e-05,-2.0958,1.57044,1.57158,0.785012,-1.5708,-0.523599,8.85724e-08,-2.09439,1.5708,1.5708,0.785397,0.000682586,9.73263e-05,-0.00041394,0.00045823,0.000397622,0.000482432,0.00110904,0,0,0,0,0,0,0,-0.402821,-10.2924,-0.381406,20.8448,0.86458,-0.604955,0.110056,-0.39469,-1.13896,-0.00661068,2.32866,0.309716,-0.592525,0.183494
4582470,1,-1.57052,-0.522821,3.64316e-05,-2.0958,1.57044,1.57158,0.785004,-1.5708,-0.523599,8.85724e-08,-2.09439,1.5708,1.5708,0.785397,-0.000101755,-0.00058473,-0.000266626,0.000305486,-0.000141819,0.000321621,-0.0019055,0,0,0,0,0,0,0,-0.379017,-10.2646,-0.381406,20.8448,0.875566,-0.604955,0.181467,-0.390587,-1.13837,-0.000460256,2.3281,0.3096,-0.593054,0.183432
4582471,1,-1.57052,-0.522821,3.83279e-05,-2.0958,1.57044,1.57158,0.785011,-1.5708,-0.523599,8.85724e-08,-2.09439,1.5708,1.5708,0.785397,-6.78366e-05,-0.00038982,0.000478863,0.000203658,0.000108904,-0.000260304,0.000899806,0,0,0,0,0,0,0,-0.379017,-10.2646,-0.409177,20.8448,0.870073,-0.592137,0.122873,-0.387096,-1.13634,0.00473691,2.3268,0.309467,-0.593495,0.183384
4582472,1,-1.57052,-0.522821,3.4691e-05,-2.0958,1.57044,1.57158,0.785011,-1.5708,-0.523599,8.85724e-08,-2.09439,1.5708,1.5708,0.785397,-4.52244e-05,-0.00025988,-0.000881933,0.000692584,-0.000130848,-0.000410895,0.000837229,0,0,0,0,0,0,0,-0.379017,-10.2646,-0.357602,20.821,0.875566,-0.585729,0.116465,-0.38416,-1.13348,0.00904661,2.32505,0.309323,-0.593861,0.183368
4582473,1,-1.57051,-0.522821,3.46852e-05,-2.09581,1.57044,1.57158,0.785008,-1.5708,-0.523599,8.85724e-08,-2.09439,1.5708,1.5708,0.785397,0.00117628,-0.000173253,-0.000584018,-0.00185833,-0.000528041,-3.65708e-05,-0.00066255,0,0,0,0,0,0,0,-0.430592,-10.2646,-0.357602,20.9201,0.887468,-0.592137,0.149424,-0.381564,-1.1314,0.0129529,2.32391,0.309198,-0.594193,0.183366
4582474,1,-1.57052,-0.522819,3.63537e-05,-2.0958,1.57044,1.57158,0.785012,-1.5708,-0.523599,8.85724e-08,-2.09439,1.5708,1.5708,0.785397,0.000784184,0.000534112,0.00017042,0.000524353,8.87819e-05,-0.00026174,0.00101636,0,0,0,0,0,0,0,-0.430592,-10.2924,-0.381406,20.8448,0.875566,-0.585729,0.110056,-0.37981,-1.13148,0.0158061,2.32432,0.309154,-0.594425,0.183351
4582475,1,-1.57052,-0.522821,3.83019e-05,-2.0958,1.57044,1.57158,0.785006,-1.5708,-0.523599,8.85724e-08,-2.09439,1.5708,1.5708,0.785397,-0.00124045,-0.000293539,0.000765442,0.000349569,5.9188e-05,-0.000174493,-0.00149256,0,0,0,0,0,0,0,-0.355213,-10.2646,-0.409177,20.8448,0.875566,-0.585729,0.16865,-0.379023,-1.13255,0.0172475,2.32509,0.30917,-0.594526,0.183324
4582476,1,-1.57052,-0.522819,3.83017e-05,-2.09581,1.57044,1.57158,0.785008,-1.5708,-0.523599,8.85724e-08,-2.09439,1.5708,1.5708,0.785397,-0.000826966,0.000453921,0.000511956,-0.000416568,0.000242909,-0.000116329,-0.000282966,0,0,0,0,0,0,0,-0.355213,-10.2924,-0.409177,20.8725,0.870073,-0.585729,0.149424,-0.37844,-1.13351,0.0181635,2.32551,0.309204,-0.594589,0.18329
4582477,1,-1.57052,-0.522819,3.63527e-05,-2.09581,1.57044,1.57158,0.785013,-1.5708,-0.523599,8.85724e-08,-2.09439,1.5708,1.5708,0.785397,0.000562314,0.000302614,-0.000307064,-0.000834524,0.000161939,0.000159806,0.00150678,0,0,0,0,0,0,0,-0.402821,-10.2924,-0.381406,20.8963,0.870073,-0.592137,0.103647,-0.377815,-1.13553,0.0189992,2.32661,0.30927,-0.594651,0.183272
4582478,1,-1.57052,-0.522819,3.83016e-05,-2.0958,1.57044,1.57158,0.785008,-1.5708,-0.523599,8.85724e-08,-2.09439,1.5708,1.5708,0.785397,-0.000181936,-0.000447871,0.000445839,0.000650077,0.00010796,0.000581256,-0.000690903,0,0,0,0,0,0,0,-0.379017,-10.2646,-0.409177,20.8448,0.870073,-0.604955,0.149424,-0.377397,-1.13782,0.0195792,2.32795,0.309341,-0.594672,0.183272
4582479,1,-1.57052,-0.522822,3.63527e-05,-2.0958,1.57044,1.57158,0.785011,-1.5708,-0.523599,8.85724e-08,-2.09439,1.5708,1.5708,0.785397,-0.000121291,-0.000855393,-0.000351687,0.000433384,-0.000334928,0.000150145,0.000760101,0,0,0,0,0,0,0,-0.379017,-10.2408,-0.381406,20.8448,0.881059,-0.598546,0.116465,-0.377092,-1.13766,0.0200281,2.32781,0.309349,-0.594651,0.18327
4582480,1,-1.57052,-0.522821,3.46823e-05,-2.0958,1.57044,1.57158,0.785008,-1.5708,-0.523599,8.85724e-08,-2.09439,1.5708,1.5708,0.785397,0.000475951,-1.34499e-05,-0.000790744,0.000845735,-1.98348e-05,0.000337455,-0.000713969,0,0,0,0,0,0,0,-0.402821,-10.2646,-0.357602,20.821,0.875566,-0.604955,0.149424,-0.376536,-1.13507,0.0209408,2.32612,0.309278,-0.594656,0.183257
4582481,1,-1.57052,-0.522819,3.83016e-05,-2.0958,1.57044,1.57158,0.785006,-1.5708,-0.523599,8.85724e-08,-2.09439,1.5708,1.5708,0.785397,0.000317301,0.000640647,0.000679657,0.00177025,0.000597128,0.00022497,-0.000950697,0,0,0,0,0,0,0,-0.402821,-10.2924,-0.409177,20.7694,0.859087,-0.604955,0.162241,-0.376079,-1.13231,0.0218457,2.32378,0.309177,-0.594674,0.183234
4582482,1,-1.57052,-0.522823,3.83016e-05,-2.0958,1.57044,1.57158,0.785013,-1.5708,-0.523599,8.85724e-08,-2.09439,1.5708,1.5708,0.785397,0.000861148,-0.000779328,0.0004534,-0.00123269,-0.000212266,-0.000324738,0.00153634,0,0,0,0,0,0,0,-0.430592,-10.2408,-0.409177,20.8725,0.875566,-0.592137,0.103647,-0.376587,-1.13045,0.0213577,2.32169,0.309112,-0.594592,0.18322
4582483,1,-1.57052,-0.522819,3.63527e-05,-2.0958,1.57044,1.57158,0.785006,-1.5708,-0.523599,8.85724e-08,-2.09439,1.5708,1.5708,0.785397,-7.55153e-05,0.000686874,-0.000347125,0.000384635,-0.000344961,0.000258226,-0.00114591,0,0,0,0,0,0,0,-0.402821,-10.2924,-0.381406,20.821,0.881059,-0.604955,0.162241,-0.37773,-1.12988,0.0199449,2.32076,0.309106,-0.594456,0.183221
4582484,1,-1.57052,-0.522821,3.63527e-05,-2.0958,1.57044,1.57158,0.785008,-1.5708,-0.523599,8.85724e-08,-2.09439,1.5708,1.5708,0.785397,-5.03436e-05,-0.000191698,-0.000231251,0.000256424,-2.65236e-05,-6.52082e-05,-0.000289223,0,0,0,0,0,0,0,-0.402821,-10.2646,-0.381406,20.821,0.875566,-0.598546,0.149424,-0.378413,-1.13057,0.0192744,2.3207,0.309111,-0.594432,0.183223
4582485,1,-1.57052,-0.522819,3.63527e-05,-2.0958,1.57044,1.57158,0.78501,-1.5708,-0.523599,8.85724e-08,-2.09439,1.5708,1.5708,0.785397,-3.35624e-05,0.000521815,-0.000154042,0.000727761,0.000389219,-4.34721e-05,0.00055317,0,0,0,0,0,0,0,-0.402821,-10.2924,-0.381406,20.7972,0.86458,-0.598546,0.129282,-0.378508,-1.13162,0.0195464,2.32058,0.309096,-0.594528,0.18324
4582486,1,-1.57052,-0.522819,3.63527e-05,-2.0958,1.57044,1.57158,0.785006,-1.5708,-0.523599,8.85724e-08,-2.09439,1.5708,1.5708,0.785397,-0.000579187,0.000347877,-0.000102601,-0.00183488,5.60286e-05,-0.00026634,-0.000851923,0,0,0,0,0,0,0,-0.379017,-10.2924,-0.381406,20.8963,0.870073,-0.592137,0.162241,-0.3783,-1.1337,0.0202823,2.32109,0.309096,-0.594696,0.183278
4582487,1,-1.57051,-0.522823,3.63527e-05,-2.0958,1.57044,1.57158,0.785012,-1.5708,-0.523599,8.85724e-08,-2.09439,1.5708,1.5708,0.785397,0.000820301,-0.000974508,-6.83307e-05,0.0010968,-0.000166098,-0.00017756,0.00136483,0,0,0,0,0,0,0,-0.430592,-10.2408,-0.381406,20.7972,0.875566,-0.592137,0.110056,-0.378125,-1.13607,0.0209849,2.32213,0.309114,-0.594863,0.183335
4582488,1,-1.57052,-0.522823,3.63527e-05,-2.0958,1.57044,1.57158,0.785013,-1.5708,-0.523599,8.85724e-08,-2.09439,1.5708,1.5708,0.785397,-0.000659558,-0.000649672,-4.55012e-05,-0.000382424,0.000499619,-0.000118373,0.00114725,0,0,0,0,0,0,0,-0.379017,-10.2408,-0.381406,20.8448,0.859087,-0.592137,0.103647,-0.37825,-1.13581,0.0213149,2.32186,0.309086,-0.594953,0.183406
4582489,1,-1.57052,-0.522821,3.63527e-05,-2.0958,1.57044,1.57158,0.785008,-1.5708,-0.523599,8.85724e-08,-2.09439,1.5708,1.5708,0.785397,-0.000439706,0.000123697,-3.02947e-05,-0.00025495,-7.38214e-05,0.000158443,-0.00093059,0,0,0,0,0,0,0,-0.379017,-10.2646,-0.381406,20.8448,0.870073,-0.598546,0.149424,-0.378277,-1.13414,0.0217737,2.32086,0.30902,-0.595032,0.183455
4582490,1,-1.57052,-0.522825,3.63527e-05,-2.0958,1.57044,1.57158,0.785009,-1.5708,-0.523599,8.85724e-08,-2.09439,1.5708,1.5708,0.785397,-0.000849949,-0.00112396,-2.01668e-05,0.000386846,0.000154236,-0.00013173,-0.000111767,0,0,0,0,0,0,0,-0.355213,-10.213,-0.381406,20.821,0.86458,-0.592137,0.135691,-0.377946,-1.13251,0.0226545,2.3199,0.308936,-0.595153,0.183452
4582491,1,-1.57052,-0.522823,3.83016e-05,-2.09581,1.57044,1.57158,0.785009,-1.5708,-0.523599,8.85724e-08,-2.09439,1.5708,1.5708,0.785397,0.000546991,-9.96934e-05,0.000636192,-0.00150534,-0.000744886,-8.78201e-05,-7.45114e-05,0,0,0,0,0,0,0,-0.402821,-10.2408,-0.409177,20.8963,0.887468,-0.592137,0.135691,-0.377831,-1.13059,0.0231084,2.31894,0.308852,-0.595221,0.18342
4582492,1,-1.57052,-0.522817,3.63527e-05,-2.0958,1.57044,1.57158,0.785006,-1.5708,-0.523599,8.85724e-08,-2.09439,1.5708,1.5708,0.785397,0.000364661,0.00169678,-0.00022547,0.0019661,0.000147669,0.000178812,-0.00103302,0,0,0,0,0,0,0,-0.402821,-10.3162,-0.381406,20.7694,0.870073,-0.598546,0.162241,-0.378452,-1.13054,0.0224474,2.31885,0.308816,-0.595191,0.183377
4582493,1,-1.57052,-0.522821,3.83016e-05,-2.09581,1.57044,1.57158,0.785011,-1.5708,-0.523599,8.85724e-08,-2.09439,1.5708,1.5708,0.785397,-0.000870517,-7.52422e-05,0.000499313,-0.00165893,-0.000308455,0.000356567,0.000769383,0,0,0,0,0,0,0,-0.355213,-10.2646,-0.409177,20.8963,0.881059,-0.604955,0.122873,-0.379266,-1.1333,0.0214772,2.31973,0.308822,-0.595163,0.183341
4582494,1,-1.57052,-0.522821,3.63527e-05,-2.09581,1.57044,1.57158,0.785005,-1.5708,-0.523599,8.85724e-08,-2.09439,1.5708,1.5708,0.785397,-2.35325e-05,-5.01615e-05,-0.000316729,-0.00054914,-0.000442996,-0.000474365,-0.00141986,0,0,0,0,0,0,0,-0.379017,-10.2646,-0.381406,20.8725,0.887468,-0.585729,0.175059,-0.379685,-1.137,0.0209595,2.32136,0.308861,-0.595195,0.183322
4582495,1,-1.57052,-0.522819,3.63527e-05,-2.09581,1.57044,1.57158,0.785011,-1.5708,-0.523599,8.85724e-08,-2.09439,1.5708,1.5708,0.785397,-1.56883e-05,0.000616173,-0.000211146,-0.000366093,0.00055238,0.000158474,0.00122357,0,0,0,0,0,0,0,-0.379017,-10.2924,-0.381406,20.8725,0.86458,-0.598546,0.116465,-0.379758,-1.14053,0.0208979,2.32333,0.308921,-0.595264,0.183328
4582496,1,-1.57052,-0.522825,3.83016e-05,-2.0958,1.57044,1.57158,0.785013,-1.5708,-0.523599,8.85724e-08,-2.09439,1.5708,1.5708,0.785397,-1.04589e-05,-0.00144526,0.000508855,0.000962364,-0.000242098,0.000343008,0.00152779,0,0,0,0,0,0,0,-0.379017,-10.213,-0.409177,20.821,0.881059,-0.604955,0.0972387,-0.379835,-1.14216,0.0208225,2.32415,0.308953,-0.595302,0.183367
4582497,1,-1.57052,-0.522821,3.83016e-05,-2.09581,1.57044,1.57158,0.785006,-1.5708,-0.523599,8.85724e-08,-2.09439,1.5708,1.5708,0.785397,0.00119945,0.000242921,0.000339241,-0.00112166,4.20517e-05,-8.68664e-06,-0.00138897,0,0,0,0,0,0,0,-0.430592,-10.2646,-0.409177,20.8963,0.875566,-0.598546,0.162241,-0.380571,-1.14092,0.0197402,2.32341,0.308963,-0.59521,0.183407
4582498,1,-1.57052,-0.522821,3.9972e-05,-2.0958,1.57044,1.57158,0.785011,-1.5708,-0.523599,8.85724e-08,-2.09439,1.5708,1.5708,0.785397,-0.00040679,0.000161947,0.000782976,0.00101546,-0.000412775,-0.000480509,0.000769439,0,0,0,0,0,0,0,-0.379017,-10.2646,-0.432981,20.821,0.887468,-0.585729,0.116465,-0.382084,-1.13936,0.0174746,2.32254,0.309008,-0.595004,0.183414
4582499,1,-1.57052,-0.522821,3.63527e-05,-2.0958,1.57044,1.57158,0.785006,-1.5708,-0.523599,8.85724e-08,-2.09439,1.5708,1.5708,0.785397,-0.000271194,0.000107965,-0.00068444,0.000676975,0.000369077,-8.29804e-05,-0.00118246,0,0,0,0,0,0,0,-0.379017,-10.2646,-0.381406,20.821,0.870073,-0.592137,0.162241,-0.383337,-1.13823,0.0155346,2.32152,0.30905,-0.594848,0.1834
4582500,1,-1.57052,-0.522823,3.63527e-05,-2.0958,1.57044,1.57158,0.785007,-1.5708,-0.523599,8.85724e-08,-2.09439,1.5708,1.5708,0.785397,0.000376016,-0.000484835,-0.000456292,-0.000755109,-0.00016085,0.000182039,-0.000550949,0,0,0,0,0,0,0,-0.402821,-10.2408,-0.381406,20.8725,0.881059,-0.598546,0.155832,-0.383555,-1.1368,0.0151531,2.32018,0.309055,-0.594837,0.183378
4582501,1,-1.57052,-0.522821,3.63527e-05,-2.09581,1.57044,1.57158,0.785013,-1.5708,-0.523599,8.85724e-08,-2.09439,1.5708,1.5708,0.785397,0.000250677,0.000233588,-0.000304193,-0.00161703,9.62172e-05,0.000121359,0.00156548,0,0,0,0,0,0,0,-0.402821,-10.2646,-0.381406,20.9201,0.875566,-0.598546,0.103647,-0.383215,-1.13631,0.0156863,2.31993,0.309089,-0.594908,0.183367
4582502,1,-1.57052,-0.522821,3.63527e-05,-2.09581,1.57044,1.57158,0.785006,-1.5708,-0.523599,8.85724e-08,-2.09439,1.5708,1.5708,0.785397,0.000167118,0.000155726,-0.000202795,3.5604e-05,0.000267595,-0.000156453,-0.00112648,0,0,0,0,0,0,0,-0.402821,-10.2646,-0.381406,20.8725,0.870073,-0.592137,0.162241,-0.382862,-1.13747,0.0162935,2.32113,0.30918,-0.594995,0.183374
4582503,1,-1.57052,-0.522819,3.63527e-05,-2.09581,1.57044,1.57158,0.785012,-1.5708,-0.523599,8.85724e-08,-2.09439,1.5708,1.5708,0.785397,-0.00100221,0.000753431,-0.000135196,-0.000533076,-0.000465863,0.000370416,0.00118179,0,0,0,0,0,0,0,-0.355213,-10.2924,-0.381406,20.8963,0.887468,-0.604955,0.110056,-0.382348,-1.13971,0.0171263,2.32286,0.309284,-0.595125,0.183382
4582504,1,-1.57052,-0.522821,3.83016e-05,-2.0958,1.57044,1.57158,0.785009,-1.5708,-0.523599,8.85724e-08,-2.09439,1.5708,1.5708,0.785397,-0.000111329,-0.000147327,0.000559484,0.000201428,0.000333685,-0.000227774,-0.000161576,0,0,0,0,0,0,0,-0.379017,-10.2646,-0.409177,20.8725,0.870073,-0.592137,0.135691,-0.381709,-1.14213,0.0180262,2.32447,0.309382,-0.595282,0.183388
4582505,1,-1.57052,-0.522821,3.9972e-05,-2.09581,1.57044,1.57158,0.785006,-1.5708,-0.523599,8.85724e-08,-2.09439,1.5708,1.5708,0.785397,-7.42194e-05,-9.82178e-05,0.000929802,0.000134285,1.90059e-05,8.55097e-05,-0.00109106,0,0,0,0,0,0,0,-0.379017,-10.2646,-0.432981,20.8725,0.875566,-0.598546,0.162241,-0.381717,-1.14322,0.017821,2.32525,0.309478,-0.595329,0.183383
4582506,1,-1.57052,-0.522825,3.63527e-05,-2.09581,1.57044,1.57158,0.785013,-1.5708,-0.523599,8.85724e-08,-2.09439,1.5708,1.5708,0.785397,0.000507332,-0.0012719,-0.000586558,-0.000467288,1.26706e-05,0.000294365,0.00144276,0,0,0,0,0,0,0,-0.402821,-10.213,-0.381406,20.8963,0.875566,-0.604955,0.103647,-0.3824,-1.1419,0.0165732,2.32484,0.309554,-0.595246,0.183374
4582507,1,-1.57052,-0.522823,3.46823e-05,-2.09581,1.57044,1.57158,0.785006,-1.5708,-0.523599,8.85724e-08,-2.09439,1.5708,1.5708,0.785397,0.000987835,-0.000198322,-0.00094785,-0.000868338,8.44706e-06,-4.11153e-05,-0.00144565,0,0,0,0,0,0,0,-0.430592,-10.2408,-0.357602,20.9201,0.875566,-0.598546,0.16865,-0.382927,-1.13895,0.0157395,2.32398,0.309592,-0.59517,0.183365
4582508,1,-1.57052,-0.522819,3.46823e-05,-2.0958,1.57044,1.57158,0.785005,-1.5708,-0.523599,8.85724e-08,-2.09439,1.5708,1.5708,0.785397,0.000658557,0.00107421,-0.0006319,0.00174116,-0.000435178,-0.000264769,-0.00120113,0,0,0,0,0,0,0,-0.430592,-10.2924,-0.357602,20.821,0.887468,-0.592137,0.175059,-0.38311,-1.13663,0.015738,2.32336,0.309605,-0.595169,0.183356
4582509,1,-1.57052,-0.522817,3.83016e-05,-2.09581,1.57044,1.57158,0.785011,-1.5708,-0.523599,8.85724e-08,-2.09439,1.5708,1.5708,0.785397,-0.000767388,0.00127295,0.000785159,-0.000602466,-0.000290119,-0.000176513,0.00136939,0,0,0,0,0,0,0,-0.379017,-10.3162,-0.409177,20.8963,0.887468,-0.592137,0.116465,-0.383279,-1.13696,0.0158859,2.32347,0.309634,-0.595226,0.183378
4582510,1,-1.57052,-0.522823,3.63527e-05,-2.0958,1.57044,1.57158,0.785006,-1.5708,-0.523599,8.85724e-08,-2.09439,1.5708,1.5708,0.785397,-0.000511592,-0.000914603,-0.000126174,0.000804782,0.000247397,-0.000117675,-0.000782497,0,0,0,0,0,0,0,-0.379017,-10.2408,-0.381406,20.8448,0.875566,-0.592137,0.162241,-0.383453,-1.13857,0.0158959,2.32406,0.309701,-0.595303,0.18345
4582511,1,-1.57052,-0.522823,3.63527e-05,-2.09581,1.57044,1.57158,0.785012,-1.5708,-0.523599,8.85724e-08,-2.09439,1.5708,1.5708,0.785397,0.000215751,-0.000609735,-8.41161e-05,-0.00122672,0.000368382,-7.84501e-05,0.00141112,0,0,0,0,0,0,0,-0.402821,-10.2408,-0.381406,20.9201,0.870073,-0.592137,0.110056,-0.383495,-1.13824,0.0160327,2.32402,0.309766,-0.595362,0.183554
4582512,1,-1.57052,-0.522819,3.9972e-05,-2.0958,1.57044,1.57158,0.785011,-1.5708,-0.523599,8.85724e-08,-2.09439,1.5708,1.5708,0.785397,-0.000412978,0.000799936,0.00115035,0.000295813,-0.000161313,0.000185059,0.000466026,0,0,0,0,0,0,0,-0.379017,-10.2924,-0.432981,20.8725,0.881059,-0.598546,0.122873,-0.383809,-1.13711,0.0157341,2.32401,0.309852,-0.595354,0.183666
4582513,1,-1.57052,-0.522821,3.63527e-05,-2.0958,1.57044,1.57158,0.785005,-1.57079,-0.523597,2.58857e-06,-2.09439,1.5708,1.5708,0.785398,-0.000832131,-0.000116323,-0.000439527,0.000846823,0.000299359,-0.000351345,-0.0016221,0.00312491,0.001875,0.0025,0.00231139,0.00155808,0.005,0.000158622,-0.355213,-10.2646,-0.381406,20.8448,0.870073,-0.585729,0.175059,-0.384297,-1.1368,0.0150513,2.32432,0.309957,-0.595318,0.183759
4582514,1,-1.57052,-0.522821,3.63527e-05,-2.09581,1.57044,1.57158,0.785011,-1.57079,-0.523593,7.58857e-06,-2.09439,1.5708,1.57081,0.785398,0.00055887,-7.75489e-05,-0.000293018,-0.000641878,-0.000444687,3.12873e-06,0.00108874,0.00624981,0.00375,0.005,0.00462278,0.00311616,0.01,0.000317245,-0.402821,-10.2646,-0.381406,20.8963,0.887468,-0.592137,0.116465,-0.384331,-1.13628,0.0150178,2.32426,0.310026,-0.595332,0.183829
4582515,1,-1.57052,-0.522821,3.83016e-05,-2.0958,1.57044,1.57158,0.785006,-1.57078,-0.523587,1.50886e-05,-2.09438,1.57081,1.57083,0.785398,0.00037258,-5.16993e-05,0.000454269,0.00254175,-5.90993e-05,2.08582e-06,-0.00120695,0.00937472,0.005625,0.0075,0.00693417,0.00467425,0.015,0.000475867,-0.402821,-10.2646,-0.409177,20.7694,0.881059,-0.592137,0.16865,-0.384439,-1.13477,0.0149644,2.32348,0.310062,-0.595305,0.1839
4582516,1,-1.57051,-0.522822,4.00452e-05,-2.0958,1.57044,1.57158,0.785011,-1.57076,-0.52358,2.50886e-05,-2.09437,1.57081,1.57085,0.785399,0.00294993,0.000796082,0.00358474,-0.000718355,0.000367502,0.000238749,0.00112815,0.0124996,0.0075,0.01,0.00924556,0.00623233,0.02,0.00063449,-0.379017,-10.1654,-0.282224,20.8725,0.870073,-0.598546,0.116465,-0.386738,-1.13294,0.0116626,2.32212,0.310156,-0.594943,0.183984
4582517,1,-1.57052,-0.522822,4.41059e-05,-2.0958,1.57044,1.57158,0.785012,-1.57075,-0.523571,3.75886e-05,-2.09436,1.57082,1.57087,0.7854,0.000844776,0.000336976,0.00399501,-0.00214934,-0.000399259,-7.81926e-05,0.000989456,0.0156245,0.009375,0.0125,0.011557,0.00779041,0.025,0.000793112,-0.0497324,-10.0107,0.0748318,20.9439,0.887468,-0.592137,0.110056,-0.392825,-1.13363,0.00251899,2.32262,0.31047,-0.594038,0.184074
4582518,1,-1.57053,-0.522825,6.09915e-05,-2.0958,1.57044,1.57158,0.785001,-1.57073,-0.523559,5.25886e-05,-2.09435,1.57083,1.5709,0.785401,-0.00403746,-0.00268609,0.00805488,-0.00375294,0.00142925,-0.000526846,-0.00293466,0.0187494,0.01125,0.015,0.0138683,0.00934849,0.03,0.000951734,0.454113,-9.733,0.42792,21.0431,0.841692,-0.57932,0.207102,-0.401219,-1.13565,-0.0109163,2.32574,0.311021,-0.592747,0.184139
4582519,1,-1.57052,-0.522819,7.90817e-05,-2.0958,1.57044,1.57159,0.785005,-1.57071,-0.523546,7.00886e-05,-2.09433,1.57084,1.57094,0.785402,-0.00281422,0.00333075,0.00918209,0.00060743,0.000952832,-0.000113872,0.000179794,0.0218743,0.013125,0.0175,0.0161797,0.0109066,0.035,0.00111036,0.906383,-9.53067,0.884158,21.0431,0.841692,-0.585729,0.149424,-0.409931,-1.13742,-0.0264815,2.33017,0.311714,-0.591254,0.184188
4582520,1,-1.57052,-0.522814,9.83158e-05,-2.0958,1.57045,1.57158,0.785005,-1.57068,-0.523531,9.00886e-05,-2.09431,1.57085,1.57098,0.785403,-0.000785118,0.00306598,0.0130835,-0.00109917,0.00209328,-0.000313274,-0.000354856,0.0249993,0.015,0.02,0.0184911,0.0124647,0.04,0.00126898,1.33485,-9.37991,1.3642,21.1185,0.802324,-0.57932,0.162241,-0.419483,-1.14304,-0.0451901,2.33648,0.312541,-0.589413,0.184281
4582521,1,-1.57052,-0.522801,0.000127579,-2.09579,1.57045,1.57159,0.785005,-1.57066,-0.523514,0.000112589,-2.09429,1.57087,1.57102,0.785405,-0.00422825,0.00767786,0.0154379,0.00427783,0.00139552,-0.000920926,-0.000473929,0.0281242,0.016875,0.0225,0.0208025,0.0140227,0.045,0.0014276,1.84266,-9.30453,1.74506,21.0431,0.802324,-0.560094,0.16865,-0.430139,-1.15487,-0.0677693,2.3451,0.313483,-0.587054,0.184452
4582522,1,-1.57051,-0.522795,0.000159353,-2.09578,1.57045,1.5716,0.785011,-1.57062,-0.523496,0.000137589,-2.09427,1.57088,1.57107,0.785406,-0.00316167,0.00927066,0.0185504,0.00148882,-0.000527714,0.001997,0.00137947,0.0312491,0.01875,0.025,0.0231139,0.0155808,0.05,0.00158622,2.21955,-9.15378,2.07434,21.1185,0.841692,-0.63059,0.122873,-0.439961,-1.17395,-0.0920969,2.35634,0.314484,-0.584312,0.184699
4582523,1,-1.57051,-0.522782,0.000185009,-2.09578,1.57045,1.57161,0.785005,-1.57059,-0.523473,0.000167589,-2.09424,1.5709,1.57113,0.785408,-0.000146366,0.0122431,0.0196342,0.00316109,-0.00140297,0.00299284,-0.00101313,0.0371244,0.0225,0.03,0.0272503,0.0182639,0.06,0.00174772,2.62422,-9.0784,2.4552,21.1701,0.870073,-0.67545,0.175059,-0.447677,-1.20205,-0.116619,2.37195,0.315592,-0.581279,0.185003
4582524,1,-1.57049,-0.522774,0.000214939,-2.09577,1.57046,1.57161,0.785011,-1.57054,-0.523447,0.000202589,-2.09421,1.57092,1.5712,0.78541,0.00309307,0.00935231,0.0229195,-0.000288132,-0.000731863,0.00477674,0.00125736,0.0429997,0.02625,0.035,0.0313867,0.020947,0.07,0.00190922,2.85035,-8.92368,2.73291,21.2931,0.86458,-0.624181,0.122873,-0.453681,-1.2358,-0.141773,2.39189,0.316883,-0.577811,0.185334
4582525,1,-1.57048,-0.522771,0.000245371,-2.09576,1.57045,1.57162,0.785014,-1.5705,-0.523417,0.000242589,-2.09417,1.57095,1.57128,0.785412,0.00579789,0.00939067,0.0232859,-0.0003879,-0.00089481,0.00238773,0.00202503,0.048875,0.03,0.04,0.0355231,0.0236301,0.08,0.00207072,3.05268,-8.72531,2.95905,21.3169,0.875566,-0.592137,0.09083,-0.458146,-1.26752,-0.167616,2.41412,0.318356,-0.573743,0.185675
4582526,1,-1.57045,-0.522755,0.000274557,-2.09575,1.57045,1.57163,0.785006,-1.57044,-0.523383,0.000287589,-2.09413,1.57097,1.57137,0.785414,0.0157685,0.0142522,0.0289147,0.00327305,-0.00079999,0.00440564,-0.00153219,0.0547503,0.03375,0.045,0.0396595,0.0263131,0.09,0.00223222,3.17567,-8.59836,3.33991,21.3169,0.881059,-0.533544,0.16865,-0.462824,-1.29473,-0.196255,2.43726,0.320044,-0.568726,0.18599
4582527,1,-1.57043,-0.522747,0.000312953,-2.09574,1.57046,1.57164,0.785008,-1.57038,-0.523346,0.000337589,-2.09409,1.571,1.57147,0.785416,0.0162984,0.0157718,0.0368163,0.00548272,-0.000126426,0.00908846,-0.000309386,0.0606256,0.0375,0.05,0.0437959,0.0289962,0.1,0.00239372,3.58033,-8.2413,3.84772,21.3446,0.870073,-0.431005,0.149424,-0.47189,-1.32009,-0.233661,2.46058,0.322093,-0.562164,0.186257
4582528,1,-1.57041,-0.522728,0.000362569,-2.09573,1.57046,1.57165,0.78501,-1.57031,-0.523304,0.000392589,-2.09404,1.57103,1.57158,0.785419,0.0191306,0.0173416,0.0419445,0.00721312,0.000526068,0.00622469,0.000539728,0.0665009,0.04125,0.055,0.0479323,0.0316793,0.11,0.00255522,4.03657,-7.88821,4.40314,21.4914,0.853594,-0.276281,0.129282,-0.486745,-1.34324,-0.282369,2.4829,0.324565,-0.553756,0.186512
4582529,1,-1.57037,-0.522703,0.000410261,-2.09571,1.57047,1.57167,0.785006,-1.57024,-0.523259,0.000452589,-2.09399,1.57107,1.5717,0.785422,0.0245583,0.0169759,0.0431506,0.0122182,0.000791521,0.011664,-0.00109824,0.0723762,0.045,0.06,0.0520686,0.0343624,0.12,0.00271672,4.48884,-7.5867,5.08551,21.4914,0.841692,-0.192968,0.16865,-0.504744,-1.35918,-0.338208,2.50153,0.327264,-0.543577,0.186783
4582530,1,-1.57033,-0.52267,0.0004704,-2.09569,1.57048,1.5717,0.785012,-1.57016,-0.523211,0.000517589,-2.09393,1.5711,1.57183,0.785425,0.0312787,0.0214846,0.0486055,0.0134793,0.00283345,0.017439,0.00143798,0.0782515,0.04875,0.065,0.056205,0.0370454,0.13,0.00287822,4.84193,-7.3566,5.59333,21.5906,0.779436,-0.1536,0.110056,-0.523305,-1.36517,-0.396348,2.51492,0.329988,-0.531698,0.187072
4582531,1,-1.57028,-0.522633,0.000530604,-2.09567,1.57049,1.57174,0.785004,-1.57008,-0.523158,0.000587589,-2.09387,1.57114,1.57197,0.785428,0.0381789,0.0278753,0.0524536,0.0175933,0.00334703,0.027541,-0.00168621,0.0841268,0.0525,0.07,0.0603414,0.0397285,0.14,0.00303972,5.24659,-7.13046,6.10114,21.6898,0.740068,-0.147191,0.181467,-0.541765,-1.36825,-0.45511,2.52654,0.332771,-0.518103,0.187369
4582532,1,-1.57022,-0.522592,0.000588979,-2.09564,1.5705,1.5718,0.785003,-1.56999,-0.523102,0.000662589,-2.09381,1.57119,1.57212,0.785431,0.0470271,0.0314366,0.0582502,0.024001,0.00561248,0.0375061,-0.0013615,0.0900021,0.05625,0.075,0.0644778,0.0424116,0.15,0.00320122,5.49653,-6.97971,6.60498,21.789,0.779436,-0.212194,0.187876,-0.560415,-1.37522,-0.514476,2.53913,0.335622,-0.50277,0.187669
4582533,1,-1.57015,-0.522556,0.000650174,-2.09562,1.57051,1.57187,0.785006,-1.56989,-0.52304,0.000745089,-2.09374,1.57123,1.57229,0.785434,0.055143,0.0315041,0.0572766,0.0238307,0.00653798,0.0458434,-0.000195587,0.0984682,0.061875,0.0825,0.0701084,0.0461276,0.165,0.00319486,5.67506,-6.7258,7.08899,21.9635,0.841692,-0.308324,0.16865,-0.578229,-1.38311,-0.572201,2.5514,0.338356,-0.485865,0.188007
4582534,1,-1.57008,-0.522514,0.000724009,-2.09558,1.57053,1.57195,0.784995,-1.56978,-0.522972,0.000835089,-2.09366,1.57128,1.57247,0.785437,0.0596056,0.0327908,0.0619352,0.0279487,0.0128611,0.0544635,-0.00348733,0.106934,0.0675,0.09,0.075739,0.0498435,0.18,0.0031885,5.9012,-6.52347,7.33893,22.0905,0.887468,-0.359594,0.259287,-0.591923,-1.38526,-0.622676,2.56198,0.340794,-0.467953,0.188417
4582535,1,-1.57,-0.522467,0.000791014,-2.09554,1.57054,1.57204,0.784995,-1.56967,-0.522899,0.000932589,-2.09358,1.57134,1.57266,0.78544,0.0695904,0.0380623,0.0632024,0.0333631,0.0118709,0.0650106,-0.00232488,0.1154,0.073125,0.0975,0.0813696,0.0535594,0.195,0.00318214,5.95277,-6.37271,7.66822,22.1381,0.96071,-0.386144,0.259287,-0.599303,-1.37924,-0.662235,2.57036,0.342929,-0.449644,0.188939
4582536,1,-1.5699,-0.522423,0.000864633,-2.09549,1.57056,1.57214,0.784987,-1.56954,-0.522821,0.00103759,-2.09349,1.57139,1.57287,0.785444,0.078438,0.0449191,0.068852,0.0387901,0.0129025,0.0751323,-0.00443214,0.123867,0.07875,0.105,0.0870002,0.0572754,0.21,0.00317578,5.95277,-6.095,8.04908,22.1143,0.989092,-0.346776,0.337107,-0.601514,-1.37022,-0.692145,2.5781,0.345008,-0.43124,0.189665
4582537,1,-1.5698,-0.522372,0.000952956,-2.09544,1.57058,1.57225,0.784977,-1.56941,-0.522736,0.00115009,-2.0934,1.57145,1.5731,0.785447,0.084876,0.0493385,0.0751115,0.0428573,0.0196344,0.0907952,-0.00631169,0.132333,0.084375,0.1125,0.0926308,0.0609913,0.225,0.00316942,6.20668,-5.76572,8.48151,22.0905,0.983598,-0.263463,0.427744,-0.601046,-1.36471,-0.71592,2.58786,0.347392,-0.412817,0.190698
4582538,1,-1.56971,-0.522316,0.00104469,-2.09539,1.57062,1.57238,0.78498,-1.56927,-0.522646,0.00127009,-2.0933,1.57152,1.57334,0.78545,0.0899241,0.0509573,0.0808457,0.0450188,0.0250909,0.103404,-0.00203766,0.140799,0.09,0.12,0.0982614,0.0647073,0.24,0.00316307,6.60737,-5.36105,9.01313,22.0905,0.966203,-0.199376,0.36915,-0.598812,-1.36231,-0.735155,2.60028,0.350276,-0.394436,0.192164
4582539,1,-1.5696,-0.522243,0.00113995,-2.09534,1.57065,1.57254,0.784978,-1.56912,-0.522551,0.00139759,-2.0932,1.57159,1.57359,0.785453,0.0951173,0.05528,0.084564,0.0484239,0.0331689,0.117273,-0.00183316,0.149265,0.095625,0.1275,0.103892,0.0684232,0.255,0.00315671,6.96046,-5.08334,9.6955,22.1381,0.96071,-0.237828,0.381968,-0.593186,-1.35909,-0.747625,2.61488,0.353634,-0.376269,0.194165
4582540,1,-1.56947,-0.522168,0.00124353,-2.09527,1.5707,1.57271,0.784984,-1.56896,-0.522449,0.00153259,-2.09309,1.57166,1.57386,0.785456,0.105681,0.0586779,0.089418,0.0531484,0.0371465,0.132638,0.000948035,0.157731,0.10125,0.135,0.109523,0.0721392,0.27,0.00315035,7.31355,-4.80563,10.3263,22.0905,0.887468,-0.295507,0.323374,-0.582898,-1.35306,-0.751179,2.63114,0.357363,-0.358382,0.196713
4582541,1,-1.56934,-0.522082,0.00135796,-2.0952,1.57076,1.5729,0.784997,-1.5688,-0.522342,0.00167509,-2.09298,1.57173,1.57415,0.785459,0.113644,0.0678487,0.0948926,0.0629953,0.0463366,0.152665,0.00395505,0.166197,0.106875,0.1425,0.115153,0.0758551,0.285,0.00314399,7.66664,-4.55173,10.8857,22.0627,0.762956,-0.340367,0.233652,-0.568802,-1.34497,-0.746493,2.64788,0.361349,-0.340699,0.199739
4582542,1,-1.56919,-0.521993,0.00147841,-2.09512,1.57081,1.57312,0.784999,-1.56862,-0.52223,0.00182509,-2.09285,1.57181,1.57445,0.785463,0.124133,0.0722858,0.099692,0.0692462,0.0446665,0.171066,0.00314533,0.174663,0.1125,0.15,0.120784,0.0795711,0.3,0.00313763,7.81739,-4.32559,11.4173,22.0627,0.734575,-0.475866,0.219919,-0.55186,-1.33696,-0.73463,2.66375,0.365404,-0.323266,0.203091
4582543,1,-1.56904,-0.5219,0.00160124,-2.09504,1.57087,1.57336,0.785008,-1.56844,-0.52211,0.00198508,-2.09273,1.5719,1.57477,0.785466,0.13267,0.0798089,0.101915,0.0741493,0.0463113,0.189519,0.00494519,0.184781,0.119422,0.15999,0.127407,0.083858,0.319215,0.00304453,8.0713,-4.14706,11.8735,22.0627,0.757463,-0.617772,0.143015,-0.531522,-1.33068,-0.71445,2.67913,0.369323,-0.30639,0.206555
4582544,1,-1.56888,-0.521806,0.0017335,-2.09496,1.57093,1.57361,0.785011,-1.56824,-0.521984,0.00215506,-2.09259,1.57199,1.5751,0.785469,0.138498,0.083869,0.113436,0.0763247,0.048388,0.207814,0.00428014,0.194899,0.126343,0.16998,0.13403,0.0881448,0.33843,0.00295142,8.34901,-3.92093,12.1512,22.1143,0.762956,-0.636998,0.116465,-0.507508,-1.32808,-0.685746,2.6967,0.373065,-0.290386,0.209913
4582545,1,-1.56871,-0.521711,0.00185944,-2.09487,1.57099,1.57387,0.784998,-1.56804,-0.521851,0.00233503,-2.09245,1.57208,1.57546,0.785471,0.151209,0.0877228,0.119329,0.0819866,0.0482692,0.223809,-0.00172421,0.205016,0.133265,0.17997,0.140653,0.0924317,0.357646,0.00285832,8.40059,-3.7186,12.5043,22.1619,0.819719,-0.585729,0.240061,-0.482517,-1.32744,-0.653264,2.71751,0.376752,-0.275083,0.21297
4582546,1,-1.56853,-0.52161,0.00198845,-2.09477,1.57105,1.57416,0.78499,-1.56782,-0.521711,0.00252499,-2.09231,1.57218,1.57584,0.785474,0.16262,0.092519,0.122017,0.0875921,0.0535506,0.240743,-0.00352306,0.215134,0.140187,0.18996,0.147276,0.0967186,0.376861,0.00276521,8.49977,-3.46469,12.9606,22.1381,0.86458,-0.533544,0.304148,-0.458692,-1.32335,-0.619841,2.73936,0.380383,-0.260226,0.215647
4582547,1,-1.56834,-0.521498,0.00213581,-2.09466,1.57113,1.57447,0.784974,-1.5676,-0.521564,0.00272494,-2.09215,1.57228,1.57623,0.785477,0.172095,0.0994326,0.130288,0.0947447,0.0636861,0.260964,-0.00692635,0.225251,0.147108,0.19995,0.153899,0.101005,0.396076,0.0026721,8.80128,-3.21475,13.4168,22.1143,0.870073,-0.475866,0.427744,-0.435479,-1.31395,-0.583808,2.7604,0.383878,-0.245863,0.218034
4582548,1,-1.56815,-0.521384,0.0022878,-2.09454,1.57121,1.5748,0.784964,-1.56736,-0.52141,0.00293488,-2.09199,1.57238,1.57665,0.785479,0.177589,0.102061,0.138673,0.101251,0.0726996,0.285387,-0.00627908,0.235369,0.15403,0.20994,0.160522,0.105292,0.415291,0.002579,9.20594,-2.8577,13.9246,22.0389,0.836199,-0.488683,0.472605,-0.412084,-1.29804,-0.544294,2.779,0.387242,-0.232002,0.220345
4582549,1,-1.56795,-0.521254,0.00243668,-2.09442,1.5713,1.57515,0.784961,-1.56712,-0.521249,0.00315481,-2.09182,1.57249,1.57708,0.785482,0.188437,0.110206,0.14053,0.10965,0.0793407,0.303752,-0.00466077,0.245487,0.160952,0.21993,0.167145,0.109579,0.434506,0.00248589,9.61061,-2.63156,14.607,21.9635,0.796831,-0.495092,0.485422,-0.386237,-1.27355,-0.498469,2.79334,0.390415,-0.218799,0.222844
4582550,1,-1.56773,-0.521121,0.00260455,-2.09428,1.57139,1.57552,0.784968,-1.56686,-0.521081,0.00338473,-2.09165,1.57261,1.57754,0.785484,0.197087,0.119484,0.149697,0.114659,0.0844609,0.323695,-0.00168303,0.255604,0.167873,0.22992,0.173768,0.113866,0.453721,0.00239279,9.9875,-2.42923,15.214,21.9159,0.740068,-0.553685,0.44697,-0.355893,-1.24593,-0.44331,2.80547,0.393397,-0.206418,0.225753
4582551,1,-1.5675,-0.520981,0.00278078,-2.09415,1.5715,1.57592,0.784979,-1.5666,-0.520906,0.00362464,-2.09147,1.57272,1.57801,0.785487,0.208249,0.125862,0.161565,0.12163,0.0947962,0.3436,0.00199756,0.265722,0.174795,0.23991,0.180391,0.118153,0.472937,0.00229968,10.3168,-2.17532,15.7972,21.8882,0.643938,-0.63059,0.362742,-0.323552,-1.22279,-0.383078,2.81935,0.396374,-0.194403,0.22917
4582552,1,-1.56727,-0.520824,0.00297029,-2.094,1.57161,1.57634,0.784991,-1.56632,-0.520724,0.00387454,-2.09128,1.57285,1.5785,0.785489,0.21901,0.133717,0.166829,0.126375,0.10137,0.369388,0.00540072,0.27584,0.181717,0.2499,0.187015,0.12244,0.492152,0.00220658,10.6461,-2.05234,16.2534,21.8405,0.576189,-0.733129,0.252878,-0.2922,-1.2056,-0.322773,2.83634,0.399398,-0.18229,0.233042
4582553,1,-1.56702,-0.520669,0.00315848,-2.09385,1.57172,1.57678,0.784991,-1.56603,-0.520535,0.00413443,-2.09109,1.57297,1.57902,0.785491,0.232612,0.141331,0.172248,0.133084,0.104567,0.393954,0.0127676,0.286829,0.189207,0.25989,0.194241,0.126972,0.512142,0.00207259,10.9714,-1.87381,16.6581,21.8167,0.558794,-0.855809,0.259287,-0.260664,-1.19468,-0.260324,2.85704,0.40228,-0.170397,0.237158
4582554,1,-1.56675,-0.520502,0.00335142,-2.09368,1.57184,1.57725,0.78499,-1.56574,-0.520338,0.00440431,-2.09089,1.5731,1.57955,0.785493,0.239881,0.147188,0.178971,0.143576,0.105172,0.413391,0.00810866,0.297819,0.196697,0.26988,0.201468,0.131505,0.532132,0.00193861,11.0745,-1.72305,17.0627,21.6898,0.587175,-0.887853,0.291331,-0.226302,-1.18709,-0.191616,2.87938,0.404719,-0.159281,0.241267
4582555,1,-1.56649,-0.520334,0.00355928,-2.09351,1.57198,1.57773,0.784986,-1.56543,-0.520134,0.00468418,-2.09068,1.57324,1.5801,0.785495,0.249342,0.151227,0.189538,0.152311,0.112798,0.435008,0.00528148,0.308809,0.204187,0.27987,0.208695,0.136037,0.552122,0.00180463,11.2491,-1.54453,17.3682,21.666,0.558794,-0.862218,0.310557,-0.187987,-1.17339,-0.115657,2.89736,0.406438,-0.149152,0.245227
4582556,1,-1.56622,-0.520162,0.00376732,-2.09333,1.57211,1.57823,0.784977,-1.56511,-0.519922,0.00497404,-2.09046,1.57338,1.58067,0.785496,0.251626,0.157354,0.195116,0.164048,0.116566,0.455534,0.00131696,0.319799,0.211677,0.28986,0.215922,0.140569,0.572112,0.00167065,11.503,-1.36996,17.6182,21.543,0.581682,-0.823766,0.381968,-0.144266,-1.14467,-0.0312169,2.90545,0.407237,-0.140193,0.249009
4582557,1,-1.56594,-0.519984,0.00398086,-2.09314,1.57224,1.57877,0.784968,-1.56478,-0.519703,0.00527389,-2.09024,1.57353,1.58126,0.785498,0.26305,0.164708,0.200315,0.171266,0.123132,0.478054,-0.0100883,0.330788,0.219167,0.29985,0.223149,0.145102,0.592102,0.00153667,11.6022,-1.19144,17.9236,21.4676,0.627458,-0.810948,0.434153,-0.09186,-1.09992,0.0662452,2.90248,0.407012,-0.132843,0.252656
4582558,1,-1.56565,-0.519803,0.00420819,-2.09294,1.57238,1.57932,0.784966,-1.56443,-0.519477,0.00558373,-2.09001,1.57368,1.58188,0.785499,0.27219,0.17197,0.211024,0.181959,0.129761,0.503555,-0.00749526,0.341778,0.226657,0.30984,0.230376,0.149634,0.612092,0.00140268,11.8045,-0.937531,18.2291,21.4438,0.638445,-0.798131,0.440561,-0.0310696,-1.04392,0.176478,2.89089,0.405936,-0.127031,0.256284
4582559,1,-1.56535,-0.519603,0.0044557,-2.09273,1.57253,1.5799,0.784965,-1.56408,-0.519242,0.00590356,-2.08977,1.57383,1.58251,0.7855,0.280095,0.179158,0.215702,0.190056,0.137506,0.525619,-0.00563348,0.352768,0.234147,0.31983,0.237603,0.154166,0.632082,0.0012687,11.9553,-0.885956,18.4037,21.4438,0.576189,-0.746862,0.44697,0.0356108,-0.980619,0.295851,2.87294,0.404287,-0.12234,0.260013
4582560,1,-1.56503,-0.51939,0.00469406,-2.09251,1.57268,1.5805,0.784971,-1.56372,-0.519001,0.00623338,-2.08953,1.57399,1.58316,0.785502,0.288381,0.188682,0.220838,0.196748,0.140391,0.562039,-0.00212233,0.363758,0.241637,0.32982,0.24483,0.158699,0.652072,0.00113472,11.983,-0.885956,18.7607,21.3922,0.587175,-0.810948,0.394785,0.10964,-0.91551,0.426523,2.85217,0.402232,-0.118987,0.263909
4582561,1,-1.56471,-0.519182,0.00495451,-2.09229,1.57284,1.58114,0.784982,-1.56334,-0.518752,0.00657319,-2.08927,1.57415,1.58383,0.785503,0.297988,0.192734,0.23305,0.205301,0.14435,0.588723,0.00100537,0.374747,0.249127,0.33981,0.252056,0.163231,0.672062,0.00100074,12.0307,-0.76297,18.9115,21.3446,0.547807,-0.887853,0.323374,0.191098,-0.852454,0.568431,2.83181,0.39996,-0.117038,0.267969
4582562,1,-1.56439,-0.518953,0.00522752,-2.09205,1.57301,1.58181,0.784982,-1.56296,-0.518495,0.00692299,-2.08901,1.57432,1.58452,0.785503,0.304403,0.201205,0.23933,0.213642,0.156236,0.610501,-6.8239e-06,0.385737,0.256617,0.3498,0.259283,0.167763,0.692052,0.000866757,12.233,-0.76297,19.0107,21.3169,0.50844,-1.00412,0.337107,0.276678,-0.789061,0.716464,2.8113,0.397574,-0.115965,0.272114
4582563,1,-1.56404,-0.518725,0.00549218,-2.09181,1.57318,1.5825,0.78499,-1.56256,-0.518231,0.00728278,-2.08875,1.57449,1.58524,0.785504,0.318365,0.210248,0.255127,0.219448,0.165171,0.636923,0.00251397,0.39694,0.264107,0.35979,0.266821,0.172336,0.712042,0.000711843,12.3084,-0.735199,19.2408,21.3684,0.480058,-1.17807,0.265696,0.361946,-0.72717,0.864049,2.79188,0.395173,-0.115141,0.276208
4582564,1,-1.56369,-0.518484,0.0057787,-2.09156,1.57336,1.58321,0.784993,-1.56215,-0.517959,0.00765256,-2.08847,1.57467,1.58597,0.785505,0.331837,0.218219,0.265679,0.2305,0.172377,0.65916,0.00253067,0.408144,0.271597,0.36978,0.27436,0.176909,0.732032,0.000556929,12.2608,-0.76297,19.4669,21.2455,0.435198,-1.17167,0.240061,0.439745,-0.67113,1.00065,2.77575,0.39297,-0.113753,0.280129
4582565,1,-1.56333,-0.518236,0.00608829,-2.0913,1.57355,1.58392,0.78499,-1.56173,-0.51768,0.00803233,-2.08819,1.57485,1.58672,0.785505,0.338456,0.225804,0.275659,0.238881,0.177756,0.689425,0.000666612,0.419347,0.279087,0.37977,0.281898,0.181482,0.752022,0.000402014,12.4591,-0.735199,19.4669,21.2455,0.389421,-1.01053,0.265696,0.507243,-0.619655,1.12228,2.76149,0.390938,-0.111677,0.283764
4582566,1,-1.56298,-0.517987,0.00638775,-2.09102,1.57372,1.58465,0.784991,-1.5613,-0.517394,0.00842209,-2.0879,1.57504,1.58749,0.785505,0.353829,0.233086,0.281923,0.249203,0.177951,0.701206,0.00062847,0.430551,0.286577,0.38976,0.289436,0.186055,0.772012,0.0002471,12.6892,-0.76297,19.6454,21.1939,0.451677,-0.919896,0.259287,0.567411,-0.569553,1.23378,2.74679,0.388821,-0.109408,0.287032
4582567,1,-1.56259,-0.517724,0.00670292,-2.09074,1.57391,1.58543,0.784977,-1.56086,-0.5171,0.00882184,-2.08761,1.57523,1.58828,0.785506,0.363778,0.24177,0.289256,0.263116,0.181875,0.72296,-0.00321529,0.441754,0.294067,0.39975,0.296974,0.190628,0.792002,9.21859e-05,12.6892,-0.838348,19.824,21.0947,0.531328,-1.02335,0.356333,0.622638,-0.517552,1.33943,2.72888,0.386364,-0.106961,0.289933
4582568,1,-1.56221,-0.51746,0.00703355,-2.09045,1.5741,1.58622,0.784966,-1.56041,-0.516798,0.00923158,-2.0873,1.57542,1.5891,0.785505,0.366044,0.255451,0.300393,0.2695,0.192982,0.744957,-0.00553044,0.452958,0.301557,0.40974,0.304512,0.195201,0.811992,-6.27283e-05,12.8876,-0.862152,19.7962,21.0947,0.50844,-1.04899,0.44697,0.676542,-0.467524,1.44404,2.70842,0.383531,-0.104576,0.292527
4582569,1,-1.56181,-0.517179,0.0073681,-2.09015,1.57431,1.58703,0.784971,-1.55994,-0.516489,0.00965131,-2.08699,1.57562,1.58993,0.785505,0.377817,0.260924,0.311329,0.274832,0.197784,0.762654,-0.00177666,0.464161,0.309047,0.41973,0.31205,0.199774,0.831982,-0.000217643,12.8122,-1.01291,19.8994,21.1185,0.485552,-1.00412,0.394785,0.731777,-0.428522,1.54992,2.69128,0.38062,-0.102579,0.294951
4582570,1,-1.56138,-0.516886,0.00771582,-2.08985,1.57452,1.58788,0.784965,-1.55947,-0.516173,0.010081,-2.08667,1.57583,1.59078,0.785505,0.389199,0.26837,0.318947,0.284048,0.203601,0.789015,-0.00313409,0.475364,0.316537,0.42972,0.319589,0.204346,0.851972,-0.000372557,12.713,-1.19144,19.9985,21.1185,0.513933,-1.03617,0.44697,0.787103,-0.39926,1.65483,2.67914,0.377858,-0.100722,0.297386
4582571,1,-1.56097,-0.516589,0.00807053,-2.08954,1.57473,1.58873,0.784972,-1.55898,-0.515848,0.0105207,-2.08634,1.57603,1.59165,0.785504,0.396675,0.276459,0.334123,0.292124,0.205973,0.812148,6.81007e-05,0.486568,0.324027,0.43971,0.327127,0.208919,0.871962,-0.000527471,12.9392,-1.34219,19.9985,21.1185,0.480058,-1.07462,0.388376,0.84062,-0.373805,1.75611,2.66952,0.375307,-0.0987114,0.299956
4582572,1,-1.56055,-0.516279,0.00844908,-2.08922,1.57495,1.58963,0.784982,-1.55848,-0.515517,0.0109704,-2.08601,1.57625,1.59254,0.785504,0.405844,0.289262,0.341681,0.299075,0.210512,0.834573,0.00363021,0.497771,0.331517,0.4497,0.334665,0.213492,0.891952,-0.000682385,13.1653,-1.54453,19.8716,21.1939,0.491045,-1.21653,0.291331,0.891698,-0.355216,1.85248,2.66363,0.373104,-0.0965649,0.302707
4582573,1,-1.56009,-0.515964,0.00882182,-2.08889,1.57518,1.59052,0.784986,-1.55797,-0.515178,0.0114301,-2.08567,1.57647,1.59346,0.785503,0.423216,0.293918,0.349339,0.311777,0.216989,0.867342,0.00241302,0.508618,0.339007,0.45969,0.342303,0.21797,0.911942,-0.000859229,13.0661,-1.64767,20.0501,21.1701,0.423296,-1.21653,0.291331,0.940929,-0.34569,1.94509,2.6617,0.371224,-0.0945557,0.305573
4582574,1,-1.55963,-0.515644,0.00921127,-2.08856,1.57541,1.59143,0.784986,-1.55746,-0.514831,0.0118998,-2.08532,1.57669,1.59439,0.785502,0.435717,0.301843,0.357954,0.319316,0.220797,0.874964,0.00136599,0.519464,0.346497,0.46968,0.349942,0.222448,0.931932,-0.00103607,12.9907,-1.67148,20.1255,21.1701,0.378435,-1.10666,0.297739,0.987471,-0.33733,2.03368,2.65876,0.369422,-0.0926304,0.308415
4582575,1,-1.55916,-0.515313,0.00962195,-2.08821,1.57565,1.59239,0.784982,-1.55693,-0.514477,0.0123795,-2.08496,1.57692,1.59534,0.785501,0.446394,0.310343,0.374752,0.327268,0.23276,0.898732,-0.000551405,0.530311,0.353987,0.47967,0.35758,0.226926,0.951922,-0.00121292,13.1177,-1.69528,20.1255,21.0947,0.327165,-1.14603,0.337107,1.02802,-0.3261,2.11346,2.65315,0.367622,-0.090169,0.311121
4582576,1,-1.55868,-0.514976,0.0100358,-2.08786,1.57588,1.59335,0.784975,-1.55638,-0.514116,0.0128691,-2.08459,1.57715,1.59631,0.785499,0.451557,0.318325,0.384917,0.33779,0.22897,0.917476,-0.00179476,0.541158,0.361477,0.48966,0.365218,0.231404,0.971912,-0.00138976,13.2407,-1.74686,20.1255,21.0431,0.378435,-1.26139,0.375559,1.06132,-0.313854,2.18147,2.64625,0.365835,-0.08687,0.313656
4582577,1,-1.55819,-0.514626,0.010462,-2.0875,1.57612,1.59434,0.784972,-1.55583,-0.513747,0.0133688,-2.08422,1.57738,1.5973,0.785498,0.463172,0.323483,0.400623,0.344658,0.23259,0.936506,-0.00167347,0.552004,0.368967,0.49965,0.372856,0.235882,0.991902,-0.0015666,13.32,-1.89761,20.1771,21.0709,0.389421,-1.28061,0.388376,1.08868,-0.298684,2.23847,2.63725,0.364007,-0.0828961,0.316074
4582578,1,-1.55768,-0.514273,0.0109184,-2.08714,1.57636,1.59534,0.784978,-1.55527,-0.513371,0.0138784,-2.08384,1.57762,1.59832,0.785496,0.474906,0.331225,0.413825,0.351433,0.234625,0.97022,0.00101889,0.562851,0.376457,0.50964,0.380495,0.240359,1.01189,-0.00174345,13.3438,-1.94919,20.0263,21.1423,0.417803,-1.23575,0.330698,1.10938,-0.278691,2.28286,2.62626,0.362248,-0.0782669,0.318455
4582579,1,-1.55716,-0.513911,0.0113768,-2.08677,1.57662,1.59633,0.784974,-1.5547,-0.512987,0.0143981,-2.08345,1.57787,1.59935,0.785494,0.488236,0.33767,0.42883,0.357753,0.241936,0.972443,-0.000508799,0.573697,0.383947,0.51963,0.388133,0.244837,1.03188,-0.00192029,13.2169,-2.02457,19.9232,21.2455,0.417803,-1.14603,0.362742,1.121,-0.255434,2.31107,2.61525,0.360762,-0.0727111,0.320836
4582580,1,-1.55662,-0.51353,0.011845,-2.08638,1.57687,1.59735,0.784981,-1.55411,-0.512595,0.0149277,-2.08306,1.57812,1.6004,0.785492,0.502525,0.347456,0.439404,0.361838,0.244308,0.986927,0.00182999,0.584544,0.391437,0.52962,0.395771,0.249315,1.05187,-0.00209714,13.0423,-2.2269,19.7962,21.2693,0.491045,-1.08744,0.304148,1.12169,-0.233487,2.32097,2.60758,0.359704,-0.0657232,0.323207
4582581,1,-1.55608,-0.513148,0.0123325,-2.086,1.57712,1.5984,0.78498,-1.55352,-0.512196,0.0154673,-2.08265,1.57837,1.60147,0.78549,0.514318,0.355222,0.467837,0.372121,0.249057,1.00517,0.000981922,0.59539,0.398927,0.53961,0.40341,0.253793,1.07186,-0.00227398,13.0661,-2.40543,19.6454,21.3922,0.502947,-1.16526,0.310557,1.10756,-0.217506,2.30688,2.6058,0.359345,-0.0565143,0.325546
4582582,1,-1.55554,-0.512752,0.012829,-2.0856,1.57739,1.59947,0.784974,-1.55291,-0.51179,0.0160169,-2.08224,1.57863,1.60256,0.785487,0.523068,0.365694,0.474938,0.377947,0.250195,1.01633,-0.0012787,0.606237,0.406417,0.5496,0.411048,0.258271,1.09185,-0.00245082,13.1177,-2.65536,19.5423,21.4914,0.451677,-1.16526,0.362742,1.07651,-0.209567,2.26504,2.60986,0.359921,-0.0447228,0.327814
4582583,1,-1.55496,-0.51235,0.0133363,-2.08519,1.57765,1.60056,0.784977,-1.55229,-0.511376,0.0165765,-2.08182,1.57889,1.60367,0.785484,0.535916,0.375753,0.478674,0.383456,0.25485,1.03453,9.65688e-05,0.616215,0.413907,0.55959,0.418646,0.262554,1.11106,-0.00267178,12.9907,-2.75851,19.4947,21.543,0.417803,-1.18448,0.337107,1.03771,-0.214306,2.20974,2.6215,0.361203,-0.0317509,0.329975
4582584,1,-1.55438,-0.511943,0.0138439,-2.0848,1.57793,1.60164,0.784981,-1.55167,-0.510955,0.0171461,-2.0814,1.57916,1.6048,0.785482,0.564056,0.384528,0.492496,0.387509,0.264834,1.0471,0.00128478,0.626194,0.421397,0.56958,0.426245,0.266836,1.13026,-0.00289274,12.8876,-2.88547,19.5423,21.7176,0.339067,-1.0618,0.304148,0.997354,-0.236291,2.15252,2.64346,0.362895,-0.0186364,0.332022
4582585,0.99,-1.55381,-0.511539,0.0143722,-2.08438,1.5782,1.60277,0.784982,-1.55103,-0.510526,0.0177256,-2.08096,1.57943,1.60595,0.785478,0.563659,0.38854,0.497295,0.393923,0.266243,1.06459,0.00133101,0.636173,0.428887,0.57957,0.433843,0.271119,1.14947,-0.0031137,13.0423,-2.81009,19.5423,21.8167,0.276811,-0.97849,0.291331,0.955173,-0.270769,2.09435,2.67413,0.364763,-0.00532379,0.33395
4582586,0.98,-1.55321,-0.511128,0.0149069,-2.08396,1.57847,1.6039,0.78499,-1.55038,-0.510089,0.0183152,-2.08052,1.57971,1.60712,0.785475,0.569243,0.404138,0.500421,0.401673,0.264119,1.09069,0.00353203,0.646151,0.436377,0.58956,0.441441,0.275402,1.16868,-0.00333466,13.2169,-2.78232,19.5939,21.8882,0.310686,-1.02335,0.219919,0.922547,-0.314036,2.05126,2.71117,0.366254,0.00656527,0.335711
4582587,0.97,-1.55261,-0.510703,0.0154416,-2.08353,1.57873,1.60508,0.784988,-1.54973,-0.509645,0.0189147,-2.08007,1.57999,1.60831,0.785472,0.58372,0.411625,0.51405,0.412408,0.260361,1.11295,0.00160857,0.65613,0.443867,0.59955,0.449039,0.279685,1.18788,-0.00355562,13.2407,-2.73471,19.5701,21.7414,0.412309,-1.13321,0.240061,0.908147,-0.369228,2.03486,2.75409,0.367039,0.0156927,0.337237
4582588,0.97,-1.55199,-0.510268,0.0159922,-2.08309,1.57901,1.60627,0.784981,-1.54906,-0.509194,0.0195243,-2.07961,1.58027,1.60952,0.785468,0.597662,0.413612,0.525656,0.415757,0.265537,1.13183,-0.0013013,0.666108,0.451357,0.60954,0.456638,0.283967,1.20709,-0.00377658,13.2407,-2.68314,19.5701,21.7414,0.428789,-1.16526,0.304148,0.905031,-0.428277,2.03445,2.79855,0.367282,0.0231245,0.338479
4582589,0.97,-1.55134,-0.509824,0.0165362,-2.08266,1.5793,1.60745,0.784987,-1.54839,-0.508735,0.0201438,-2.07915,1.58056,1.61074,0.785464,0.607984,0.423771,0.525553,0.414881,0.275685,1.14196,0.00126862,0.676087,0.458847,0.61953,0.464236,0.28825,1.2263,-0.00399754,12.9907,-2.83389,19.5939,21.7414,0.406816,-1.1204,0.24647,0.908601,-0.482656,2.04351,2.8432,0.367171,0.0296549,0.339415
4582590,0.97,-1.55071,-0.509372,0.0171006,-2.0822,1.57958,1.60866,0.784979,-1.5477,-0.508269,0.0207733,-2.07868,1.58085,1.61199,0.78546,0.614325,0.429075,0.536495,0.426889,0.276914,1.15716,-0.00200261,0.686065,0.466337,0.62952,0.471834,0.292533,1.2455,-0.0042185,13.0661,-2.93704,19.6693,21.6422,0.417803,-1.12681,0.323374,0.922253,-0.53378,2.06753,2.89012,0.366684,0.0348193,0.340066
4582591,0.97,-1.55007,-0.508907,0.0176805,-2.08174,1.57986,1.60991,0.784978,-1.547,-0.507795,0.0214128,-2.0782,1.58115,1.61325,0.785455,0.618726,0.43665,0.549257,0.437845,0.280725,1.20473,-0.00160638,0.696044,0.473827,0.63951,0.479432,0.296815,1.26471,-0.00443946,13.2407,-3.01242,19.697,21.4914,0.491045,-1.34562,0.330698,0.947492,-0.576436,2.10792,2.93364,0.365731,0.0382182,0.340504
4582592,0.97,-1.54943,-0.508446,0.0182665,-2.08128,1.58016,1.61118,0.784988,-1.5463,-0.507314,0.0220623,-2.07771,1.58145,1.61454,0.78545,0.629107,0.444464,0.556624,0.44988,0.288831,1.22515,0.00228598,0.706022,0.481317,0.6495,0.487031,0.301098,1.28392,-0.00466042,13.4708,-3.06003,19.697,21.3922,0.423296,-1.46097,0.240061,0.983406,-0.604501,2.16231,2.96666,0.364315,0.039572,0.340826
4582593,0.97,-1.54876,-0.507981,0.0188752,-2.08081,1.58047,1.61247,0.784993,-1.54558,-0.506825,0.0227218,-2.07722,1.58175,1.61584,0.785445,0.644326,0.447274,0.569965,0.456476,0.295362,1.24308,0.00321939,0.714656,0.488807,0.65949,0.494514,0.305152,1.30173,-0.00497442,13.3954,-3.01242,19.697,21.3446,0.321672,-1.4802,0.194285,1.02556,-0.614853,2.22447,2.98625,0.362532,0.0392956,0.341092
4582594,0.97,-1.54808,-0.507519,0.0194761,-2.08032,1.58077,1.61377,0.784994,-1.54486,-0.506329,0.0233913,-2.07672,1.58206,1.61716,0.78544,0.648974,0.455078,0.581725,0.466971,0.301162,1.26106,0.0023836,0.723289,0.496297,0.66948,0.501997,0.309206,1.31955,-0.00528842,13.32,-2.90927,19.824,21.1185,0.202654,-1.6807,0.187876,1.06746,-0.604757,2.28497,2.99179,0.360503,0.0383219,0.341256
4582595,0.97,-1.54741,-0.507035,0.020102,-2.07982,1.58107,1.6151,0.785006,-1.54413,-0.505825,0.0240708,-2.07621,1.58238,1.6185,0.785435,0.652397,0.460553,0.592891,0.473046,0.29903,1.28122,0.00565806,0.731922,0.503787,0.67947,0.50948,0.31326,1.33737,-0.00560241,13.4946,-2.90927,19.7208,20.9439,0.24843,-1.90592,0.0780126,1.10889,-0.577249,2.3426,2.98566,0.358178,0.0365432,0.34122
4582596,0.97,-1.54672,-0.506543,0.0207365,-2.07931,1.58136,1.61643,0.785013,-1.54339,-0.505314,0.0247602,-2.07569,1.58269,1.61985,0.785429,0.662844,0.46731,0.601628,0.481922,0.297308,1.31249,0.00495883,0.740555,0.511277,0.68946,0.516963,0.317314,1.35518,-0.00591641,13.57,-2.88547,19.7208,20.8448,0.310686,-1.81528,0.0459692,1.15299,-0.537641,2.40153,2.97129,0.355449,0.0330632,0.340871
4582597,0.97,-1.54601,-0.506058,0.021355,-2.0788,1.58166,1.61773,0.785012,-1.54264,-0.504795,0.0254597,-2.07516,1.58301,1.62122,0.785422,0.679612,0.474813,0.601697,0.492992,0.303396,1.30478,0.0025938,0.749188,0.518767,0.69945,0.524447,0.321367,1.373,-0.00623041,13.443,-2.83389,19.8716,20.6702,0.428789,-1.55161,0.0651953,1.20054,-0.48898,2.46438,2.94986,0.352195,0.0274791,0.340066
4582598,0.97,-1.5453,-0.505542,0.0220016,-2.07826,1.58198,1.61909,0.785013,-1.54188,-0.504269,0.0261691,-2.07463,1.58334,1.62262,0.785416,0.689359,0.485379,0.612633,0.505553,0.306733,1.31392,0.00196655,0.757821,0.526257,0.70944,0.53193,0.325421,1.39081,-0.0065444,13.443,-2.90927,19.8994,20.448,0.446184,-1.43534,0.0587866,1.24973,-0.43444,2.53086,2.92101,0.348361,0.0203967,0.338713
4582599,0.97,-1.54458,-0.505034,0.0226576,-2.07772,1.5823,1.62046,0.785009,-1.54111,-0.503735,0.0268886,-2.07409,1.58367,1.62402,0.785409,0.700495,0.493534,0.643438,0.515986,0.319727,1.32849,-0.000113121,0.766454,0.533747,0.71943,0.539413,0.329475,1.40863,-0.0068584,13.4946,-2.93704,19.7962,20.325,0.406816,-1.48752,0.0972387,1.29127,-0.37821,2.58688,2.88537,0.344453,0.0137679,0.336814
4582600,0.97,-1.54385,-0.504516,0.023314,-2.07718,1.58263,1.62186,0.784998,-1.54034,-0.503194,0.027618,-2.07355,1.584,1.62545,0.785402,0.712228,0.498919,0.64671,0.525303,0.328962,1.34472,-0.00366971,0.775087,0.541237,0.72942,0.546896,0.333529,1.42644,-0.0071724,13.32,-2.96085,19.8994,20.2973,0.298784,-1.65415,0.194285,1.31557,-0.320389,2.61675,2.84332,0.341065,0.00943528,0.334422
4582601,0.97,-1.5431,-0.503986,0.0240033,-2.07663,1.58298,1.62328,0.784998,-1.53956,-0.502645,0.0283574,-2.07299,1.58434,1.62689,0.785394,0.716656,0.505584,0.655076,0.532148,0.331294,1.35031,-0.00149704,0.78372,0.548727,0.73941,0.554379,0.337583,1.44426,-0.0074864,13.1177,-2.96085,19.8478,20.4242,0.168779,-1.68711,0.16865,1.32828,-0.258716,2.62913,2.79529,0.338037,0.00680385,0.331656
4582602,0.97,-1.54237,-0.503461,0.0246977,-2.07609,1.58332,1.62467,0.785004,-1.53876,-0.502089,0.0291068,-2.07243,1.58468,1.62836,0.785387,0.734375,0.512986,0.66578,0.535785,0.333528,1.35868,0.00164683,0.792353,0.556217,0.7494,0.561862,0.341637,1.46208,-0.00780039,13.0899,-2.90927,19.6454,20.6226,0.027788,-1.46097,0.0972387,1.337,-0.1962,2.63644,2.74555,0.335072,0.00472856,0.328691
4582603,0.97,-1.54161,-0.502931,0.0254012,-2.07553,1.58366,1.6261,0.785005,-1.53796,-0.501525,0.0298662,-2.07186,1.58503,1.62984,0.785378,0.73142,0.516582,0.677056,0.545185,0.331729,1.3792,0.0015726,0.799187,0.563692,0.75939,0.569215,0.34543,1.47824,-0.00829532,13.1415,-2.83389,19.6216,20.7694,0.0726488,-1.31998,0.0844213,1.34338,-0.134891,2.64132,2.69774,0.33199,0.00286504,0.325638
4582604,0.97,-1.54085,-0.502379,0.0261133,-2.07496,1.584,1.62754,0.784994,-1.53716,-0.500954,0.0306356,-2.07128,1.58538,1.63133,0.785369,0.735141,0.538896,0.685668,0.548049,0.33353,1.42012,-0.00373269,0.806021,0.571168,0.76938,0.576568,0.349223,1.4944,-0.00879024,13.1931,-2.98465,19.6693,20.8963,0.202654,-1.21653,0.213511,1.3549,-0.0856291,2.65318,2.65798,0.32859,-7.45293e-05,0.322473
4582605,0.97,-1.54008,-0.501807,0.0268237,-2.07439,1.58434,1.62902,0.784978,-1.53635,-0.500375,0.0314149,-2.0707,1.58573,1.63284,0.78536,0.743816,0.546692,0.701034,0.560802,0.333357,1.43604,-0.00730345,0.812855,0.578644,0.77937,0.58392,0.353017,1.51057,-0.00928516,13.1653,-3.18698,19.7446,20.9439,0.253923,-1.23575,0.343516,1.37649,-0.068361,2.67778,2.63542,0.325018,-0.0049399,0.319198
4582606,0.97,-1.53928,-0.501223,0.0275609,-2.07382,1.5847,1.63051,0.784958,-1.53553,-0.499789,0.0322043,-2.07011,1.58609,1.63437,0.78535,0.756977,0.55413,0.709481,0.561919,0.346388,1.44526,-0.0148236,0.819689,0.586119,0.78936,0.591273,0.35681,1.52673,-0.00978008,12.9669,-3.49246,19.7446,21.0709,0.202654,-1.13962,0.485422,1.40268,-0.0816792,2.70773,2.62932,0.321513,-0.0104906,0.31601
4582607,0.97,-1.53847,-0.500643,0.0282846,-2.07325,1.58506,1.63202,0.784943,-1.5347,-0.499195,0.0330036,-2.06951,1.58645,1.63591,0.78534,0.766403,0.566028,0.712456,0.567223,0.34525,1.46652,-0.0138683,0.826523,0.593595,0.79935,0.598626,0.360603,1.5429,-0.010275,12.7884,-3.64322,19.824,21.1701,0.191667,-1.23575,0.582468,1.43029,-0.117023,2.74039,2.63731,0.318132,-0.0157246,0.313232
4582608,0.97,-1.53769,-0.500066,0.0290357,-2.07267,1.58543,1.63356,0.784951,-1.53387,-0.498594,0.033813,-2.0689,1.58681,1.63747,0.785329,0.769992,0.566475,0.718951,0.567416,0.353482,1.48128,-0.00404602,0.833357,0.601071,0.80934,0.605978,0.364396,1.55906,-0.0107699,12.8638,-3.61942,19.7208,21.4438,0.186174,-1.26139,0.434153,1.46384,-0.169561,2.78391,2.65922,0.314725,-0.0211127,0.311202
4582609,0.97,-1.53689,-0.49947,0.0298023,-2.07208,1.5858,1.63511,0.784949,-1.53303,-0.497986,0.0346323,-2.06829,1.58718,1.63904,0.785318,0.773665,0.574716,0.729569,0.568435,0.355899,1.52172,-0.0016969,0.840191,0.608546,0.81933,0.613331,0.36819,1.57523,-0.0112649,12.9907,-3.7424,19.4947,21.666,0.1523,-1.2678,0.401194,1.50767,-0.229147,2.84457,2.69236,0.311137,-0.0273936,0.310115
4582610,0.97,-1.53608,-0.498874,0.0305484,-2.07149,1.58616,1.63663,0.784965,-1.53218,-0.49737,0.0354616,-2.06767,1.58755,1.64064,0.785306,0.788477,0.579738,0.732723,0.575791,0.356409,1.51444,0.00467142,0.847025,0.616022,0.82932,0.620684,0.371983,1.59139,-0.0117598,12.8122,-3.82175,19.5939,21.789,0.157793,-1.11399,0.240061,1.5607,-0.289185,2.92049,2.73414,0.307363,-0.0345581,0.309926
4582611,0.97,-1.53525,-0.49826,0.0313171,-2.07089,1.58654,1.6382,0.784966,-1.53132,-0.496746,0.0363009,-2.06704,1.58793,1.64224,0.785294,0.802212,0.586474,0.738744,0.580898,0.366176,1.52819,0.00349901,0.853859,0.623498,0.83931,0.628036,0.375776,1.60756,-0.0122547,12.5107,-3.94473,19.5939,21.8644,0.140398,-1.02335,0.226328,1.61725,-0.343656,3.00465,2.77968,0.303297,-0.0415524,0.310421
4582612,0.97,-1.53443,-0.497641,0.032098,-2.07028,1.58692,1.63977,0.78496,-1.53046,-0.496115,0.0371502,-2.06641,1.58831,1.64387,0.785281,0.807336,0.59747,0.749808,0.605021,0.364863,1.54173,0.00843704,0.860692,0.630973,0.8493,0.635389,0.37957,1.62372,-0.0127496,12.5345,-4.12326,19.4947,21.7652,0.129411,-1.07462,0.310557,1.67231,-0.385581,3.09067,2.82046,0.298729,-0.0473869,0.311303
4582613,0.97,-1.53361,-0.497004,0.032895,-2.06967,1.5873,1.64138,0.78496,-1.5296,-0.495477,0.0380095,-2.06576,1.58869,1.6455,0.785268,0.813612,0.605635,0.75621,0.603589,0.366923,1.55081,0.00609405,0.865507,0.638195,0.85929,0.642455,0.383075,1.63802,-0.0133713,12.4869,-4.30179,19.4947,21.8167,0.1523,-1.10666,0.316965,1.72496,-0.414858,3.17658,2.85153,0.293586,-0.051918,0.312345
4582614,0.97,-1.53275,-0.496367,0.0337166,-2.06904,1.5877,1.64301,0.784959,-1.52873,-0.494832,0.0388788,-2.06512,1.58908,1.64716,0.785254,0.827277,0.612295,0.769026,0.612426,0.37595,1.59539,0.00530481,0.870322,0.645416,0.86928,0.64952,0.38658,1.65233,-0.0139931,12.2608,-4.37717,19.4669,21.7176,0.112016,-1.06821,0.297739,1.77474,-0.438135,3.26074,2.87738,0.288139,-0.0553509,0.313446
4582615,0.97,-1.5319,-0.495741,0.0345489,-2.06842,1.5881,1.64462,0.784966,-1.52785,-0.494179,0.0397581,-2.06446,1.58947,1.64882,0.785239,0.854312,0.618553,0.783348,0.61682,0.380439,1.59521,0.00752836,0.875136,0.652638,0.87927,0.656586,0.390085,1.66663,-0.0146148,12.0822,-4.25021,19.09,21.7652,-0.00608656,-0.881444,0.200693,1.8123,-0.457271,3.32978,2.90155,0.282873,-0.0566737,0.314566
4582616,0.97,-1.53101,-0.495101,0.0354056,-2.06778,1.5885,1.64627,0.784974,-1.52697,-0.493519,0.0406473,-2.0638,1.58986,1.6505,0.785224,0.859013,0.615211,0.799958,0.622178,0.386418,1.60508,0.00843663,0.879951,0.659859,0.88926,0.663651,0.39359,1.68093,-0.0152365,11.7291,-4.19864,18.6338,21.7652,-0.0967238,-0.842992,0.116465,1.82497,-0.46205,3.36588,2.92076,0.278039,-0.0538446,0.315657
4582617,0.97,-1.5301,-0.494461,0.0362792,-2.06713,1.58889,1.64793,0.784979,-1.52609,-0.492852,0.0415466,-2.06312,1.59026,1.6522,0.785208,0.869723,0.637258,0.830264,0.631167,0.402039,1.62054,0.0077469,0.884766,0.667081,0.89925,0.670717,0.397095,1.69523,-0.0158582,11.023,-4.12326,18.1776,21.5906,-0.0289747,-1.02335,0.0651953,1.80673,-0.451837,3.35835,2.93533,0.273715,-0.0456778,0.31657
4582618,0.97,-1.52921,-0.493814,0.0371585,-2.06648,1.5893,1.64964,0.784978,-1.5252,-0.492178,0.0424558,-2.06245,1.59066,1.65391,0.785192,0.871291,0.635004,0.848124,0.638118,0.398632,1.64247,0.00414551,0.88958,0.674302,0.90924,0.677782,0.4006,1.70953,-0.01648,10.5945,-3.99631,17.7213,21.416,0.027788,-1.31357,0.0972387,1.75658,-0.438992,3.30272,2.94985,0.27003,-0.0322447,0.317092
4582619,0.97,-1.52831,-0.493162,0.0380524,-2.06581,1.58971,1.65135,0.784981,-1.5243,-0.491496,0.0433751,-2.06176,1.59106,1.65563,0.785175,0.873397,0.635539,0.86344,0.646681,0.402387,1.65059,0.00431361,0.894395,0.681524,0.91923,0.684848,0.404105,1.72384,-0.0171017,10.2652,-3.82175,17.2651,21.1939,0.027788,-1.38407,0.0587866,1.68182,-0.413811,3.20894,2.9591,0.266714,-0.0150898,0.317088
4582620,0.97,-1.5274,-0.492505,0.0389271,-2.06514,1.59012,1.65306,0.784979,-1.5234,-0.490808,0.0443043,-2.06107,1.59147,1.65737,0.785157,0.901086,0.644953,0.873036,0.658846,0.409321,1.6696,0.00178328,0.89921,0.688745,0.92922,0.691913,0.40761,1.73814,-0.0177234,9.91212,-3.7424,17.2135,20.8725,0.0616625,-1.51957,0.09083,1.58965,-0.361691,3.08992,2.95482,0.263337,0.00410497,0.316517
4582621,0.97,-1.5265,-0.491829,0.0398438,-2.06445,1.59054,1.65479,0.784978,-1.5225,-0.490112,0.0452435,-2.06037,1.59188,1.65912,0.785139,0.89883,0.644859,0.88824,0.66808,0.404528,1.67684,0.00149696,0.904024,0.695967,0.93921,0.698979,0.411115,1.75244,-0.0183451,9.9637,-3.82175,17.0627,20.6702,0.0845506,-1.50675,0.0844213,1.48216,-0.282752,2.95173,2.93474,0.259762,0.024327,0.315394
4582622,0.97,-1.52562,-0.491139,0.0407837,-2.06375,1.59096,1.65648,0.784988,-1.52159,-0.489408,0.0461927,-2.05966,1.5923,1.66089,0.78512,0.889281,0.671626,0.899514,0.676971,0.411312,1.70682,0.00464533,0.908839,0.703188,0.9492,0.706044,0.41462,1.76674,-0.0189669,10.4675,-3.9725,16.9596,20.4996,-0.0234816,-1.19089,-0.0126246,1.37148,-0.194521,2.8113,2.90573,0.255966,0.0431295,0.313753
4582623,0.97,-1.52474,-0.490454,0.0416884,-2.06305,1.59137,1.65824,0.784987,-1.52068,-0.488698,0.0471519,-2.05895,1.59271,1.66267,0.7851,0.890663,0.675528,0.902553,0.682014,0.419493,1.71513,0.00289933,0.911526,0.709977,0.95919,0.712687,0.417796,1.77908,-0.0196779,10.8444,-4.09946,17.2413,20.4242,0.027788,-1.21012,-0.00621587,1.27695,-0.128556,2.69422,2.88232,0.251849,0.0573587,0.311563
4582624,0.97,-1.52385,-0.489762,0.0426007,-2.06234,1.5918,1.66001,0.784973,-1.51977,-0.487982,0.0481211,-2.05823,1.59313,1.66446,0.78508,0.887602,0.67715,0.894483,0.686943,0.418626,1.72925,-0.00163156,0.914214,0.716766,0.96918,0.71933,0.420971,1.79141,-0.0203889,11.2491,-4.19864,17.6182,20.3489,0.00489977,-1.29343,0.09083,1.2149,-0.086685,2.62415,2.86678,0.246863,0.0651885,0.308763
4582625,0.97,-1.52294,-0.489061,0.0435264,-2.06164,1.59224,1.66179,0.784977,-1.51885,-0.487258,0.0491002,-2.05751,1.59356,1.66626,0.785058,0.888462,0.686411,0.901357,0.687512,0.421587,1.73855,0.000867459,0.916901,0.723554,0.97917,0.725972,0.424146,1.80375,-0.0210999,11.5784,-4.3494,17.7213,20.4718,-0.102217,-1.53879,0.038645,1.19498,-0.0553902,2.61564,2.85544,0.240564,0.0660102,0.305382
4582626,0.97,-1.52205,-0.488353,0.0444545,-2.06092,1.59269,1.66359,0.784977,-1.51793,-0.486528,0.0500894,-2.05677,1.59399,1.66808,0.785037,0.887568,0.689428,0.902259,0.69774,0.429537,1.75089,0.000595096,0.919589,0.730343,0.98916,0.732615,0.427322,1.81608,-0.021811,11.7291,-4.47635,17.9752,20.5988,-0.237715,-1.59006,0.038645,1.21605,-0.0316243,2.66625,2.8481,0.232983,0.0603699,0.301546
4582627,0.97,-1.52114,-0.487625,0.0453858,-2.0602,1.59313,1.66541,0.784973,-1.51701,-0.485791,0.0510885,-2.05604,1.59442,1.66991,0.785014,0.885411,0.69587,0.908007,0.703411,0.428237,1.79492,0.000138055,0.922276,0.737132,0.99915,0.739258,0.430497,1.82842,-0.022522,11.7291,-4.62711,18.3045,20.7694,-0.187361,-1.60288,0.0459692,1.27389,-0.00864249,2.76861,2.84048,0.224062,0.0487721,0.297361
4582628,0.97,-1.52026,-0.486901,0.0463237,-2.05947,1.59356,1.6672,0.78497,-1.51608,-0.485047,0.0520977,-2.05529,1.59485,1.67175,0.784991,0.877165,0.70116,0.918434,0.70801,0.427606,1.78907,-0.0041381,0.924964,0.743921,1.00914,0.745901,0.433673,1.84075,-0.023233,12.0822,-4.80563,18.2767,21.0193,-0.136091,-1.36484,0.0322363,1.36415,0.01697,2.91482,2.83078,0.21386,0.0316179,0.29291
4582629,0.97,-1.51938,-0.486153,0.0473034,-2.05874,1.59401,1.66902,0.784961,-1.51515,-0.484296,0.0531168,-2.05454,1.59529,1.6736,0.784967,0.874138,0.715949,0.938301,0.716639,0.429362,1.78742,-0.0046054,0.927651,0.750709,1.01913,0.752543,0.436848,1.85309,-0.0239441,12.4869,-5.10715,18.0228,21.2455,-0.0399611,-1.18448,0.071604,1.47509,0.0378341,3.08591,2.82328,0.202895,0.0109809,0.288293
4582630,0.97,-1.51846,-0.485394,0.0482533,-2.058,1.59445,1.67085,0.784947,-1.51422,-0.483538,0.0541459,-2.05378,1.59573,1.67547,0.784942,0.889691,0.730873,0.970054,0.737523,0.429059,1.79457,-0.00648129,0.930339,0.757498,1.02912,0.759186,0.440023,1.86542,-0.0246551,12.233,-5.53958,18.1022,21.4438,0.0158861,-1.08103,0.155832,1.58198,0.0438018,3.24436,2.82023,0.192152,-0.00884003,0.283642
4582631,0.97,-1.51754,-0.484635,0.0492305,-2.05726,1.59491,1.67273,0.784923,-1.51329,-0.482774,0.055185,-2.05301,1.59617,1.67735,0.784917,0.904418,0.743108,0.968327,0.738447,0.437625,1.8099,-0.0100326,0.933026,0.764287,1.03911,0.765829,0.443199,1.87776,-0.0253661,11.9315,-5.76572,17.9752,21.666,-0.0344679,-1.1204,0.304148,1.66295,0.0280882,3.35918,2.82214,0.18251,-0.0241542,0.279103
4582632,0.97,-1.51662,-0.483872,0.0502433,-2.0565,1.59539,1.67463,0.78491,-1.51236,-0.482003,0.0562341,-2.05224,1.59662,1.67924,0.784891,0.908474,0.744441,0.978483,0.740848,0.443791,1.85558,-0.0106586,0.935713,0.771076,1.0491,0.772472,0.446374,1.89009,-0.0260771,11.7053,-5.78952,17.6459,21.7652,-0.221235,-1.14603,0.278513,1.72086,-0.00920879,3.43735,2.83238,0.174047,-0.0352864,0.274834
4582633,0.97,-1.5157,-0.483113,0.0512488,-2.05576,1.59583,1.67648,0.784897,-1.51142,-0.481226,0.0572932,-2.05146,1.59707,1.68114,0.784864,0.933627,0.746286,0.99097,0.74079,0.442236,1.84966,-0.0107042,0.936262,0.777298,1.05909,0.778578,0.449153,1.90044,-0.0268549,11.4276,-5.81729,17.3682,21.8405,-0.25511,-1.05539,0.233652,1.76096,-0.0543585,3.48899,2.85061,0.166562,-0.0430651,0.271038
4582634,0.97,-1.51479,-0.48234,0.0522876,-2.05498,1.59629,1.67837,0.784884,-1.51048,-0.480442,0.0583623,-2.05068,1.59752,1.68305,0.784836,0.928135,0.745751,1.0046,0.748783,0.442079,1.85605,-0.00979789,0.93681,0.78352,1.06908,0.784684,0.451932,1.9108,-0.0276327,11.3245,-5.84109,17.0865,21.6422,-0.210249,-0.984899,0.155832,1.77872,-0.0865776,3.50902,2.87022,0.159809,-0.0465588,0.267876
4582635,0.97,-1.51387,-0.481574,0.0533413,-2.05419,1.59674,1.68025,0.78488,-1.50955,-0.479653,0.0594414,-2.04989,1.59797,1.68497,0.784808,0.920592,0.765282,1.03548,0.75778,0.451728,1.89197,-0.00569703,0.937359,0.789742,1.07907,0.79079,0.454712,1.92115,-0.0284106,11.376,-5.89267,16.8088,21.3446,-0.215742,-0.830175,-0.0190333,1.77683,-0.103561,3.4992,2.88857,0.153527,-0.0460928,0.265315
4582636,0.97,-1.51295,-0.480793,0.0543767,-2.05341,1.59721,1.68216,0.784856,-1.50861,-0.478857,0.0605304,-2.04909,1.59843,1.6869,0.784779,0.91987,0.767666,1.03544,0.769229,0.451826,1.89458,-0.00843316,0.937907,0.795964,1.08906,0.796896,0.457491,1.93151,-0.0291884,11.1221,-5.86887,16.6819,21.0947,-0.210249,-0.662633,-0.0510767,1.76516,-0.118384,3.47063,2.90742,0.147495,-0.043305,0.263112
4582637,0.97,-1.512,-0.480006,0.0554374,-2.0526,1.59768,1.6841,0.784818,-1.50767,-0.478054,0.0616295,-2.04829,1.59889,1.68884,0.784749,0.923219,0.770387,1.03677,0.776096,0.456777,1.89807,-0.0151665,0.938456,0.802187,1.09905,0.803002,0.46027,1.94186,-0.0299662,10.6183,-5.89267,16.5827,20.7218,-0.226729,-0.713903,0.0459692,1.75729,-0.126542,3.44456,2.92136,0.141027,-0.0398488,0.260933
4582638,0.97,-1.51106,-0.479221,0.0565006,-2.0518,1.59815,1.68604,0.784787,-1.50673,-0.477246,0.0627385,-2.04748,1.59935,1.69079,0.784718,0.94279,0.776714,1.05415,0.786285,0.456686,1.90856,-0.0205827,0.939004,0.808409,1.10904,0.809108,0.463049,1.95221,-0.030744,10.3684,-5.94424,16.305,20.4242,-0.244124,-0.959264,0.038645,1.75489,-0.115723,3.42718,2.92333,0.133765,-0.0355527,0.258559
4582639,0.97,-1.51015,-0.478439,0.0575832,-2.05098,1.59863,1.68801,0.784751,-1.50579,-0.476431,0.0638576,-2.04666,1.59982,1.69276,0.784687,0.935174,0.775263,1.05305,0.796524,0.46823,1.9118,-0.02689,0.939553,0.814631,1.11903,0.815214,0.465828,1.96257,-0.0315218,10.3406,-5.78952,15.9757,20.2497,-0.35124,-1.15244,0.09083,1.75125,-0.0789306,3.41137,2.90887,0.125776,-0.0295496,0.255961
4582640,0.97,-1.50921,-0.477644,0.0586886,-2.05015,1.59912,1.68996,0.784722,-1.50485,-0.475611,0.0649866,-2.04584,1.60029,1.69473,0.784654,0.936769,0.780814,1.06559,0.806581,0.469944,1.96153,-0.0282426,0.940101,0.820853,1.12902,0.82132,0.468608,1.97292,-0.0322996,10.1145,-5.66653,15.6702,20.0989,-0.379622,-1.24857,0.0587866,1.75284,-0.010159,3.40678,2.87361,0.116758,-0.0235093,0.253173
4582641,0.97,-1.50826,-0.476856,0.0597868,-2.04934,1.5996,1.69195,0.784701,-1.50391,-0.474783,0.0661256,-2.04501,1.60076,1.69671,0.784621,0.940207,0.782581,1.08413,0.810497,0.469585,1.95607,-0.0266137,0.94065,0.827075,1.13901,0.827427,0.471387,1.98327,-0.0330774,9.73756,-5.63876,15.4917,20.1505,-0.368635,-1.4097,-0.0510767,1.76087,0.0871189,3.41357,2.81981,0.106801,-0.0186415,0.250246
4582642,0.97,-1.50732,-0.476046,0.0609153,-2.04851,1.60008,1.69399,0.784683,-1.50297,-0.47395,0.0672746,-2.04418,1.60123,1.69871,0.784587,0.941437,0.787456,1.0903,0.814277,0.468541,1.97996,-0.0209019,0.941198,0.833297,1.149,0.833533,0.474166,1.99363,-0.0338552,9.50746,-5.69034,15.1624,20.2259,-0.215742,-1.8931,-0.161856,1.76737,0.203196,3.41913,2.75528,0.0963816,-0.0144864,0.24718
4582643,0.97,-1.50636,-0.475224,0.0620421,-2.0477,1.60055,1.69596,0.784649,-1.50203,-0.473111,0.0684331,-2.04334,1.60171,1.70071,0.784553,0.941113,0.801937,1.10531,0.801904,0.468458,1.97253,-0.0251639,0.939915,0.838854,1.15855,0.839012,0.476441,2.00185,-0.0346894,9.18214,-5.99185,14.8609,20.448,-0.176375,-1.83451,-0.174673,1.77118,0.313081,3.42118,2.69743,0.0860161,-0.0115815,0.243803
4582644,0.97,-1.5054,-0.474368,0.0631928,-2.04684,1.60103,1.69795,0.78461,-1.50109,-0.472267,0.0696012,-2.0425,1.60219,1.70272,0.784517,0.944241,0.817801,1.11911,0.809569,0.469586,1.96186,-0.0269288,0.938632,0.844411,1.1681,0.844492,0.478716,2.01007,-0.0355237,8.75367,-6.44809,14.7062,20.4242,-0.0399611,-1.62851,-0.0968531,1.77013,0.379557,3.41571,2.66854,0.0764752,-0.010322,0.239893
4582645,0.97,-1.50445,-0.473512,0.0643811,-2.04599,1.60152,1.69995,0.784569,-1.50015,-0.471417,0.0707789,-2.04165,1.60267,1.70474,0.784481,0.939373,0.825461,1.13456,0.81325,0.470195,1.9883,-0.0285832,0.937349,0.849968,1.17764,0.849972,0.480991,2.0183,-0.0363579,8.6783,-6.85275,14.3293,20.5472,-0.0234816,-1.35843,0.000192821,1.76088,0.388865,3.39766,2.6736,0.0682311,-0.0105739,0.235375
4582646,0.97,-1.50352,-0.472672,0.0655738,-2.04515,1.60201,1.70193,0.784518,-1.49922,-0.470561,0.0719661,-2.04079,1.60315,1.70676,0.784444,0.939456,0.829474,1.15572,0.819792,0.473488,1.98937,-0.0368504,0.936066,0.855525,1.18719,0.855451,0.483265,2.02652,-0.0371922,8.80128,-7.05508,13.873,20.7456,-0.0912306,-1.21012,0.16865,1.74196,0.357461,3.36495,2.70117,0.0614082,-0.0120346,0.230375
4582647,0.97,-1.50256,-0.471821,0.0667583,-2.04431,1.60251,1.70394,0.784491,-1.49828,-0.4697,0.0731628,-2.03993,1.60364,1.7088,0.784406,0.945238,0.829894,1.15645,0.820974,0.479436,1.98566,-0.0344953,0.934783,0.861082,1.19674,0.860931,0.48554,2.03474,-0.0380264,8.7021,-7.23361,13.7699,21.0709,-0.15898,-1.01694,0.116465,1.71232,0.311602,3.31702,2.73755,0.0558421,-0.0137435,0.225201
4582648,0.97,-1.5016,-0.470987,0.0679226,-2.04348,1.603,1.70591,0.784466,-1.49735,-0.468834,0.0743691,-2.03906,1.60413,1.71084,0.784367,0.948905,0.848569,1.18332,0.826374,0.483821,1.97669,-0.0311015,0.9335,0.866638,1.20629,0.866411,0.487815,2.04296,-0.0388607,8.47596,-7.15427,13.8215,21.416,-0.328352,-0.643407,0.0130102,1.67035,0.259664,3.25256,2.77852,0.0512833,-0.0143603,0.220195
4582649,0.97,-1.50066,-0.470129,0.0691081,-2.04263,1.6035,1.70793,0.784438,-1.49642,-0.467961,0.0755849,-2.03819,1.60462,1.71289,0.784327,0.947867,0.848669,1.17682,0.836565,0.484807,1.98139,-0.0307103,0.932216,0.872195,1.21583,0.87189,0.49009,2.05119,-0.0396949,8.44819,-7.25742,13.7699,21.5668,-0.452864,-0.488683,-0.0510767,1.61755,0.197553,3.1739,2.82449,0.047378,-0.0131155,0.215522
4582650,0.97,-1.49974,-0.469263,0.0702992,-2.04175,1.604,1.70998,0.784414,-1.49549,-0.467084,0.0768103,-2.03731,1.60511,1.71495,0.784286,0.93345,0.848139,1.17792,0.846298,0.484191,1.98077,-0.0284197,0.930933,0.877752,1.22538,0.87737,0.492365,2.05941,-0.0405291,8.75367,-7.33279,13.9484,21.5152,-0.418989,-0.539952,-0.168264,1.57134,0.143133,3.10729,2.86424,0.0428914,-0.0115646,0.211127
4582651,0.97,-1.49883,-0.468394,0.0714899,-2.04088,1.6045,1.71204,0.784374,-1.49456,-0.4662,0.0780452,-2.03643,1.6056,1.71702,0.784245,0.938573,0.854967,1.18578,0.857815,0.486024,2.00257,-0.0332562,0.92965,0.883309,1.23493,0.88285,0.49464,2.06763,-0.0413634,8.92823,-7.5867,14.0516,21.2693,-0.436384,-0.881444,-0.116079,1.54774,0.117174,3.07647,2.88592,0.0367152,-0.0113935,0.206822
4582652,0.97,-1.4979,-0.467522,0.0726988,-2.04,1.605,1.71409,0.784342,-1.49363,-0.465312,0.0792897,-2.03554,1.6061,1.7191,0.784203,0.927924,0.855301,1.18894,0.862391,0.485979,2.01186,-0.0338113,0.928367,0.888866,1.24448,0.888329,0.496915,2.07586,-0.0421976,9.05519,-7.5867,14.1746,21.1701,-0.436384,-0.933629,-0.135305,1.54803,0.121695,3.08252,2.88831,0.028721,-0.0128534,0.202396
4582653,0.97,-1.49696,-0.466669,0.0739171,-2.03912,1.6055,1.71609,0.7843,-1.4927,-0.464418,0.0805428,-2.03465,1.6066,1.72118,0.78416,0.928082,0.871364,1.18957,0.874203,0.489328,2.03565,-0.0379249,0.925652,0.893692,1.25309,0.893102,0.498509,2.08187,-0.0430842,9.07899,-7.45975,14.2539,21.0193,-0.492232,-0.707494,-0.0584009,1.57433,0.144967,3.12734,2.8773,0.019024,-0.0168129,0.197716
4582654,0.97,-1.49605,-0.465789,0.0751314,-2.03824,1.60599,1.71815,0.78426,-1.49178,-0.463519,0.0818045,-2.03375,1.6071,1.72327,0.784116,0.92793,0.872124,1.20186,0.876235,0.490724,2.03148,-0.0397174,0.922937,0.898518,1.26171,0.897875,0.500103,2.08788,-0.0439708,9.15437,-7.43594,14.3015,20.8725,-0.40251,-0.598546,-0.00621587,1.62406,0.170675,3.20642,2.86108,0.00792749,-0.02334,0.192769
4582655,0.97,-1.49514,-0.464892,0.0763909,-2.03734,1.6065,1.72023,0.784215,-1.49086,-0.462616,0.0830748,-2.03285,1.6076,1.72536,0.784071,0.918456,0.877907,1.21207,0.885178,0.487692,2.04297,-0.0430841,0.920221,0.903345,1.27033,0.902648,0.501697,2.09389,-0.0448574,9.38447,-7.55893,14.0992,20.6702,-0.340254,-0.57932,0.103647,1.68682,0.196752,3.30394,2.84261,-0.00405216,-0.0308235,0.187676
4582656,0.97,-1.49422,-0.464,0.0776552,-2.03643,1.60701,1.72229,0.784162,-1.48994,-0.461708,0.0843538,-2.03194,1.6081,1.72746,0.784025,0.915637,0.88614,1.22904,0.893937,0.494883,2.04003,-0.0464216,0.917506,0.908171,1.27895,0.907421,0.503291,2.0999,-0.045744,9.53523,-7.76126,13.5953,20.3489,-0.379622,-0.604955,0.24647,1.7541,0.225912,3.40604,2.82121,-0.0164067,-0.0377328,0.182662
4582657,0.97,-1.49328,-0.463088,0.0789225,-2.03553,1.60753,1.72439,0.784134,-1.48903,-0.460795,0.0856414,-2.03103,1.60861,1.72956,0.783979,0.926196,0.892721,1.23037,0.907798,0.499374,2.04855,-0.0391142,0.914791,0.912997,1.28756,0.912194,0.504885,2.10591,-0.0466306,8.87666,-8.09055,13.2145,20.325,-0.413496,-0.649816,0.129282,1.81823,0.25733,3.50124,2.79506,-0.028777,-0.0427964,0.178025
4582658,0.97,-1.49231,-0.462169,0.0802001,-2.03462,1.60804,1.72651,0.78408,-1.48811,-0.459877,0.0869375,-2.03011,1.60911,1.73168,0.783931,0.934249,0.894405,1.2416,0.908846,0.501886,2.09783,-0.0458974,0.912076,0.917823,1.29618,0.916967,0.506479,2.11192,-0.0475172,7.92054,-8.36826,12.9844,20.2497,-0.408003,-0.791722,0.200693,1.87343,0.294158,3.58246,2.76169,-0.040964,-0.0455313,0.174006
4582659,0.97,-1.49139,-0.46127,0.0814879,-2.03372,1.60855,1.72861,0.784034,-1.4872,-0.458954,0.0882423,-2.02919,1.60962,1.73379,0.783883,0.927808,0.895596,1.25398,0.912871,0.506234,2.09862,-0.0479913,0.90936,0.92265,1.3048,0.92174,0.508073,2.11793,-0.0484038,7.51588,-8.49521,12.4052,20.4242,-0.35124,-0.913488,0.194285,1.91737,0.340272,3.64692,2.72211,-0.0527397,-0.0463568,0.170671
4582660,0.97,-1.49048,-0.460353,0.0828048,-2.03282,1.60906,1.73075,0.783999,-1.4863,-0.458027,0.0895557,-2.02826,1.61013,1.73592,0.783833,0.917888,0.893822,1.26945,0.9063,0.504963,2.10929,-0.045885,0.906645,0.927476,1.31341,0.926512,0.509666,2.12394,-0.0492904,7.34132,-8.62216,11.7982,20.8448,-0.317366,-1.13962,0.0844213,1.95044,0.397162,3.69464,2.68063,-0.0639085,-0.0458426,0.168022
4582661,0.97,-1.48954,-0.459423,0.0840726,-2.03191,1.60956,1.73292,0.783955,-1.48539,-0.457095,0.0908778,-2.02733,1.61064,1.73805,0.783783,0.918628,0.904175,1.26854,0.897333,0.495887,2.12681,-0.042563,0.90393,0.932302,1.32203,0.931285,0.51126,2.12995,-0.050177,6.96046,-9.00302,11.7466,21.0947,-0.169966,-1.72556,0.0459692,1.97786,0.451577,3.73262,2.64963,-0.0742618,-0.0453286,0.165973
4582662,0.97,-1.48864,-0.458486,0.085399,-2.03099,1.6101,1.73502,0.78392,-1.48449,-0.456157,0.0922084,-2.0264,1.61116,1.74018,0.783732,0.9176,0.907603,1.28718,0.900548,0.504505,2.10862,-0.0364021,0.901215,0.937128,1.33065,0.936058,0.512854,2.13596,-0.0510636,6.7859,-9.22916,11.3895,21.3684,-0.288985,-1.37125,-0.0968531,2.00168,0.483331,3.76429,2.64198,-0.0835249,-0.0459379,0.16431
