shamilmamedov/beam_handling/log/param_estimation_ICRA/ocp_Xup_25cm_0.44s_5.csv
duration, success rate, q[0], q[1], q[2], q[3], q[4], q[5], q[6],q_d[0], q_d[1], q_d[2], q_d[3], q_d[4], q_d[5], q_d[6],dq[0], dq[1], dq[2], dq[3], dq[4], dq[5], dq[6],dq_d[0], dq_d[1], dq_d[2], dq_d[3], dq_d[4], dq_d[5], dq_d[6],tau_J[0], tau_J[1], tau_J[2], tau_J[3], tau_J[4], tau_J[5], tau_J[6],tau_ext_hat_filtered[0], tau_ext_hat_filtered[1], tau_ext_hat_filtered[2], tau_ext_hat_filtered[3], tau_ext_hat_filtered[4], tau_ext_hat_filtered[5], tau_ext_hat_filtered[6]
4765446,0,-1.57041,-0.5228,0.000134149,-2.09592,1.57057,1.57166,0.785,-1.5708,-0.523599,4.84236e-08,-2.0944,1.5708,1.5708,0.785397,-0.00118475,-0.000177855,0.000599216,0.00134509,-0.00033503,-0.000239266,-0.00120982,0,0,0,0,0,0,0,-0.402821,-10.2646,-0.409177,20.9201,0.847185,-0.656224,0.175059,-0.464585,-1.132,0.0125944,2.42354,0.275496,-0.658761,0.193968
4765447,1,-1.57041,-0.522797,0.000128598,-2.09592,1.57057,1.57166,0.785,-1.5708,-0.523599,4.84236e-08,-2.0944,1.5708,1.5708,0.785397,0.000416594,0.00108786,-0.00145656,-0.000309722,0.000172968,7.78484e-05,0.000380249,0,0,0,0,0,0,0,-0.454395,-10.3162,-0.329831,20.9717,0.836199,-0.662633,0.143015,-0.464095,-1.13069,0.0130197,2.42236,0.275394,-0.658778,0.194016
4765448,1,-1.57041,-0.522799,0.000130553,-2.09592,1.57057,1.57166,0.784999,-1.5708,-0.523599,4.84236e-08,-2.0944,1.5708,1.5708,0.785397,-0.000279083,-0.000481189,-0.000321428,0.000443116,0.000107377,-0.00018546,1.61407e-05,0,0,0,0,0,0,0,-0.430592,-10.2646,-0.357602,20.9439,0.836199,-0.656224,0.149424,-0.462963,-1.13092,0.0144431,2.42188,0.275304,-0.658906,0.194062
4765449,1,-1.5704,-0.522801,0.000132226,-2.09592,1.57057,1.57165,0.784999,-1.5708,-0.523599,4.84236e-08,-2.0944,1.5708,1.5708,0.785397,0.00157718,-0.000320793,0.000342527,-0.000354216,-0.000341267,-0.000360999,-0.000938675,0,0,0,0,0,0,0,-0.50597,-10.2646,-0.381406,20.9717,0.847185,-0.649816,0.175059,-0.462256,-1.13095,0.0153224,2.42155,0.275242,-0.658958,0.194113
4765450,1,-1.5704,-0.522803,0.000132045,-2.09592,1.57057,1.57165,0.785005,-1.5708,-0.523599,4.84236e-08,-2.0944,1.5708,1.5708,0.785397,0.000401841,-0.000770674,0.000877965,-0.000792965,0.000174926,-0.000240666,0.001307,0,0,0,0,0,0,0,-0.478199,-10.2408,-0.409177,20.9955,0.836199,-0.649816,0.122873,-0.463119,-1.12996,0.0138978,2.42119,0.275247,-0.658749,0.194177
4765451,1,-1.5704,-0.522802,0.000129846,-2.09592,1.57057,1.57166,0.785001,-1.5708,-0.523599,4.84236e-08,-2.0944,1.5708,1.5708,0.785397,0.000917508,4.30295e-05,-0.000621116,2.81612e-05,0.00011327,0.000314274,-0.00082409,0,0,0,0,0,0,0,-0.50597,-10.2646,-0.357602,20.9717,0.836199,-0.662633,0.16865,-0.464858,-1.12882,0.0112303,2.42117,0.275303,-0.658397,0.194254
4765452,1,-1.57041,-0.522803,0.000130319,-2.09592,1.57057,1.57166,0.785001,-1.5708,-0.523599,4.84236e-08,-2.0944,1.5708,1.5708,0.785397,-0.00115157,-0.000528126,-0.000414077,-0.00109486,0.000276453,0.000209516,-0.000312034,0,0,0,0,0,0,0,-0.430592,-10.2408,-0.357602,21.0193,0.830705,-0.662633,0.162241,-0.465811,-1.12815,0.00982733,2.42156,0.275347,-0.658167,0.19433
4765453,1,-1.57041,-0.522801,0.000134096,-2.09592,1.57057,1.57166,0.785002,-1.5708,-0.523599,4.84236e-08,-2.0944,1.5708,1.5708,0.785397,-0.000210898,-0.000352084,0.000930374,0.00159014,-0.000427932,0.000139677,0.00101268,0,0,0,0,0,0,0,-0.454395,-10.2408,-0.409177,20.9201,0.847185,-0.662633,0.129282,-0.465746,-1.12724,0.00990166,2.42172,0.275344,-0.658097,0.194414
4765454,1,-1.5704,-0.522799,0.000132019,-2.09592,1.57057,1.57165,0.784999,-1.5708,-0.523599,4.84236e-08,-2.0944,1.5708,1.5708,0.785397,0.000416213,0.000971703,0.00062025,0.00106009,-0.0002867,-0.0003816,0.000166494,0,0,0,0,0,0,0,-0.478199,-10.2924,-0.409177,20.9201,0.847185,-0.649816,0.143015,-0.465973,-1.12579,0.00944673,2.42092,0.275309,-0.657998,0.194516
4765455,1,-1.57041,-0.522802,0.000131508,-2.09592,1.57057,1.57165,0.785003,-1.5708,-0.523599,4.84236e-08,-2.0944,1.5708,1.5708,0.785397,-0.00148576,-1.81167e-06,-0.000236114,-0.0004997,0.000214708,-0.000491759,0.000382263,0,0,0,0,0,0,0,-0.402821,-10.2646,-0.381406,20.9717,0.836199,-0.643407,0.135691,-0.466381,-1.12559,0.0086681,2.42024,0.275283,-0.657895,0.194607
4765456,1,-1.5704,-0.5228,0.000133936,-2.09592,1.57057,1.57165,0.784998,-1.5708,-0.523599,4.84236e-08,-2.0944,1.5708,1.5708,0.785397,0.00142234,0.000648406,0.000492204,0.000316479,0.000142345,-9.04802e-05,-0.000728502,0,0,0,0,0,0,0,-0.50597,-10.2924,-0.409177,20.9439,0.836199,-0.649816,0.162241,-0.466409,-1.12711,0.00842338,2.42062,0.275291,-0.657849,0.194663
4765457,1,-1.57041,-0.522798,0.000131965,-2.09592,1.57057,1.57166,0.784993,-1.5708,-0.523599,4.84236e-08,-2.0944,1.5708,1.5708,0.785397,-0.000815009,0.000989083,0.000328136,-0.000438629,-0.00010915,0.000177039,-0.00167246,0,0,0,0,0,0,0,-0.430592,-10.3162,-0.409177,20.9717,0.841692,-0.656224,0.194285,-0.466664,-1.13026,0.00784258,2.422,0.275347,-0.657762,0.194691
4765458,1,-1.5704,-0.522802,0.000129359,-2.09592,1.57057,1.57166,0.785,-1.5708,-0.523599,4.84236e-08,-2.0944,1.5708,1.5708,0.785397,0.000570285,-0.000547037,-0.000430856,0.000357193,-0.000276664,0.000118026,0.00129252,0,0,0,0,0,0,0,-0.478199,-10.2646,-0.381406,20.9439,0.847185,-0.656224,0.129282,-0.46685,-1.13395,0.00734972,2.42374,0.275417,-0.657674,0.194727
4765459,1,-1.5704,-0.522798,0.00013656,-2.09592,1.57057,1.57166,0.785002,-1.5708,-0.523599,4.84236e-08,-2.0944,1.5708,1.5708,0.785397,0.00038019,0.000284922,0.001476,0.000238128,0.000222123,0.000553402,0.000353055,0,0,0,0,0,0,0,-0.478199,-10.2924,-0.456784,20.9439,0.836199,-0.669042,0.143015,-0.46711,-1.13596,0.00673462,2.42463,0.275463,-0.657547,0.194802
4765460,1,-1.5704,-0.522801,0.000133857,-2.09592,1.57057,1.57166,0.785,-1.5708,-0.523599,4.84236e-08,-2.0944,1.5708,1.5708,0.785397,0.00025346,-0.000459666,-0.000129624,0.000158752,-5.56197e-05,0.000131576,0.00023537,0,0,0,0,0,0,0,-0.478199,-10.2646,-0.409177,20.9439,0.841692,-0.662633,0.143015,-0.467992,-1.13623,0.00515879,2.4246,0.275505,-0.657315,0.194895
4765461,1,-1.5704,-0.522798,0.00013212,-2.09592,1.57057,1.57166,0.784999,-1.5708,-0.523599,4.84236e-08,-2.0944,1.5708,1.5708,0.785397,0.000818587,0.000899982,-0.00073603,-0.00110059,-0.000240719,8.77171e-05,0.000156914,0,0,0,0,0,0,0,-0.50597,-10.3162,-0.381406,20.9955,0.847185,-0.662633,0.143015,-0.468664,-1.13667,0.00396172,2.42481,0.275549,-0.657137,0.194974
4765462,1,-1.57041,-0.522801,0.000130521,-2.09592,1.57057,1.57166,0.784998,-1.5708,-0.523599,4.84236e-08,-2.0944,1.5708,1.5708,0.785397,-0.00121751,-0.00116325,-0.0010475,-0.000733728,4.28299e-05,-0.000178881,-0.00013275,0,0,0,0,0,0,0,-0.430592,-10.2408,-0.357602,20.9955,0.841692,-0.656224,0.149424,-0.468101,-1.13792,0.0047537,2.42585,0.275578,-0.657173,0.195026
4765463,1,-1.5704,-0.522801,0.000132215,-2.09592,1.57057,1.57166,0.784999,-1.5708,-0.523599,4.84236e-08,-2.0944,1.5708,1.5708,0.785397,0.000301949,-0.000218688,-0.00014152,6.76596e-05,0.000231898,0.000118105,0.000148859,0,0,0,0,0,0,0,-0.478199,-10.2646,-0.381406,20.9717,0.836199,-0.662633,0.143015,-0.466395,-1.138,0.00730058,2.42658,0.275563,-0.657382,0.195052
4765464,1,-1.57041,-0.522797,0.000132223,-2.09592,1.57057,1.57166,0.785,-1.5708,-0.523599,4.84236e-08,-2.0944,1.5708,1.5708,0.785397,-0.000355513,0.000503822,-9.43469e-05,-0.000511706,-4.89315e-05,-0.000158622,0.000607866,0,0,0,0,0,0,0,-0.454395,-10.2924,-0.381406,20.9955,0.841692,-0.656224,0.129282,-0.464689,-1.13735,0.00985387,2.42683,0.275534,-0.6576,0.195061
4765465,1,-1.57041,-0.522799,0.000132044,-2.09592,1.57057,1.57166,0.784995,-1.5708,-0.523599,4.84236e-08,-2.0944,1.5708,1.5708,0.785397,-0.00079382,0.000335881,0.000586716,-0.000341137,0.00017077,0.000131611,-0.00152754,0,0,0,0,0,0,0,-0.430592,-10.2924,-0.409177,20.9955,0.836199,-0.662633,0.181467,-0.463507,-1.13817,0.0115375,2.42769,0.275548,-0.65777,0.195047
4765466,1,-1.57041,-0.522802,0.000131516,-2.09592,1.57057,1.57166,0.784996,-1.5708,-0.523599,4.84236e-08,-2.0944,1.5708,1.5708,0.785397,2.75983e-05,-0.000425693,-0.00025847,0.00153581,-8.96487e-05,-0.000149618,-0.00054364,0,0,0,0,0,0,0,-0.454395,-10.2646,-0.381406,20.9201,0.841692,-0.656224,0.16865,-0.462686,-1.13889,0.0125603,2.42818,0.275561,-0.657894,0.195021
4765467,1,-1.5704,-0.522798,0.00013199,-2.09592,1.57057,1.57166,0.785,-1.5708,-0.523599,4.84236e-08,-2.0944,1.5708,1.5708,0.785397,0.000575211,0.000365819,-0.000172313,0.000467063,-0.00026325,0.000137613,0.000858277,0,0,0,0,0,0,0,-0.478199,-10.2924,-0.381406,20.9439,0.847185,-0.662633,0.135691,-0.462238,-1.13779,0.0130752,2.42713,0.27552,-0.657949,0.195023
4765468,1,-1.5704,-0.522799,0.000134096,-2.09592,1.57057,1.57166,0.784995,-1.5708,-0.523599,4.84236e-08,-2.0944,1.5708,1.5708,0.785397,0.000383474,0.000243879,0.000534738,-0.000338239,2.79255e-05,-0.000145617,-0.000885878,0,0,0,0,0,0,0,-0.478199,-10.2924,-0.409177,20.9717,0.841692,-0.656224,0.175059,-0.46241,-1.13671,0.0127644,2.42592,0.275488,-0.657918,0.195063
4765469,1,-1.57041,-0.522796,0.000128399,-2.09592,1.57057,1.57166,0.785006,-1.5708,-0.523599,4.84236e-08,-2.0944,1.5708,1.5708,0.785397,-0.000301163,0.000719398,-0.000849934,-0.000782304,0.000222049,0.000140281,0.00181691,0,0,0,0,0,0,0,-0.454395,-10.3162,-0.357602,20.9955,0.836199,-0.662633,0.110056,-0.462825,-1.13766,0.0121152,2.4261,0.275521,-0.657873,0.195124
4765470,1,-1.5704,-0.522797,0.000133456,-2.09592,1.57057,1.57166,0.785003,-1.5708,-0.523599,4.84236e-08,-2.0944,1.5708,1.5708,0.785397,0.000356037,-7.72133e-05,0.000639803,3.52757e-05,0.000351469,-0.000143838,-9.42794e-06,0,0,0,0,0,0,0,-0.478199,-10.2924,-0.409177,20.9717,0.830705,-0.656224,0.143015,-0.462985,-1.14003,0.0118599,2.42736,0.275584,-0.657881,0.19519
4765471,1,-1.57041,-0.522799,0.000130316,-2.09592,1.57057,1.57166,0.784995,-1.5708,-0.523599,4.84236e-08,-2.0944,1.5708,1.5708,0.785397,-0.000319454,-0.000701089,-0.00077989,0.00178675,0.000234302,-9.58921e-05,-0.00190516,0,0,0,0,0,0,0,-0.454395,-10.2646,-0.357602,20.8963,0.830705,-0.656224,0.194285,-0.463062,-1.14063,0.0117696,2.42751,0.275596,-0.657882,0.195236
4765472,1,-1.5704,-0.5228,0.000135766,-2.09592,1.57057,1.57165,0.785004,-1.5708,-0.523599,4.84236e-08,-2.0944,1.5708,1.5708,0.785397,0.000993456,-0.0010242,0.00124331,-0.000572068,0.000359644,-0.000301287,0.00113739,0,0,0,0,0,0,0,-0.50597,-10.2408,-0.432981,20.9717,0.825212,-0.649816,0.129282,-0.463457,-1.13763,0.0112617,2.42551,0.275525,-0.657792,0.195272
4765473,1,-1.5704,-0.522801,0.000128581,-2.09592,1.57057,1.57166,0.784998,-1.5708,-0.523599,4.84236e-08,-2.0944,1.5708,1.5708,0.785397,1.26906e-05,-0.000125991,-0.00158398,0.000268235,3.63061e-05,3.65009e-05,-0.000462441,0,0,0,0,0,0,0,-0.478199,-10.2646,-0.329831,20.9439,0.830705,-0.656224,0.162241,-0.464179,-1.13331,0.0103648,2.42305,0.275421,-0.657629,0.195324
4765474,1,-1.5704,-0.522797,0.000130547,-2.09592,1.57057,1.57166,0.784998,-1.5708,-0.523599,4.84236e-08,-2.0944,1.5708,1.5708,0.785397,8.46042e-06,0.00056562,-0.000406371,-0.00047079,-0.000382701,0.000261693,-0.00102037,0,0,0,0,0,0,0,-0.478199,-10.2924,-0.357602,20.9717,0.841692,-0.662633,0.181467,-0.464187,-1.13083,0.0106962,2.42174,0.2753,-0.657589,0.195386
4765475,1,-1.57041,-0.522799,0.000130093,-2.09592,1.57057,1.57166,0.785005,-1.5708,-0.523599,4.84236e-08,-2.0944,1.5708,1.5708,0.785397,-0.000551172,0.00037708,0.000285898,-0.00031386,-5.16872e-05,0.000174462,0.00148989,0,0,0,0,0,0,0,-0.454395,-10.2924,-0.381406,20.9717,0.836199,-0.662633,0.122873,-0.463514,-1.13141,0.0120918,2.42208,0.275194,-0.657691,0.195463
4765476,1,-1.57041,-0.522802,0.000133464,-2.09592,1.57057,1.57166,0.784996,-1.5708,-0.523599,4.84236e-08,-2.0944,1.5708,1.5708,0.785397,-0.000367448,-0.000398227,0.000840212,-0.000766052,0.00016899,0.000116308,-0.00117688,0,0,0,0,0,0,0,-0.454395,-10.2646,-0.409177,20.9955,0.830705,-0.662633,0.181467,-0.463201,-1.13357,0.012813,2.42346,0.275138,-0.657762,0.195564
4765477,1,-1.5704,-0.522802,0.000133938,-2.09592,1.57057,1.57166,0.785,-1.5708,-0.523599,4.84236e-08,-2.0944,1.5708,1.5708,0.785397,0.000311847,-0.000265485,0.000560142,-0.000510701,0.000112658,-0.00015982,0.000910836,0,0,0,0,0,0,0,-0.478199,-10.2646,-0.409177,20.9955,0.830705,-0.656224,0.135691,-0.463666,-1.13532,0.0122345,2.42494,0.275116,-0.657715,0.195679
4765478,1,-1.5704,-0.5228,0.000132147,-2.09593,1.57057,1.57166,0.785004,-1.5708,-0.523599,4.84236e-08,-2.0944,1.5708,1.5708,0.785397,0.000207898,-0.00017699,-0.000276186,-0.00210371,-0.000535248,0.00060553,0.00108194,0,0,0,0,0,0,0,-0.478199,-10.2646,-0.381406,21.0709,0.847185,-0.67545,0.122873,-0.464607,-1.13695,0.0109402,2.42681,0.275115,-0.6576,0.195801
4765479,1,-1.57041,-0.522799,0.00013053,-2.09592,1.57057,1.57166,0.785,-1.5708,-0.523599,4.84236e-08,-2.0944,1.5708,1.5708,0.785397,-0.000975025,-0.000117993,-0.000740936,0.00212401,-0.000153382,-0.00030839,-0.000974126,0,0,0,0,0,0,0,-0.430592,-10.2646,-0.357602,20.9201,0.841692,-0.656224,0.16865,-0.464898,-1.13825,0.0106823,2.42852,0.275073,-0.657594,0.195908
4765480,1,-1.5704,-0.522797,0.000130087,-2.09592,1.57057,1.57166,0.785001,-1.5708,-0.523599,4.84236e-08,-2.0944,1.5708,1.5708,0.785397,0.000463607,0.000570952,6.28546e-05,-0.000347234,-0.000102256,-0.000205593,0.000571285,0,0,0,0,0,0,0,-0.478199,-10.2924,-0.381406,20.9955,0.841692,-0.656224,0.135691,-0.46434,-1.13843,0.01176,2.4289,0.274949,-0.657723,0.195986
4765481,1,-1.57041,-0.522799,0.000125764,-2.09592,1.57057,1.57165,0.784994,-1.5708,-0.523599,4.84236e-08,-2.0944,1.5708,1.5708,0.785397,-0.000247741,0.000380634,-0.00116452,0.000974936,0.000135279,-0.00061178,-0.00178928,0,0,0,0,0,0,0,-0.454395,-10.2924,-0.329831,20.9439,0.836199,-0.643407,0.194285,-0.463564,-1.13875,0.0132598,2.42875,0.274801,-0.657892,0.196042
4765482,1,-1.57041,-0.522799,0.000131279,-2.09592,1.57057,1.57165,0.784997,-1.5708,-0.523599,4.84236e-08,-2.0944,1.5708,1.5708,0.785397,-0.000721972,-0.000395858,0.000430077,3.43646e-07,9.01859e-05,-0.000170495,-0.000955496,0,0,0,0,0,0,0,-0.430592,-10.2646,-0.381406,20.9717,0.836199,-0.649816,0.187876,-0.462607,-1.13903,0.0150665,2.42842,0.274655,-0.658071,0.196097
4765483,1,-1.57041,-0.522801,0.000133859,-2.09592,1.57057,1.57166,0.785004,-1.5708,-0.523599,4.84236e-08,-2.0944,1.5708,1.5708,0.785397,7.5497e-05,-0.000263905,0.000936332,-0.000556583,6.01236e-05,0.000361055,0.00224522,0,0,0,0,0,0,0,-0.454395,-10.2646,-0.409177,20.9955,0.836199,-0.662633,0.110056,-0.462085,-1.13842,0.0160636,2.42787,0.274541,-0.658143,0.196195
4765484,1,-1.57041,-0.522803,0.000132121,-2.09592,1.57057,1.57166,0.785,-1.5708,-0.523599,4.84236e-08,-2.0944,1.5708,1.5708,0.785397,5.03314e-05,-0.000732749,-2.53925e-05,0.000185757,0.000243533,3.34431e-06,-0.000435968,0,0,0,0,0,0,0,-0.454395,-10.2408,-0.381406,20.9717,0.830705,-0.656224,0.162241,-0.462486,-1.13704,0.0155068,2.42739,0.274479,-0.658039,0.196341
4765485,1,-1.57041,-0.522802,0.00013201,-2.09592,1.57057,1.57166,0.785004,-1.5708,-0.523599,4.84236e-08,-2.0944,1.5708,1.5708,0.785397,-0.000523258,6.83128e-05,0.000632686,-0.000432974,-0.000244546,2.22954e-06,0.000692699,0,0,0,0,0,0,0,-0.430592,-10.2646,-0.409177,20.9955,0.841692,-0.656224,0.135691,-0.463173,-1.13521,0.0144201,2.42691,0.27443,-0.657867,0.196492
4765486,1,-1.5704,-0.522802,0.000133453,-2.09592,1.57057,1.57166,0.785,-1.5708,-0.523599,4.84236e-08,-2.0944,1.5708,1.5708,0.785397,0.000764785,4.55419e-05,0.00042179,-0.000845461,-0.000366481,1.48636e-06,-4.68269e-05,0,0,0,0,0,0,0,-0.478199,-10.2646,-0.409177,21.0193,0.847185,-0.656224,0.149424,-0.464018,-1.13445,0.0129802,2.42721,0.274418,-0.65767,0.196621
4765487,1,-1.5704,-0.5228,0.000135605,-2.09592,1.57057,1.57166,0.784997,-1.5708,-0.523599,4.84236e-08,-2.0944,1.5708,1.5708,0.785397,0.000509857,0.000679975,0.000838006,-6.82897e-06,-0.000244321,0.00023835,-0.00169273,0,0,0,0,0,0,0,-0.478199,-10.2924,-0.432981,20.9955,0.847185,-0.662633,0.194285,-0.465432,-1.13562,0.0106282,2.42867,0.274474,-0.657403,0.196722
4765488,1,-1.57041,-0.522798,0.000130476,-2.09592,1.57057,1.57166,0.785004,-1.5708,-0.523599,4.84236e-08,-2.0944,1.5708,1.5708,0.785397,-0.000216907,0.000453317,-0.00120457,0.00120187,0.00024402,-7.8459e-05,0.00104165,0,0,0,0,0,0,0,-0.454395,-10.2924,-0.357602,20.9439,0.836199,-0.656224,0.135691,-0.466656,-1.13773,0.00859374,2.43022,0.274535,-0.657181,0.196815
4765489,1,-1.57041,-0.522801,0.000132018,-2.09592,1.57057,1.57166,0.785001,-1.5708,-0.523599,4.84236e-08,-2.0944,1.5708,1.5708,0.785397,-0.000144605,-0.000347403,0.000403381,-0.000961989,0.00016268,-5.2306e-05,-0.000526269,0,0,0,0,0,0,0,-0.454395,-10.2646,-0.409177,21.0193,0.836199,-0.656224,0.16865,-0.46675,-1.13935,0.00829079,2.43114,0.274539,-0.65713,0.196925
4765490,1,-1.5704,-0.522803,0.000133456,-2.09592,1.57057,1.57165,0.784999,-1.5708,-0.523599,4.84236e-08,-2.0944,1.5708,1.5708,0.785397,0.000460409,-0.00143803,0.000268921,0.00112191,-9.49972e-05,-0.00027223,-0.00106292,0,0,0,0,0,0,0,-0.478199,-10.213,-0.409177,20.9439,0.841692,-0.649816,0.187876,-0.466541,-1.13862,0.00841595,2.43099,0.274506,-0.657094,0.197052
4765491,1,-1.57041,-0.522797,0.000133936,-2.09592,1.57057,1.57165,0.785005,-1.5708,-0.523599,4.84236e-08,-2.0944,1.5708,1.5708,0.785397,-0.000249873,0.00145417,0.00017928,0.00186157,0.00034357,-0.000181486,0.00146152,0,0,0,0,0,0,0,-0.454395,-10.3162,-0.409177,20.8963,0.830705,-0.649816,0.129282,-0.466671,-1.13557,0.00800148,2.42931,0.274433,-0.65698,0.197209
4765492,1,-1.57041,-0.522799,0.000130016,-2.09592,1.57057,1.57165,0.784995,-1.5708,-0.523599,4.84236e-08,-2.0944,1.5708,1.5708,0.785397,-0.000166582,-0.000236981,-0.000530094,0.000684231,-0.000177855,-0.00035835,-0.00119579,0,0,0,0,0,0,0,-0.454395,-10.2646,-0.381406,20.9201,0.841692,-0.643407,0.187876,-0.466509,-1.13302,0.0080131,2.42712,0.274325,-0.656914,0.197402
4765493,1,-1.57041,-0.522803,0.000133439,-2.09592,1.57057,1.57166,0.785,-1.5708,-0.523599,4.84236e-08,-2.0944,1.5708,1.5708,0.785397,-0.000111055,-0.0007148,0.000296218,0.00101297,-0.00011857,0.000235818,0.00113559,0,0,0,0,0,0,0,-0.454395,-10.2408,-0.409177,20.8963,0.841692,-0.656224,0.135691,-0.46588,-1.13063,0.00869424,2.42483,0.274198,-0.656904,0.197611
4765494,1,-1.5704,-0.522796,0.00012985,-2.09592,1.57057,1.57166,0.785001,-1.5708,-0.523599,4.84236e-08,-2.0944,1.5708,1.5708,0.785397,0.000482776,0.0012867,-0.000452135,-0.00164474,0.000124404,0.000394571,0.00123178,0,0,0,0,0,0,0,-0.478199,-10.3162,-0.381406,20.9955,0.836199,-0.662633,0.122873,-0.465217,-1.12913,0.00939902,2.42344,0.274113,-0.656888,0.197825
4765495,1,-1.57041,-0.522799,0.000135054,-2.09592,1.57057,1.57166,0.784998,-1.5708,-0.523599,4.84236e-08,-2.0944,1.5708,1.5708,0.785397,-0.000234962,0.000300991,0.000905002,-0.0016533,0.000286386,0.000263047,-0.00016216,0,0,0,0,0,0,0,-0.454395,-10.2924,-0.432981,21.0193,0.830705,-0.662633,0.149424,-0.464835,-1.13201,0.00962275,2.42521,0.274165,-0.656868,0.198007
4765496,1,-1.5704,-0.522799,0.000130292,-2.09592,1.57057,1.57166,0.784999,-1.5708,-0.523599,4.84236e-08,-2.0944,1.5708,1.5708,0.785397,0.000400171,-0.000448953,-0.0011599,1.14208e-05,0.000190924,-6.19941e-05,0.000129252,0,0,0,0,0,0,0,-0.478199,-10.2646,-0.357602,20.9717,0.830705,-0.656224,0.143015,-0.464577,-1.13689,0.00962867,2.4287,0.274287,-0.656852,0.198127
4765497,1,-1.57041,-0.522797,0.000135758,-2.09593,1.57057,1.57166,0.784998,-1.5708,-0.523599,4.84236e-08,-2.0944,1.5708,1.5708,0.785397,-0.000290031,0.000350312,0.000989969,-0.00110601,-0.000483069,-4.13294e-05,-0.00133799,0,0,0,0,0,0,0,-0.454395,-10.2924,-0.432981,21.0193,0.847185,-0.656224,0.181467,-0.464245,-1.14043,0.00978417,2.43158,0.274373,-0.656842,0.198192
4765498,1,-1.5704,-0.522801,0.000130527,-2.09592,1.57057,1.57166,0.784996,-1.5708,-0.523599,4.84236e-08,-2.0944,1.5708,1.5708,0.785397,0.00156988,-0.000416073,-0.00110326,0.00158271,0.000288306,0.000209806,-0.000654631,0,0,0,0,0,0,0,-0.529774,-10.2646,-0.357602,20.9201,0.830705,-0.662633,0.175059,-0.464203,-1.14231,0.009618,2.43328,0.27441,-0.656788,0.19823
4765499,1,-1.57041,-0.522799,0.000130086,-2.09592,1.57057,1.57166,0.785005,-1.5708,-0.523599,4.84236e-08,-2.0944,1.5708,1.5708,0.785397,-0.00192307,-0.000277382,-0.000178694,-0.000151286,-0.000214697,-9.74883e-05,0.00173372,0,0,0,0,0,0,0,-0.402821,-10.2646,-0.381406,20.9717,0.841692,-0.656224,0.116465,-0.463924,-1.14178,0.00995974,2.43313,0.274357,-0.656767,0.198285
4765500,1,-1.57041,-0.522799,0.000131513,-2.09592,1.57057,1.57166,0.785004,-1.5708,-0.523599,4.84236e-08,-2.0944,1.5708,1.5708,0.785397,-7.56237e-05,-0.000184921,-0.000119129,-0.000100857,6.03191e-05,0.000172367,0.000443735,0,0,0,0,0,0,0,-0.454395,-10.2646,-0.381406,20.9717,0.836199,-0.662633,0.135691,-0.462765,-1.13994,0.0115785,2.43209,0.274237,-0.656881,0.198357
4765501,1,-1.5704,-0.522799,0.000129858,-2.09592,1.57057,1.57166,0.784997,-1.5708,-0.523599,4.84236e-08,-2.0944,1.5708,1.5708,0.785397,0.000506396,0.000526333,-7.94194e-05,0.000582376,-0.000366688,0.000114911,-0.00116224,0,0,0,0,0,0,0,-0.478199,-10.2924,-0.381406,20.9439,0.847185,-0.662633,0.175059,-0.461655,-1.13863,0.0130727,2.43131,0.274134,-0.657007,0.198407
4765502,1,-1.57041,-0.522796,0.000133386,-2.09592,1.57057,1.57166,0.785003,-1.5708,-0.523599,4.84236e-08,-2.0944,1.5708,1.5708,0.785397,-0.000219215,0.000907701,0.000596668,0.000945062,0.000569343,7.66075e-05,0.000683236,0,0,0,0,0,0,0,-0.454395,-10.3162,-0.409177,20.9201,0.825212,-0.662633,0.135691,-0.461366,-1.13858,0.0133973,2.43077,0.274071,-0.657044,0.198426
4765503,1,-1.5704,-0.522797,0.000133912,-2.09593,1.57057,1.57165,0.785003,-1.5708,-0.523599,4.84236e-08,-2.0944,1.5708,1.5708,0.785397,0.000410669,0.000605134,0.000397778,-0.00224682,-0.00043424,-0.000423646,-5.31354e-05,0,0,0,0,0,0,0,-0.478199,-10.3162,-0.409177,21.0431,0.847185,-0.649816,0.149424,-0.461848,-1.1408,0.0125368,2.4314,0.274083,-0.657006,0.198429
4765504,1,-1.5704,-0.522799,0.000130468,-2.09592,1.57057,1.57166,0.784999,-1.5708,-0.523599,4.84236e-08,-2.0944,1.5708,1.5708,0.785397,0.000273779,-0.000803003,-0.00094124,-0.000941068,0.000320858,-4.50719e-05,-0.000272783,0,0,0,0,0,0,0,-0.478199,-10.2646,-0.357602,21.0193,0.830705,-0.656224,0.155832,-0.462542,-1.14451,0.0113842,2.43366,0.274167,-0.656948,0.198413
4765505,1,-1.5704,-0.522797,0.000135817,-2.09592,1.57057,1.57165,0.785,-1.5708,-0.523599,4.84236e-08,-2.0944,1.5708,1.5708,0.785397,0.00018252,0.000114278,0.00113574,0.00113586,-0.000192996,-0.000267407,0.00056413,0,0,0,0,0,0,0,-0.478199,-10.2924,-0.432981,20.9439,0.841692,-0.649816,0.135691,-0.463168,-1.14654,0.0104354,2.43541,0.274228,-0.656875,0.198382
4765506,1,-1.57041,-0.522797,0.000134166,-2.09592,1.57057,1.57166,0.784993,-1.5708,-0.523599,4.84236e-08,-2.0944,1.5708,1.5708,0.785397,-0.000435132,7.61856e-05,0.000200351,0.00131405,0.000278237,0.000533806,-0.00203141,0,0,0,0,0,0,0,-0.454395,-10.2924,-0.409177,20.9201,0.830705,-0.669042,0.200693,-0.464038,-1.14582,0.00910594,2.43501,0.274216,-0.65674,0.19835
4765507,1,-1.57041,-0.522799,0.000132223,-2.09592,1.57057,1.57165,0.785,-1.5708,-0.523599,4.84236e-08,-2.0944,1.5708,1.5708,0.785397,-0.000290088,-0.000598824,-0.000516047,-0.000887204,-0.000221409,-0.000356206,0.00105322,0,0,0,0,0,0,0,-0.454395,-10.2646,-0.381406,20.9955,0.841692,-0.649816,0.135691,-0.464564,-1.14373,0.0082323,2.43342,0.27415,-0.656645,0.198329
4765508,1,-1.57041,-0.522797,0.000135845,-2.09592,1.57057,1.57166,0.785,-1.5708,-0.523599,4.84236e-08,-2.0944,1.5708,1.5708,0.785397,-0.000193392,0.00080721,0.000862395,-3.46571e-05,-0.000147606,0.000237247,0.000702149,0,0,0,0,0,0,0,-0.454395,-10.3162,-0.432981,20.9717,0.841692,-0.662633,0.135691,-0.464531,-1.14225,0.00814154,2.43242,0.274084,-0.656637,0.198335
4765509,1,-1.57041,-0.522801,0.000130556,-2.09592,1.57057,1.57166,0.785,-1.5708,-0.523599,4.84236e-08,-2.0944,1.5708,1.5708,0.785397,-0.000128928,-0.000668286,-0.00118831,-2.31048e-05,0.000308497,0.000158165,0.000468099,0,0,0,0,0,0,0,-0.454395,-10.2646,-0.357602,20.9717,0.830705,-0.662633,0.135691,-0.464251,-1.14194,0.0083763,2.43222,0.274039,-0.656676,0.198355
4765510,1,-1.5704,-0.522803,0.000130556,-2.09592,1.57057,1.57166,0.785004,-1.5708,-0.523599,4.84236e-08,-2.0944,1.5708,1.5708,0.785397,0.00047086,-0.00100234,-0.000792205,0.00119102,-0.000201236,-0.000131916,0.000786784,0,0,0,0,0,0,0,-0.478199,-10.2408,-0.357602,20.9201,0.841692,-0.656224,0.122873,-0.463377,-1.14007,0.009631,2.43109,0.273932,-0.656788,0.198355
4765511,1,-1.5704,-0.522803,0.000135846,-2.09592,1.57057,1.57166,0.784995,-1.5708,-0.523599,4.84236e-08,-2.0944,1.5708,1.5708,0.785397,0.000313907,-0.000668224,0.0012351,0.000237203,-0.000134158,-8.79439e-05,-0.00188298,0,0,0,0,0,0,0,-0.478199,-10.2408,-0.432981,20.9439,0.841692,-0.656224,0.187876,-0.462741,-1.1355,0.0106587,2.42837,0.273773,-0.656836,0.198318
4765512,1,-1.5704,-0.5228,0.000130096,-2.09592,1.57057,1.57166,0.784999,-1.5708,-0.523599,4.84236e-08,-2.0944,1.5708,1.5708,0.785397,0.000209271,0.000760943,-0.000383025,-0.000491478,-8.94384e-05,0.00017873,0.000406196,0,0,0,0,0,0,0,-0.478199,-10.2924,-0.381406,20.9717,0.841692,-0.662633,0.143015,-0.463132,-1.13162,0.0101205,2.42605,0.273678,-0.656743,0.198247
4765513,1,-1.5704,-0.522802,0.000131516,-2.09592,1.57057,1.57166,0.784997,-1.5708,-0.523599,4.84236e-08,-2.0944,1.5708,1.5708,0.785397,0.000139514,-0.000142318,-0.00025535,-0.000327652,0.000143825,-0.000118206,-0.000203921,0,0,0,0,0,0,0,-0.478199,-10.2646,-0.381406,20.9717,0.836199,-0.656224,0.155832,-0.463645,-1.13101,0.00940361,2.42567,0.27367,-0.656675,0.198171
4765514,1,-1.57041,-0.5228,0.000131808,-2.09592,1.57057,1.57166,0.784995,-1.5708,-0.523599,4.84236e-08,-2.0944,1.5708,1.5708,0.785397,-0.000463803,0.000554735,0.00047938,-0.000775247,0.000299334,-7.88039e-05,-0.000848024,0,0,0,0,0,0,0,-0.454395,-10.2924,-0.409177,20.9955,0.830705,-0.656224,0.175059,-0.463845,-1.13281,0.00916684,2.42678,0.273712,-0.656685,0.198105
4765515,1,-1.57041,-0.5228,0.000129767,-2.09592,1.57057,1.57166,0.785004,-1.5708,-0.523599,4.84236e-08,-2.0944,1.5708,1.5708,0.785397,-0.000309202,-0.000279791,-0.000886839,0.000689595,-0.000648155,0.000184823,0.00136743,0,0,0,0,0,0,0,-0.454395,-10.2646,-0.357602,20.9439,0.853594,-0.662633,0.122873,-0.463687,-1.1353,0.00942121,2.42829,0.27376,-0.656759,0.19806
4765516,1,-1.5704,-0.522795,0.000131782,-2.09592,1.57057,1.57166,0.785001,-1.5708,-0.523599,4.84236e-08,-2.0944,1.5708,1.5708,0.785397,0.000350677,0.0010199,0.0006152,-0.000189884,0.000415607,0.000123215,-0.000546442,0,0,0,0,0,0,0,-0.478199,-10.3162,-0.409177,20.9717,0.830705,-0.662633,0.162241,-0.463267,-1.13771,0.010084,2.4295,0.273786,-0.656878,0.19804
4765517,1,-1.57041,-0.522799,0.000129758,-2.09592,1.57057,1.57166,0.785,-1.5708,-0.523599,4.84236e-08,-2.0944,1.5708,1.5708,0.785397,-0.000323027,0.000123121,-0.000796293,-0.000126589,-0.000129829,-0.000155215,0.000347782,0,0,0,0,0,0,0,-0.454395,-10.2924,-0.357602,20.9717,0.841692,-0.656224,0.143015,-0.462971,-1.14069,0.0106075,2.43082,0.273823,-0.656992,0.198026
4765518,1,-1.57041,-0.522797,0.000133909,-2.09592,1.57057,1.57166,0.785005,-1.5708,-0.523599,4.84236e-08,-2.0944,1.5708,1.5708,0.785397,-0.000215351,8.20804e-05,0.000675564,0.000565221,-0.000290003,-0.000103477,0.00097784,0,0,0,0,0,0,0,-0.454395,-10.2924,-0.409177,20.9439,0.847185,-0.656224,0.122873,-0.462703,-1.14339,0.011089,2.43195,0.273858,-0.6571,0.198008
4765519,1,-1.57041,-0.522801,0.000132138,-2.09592,1.57057,1.57166,0.784997,-1.5708,-0.523599,4.84236e-08,-2.0944,1.5708,1.5708,0.785397,-0.000143568,-0.00115171,-0.000199238,-0.000829612,-0.000430695,-6.89846e-05,-0.00104353,0,0,0,0,0,0,0,-0.454395,-10.2408,-0.381406,20.9955,0.853594,-0.656224,0.16865,-0.462589,-1.144,0.0112836,2.43211,0.273877,-0.657155,0.197978
4765520,1,-1.5704,-0.522799,0.000130527,-2.09592,1.57057,1.57166,0.785005,-1.5708,-0.523599,4.84236e-08,-2.0944,1.5708,1.5708,0.785397,0.0004611,-0.000210992,-0.000689637,0.000653351,0.00035713,0.000191369,0.000999736,0,0,0,0,0,0,0,-0.478199,-10.2646,-0.357602,20.9439,0.836199,-0.662633,0.122873,-0.462527,-1.14238,0.0114305,2.43136,0.273886,-0.657165,0.197923
4765521,1,-1.5704,-0.522799,0.000130086,-2.09592,1.57057,1.57166,0.785004,-1.5708,-0.523599,4.84236e-08,-2.0944,1.5708,1.5708,0.785397,0.0003074,-0.000140661,9.70538e-05,-0.000214046,0.000238087,0.000127579,0.000191773,0,0,0,0,0,0,0,-0.478199,-10.2646,-0.381406,20.9717,0.836199,-0.662633,0.135691,-0.46242,-1.13994,0.0117853,2.43017,0.273889,-0.65717,0.197847
4765522,1,-1.5704,-0.522801,0.000133462,-2.09592,1.57057,1.57166,0.784999,-1.5708,-0.523599,4.84236e-08,-2.0944,1.5708,1.5708,0.785397,0.000854547,-9.37741e-05,0.000714317,0.000506916,-4.4726e-05,-0.000152306,-0.00180493,0,0,0,0,0,0,0,-0.50597,-10.2646,-0.409177,20.9439,0.841692,-0.656224,0.187876,-0.462985,-1.13791,0.0112227,2.42904,0.273926,-0.657085,0.197743
4765523,1,-1.5704,-0.5228,0.000131989,-2.09592,1.57057,1.57166,0.785005,-1.5708,-0.523599,4.84236e-08,-2.0944,1.5708,1.5708,0.785397,-7.99155e-05,0.000587098,-0.000173403,0.000337944,0.000173633,-0.000101537,0.000966851,0,0,0,0,0,0,0,-0.478199,-10.2924,-0.381406,20.9439,0.836199,-0.656224,0.129282,-0.464257,-1.13676,0.00964652,2.42818,0.273999,-0.656916,0.197624
4765524,1,-1.57041,-0.522802,0.000133636,-2.09592,1.57057,1.57166,0.785001,-1.5708,-0.523599,4.84236e-08,-2.0944,1.5708,1.5708,0.785397,-0.00181651,-0.000258215,0.00109082,-0.00098113,-8.7695e-05,-6.76915e-05,-0.000813495,0,0,0,0,0,0,0,-0.402821,-10.2646,-0.432981,20.9955,0.841692,-0.656224,0.16865,-0.465203,-1.13698,0.00843022,2.42804,0.27409,-0.656816,0.197518
4765525,1,-1.5704,-0.522803,0.000129819,-2.09592,1.57057,1.57166,0.785,-1.5708,-0.523599,4.84236e-08,-2.0944,1.5708,1.5708,0.785397,0.000552228,-0.000728956,-0.00103602,-0.000654086,-5.84634e-05,0.000192231,0.000169747,0,0,0,0,0,0,0,-0.478199,-10.2408,-0.357602,20.9955,0.841692,-0.662633,0.149424,-0.465297,-1.13766,0.00827965,2.42864,0.274186,-0.656839,0.197427
4765526,1,-1.5704,-0.522802,0.00013393,-2.09592,1.57057,1.57166,0.785003,-1.5708,-0.523599,4.84236e-08,-2.0944,1.5708,1.5708,0.785397,0.000368152,7.08416e-05,0.000515745,0.000120754,-3.89756e-05,-0.000109205,0.000621791,0,0,0,0,0,0,0,-0.478199,-10.2646,-0.409177,20.9717,0.841692,-0.656224,0.135691,-0.465108,-1.1377,0.00859134,2.42924,0.274264,-0.656889,0.197356
4765527,1,-1.57041,-0.522798,0.000132145,-2.09592,1.57057,1.57166,0.784996,-1.5708,-0.523599,4.84236e-08,-2.0944,1.5708,1.5708,0.785397,-0.000311377,0.000696842,-0.000305784,8.05029e-05,0.000177467,0.000164556,-0.00104353,0,0,0,0,0,0,0,-0.454395,-10.2924,-0.381406,20.9717,0.836199,-0.662633,0.175059,-0.465105,-1.13809,0.00871328,2.4298,0.274334,-0.656916,0.197304
4765528,1,-1.57041,-0.522797,0.000134148,-2.09592,1.57057,1.57166,0.784996,-1.5708,-0.523599,4.84236e-08,-2.0944,1.5708,1.5708,0.785397,-0.000764397,0.00102137,0.000445758,0.000703283,-0.000525949,0.000109704,-0.000458331,0,0,0,0,0,0,0,-0.430592,-10.3162,-0.409177,20.9439,0.853594,-0.662633,0.16865,-0.464931,-1.14009,0.00900816,2.43072,0.274408,-0.656995,0.197264
4765529,1,-1.5704,-0.522805,0.000130547,-2.09592,1.57057,1.57166,0.785001,-1.5708,-0.523599,4.84236e-08,-2.0944,1.5708,1.5708,0.785397,0.000604026,-0.00173194,-0.000909254,-0.000180759,0.000293627,0.000310495,0.000406523,0,0,0,0,0,0,0,-0.478199,-10.213,-0.357602,20.9717,0.836199,-0.669042,0.149424,-0.464416,-1.14158,0.00975029,2.43114,0.274454,-0.657124,0.197255
4765530,1,-1.57041,-0.522796,0.000135843,-2.09592,1.57057,1.57165,0.785002,-1.5708,-0.523599,4.84236e-08,-2.0944,1.5708,1.5708,0.785397,-0.00071094,0.00125823,0.00115707,0.000529108,-7.69888e-06,-0.00050508,0.000271015,0,0,0,0,0,0,0,-0.430592,-10.3162,-0.432981,20.9439,0.841692,-0.649816,0.149424,-0.464002,-1.14107,0.0103295,2.4306,0.274474,-0.657217,0.19729
4765531,1,-1.57041,-0.522799,0.000130095,-2.09592,1.57057,1.57166,0.785003,-1.5708,-0.523599,4.84236e-08,-2.0944,1.5708,1.5708,0.785397,-0.00047396,-0.000367608,-0.000435047,-0.000296875,0.000198318,-9.93612e-05,0.000180677,0,0,0,0,0,0,0,-0.430592,-10.2646,-0.381406,20.9717,0.836199,-0.656224,0.149424,-0.463779,-1.14084,0.0104809,2.43023,0.274512,-0.657281,0.19735
4765532,1,-1.5704,-0.522799,0.000129846,-2.09592,1.57057,1.57166,0.785003,-1.5708,-0.523599,4.84236e-08,-2.0944,1.5708,1.5708,0.785397,0.000797651,0.000404542,-0.000846843,-0.000197917,0.000335662,0.000171118,0.000120451,0,0,0,0,0,0,0,-0.478199,-10.2924,-0.357602,20.9717,0.830705,-0.662633,0.149424,-0.46329,-1.14151,0.0109833,2.43042,0.274558,-0.657382,0.197415
4765533,1,-1.5704,-0.522797,0.00013199,-2.09592,1.57057,1.57166,0.784995,-1.5708,-0.523599,4.84236e-08,-2.0944,1.5708,1.5708,0.785397,0.000531767,0.000269695,-7.75019e-06,0.000517669,-0.000386577,0.000114079,-0.00134385,0,0,0,0,0,0,0,-0.478199,-10.2924,-0.381406,20.9439,0.847185,-0.662633,0.187876,-0.462755,-1.14243,0.0117086,2.43079,0.274591,-0.657484,0.197476
4765534,1,-1.57041,-0.522801,0.000134096,-2.09592,1.57057,1.57166,0.785002,-1.5708,-0.523599,4.84236e-08,-2.0944,1.5708,1.5708,0.785397,-0.000202301,-0.00102663,0.000644447,0.000345113,-5.42672e-05,7.60525e-05,0.0015116,0,0,0,0,0,0,0,-0.454395,-10.2408,-0.409177,20.9439,0.841692,-0.662633,0.122873,-0.462795,-1.14233,0.0116177,2.4305,0.274611,-0.657492,0.197549
4765535,1,-1.5704,-0.522797,0.0001322,-2.09592,1.57057,1.57166,0.785004,-1.5708,-0.523599,4.84236e-08,-2.0944,1.5708,1.5708,0.785397,0.000421945,0.00107882,-0.000219983,-0.000419539,0.000167272,-0.000186657,0.000770372,0,0,0,0,0,0,0,-0.478199,-10.3162,-0.381406,20.9717,0.836199,-0.656224,0.129282,-0.463286,-1.14131,0.0107851,2.42977,0.274632,-0.657426,0.19764
4765536,1,-1.5704,-0.5228,0.000132218,-2.09592,1.57057,1.57166,0.785001,-1.5708,-0.523599,4.84236e-08,-2.0944,1.5708,1.5708,0.785397,0.000281297,0.0001624,-0.000146655,0.000369921,-0.000295386,0.000112921,-0.000707122,0,0,0,0,0,0,0,-0.478199,-10.2924,-0.381406,20.9439,0.847185,-0.662633,0.162241,-0.463789,-1.14177,0.00996883,2.42983,0.27468,-0.657382,0.197713
4765537,1,-1.57041,-0.522801,0.000132224,-2.09592,1.57057,1.57166,0.785001,-1.5708,-0.523599,4.84236e-08,-2.0944,1.5708,1.5708,0.785397,-0.000369281,-0.00109816,-9.777e-05,0.000803426,0.000209977,7.52805e-05,0.00051193,0,0,0,0,0,0,0,-0.454395,-10.2408,-0.381406,20.9201,0.836199,-0.662633,0.135691,-0.464016,-1.14182,0.00963351,2.42952,0.274705,-0.657381,0.197749
4765538,1,-1.5704,-0.522803,0.000130095,-2.09592,1.57057,1.57166,0.784997,-1.5708,-0.523599,4.84236e-08,-2.0944,1.5708,1.5708,0.785397,0.000310625,-0.000732106,-6.518e-05,-2.11944e-05,0.000343435,5.0187e-05,-0.000642058,0,0,0,0,0,0,0,-0.478199,-10.2408,-0.381406,20.9439,0.830705,-0.662633,0.162241,-0.463986,-1.1389,0.00971715,2.42763,0.274669,-0.65739,0.197757
4765539,1,-1.57041,-0.522801,0.000133465,-2.09592,1.57057,1.57166,0.784998,-1.5708,-0.523599,4.84236e-08,-2.0944,1.5708,1.5708,0.785397,-0.000906541,-0.000488071,0.000606161,-0.000663744,-0.000381395,3.3458e-05,-0.00019068,0,0,0,0,0,0,0,-0.430592,-10.2408,-0.409177,20.9717,0.847185,-0.662633,0.155832,-0.463929,-1.13495,0.00979601,2.42549,0.274629,-0.657393,0.197744
4765542,0.97,-1.57041,-0.522802,0.00013053,-2.09592,1.57057,1.57166,0.784998,-1.5708,-0.523599,4.84236e-08,-2.0944,1.5708,1.5708,0.785397,-0.000103623,0.000288462,-0.000665926,-7.29288e-05,0.000452134,-0.000280192,9.42064e-05,0,0,0,0,0,0,0,-0.454395,-10.2646,-0.357602,20.9717,0.830705,-0.656224,0.149424,-0.463657,-1.13342,0.0101093,2.42628,0.274761,-0.657589,0.197631
4765543,0.96,-1.5704,-0.5228,0.000132218,-2.09592,1.57057,1.57166,0.784997,-1.5708,-0.523599,4.84236e-08,-2.0944,1.5708,1.5708,0.785397,0.00048773,0.000841922,0.000112861,-0.000605431,-0.000105478,5.05643e-05,-0.000411914,0,0,0,0,0,0,0,-0.478199,-10.2924,-0.381406,20.9955,0.841692,-0.662633,0.162241,-0.462823,-1.13529,0.0114116,2.42757,0.27481,-0.657811,0.197574
4765544,0.96,-1.57041,-0.5228,0.000128423,-2.09592,1.57057,1.57166,0.784998,-1.5708,-0.523599,4.84236e-08,-2.0944,1.5708,1.5708,0.785397,-0.000231659,-8.83325e-05,-0.000481571,0.000802805,0.000133132,3.37096e-05,-0.000749327,0,0,0,0,0,0,0,-0.454395,-10.2646,-0.357602,20.9439,0.836199,-0.662633,0.175059,-0.462283,-1.13824,0.0123604,2.42919,0.274871,-0.658005,0.197534
4765545,0.96,-1.5704,-0.522797,0.000129385,-2.09592,1.57057,1.57166,0.785007,-1.5708,-0.523599,4.84236e-08,-2.0944,1.5708,1.5708,0.785397,0.000402373,0.00114754,0.000235765,-0.000114411,-0.000114696,0.000497191,0.00190795,0,0,0,0,0,0,0,-0.478199,-10.3162,-0.381406,20.9717,0.841692,-0.67545,0.110056,-0.461967,-1.14105,0.0130276,2.4304,0.274914,-0.658171,0.197526
4765546,0.96,-1.57041,-0.5228,0.000131098,-2.09592,1.57057,1.57166,0.785003,-1.5708,-0.523599,4.84236e-08,-2.0944,1.5708,1.5708,0.785397,-0.000288563,0.000208213,0.00080679,-0.000633086,-7.6464e-05,-0.000380616,-0.000186098,0,0,0,0,0,0,0,-0.454395,-10.2924,-0.409177,20.9955,0.841692,-0.656224,0.149424,-0.462166,-1.1444,0.0128942,2.43184,0.274981,-0.658277,0.197542
4765547,0.96,-1.5704,-0.522802,0.00013482,-2.09592,1.57057,1.57166,0.785,-1.5708,-0.523599,4.84236e-08,-2.0944,1.5708,1.5708,0.785397,0.000364436,-0.000510805,0.00109467,0.00134118,-5.0976e-05,-0.000253744,-0.000124065,0,0,0,0,0,0,0,-0.478199,-10.2646,-0.432981,20.9201,0.841692,-0.656224,0.149424,-0.463276,-1.14671,0.0112855,2.43285,0.275069,-0.65824,0.197549
4765548,0.96,-1.5704,-0.5228,0.000128265,-2.09592,1.57057,1.57166,0.784999,-1.5708,-0.523599,4.84236e-08,-2.0944,1.5708,1.5708,0.785397,0.000242958,-0.000340537,-0.00168307,0.000337309,0.000576368,6.81962e-05,0.000154649,0,0,0,0,0,0,0,-0.478199,-10.2646,-0.329831,20.9439,0.825212,-0.662633,0.143015,-0.464487,-1.14569,0.00957123,2.4319,0.275087,-0.658146,0.197534
4765549,0.96,-1.57041,-0.522801,0.000130442,-2.09592,1.57057,1.57166,0.784994,-1.5708,-0.523599,4.84236e-08,-2.0944,1.5708,1.5708,0.785397,-0.00039484,-0.000227025,-0.000472433,-0.000424742,-2.2656e-05,-0.000191895,-0.00155841,0,0,0,0,0,0,0,-0.454395,-10.2646,-0.357602,20.9717,0.836199,-0.656224,0.187876,-0.464455,-1.14298,0.00991396,2.43006,0.275015,-0.658211,0.197499
4765550,0.96,-1.5704,-0.522799,0.000133677,-2.09592,1.57057,1.57166,0.785,-1.5708,-0.523599,4.84236e-08,-2.0944,1.5708,1.5708,0.785397,0.000293585,-0.00015135,0.00144828,-0.000283161,-0.000218555,-0.00012793,0.0011312,0,0,0,0,0,0,0,-0.478199,-10.2646,-0.432981,20.9717,0.841692,-0.656224,0.129282,-0.464043,-1.14075,0.0108438,2.42884,0.274943,-0.658323,0.197462
4765551,0.96,-1.57041,-0.522797,0.000131504,-2.09592,1.57057,1.57166,0.785004,-1.5708,-0.523599,4.84236e-08,-2.0944,1.5708,1.5708,0.785397,-0.000361089,0.000548714,-0.000240904,-0.000745586,-0.000789963,-8.52866e-05,0.00099149,0,0,0,0,0,0,0,-0.454395,-10.2924,-0.381406,20.9955,0.859087,-0.656224,0.122873,-0.464429,-1.14,0.0104268,2.42875,0.27494,-0.658321,0.197446
4765552,0.96,-1.57041,-0.522801,0.000133934,-2.09592,1.57057,1.57166,0.784997,-1.5708,-0.523599,4.84236e-08,-2.0944,1.5708,1.5708,0.785397,-0.000240726,-0.000283805,0.000489011,0.00126618,0.000321069,0.00041786,-0.00222122,0,0,0,0,0,0,0,-0.454395,-10.2646,-0.409177,20.9201,0.836199,-0.669042,0.200693,-0.464888,-1.14023,0.00980299,2.42912,0.274964,-0.658309,0.197427
4765553,0.96,-1.5704,-0.522797,0.000132146,-2.09592,1.57057,1.57165,0.785,-1.5708,-0.523599,4.84236e-08,-2.0944,1.5708,1.5708,0.785397,0.000396328,0.000460411,-0.000323607,-0.000362306,0.000620947,-0.000433503,0.000655416,0,0,0,0,0,0,0,-0.478199,-10.2924,-0.381406,20.9717,0.825212,-0.649816,0.143015,-0.465089,-1.14011,0.00956047,2.42893,0.274971,-0.658322,0.1974
4765554,0.96,-1.5704,-0.522801,0.0001322,-2.09592,1.57057,1.57166,0.785,-1.5708,-0.523599,4.84236e-08,-2.0944,1.5708,1.5708,0.785397,0.000913832,-0.000899485,-0.000215738,0.000408077,-0.000196387,0.000185716,-0.000275133,0,0,0,0,0,0,0,-0.50597,-10.2408,-0.381406,20.9439,0.841692,-0.662633,0.162241,-0.465355,-1.13939,0.00934656,2.42833,0.274961,-0.658309,0.197395
4765555,0.96,-1.5704,-0.522799,0.000134166,-2.09592,1.57057,1.57166,0.784999,-1.5708,-0.523599,4.84236e-08,-2.0944,1.5708,1.5708,0.785397,-4.03919e-05,-4.28449e-05,0.000505789,-0.000377563,7.25258e-05,0.00012381,0.000291296,0,0,0,0,0,0,0,-0.478199,-10.2646,-0.409177,20.9717,0.836199,-0.662633,0.149424,-0.465863,-1.13782,0.00889254,2.42745,0.274938,-0.658244,0.197423
4765556,0.96,-1.57041,-0.522799,0.000132224,-2.09592,1.57057,1.57166,0.785005,-1.5708,-0.523599,4.84236e-08,-2.0944,1.5708,1.5708,0.785397,-0.00114055,-2.85633e-05,-0.000312421,-0.000251708,0.000251801,0.000319899,0.00117754,0,0,0,0,0,0,0,-0.430592,-10.2646,-0.381406,20.9717,0.830705,-0.669042,0.122873,-0.466123,-1.13642,0.00873216,2.42685,0.274914,-0.658221,0.197469
4765557,0.96,-1.5704,-0.522801,0.000130095,-2.09592,1.57057,1.57166,0.785,-1.5708,-0.523599,4.84236e-08,-2.0944,1.5708,1.5708,0.785397,0.000353256,-1.90422e-05,-0.000208281,-0.000724618,-3.55832e-05,-0.000261452,-0.000910393,0,0,0,0,0,0,0,-0.478199,-10.2646,-0.381406,20.9955,0.836199,-0.656224,0.16865,-0.465633,-1.13627,0.00958893,2.4271,0.274887,-0.658329,0.19751
4765558,0.96,-1.5704,-0.5228,0.000131516,-2.09592,1.57057,1.57166,0.784996,-1.5708,-0.523599,4.84236e-08,-2.0944,1.5708,1.5708,0.785397,0.000235504,0.000636919,-0.000138854,0.000723348,0.000179728,6.30578e-05,-0.00108165,0,0,0,0,0,0,0,-0.478199,-10.2924,-0.381406,20.9439,0.830705,-0.662633,0.181467,-0.465016,-1.13713,0.0106761,2.42784,0.274855,-0.658473,0.197531
4765559,0.96,-1.5704,-0.522802,0.000131808,-2.09592,1.57057,1.57166,0.785005,-1.5708,-0.523599,4.84236e-08,-2.0944,1.5708,1.5708,0.785397,0.000157003,-0.000225001,0.000557045,-0.000724194,0.000119819,-0.00019532,0.00144904,0,0,0,0,0,0,0,-0.478199,-10.2646,-0.409177,20.9955,0.830705,-0.656224,0.122873,-0.464915,-1.13849,0.0110467,2.42864,0.274824,-0.658551,0.197558
4765560,0.96,-1.5704,-0.522796,0.000131437,-2.09592,1.57057,1.57166,0.785,-1.57079,-0.523597,2.54842e-06,-2.09439,1.5708,1.5708,0.785397,0.000104668,0.00161324,-0.000278251,0.00072363,-0.000123571,-0.000130214,-0.000966753,0.00312491,0.001875,0.0025,0.00231139,0.00155808,0.005,0.000158622,-0.478199,-10.34,-0.381406,20.9439,0.836199,-0.656224,0.175059,-0.465231,-1.14064,0.0107951,2.42971,0.274795,-0.658579,0.197606
4765561,0.96,-1.5704,-0.5228,0.000131963,-2.09592,1.57057,1.57166,0.785005,-1.57079,-0.523593,7.54842e-06,-2.09439,1.5708,1.57081,0.785398,0.000719392,-0.000687746,-0.000185501,0.00048242,-0.000489282,-8.68091e-05,0.00105092,0.00624981,0.00375,0.005,0.00462278,0.00311616,0.01,0.000317245,-0.50597,-10.2646,-0.381406,20.9439,0.847185,-0.656224,0.129282,-0.465628,-1.1431,0.0104994,2.43062,0.274743,-0.658601,0.197662
4765562,0.96,-1.5704,-0.522799,0.000130468,-2.09592,1.57057,1.57166,0.785004,-1.57078,-0.523587,1.50484e-05,-2.09438,1.57081,1.57083,0.785398,-0.000170018,-0.000458498,-0.000680479,-0.000328001,8.07131e-05,0.000179486,0.000191987,0.00937472,0.005625,0.0075,0.00693417,0.00467425,0.015,0.000475867,-0.478199,-10.2646,-0.357602,20.9717,0.836199,-0.662633,0.143015,-0.46582,-1.14353,0.0106564,2.43042,0.274635,-0.658626,0.19772
4765563,0.96,-1.5704,-0.5228,0.000133941,-2.09592,1.57057,1.57166,0.784999,-1.57076,-0.52358,2.50484e-05,-2.09437,1.57081,1.57085,0.785399,0.00118006,-0.0020689,0.00343436,-0.000775479,-0.000149642,-0.000117701,-0.00153352,0.0124996,0.0075,0.01,0.00924556,0.00623233,0.02,0.00063449,-0.402821,-10.1892,-0.254453,20.9955,0.841692,-0.656224,0.187876,-0.466895,-1.14084,0.00947544,2.42919,0.274543,-0.658475,0.197763
4765564,0.96,-1.5704,-0.522802,0.000136169,-2.09592,1.57057,1.57165,0.785006,-1.57075,-0.523571,3.75484e-05,-2.09436,1.57082,1.57087,0.7854,0.00138911,-0.00238864,0.00397683,-0.0010738,0.000103689,-0.000315827,0.00138515,0.0156245,0.009375,0.0125,0.011557,0.00779041,0.025,0.000793112,-0.152882,-10.0107,0.0986355,21.0193,0.836199,-0.649816,0.122873,-0.471218,-1.13454,0.00318595,2.42705,0.274573,-0.65778,0.1978
4765565,0.96,-1.57041,-0.522806,0.00015022,-2.09592,1.57057,1.57166,0.784998,-1.57073,-0.523559,5.25484e-05,-2.09435,1.57083,1.5709,0.785401,-0.000751189,-0.00471782,0.00807877,-0.00173525,0.000679478,-0.000685269,-0.000534629,0.0187494,0.01125,0.015,0.0138683,0.00934849,0.03,0.000951734,0.350963,-9.733,0.451724,21.1939,0.819719,-0.636998,0.162241,-0.479433,-1.12337,-0.00948411,2.42364,0.27475,-0.65639,0.197852
4765566,0.96,-1.57041,-0.5228,0.000165235,-2.09591,1.57057,1.57166,0.784997,-1.57071,-0.523546,7.00484e-05,-2.09433,1.57084,1.57094,0.785402,-0.000359008,-0.00053859,0.00923193,0.00215755,0.000249535,-0.000219487,-0.00154321,0.0218743,0.013125,0.0175,0.0161797,0.0109066,0.035,0.00111036,0.807201,-9.55844,0.907962,21.1939,0.825212,-0.643407,0.194285,-0.490518,-1.10836,-0.0275277,2.4189,0.275051,-0.654383,0.197914
4765567,0.96,-1.57041,-0.522796,0.000184473,-2.09591,1.57058,1.57166,0.785,-1.57068,-0.523531,9.00484e-05,-2.09431,1.57085,1.57098,0.785403,-0.00170212,-0.000508881,0.0117698,0.00188478,0.00101407,-0.000383684,-0.000316732,0.0249993,0.015,0.02,0.0184911,0.0124647,0.04,0.00126898,1.21186,-9.37991,1.31262,21.1939,0.802324,-0.636998,0.175059,-0.502847,-1.09389,-0.0490483,2.41392,0.27545,-0.651923,0.198003
4765568,0.96,-1.5704,-0.522785,0.000215133,-2.09591,1.57058,1.57166,0.784996,-1.57066,-0.523514,0.000112548,-2.09429,1.57087,1.57102,0.785404,0.000734147,0.00191091,0.0162122,-0.000728716,0.000879495,-0.000967866,-0.00139795,0.0281242,0.016875,0.0225,0.0208025,0.0140227,0.045,0.0014276,1.61256,-9.30453,1.61811,21.2931,0.796831,-0.617772,0.207102,-0.515791,-1.08458,-0.0736832,2.41169,0.276037,-0.648982,0.198155
4765569,0.96,-1.5704,-0.522776,0.00023773,-2.0959,1.57058,1.57167,0.785002,-1.57062,-0.523496,0.000137548,-2.09427,1.57088,1.57107,0.785406,0.00219159,0.00300201,0.0177448,0.00226272,-0.00026138,0.000541551,0.00195025,0.0312491,0.01875,0.025,0.0231139,0.0155808,0.05,0.00158622,2.04103,-9.20535,1.99897,21.3169,0.819719,-0.649816,0.129282,-0.529969,-1.08291,-0.102769,2.41463,0.276924,-0.645325,0.198394
4765570,0.96,-1.57039,-0.522767,0.000265152,-2.0959,1.57058,1.57168,0.785005,-1.57059,-0.523473,0.000167548,-2.09424,1.5709,1.57113,0.785408,0.00253148,0.0037238,0.0201396,-0.00101833,-0.00119151,0.00154783,0.00177488,0.0371244,0.0225,0.03,0.0272503,0.0182639,0.06,0.00174772,2.37031,-9.1022,2.32825,21.4438,0.847185,-0.681859,0.116465,-0.544121,-1.08818,-0.134716,2.42268,0.278078,-0.641008,0.198715
4765571,0.96,-1.57038,-0.522761,0.000294005,-2.09589,1.57058,1.57168,0.784998,-1.57054,-0.523447,0.000202548,-2.09421,1.57092,1.5712,0.78541,0.00376492,0.00237688,0.026881,-0.000903559,-0.00123515,-0.000154909,-0.000512165,0.0429997,0.02625,0.035,0.0313867,0.020947,0.07,0.00190922,2.64802,-8.92368,2.58216,21.4676,0.859087,-0.649816,0.162241,-0.557303,-1.09724,-0.168754,2.43534,0.279518,-0.636031,0.199051
4765572,0.96,-1.57037,-0.522748,0.000321849,-2.09588,1.57058,1.57169,0.785001,-1.5705,-0.523417,0.000242548,-2.09417,1.57095,1.57128,0.785412,0.00889361,0.00695624,0.0287381,0.00267708,-0.000619981,0.00326432,0.00111662,0.048875,0.03,0.04,0.0355231,0.0236301,0.08,0.00207072,2.87416,-8.8483,2.83209,21.4676,0.853594,-0.611364,0.122873,-0.570839,-1.10749,-0.207181,2.45118,0.281307,-0.630128,0.19935
4765573,0.96,-1.57035,-0.52274,0.00034906,-2.09587,1.57058,1.5717,0.784997,-1.57044,-0.523383,0.000287548,-2.09413,1.57097,1.57137,0.785414,0.0142879,0.0100342,0.0326857,0.00416469,-0.000616771,0.00574164,-0.00071365,0.0547503,0.03375,0.045,0.0396595,0.0263131,0.09,0.00223222,3.02491,-8.62216,3.23676,21.5152,0.859087,-0.572911,0.162241,-0.585764,-1.12092,-0.250965,2.46926,0.283458,-0.623193,0.199604
4765574,0.96,-1.57033,-0.522729,0.000386894,-2.09585,1.57058,1.5717,0.785,-1.57038,-0.523346,0.000337548,-2.09409,1.571,1.57147,0.785416,0.01773,0.00954655,0.0339917,0.00848751,-0.00020773,0.00548873,-0.000475766,0.0606256,0.0375,0.05,0.0437959,0.0289962,0.1,0.00239372,3.45338,-8.26907,3.72077,21.5668,0.853594,-0.469457,0.162241,-0.601751,-1.13692,-0.29878,2.48795,0.285885,-0.615247,0.199817
4765575,0.96,-1.57031,-0.522711,0.000439385,-2.09584,1.57058,1.57171,0.785001,-1.57031,-0.523304,0.000392548,-2.09404,1.57103,1.57158,0.785419,0.0215918,0.0101573,0.0409566,0.0106201,0.00480326,0.00975039,0.000666167,0.0665009,0.04125,0.055,0.0479323,0.0316793,0.11,0.00255522,3.985,-7.93979,4.22461,21.666,0.847185,-0.353185,0.135691,-0.618166,-1.14794,-0.349193,2.50314,0.288404,-0.606184,0.200014
4765576,0.96,-1.57028,-0.522685,0.00048442,-2.09582,1.57059,1.57172,0.785002,-1.57024,-0.523259,0.000452548,-2.09399,1.57107,1.5717,0.785422,0.0275246,0.0151985,0.0417003,0.0113814,0.00440801,0.0083958,-6.45152e-05,0.0723762,0.045,0.06,0.0520686,0.0343624,0.12,0.00271672,4.38966,-7.66208,4.91095,21.666,0.825212,-0.237828,0.149424,-0.634792,-1.15307,-0.401689,2.51496,0.290994,-0.595798,0.200206
4765577,0.96,-1.57024,-0.522647,0.000538936,-2.0958,1.5706,1.57175,0.784997,-1.57016,-0.523211,0.000517548,-2.09393,1.5711,1.57183,0.785424,0.0317075,0.0207606,0.0420841,0.0133476,0.00492812,0.00935258,-0.000755087,0.0782515,0.04875,0.065,0.056205,0.0370454,0.13,0.00287822,4.81813,-7.45975,5.51795,21.7414,0.779436,-0.172826,0.16865,-0.649371,-1.16142,-0.452422,2.5288,0.29373,-0.584191,0.200375
4765578,0.96,-1.57019,-0.522612,0.000601536,-2.09577,1.57062,1.57178,0.785001,-1.57008,-0.523158,0.000587548,-2.09387,1.57114,1.57197,0.785427,0.036235,0.0242903,0.048599,0.0149204,0.0100679,0.0154386,0.000954671,0.0841268,0.0525,0.07,0.0603414,0.0397285,0.14,0.00303972,5.19502,-7.23361,5.99799,21.8167,0.729082,-0.127965,0.129282,-0.659395,-1.17985,-0.497352,2.5485,0.296609,-0.571504,0.200515
4765579,0.96,-1.57013,-0.522573,0.000662372,-2.09575,1.57062,1.57183,0.785,-1.56999,-0.523102,0.000662548,-2.09381,1.57119,1.57212,0.785431,0.0405378,0.0304145,0.0522267,0.0188561,0.0103042,0.0269368,-0.000584256,0.0900021,0.05625,0.075,0.0644778,0.0424116,0.15,0.00320122,5.5243,-7.03128,6.5296,21.9159,0.773943,-0.147191,0.162241,-0.664759,-1.20932,-0.536661,2.57455,0.299593,-0.557631,0.200629
4765580,0.96,-1.57007,-0.522533,0.000724854,-2.09572,1.57063,1.57189,0.785001,-1.56989,-0.52304,0.000745048,-2.09374,1.57123,1.57229,0.785434,0.048953,0.0351328,0.0566418,0.0210182,0.00988294,0.0414521,-0.000389504,0.0984682,0.061875,0.0825,0.0701084,0.0461276,0.165,0.00319486,5.72663,-6.82895,6.98584,22.0389,0.841692,-0.205785,0.162241,-0.665733,-1.2499,-0.570816,2.60668,0.302661,-0.542611,0.200715
4765581,0.96,-1.57,-0.522495,0.000798651,-2.09568,1.57064,1.57196,0.784991,-1.56978,-0.522972,0.000835048,-2.09366,1.57128,1.57247,0.785437,0.0558703,0.0347762,0.0610084,0.0239348,0.0110899,0.0558529,-0.00263326,0.106934,0.0675,0.09,0.075739,0.0498435,0.18,0.0031885,5.92897,-6.59885,7.26355,22.1143,0.875566,-0.237828,0.226328,-0.663041,-1.29645,-0.600366,2.64279,0.305827,-0.526511,0.200786
4765582,0.96,-1.56992,-0.522452,0.000866293,-2.09564,1.57065,1.57205,0.784982,-1.56967,-0.522899,0.000932548,-2.09358,1.57134,1.57266,0.78544,0.0629299,0.0378254,0.0625616,0.0293571,0.00643698,0.0672473,-0.00562107,0.1154,0.073125,0.0975,0.0813696,0.0535594,0.195,0.00318214,6.02815,-6.37271,7.59284,22.1897,0.932329,-0.289098,0.330698,-0.656722,-1.33801,-0.624621,2.67794,0.309048,-0.509491,0.200905
4765583,0.96,-1.56983,-0.522404,0.000940584,-2.09559,1.57066,1.57215,0.784976,-1.56954,-0.522821,0.00103755,-2.0935,1.57139,1.57287,0.785443,0.0762508,0.0400771,0.0677961,0.034416,0.00819373,0.0785568,-0.00469681,0.123867,0.07875,0.105,0.0870002,0.0572754,0.21,0.00317578,6.05195,-6.14658,7.9975,22.2135,0.97719,-0.295507,0.356333,-0.647581,-1.36728,-0.643741,2.70804,0.312325,-0.49166,0.201214
4765584,0.96,-1.56974,-0.522348,0.00102181,-2.09554,1.57067,1.57225,0.784971,-1.56941,-0.522736,0.00115005,-2.0934,1.57145,1.5731,0.785447,0.0836289,0.0429666,0.076507,0.0419185,0.0105334,0.0892683,-0.00479272,0.132333,0.084375,0.1125,0.0926308,0.0609913,0.225,0.00316942,6.30586,-5.84109,8.48151,22.2135,0.994585,-0.225011,0.401194,-0.639986,-1.38092,-0.663308,2.7306,0.315802,-0.472637,0.201907
4765585,0.96,-1.56964,-0.522292,0.00111284,-2.09549,1.57069,1.57238,0.78497,-1.56927,-0.522646,0.00127005,-2.0933,1.57152,1.57334,0.78545,0.090402,0.0495129,0.0815239,0.0473065,0.014272,0.0973727,-0.00343251,0.140799,0.09,0.12,0.0982614,0.0647073,0.24,0.00316307,6.65895,-5.4642,9.03693,22.2135,0.96071,-0.160009,0.407602,-0.636666,-1.38009,-0.687155,2.74534,0.319641,-0.452233,0.203143
4765586,0.96,-1.56953,-0.522227,0.00121204,-2.09542,1.57072,1.57252,0.784978,-1.56912,-0.522551,0.00139755,-2.0932,1.57159,1.57359,0.785453,0.0960119,0.055029,0.086864,0.0558233,0.0152658,0.110821,0.00055997,0.149265,0.095625,0.1275,0.103892,0.0684232,0.255,0.00315671,6.98823,-5.08334,9.66773,22.1381,0.966203,-0.1536,0.330698,-0.635492,-1.37108,-0.712097,2.75462,0.323879,-0.430891,0.205012
4765587,0.96,-1.56942,-0.522146,0.00131908,-2.09535,1.57075,1.57269,0.784978,-1.56896,-0.522449,0.00153255,-2.09309,1.57166,1.57386,0.785456,0.101001,0.062327,0.0922674,0.0608741,0.0233462,0.132595,0.000373313,0.157731,0.10125,0.135,0.109523,0.0721392,0.27,0.00315035,7.4167,-4.82944,10.2509,22.1381,0.903948,-0.205785,0.330698,-0.63236,-1.36,-0.732132,2.76103,0.328449,-0.409328,0.207489
4765588,0.96,-1.56929,-0.522059,0.00143549,-2.09528,1.57079,1.57289,0.784988,-1.5688,-0.522342,0.00167505,-2.09298,1.57173,1.57415,0.785459,0.110918,0.0687842,0.100609,0.0649968,0.0297807,0.150643,0.00360581,0.166197,0.106875,0.1425,0.115153,0.0758551,0.285,0.00314399,7.74202,-4.62711,10.7825,22.1143,0.825212,-0.314733,0.240061,-0.625425,-1.35285,-0.744698,2.76827,0.33336,-0.387982,0.210435
4765589,0.96,-1.56914,-0.521965,0.00155716,-2.0952,1.57084,1.5731,0.784998,-1.56862,-0.52223,0.00182505,-2.09285,1.57181,1.57445,0.785462,0.118809,0.0740286,0.105065,0.070725,0.0369431,0.170819,0.00457401,0.174663,0.1125,0.15,0.120784,0.0795711,0.3,0.00313763,7.92054,-4.45255,11.2665,22.1143,0.802324,-0.482274,0.181467,-0.615425,-1.35248,-0.75078,2.7791,0.338586,-0.366906,0.213659
4765590,0.96,-1.56899,-0.521876,0.00167548,-2.09512,1.57088,1.57334,0.784994,-1.56844,-0.522111,0.00198504,-2.09273,1.5719,1.57477,0.785465,0.130038,0.0792345,0.105257,0.0731928,0.0360943,0.188492,0.00257462,0.184781,0.119422,0.15999,0.127407,0.083858,0.319215,0.00304453,8.12288,-4.22244,11.7466,22.1897,0.825212,-0.617772,0.194285,-0.60098,-1.35743,-0.747583,2.79395,0.343897,-0.346522,0.216933
4765591,0.96,-1.56883,-0.521783,0.00180364,-2.09503,1.57093,1.57358,0.784996,-1.56824,-0.521984,0.00215502,-2.09259,1.57199,1.5751,0.785468,0.135686,0.0831516,0.11147,0.0788089,0.0358491,0.213764,0.00266585,0.194899,0.126343,0.16998,0.13403,0.0881448,0.33843,0.00295142,8.29744,-3.9725,12.0997,22.1143,0.841692,-0.604955,0.16865,-0.579216,-1.365,-0.730137,2.81266,0.34908,-0.327629,0.220047
4765592,0.96,-1.56867,-0.521684,0.0019348,-2.09494,1.57098,1.57384,0.784991,-1.56804,-0.521851,0.00233499,-2.09245,1.57208,1.57546,0.785471,0.146859,0.0871235,0.118134,0.084355,0.0437012,0.228191,-0.00110498,0.205016,0.133265,0.17997,0.140653,0.0924317,0.357646,0.00285832,8.42439,-3.77017,12.3536,22.2373,0.898454,-0.546361,0.24647,-0.550574,-1.36997,-0.699171,2.83295,0.354058,-0.310479,0.222876
4765593,0.96,-1.56849,-0.521582,0.00206899,-2.09484,1.57104,1.57413,0.784978,-1.56782,-0.521711,0.00252495,-2.09231,1.57218,1.57584,0.785474,0.160034,0.0927207,0.125134,0.0934406,0.0506394,0.249364,-0.00433095,0.215134,0.140187,0.18996,0.147276,0.0967186,0.376861,0.00276521,8.57515,-3.54007,12.7582,22.1619,0.932329,-0.507909,0.343516,-0.51949,-1.36691,-0.661143,2.8511,0.358832,-0.294479,0.225396
4765594,0.96,-1.56831,-0.52148,0.00220898,-2.09473,1.57111,1.57442,0.784972,-1.5676,-0.521564,0.0027249,-2.09215,1.57228,1.57623,0.785477,0.168078,0.09716,0.131551,0.0990367,0.0570087,0.265058,-0.00454881,0.225251,0.147108,0.19995,0.153899,0.101005,0.396076,0.0026721,8.85286,-3.18698,13.2661,22.1381,0.926836,-0.456639,0.388376,-0.489595,-1.35337,-0.621154,2.86471,0.363461,-0.278988,0.227708
4765595,0.96,-1.56811,-0.521355,0.00235489,-2.09461,1.57119,1.57475,0.78496,-1.56736,-0.52141,0.00293484,-2.09199,1.57238,1.57665,0.785479,0.176798,0.106806,0.134061,0.10564,0.0638836,0.28264,-0.00686419,0.235369,0.15403,0.20994,0.160522,0.105292,0.415291,0.002579,9.15437,-2.96085,13.873,22.1381,0.859087,-0.431005,0.491831,-0.459517,-1.33292,-0.577237,2.87515,0.368018,-0.264048,0.230002
4765596,0.96,-1.56791,-0.521228,0.00250982,-2.09448,1.57127,1.57511,0.784958,-1.56712,-0.521249,0.00315477,-2.09182,1.57249,1.57708,0.785482,0.18696,0.113483,0.138846,0.113006,0.0729004,0.303452,-0.00433877,0.245487,0.160952,0.21993,0.167145,0.109579,0.434506,0.00248589,9.5868,-2.70694,14.5038,22.0389,0.819719,-0.482274,0.485422,-0.425759,-1.31286,-0.524097,2.88578,0.372497,-0.250022,0.232488
4765597,0.96,-1.56769,-0.521092,0.00267608,-2.09435,1.57136,1.57548,0.784961,-1.56686,-0.521081,0.00338469,-2.09165,1.5726,1.57754,0.785484,0.19615,0.119297,0.146436,0.120596,0.0763234,0.327453,-0.00146836,0.255604,0.167873,0.22992,0.173768,0.113866,0.453721,0.00239279,9.93989,-2.50461,15.1148,21.9873,0.740068,-0.514318,0.44697,-0.387381,-1.2946,-0.460476,2.89686,0.376827,-0.236919,0.23537
4765598,0.96,-1.56747,-0.520949,0.00286171,-2.09421,1.57146,1.57587,0.784966,-1.5666,-0.520906,0.0036246,-2.09147,1.57272,1.57801,0.785486,0.2043,0.126937,0.157767,0.130168,0.0777451,0.34675,0.000716515,0.265722,0.174795,0.23991,0.180391,0.118153,0.472937,0.00229968,10.3406,-2.30228,15.6187,21.8882,0.688799,-0.585729,0.401194,-0.346505,-1.27506,-0.390512,2.90652,0.380985,-0.224324,0.238762
4765599,0.96,-1.56724,-0.520804,0.00304656,-2.09406,1.57156,1.57629,0.784984,-1.56632,-0.520724,0.0038745,-2.09128,1.57285,1.5785,0.785489,0.212894,0.131486,0.160795,0.134152,0.0833533,0.37264,0.00549612,0.27584,0.181717,0.2499,0.187015,0.12244,0.492152,0.00220658,10.6699,-2.05234,16.0987,21.789,0.632951,-0.707494,0.265696,-0.303881,-1.25262,-0.316315,2.91414,0.384907,-0.212079,0.242633
4765600,0.96,-1.56698,-0.520641,0.00323226,-2.09391,1.57167,1.57674,0.784988,-1.56603,-0.520535,0.00413439,-2.09109,1.57297,1.57902,0.785491,0.220763,0.140351,0.166426,0.14068,0.0904046,0.396079,0.00461352,0.286829,0.189207,0.25989,0.194241,0.126972,0.512142,0.00207259,10.896,-1.89761,16.5549,21.8167,0.632951,-0.817357,0.240061,-0.256119,-1.22862,-0.23315,2.92153,0.388392,-0.200761,0.246789
4765601,0.96,-1.56673,-0.520482,0.00342938,-2.09374,1.5718,1.57721,0.784981,-1.56574,-0.520338,0.00440427,-2.09089,1.5731,1.57955,0.785493,0.229824,0.145888,0.175142,0.147565,0.101643,0.420484,0.000702089,0.297819,0.196697,0.26988,0.201468,0.131505,0.532132,0.00193861,11.0468,-1.69528,16.9358,21.7652,0.60457,-0.862218,0.304148,-0.201149,-1.20529,-0.138179,2.93022,0.391282,-0.190858,0.250944
4765602,0.96,-1.56646,-0.520316,0.00363939,-2.09357,1.57193,1.57769,0.784979,-1.56543,-0.520134,0.00468414,-2.09068,1.57324,1.5801,0.785494,0.239543,0.153153,0.185443,0.159329,0.108903,0.440964,-0.000244017,0.308809,0.204187,0.27987,0.208695,0.136037,0.552122,0.00180463,11.1975,-1.52072,17.1619,21.6898,0.60457,-0.836583,0.323374,-0.141675,-1.17991,-0.035765,2.93783,0.393504,-0.182115,0.254904
4765603,0.96,-1.56619,-0.520146,0.00384089,-2.09339,1.57205,1.5782,0.78497,-1.56511,-0.519922,0.004974,-2.09046,1.57338,1.58067,0.785496,0.247389,0.1606,0.189628,0.164133,0.113601,0.460825,-0.00304489,0.319799,0.211677,0.28986,0.215922,0.140569,0.572112,0.00167065,11.4514,-1.31839,17.519,21.6422,0.632951,-0.817357,0.401194,-0.079791,-1.14996,0.0709643,2.94213,0.395026,-0.174285,0.258634
4765604,0.96,-1.56591,-0.519964,0.00405374,-2.09319,1.57219,1.57872,0.784964,-1.56478,-0.519703,0.00527385,-2.09024,1.57353,1.58126,0.785498,0.259363,0.168374,0.195379,0.178772,0.116076,0.492956,-0.00396271,0.330788,0.219167,0.29985,0.223149,0.145102,0.592102,0.00153667,11.5784,-1.16763,17.8998,21.4914,0.688799,-0.80454,0.453379,-0.0140991,-1.11603,0.184487,2.94273,0.395836,-0.16763,0.262198
4765605,0.96,-1.56562,-0.519779,0.0042865,-2.093,1.57233,1.57927,0.784963,-1.56443,-0.519477,0.00558369,-2.09001,1.57368,1.58188,0.785499,0.269294,0.17218,0.208943,0.18642,0.125956,0.507586,-0.00216709,0.341778,0.226657,0.30984,0.230376,0.149634,0.612092,0.00140268,11.7807,-0.937531,18.1498,21.5152,0.661333,-0.720311,0.440561,0.0539137,-1.0739,0.302783,2.93648,0.395998,-0.16186,0.265744
4765606,0.96,-1.56533,-0.51958,0.00453044,-2.09278,1.57248,1.57986,0.784959,-1.56408,-0.519243,0.00590352,-2.08977,1.57383,1.58251,0.7855,0.277163,0.183566,0.216443,0.193896,0.135108,0.526504,-0.0021568,0.352768,0.234147,0.31983,0.237603,0.154166,0.632082,0.0012687,11.983,-0.937531,18.3521,21.4676,0.581682,-0.701085,0.459788,0.120202,-1.02267,0.41942,2.92336,0.395773,-0.156099,0.269417
4765607,0.96,-1.56501,-0.519374,0.00476826,-2.09256,1.57263,1.58047,0.784964,-1.56372,-0.519001,0.00623334,-2.08953,1.57399,1.58316,0.785501,0.288982,0.189918,0.221784,0.199975,0.138275,0.550097,0.000257553,0.363758,0.241637,0.32982,0.24483,0.158699,0.652072,0.00113472,11.9315,-0.862152,18.7092,21.416,0.592668,-0.80454,0.414011,0.185145,-0.970326,0.534772,2.909,0.395388,-0.150177,0.273278
4765608,0.96,-1.56469,-0.519166,0.00502899,-2.09234,1.57279,1.58111,0.784973,-1.56334,-0.518752,0.00657315,-2.08927,1.57415,1.58383,0.785502,0.294504,0.196833,0.236484,0.204372,0.148563,0.575512,0.00302001,0.374747,0.249127,0.33981,0.252056,0.163231,0.672062,0.00100074,12.1338,-0.735199,18.8837,21.4914,0.531328,-0.907079,0.337107,0.250031,-0.92162,0.650524,2.89757,0.394959,-0.144236,0.277325
4765609,0.96,-1.56437,-0.518938,0.00529661,-2.0921,1.57296,1.58178,0.784979,-1.56296,-0.518495,0.00692295,-2.08902,1.57432,1.58452,0.785503,0.304705,0.20474,0.244721,0.215677,0.15554,0.600035,0.00299668,0.385737,0.256617,0.3498,0.259283,0.167763,0.692052,0.000866757,12.233,-0.735199,19.0385,21.3922,0.480058,-1.01053,0.310557,0.31385,-0.87569,0.76453,2.88938,0.394538,-0.138229,0.281476
4765610,0.96,-1.56401,-0.518703,0.00556486,-2.09186,1.57314,1.58247,0.784985,-1.56256,-0.518231,0.00728274,-2.08875,1.57449,1.58524,0.785504,0.319739,0.214557,0.252437,0.225847,0.163409,0.630715,0.0036593,0.39694,0.264107,0.35979,0.266821,0.172336,0.712042,0.000711843,12.1814,-0.786774,19.2408,21.3446,0.485552,-1.1973,0.265696,0.375772,-0.831487,0.875951,2.88211,0.393982,-0.132321,0.285586
4765611,0.96,-1.56367,-0.518469,0.0058536,-2.0916,1.57332,1.58317,0.784986,-1.56215,-0.517959,0.00765252,-2.08847,1.57467,1.58597,0.785505,0.336256,0.219721,0.264027,0.232612,0.166517,0.648383,0.00267689,0.408144,0.271597,0.36978,0.27436,0.176909,0.732032,0.000556929,12.2846,-0.735199,19.4431,21.2931,0.440691,-1.14603,0.259287,0.432829,-0.787951,0.98166,2.87398,0.393209,-0.12643,0.289508
4765612,0.96,-1.56332,-0.518224,0.00615215,-2.09134,1.5735,1.58388,0.784982,-1.56173,-0.51768,0.00803229,-2.08819,1.57485,1.58672,0.785505,0.341633,0.227647,0.279953,0.241669,0.167143,0.668935,0.000597801,0.419347,0.279087,0.37977,0.281898,0.181482,0.752022,0.000402014,12.5107,-0.735199,19.5423,21.2455,0.428789,-0.997716,0.291331,0.480489,-0.742622,1.075,2.8645,0.392351,-0.120092,0.293134
4765613,0.96,-1.56295,-0.517974,0.00645387,-2.09106,1.57368,1.58462,0.78498,-1.5613,-0.517394,0.00842205,-2.0879,1.57504,1.58749,0.785505,0.346289,0.233892,0.289581,0.25247,0.173988,0.686711,0.000635893,0.430551,0.286577,0.38976,0.289436,0.186055,0.772012,0.0002471,12.6614,-0.735199,19.6693,21.1423,0.485552,-0.913488,0.284922,0.519792,-0.692659,1.15606,2.85221,0.391374,-0.113378,0.296416
4765614,0.96,-1.56258,-0.51772,0.006766,-2.09078,1.57386,1.58541,0.784969,-1.56086,-0.5171,0.0088218,-2.08761,1.57523,1.58828,0.785505,0.354242,0.241582,0.289754,0.258128,0.174791,0.711265,-0.00293301,0.441754,0.294067,0.39975,0.296974,0.190628,0.792002,9.21859e-05,12.6892,-0.735199,19.824,21.1423,0.565202,-0.97849,0.375559,0.559494,-0.637563,1.23713,2.83641,0.389976,-0.107292,0.299352
4765615,0.96,-1.56219,-0.517444,0.00708718,-2.09049,1.57407,1.58619,0.784962,-1.56041,-0.516798,0.00923154,-2.0873,1.57542,1.5891,0.785505,0.362587,0.253175,0.302878,0.267604,0.181068,0.737336,-0.00507491,0.452958,0.301557,0.40974,0.304512,0.195201,0.811992,-6.27283e-05,12.84,-0.885956,19.8478,21.0709,0.496538,-0.991307,0.459788,0.607053,-0.583462,1.32961,2.82029,0.38811,-0.102759,0.301987
4765616,0.96,-1.56179,-0.517169,0.0074245,-2.09019,1.57428,1.58701,0.784964,-1.55994,-0.516489,0.00965127,-2.08699,1.57562,1.58993,0.785505,0.371582,0.261382,0.315927,0.273376,0.188807,0.759203,-0.00219648,0.464161,0.309047,0.41973,0.31205,0.199774,0.831982,-0.000217643,12.8122,-0.989105,19.9747,21.1423,0.469072,-0.984899,0.427744,0.660559,-0.5387,1.43018,2.80807,0.386145,-0.0994806,0.304475
4765617,0.96,-1.56137,-0.516876,0.00776898,-2.08989,1.5745,1.58784,0.784959,-1.55947,-0.516173,0.010081,-2.08667,1.57583,1.59078,0.785505,0.38322,0.27254,0.324048,0.280561,0.198188,0.784069,-0.00265111,0.475364,0.316537,0.42972,0.319589,0.204346,0.851972,-0.000372557,12.8122,-1.19144,20.0501,21.1423,0.45717,-1.04899,0.459788,0.715245,-0.507953,1.53138,2.80245,0.384367,-0.0967182,0.306992
4765618,0.96,-1.56097,-0.516575,0.00812419,-2.08958,1.57471,1.58871,0.784971,-1.55898,-0.515849,0.0105207,-2.08634,1.57603,1.59165,0.785504,0.388646,0.282707,0.33797,0.289701,0.205806,0.80572,0.00111481,0.486568,0.324027,0.43971,0.327127,0.208919,0.871962,-0.000527471,13.0423,-1.34219,20.0501,21.1185,0.446184,-1.06821,0.381968,0.769569,-0.493862,1.63107,2.80459,0.382802,-0.0942407,0.309649
4765619,0.96,-1.56054,-0.516277,0.00849336,-2.08925,1.57493,1.58961,0.784974,-1.55848,-0.515517,0.0109704,-2.08601,1.57625,1.59254,0.785503,0.401566,0.289138,0.345664,0.299066,0.210665,0.825672,0.00264208,0.497771,0.331517,0.4497,0.334665,0.213492,0.891952,-0.000682385,13.2169,-1.44534,19.9985,21.1185,0.451677,-1.20371,0.330698,0.82285,-0.492757,1.72825,2.81175,0.381333,-0.0919182,0.312482
4765620,0.96,-1.56009,-0.515962,0.00885472,-2.08892,1.57516,1.59051,0.784974,-1.55797,-0.515178,0.0114301,-2.08567,1.57647,1.59346,0.785503,0.417792,0.297076,0.351775,0.310378,0.214982,0.844805,0.00203265,0.508618,0.339007,0.45969,0.342303,0.21797,0.911942,-0.000859229,13.1177,-1.56833,20.2286,21.0709,0.435198,-1.20371,0.323374,0.874169,-0.494729,1.82239,2.81808,0.379738,-0.0895538,0.315439
4765621,0.96,-1.55962,-0.515643,0.009249,-2.08858,1.57539,1.59142,0.784976,-1.55746,-0.514832,0.0118998,-2.08532,1.57669,1.59439,0.785502,0.427509,0.311849,0.368151,0.317206,0.221261,0.858627,0.00206718,0.519464,0.346497,0.46968,0.349942,0.222448,0.931932,-0.00103607,13.1177,-1.5961,20.2286,21.0709,0.34456,-1.09385,0.304148,0.921019,-0.499147,1.91032,2.82264,0.378037,-0.0868481,0.318402
4765622,0.96,-1.55915,-0.51531,0.00965786,-2.08824,1.57564,1.59236,0.784976,-1.55693,-0.514478,0.0123794,-2.08496,1.57692,1.59534,0.7855,0.441491,0.319067,0.383003,0.332563,0.2267,0.906155,0.00137812,0.530311,0.353987,0.47967,0.35758,0.226926,0.951922,-0.00121292,13.2169,-1.64767,20.2524,20.9717,0.350054,-1.18448,0.304148,0.95931,-0.511263,1.98512,2.82728,0.376465,-0.0834325,0.321264
4765623,0.96,-1.55867,-0.514967,0.0100679,-2.08789,1.57588,1.59334,0.784966,-1.55638,-0.514116,0.0128691,-2.08459,1.57715,1.59631,0.785499,0.449846,0.325691,0.390873,0.339864,0.225187,0.919014,-0.00243819,0.541158,0.361477,0.48966,0.365218,0.231404,0.971912,-0.00138976,13.2407,-1.74686,20.2762,20.9955,0.389421,-1.30076,0.394785,0.988852,-0.525082,2.04581,2.82841,0.37494,-0.079407,0.323955
4765624,0.96,-1.55818,-0.514632,0.0105044,-2.08753,1.57612,1.59433,0.784962,-1.55583,-0.513747,0.0133687,-2.08422,1.57738,1.5973,0.785497,0.46128,0.328635,0.407558,0.343527,0.230659,0.932947,-0.00284616,0.552004,0.368967,0.49965,0.372856,0.235882,0.991902,-0.0015666,13.32,-1.74686,20.2009,21.0947,0.383928,-1.28061,0.427744,1.01173,-0.530977,2.09531,2.8237,0.373318,-0.0748741,0.326483
4765625,0.96,-1.55767,-0.514277,0.0109523,-2.08717,1.57637,1.59531,0.784972,-1.55527,-0.513371,0.0138784,-2.08384,1.57762,1.59832,0.785496,0.477351,0.339987,0.420032,0.346903,0.234355,0.946149,0.00145949,0.562851,0.376457,0.50964,0.380495,0.240359,1.01189,-0.00174345,13.2407,-1.87381,20.0263,21.1939,0.366533,-1.19089,0.337107,1.02555,-0.529611,2.12995,2.81778,0.37184,-0.0692843,0.328937
4765626,0.96,-1.55715,-0.513911,0.0114084,-2.0868,1.57661,1.59632,0.784973,-1.5547,-0.512987,0.014398,-2.08345,1.57787,1.59935,0.785494,0.488244,0.347245,0.431679,0.352091,0.240521,0.95604,0.00121035,0.573697,0.383947,0.51963,0.388133,0.244837,1.03188,-0.00192029,13.1931,-1.92538,19.9985,21.2931,0.406816,-1.13321,0.330698,1.02812,-0.529852,2.14671,2.81735,0.37077,-0.0622549,0.331382
4765627,0.96,-1.55662,-0.513535,0.0118776,-2.08641,1.57687,1.59735,0.784972,-1.55411,-0.512595,0.0149276,-2.08306,1.57812,1.6004,0.785492,0.500592,0.353277,0.442426,0.361504,0.245045,0.975556,0.000569544,0.584544,0.391437,0.52962,0.395771,0.249315,1.05187,-0.00209714,13.0423,-2.15152,19.8716,21.3169,0.451677,-1.09385,0.337107,1.02194,-0.53314,2.14956,2.82284,0.370009,-0.0539991,0.333788
4765628,0.96,-1.55608,-0.513151,0.012358,-2.08603,1.57713,1.5984,0.784973,-1.55352,-0.512196,0.0154672,-2.08265,1.57837,1.60147,0.785489,0.508483,0.357966,0.455971,0.369813,0.245507,1.00291,0.000617055,0.59539,0.398927,0.53961,0.40341,0.253793,1.07186,-0.00227398,13.0899,-2.30228,19.7962,21.416,0.451677,-1.14603,0.330698,1.01101,-0.530926,2.14426,2.82837,0.369333,-0.044998,0.336111
4765629,0.96,-1.55554,-0.512752,0.0128498,-2.08562,1.5774,1.59947,0.784972,-1.55291,-0.51179,0.0160168,-2.08224,1.57863,1.60256,0.785487,0.530101,0.369763,0.465404,0.377063,0.248431,1.01832,-6.33481e-05,0.606237,0.406417,0.5496,0.411048,0.258271,1.09185,-0.00245082,13.0423,-2.63156,19.7208,21.4438,0.378435,-1.12681,0.343516,0.996549,-0.5215,2.1328,2.83168,0.368771,-0.0354945,0.338328
4765630,0.96,-1.55497,-0.512355,0.0133479,-2.08522,1.57767,1.60055,0.78497,-1.55229,-0.511376,0.0165764,-2.08182,1.57889,1.60367,0.785484,0.541204,0.378167,0.475841,0.381104,0.25308,1.03683,-0.000754309,0.616215,0.413907,0.55959,0.418646,0.262554,1.11106,-0.00267178,12.9392,-2.70694,19.6693,21.5668,0.34456,-1.13962,0.362742,0.97754,-0.514399,2.11463,2.83727,0.368503,-0.0254364,0.340424
4765631,0.96,-1.55439,-0.511947,0.0138638,-2.08482,1.57795,1.60164,0.784973,-1.55167,-0.510955,0.017146,-2.0814,1.57916,1.6048,0.785481,0.5534,0.384865,0.489103,0.386625,0.270735,1.05138,0.000683922,0.626194,0.421397,0.56958,0.426245,0.266836,1.13026,-0.00289274,12.9154,-2.78232,19.6454,21.7176,0.276811,-1.04899,0.330698,0.954711,-0.515756,2.09104,2.84889,0.368487,-0.0149139,0.342393
4765632,0.96,-1.55381,-0.511542,0.0143947,-2.08441,1.57822,1.60278,0.784981,-1.55103,-0.510526,0.0177256,-2.08096,1.57943,1.60595,0.785478,0.557659,0.39163,0.499113,0.390293,0.269745,1.07144,0.0031008,0.636173,0.428887,0.57957,0.433843,0.271119,1.14947,-0.0031137,13.0145,-2.78232,19.5939,21.8882,0.253923,-1.02335,0.259287,0.931422,-0.523851,2.0662,2.86663,0.36847,-0.00431613,0.344232
4765633,0.96,-1.55322,-0.511127,0.01492,-2.08399,1.57849,1.60391,0.784978,-1.55038,-0.510089,0.0183151,-2.08052,1.57971,1.60712,0.785475,0.562381,0.394672,0.502547,0.401695,0.27073,1.09814,0.00111777,0.646151,0.436377,0.58956,0.441441,0.275402,1.16868,-0.00333466,13.1415,-2.73471,19.6216,21.8405,0.304277,-1.0618,0.284922,0.916079,-0.531705,2.05171,2.88687,0.367993,0.0051983,0.345908
4765634,0.96,-1.5526,-0.510706,0.0154601,-2.08355,1.57875,1.60508,0.784979,-1.54973,-0.509645,0.0189147,-2.08007,1.57999,1.60831,0.785471,0.577482,0.405124,0.515,0.408391,0.270418,1.11686,0.000982537,0.65613,0.443867,0.59955,0.449039,0.279685,1.18788,-0.00355562,13.1653,-2.70694,19.6216,21.8167,0.400408,-1.12681,0.278513,0.914439,-0.53263,2.05601,2.90466,0.3667,0.0127945,0.347368
4765635,0.96,-1.55199,-0.510267,0.0160034,-2.08312,1.57903,1.60625,0.784978,-1.54906,-0.509194,0.0195242,-2.07962,1.58027,1.60952,0.785468,0.591424,0.411595,0.522897,0.418503,0.272542,1.13096,0.000417666,0.666108,0.451357,0.60954,0.456638,0.283967,1.20709,-0.00377658,13.1415,-2.75851,19.697,21.7414,0.423296,-1.16526,0.284922,0.921784,-0.52795,2.07275,2.91929,0.364775,0.0191449,0.348596
4765636,0.96,-1.55135,-0.509817,0.0165504,-2.08268,1.57932,1.60745,0.784971,-1.54839,-0.508735,0.0201438,-2.07915,1.58056,1.61074,0.785464,0.598641,0.421566,0.525169,0.424897,0.275245,1.14847,-0.00212905,0.676087,0.458847,0.61953,0.464236,0.28825,1.2263,-0.00399754,13.0661,-2.88547,19.6693,21.7176,0.435198,-1.13962,0.349924,0.93585,-0.521503,2.09936,2.93198,0.362449,0.0245345,0.349602
4765637,0.96,-1.55072,-0.509373,0.0171084,-2.08222,1.57961,1.60867,0.784975,-1.5477,-0.508269,0.0207733,-2.07868,1.58085,1.61199,0.785459,0.608683,0.427373,0.538547,0.434469,0.283514,1.16222,3.86928e-05,0.686065,0.466337,0.62952,0.471834,0.292533,1.2455,-0.0042185,13.0899,-2.96085,19.7724,21.6144,0.394914,-1.11399,0.310557,0.958916,-0.51501,2.13938,2.94321,0.359783,0.0285739,0.350422
4765638,0.96,-1.55009,-0.508905,0.0176817,-2.08177,1.5799,1.60991,0.784978,-1.547,-0.507795,0.0214128,-2.0782,1.58115,1.61325,0.785455,0.612792,0.435188,0.550124,0.441014,0.281552,1.19123,0.000975231,0.696044,0.473827,0.63951,0.479432,0.296815,1.26471,-0.00443946,13.3954,-3.0878,19.7208,21.5152,0.435198,-1.31357,0.284922,0.989147,-0.50739,2.18921,2.95248,0.356974,0.0314693,0.351128
4765639,0.96,-1.54944,-0.508445,0.0182686,-2.0813,1.5802,1.61119,0.784975,-1.5463,-0.507314,0.0220623,-2.07771,1.58145,1.61454,0.78545,0.628365,0.452317,0.559373,0.453518,0.290102,1.21073,-0.000299282,0.706022,0.481317,0.6495,0.487031,0.301098,1.28392,-0.00466042,13.4946,-3.1116,19.7724,21.3446,0.350054,-1.43534,0.310557,1.02366,-0.504681,2.24374,2.96182,0.354296,0.0333843,0.351751
4765640,0.97,-1.54877,-0.507988,0.0188772,-2.08083,1.5805,1.61248,0.784989,-1.54558,-0.506825,0.0227218,-2.07722,1.58175,1.61584,0.785445,0.639679,0.451264,0.573,0.456748,0.295999,1.25451,0.00434421,0.714656,0.488807,0.65949,0.494514,0.305152,1.30173,-0.00497442,13.443,-2.96085,19.824,21.3169,0.26491,-1.4802,0.187876,1.0592,-0.512014,2.29802,2.97299,0.351937,0.0343569,0.35227
4765641,0.98,-1.5481,-0.507512,0.0194792,-2.08034,1.58081,1.61378,0.784992,-1.54486,-0.506329,0.0233913,-2.07672,1.58206,1.61716,0.78544,0.643765,0.462223,0.582045,0.466261,0.300798,1.27784,0.00384557,0.723289,0.496297,0.66948,0.501997,0.309206,1.31955,-0.00528842,13.3954,-2.90927,19.9232,21.1185,0.163286,-1.70633,0.162241,1.09495,-0.521669,2.35031,2.98348,0.349806,0.0341497,0.352628
4765642,0.99,-1.54743,-0.507027,0.0201007,-2.07984,1.5811,1.61512,0.784997,-1.54413,-0.505825,0.0240707,-2.07621,1.58238,1.6185,0.785434,0.648939,0.46807,0.591775,0.474746,0.293244,1.29652,0.00425914,0.731922,0.503787,0.67947,0.50948,0.31326,1.33737,-0.00560241,13.57,-2.98465,19.8478,20.9717,0.236528,-1.97641,0.116465,1.1348,-0.529028,2.40572,2.99145,0.347582,0.0319986,0.352717
4765643,1,-1.54674,-0.50654,0.0207185,-2.07933,1.58139,1.61642,0.785003,-1.54339,-0.505314,0.0247602,-2.07569,1.58269,1.61985,0.785428,0.658124,0.468086,0.608514,0.485385,0.291658,1.30163,0.0047383,0.740555,0.511277,0.68946,0.516963,0.317314,1.35518,-0.00591641,13.6731,-2.90927,19.9232,20.7972,0.321672,-1.86106,0.0651953,1.17799,-0.52569,2.4631,2.9923,0.344993,0.0279691,0.352448
4765644,1,-1.54602,-0.506045,0.0213469,-2.07881,1.5817,1.61774,0.785006,-1.54264,-0.504795,0.0254596,-2.07517,1.58301,1.62122,0.785422,0.676414,0.47674,0.609061,0.499705,0.295523,1.29808,0.00414221,0.749188,0.518767,0.69945,0.524447,0.321367,1.373,-0.00623041,13.5462,-2.88547,19.9985,20.5988,0.423296,-1.55802,0.038645,1.21865,-0.497936,2.51525,2.97815,0.341857,0.0230721,0.351754
4765645,1,-1.54531,-0.505535,0.021995,-2.07827,1.58201,1.6191,0.785001,-1.54188,-0.504269,0.0261691,-2.07463,1.58334,1.62262,0.785416,0.694648,0.487673,0.623646,0.512239,0.302477,1.31289,0.000116615,0.757821,0.526257,0.70944,0.53193,0.325421,1.39081,-0.0065444,13.6453,-2.93704,19.9985,20.3727,0.423296,-1.43534,0.110056,1.25173,-0.447723,2.55739,2.94724,0.338214,0.0183333,0.350552
4765646,1,-1.54461,-0.505021,0.0226471,-2.07774,1.58234,1.62047,0.784991,-1.54111,-0.503735,0.0268885,-2.07409,1.58367,1.62402,0.785409,0.70294,0.493282,0.63301,0.52123,0.304218,1.32665,-0.00256711,0.766454,0.533747,0.71943,0.539413,0.329475,1.40863,-0.0068584,13.7207,-2.93704,19.947,20.2497,0.383928,-1.49393,0.181467,1.27422,-0.385424,2.58604,2.90356,0.334453,0.0145498,0.348803
4765647,1,-1.54389,-0.504506,0.0233049,-2.07719,1.58267,1.62188,0.784988,-1.54034,-0.503194,0.0276179,-2.07355,1.584,1.62545,0.785402,0.713127,0.500455,0.639239,0.527934,0.311914,1.3456,-0.00242349,0.775087,0.541237,0.72942,0.546896,0.333529,1.42644,-0.0071724,13.5977,-3.01242,19.9985,20.2497,0.293291,-1.70633,0.200693,1.28999,-0.316615,2.60599,2.85154,0.330818,0.0115299,0.346584
4765648,1,-1.54313,-0.503981,0.0239877,-2.07665,1.58301,1.62327,0.784986,-1.53956,-0.502645,0.0283573,-2.07299,1.58434,1.62689,0.785394,0.71805,0.505381,0.650206,0.535111,0.323134,1.35831,-0.00232773,0.78372,0.548727,0.73941,0.554379,0.337583,1.44426,-0.0074864,13.2922,-2.93704,19.9985,20.325,0.157793,-1.73197,0.219919,1.30643,-0.244219,2.62716,2.79511,0.327226,0.00835713,0.344046
4765649,1,-1.54238,-0.503446,0.0246812,-2.07611,1.58335,1.62469,0.784996,-1.53876,-0.502089,0.0291067,-2.07243,1.58468,1.62836,0.785386,0.721406,0.513547,0.659041,0.533974,0.335078,1.36885,0.00180511,0.792353,0.556217,0.7494,0.561862,0.341637,1.46208,-0.00780039,13.2407,-2.90927,19.7962,20.571,0.0103929,-1.52598,0.129282,1.32826,-0.173736,2.6556,2.74016,0.323539,0.00425487,0.341331
4765650,1,-1.54165,-0.502922,0.0253823,-2.07554,1.58368,1.62613,0.785,-1.53796,-0.501525,0.0298661,-2.07186,1.58503,1.62984,0.785378,0.721496,0.516256,0.66621,0.538139,0.333754,1.38507,0.00262756,0.799187,0.563692,0.75939,0.569215,0.34543,1.47824,-0.00829532,13.32,-2.8577,19.7724,20.7456,0.0616625,-1.37766,0.09083,1.36021,-0.111175,2.69754,2.69358,0.319541,-0.00155926,0.338506
4765651,1,-1.54089,-0.502362,0.0260826,-2.07498,1.58402,1.62757,0.784985,-1.53716,-0.500954,0.0306355,-2.07128,1.58538,1.63133,0.785369,0.727358,0.527308,0.677678,0.546952,0.333753,1.40505,-0.00302938,0.806021,0.571168,0.76938,0.576568,0.349223,1.4944,-0.00879024,13.4192,-2.98465,19.824,20.8448,0.214556,-1.30076,0.219919,1.40508,-0.0577205,2.75671,2.6571,0.314993,-0.0094202,0.335561
4765652,1,-1.54011,-0.501796,0.0268018,-2.0744,1.58436,1.62905,0.784972,-1.53635,-0.500375,0.0314149,-2.0707,1.58573,1.63284,0.78536,0.736523,0.539782,0.696163,0.553328,0.339488,1.42453,-0.00635986,0.812855,0.578644,0.77937,0.58392,0.353017,1.51057,-0.00928516,13.4192,-3.23856,19.8716,20.8963,0.236528,-1.28702,0.337107,1.45717,-0.0190876,2.82429,2.63165,0.310126,-0.0183429,0.332515
4765653,1,-1.53932,-0.501224,0.0275317,-2.07383,1.58472,1.63052,0.784958,-1.53553,-0.499789,0.0322042,-2.07011,1.58609,1.63437,0.78535,0.753962,0.54307,0.70305,0.554699,0.346011,1.43262,-0.00807156,0.819689,0.586119,0.78936,0.591273,0.35681,1.52673,-0.00978008,13.1653,-3.41708,19.947,20.9955,0.186174,-1.16526,0.440561,1.50586,-0.000324459,2.88529,2.61946,0.305491,-0.0264952,0.329529
4765654,1,-1.53852,-0.500636,0.028251,-2.07326,1.58509,1.63204,0.784936,-1.5347,-0.499195,0.0330036,-2.06951,1.58645,1.63591,0.78534,0.767039,0.55658,0.707701,0.560137,0.35171,1.4546,-0.0113489,0.826523,0.593595,0.79935,0.598626,0.360603,1.5429,-0.010275,12.9392,-3.54007,20.0501,21.1939,0.118425,-1.22294,0.601694,1.5468,-0.000413089,2.93572,2.62118,0.301298,-0.0329287,0.326873
4765655,1,-1.53774,-0.500064,0.0290044,-2.07267,1.58545,1.63359,0.78494,-1.53387,-0.498594,0.0338129,-2.06891,1.58681,1.63747,0.785329,0.771965,0.561373,0.718246,0.567013,0.351674,1.48198,-0.00448028,0.833357,0.601071,0.80934,0.605978,0.364396,1.55906,-0.0107699,12.9907,-3.54007,19.8994,21.3922,0.157793,-1.30716,0.518381,1.58349,-0.0186574,2.98248,2.63582,0.297402,-0.0381389,0.324871
4765656,1,-1.53695,-0.499476,0.0297599,-2.07209,1.58582,1.63513,0.784951,-1.53303,-0.497986,0.0346323,-2.06829,1.58718,1.63904,0.785318,0.775697,0.568545,0.730783,0.568237,0.353384,1.50005,-0.00263333,0.840191,0.608546,0.81933,0.613331,0.36819,1.57523,-0.0112649,13.1931,-3.59164,19.6454,21.6422,0.140398,-1.35203,0.381968,1.61994,-0.0494867,3.03093,2.66035,0.293653,-0.0428692,0.323802
4765657,1,-1.53613,-0.498876,0.0305139,-2.0715,1.58618,1.63666,0.784955,-1.53218,-0.49737,0.0354616,-2.06767,1.58755,1.64064,0.785306,0.78689,0.595848,0.735024,0.572753,0.354512,1.49556,-0.00368962,0.847025,0.616022,0.82932,0.620684,0.371983,1.59139,-0.0117598,13.0661,-3.7186,19.7208,21.8167,0.146807,-1.1204,0.297739,1.65765,-0.10409,3.08238,2.70077,0.290192,-0.0474873,0.32369
4765658,1,-1.53531,-0.498261,0.0312754,-2.0709,1.58656,1.63823,0.784956,-1.53132,-0.496746,0.0363009,-2.06704,1.58793,1.64224,0.785294,0.802298,0.600531,0.736992,0.577283,0.360928,1.54592,-0.00242986,0.853859,0.623498,0.83931,0.628036,0.375776,1.60756,-0.0122547,12.7368,-3.86935,19.824,21.8644,0.123918,-0.97849,0.278513,1.69855,-0.202658,3.14012,2.76616,0.287139,-0.0524926,0.324277
4765659,1,-1.53449,-0.497638,0.0320528,-2.07029,1.58694,1.63981,0.784962,-1.53046,-0.496115,0.0371502,-2.06641,1.58831,1.64387,0.785281,0.805728,0.60908,0.749598,0.587199,0.365735,1.55795,3.85979e-05,0.860692,0.630973,0.8493,0.635389,0.37957,1.62372,-0.0127496,12.6614,-3.99631,19.7446,21.8882,0.106523,-1.05539,0.219919,1.74417,-0.332996,3.2072,2.84921,0.284218,-0.058134,0.325232
4765660,1,-1.53367,-0.497007,0.032856,-2.06967,1.58732,1.64144,0.784957,-1.5296,-0.495477,0.0380095,-2.06577,1.58869,1.6455,0.785268,0.8267,0.618332,0.757516,0.594808,0.367343,1.56897,-0.00300285,0.865507,0.638195,0.85929,0.642455,0.383075,1.63802,-0.0133713,12.6138,-4.19864,19.6454,21.8644,0.140398,-1.21653,0.291331,1.78972,-0.471012,3.27713,2.93659,0.281191,-0.0633233,0.326302
4765661,1,-1.53282,-0.496376,0.0336637,-2.06905,1.58771,1.64304,0.784953,-1.52873,-0.494832,0.0388788,-2.06512,1.58908,1.64716,0.785254,0.835105,0.620959,0.785558,0.605576,0.374681,1.58277,-0.00276442,0.870322,0.645416,0.86928,0.64952,0.38658,1.65233,-0.0139931,12.4353,-4.25021,19.5701,21.8167,0.118425,-1.21653,0.304148,1.82207,-0.599386,3.33083,3.01863,0.278209,-0.065817,0.327354
4765662,1,-1.53195,-0.49574,0.0345001,-2.06842,1.58811,1.64466,0.784964,-1.52785,-0.494179,0.039758,-2.06446,1.58947,1.64882,0.785239,0.842194,0.623443,0.797692,0.610487,0.375845,1.58249,0.00177286,0.875136,0.652638,0.87927,0.656586,0.390085,1.66663,-0.0146148,12.1576,-4.14706,19.2646,21.8644,-0.0115797,-0.965673,0.200693,1.83045,-0.699244,3.35133,3.08638,0.275466,-0.06395,0.328364
4765663,1,-1.53107,-0.495111,0.0353615,-2.06778,1.5885,1.64631,0.78497,-1.52697,-0.493519,0.0406473,-2.0638,1.58986,1.6505,0.785224,0.850317,0.619539,0.812256,0.616992,0.384109,1.59137,0.0041396,0.879951,0.659859,0.88926,0.663651,0.39359,1.68093,-0.0152365,11.7291,-4.07169,18.7845,21.8167,-0.102217,-0.817357,0.116465,1.81568,-0.753926,3.33912,3.13346,0.272738,-0.0576684,0.329309
4765664,1,-1.53017,-0.494466,0.0362196,-2.06714,1.5889,1.64797,0.78498,-1.52609,-0.492852,0.0415465,-2.06312,1.59026,1.6522,0.785208,0.863356,0.62513,0.822687,0.626998,0.388272,1.62031,0.00524927,0.884766,0.667081,0.89925,0.670717,0.397095,1.69523,-0.0158582,11.0745,-3.99631,18.3521,21.666,-0.0234816,-0.97849,0.0459692,1.78328,-0.754439,3.30295,3.15616,0.269548,-0.0476856,0.330045
4765665,1,-1.52927,-0.493828,0.0371125,-2.06649,1.5893,1.64969,0.784983,-1.5252,-0.492178,0.0424558,-2.06245,1.59066,1.65391,0.785192,0.86902,0.629126,0.843836,0.633812,0.391958,1.6446,0.00439179,0.88958,0.674302,0.90924,0.677782,0.4006,1.70953,-0.01648,10.6699,-3.86935,17.8483,21.4914,0.0616625,-1.31357,0.0194189,1.73623,-0.706816,3.24745,3.15626,0.265739,-0.0347649,0.330354
4765666,1,-1.52837,-0.493181,0.0380094,-2.06583,1.58971,1.65138,0.784979,-1.5243,-0.491496,0.043375,-2.06176,1.59106,1.65563,0.785174,0.871581,0.631532,0.862611,0.643294,0.397175,1.65685,0.00116415,0.894395,0.681524,0.91923,0.684848,0.404105,1.72384,-0.0171017,10.293,-3.69479,17.3682,21.2931,0.0561693,-1.42893,0.0651953,1.67499,-0.621552,3.17244,3.13809,0.261529,-0.0195902,0.330048
4765667,1,-1.52745,-0.492511,0.0388898,-2.06514,1.59012,1.6531,0.784969,-1.5234,-0.490808,0.0443042,-2.06107,1.59147,1.65737,0.785157,0.877032,0.642609,0.874265,0.656455,0.409048,1.66997,-0.0023947,0.89921,0.688745,0.92922,0.691913,0.40761,1.73814,-0.0177234,9.86055,-3.64322,17.2413,20.9717,0.0561693,-1.52598,0.149424,1.60216,-0.50787,3.08123,3.10435,0.257037,-0.00324196,0.329042
4765668,1,-1.52656,-0.491845,0.0398032,-2.06444,1.59054,1.65483,0.784979,-1.5225,-0.490112,0.0452434,-2.06037,1.59188,1.65912,0.785138,0.879723,0.647982,0.884711,0.668476,0.406969,1.68365,0.0027054,0.904024,0.695967,0.93921,0.698979,0.411115,1.75244,-0.0183451,9.81294,-3.7186,17.1381,20.6702,0.027788,-1.4802,0.0322363,1.52453,-0.377922,2.98465,3.05774,0.252143,0.0125468,0.327399
4765669,1,-1.52568,-0.491156,0.0407301,-2.06376,1.59096,1.65652,0.78498,-1.52159,-0.489408,0.0461926,-2.05967,1.5923,1.66089,0.785119,0.878565,0.661817,0.90052,0.676326,0.411001,1.68577,0.0022495,0.908839,0.703188,0.9492,0.706044,0.41462,1.76674,-0.0189669,10.3684,-3.89713,17.0389,20.5472,-0.0289747,-1.19089,0.0194189,1.44828,-0.245467,2.89224,3.0035,0.246843,0.0263568,0.325243
4765670,1,-1.52479,-0.490476,0.0416473,-2.06305,1.59137,1.65828,0.784973,-1.52068,-0.488698,0.0471518,-2.05895,1.59271,1.66267,0.7851,0.876551,0.667693,0.904768,0.685448,0.413639,1.70308,-0.00045472,0.911526,0.709977,0.95919,0.712687,0.417796,1.77908,-0.0196779,10.7968,-3.9725,17.2651,20.3489,0.0506761,-1.23575,0.071604,1.37998,-0.12436,2.81293,2.94882,0.241166,0.0372044,0.3226
4765671,1,-1.5239,-0.48978,0.0425663,-2.06235,1.5918,1.66002,0.784978,-1.51977,-0.487982,0.048121,-2.05823,1.59313,1.66446,0.785079,0.882109,0.676727,0.906177,0.701463,0.414903,1.75104,0.00113871,0.914214,0.716766,0.96918,0.71933,0.420971,1.79141,-0.0203889,11.1737,-4.12326,17.6182,20.325,0.027788,-1.30076,0.0322363,1.33066,-0.0171345,2.76221,2.89409,0.234821,0.0436745,0.319469
4765672,1,-1.523,-0.489072,0.0434919,-2.06164,1.59224,1.66182,0.784975,-1.51885,-0.487258,0.0491002,-2.05751,1.59356,1.66626,0.785058,0.882894,0.684922,0.909987,0.705593,0.425073,1.76334,9.98569e-07,0.916901,0.723554,0.97917,0.725972,0.424146,1.80375,-0.0210999,11.503,-4.22244,17.7451,20.4242,-0.10771,-1.4802,0.0523779,1.30932,0.0782495,2.75302,2.83737,0.227557,0.0446127,0.315892
4765673,1,-1.5221,-0.488369,0.0444169,-2.06092,1.59269,1.66362,0.784968,-1.51793,-0.486528,0.0500893,-2.05677,1.59399,1.66808,0.785036,0.88927,0.689317,0.900172,0.712415,0.437162,1.77182,-0.0014326,0.919589,0.730343,0.98916,0.732615,0.427322,1.81608,-0.021811,11.5506,-4.37717,18.0506,20.4996,-0.25511,-1.51957,0.09083,1.32083,0.160698,2.79264,2.78147,0.219183,0.0397378,0.311906
4765674,1,-1.52119,-0.487644,0.0453386,-2.06021,1.59313,1.66541,0.784973,-1.51701,-0.485791,0.0510885,-2.05604,1.59442,1.66991,0.785014,0.893055,0.698861,0.907368,0.711942,0.433177,1.7853,0.000970873,0.922276,0.737132,0.99915,0.739258,0.430497,1.82842,-0.022522,11.63,-4.55173,18.2767,20.7218,-0.20384,-1.59647,0.038645,1.36606,0.228221,2.88267,2.73157,0.209535,0.0293348,0.307582
4765675,1,-1.5203,-0.486927,0.0462839,-2.05947,1.59356,1.66722,0.784971,-1.51608,-0.485047,0.0520976,-2.05529,1.59485,1.67175,0.784991,0.883819,0.702694,0.917799,0.714102,0.435843,1.78473,0.0013542,0.924964,0.743921,1.00914,0.745901,0.433673,1.84075,-0.023233,12.106,-4.67868,18.2767,20.9439,-0.147993,-1.40329,0.0194189,1.43881,0.276492,3.01233,2.69432,0.198888,0.01448,0.303024
4765676,1,-1.51943,-0.486178,0.0472594,-2.05873,1.594,1.66906,0.784958,-1.51515,-0.484296,0.0531168,-2.05454,1.59529,1.6736,0.784967,0.875733,0.718294,0.935469,0.72044,0.441196,1.82467,-0.00198326,0.927651,0.750709,1.01913,0.752543,0.436848,1.85309,-0.0239441,12.4869,-4.98416,18.126,21.1423,-0.0399611,-1.20371,0.0972387,1.53196,0.300261,3.16729,2.67448,0.187769,-0.00372196,0.298282
4765677,1,-1.51851,-0.485405,0.0482071,-2.05798,1.59445,1.67088,0.784944,-1.51422,-0.483539,0.0541459,-2.05378,1.59573,1.67547,0.784942,0.88382,0.733129,0.947512,0.726838,0.438561,1.829,-0.00818479,0.930339,0.757498,1.02912,0.759186,0.440023,1.86542,-0.0246551,12.3361,-5.4642,18.2529,21.2931,-0.000593394,-1.02976,0.155832,1.637,0.288222,3.33192,2.6762,0.176871,-0.0239317,0.293405
4765678,1,-1.51759,-0.484655,0.0491868,-2.05724,1.59491,1.67275,0.784925,-1.51329,-0.482774,0.055185,-2.05301,1.59617,1.67735,0.784917,0.914851,0.739392,0.948228,0.727774,0.450298,1.8341,-0.0138813,0.933026,0.764287,1.03911,0.765829,0.443199,1.87776,-0.0253661,12.0068,-5.71414,18.126,21.543,-0.0802443,-1.04258,0.24647,1.73868,0.235981,3.48567,2.70088,0.166857,-0.0433122,0.288538
4765679,1,-1.51667,-0.483887,0.0501775,-2.0565,1.59538,1.67462,0.784903,-1.51236,-0.482003,0.0562341,-2.05224,1.59662,1.67924,0.784891,0.919874,0.74455,0.979769,0.735207,0.450631,1.84634,-0.0165251,0.935713,0.771076,1.0491,0.772472,0.446374,1.89009,-0.0260771,11.8283,-5.86887,17.8483,21.7176,-0.221235,-1.16526,0.297739,1.81781,0.159006,3.60417,2.74206,0.158175,-0.0582562,0.28391
4765680,1,-1.51574,-0.483121,0.0511976,-2.05574,1.59582,1.67651,0.784896,-1.51142,-0.481226,0.0572932,-2.05146,1.59707,1.68114,0.784864,0.919456,0.747704,0.990581,0.741281,0.45231,1.85531,-0.0129994,0.936262,0.777298,1.05909,0.778578,0.449153,1.90044,-0.0268549,11.63,-5.84109,17.519,21.7176,-0.25511,-1.16526,0.200693,1.86421,0.0796906,3.67248,2.78897,0.150924,-0.0669407,0.279775
4765681,1,-1.51483,-0.482353,0.0522364,-2.05497,1.59628,1.67841,0.784884,-1.51048,-0.480442,0.0583623,-2.05068,1.59752,1.68305,0.784836,0.915893,0.752738,1.00454,0.7496,0.456221,1.86011,-0.0109953,0.93681,0.78352,1.06908,0.784684,0.451932,1.9108,-0.0276327,11.5784,-5.86887,17.2889,21.5668,-0.232222,-1.09385,0.110056,1.88582,0.0142011,3.70088,2.83263,0.144499,-0.070539,0.27628
4765682,1,-1.51391,-0.481577,0.0532721,-2.05419,1.59675,1.68027,0.784869,-1.50955,-0.479653,0.0594413,-2.04989,1.59797,1.68497,0.784808,0.914005,0.754584,1.01722,0.756461,0.460488,1.86726,-0.00943404,0.937359,0.789742,1.07907,0.79079,0.454712,1.92115,-0.0284106,11.5506,-5.89267,17.0112,21.3446,-0.244124,-0.842992,0.00660151,1.8953,-0.0280742,3.70761,2.86713,0.138126,-0.0709904,0.273353
4765683,1,-1.51298,-0.480803,0.0543167,-2.0534,1.59721,1.68218,0.784853,-1.50861,-0.478857,0.0605304,-2.04909,1.59843,1.6869,0.784779,0.917211,0.761036,1.02046,0.767291,0.462533,1.87562,-0.013125,0.937907,0.795964,1.08906,0.796896,0.457491,1.93151,-0.0291884,11.2769,-5.91647,16.912,21.0709,-0.232222,-0.643407,-0.0968531,1.90171,-0.0424628,3.70654,2.88841,0.131285,-0.0696294,0.270759
4765684,1,-1.51205,-0.480015,0.0553739,-2.0526,1.59768,1.68409,0.784811,-1.50767,-0.478054,0.0616294,-2.04829,1.59889,1.68884,0.784749,0.917035,0.767763,1.02674,0.775288,0.464003,1.88661,-0.0238176,0.938456,0.802187,1.09905,0.803002,0.46027,1.94186,-0.0299662,10.9714,-6.01962,16.8842,20.6702,-0.232222,-0.720311,0.0194189,1.91354,-0.0324098,3.71159,2.89572,0.123624,-0.0675791,0.268183
4765685,1,-1.51112,-0.479222,0.0564446,-2.05178,1.59815,1.68606,0.784776,-1.50673,-0.477246,0.0627385,-2.04748,1.59935,1.69079,0.784718,0.915788,0.76931,1.0483,0.79057,0.462292,1.91159,-0.0248722,0.939004,0.808409,1.10904,0.809108,0.463049,1.95221,-0.030744,10.7968,-5.99185,16.5073,20.2973,-0.25511,-1.00412,0.0780126,1.93228,0.000446254,3.72561,2.88736,0.115163,-0.065038,0.26539
4765686,1,-1.5102,-0.478452,0.0575183,-2.05095,1.59864,1.68804,0.784743,-1.50579,-0.476431,0.0638575,-2.04666,1.59982,1.69276,0.784686,0.921757,0.770098,1.04619,0.798364,0.468583,1.91738,-0.028295,0.939553,0.814631,1.11903,0.815214,0.465828,1.96257,-0.0315218,10.5429,-5.76572,16.2772,20.0513,-0.35124,-1.21653,0.0844213,1.95439,0.0641749,3.74425,2.85754,0.105994,-0.0617651,0.262357
4765687,1,-1.50926,-0.477659,0.0585997,-2.05015,1.59913,1.68999,0.784722,-1.50485,-0.475611,0.0649865,-2.04584,1.60029,1.69473,0.784654,0.928628,0.771665,1.05733,0.801948,0.470077,1.93033,-0.0217499,0.940101,0.820853,1.12902,0.82132,0.468608,1.97292,-0.0322996,10.3168,-5.63876,15.9995,20.0513,-0.390608,-1.2678,-0.0254419,1.97889,0.161826,3.76829,2.80574,0.0960357,-0.0581721,0.259168
4765688,1,-1.50831,-0.47688,0.0597183,-2.04933,1.59961,1.69199,0.784688,-1.50391,-0.474783,0.0661255,-2.04501,1.60076,1.69671,0.784621,0.931407,0.788093,1.08207,0.801551,0.476291,1.94501,-0.0251489,0.94065,0.827075,1.13901,0.827427,0.471387,1.98327,-0.0330774,10.0153,-5.48801,15.6702,20.1267,-0.418989,-1.44175,-0.044668,1.99896,0.273246,3.78795,2.74561,0.0857463,-0.0541053,0.255843
4765689,1,-1.50738,-0.476061,0.0608458,-2.0485,1.60009,1.694,0.784667,-1.50297,-0.47395,0.0672745,-2.04418,1.60123,1.69871,0.784587,0.931363,0.796431,1.08851,0.825056,0.472971,2.00187,-0.0201548,0.941198,0.833297,1.149,0.833533,0.474166,1.99363,-0.0338552,9.81294,-5.66653,15.3409,20.1505,-0.237715,-1.97001,-0.141714,2.00874,0.372077,3.79286,2.68973,0.075673,-0.0498618,0.252301
4765690,1,-1.50643,-0.475227,0.061967,-2.04767,1.60057,1.696,0.784642,-1.50203,-0.473111,0.0684331,-2.04334,1.60171,1.70071,0.784552,0.936676,0.803656,1.09971,0.82289,0.471218,1.99821,-0.0226008,0.939915,0.838854,1.15855,0.839012,0.476441,2.00185,-0.0346894,9.45985,-5.91647,15.1148,20.2973,-0.181868,-1.93155,-0.206716,2.0124,0.452574,3.78891,2.63785,0.065774,-0.0471887,0.248433
4765691,1,-1.50547,-0.474385,0.0631243,-2.04681,1.60105,1.69799,0.784599,-1.50109,-0.472267,0.0696012,-2.0425,1.60219,1.70272,0.784517,0.941213,0.819419,1.12005,0.831247,0.46754,1.98162,-0.0274132,0.938632,0.844411,1.1681,0.844492,0.478716,2.01007,-0.0355237,9.00361,-6.32114,14.8331,20.2735,-0.0573561,-1.67429,-0.0648096,2.00721,0.509013,3.77279,2.59473,0.0563796,-0.0461817,0.244113
4765692,1,-1.50451,-0.473528,0.0642836,-2.04598,1.60154,1.69996,0.78456,-1.50015,-0.471417,0.0707788,-2.04165,1.60267,1.70474,0.784481,0.940558,0.826945,1.13197,0.825922,0.468023,1.98138,-0.0337287,0.937349,0.849968,1.17764,0.849972,0.480991,2.0183,-0.0363579,8.7259,-6.77737,14.5554,20.4996,-0.0454542,-1.36484,0.038645,1.98558,0.527489,3.73351,2.5716,0.0482062,-0.0455914,0.239288
4765693,1,-1.50357,-0.472667,0.0654972,-2.04513,1.60203,1.70196,0.784517,-1.49922,-0.470561,0.071966,-2.04079,1.60315,1.70676,0.784443,0.934781,0.834949,1.15347,0.828032,0.473003,1.9814,-0.0390893,0.936066,0.855525,1.18719,0.855451,0.483265,2.02652,-0.0371922,8.82905,-7.10666,14,20.7218,-0.130598,-1.18448,0.16865,1.94793,0.504737,3.67119,2.57405,0.041645,-0.0449867,0.234083
4765694,1,-1.50262,-0.471833,0.0666859,-2.04429,1.60253,1.70398,0.784486,-1.49828,-0.4697,0.0731628,-2.03993,1.60364,1.7088,0.784405,0.938708,0.833762,1.15576,0.826438,0.479876,1.98163,-0.0316541,0.934783,0.861082,1.19674,0.860931,0.48554,2.03474,-0.0380264,8.7259,-7.18204,13.873,21.0193,-0.187361,-1.02976,0.122873,1.89952,0.453653,3.59352,2.59839,0.0365407,-0.0442915,0.228783
4765695,1,-1.50166,-0.470987,0.0678566,-2.04345,1.60304,1.70595,0.784454,-1.49735,-0.468834,0.0743691,-2.03906,1.60413,1.71084,0.784366,0.943354,0.834467,1.15877,0.8276,0.488554,1.97841,-0.0314675,0.9335,0.866638,1.20629,0.866411,0.487815,2.04296,-0.0388607,8.47596,-7.13046,13.8453,21.2931,-0.356734,-0.643407,0.0844213,1.84836,0.397152,3.51392,2.63424,0.032158,-0.0436554,0.223681
4765696,1,-1.50073,-0.470139,0.0690441,-2.04259,1.60353,1.70797,0.784436,-1.49642,-0.467962,0.0755849,-2.03819,1.60462,1.71289,0.784327,0.96151,0.838312,1.15712,0.833786,0.493429,1.98027,-0.027146,0.932216,0.872195,1.21583,0.87189,0.49009,2.05119,-0.0396949,8.40059,-7.23361,13.7699,21.4438,-0.492232,-0.463048,-0.0712183,1.79956,0.352884,3.4429,2.67186,0.0276705,-0.0428565,0.218932
4765697,1,-1.49979,-0.469279,0.0702197,-2.04174,1.60403,1.70998,0.78441,-1.49549,-0.467084,0.0768103,-2.03731,1.60511,1.71495,0.784286,0.950244,0.841555,1.1665,0.842457,0.489166,1.98276,-0.026415,0.930933,0.877752,1.22538,0.87737,0.492365,2.05941,-0.0405291,8.52357,-7.25742,13.8969,21.5152,-0.447371,-0.488683,-0.174673,1.75542,0.329006,3.3853,2.70378,0.0224209,-0.0413759,0.214514
4765698,1,-1.49887,-0.468407,0.0714258,-2.04086,1.60452,1.71206,0.784365,-1.49456,-0.4662,0.0780452,-2.03643,1.6056,1.71702,0.784245,0.933708,0.846925,1.18027,0.85386,0.489451,2.00793,-0.0285167,0.92965,0.883309,1.23493,0.88285,0.49464,2.06763,-0.0413634,8.7259,-7.38437,14.0238,21.3169,-0.447371,-0.791722,-0.0840357,1.72349,0.328321,3.34915,2.72445,0.0159314,-0.0398102,0.210222
4765699,1,-1.49795,-0.467539,0.0726506,-2.03998,1.60503,1.71412,0.784335,-1.49363,-0.465312,0.0792897,-2.03554,1.6061,1.7191,0.784203,0.921635,0.850732,1.18595,0.862192,0.495231,2.01798,-0.0288157,0.928367,0.888866,1.24448,0.888329,0.496915,2.07586,-0.0421976,8.92823,-7.48355,14,21.1701,-0.464766,-0.881444,-0.141714,1.71354,0.349543,3.34435,2.73125,0.00793962,-0.0396394,0.205818
4765700,1,-1.49701,-0.46667,0.0738527,-2.0391,1.60553,1.71613,0.784296,-1.4927,-0.464418,0.0805428,-2.03465,1.6066,1.72118,0.78416,0.923711,0.851295,1.19204,0.870155,0.495234,2.01716,-0.0373569,0.925652,0.893692,1.25309,0.893102,0.498509,2.08187,-0.0430842,8.90443,-7.43594,14.127,20.8963,-0.486738,-0.707494,-0.103262,1.72811,0.392919,3.37347,2.72288,-0.00163482,-0.0415268,0.201194
4765701,1,-1.49608,-0.465807,0.0750819,-2.03821,1.60603,1.71818,0.784255,-1.49178,-0.463519,0.0818045,-2.03375,1.6071,1.72327,0.784116,0.923359,0.855528,1.19989,0.873348,0.501658,2.01874,-0.0396212,0.922937,0.898518,1.26171,0.897875,0.500103,2.08788,-0.0439708,9.00361,-7.33279,14.2023,20.7694,-0.436384,-0.572911,-0.044668,1.75996,0.458566,3.42714,2.70032,-0.0125828,-0.0445917,0.196334
4765702,1,-1.49519,-0.464904,0.0763545,-2.03732,1.60653,1.72022,0.784209,-1.49086,-0.462616,0.0830748,-2.03285,1.6076,1.72536,0.784071,0.912182,0.870431,1.21921,0.880941,0.497409,2.03229,-0.0431156,0.920221,0.903345,1.27033,0.902648,0.501697,2.09389,-0.0448574,9.3329,-7.5867,13.9246,20.6226,-0.413496,-0.495092,0.0651953,1.8003,0.530968,3.49211,2.67227,-0.0243236,-0.0476747,0.191277
4765703,1,-1.49426,-0.464001,0.0776111,-2.0364,1.60704,1.72231,0.784169,-1.48994,-0.461708,0.0843538,-2.03194,1.6081,1.72746,0.784025,0.912511,0.875408,1.23091,0.8916,0.500483,2.0444,-0.04228,0.917506,0.908171,1.27895,0.907421,0.503291,2.0999,-0.045744,9.3567,-7.76126,13.5676,20.2973,-0.408003,-0.617772,0.0972387,1.8429,0.590906,3.55721,2.64715,-0.036191,-0.049988,0.186178
4765704,1,-1.49332,-0.463102,0.0788758,-2.03549,1.60756,1.72442,0.784119,-1.48903,-0.460795,0.0856413,-2.03103,1.60861,1.72956,0.783978,0.928845,0.888862,1.22927,0.902924,0.50309,2.05699,-0.0438233,0.914791,0.912997,1.28756,0.912194,0.504885,2.10591,-0.0466306,8.75367,-8.03897,13.2661,20.1505,-0.418989,-0.733129,0.181467,1.88293,0.633668,3.61586,2.62451,-0.0478998,-0.0509079,0.18127
4765705,1,-1.49236,-0.462187,0.0801437,-2.0346,1.60807,1.7265,0.784069,-1.48811,-0.459877,0.0869375,-2.03011,1.60911,1.73168,0.783931,0.93957,0.891002,1.24734,0.899676,0.505339,2.06857,-0.0488497,0.912076,0.917823,1.29618,0.916967,0.506479,2.11192,-0.0475172,8.01973,-8.34445,12.8852,20.1505,-0.452864,-0.798131,0.24647,1.91277,0.658484,3.65941,2.60496,-0.0591932,-0.0495865,0.176772
4765706,1,-1.49141,-0.461288,0.0814412,-2.03369,1.60858,1.72861,0.784034,-1.4872,-0.458954,0.0882423,-2.02919,1.60962,1.73379,0.783882,0.935582,0.913116,1.25986,0.900072,0.5091,2.07276,-0.0465626,0.90936,0.92265,1.3048,0.92174,0.508073,2.11793,-0.0484038,7.4405,-8.47141,12.4052,20.3489,-0.385115,-0.842992,0.149424,1.92438,0.652177,3.67633,2.59933,-0.0695194,-0.0453536,0.172876
4765707,1,-1.4905,-0.460375,0.0827499,-2.0328,1.60909,1.73072,0.783984,-1.4863,-0.458027,0.0895557,-2.02826,1.61013,1.73592,0.783833,0.92411,0.911665,1.27382,0.89704,0.505781,2.12988,-0.0495027,0.906645,0.927476,1.31341,0.926512,0.509666,2.12394,-0.0492904,7.26594,-8.57059,12.0243,20.821,-0.288985,-1.07462,0.175059,1.92267,0.599577,3.67162,2.619,-0.0786065,-0.0397298,0.169662
4765708,1,-1.48959,-0.45943,0.0840404,-2.03187,1.6096,1.73291,0.783947,-1.48539,-0.457095,0.0908777,-2.02733,1.61064,1.73805,0.783783,0.913606,0.91874,1.27788,0.902172,0.508143,2.1459,-0.0428741,0.90393,0.932302,1.32203,0.931285,0.51126,2.12995,-0.050177,7.11122,-8.92368,11.7466,20.9955,-0.176375,-1.64774,0.0780126,1.92265,0.510855,3.66593,2.66073,-0.0867295,-0.0358611,0.167075
4765709,1,-1.48868,-0.458496,0.0853691,-2.03096,1.61013,1.73503,0.783915,-1.48449,-0.456157,0.0922084,-2.0264,1.61116,1.74018,0.783732,0.91274,0.925048,1.29191,0.90143,0.510666,2.12332,-0.0353014,0.901215,0.937128,1.33065,0.936058,0.512854,2.13596,-0.0510636,7.03584,-9.25296,11.3895,21.3684,-0.333845,-1.36484,-0.0968531,1.9308,0.403303,3.66966,2.71623,-0.0941799,-0.0352037,0.165004
