shamilmamedov/beam_handling/log/param_estimation_ICRA/ocp_rotZ_30deg_0.35s_1.csv
duration, success rate, q[0], q[1], q[2], q[3], q[4], q[5], q[6],q_d[0], q_d[1], q_d[2], q_d[3], q_d[4], q_d[5], q_d[6],dq[0], dq[1], dq[2], dq[3], dq[4], dq[5], dq[6],dq_d[0], dq_d[1], dq_d[2], dq_d[3], dq_d[4], dq_d[5], dq_d[6],tau_J[0], tau_J[1], tau_J[2], tau_J[3], tau_J[4], tau_J[5], tau_J[6],tau_ext_hat_filtered[0], tau_ext_hat_filtered[1], tau_ext_hat_filtered[2], tau_ext_hat_filtered[3], tau_ext_hat_filtered[4], tau_ext_hat_filtered[5], tau_ext_hat_filtered[6]
652685,0,-1.57028,-0.52335,0.000173831,-2.09663,-0.00158333,1.56986,0.784897,-1.5708,-0.523599,-6.21432e-08,-2.0944,-1.25206e-07,1.5708,0.785398,-0.000654864,0.000666781,-0.00109173,2.47443e-05,0.000436693,0.000341881,-0.00103679,0,0,0,0,0,0,0,-0.581349,-9.50687,-0.837644,21.6422,1.91103,2.3641,0.323374,-0.625518,-0.362138,-0.406134,3.08891,1.20317,0.702842,0.286556
652686,1,-1.57028,-0.523356,0.00017745,-2.09662,-0.00158394,1.56986,0.784901,-1.5708,-0.523599,-6.21432e-08,-2.0944,-1.25206e-07,1.5708,0.785398,0.000120236,-0.00131872,0.000478608,0.00122292,8.76781e-05,-9.43859e-06,0.000495601,0,0,0,0,0,0,0,-0.605152,-9.43149,-0.889218,21.5906,1.91652,2.37051,0.291331,-0.624842,-0.363192,-0.405346,3.08984,1.20324,0.702965,0.286528
652687,1,-1.57028,-0.523352,0.00017912,-2.09663,-0.00158394,1.56987,0.784904,-1.5708,-0.523599,-6.21432e-08,-2.0944,-1.25206e-07,1.5708,0.785398,8.01573e-05,0.000327281,0.000875884,0.000258469,5.84521e-05,-6.29239e-06,0.0015172,0,0,0,0,0,0,0,-0.605152,-9.48306,-0.913022,21.6144,1.91652,2.37051,0.259287,-0.624633,-0.361306,-0.405328,3.08869,1.20323,0.702863,0.286577
652688,1,-1.57028,-0.523354,0.000173831,-2.09663,-0.00158262,1.56987,0.784902,-1.5708,-0.523599,-6.21432e-08,-2.0944,-1.25206e-07,1.5708,0.785398,0.000703052,-0.000431426,-0.00117932,0.000172313,0.000479778,-0.000241554,6.2028e-05,0,0,0,0,0,0,0,-0.632923,-9.45529,-0.837644,21.6144,1.90462,2.37692,0.284922,-0.625036,-0.358595,-0.406237,3.08692,1.20317,0.702688,0.286675
652689,1,-1.57028,-0.52335,0.00017912,-2.09663,-0.00158394,1.56987,0.784902,-1.5708,-0.523599,-6.21432e-08,-2.0944,-1.25206e-07,1.5708,0.785398,-0.000180912,0.000918808,0.000977028,-0.000534739,-0.000120958,0.000313682,0.000278711,0,0,0,0,0,0,0,-0.605152,-9.50687,-0.913022,21.6422,1.91652,2.3641,0.278513,-0.625365,-0.357327,-0.406985,3.086,1.20312,0.702583,0.286771
652690,1,-1.57028,-0.523354,0.000175501,-2.09663,-0.00158394,1.56986,0.784902,-1.5708,-0.523599,-6.21432e-08,-2.0944,-1.25206e-07,1.5708,0.785398,-0.000120608,-0.000593887,-0.000555074,-0.000356492,-8.06385e-05,-2.82376e-05,0.000185807,0,0,0,0,0,0,0,-0.605152,-9.45529,-0.861447,21.6422,1.91652,2.37051,0.278513,-0.62556,-0.357687,-0.407597,3.08619,1.20307,0.702577,0.286843
652691,1,-1.57028,-0.52335,0.00017912,-2.09663,-0.00158333,1.56986,0.784899,-1.5708,-0.523599,-6.21432e-08,-2.0944,-1.25206e-07,1.5708,0.785398,-8.04056e-05,0.000810501,0.000836376,0.000411952,0.000149692,-0.000256184,-0.00106292,0,0,0,0,0,0,0,-0.605152,-9.50687,-0.913022,21.6144,1.91103,2.37692,0.310557,-0.625613,-0.358601,-0.408104,3.08679,1.20304,0.702604,0.286886
652692,1,-1.57028,-0.52335,0.000175501,-2.09663,-0.00158455,1.56987,0.784899,-1.5708,-0.523599,-6.21432e-08,-2.0944,-1.25206e-07,1.5708,0.785398,-5.36037e-05,0.000540334,-0.000648842,0.000274635,-0.000307107,0.000541287,-0.000471257,0,0,0,0,0,0,0,-0.605152,-9.50687,-0.861447,21.6144,1.92201,2.35769,0.304148,-0.625516,-0.360034,-0.40845,3.0874,1.20299,0.702609,0.28691
652693,1,-1.57028,-0.523352,0.00017912,-2.09663,-0.00158197,1.56986,0.784902,-1.5708,-0.523599,-6.21432e-08,-2.0944,-1.25206e-07,1.5708,0.785398,0.000613878,-0.000196589,0.000773865,0.00018309,-0.000408188,-0.000588577,0.000397906,0,0,0,0,0,0,0,-0.632923,-9.48306,-0.913022,21.6144,1.92751,2.38333,0.284922,-0.625432,-0.361643,-0.408813,3.08788,1.20294,0.702584,0.286946
652694,1,-1.57028,-0.523354,0.000175501,-2.09663,-0.00158349,1.56986,0.784902,-1.5708,-0.523599,-6.21432e-08,-2.0944,-1.25206e-07,1.5708,0.785398,-0.000240362,-0.000780673,-0.000690516,0.000678872,-6.8675e-05,-0.000155026,0.000502629,0,0,0,0,0,0,0,-0.605152,-9.45529,-0.861447,21.5906,1.92201,2.37692,0.278513,-0.625434,-0.361485,-0.409274,3.08748,1.20287,0.702494,0.287006
652695,1,-1.57028,-0.523352,0.00017745,-2.09662,-0.00158226,1.56986,0.784901,-1.5708,-0.523599,-6.21432e-08,-2.0944,-1.25206e-07,1.5708,0.785398,-0.000160241,0.000129165,0.00018927,0.000452581,0.000598477,0.000134008,-0.000139632,0,0,0,0,0,0,0,-0.605152,-9.48306,-0.889218,21.5906,1.90462,2.37051,0.291331,-0.625094,-0.359418,-0.409232,3.08604,1.20281,0.702336,0.287073
652696,1,-1.57028,-0.52335,0.00017912,-2.09663,-0.00158321,1.56987,0.784897,-1.5708,-0.523599,-6.21432e-08,-2.0944,-1.25206e-07,1.5708,0.785398,-0.000106827,0.000642922,0.000682992,0.000301721,0.000161625,0.000326698,-0.00127988,0,0,0,0,0,0,0,-0.605152,-9.50687,-0.913022,21.5906,1.91103,2.3641,0.323374,-0.624647,-0.35776,-0.40909,3.08465,1.20277,0.702189,0.287133
652697,1,-1.57028,-0.523352,0.00017745,-2.09663,-0.00158451,1.56987,0.784898,-1.5708,-0.523599,-6.21432e-08,-2.0944,-1.25206e-07,1.5708,0.785398,-7.12183e-05,-0.000128197,-0.000101484,0.000201147,-0.000299151,-1.95604e-05,-0.000615896,0,0,0,0,0,0,0,-0.605152,-9.48306,-0.889218,21.5906,1.92201,2.37051,0.316965,-0.624482,-0.357528,-0.409446,3.08392,1.20273,0.702102,0.287207
652698,1,-1.57028,-0.523352,0.00017745,-2.09663,-0.00158454,1.56987,0.784902,-1.5708,-0.523599,-6.21432e-08,-2.0944,-1.25206e-07,1.5708,0.785398,-4.74789e-05,-8.54649e-05,-6.7656e-05,-0.000422714,-0.000199434,-1.30403e-05,0.00101356,0,0,0,0,0,0,0,-0.605152,-9.48306,-0.889218,21.6144,1.92201,2.37051,0.278513,-0.624185,-0.35773,-0.409643,3.0836,1.2027,0.702067,0.287324
652699,1,-1.57028,-0.523352,0.00017745,-2.09663,-0.00158455,1.56986,0.784902,-1.5708,-0.523599,-6.21432e-08,-2.0944,-1.25206e-07,1.5708,0.785398,-3.16526e-05,-5.69766e-05,-4.5104e-05,-0.000281809,-0.000132956,-0.000246052,0.000438345,0,0,0,0,0,0,0,-0.605152,-9.48306,-0.889218,21.6144,1.92201,2.37692,0.284922,-0.623634,-0.358094,-0.409473,3.08369,1.2027,0.702093,0.287492
652700,1,-1.57028,-0.523352,0.00017745,-2.09663,-0.00158394,1.56986,0.784899,-1.5708,-0.523599,-6.21432e-08,-2.0944,-1.25206e-07,1.5708,0.785398,-2.11017e-05,-3.79844e-05,-3.00693e-05,-0.000837487,0.000114813,-0.000164035,-0.000419847,0,0,0,0,0,0,0,-0.605152,-9.48306,-0.889218,21.6422,1.91652,2.37692,0.304148,-0.622999,-0.358919,-0.40919,3.08435,1.20272,0.702193,0.287678
652701,1,-1.57028,-0.523354,0.00017745,-2.09663,-0.00158394,1.56986,0.784899,-1.5708,-0.523599,-6.21432e-08,-2.0944,-1.25206e-07,1.5708,0.785398,0.000635546,-0.000674937,-2.00462e-05,-0.000558324,7.65422e-05,0.000128002,-0.000517257,0,0,0,0,0,0,0,-0.632923,-9.45529,-0.889218,21.6422,1.91652,2.37051,0.310557,-0.622524,-0.359737,-0.409115,3.08531,1.20275,0.702344,0.287864
652702,1,-1.57028,-0.523354,0.00017745,-2.09663,-0.00158333,1.56986,0.784896,-1.5708,-0.523599,-6.21432e-08,-2.0944,-1.25206e-07,1.5708,0.785398,0.000980509,-0.000449958,-1.33641e-05,-0.000372216,0.000254479,0.000322694,-0.00109082,0,0,0,0,0,0,0,-0.656727,-9.45529,-0.889218,21.6422,1.91103,2.3641,0.330698,-0.622564,-0.35963,-0.409667,3.08597,1.20276,0.702482,0.28806
652703,1,-1.57028,-0.523354,0.00017745,-2.09663,-0.00158455,1.56986,0.784903,-1.5708,-0.523599,-6.21432e-08,-2.0944,-1.25206e-07,1.5708,0.785398,0.000653673,-0.000299972,-8.90943e-06,0.00040147,-0.000237249,-2.22297e-05,0.00144292,0,0,0,0,0,0,0,-0.656727,-9.45529,-0.889218,21.6144,1.92201,2.37051,0.272104,-0.623137,-0.358502,-0.410815,3.08596,1.20273,0.702542,0.28829
652704,1,-1.57028,-0.523352,0.000173831,-2.09663,-0.00158394,1.56986,0.784904,-1.5708,-0.523599,-6.21432e-08,-2.0944,-1.25206e-07,1.5708,0.785398,0.000435782,0.000449633,-0.00121237,-0.000938779,4.52848e-05,-1.48198e-05,0.00143667,0,0,0,0,0,0,0,-0.656727,-9.48306,-0.837644,21.666,1.91652,2.37051,0.259287,-0.623536,-0.357723,-0.411499,3.0859,1.2027,0.702565,0.288557
652705,1,-1.57028,-0.523352,0.00017912,-2.09663,-0.00158455,1.56986,0.784902,-1.5708,-0.523599,-6.21432e-08,-2.0944,-1.25206e-07,1.5708,0.785398,-0.00147272,0.000299755,0.000954994,0.00113738,-0.000173261,0.000227479,0.000245701,0,0,0,0,0,0,0,-0.581349,-9.48306,-0.913022,21.5906,1.92201,2.3641,0.278513,-0.623173,-0.358266,-0.410992,3.08628,1.20271,0.702586,0.288814
652706,1,-1.57028,-0.52335,0.00017745,-2.09663,-0.00158394,1.56986,0.784898,-1.5708,-0.523599,-6.21432e-08,-2.0944,-1.25206e-07,1.5708,0.785398,0.000781427,0.000756649,7.98508e-05,0.000201445,8.79434e-05,-8.57062e-05,-0.000310917,0,0,0,0,0,0,0,-0.656727,-9.50687,-0.889218,21.6144,1.91652,2.37051,0.291331,-0.622656,-0.359566,-0.410348,3.08656,1.20273,0.70255,0.289012
652707,1,-1.57028,-0.52335,0.00017912,-2.09663,-0.00158516,1.56986,0.784897,-1.5708,-0.523599,-6.21432e-08,-2.0944,-1.25206e-07,1.5708,0.785398,-3.58607e-05,0.000504432,0.000610046,0.000691108,-0.000348272,0.000180221,-0.00115671,0,0,0,0,0,0,0,-0.632923,-9.50687,-0.913022,21.5906,1.92751,2.3641,0.316965,-0.622759,-0.36136,-0.410597,3.0867,1.20273,0.702464,0.28915
652708,1,-1.57028,-0.523356,0.00017912,-2.09663,-0.00158455,1.56986,0.784901,-1.5708,-0.523599,-6.21432e-08,-2.0944,-1.25206e-07,1.5708,0.785398,-2.39072e-05,-0.00142695,0.000406697,-9.6073e-05,-2.87309e-05,-0.000591929,0.000415652,0,0,0,0,0,0,0,-0.632923,-9.43149,-0.913022,21.6144,1.92201,2.38333,0.284922,-0.623362,-0.362098,-0.411531,3.08637,1.20271,0.702341,0.289253
652709,1,-1.57028,-0.523354,0.00017745,-2.09662,-0.00158201,1.56986,0.784902,-1.5708,-0.523599,-6.21432e-08,-2.0944,-1.25206e-07,1.5708,0.785398,-1.59381e-05,-0.000394488,-0.00028568,0.00104958,0.000828557,-0.000157261,0.00051446,0,0,0,0,0,0,0,-0.632923,-9.45529,-0.889218,21.5668,1.89913,2.37692,0.278513,-0.62391,-0.359903,-0.412375,3.08478,1.20268,0.702146,0.289345
652710,1,-1.57028,-0.52335,0.000175501,-2.09663,-0.00158394,1.56987,0.784902,-1.5708,-0.523599,-6.21432e-08,-2.0944,-1.25206e-07,1.5708,0.785398,0.000546187,0.000943434,-0.000840068,-0.000413907,-9.18889e-05,0.000132519,0.000342974,0,0,0,0,0,0,0,-0.656727,-9.50687,-0.861447,21.6144,1.91652,2.37051,0.278513,-0.623946,-0.357324,-0.412335,3.083,1.20267,0.701962,0.289423
652711,1,-1.57028,-0.52335,0.00017745,-2.09663,-0.00158394,1.56987,0.784902,-1.5708,-0.523599,-6.21432e-08,-2.0944,-1.25206e-07,1.5708,0.785398,-0.000842302,0.000628956,8.95689e-05,-0.000925552,-6.12593e-05,0.000325705,-8.70989e-06,0,0,0,0,0,0,0,-0.605152,-9.50687,-0.889218,21.6422,1.91652,2.3641,0.284922,-0.623395,-0.357984,-0.411312,3.08302,1.20272,0.701949,0.289475
652712,1,-1.57028,-0.523349,0.00017912,-2.09663,-0.00158455,1.56987,0.784901,-1.5708,-0.523599,-6.21432e-08,-2.0944,-1.25206e-07,1.5708,0.785398,-0.000561534,0.000976116,0.000616525,-0.000617035,-0.00024429,0.000454495,-0.000243166,0,0,0,0,0,0,0,-0.605152,-9.53067,-0.913022,21.6422,1.92201,2.35769,0.291331,-0.622634,-0.361886,-0.410079,3.08507,1.20281,0.702122,0.289498
652713,1,-1.57028,-0.52335,0.00017745,-2.09663,-0.00158516,1.56986,0.784899,-1.5708,-0.523599,-6.21432e-08,-2.0944,-1.25206e-07,1.5708,0.785398,0.000275258,9.3932e-05,-0.000145796,0.000238257,-0.000366311,-0.000171721,-0.000874187,0,0,0,0,0,0,0,-0.632923,-9.50687,-0.889218,21.6144,1.92751,2.37051,0.310557,-0.622144,-0.366655,-0.409373,3.08765,1.2029,0.702327,0.289496
652714,1,-1.57028,-0.52335,0.00017912,-2.09663,-0.00158455,1.56986,0.784897,-1.5708,-0.523599,-6.21432e-08,-2.0944,-1.25206e-07,1.5708,0.785398,-0.000466109,6.26214e-05,0.000459615,-0.000490776,-4.07565e-05,0.000122878,-0.00105751,0,0,0,0,0,0,0,-0.605152,-9.50687,-0.913022,21.6422,1.92201,2.3641,0.323374,-0.622001,-0.370132,-0.409207,3.08949,1.20296,0.702453,0.28949
652715,1,-1.57028,-0.523352,0.00017745,-2.09663,-0.00158455,1.56986,0.784902,-1.5708,-0.523599,-6.21432e-08,-2.0944,-1.25206e-07,1.5708,0.785398,-0.000310739,-0.000515064,-0.000250402,-0.000883996,-2.7171e-05,-0.00015544,0.000956506,0,0,0,0,0,0,0,-0.605152,-9.48306,-0.889218,21.666,1.92201,2.37051,0.278513,-0.621883,-0.371879,-0.409147,3.09066,1.20302,0.702523,0.289511
652716,1,-1.57028,-0.523354,0.00017745,-2.09663,-0.00158455,1.56986,0.784905,-1.5708,-0.523599,-6.21432e-08,-2.0944,-1.25206e-07,1.5708,0.785398,0.000999266,-0.00099299,-0.000166935,-3.25185e-05,-1.8114e-05,0.000133732,0.00158711,0,0,0,0,0,0,0,-0.656727,-9.45529,-0.889218,21.6422,1.92201,2.3641,0.252878,-0.621779,-0.371531,-0.409109,3.09107,1.20307,0.702538,0.289574
652717,1,-1.57028,-0.523352,0.000175501,-2.09663,-0.00158394,1.56986,0.7849,-1.5708,-0.523599,-6.21432e-08,-2.0944,-1.25206e-07,1.5708,0.785398,-0.000540248,-1.23795e-05,-0.000760904,-0.0011353,0.000191375,-0.000148204,-0.000603441,0,0,0,0,0,0,0,-0.605152,-9.48306,-0.861447,21.6898,1.91652,2.37051,0.297739,-0.621659,-0.369571,-0.408941,3.09085,1.20312,0.702494,0.289643
652718,1,-1.57028,-0.523356,0.000175501,-2.09663,-0.00158394,1.56987,0.784899,-1.5708,-0.523599,-6.21432e-08,-2.0944,-1.25206e-07,1.5708,0.785398,-0.000360166,-0.00121468,-0.000507269,0.00100637,0.000127583,0.000138556,-0.000639653,0,0,0,0,0,0,0,-0.605152,-9.43149,-0.861447,21.6144,1.91652,2.3641,0.304148,-0.620957,-0.36682,-0.407891,3.09017,1.20319,0.702392,0.289675
652719,1,-1.57028,-0.523354,0.00017745,-2.09663,-0.00158333,1.56986,0.784903,-1.5708,-0.523599,-6.21432e-08,-2.0944,-1.25206e-07,1.5708,0.785398,-0.00024011,-0.000252974,0.000311435,0.000670913,0.000288506,-0.000144988,0.000760359,0,0,0,0,0,0,0,-0.605152,-9.45529,-0.889218,21.6144,1.91103,2.37051,0.272104,-0.619944,-0.362538,-0.406437,3.08826,1.20325,0.702146,0.28968
652720,1,-1.57028,-0.523356,0.00017745,-2.09663,-0.00158333,1.56987,0.784904,-1.5708,-0.523599,-6.21432e-08,-2.0944,-1.25206e-07,1.5708,0.785398,-0.000160074,-0.000725461,0.000207623,0.000447275,0.000192337,0.0001407,0.000744265,0,0,0,0,0,0,0,-0.605152,-9.43149,-0.889218,21.6144,1.91103,2.3641,0.265696,-0.619415,-0.357439,-0.405777,3.0855,1.20325,0.701788,0.289679
652721,1,-1.57028,-0.523352,0.00017745,-2.09663,-0.00158455,1.56987,0.784902,-1.5708,-0.523599,-6.21432e-08,-2.0944,-1.25206e-07,1.5708,0.785398,-0.000106716,0.000722785,0.000138415,-0.000908242,-0.000278676,-0.000380918,2.14588e-05,0,0,0,0,0,0,0,-0.605152,-9.48306,-0.889218,21.666,1.92201,2.37692,0.278513,-0.61938,-0.353998,-0.405922,3.08366,1.20323,0.701499,0.289661
652722,1,-1.57028,-0.523354,0.00017745,-2.09663,-0.00158394,1.56987,0.784902,-1.5708,-0.523599,-6.21432e-08,-2.0944,-1.25206e-07,1.5708,0.785398,0.00057847,-0.000167757,9.22769e-05,0.00115774,1.76664e-05,-1.65862e-05,1.43059e-05,0,0,0,0,0,0,0,-0.632923,-9.45529,-0.889218,21.5906,1.91652,2.37051,0.278513,-0.619702,-0.353127,-0.406606,3.08328,1.2032,0.701336,0.289605
652723,1,-1.57028,-0.523352,0.00017745,-2.09663,-0.00158516,1.56986,0.7849,-1.5708,-0.523599,-6.21432e-08,-2.0944,-1.25206e-07,1.5708,0.785398,-0.000820779,0.000537776,6.15179e-05,-0.000434597,-0.000395123,-1.10575e-05,-0.00070254,0,0,0,0,0,0,0,-0.581349,-9.48306,-0.889218,21.6422,1.92751,2.37051,0.297739,-0.62013,-0.353623,-0.407456,3.08349,1.20316,0.701218,0.289508
652724,1,-1.57028,-0.523354,0.00017745,-2.09663,-0.00158394,1.56986,0.784901,-1.5708,-0.523599,-6.21432e-08,-2.0944,-1.25206e-07,1.5708,0.785398,9.62586e-06,-0.000291097,4.1012e-05,-0.000846543,0.000143485,-0.000244731,-0.000231001,0,0,0,0,0,0,0,-0.605152,-9.45529,-0.889218,21.666,1.91652,2.37692,0.291331,-0.620246,-0.3551,-0.407946,3.08441,1.20316,0.701184,0.289384
652725,1,-1.57028,-0.52335,0.00017745,-2.09663,-0.00158455,1.56987,0.784904,-1.5708,-0.523599,-6.21432e-08,-2.0944,-1.25206e-07,1.5708,0.785398,-0.000550395,0.00101236,2.73413e-05,0.00119888,-0.000107794,-0.000163154,0.000795435,0,0,0,0,0,0,0,-0.581349,-9.50687,-0.889218,21.5906,1.92201,2.37692,0.265696,-0.620057,-0.357399,-0.40809,3.08593,1.20319,0.701227,0.289255
652726,1,-1.57028,-0.523357,0.000175501,-2.09663,-0.00158394,1.56987,0.784905,-1.5708,-0.523599,-6.21432e-08,-2.0944,-1.25206e-07,1.5708,0.785398,0.000839496,-0.00164514,-0.000631386,0.000242438,0.000131588,-0.000108769,0.00100501,0,0,0,0,0,0,0,-0.632923,-9.40768,-0.861447,21.6144,1.91652,2.37692,0.252878,-0.619729,-0.358448,-0.408026,3.08653,1.20321,0.701198,0.289125
652727,1,-1.57028,-0.523356,0.00017745,-2.09663,-0.00158136,1.56986,0.784901,-1.5708,-0.523599,-6.21432e-08,-2.0944,-1.25206e-07,1.5708,0.785398,0.000559664,-0.00053995,0.00022869,0.000161626,-0.000115725,-7.25128e-05,-0.000754148,0,0,0,0,0,0,0,-0.632923,-9.43149,-0.889218,21.6144,1.92201,2.37692,0.291331,-0.619651,-0.356515,-0.408209,3.08559,1.20318,0.701078,0.288968
652728,1,-1.57028,-0.52335,0.00017912,-2.09663,-0.0015841,1.56986,0.784897,-1.5708,-0.523599,-6.21432e-08,-2.0944,-1.25206e-07,1.5708,0.785398,-0.000276505,0.00140327,0.000709272,-0.00109868,-0.000280601,-4.83418e-05,-0.00168956,0,0,0,0,0,0,0,-0.605152,-9.50687,-0.913022,21.666,1.92751,2.37692,0.323374,-0.620136,-0.354905,-0.409189,3.08516,1.20316,0.701045,0.288775
652729,1,-1.57028,-0.523354,0.000175501,-2.09663,-0.00158359,1.56986,0.784898,-1.5708,-0.523599,-6.21432e-08,-2.0944,-1.25206e-07,1.5708,0.785398,0.000465278,-0.000270912,-0.000733578,0.000473976,0.000219834,0.00044249,-0.000889015,0,0,0,0,0,0,0,-0.632923,-9.45529,-0.861447,21.6144,1.91652,2.3641,0.316965,-0.620716,-0.356367,-0.410348,3.08644,1.20318,0.701175,0.288582
652730,1,-1.57028,-0.523354,0.00017745,-2.09663,-0.00158382,1.56987,0.7849,-1.5708,-0.523599,-6.21432e-08,-2.0944,-1.25206e-07,1.5708,0.785398,0.000310185,-0.000180608,0.000160562,0.000315984,0.000146556,5.76344e-05,0.00106884,0,0,0,0,0,0,0,-0.632923,-9.45529,-0.889218,21.6144,1.91652,2.37051,0.272104,-0.621008,-0.357864,-0.411005,3.08756,1.20321,0.701294,0.288438
652731,1,-1.57028,-0.523352,0.00017745,-2.09663,-0.0015839,1.56987,0.784903,-1.5708,-0.523599,-6.21432e-08,-2.0944,-1.25206e-07,1.5708,0.785398,0.00020679,0.000529209,0.000107041,-0.000438958,9.7704e-05,3.84229e-05,0.00118728,0,0,0,0,0,0,0,-0.632923,-9.48306,-0.889218,21.6422,1.91652,2.37051,0.259287,-0.621288,-0.358509,-0.411552,3.08812,1.20324,0.701361,0.288362
652732,1,-1.57028,-0.523352,0.00017912,-2.09663,-0.00158332,1.56987,0.784899,-1.5708,-0.523599,-6.21432e-08,-2.0944,-1.25206e-07,1.5708,0.785398,0.00013786,0.000352806,0.000628173,0.000356975,0.000268587,2.56153e-05,-0.000869996,0,0,0,0,0,0,0,-0.632923,-9.48306,-0.913022,21.6144,1.91103,2.37051,0.304148,-0.621817,-0.359902,-0.412449,3.08907,1.20326,0.701457,0.288317
652733,1,-1.57028,-0.52335,0.000175501,-2.09663,-0.00158455,1.56986,0.784898,-1.5708,-0.523599,-6.21432e-08,-2.0944,-1.25206e-07,1.5708,0.785398,0.000648719,0.000792016,-0.000787644,0.000237983,-0.000227843,0.000254436,-0.00105471,0,0,0,0,0,0,0,-0.656727,-9.50687,-0.861447,21.6144,1.92201,2.3641,0.316965,-0.622406,-0.361981,-0.413361,3.09019,1.20328,0.701552,0.288269
652734,1,-1.57028,-0.523352,0.000175501,-2.09663,-0.00158394,1.56986,0.784898,-1.5708,-0.523599,-6.21432e-08,-2.0944,-1.25206e-07,1.5708,0.785398,-0.00188757,-2.88014e-05,-0.000525096,0.000158656,5.15549e-05,0.000169624,-0.000703143,0,0,0,0,0,0,0,-0.557545,-9.48306,-0.861447,21.6144,1.91652,2.3641,0.316965,-0.622074,-0.364092,-0.41286,3.0911,1.20333,0.701613,0.288232
652735,1,-1.57028,-0.523352,0.000181069,-2.09663,-0.00158333,1.56986,0.784904,-1.5708,-0.523599,-6.21432e-08,-2.0944,-1.25206e-07,1.5708,0.785398,-0.000144757,-1.92009e-05,0.00150598,0.000662582,0.00023782,-0.000361635,0.00143011,0,0,0,0,0,0,0,-0.605152,-9.48306,-0.940793,21.5906,1.91103,2.37692,0.265696,-0.620939,-0.365137,-0.411333,3.09138,1.2034,0.701612,0.288242
652736,1,-1.57028,-0.523352,0.00017745,-2.09663,-0.00158333,1.56987,0.784904,-1.5708,-0.523599,-6.21432e-08,-2.0944,-1.25206e-07,1.5708,0.785398,0.00055311,-1.28006e-05,-0.000202442,-0.00011509,0.000158547,-3.73126e-06,0.00119077,0,0,0,0,0,0,0,-0.632923,-9.48306,-0.889218,21.6144,1.91103,2.37051,0.259287,-0.620513,-0.364861,-0.410987,3.09099,1.20341,0.701557,0.288307
652737,1,-1.57028,-0.523354,0.00017912,-2.09663,-0.00158455,1.56986,0.784902,-1.5708,-0.523599,-6.21432e-08,-2.0944,-1.25206e-07,1.5708,0.785398,0.00036874,-0.000658148,0.000421851,-7.67269e-05,-0.000301203,-2.48751e-06,8.17666e-05,0,0,0,0,0,0,0,-0.632923,-9.45529,-0.913022,21.6144,1.92201,2.37051,0.278513,-0.620943,-0.36373,-0.411831,3.09036,1.20336,0.701499,0.288381
652738,1,-1.57028,-0.523352,0.000173831,-2.09663,-0.00158394,1.56986,0.784898,-1.5708,-0.523599,-6.21432e-08,-2.0944,-1.25206e-07,1.5708,0.785398,0.000245826,0.000210849,-0.001482,-5.11513e-05,2.64849e-06,-0.000239017,-0.00136964,0,0,0,0,0,0,0,-0.632923,-9.48306,-0.837644,21.6144,1.91652,2.37692,0.316965,-0.621211,-0.362142,-0.412302,3.0897,1.20331,0.701462,0.288413
652739,1,-1.57028,-0.523354,0.00017745,-2.09663,-0.00158394,1.56987,0.784899,-1.5708,-0.523599,-6.21432e-08,-2.0944,-1.25206e-07,1.5708,0.785398,0.000163884,-0.000509048,0.000218423,-3.41008e-05,1.76566e-06,7.80141e-05,-0.000438377,0,0,0,0,0,0,0,-0.632923,-9.45529,-0.889218,21.6144,1.91652,2.37051,0.304148,-0.620863,-0.360674,-0.411728,3.08914,1.20329,0.70145,0.288409
652740,1,-1.57028,-0.523354,0.00017912,-2.09662,-0.00158455,1.56987,0.784904,-1.5708,-0.523599,-6.21432e-08,-2.0944,-1.25206e-07,1.5708,0.785398,0.000666068,-0.000339365,0.000702427,0.00109089,-0.000202273,-0.00018535,0.00136926,0,0,0,0,0,0,0,-0.656727,-9.45529,-0.913022,21.5668,1.92201,2.37692,0.259287,-0.620824,-0.358656,-0.411538,3.08815,1.20325,0.701401,0.288415
652741,1,-1.57028,-0.523352,0.00017745,-2.09663,-0.00158455,1.56986,0.784906,-1.5708,-0.523599,-6.21432e-08,-2.0944,-1.25206e-07,1.5708,0.785398,-0.00076238,0.00042337,-8.8527e-05,-0.00159279,-0.000134849,0.000351152,0.00138756,0,0,0,0,0,0,0,-0.605152,-9.48306,-0.889218,21.666,1.92201,2.3641,0.24647,-0.621379,-0.356858,-0.412253,3.08722,1.20318,0.70136,0.288438
652742,1,-1.57028,-0.523354,0.00017912,-2.09663,-0.00158333,1.56986,0.784903,-1.5708,-0.523599,-6.21432e-08,-2.0944,-1.25206e-07,1.5708,0.785398,-0.000508254,-0.000367367,0.000497794,-0.00106186,0.000317002,-0.000240617,-2.43967e-05,0,0,0,0,0,0,0,-0.605152,-9.45529,-0.913022,21.666,1.91103,2.37692,0.272104,-0.621624,-0.357178,-0.412633,3.08786,1.20317,0.70148,0.288432
652743,1,-1.57028,-0.523352,0.00017745,-2.09663,-0.00158455,1.56987,0.784898,-1.5708,-0.523599,-6.21432e-08,-2.0944,-1.25206e-07,1.5708,0.785398,0.000310778,0.000404703,-0.000224949,0.000498519,-0.000195567,-0.000160411,-0.00167778,0,0,0,0,0,0,0,-0.632923,-9.48306,-0.889218,21.6144,1.92201,2.37692,0.316965,-0.621568,-0.358634,-0.412656,3.08939,1.20321,0.70169,0.288357
652744,1,-1.57028,-0.523352,0.000173831,-2.09663,-0.00158333,1.56987,0.784899,-1.5708,-0.523599,-6.21432e-08,-2.0944,-1.25206e-07,1.5708,0.785398,0.000207185,0.000269802,-0.00135639,-0.000317268,0.000276523,0.000130418,-0.0006438,0,0,0,0,0,0,0,-0.632923,-9.48306,-0.837644,21.6422,1.91103,2.37051,0.304148,-0.621192,-0.360175,-0.41209,3.0906,1.20325,0.70185,0.288229
652745,1,-1.57028,-0.523354,0.00017745,-2.09663,-0.00158455,1.56986,0.784901,-1.5708,-0.523599,-6.21432e-08,-2.0944,-1.25206e-07,1.5708,0.785398,0.000694936,-0.000469746,0.000302164,0.000438102,-0.000222552,-0.000387772,4.55178e-05,0,0,0,0,0,0,0,-0.656727,-9.45529,-0.889218,21.6144,1.92201,2.38333,0.291331,-0.62056,-0.361257,-0.410937,3.09125,1.20329,0.701948,0.288103
652746,1,-1.57028,-0.52335,0.000175501,-2.09663,-0.00158455,1.56987,0.784901,-1.5708,-0.523599,-6.21432e-08,-2.0944,-1.25206e-07,1.5708,0.785398,-0.000743136,0.000893262,-0.000448171,-0.000357546,-0.000148368,0.000216203,3.03452e-05,0,0,0,0,0,0,0,-0.605152,-9.50687,-0.861447,21.6422,1.92201,2.37051,0.291331,-0.620125,-0.361845,-0.409987,3.09152,1.20331,0.70201,0.288015
652747,1,-1.57028,-0.523352,0.00017912,-2.09663,-0.00158333,1.56987,0.784902,-1.5708,-0.523599,-6.21432e-08,-2.0944,-1.25206e-07,1.5708,0.785398,-0.00105224,3.86959e-05,0.000907645,-0.000238364,0.000307989,0.000144135,0.000494948,0,0,0,0,0,0,0,-0.581349,-9.48306,-0.913022,21.6422,1.91103,2.37051,0.278513,-0.61965,-0.363183,-0.409111,3.09216,1.20334,0.7021,0.287964
652748,1,-1.57028,-0.52335,0.00017912,-2.09663,-0.00158455,1.56987,0.784902,-1.5708,-0.523599,-6.21432e-08,-2.0944,-1.25206e-07,1.5708,0.785398,0.00106175,0.000582609,0.000605097,-0.000158909,-0.000201575,-0.000378628,0.000329965,0,0,0,0,0,0,0,-0.656727,-9.50687,-0.913022,21.6422,1.92201,2.38333,0.278513,-0.619653,-0.365137,-0.4091,3.09319,1.20335,0.702225,0.287941
652749,1,-1.57028,-0.523354,0.00017912,-2.09663,-0.00158394,1.56987,0.7849,-1.5708,-0.523599,-6.21432e-08,-2.0944,-1.25206e-07,1.5708,0.785398,0.00015102,-0.00081802,0.000403398,0.000543674,6.90671e-05,0.000222299,-0.0004921,0,0,0,0,0,0,0,-0.632923,-9.45529,-0.913022,21.6144,1.91652,2.37051,0.297739,-0.620747,-0.366108,-0.410679,3.09372,1.20331,0.702308,0.287928
652750,1,-1.57028,-0.523356,0.000175501,-2.09663,-0.00158394,1.56987,0.784899,-1.5708,-0.523599,-6.21432e-08,-2.0944,-1.25206e-07,1.5708,0.785398,-0.000548934,-0.00110216,-0.000937494,0.000919262,4.60448e-05,-0.000326518,-0.000802785,0,0,0,0,0,0,0,-0.605152,-9.43149,-0.861447,21.5906,1.91652,2.38333,0.310557,-0.621732,-0.363995,-0.41205,3.09249,1.20323,0.70225,0.287906
652751,1,-1.57028,-0.523354,0.00017745,-2.09663,-0.00158455,1.56986,0.784903,-1.5708,-0.523599,-6.21432e-08,-2.0944,-1.25206e-07,1.5708,0.785398,0.000283658,-0.00017796,2.4618e-05,5.60291e-05,-0.000172754,1.96801e-05,0.000888964,0,0,0,0,0,0,0,-0.632923,-9.45529,-0.889218,21.6144,1.92201,2.37692,0.272104,-0.621735,-0.359372,-0.411961,3.08985,1.20317,0.702086,0.287887
652752,1,-1.57028,-0.523356,0.000175501,-2.09663,-0.00158394,1.56986,0.784904,-1.5708,-0.523599,-6.21432e-08,-2.0944,-1.25206e-07,1.5708,0.785398,-0.000460509,-0.000675452,-0.000633202,3.73527e-05,8.82812e-05,1.31201e-05,0.000830002,0,0,0,0,0,0,0,-0.605152,-9.43149,-0.861447,21.6144,1.91652,2.37692,0.265696,-0.621212,-0.354888,-0.411081,3.08737,1.20315,0.701958,0.287888
652753,1,-1.57028,-0.523352,0.000175319,-2.09662,-0.00158516,1.56987,0.784905,-1.5708,-0.523599,-6.21432e-08,-2.0944,-1.25206e-07,1.5708,0.785398,0.000342608,0.000756124,0.000227479,0.000581714,-0.000348047,0.000246106,0.00102805,0,0,0,0,0,0,0,-0.632923,-9.48306,-0.889218,21.5906,1.92751,2.37051,0.252878,-0.620598,-0.351877,-0.410061,3.08568,1.20314,0.701907,0.287888
652754,1,-1.57028,-0.523352,0.00017674,-2.09663,-0.00158333,1.56987,0.784901,-1.5708,-0.523599,-6.21432e-08,-2.0944,-1.25206e-07,1.5708,0.785398,0.000228405,0.000504083,0.000151653,-0.00137543,0.00037832,0.000401429,-0.000738785,0,0,0,0,0,0,0,-0.632923,-9.48306,-0.889218,21.666,1.91103,2.3641,0.291331,-0.620415,-0.351713,-0.409659,3.08549,1.20315,0.701978,0.287853
652755,1,-1.57028,-0.523354,0.000177213,-2.09663,-0.00158516,1.56987,0.784896,-1.5708,-0.523599,-6.21432e-08,-2.0944,-1.25206e-07,1.5708,0.785398,0.00015227,-0.000313559,0.000101102,-0.000916952,-0.000358138,0.000504979,-0.00195059,0,0,0,0,0,0,0,-0.632923,-9.45529,-0.889218,21.666,1.92751,2.35769,0.330698,-0.620801,-0.354125,-0.410079,3.08711,1.20319,0.702214,0.287769
652756,1,-1.57028,-0.523352,0.000175422,-2.09663,-0.00158394,1.56987,0.784902,-1.5708,-0.523599,-6.21432e-08,-2.0944,-1.25206e-07,1.5708,0.785398,-0.0005481,0.000440575,-0.000582213,0.00115194,0.000168142,-0.000375424,0.000395031,0,0,0,0,0,0,0,-0.605152,-9.48306,-0.861447,21.5906,1.91652,2.37692,0.284922,-0.621035,-0.356636,-0.410276,3.08897,1.20325,0.702455,0.287666
652757,1,-1.57028,-0.523354,0.000177424,-2.09663,-0.00158394,1.56986,0.784904,-1.5708,-0.523599,-6.21432e-08,-2.0944,-1.25206e-07,1.5708,0.785398,-0.0003654,-0.000355897,0.000261472,0.000767957,0.000112095,-0.000250283,0.000975431,0,0,0,0,0,0,0,-0.605152,-9.45529,-0.889218,21.5906,1.91652,2.37692,0.265696,-0.620712,-0.357624,-0.409691,3.08948,1.2033,0.702528,0.28759
652758,1,-1.57028,-0.523352,0.000175492,-2.09663,-0.00158394,1.56986,0.784905,-1.5708,-0.523599,-6.21432e-08,-2.0944,-1.25206e-07,1.5708,0.785398,0.000406014,0.000412349,-0.000475299,0.000511972,7.47299e-05,7.05036e-05,0.001125,0,0,0,0,0,0,0,-0.632923,-9.48306,-0.861447,21.5906,1.91652,2.37051,0.252878,-0.620266,-0.357306,-0.408937,3.08882,1.20333,0.702468,0.287539
652759,1,-1.57028,-0.523354,0.000179117,-2.09663,-0.00158333,1.56986,0.784899,-1.5708,-0.523599,-6.21432e-08,-2.0944,-1.25206e-07,1.5708,0.785398,0.000270676,-0.000374715,0.00088956,-0.000215498,0.00025327,4.70024e-05,-0.00138623,0,0,0,0,0,0,0,-0.632923,-9.45529,-0.913022,21.6144,1.91103,2.37051,0.310557,-0.620348,-0.356743,-0.408912,3.08802,1.20333,0.702395,0.287476
652760,1,-1.57028,-0.523352,0.0001755,-2.09663,-0.00158516,1.56986,0.784897,-1.5708,-0.523599,-6.21432e-08,-2.0944,-1.25206e-07,1.5708,0.785398,0.000180451,0.000399804,-0.000613386,-0.000793279,-0.000441505,-0.000206024,-0.00139887,0,0,0,0,0,0,0,-0.632923,-9.48306,-0.861447,21.6422,1.92751,2.37692,0.323374,-0.620958,-0.356794,-0.409634,3.08793,1.20331,0.702405,0.287387
652761,1,-1.57028,-0.523352,0.00017745,-2.09663,-0.00158455,1.56987,0.784898,-1.5708,-0.523599,-6.21432e-08,-2.0944,-1.25206e-07,1.5708,0.785398,0.0001203,0.000266536,0.00024069,0.000120761,-9.08859e-05,0.00010001,-0.000695221,0,0,0,0,0,0,0,-0.632923,-9.48306,-0.889218,21.6144,1.92201,2.37051,0.316965,-0.62152,-0.357979,-0.410247,3.08875,1.20332,0.702512,0.287311
652762,1,-1.57028,-0.523354,0.00017745,-2.09663,-0.00158394,1.56986,0.784903,-1.5708,-0.523599,-6.21432e-08,-2.0944,-1.25206e-07,1.5708,0.785398,0.000637012,-0.000471923,0.00016046,0.000637319,0.00014286,-0.000170686,0.00119803,0,0,0,0,0,0,0,-0.656727,-9.45529,-0.889218,21.5906,1.91652,2.37692,0.272104,-0.622136,-0.358956,-0.410881,3.08936,1.20333,0.702597,0.287297
652763,1,-1.57028,-0.523354,0.00017745,-2.09663,-0.00158136,1.56986,0.784904,-1.5708,-0.523599,-6.21432e-08,-2.0944,-1.25206e-07,1.5708,0.785398,-0.000781751,-0.000314615,0.000106973,-0.000781546,-0.000108211,-0.00035115,0.00127341,0,0,0,0,0,0,0,-0.605152,-9.45529,-0.889218,21.6422,1.92201,2.38333,0.259287,-0.622851,-0.358486,-0.411649,3.08917,1.20331,0.702619,0.287349
652764,1,-1.57028,-0.52335,0.000175501,-2.09663,-0.00158349,1.56987,0.784902,-1.5708,-0.523599,-6.21432e-08,-2.0944,-1.25206e-07,1.5708,0.785398,0.000128447,0.000996682,-0.000578298,-0.00107784,-7.21404e-05,0.000240618,0.000136861,0,0,0,0,0,0,0,-0.632923,-9.50687,-0.861447,21.666,1.92201,2.37051,0.278513,-0.623019,-0.358765,-0.411651,3.08969,1.20335,0.702729,0.287419
652765,1,-1.57028,-0.523347,0.00017745,-2.09662,-0.0015842,1.56987,0.784897,-1.5708,-0.523599,-6.21432e-08,-2.0944,-1.25206e-07,1.5708,0.785398,8.5631e-05,0.00187088,0.000264082,0.00160149,-4.80936e-05,0.000397771,-0.00157027,0,0,0,0,0,0,0,-0.632923,-9.55844,-0.889218,21.5668,1.92201,2.3641,0.323374,-0.622779,-0.361945,-0.411025,3.09148,1.20343,0.702932,0.287464
652766,1,-1.57028,-0.52335,0.00017745,-2.09663,-0.00158382,1.56987,0.784899,-1.5708,-0.523599,-6.21432e-08,-2.0944,-1.25206e-07,1.5708,0.785398,-0.000592527,4.08279e-05,0.000176054,-4.59653e-05,0.000171388,0.000265181,-0.000334771,0,0,0,0,0,0,0,-0.605152,-9.50687,-0.889218,21.6144,1.91652,2.3641,0.304148,-0.622623,-0.366341,-0.410514,3.0931,1.20351,0.703065,0.287489
652767,1,-1.57028,-0.523352,0.000175501,-2.09663,-0.00158451,1.56986,0.784905,-1.5708,-0.523599,-6.21432e-08,-2.0944,-1.25206e-07,1.5708,0.785398,-0.000395018,-0.000529593,-0.000532244,-0.000680257,-8.91918e-05,-0.000772649,0.00167569,0,0,0,0,0,0,0,-0.605152,-9.48306,-0.861447,21.6422,1.92201,2.38973,0.252878,-0.622261,-0.36908,-0.409781,3.09385,1.20359,0.703125,0.287531
652768,1,-1.57028,-0.523354,0.00017745,-2.09663,-0.00158393,1.56987,0.784904,-1.5708,-0.523599,-6.21432e-08,-2.0944,-1.25206e-07,1.5708,0.785398,0.000943081,-0.00100268,0.000294784,0.000196109,0.000143989,-4.03812e-05,0.000879768,0,0,0,0,0,0,0,-0.656727,-9.45529,-0.889218,21.6144,1.91652,2.37692,0.259287,-0.621866,-0.368854,-0.408997,3.09366,1.20365,0.703154,0.287587
652769,1,-1.57028,-0.523352,0.00017912,-2.09663,-0.00158516,1.56986,0.784899,-1.5708,-0.523599,-6.21432e-08,-2.0944,-1.25206e-07,1.5708,0.785398,-0.00113452,-1.88368e-05,0.000753335,-0.00107569,-0.000310908,-2.69208e-05,-0.001075,0,0,0,0,0,0,0,-0.581349,-9.48306,-0.913022,21.666,1.92751,2.37692,0.304148,-0.622051,-0.366637,-0.409085,3.09284,1.20368,0.703166,0.287617
652770,1,-1.57028,-0.523354,0.00017912,-2.09663,-0.00158394,1.56986,0.784898,-1.5708,-0.523599,-6.21432e-08,-2.0944,-1.25206e-07,1.5708,0.785398,0.000450081,-0.000662172,0.000502223,-0.000160312,0.000199629,-1.79472e-05,-0.00119138,0,0,0,0,0,0,0,-0.632923,-9.45529,-0.913022,21.6422,1.91652,2.37692,0.316965,-0.622677,-0.36433,-0.409982,3.09226,1.2037,0.70322,0.287604
652771,1,-1.57028,-0.523352,0.00017745,-2.09662,-0.00158455,1.56987,0.784902,-1.5708,-0.523599,-6.21432e-08,-2.0944,-1.25206e-07,1.5708,0.785398,0.000856866,0.000208166,-0.000221996,0.00165636,-7.03646e-05,0.000462753,0.000392538,0,0,0,0,0,0,0,-0.656727,-9.48306,-0.889218,21.5668,1.92201,2.3641,0.284922,-0.623615,-0.361773,-0.411354,3.09126,1.20369,0.70322,0.287581
652772,1,-1.57028,-0.523352,0.000181069,-2.09663,-0.00158394,1.56987,0.784905,-1.5708,-0.523599,-6.21432e-08,-2.0944,-1.25206e-07,1.5708,0.785398,-0.000635182,0.000138777,0.00105843,-0.00177262,0.000156541,-0.000166216,0.00144849,0,0,0,0,0,0,0,-0.605152,-9.48306,-0.940793,21.6898,1.91652,2.37692,0.252878,-0.624742,-0.359651,-0.412964,3.09004,1.20367,0.703168,0.287584
652773,1,-1.57028,-0.52335,0.00017745,-2.09663,-0.00158516,1.56987,0.784904,-1.5708,-0.523599,-6.21432e-08,-2.0944,-1.25206e-07,1.5708,0.785398,0.000782971,0.00064933,-0.000500807,-6.81226e-05,-0.00030254,-0.000110811,0.00049094,0,0,0,0,0,0,0,-0.656727,-9.50687,-0.889218,21.6422,1.92751,2.37692,0.265696,-0.625713,-0.359947,-0.414415,3.09033,1.20367,0.703244,0.287596
652774,1,-1.57028,-0.52335,0.00017912,-2.09663,-0.00158394,1.56987,0.784902,-1.5708,-0.523599,-6.21432e-08,-2.0944,-1.25206e-07,1.5708,0.785398,0.000521981,0.000432887,0.000222941,-4.54151e-05,0.000205207,0.000400844,-0.000384784,0,0,0,0,0,0,0,-0.656727,-9.50687,-0.913022,21.6422,1.91652,2.3641,0.284922,-0.626474,-0.362134,-0.41551,3.09169,1.20371,0.703403,0.287574
652775,1,-1.57028,-0.523354,0.000173831,-2.09663,-0.00158455,1.56986,0.784898,-1.5708,-0.523599,-6.21432e-08,-2.0944,-1.25206e-07,1.5708,0.785398,0.000347987,-0.000917835,-0.00161461,-0.000587089,-6.66456e-05,2.98705e-05,-0.00144332,0,0,0,0,0,0,0,-0.656727,-9.45529,-0.837644,21.666,1.92201,2.37051,0.316965,-0.626735,-0.363899,-0.415701,3.09275,1.20377,0.70352,0.287497
652776,1,-1.57028,-0.523352,0.00017745,-2.09663,-0.00158394,1.56986,0.784899,-1.5708,-0.523599,-6.21432e-08,-2.0944,-1.25206e-07,1.5708,0.785398,-0.00153125,3.77241e-05,0.000130019,-0.000391392,0.00015902,-0.000217445,-0.000487493,0,0,0,0,0,0,0,-0.581349,-9.48306,-0.889218,21.666,1.91652,2.37692,0.304148,-0.62586,-0.364172,-0.414173,3.09328,1.20388,0.703597,0.28739
652777,1,-1.57028,-0.523354,0.00017745,-2.09663,-0.00158394,1.56987,0.784902,-1.5708,-0.523599,-6.21432e-08,-2.0944,-1.25206e-07,1.5708,0.785398,-0.00102083,-0.000624465,8.66791e-05,0.000945498,0.000106013,9.23954e-05,0.00062444,0,0,0,0,0,0,0,-0.581349,-9.45529,-0.889218,21.6144,1.91652,2.37051,0.278513,-0.624099,-0.363154,-0.411544,3.09312,1.20402,0.703601,0.287301
652778,1,-1.57028,-0.52335,0.00017912,-2.09662,-0.00158262,1.56987,0.784903,-1.5708,-0.523599,-6.21432e-08,-2.0944,-1.25206e-07,1.5708,0.785398,-0.000123742,0.000790116,0.000614598,0.00230077,0.000511485,-0.000413121,0.000653652,0,0,0,0,0,0,0,-0.605152,-9.50687,-0.913022,21.543,1.90462,2.38333,0.272104,-0.622546,-0.360889,-0.409446,3.09158,1.20411,0.703435,0.287253
652779,1,-1.57028,-0.523352,0.00017912,-2.09663,-0.00158455,1.56986,0.784898,-1.5708,-0.523599,-6.21432e-08,-2.0944,-1.25206e-07,1.5708,0.785398,0.000567119,-3.00678e-05,0.000409732,0.000420221,-0.00030327,-3.8055e-05,-0.00122574,0,0,0,0,0,0,0,-0.632923,-9.48306,-0.913022,21.5906,1.92201,2.37692,0.316965,-0.622066,-0.3584,-0.408981,3.0891,1.20409,0.703143,0.28723
652780,1,-1.57028,-0.52335,0.000175501,-2.09663,-0.00158455,1.56987,0.784897,-1.5708,-0.523599,-6.21432e-08,-2.0944,-1.25206e-07,1.5708,0.785398,0.000934891,0.000536767,-0.000933271,0.000280147,-0.00020218,0.000449348,-0.00105452,0,0,0,0,0,0,0,-0.656727,-9.50687,-0.861447,21.5906,1.92201,2.3641,0.323374,-0.622445,-0.357059,-0.409666,3.08714,1.20402,0.702908,0.287224
652781,1,-1.57028,-0.523352,0.00017745,-2.09663,-0.00158333,1.56987,0.784899,-1.5708,-0.523599,-6.21432e-08,-2.0944,-1.25206e-07,1.5708,0.785398,6.6449e-05,-0.000198967,2.74331e-05,-0.000370047,0.000272114,-0.000175153,9.06226e-06,0,0,0,0,0,0,0,-0.632923,-9.48306,-0.889218,21.6144,1.91103,2.37692,0.304148,-0.622883,-0.357071,-0.410261,3.0863,1.20397,0.702812,0.287259
652782,1,-1.57028,-0.52335,0.000181069,-2.09663,-0.00158333,1.56987,0.784904,-1.5708,-0.523599,-6.21432e-08,-2.0944,-1.25206e-07,1.5708,0.785398,4.42994e-05,0.000424167,0.00122471,-0.000896312,0.00018141,-0.000116768,0.0014302,0,0,0,0,0,0,0,-0.632923,-9.50687,-0.940793,21.6422,1.91103,2.37692,0.265696,-0.62354,-0.35828,-0.411185,3.08669,1.20393,0.70287,0.287364
652783,1,-1.57028,-0.523354,0.00017745,-2.09662,-0.00158516,1.56987,0.784899,-1.5708,-0.523599,-6.21432e-08,-2.0944,-1.25206e-07,1.5708,0.785398,-0.000620081,-0.000923648,-0.000389949,0.000608885,-0.000489412,-0.000315205,0.000478746,0,0,0,0,0,0,0,-0.605152,-9.45529,-0.889218,21.5906,1.92751,2.38333,0.278513,-0.624411,-0.359533,-0.412581,3.08755,1.20388,0.703006,0.28752
652784,1,-1.57028,-0.52335,0.00017745,-2.09663,-0.00158394,1.56987,0.784899,-1.5708,-0.523599,-6.21432e-08,-2.0944,-1.25206e-07,1.5708,0.785398,0.000793039,0.000590661,-0.000259966,0.000405923,8.06265e-05,-0.000210136,-0.000392913,0,0,0,0,0,0,0,-0.656727,-9.50687,-0.889218,21.5906,1.91652,2.38333,0.297739,-0.62482,-0.359622,-0.413329,3.08767,1.20384,0.703093,0.287672
652785,1,-1.57028,-0.523354,0.00017912,-2.09663,-0.00158333,1.56987,0.784898,-1.5708,-0.523599,-6.21432e-08,-2.0944,-1.25206e-07,1.5708,0.785398,-0.00123455,-0.000812652,0.000383501,-0.00149262,0.000257202,0.000571986,-0.000974019,0,0,0,0,0,0,0,-0.581349,-9.45529,-0.913022,21.666,1.91103,2.3641,0.316965,-0.624789,-0.359532,-0.413422,3.08768,1.20381,0.703192,0.287799
652786,1,-1.57028,-0.523356,0.000175501,-2.09662,-0.00158394,1.56986,0.784904,-1.5708,-0.523599,-6.21432e-08,-2.0944,-1.25206e-07,1.5708,0.785398,0.000383396,-0.00109858,-0.000950759,0.00132497,-3.19828e-05,0.000143965,0.00148688,0,0,0,0,0,0,0,-0.632923,-9.43149,-0.861447,21.5668,1.91652,2.37051,0.259287,-0.624324,-0.358529,-0.412941,3.08744,1.20382,0.703296,0.287916
652787,1,-1.57028,-0.523352,0.00017745,-2.09663,-0.00158394,1.56987,0.784904,-1.5708,-0.523599,-6.21432e-08,-2.0944,-1.25206e-07,1.5708,0.785398,-0.000950829,0.000474039,1.57749e-05,0.0003265,-2.13219e-05,9.59767e-05,0.000991256,0,0,0,0,0,0,0,-0.581349,-9.48306,-0.889218,21.5906,1.91652,2.37051,0.259287,-0.623301,-0.355908,-0.411657,3.08603,1.20381,0.703284,0.28803
652788,1,-1.57028,-0.523352,0.00017912,-2.09663,-0.00158333,1.56987,0.784905,-1.5708,-0.523599,-6.21432e-08,-2.0944,-1.25206e-07,1.5708,0.785398,0.00057254,0.000316026,0.000567329,-0.000988759,0.000189236,0.000301343,0.000898197,0,0,0,0,0,0,0,-0.632923,-9.48306,-0.913022,21.6422,1.91103,2.3641,0.252878,-0.62243,-0.354737,-0.410634,3.08511,1.2038,0.703281,0.288115
652789,1,-1.57028,-0.523352,0.00017745,-2.09663,-0.00158516,1.56986,0.784902,-1.5708,-0.523599,-6.21432e-08,-2.0944,-1.25206e-07,1.5708,0.785398,-0.000267921,0.000210684,-0.000178593,-0.00121598,-0.000484194,-0.000273822,-0.000587997,0,0,0,0,0,0,0,-0.605152,-9.48306,-0.889218,21.666,1.92751,2.37692,0.284922,-0.622245,-0.356539,-0.410675,3.08616,1.20378,0.703444,0.288133
652790,1,-1.57028,-0.523352,0.000175501,-2.09663,-0.00158455,1.56987,0.784902,-1.5708,-0.523599,-6.21432e-08,-2.0944,-1.25206e-07,1.5708,0.785398,-0.000735426,0.000140456,-0.000768676,0.000395769,-0.000119346,0.000529529,-0.000391998,0,0,0,0,0,0,0,-0.581349,-9.48306,-0.861447,21.6144,1.92201,2.35769,0.284922,-0.621862,-0.359613,-0.410459,3.08816,1.2038,0.70368,0.288068
652791,1,-1.57028,-0.523349,0.00017912,-2.09663,-0.00158394,1.56986,0.784899,-1.5708,-0.523599,-6.21432e-08,-2.0944,-1.25206e-07,1.5708,0.785398,0.000716142,0.00120726,0.000693975,-0.00094258,0.000123887,-0.000121699,-0.000973409,0,0,0,0,0,0,0,-0.632923,-9.53067,-0.913022,21.666,1.91652,2.37051,0.304148,-0.621166,-0.363263,-0.409814,3.09027,1.20383,0.703885,0.287941
652792,1,-1.57028,-0.523352,0.00017912,-2.09663,-0.00158394,1.56986,0.784902,-1.5708,-0.523599,-6.21432e-08,-2.0944,-1.25206e-07,1.5708,0.785398,0.00103424,-0.000308783,0.00046265,0.000578039,8.25912e-05,-0.000318491,0.000300497,0,0,0,0,0,0,0,-0.656727,-9.48306,-0.913022,21.6144,1.91652,2.37692,0.278513,-0.62154,-0.367231,-0.410686,3.09238,1.20382,0.704048,0.287801
652793,1,-1.57028,-0.523354,0.00017745,-2.09663,-0.00158394,1.56987,0.784902,-1.5708,-0.523599,-6.21432e-08,-2.0944,-1.25206e-07,1.5708,0.785398,-0.000516933,-0.000855469,-0.000248378,-0.00137788,5.50608e-05,0.00026239,-3.70279e-05,0,0,0,0,0,0,0,-0.605152,-9.45529,-0.889218,21.6898,1.91652,2.3641,0.284922,-0.622701,-0.369322,-0.412657,3.09365,1.20376,0.704129,0.287668
652794,1,-1.57028,-0.523352,0.00017745,-2.09663,-0.00158455,1.56986,0.784903,-1.5708,-0.523599,-6.21432e-08,-2.0944,-1.25206e-07,1.5708,0.785398,0.000304992,7.93011e-05,-0.000165586,0.000195038,-0.000166743,0.000174927,0.000450033,0,0,0,0,0,0,0,-0.632923,-9.48306,-0.889218,21.6422,1.92201,2.3641,0.272104,-0.623351,-0.369252,-0.413884,3.09411,1.20372,0.704142,0.287541
652795,1,-1.57028,-0.523352,0.00017912,-2.09663,-0.00158333,1.56986,0.784902,-1.5708,-0.523599,-6.21432e-08,-2.0944,-1.25206e-07,1.5708,0.785398,0.000203328,5.28674e-05,0.000446422,0.000130026,0.000295739,-0.0003581,-0.000174696,0,0,0,0,0,0,0,-0.632923,-9.48306,-0.913022,21.6422,1.91103,2.37692,0.284922,-0.623684,-0.368592,-0.414631,3.09418,1.20368,0.704095,0.287412
652796,1,-1.57028,-0.523354,0.000173831,-2.09663,-0.00158455,1.56987,0.7849,-1.5708,-0.523599,-6.21432e-08,-2.0944,-1.25206e-07,1.5708,0.785398,-0.000514062,-0.000614369,-0.00146562,8.66838e-05,-0.000209742,0.000235985,-0.000591182,0,0,0,0,0,0,0,-0.605152,-9.45529,-0.837644,21.6422,1.92201,2.3641,0.297739,-0.623634,-0.367375,-0.414766,3.0937,1.20365,0.703967,0.287276
652797,1,-1.57028,-0.52335,0.00017745,-2.09663,-0.00158455,1.56987,0.784904,-1.57079,-0.5236,-2.56214e-06,-2.0944,-2.91733e-06,1.5708,0.785393,-0.000342708,0.000796847,0.000229344,5.77892e-05,-0.000139828,0.000157323,0.000792673,0.00375,-0.000288337,-0.0025,3.02246e-05,-0.00279212,-0.00019393,-0.005,-0.605152,-9.50687,-0.889218,21.6422,1.92201,2.3641,0.265696,-0.622638,-0.366039,-0.413483,3.09303,1.20365,0.703801,0.287137
652798,1,-1.57028,-0.523352,0.000173831,-2.09662,-0.00158516,1.56986,0.784904,-1.57079,-0.5236,-7.56214e-06,-2.0944,-8.50157e-06,1.57079,0.785383,-0.000228472,-2.55809e-05,-0.00105353,0.00180176,-0.000296669,0.000342241,0.000528449,0.0075,-0.000576674,-0.005,6.04492e-05,-0.00558424,-0.00038786,-0.01,-0.605152,-9.48306,-0.837644,21.5668,1.92751,2.35769,0.265696,-0.621152,-0.365187,-0.411464,3.0922,1.20368,0.703577,0.287005
652799,1,-1.57028,-0.523356,0.00017745,-2.09663,-0.00158516,1.56987,0.784905,-1.57077,-0.523601,-1.50621e-05,-2.0944,-1.68779e-05,1.57079,0.785368,-0.000709127,-0.00122348,0.000504072,-0.000562062,-0.000197779,-0.000246557,0.000827017,0.01125,-0.000865011,-0.0075,9.06738e-05,-0.00837637,-0.000581791,-0.015,-0.581349,-9.43149,-0.889218,21.6422,1.92751,2.37051,0.252878,-0.619654,-0.363245,-0.409439,3.09052,1.2037,0.703252,0.286861
652800,1,-1.57028,-0.523354,0.000175319,-2.09663,-0.00158333,1.56987,0.7849,-1.57076,-0.523602,-2.50621e-05,-2.0944,-2.80464e-05,1.57079,0.785348,-0.00102956,0.000390773,0.000336048,0.000274906,0.000478499,-0.000164371,-0.000160732,0.015,-0.00115335,-0.01,0.000120898,-0.0111685,-0.000775721,-0.02,-0.557545,-9.48306,-0.889218,21.6144,1.91103,2.37051,0.272104,-0.618435,-0.360329,-0.407981,3.0887,1.20372,0.702932,0.286681
652801,1,-1.57028,-0.523352,0.000173967,-2.09663,-0.00158205,1.56987,0.784898,-1.57074,-0.523604,-3.75621e-05,-2.0944,-4.2007e-05,1.57079,0.785323,0.000828872,-0.001077,-0.00164716,-0.000466343,0.00181097,-0.00034694,0.000842281,0.01875,-0.00144169,-0.0125,0.000151123,-0.0139606,-0.000969651,-0.025,-0.50597,-9.55844,-0.940793,21.6422,1.87074,2.37692,0.24647,-0.617385,-0.357945,-0.406826,3.08759,1.20376,0.702703,0.286449
652802,1,-1.57028,-0.523354,0.000172879,-2.09663,-0.00158448,1.56986,0.784902,-1.57072,-0.523605,-5.25621e-05,-2.0944,-5.87598e-05,1.57079,0.785293,0.00106734,0.000137228,0.000965476,-0.00142452,0.00181766,-0.000231293,0.00344374,0.0225,-0.00173002,-0.015,0.000181348,-0.0167527,-0.00116358,-0.03,-0.402821,-9.60605,-1.03998,21.6898,1.85426,2.37692,0.16865,-0.616842,-0.356462,-0.406322,3.08742,1.20376,0.7026,0.28616
652803,1,-1.57027,-0.523352,0.000165935,-2.09663,-0.00158275,1.56986,0.784903,-1.57069,-0.523608,-7.00621e-05,-2.0944,-7.83046e-05,1.57079,0.785258,0.00218181,-0.00141423,-0.00581742,-0.00094968,0.00226294,-0.000154196,0.00399125,0.02625,-0.00201836,-0.0175,0.000211572,-0.0195449,-0.00135751,-0.035,-0.327442,-9.68539,-1.03998,21.6898,1.82588,2.37692,0.122873,-0.616238,-0.355971,-0.405722,3.08835,1.20367,0.702644,0.285764
652804,1,-1.57026,-0.523352,0.000158717,-2.09663,-0.001582,1.56986,0.784901,-1.57066,-0.52361,-9.00621e-05,-2.09439,-0.000100642,1.57079,0.785218,0.00428304,-0.00275565,-0.00647657,-7.63078e-05,-0.00274222,0.00060928,0.00266083,0.03,-0.0023067,-0.02,0.000241797,-0.022337,-0.00155144,-0.04,-0.303639,-9.76077,-1.09155,21.666,1.8149,2.35769,0.122873,-0.613089,-0.353689,-0.401354,3.08852,1.20351,0.702664,0.285133
652805,1,-1.57025,-0.523353,0.000144634,-2.09663,-0.00158084,1.56987,0.784898,-1.57063,-0.523612,-0.000112562,-2.09439,-0.000125771,1.57079,0.785173,0.00686207,-0.000644762,-0.00572882,-5.08719e-05,-0.00177548,0.000168828,0.00201125,0.03375,-0.00259503,-0.0225,0.000272021,-0.0251291,-0.00174537,-0.045,-0.327442,-9.83615,-1.06378,21.666,1.803,2.3641,0.116465,-0.608005,-0.348692,-0.394325,3.08694,1.20318,0.702528,0.284161
652806,1,-1.57024,-0.523352,0.000139766,-2.09663,-0.00158541,1.56986,0.784891,-1.57059,-0.523615,-0.000137562,-2.09439,-0.000153692,1.57078,0.785123,0.00688186,0.000905221,-0.00566743,-0.00179715,-0.00191557,0.000112552,-0.000591949,0.0375,-0.00288337,-0.025,0.000302246,-0.0279212,-0.0019393,-0.05,-0.279835,-9.91153,-1.14312,21.7414,1.8149,2.3641,0.16865,-0.603603,-0.346641,-0.389036,3.08635,1.20257,0.702428,0.282817
652807,1,-1.57023,-0.523363,0.000125816,-2.09663,-0.00158836,1.56987,0.784887,-1.57055,-0.523619,-0.000167562,-2.09439,-0.000185914,1.57078,0.785063,0.00908249,-0.00462902,-0.0114058,0.000565136,-0.00574329,7.50345e-05,-0.00409092,0.045,-0.00337844,-0.03,0.000354141,-0.0322219,-0.00223801,-0.06,-0.204456,-9.83615,-1.11535,21.666,1.803,2.3641,0.143015,-0.599133,-0.347166,-0.3846,3.08676,1.20169,0.702383,0.281112
652808,1,-1.57022,-0.523367,0.000116453,-2.09663,-0.00159115,1.56986,0.78489,-1.57049,-0.523623,-0.000202562,-2.09439,-0.000222436,1.57078,0.784993,0.0109563,-0.00358921,-0.0100039,-0.00138648,-0.00377299,5.0023e-05,-0.000232209,0.0525,-0.00387351,-0.035,0.000406037,-0.0365225,-0.00253671,-0.07,-0.125111,-9.83615,-1.19073,21.7414,1.78652,2.3641,0.0651953,-0.593056,-0.343166,-0.378651,3.08478,1.20057,0.702144,0.279094
652809,1,-1.5702,-0.523367,9.92456e-05,-2.09663,-0.00158761,1.56987,0.784888,-1.57043,-0.523627,-0.000242562,-2.09439,-0.000263259,1.57078,0.784913,0.0143529,-0.00100696,-0.0114113,-0.000367508,-0.00123576,3.33487e-05,0.00267441,0.06,-0.00436858,-0.04,0.000457932,-0.0408231,-0.00283542,-0.08,-0.125111,-9.91153,-1.16693,21.7176,1.74074,2.3641,-0.0190333,-0.586852,-0.337131,-0.373462,3.08165,1.19915,0.701806,0.276793
652810,1,-1.57018,-0.523366,7.86928e-05,-2.09663,-0.00159136,1.56987,0.784879,-1.57037,-0.523632,-0.000287562,-2.09439,-0.000308383,1.57077,0.784823,0.017259,0.000808883,-0.014377,-0.000245006,-0.00469383,0.00049695,-0.00166451,0.0675,-0.00486365,-0.045,0.000509827,-0.0451238,-0.00313413,-0.09,-0.0259286,-9.98691,-1.19073,21.7176,1.71236,2.35128,-0.0584009,-0.581719,-0.33701,-0.370797,3.08073,1.19737,0.701584,0.274149
652811,1,-1.57015,-0.523366,5.04399e-05,-2.09663,-0.00159761,1.56987,0.784863,-1.57029,-0.523637,-0.000337562,-2.09439,-0.000357808,1.57077,0.784723,0.0180531,-0.000409542,-0.0208577,0.00207741,-0.00763493,0.000806018,-0.00404387,0.075,-0.00535873,-0.05,0.000561722,-0.0494244,-0.00343283,-0.1,0.124828,-10.0901,-1.16693,21.7652,1.69039,2.33847,-0.122488,-0.575089,-0.343644,-0.366687,3.08166,1.19534,0.701389,0.271027
652812,1,-1.57012,-0.523367,2.17625e-05,-2.09663,-0.00160558,1.56987,0.784844,-1.57021,-0.523643,-0.000392562,-2.09439,-0.000411533,1.57077,0.784613,0.0231281,-0.000990787,-0.0239097,0.00110766,-0.00550445,0.00101206,-0.0102232,0.0825,-0.0058538,-0.055,0.000613618,-0.0537251,-0.00373154,-0.11,0.227978,-10.213,-1.2185,21.789,1.67848,2.32565,-0.193899,-0.564037,-0.352465,-0.3567,3.08202,1.19312,0.701019,0.267283
652813,1,-1.57007,-0.523369,-1.88305e-05,-2.09663,-0.00162024,1.56987,0.78482,-1.57012,-0.523649,-0.000452562,-2.09439,-0.000469558,1.57076,0.784493,0.0315048,-0.0019814,-0.0274014,0.000298475,-0.00861679,0.000674709,-0.018533,0.09,-0.00634887,-0.06,0.000665513,-0.0580257,-0.00403025,-0.12,0.251781,-10.3162,-1.2185,21.8167,1.6675,2.32565,-0.290945,-0.550233,-0.360601,-0.343001,3.08132,1.19059,0.700477,0.262806
652814,1,-1.57002,-0.523377,-6.58081e-05,-2.09663,-0.00163451,1.56987,0.784784,-1.57002,-0.523656,-0.000517562,-2.09439,-0.000531885,1.57076,0.784363,0.0366809,-0.00456922,-0.0371825,-0.000200592,-0.0110944,0.00116188,-0.0213538,0.0975,-0.00684394,-0.065,0.000717408,-0.0623263,-0.00432895,-0.13,0.32716,-10.34,-1.16693,21.8405,1.662,2.30642,-0.362356,-0.535352,-0.366253,-0.327525,3.07977,1.18766,0.699823,0.257473
652815,1,-1.56996,-0.523381,-0.000112861,-2.09663,-0.00165286,1.56987,0.784743,-1.56992,-0.523664,-0.000587562,-2.09439,-0.000598512,1.57075,0.784223,0.0410897,-0.0020655,-0.0391794,-0.000572613,-0.0133483,0.00101195,-0.0281344,0.105,-0.00733901,-0.07,0.000769303,-0.066627,-0.00462766,-0.14,0.477917,-10.4154,-1.2185,21.8644,1.6675,2.30001,-0.433767,-0.51791,-0.369662,-0.307982,3.07774,1.18445,0.69908,0.251131
652816,1,-1.5699,-0.523388,-0.00017005,-2.09663,-0.00167532,1.56988,0.784687,-1.5698,-0.523671,-0.000662562,-2.09439,-0.000669439,1.57075,0.784073,0.0446604,-0.0050588,-0.0426596,-0.000850108,-0.0113294,0.00138671,-0.0340978,0.1125,-0.00783408,-0.075,0.000821198,-0.0709276,-0.00492637,-0.15,0.628673,-10.4154,-1.19073,21.8882,1.70137,2.28079,-0.485037,-0.498093,-0.373251,-0.285419,3.07629,1.18097,0.698288,0.243654
652817,1,-1.56983,-0.523394,-0.000226994,-2.09663,-0.00170012,1.56988,0.784626,-1.56968,-0.52368,-0.000745062,-2.09439,-0.000745394,1.57074,0.783908,0.053843,-0.00597107,-0.0470762,5.64071e-05,-0.0129036,0.00163655,-0.0415576,0.123566,-0.00847064,-0.0825,0.000887925,-0.0759543,-0.0052755,-0.165,0.755627,-10.4669,-1.2185,21.8644,1.69588,2.26156,-0.575674,-0.477878,-0.374957,-0.263411,3.07425,1.17714,0.697317,0.23496
652818,1,-1.56975,-0.523398,-0.000291366,-2.09663,-0.00172903,1.56988,0.784547,-1.56954,-0.523689,-0.000835062,-2.09439,-0.000826375,1.57074,0.783728,0.0633973,-0.0061518,-0.0509357,-0.00111907,-0.0184048,0.00109103,-0.0497586,0.134632,-0.00910721,-0.09,0.000954652,-0.080981,-0.00562464,-0.18,0.831005,-10.5423,-1.2185,21.9159,1.67848,2.26156,-0.601309,-0.459804,-0.373277,-0.24558,3.07077,1.17293,0.69606,0.225007
652819,1,-1.56966,-0.523402,-0.000363775,-2.09663,-0.00176111,1.56988,0.784465,-1.5694,-0.523699,-0.000932562,-2.09439,-0.000912382,1.57073,0.783533,0.0702869,-0.00635171,-0.0572855,0.00161132,-0.0219895,0.00143943,-0.06303,0.145698,-0.00974377,-0.0975,0.00102138,-0.0860077,-0.00597377,-0.195,0.957958,-10.6177,-1.19073,21.8167,1.64461,2.24234,-0.685537,-0.445026,-0.370147,-0.233492,3.06646,1.16838,0.694503,0.213787
652820,1,-1.56956,-0.523404,-0.000440525,-2.09663,-0.00179806,1.56988,0.784361,-1.56924,-0.523709,-0.00103756,-2.09438,-0.00100342,1.57073,0.783323,0.07805,-0.00580144,-0.0648807,0.000545383,-0.0247443,0.00218032,-0.0740573,0.156764,-0.0103803,-0.105,0.00108811,-0.0910344,-0.00632291,-0.21,1.08491,-10.7209,-1.19073,21.8405,1.61073,2.20938,-0.737722,-0.431285,-0.367381,-0.223928,3.06144,1.16364,0.692599,0.201297
652821,1,-1.56946,-0.523408,-0.000527893,-2.09663,-0.00184682,1.56989,0.784243,-1.56907,-0.52372,-0.00115006,-2.09438,-0.00109948,1.57072,0.783098,0.085287,-0.00619957,-0.0736939,-0.000729047,-0.0318301,0.00216563,-0.0874809,0.16783,-0.0110169,-0.1125,0.00115483,-0.0960611,-0.00667204,-0.225,1.28724,-10.7962,-1.19073,21.8882,1.58235,2.19015,-0.782583,-0.415033,-0.367811,-0.21175,3.0572,1.1589,0.690464,0.187533
652822,1,-1.56934,-0.523414,-0.000618983,-2.09663,-0.00189933,1.56989,0.784106,-1.5689,-0.523732,-0.00127006,-2.09438,-0.00120057,1.57071,0.782858,0.0943513,-0.00698889,-0.0796812,-0.00047029,-0.0369985,0.00215583,-0.102645,0.178896,-0.0116535,-0.12,0.00122156,-0.101088,-0.00702118,-0.24,1.36262,-10.8478,-1.2185,21.8882,1.55397,2.17092,-0.815542,-0.39438,-0.372677,-0.194371,3.05501,1.15423,0.688215,0.172518
652823,1,-1.56921,-0.523417,-0.000715656,-2.09662,-0.00195881,1.56989,0.783958,-1.56871,-0.523744,-0.00139756,-2.09438,-0.00130668,1.5707,0.782603,0.1043,-0.00645054,-0.0849897,-0.00030172,-0.0462206,0.000962501,-0.123489,0.189962,-0.01229,-0.1275,0.00128829,-0.106115,-0.00737031,-0.255,1.41023,-10.947,-1.34546,21.8882,1.54848,2.18374,-0.847585,-0.37069,-0.381272,-0.174158,3.05454,1.14954,0.685801,0.156327
652824,1,-1.56907,-0.523428,-0.000828469,-2.09662,-0.00202495,1.56989,0.783789,-1.5685,-0.523757,-0.00153256,-2.09438,-0.00141782,1.5707,0.782333,0.117837,-0.00585334,-0.094274,-0.000192292,-0.0483196,0.000641667,-0.139817,0.201028,-0.0129266,-0.135,0.00135501,-0.111141,-0.00771945,-0.27,1.4618,-10.9232,-1.39306,21.8882,1.532,2.18374,-0.847585,-0.346527,-0.394371,-0.154817,3.0559,1.14465,0.683213,0.139069
652825,1,-1.56892,-0.523434,-0.000947687,-2.09661,-0.00210631,1.56989,0.783604,-1.56829,-0.523771,-0.00167506,-2.09438,-0.00153399,1.57069,0.782048,0.13158,-0.00654004,-0.10292,0.00099207,-0.0566244,0.00137721,-0.151181,0.212093,-0.0135631,-0.1425,0.00142174,-0.116168,-0.00806858,-0.285,1.53718,-10.9748,-1.36926,21.8405,1.57137,2.15811,-0.866812,-0.323378,-0.411957,-0.137832,3.05867,1.13943,0.680419,0.120861
652826,1,-1.56876,-0.523439,-0.00106531,-2.09661,-0.00219322,1.56989,0.783408,-1.56807,-0.523785,-0.00182506,-2.09438,-0.00165518,1.57068,0.781748,0.138998,-0.00656953,-0.108635,-0.000447263,-0.0683349,0.0011555,-0.163923,0.223159,-0.0141997,-0.15,0.00148847,-0.121195,-0.00841772,-0.3,1.64033,-11.0501,-1.49621,21.8882,1.63362,2.1517,-0.906179,-0.301349,-0.432494,-0.123308,3.06205,1.13389,0.677367,0.101838
652827,1,-1.56858,-0.523443,-0.00118955,-2.09661,-0.00228441,1.56989,0.783185,-1.56783,-0.5238,-0.00198476,-2.09438,-0.00178165,1.57067,0.781428,0.148191,-0.00659633,-0.111446,-0.000944054,-0.074498,0.000532975,-0.178095,0.236507,-0.0149256,-0.159698,0.00156456,-0.12647,-0.00878416,-0.319892,1.71571,-11.1255,-1.57159,21.9159,1.63912,2.15811,-0.938223,-0.28039,-0.456051,-0.112393,3.06676,1.12816,0.67415,0.0821408
652828,1,-1.56839,-0.523447,-0.00132267,-2.0966,-0.0023811,1.56989,0.78295,-1.56758,-0.523815,-0.00215416,-2.09437,-0.0019134,1.57066,0.781088,0.162802,-0.00718503,-0.117974,2.30462e-05,-0.0832289,0.000117958,-0.194188,0.249855,-0.0156515,-0.169395,0.00164065,-0.131746,-0.00915059,-0.339784,1.66413,-11.1771,-1.5954,21.8882,1.63362,2.16452,-0.963857,-0.262352,-0.48232,-0.108676,3.07297,1.12231,0.670821,0.0618889
652829,1,-1.5682,-0.523456,-0.00146199,-2.0966,-0.00248643,1.56989,0.782703,-1.56732,-0.523832,-0.00233325,-2.09437,-0.00205042,1.57065,0.780729,0.170683,-0.00826214,-0.125167,-0.00230258,-0.0902889,0.00102807,-0.212632,0.263203,-0.0163774,-0.179093,0.00171675,-0.137022,-0.00951703,-0.359676,1.73951,-11.2009,-1.64697,21.9873,1.62813,2.13888,-0.95104,-0.247941,-0.509611,-0.113094,3.07989,1.1164,0.667364,0.0411644
652830,1,-1.56799,-0.523461,-0.00160743,-2.09659,-0.00259909,1.5699,0.782441,-1.56704,-0.523849,-0.00252204,-2.09437,-0.00219272,1.57064,0.780349,0.1803,-0.00781528,-0.134486,0.00318008,-0.0995614,0.00210954,-0.226833,0.27655,-0.0171034,-0.188791,0.00179284,-0.142298,-0.00988347,-0.379568,1.81489,-11.2763,-1.80169,21.9397,1.60524,2.10043,-1.03527,-0.233821,-0.536143,-0.120638,3.08603,1.11062,0.663651,0.0200299
652831,1,-1.56777,-0.523465,-0.00176826,-2.09659,-0.00272185,1.5699,0.782161,-1.56675,-0.523867,-0.00272053,-2.09437,-0.00234029,1.57063,0.77995,0.191264,-0.00813429,-0.141548,0.00428452,-0.102381,0.00164372,-0.242357,0.289898,-0.0178293,-0.198488,0.00186893,-0.147574,-0.0102499,-0.399459,1.89027,-11.3279,-1.95245,22.0151,1.58785,2.09402,-1.13231,-0.216926,-0.559841,-0.126701,3.08853,1.10506,0.65935,-0.00146563
652832,1,-1.56753,-0.523468,-0.00194897,-2.09658,-0.00285605,1.5699,0.781856,-1.56645,-0.523885,-0.00292871,-2.09437,-0.00249314,1.57062,0.77953,0.204933,-0.0078143,-0.155935,0.00737541,-0.110728,0.000858452,-0.263928,0.303246,-0.0185552,-0.208186,0.00194503,-0.152849,-0.0106163,-0.419351,1.79109,-11.4032,-1.95245,21.9873,1.61623,2.10043,-1.22295,-0.196008,-0.580029,-0.128892,3.08606,1.09967,0.6543,-0.0233401
652833,1,-1.56727,-0.523474,-0.00213239,-2.09657,-0.00298545,1.5699,0.781527,-1.56613,-0.523904,-0.0031466,-2.09436,-0.00265127,1.57061,0.779091,0.227342,-0.00501543,-0.161507,0.00887337,-0.114787,0.00080966,-0.281406,0.316594,-0.0192811,-0.217884,0.00202112,-0.158125,-0.0109828,-0.439243,1.73951,-11.4548,-2.0794,21.9873,1.58235,2.09402,-1.27422,-0.173239,-0.599567,-0.129056,3.07997,1.09433,0.648611,-0.0456721
652834,1,-1.56701,-0.523482,-0.00232653,-2.09657,-0.00311936,1.5699,0.781177,-1.5658,-0.523924,-0.00337418,-2.09436,-0.00281467,1.5706,0.778632,0.23722,-0.00608766,-0.171436,0.00548854,-0.118008,0.00101449,-0.301006,0.329941,-0.020007,-0.227581,0.00209721,-0.163401,-0.0113492,-0.459135,1.76332,-11.5024,-2.23016,22.0389,1.55397,2.0812,-1.28063,-0.153521,-0.623254,-0.133337,3.07382,1.08885,0.642643,-0.0685512
652835,1,-1.56672,-0.523486,-0.00253752,-2.09656,-0.00326351,1.5699,0.780797,-1.56546,-0.523945,-0.00361146,-2.09436,-0.00298335,1.57059,0.778153,0.248517,-0.00247322,-0.18261,0.00757057,-0.125765,0.00115105,-0.323766,0.343289,-0.0207329,-0.237279,0.0021733,-0.168677,-0.0117157,-0.479027,1.66413,-11.6056,-2.23016,22.0389,1.54848,2.06838,-1.33922,-0.135704,-0.655007,-0.14038,3.0713,1.08335,0.636808,-0.092052
652836,1,-1.56643,-0.52349,-0.00274446,-2.09655,-0.00341342,1.5699,0.780399,-1.5651,-0.523967,-0.00385843,-2.09436,-0.0031573,1.57058,0.777654,0.261397,-0.00363972,-0.189365,0.00857338,-0.13186,0.00124208,-0.349465,0.356637,-0.0214588,-0.246977,0.0022494,-0.173953,-0.0120821,-0.498919,1.71571,-11.6809,-2.40869,22.0627,1.54299,2.05557,-1.41063,-0.116476,-0.695517,-0.14598,3.07284,1.07798,0.631149,-0.116189
652837,1,-1.56611,-0.523498,-0.00296405,-2.09654,-0.00356726,1.5699,0.779988,-1.56473,-0.523989,-0.0041154,-2.09436,-0.00333649,1.57056,0.777135,0.274011,-0.00569465,-0.196846,0.0112621,-0.139739,-0.000121381,-0.368076,0.371228,-0.0222324,-0.256967,0.00233049,-0.179187,-0.0124456,-0.518909,1.71571,-11.7047,-2.50787,22.0151,1.49812,2.0812,-1.49486,-0.0970992,-0.738629,-0.152362,3.075,1.07263,0.625373,-0.140953
652838,1,-1.56579,-0.523504,-0.0032,-2.09654,-0.00373841,1.5699,0.779528,-1.56435,-0.524012,-0.00438236,-2.09435,-0.00352091,1.57055,0.776596,0.296474,-0.00969193,-0.209756,0.00730876,-0.148336,0.000156438,-0.392583,0.385819,-0.023006,-0.266957,0.00241158,-0.184421,-0.0128092,-0.538899,1.73951,-11.7563,-2.55945,22.0627,1.52651,2.07479,-1.40423,-0.0801507,-0.775848,-0.162852,3.07466,1.06709,0.619325,-0.16637
652839,1,-1.56544,-0.523516,-0.00345456,-2.09653,-0.00391448,1.5699,0.779049,-1.56395,-0.524036,-0.00465931,-2.09435,-0.00371056,1.57054,0.776037,0.312098,-0.00758857,-0.220052,0.00490863,-0.159052,0.000816369,-0.421667,0.40041,-0.0237796,-0.276947,0.00249267,-0.189655,-0.0131727,-0.558889,1.64033,-11.7563,-2.55945,22.0905,1.54299,2.05557,-1.34563,-0.0672446,-0.80721,-0.178588,3.074,1.06135,0.613335,-0.192414
652840,1,-1.5651,-0.523526,-0.0037003,-2.09653,-0.00409777,1.5699,0.778555,-1.56353,-0.52406,-0.00494624,-2.09435,-0.00390545,1.57052,0.775459,0.320732,-0.00905758,-0.226428,0.00322991,-0.16241,0.00105287,-0.445302,0.415002,-0.0245532,-0.286937,0.00257376,-0.194889,-0.0135363,-0.578879,1.79109,-11.7563,-2.63482,22.1143,1.57686,2.04183,-1.30718,-0.0575655,-0.839074,-0.198543,3.07729,1.05558,0.607816,-0.218909
652841,1,-1.56472,-0.523531,-0.00396721,-2.09652,-0.00427585,1.5699,0.778032,-1.5631,-0.524086,-0.00524317,-2.09435,-0.00410557,1.57051,0.77486,0.342149,-0.00452239,-0.239016,0.00374543,-0.172411,0.000193288,-0.463824,0.429593,-0.0253268,-0.296927,0.00265486,-0.200123,-0.0138998,-0.598869,1.79109,-11.8595,-2.63482,22.0627,1.57686,2.05557,-1.26781,-0.0498044,-0.876924,-0.221536,3.08651,1.04989,0.602875,-0.24559
652842,1,-1.56434,-0.523538,-0.00424849,-2.09651,-0.00446107,1.5699,0.777491,-1.56266,-0.524112,-0.00555009,-2.09434,-0.00431093,1.5705,0.774241,0.352079,-0.00573072,-0.247602,0.0079126,-0.171818,-0.0001085,-0.486704,0.444184,-0.0261004,-0.306917,0.00273595,-0.205358,-0.0142634,-0.618859,1.84266,-11.9071,-2.53564,21.9873,1.58785,2.06198,-1.20373,-0.0434319,-0.922566,-0.246646,3.10027,1.04429,0.598282,-0.272184
652843,1,-1.56394,-0.523546,-0.00452298,-2.0965,-0.00464586,1.5699,0.776912,-1.5622,-0.524139,-0.00586699,-2.09434,-0.00452152,1.57048,0.773602,0.37001,-0.00648845,-0.25212,0.00968348,-0.174114,0.000402385,-0.511588,0.458775,-0.026874,-0.316907,0.00281704,-0.210592,-0.0146269,-0.638849,1.94184,-11.9586,-2.50787,21.9635,1.54848,2.04916,-1.15795,-0.0392544,-0.970284,-0.275378,3.11334,1.03863,0.593535,-0.298433
652844,1,-1.56353,-0.523559,-0.00480454,-2.09649,-0.00482541,1.5699,0.776316,-1.56172,-0.524166,-0.00619389,-2.09434,-0.00473735,1.57047,0.772943,0.380041,-0.0083145,-0.261952,0.00710811,-0.175118,0.00101424,-0.536097,0.473366,-0.0276476,-0.326897,0.00289813,-0.215826,-0.0149905,-0.658839,2.04103,-11.9586,-2.58325,21.9635,1.47524,2.02902,-1.10668,-0.0387057,-1.01402,-0.310463,3.12259,1.03278,0.588434,-0.32408
652845,1,-1.56308,-0.523569,-0.0051059,-2.09648,-0.00502605,1.5699,0.7757,-1.56124,-0.524195,-0.00653078,-2.09433,-0.00495841,1.57045,0.772264,0.398549,-0.00959104,-0.276189,0.00699132,-0.182035,0.000438802,-0.555592,0.487957,-0.0284212,-0.336887,0.00297922,-0.22106,-0.015354,-0.678829,2.01722,-11.9586,-2.53564,21.8882,1.45235,2.03543,-1.16436,-0.0392159,-1.05279,-0.348065,3.12905,1.02685,0.583182,-0.34891
652846,1,-1.56264,-0.52358,-0.00542294,-2.09647,-0.00523758,1.5699,0.775064,-1.56073,-0.524224,-0.00687765,-2.09433,-0.0051847,1.57044,0.771565,0.420896,-0.00984007,-0.29177,0.00326465,-0.193305,5.51758e-05,-0.578039,0.502549,-0.0291948,-0.346877,0.00306032,-0.226294,-0.0157175,-0.698819,2.04103,-11.9825,-2.40869,21.9635,1.45235,2.04183,-1.24859,-0.0376819,-1.08839,-0.382282,3.13495,1.02096,0.578043,-0.372787
652847,1,-1.56217,-0.523594,-0.00574723,-2.09646,-0.00544745,1.56989,0.774401,-1.56022,-0.524254,-0.00723452,-2.09433,-0.00541601,1.57042,0.770847,0.429378,-0.0106192,-0.299896,0.00636578,-0.202075,-0.000234483,-0.605152,0.517539,-0.0299829,-0.356867,0.00314292,-0.23131,-0.0160659,-0.718809,2.0688,-11.9825,-2.40869,21.9397,1.46974,2.04916,-1.21654,-0.0330033,-1.12296,-0.410627,3.14163,1.01515,0.573134,-0.395709
652848,1,-1.56168,-0.523608,-0.00607199,-2.09646,-0.00566494,1.56989,0.773706,-1.55968,-0.524285,-0.00760138,-2.09432,-0.00565234,1.5704,0.770108,0.450272,-0.0112076,-0.307637,0.00361644,-0.204426,-0.00063104,-0.632242,0.532529,-0.0307709,-0.366857,0.00322553,-0.236325,-0.0164142,-0.738799,2.01722,-11.9825,-2.35711,21.9873,1.50911,2.06198,-1.19091,-0.0260995,-1.1564,-0.435176,3.1484,1.00935,0.568372,-0.417777
652849,1,-1.56119,-0.523626,-0.00641656,-2.09645,-0.00588097,1.5699,0.772998,-1.55914,-0.524316,-0.00797822,-2.09432,-0.00589368,1.57039,0.769349,0.456345,-0.0127244,-0.31959,0.0054935,-0.206595,0.00080001,-0.656026,0.547519,-0.031559,-0.376847,0.00330813,-0.24134,-0.0167626,-0.758789,2.01722,-11.9348,-2.28174,22.0151,1.54848,2.02902,-1.12591,-0.018042,-1.1878,-0.458175,3.15448,1.00349,0.563696,-0.439077
652850,1,-1.56068,-0.523635,-0.00676039,-2.09645,-0.00610492,1.5699,0.772273,-1.55857,-0.524348,-0.00836506,-2.09432,-0.00614004,1.57037,0.76857,0.470956,-0.0103317,-0.336375,0.00605005,-0.211033,0.00195749,-0.678175,0.562509,-0.032347,-0.386837,0.00339074,-0.246356,-0.0171109,-0.778779,2.11641,-12.034,-2.33331,22.0905,1.54848,1.99057,-1.19091,-0.00399449,-1.21786,-0.472668,3.15933,0.997824,0.55902,-0.459657
652851,1,-1.56015,-0.523649,-0.00712846,-2.09644,-0.0063394,1.5699,0.77153,-1.558,-0.524382,-0.00876189,-2.09431,-0.00639141,1.57035,0.767772,0.497176,-0.0104783,-0.348816,0.00474869,-0.218297,0.00225443,-0.693134,0.577499,-0.033135,-0.396827,0.00347334,-0.251371,-0.0174593,-0.798769,2.11641,-12.0578,-2.23016,22.0905,1.5201,1.96493,-1.27422,0.0178226,-1.25031,-0.474766,3.16419,0.992568,0.55434,-0.479518
652852,1,-1.55962,-0.523661,-0.00751479,-2.09643,-0.00657338,1.5699,0.770769,-1.5574,-0.524415,-0.0091687,-2.09431,-0.00664779,1.57033,0.766953,0.507223,-0.00988814,-0.359666,0.00770337,-0.219539,0.00150295,-0.711225,0.592489,-0.0339231,-0.406817,0.00355595,-0.256387,-0.0178076,-0.818759,2.14418,-12.1094,-2.05163,22.0627,1.50362,1.96493,-1.33922,0.0427996,-1.28695,-0.469934,3.17012,0.987563,0.549651,-0.498715
652853,1,-1.55905,-0.523677,-0.00789545,-2.09643,-0.00680349,1.5699,0.769974,-1.5568,-0.52445,-0.00958551,-2.09431,-0.0069092,1.57032,0.766114,0.521323,-0.0107136,-0.369974,0.00940788,-0.218974,0.00123933,-0.732713,0.607479,-0.0347111,-0.416807,0.00363855,-0.261402,-0.018156,-0.838749,2.16798,-12.1094,-1.92468,22.0627,1.45784,1.95852,-1.29436,0.0696788,-1.32489,-0.460689,3.17505,0.982671,0.544701,-0.517439
652854,1,-1.55848,-0.52369,-0.00829328,-2.09642,-0.00704168,1.5699,0.769159,-1.55617,-0.524486,-0.0100123,-2.0943,-0.00717561,1.5703,0.765255,0.541441,-0.0095496,-0.377632,0.0115533,-0.225434,0.000588859,-0.75295,0.622469,-0.0354991,-0.426797,0.00372116,-0.266417,-0.0185043,-0.858739,2.14418,-12.1848,-1.87707,22.0151,1.45784,1.96493,-1.27422,0.09658,-1.36165,-0.450369,3.17715,0.977703,0.539291,-0.535858
652855,1,-1.55788,-0.523707,-0.00871214,-2.09641,-0.00728608,1.56989,0.768327,-1.55554,-0.524522,-0.0104491,-2.0943,-0.00744704,1.57028,0.764377,0.552094,-0.0130602,-0.39694,0.00923943,-0.228929,0.000155214,-0.775535,0.637459,-0.0362872,-0.436787,0.00380376,-0.271433,-0.0188527,-0.878729,2.0688,-12.2126,-1.69854,21.9873,1.41847,1.97134,-1.20373,0.122617,-1.396,-0.439855,3.17659,0.972592,0.533482,-0.554029
652856,1,-1.55726,-0.523735,-0.00912669,-2.09641,-0.00754796,1.56989,0.767486,-1.55488,-0.524559,-0.0108959,-2.0943,-0.00772349,1.57026,0.763478,0.577885,-0.0160592,-0.403723,0.00561891,-0.237668,-0.000608601,-0.798795,0.652449,-0.0370752,-0.446777,0.00388637,-0.276448,-0.019201,-0.898719,1.94184,-12.0856,-1.69854,22.0389,1.41847,1.99057,-1.28063,0.149053,-1.42562,-0.426481,3.17473,0.967431,0.527571,-0.571913
652857,1,-1.55663,-0.523758,-0.0095499,-2.0964,-0.00780153,1.56989,0.766619,-1.55422,-0.524597,-0.0113526,-2.09429,-0.00800463,1.57024,0.762559,0.593138,-0.0162576,-0.408927,0.00656528,-0.242156,-0.000643093,-0.821318,0.667439,-0.0378512,-0.456767,0.0039677,-0.281137,-0.0195267,-0.918709,1.84266,-12.034,-1.67474,21.9397,1.36171,1.99697,-1.2614,0.169873,-1.44955,-0.418423,3.17305,0.961971,0.521815,-0.589396
652858,1,-1.55598,-0.523781,-0.0099823,-2.0964,-0.00807281,1.56989,0.765707,-1.55353,-0.524636,-0.0118194,-2.09429,-0.00829045,1.57022,0.76162,0.612701,-0.0188313,-0.416397,0.00419451,-0.249065,0.00194486,-0.845388,0.682429,-0.0386271,-0.466757,0.00404904,-0.285825,-0.0198523,-0.938699,1.76332,-12.0102,-1.67474,21.9635,1.41298,1.93289,-1.17718,0.178627,-1.46874,-0.42527,3.17199,0.955894,0.51624,-0.606418
652859,1,-1.55533,-0.523801,-0.0104383,-2.0964,-0.00834152,1.56989,0.76479,-1.55284,-0.524675,-0.0122961,-2.09428,-0.00858097,1.5702,0.760662,0.625846,-0.0196534,-0.430405,0.00187076,-0.256151,0.00248337,-0.864257,0.697419,-0.0394031,-0.476747,0.00413038,-0.290514,-0.020178,-0.958689,1.64033,-12.034,-1.57159,22.0151,1.42397,1.90084,-1.21013,0.177023,-1.48443,-0.444597,3.17209,0.949291,0.510876,-0.622962
652860,1,-1.55465,-0.52382,-0.0108947,-2.0964,-0.00862122,1.56989,0.763855,-1.55212,-0.524715,-0.0127829,-2.09428,-0.00887617,1.57018,0.759683,0.628344,-0.0160791,-0.432713,0.00210742,-0.262375,-0.00234064,-0.889536,0.712409,-0.040179,-0.486737,0.00421172,-0.295202,-0.0205036,-0.978679,1.61256,-12.1094,-1.57159,21.9873,1.41298,1.8688,-1.10027,0.172059,-1.50214,-0.467053,3.17579,0.94259,0.505888,-0.638983
652861,1,-1.55395,-0.523845,-0.0113621,-2.09639,-0.00891177,1.56988,0.762901,-1.5514,-0.524756,-0.0132796,-2.09427,-0.00917606,1.57016,0.758684,0.646828,-0.0184893,-0.447071,0.00267655,-0.271529,-0.0022297,-0.902079,0.727399,-0.0409549,-0.496727,0.00429306,-0.299891,-0.0208293,-0.998669,1.53718,-12.1094,-1.42083,21.9397,1.40199,1.87521,-1.07372,0.169096,-1.52658,-0.485979,3.18412,0.936123,0.501261,-0.654416
652862,1,-1.55326,-0.523867,-0.0118455,-2.09638,-0.00919245,1.56988,0.761932,-1.55065,-0.524798,-0.0137863,-2.09427,-0.00948064,1.57014,0.757666,0.660012,-0.0220776,-0.455536,0.00728476,-0.273738,-0.00252248,-0.941175,0.742389,-0.0417309,-0.506717,0.00437439,-0.304579,-0.0211549,-1.01866,1.64033,-12.161,-1.31769,21.8644,1.3846,1.89443,-1.03527,0.168909,-1.55092,-0.499443,3.1919,0.929852,0.496438,-0.669154
652863,1,-1.55255,-0.523893,-0.0123269,-2.09638,-0.0094816,1.56988,0.760912,-1.5499,-0.52484,-0.014303,-2.09427,-0.00978991,1.57012,0.756627,0.672266,-0.0230395,-0.46244,0.0040405,-0.275416,-0.00239933,-0.963114,0.757379,-0.0425068,-0.516707,0.00445573,-0.309268,-0.0214806,-1.03865,1.79109,-12.161,-1.24231,21.9159,1.3846,1.90725,-0.906179,0.170139,-1.56685,-0.508652,3.194,0.923599,0.490955,-0.68307
652864,1,-1.55182,-0.523926,-0.012829,-2.09638,-0.00977358,1.56987,0.759888,-1.54913,-0.524884,-0.0148297,-2.09426,-0.0101039,1.57009,0.755568,0.701774,-0.0259758,-0.47175,0.00748458,-0.288579,-0.00201913,-0.978135,0.772369,-0.0432828,-0.526697,0.00453707,-0.313957,-0.0218062,-1.05864,1.86647,-12.0578,-1.11535,21.8644,1.36171,1.91366,-0.983084,0.167942,-1.57356,-0.520082,3.19035,0.917112,0.484846,-0.696007
652865,1,-1.55108,-0.523959,-0.0133551,-2.09638,-0.0100701,1.56987,0.758851,-1.54834,-0.524928,-0.0153664,-2.09426,-0.0104225,1.57007,0.75449,0.713411,-0.0302911,-0.488867,0.00260677,-0.289788,0.000450035,-1.00187,0.787359,-0.0440587,-0.536687,0.00461841,-0.318645,-0.0221319,-1.07863,1.94184,-11.9825,-0.940793,21.9873,1.30586,1.86148,-1.01604,0.159706,-1.57018,-0.536183,3.18137,0.910262,0.47821,-0.707842
652866,1,-1.55031,-0.523989,-0.0138966,-2.09638,-0.0103729,1.56987,0.757794,-1.54754,-0.524972,-0.0159131,-2.09425,-0.0107458,1.57005,0.753391,0.730191,-0.0324097,-0.509213,0.00377872,-0.292807,0.000672245,-1.02283,0.802349,-0.0448347,-0.546677,0.00469975,-0.323334,-0.0224575,-1.09862,1.96565,-11.9586,-0.734494,21.9159,1.31136,1.84866,-1.15154,0.153444,-1.55631,-0.544645,3.16792,0.903383,0.47123,-0.718654
652867,1,-1.54955,-0.524019,-0.0144429,-2.09638,-0.0106768,1.56987,0.756704,-1.54672,-0.525018,-0.0164698,-2.09425,-0.0110735,1.57003,0.752273,0.744679,-0.030353,-0.51849,0.00560912,-0.295853,0.00108337,-1.04074,0.817021,-0.0455774,-0.556667,0.0047776,-0.32763,-0.0227559,-1.11861,2.14418,-11.9586,-0.583737,21.9397,1.32784,1.82943,-1.2614,0.156617,-1.53646,-0.534814,3.1517,0.896742,0.46402,-0.72868
652868,1,-1.54876,-0.524047,-0.014999,-2.09637,-0.0109935,1.56986,0.755591,-1.54589,-0.525064,-0.0170364,-2.09424,-0.0114054,1.57,0.751134,0.755758,-0.0283291,-0.541412,0.00599177,-0.298857,0.00161403,-1.05778,0.831693,-0.0463202,-0.566657,0.00485546,-0.331926,-0.0230543,-1.1386,2.29493,-11.9825,-0.456784,21.8644,1.37361,1.8038,-1.19091,0.172019,-1.51953,-0.503303,3.13536,0.890441,0.45665,-0.738253
652869,1,-1.54796,-0.524082,-0.0155727,-2.09637,-0.0113255,1.56986,0.75446,-1.54504,-0.525111,-0.0176131,-2.09424,-0.0117416,1.56998,0.749975,0.784546,-0.0316364,-0.548137,0.00380454,-0.306562,-0.000154017,-1.0727,0.846365,-0.0470629,-0.576647,0.00493332,-0.336222,-0.0233527,-1.15859,2.37031,-11.9348,-0.254453,21.8882,1.44136,1.83584,-1.2614,0.198571,-1.51098,-0.451935,3.12175,0.884504,0.449315,-0.747682
652870,1,-1.54715,-0.524115,-0.0161429,-2.09636,-0.0116495,1.56985,0.75332,-1.54418,-0.525159,-0.0181997,-2.09423,-0.0120821,1.56996,0.748797,0.791889,-0.0330389,-0.550715,0.00700431,-0.311226,-0.00376777,-1.08972,0.861037,-0.0478057,-0.586637,0.00501117,-0.340518,-0.0236511,-1.17858,2.46949,-11.9348,-0.282224,21.8644,1.48622,1.79098,-1.23577,0.226359,-1.50703,-0.396197,3.11019,0.878569,0.442021,-0.757092
652871,1,-1.54633,-0.524152,-0.0167277,-2.09637,-0.0119713,1.56986,0.752149,-1.5433,-0.525208,-0.0187963,-2.09423,-0.012427,1.56993,0.747598,0.803723,-0.0353159,-0.563556,0.00341565,-0.311571,-0.00531657,-1.09549,0.875709,-0.0485484,-0.596627,0.00508903,-0.344814,-0.0239494,-1.19857,2.59645,-11.8833,-0.282224,21.9397,1.46974,1.71408,-1.24218,0.250756,-1.50295,-0.345517,3.09904,0.872542,0.434713,-0.766568
652872,1,-1.54549,-0.524188,-0.0173422,-2.09637,-0.0123009,1.56986,0.750962,-1.54241,-0.525257,-0.0194029,-2.09422,-0.0127761,1.56991,0.74638,0.817411,-0.0362056,-0.572969,0.000895874,-0.325998,-0.00144358,-1.11163,0.89038,-0.0492911,-0.606617,0.00516689,-0.34911,-0.0242478,-1.21856,2.59645,-11.8595,-0.254453,22.0151,1.48073,1.63626,-1.28795,0.275654,-1.49954,-0.295934,3.08993,0.866809,0.427535,-0.776186
652873,1,-1.54462,-0.524217,-0.0179529,-2.09636,-0.01264,1.56985,0.749763,-1.54151,-0.525307,-0.0200195,-2.09422,-0.0131295,1.56988,0.745141,0.82855,-0.0346605,-0.583103,0.00601449,-0.326975,-0.0058909,-1.13896,0.905052,-0.0500339,-0.616607,0.00524474,-0.353406,-0.0245462,-1.23855,2.54884,-11.9348,-0.381406,21.9397,1.41847,1.61062,-1.21013,0.303205,-1.49948,-0.244864,3.08405,0.86163,0.420384,-0.785957
652874,1,-1.54374,-0.524254,-0.0185634,-2.09637,-0.012986,1.56984,0.74854,-1.54059,-0.525358,-0.0206461,-2.09421,-0.0134872,1.56986,0.743883,0.856527,-0.0353594,-0.588657,0.00339154,-0.328875,-0.0120603,-1.15855,0.919724,-0.0507766,-0.626597,0.0053226,-0.357702,-0.0248446,-1.25854,2.57264,-11.9348,-0.484555,21.9873,1.39559,1.6683,-1.19732,0.329287,-1.50449,-0.197978,3.08079,0.856765,0.413026,-0.795826
652875,1,-1.54285,-0.52429,-0.01919,-2.09636,-0.0133331,1.56983,0.747314,-1.53965,-0.525409,-0.0212827,-2.09421,-0.0138492,1.56983,0.742604,0.870299,-0.0359665,-0.596105,0.00430309,-0.335342,-0.0157735,-1.20129,0.934396,-0.0515194,-0.636587,0.00540046,-0.361998,-0.025143,-1.27853,2.34651,-11.9348,-0.532163,21.9159,1.37361,1.70767,-1.16436,0.345836,-1.51531,-0.166104,3.08084,0.851736,0.405549,-0.805644
652876,1,-1.54194,-0.524331,-0.0198078,-2.09636,-0.0136989,1.56982,0.746057,-1.5387,-0.525462,-0.0219293,-2.0942,-0.0142155,1.56981,0.741306,0.877612,-0.037563,-0.602422,0.00491069,-0.345072,-0.0166953,-1.21352,0.949068,-0.0522621,-0.646577,0.00547831,-0.366294,-0.0254414,-1.29852,2.31874,-11.8833,-0.762265,21.8405,1.37361,1.70126,-1.13872,0.352759,-1.52991,-0.150063,3.08351,0.846485,0.397982,-0.815269
652877,1,-1.54102,-0.524373,-0.0204538,-2.09636,-0.0140516,1.56981,0.744758,-1.53774,-0.525515,-0.0225859,-2.0942,-0.0145856,1.56978,0.739988,0.896232,-0.0379123,-0.609005,0.00236921,-0.353916,-0.0169339,-1.22956,0.962976,-0.0529549,-0.656567,0.00555093,-0.370157,-0.0257097,-1.31784,2.24336,-11.8595,-0.913022,21.8882,1.32234,1.68203,-0.970266,0.354276,-1.54627,-0.144855,3.08771,0.841174,0.390299,-0.824613
652878,1,-1.54009,-0.524418,-0.0211139,-2.09636,-0.0144221,1.5698,0.74347,-1.53677,-0.525568,-0.0232524,-2.09419,-0.0149596,1.56976,0.738651,0.895999,-0.0396314,-0.626129,0.00229307,-0.357777,-0.0162308,-1.24077,0.976884,-0.0536476,-0.666557,0.00562355,-0.37402,-0.025978,-1.33716,2.21955,-11.7801,-0.940793,21.8644,1.39559,1.63626,-0.87322,0.356298,-1.56446,-0.142044,3.09382,0.836038,0.382613,-0.833562
652879,1,-1.53915,-0.52446,-0.0217686,-2.09636,-0.0147947,1.56979,0.742144,-1.53577,-0.525623,-0.023929,-2.09418,-0.0153375,1.56973,0.737294,0.901506,-0.0394903,-0.634772,0.00108948,-0.36216,-0.0158486,-1.25598,0.990792,-0.0543404,-0.676547,0.00569617,-0.377883,-0.0262464,-1.35649,2.27113,-11.7563,-1.03998,21.8882,1.39009,1.5914,-0.7954,0.37016,-1.58428,-0.125687,3.1015,0.83155,0.374939,-0.841936
652880,1,-1.5382,-0.524505,-0.0224372,-2.09636,-0.0151703,1.56978,0.740831,-1.53477,-0.525678,-0.0246155,-2.09418,-0.0157193,1.5697,0.735918,0.919616,-0.043202,-0.637764,-0.000391914,-0.366447,-0.0114261,-1.28121,1.0047,-0.0550331,-0.686537,0.00576879,-0.381747,-0.0265147,-1.37581,2.29493,-11.7047,-1.09155,21.9397,1.40749,1.57217,-1.06731,0.39656,-1.60414,-0.095157,3.10987,0.827742,0.36715,-0.849442
652881,1,-1.53721,-0.524544,-0.0231245,-2.09636,-0.0155424,1.56978,0.739493,-1.53375,-0.525733,-0.025312,-2.09417,-0.0161049,1.56968,0.734523,0.934771,-0.044129,-0.668642,0.00313903,-0.365638,-0.00990614,-1.30178,1.01861,-0.0557259,-0.696527,0.0058414,-0.38561,-0.026783,-1.39513,2.24336,-11.7325,-0.988401,21.9397,1.33425,1.46231,-1.17077,0.430717,-1.61976,-0.0555326,3.11625,0.824357,0.358898,-0.855955
652882,1,-1.53622,-0.524579,-0.0238124,-2.09636,-0.0159318,1.56977,0.738113,-1.53272,-0.52579,-0.0260186,-2.09417,-0.0164944,1.56965,0.733109,0.962977,-0.0399828,-0.672621,0.00242014,-0.373457,-0.00972215,-1.3256,1.03251,-0.0564186,-0.706517,0.00591402,-0.389473,-0.0270514,-1.41445,2.27113,-11.8317,-1.06378,21.9397,1.33974,1.37258,-1.17077,0.471277,-1.63267,-0.00535927,3.11982,0.821277,0.349955,-0.861722
652883,1,-1.53524,-0.524624,-0.024516,-2.09635,-0.0163197,1.56975,0.736738,-1.53167,-0.525847,-0.0267351,-2.09416,-0.0168877,1.56962,0.731675,0.958945,-0.0429072,-0.68049,0.00362226,-0.374132,-0.0128322,-1.34348,1.04642,-0.0571114,-0.716507,0.00598664,-0.393337,-0.0273197,-1.43377,2.39412,-11.8079,-1.03998,21.8644,1.33425,1.36618,-1.21013,0.512977,-1.64895,0.0480576,3.12319,0.818241,0.340379,-0.867083
652884,1,-1.53423,-0.524674,-0.0252247,-2.09635,-0.016713,1.56973,0.735311,-1.53061,-0.525905,-0.0274616,-2.09415,-0.0172849,1.56959,0.730222,0.971119,-0.0434084,-0.693101,0.00371265,-0.375678,-0.0178337,-1.36199,1.06033,-0.0578042,-0.726497,0.00605926,-0.3972,-0.027588,-1.4531,2.42189,-11.7325,-1.01617,21.8167,1.37911,1.43667,-1.11309,0.556942,-1.66725,0.103584,3.12637,0.815246,0.330163,-0.872337
652885,1,-1.53321,-0.52473,-0.0259535,-2.09635,-0.0171088,1.5697,0.733876,-1.52954,-0.525963,-0.0281981,-2.09415,-0.017686,1.56957,0.728749,0.985801,-0.0478901,-0.708134,0.00149962,-0.383929,-0.0196445,-1.3724,1.07424,-0.0584969,-0.736487,0.00613187,-0.401063,-0.0278563,-1.47242,2.37031,-11.6056,-0.940793,21.8644,1.47524,1.60421,-1.15795,0.607488,-1.683,0.166708,3.12826,0.812468,0.319368,-0.877677
652886,1,-1.53218,-0.524784,-0.0266848,-2.09635,-0.0175132,1.56968,0.732435,-1.52845,-0.526022,-0.0289445,-2.09414,-0.0180909,1.56954,0.727258,0.996301,-0.0511373,-0.71602,0.00110336,-0.386656,-0.0205049,-1.38322,1.08815,-0.0591897,-0.746477,0.00620449,-0.404927,-0.0281247,-1.49174,2.44569,-11.4786,-1.09155,21.8644,1.48622,1.62985,-1.10668,0.663351,-1.69181,0.236316,3.12821,0.809937,0.308199,-0.883132
652887,1,-1.53111,-0.524832,-0.0274036,-2.09636,-0.0179168,1.56967,0.730955,-1.52735,-0.526082,-0.029701,-2.09414,-0.0184992,1.56951,0.725748,1.02377,-0.0466756,-0.714422,-0.000393148,-0.387796,-0.0161968,-1.41011,1.10094,-0.0598192,-0.756467,0.00627048,-0.408333,-0.0283613,-1.50943,2.19575,-11.5024,-1.29388,21.9159,1.46425,1.5209,-1.04168,0.714767,-1.69588,0.29844,3.12765,0.807378,0.296984,-0.888616
652888,1,-1.53002,-0.524882,-0.0281413,-2.09636,-0.0183181,1.56966,0.729505,-1.52623,-0.526143,-0.0304675,-2.09413,-0.0189109,1.56948,0.724221,1.04485,-0.0472621,-0.71584,-0.000203819,-0.393402,-0.0158514,-1.42414,1.11373,-0.0604487,-0.766457,0.00633646,-0.411739,-0.0285979,-1.52712,1.76332,-11.5024,-1.52002,21.9159,1.44136,1.47512,-1.21013,0.744632,-1.70485,0.328736,3.13073,0.804169,0.286067,-0.893927
652889,1,-1.52891,-0.524925,-0.0288583,-2.09635,-0.0187264,1.56965,0.728001,-1.52511,-0.526204,-0.0312439,-2.09412,-0.0193261,1.56945,0.722676,1.05873,-0.0429447,-0.710432,0.00111426,-0.393956,-0.0151183,-1.44528,1.12652,-0.0610782,-0.776447,0.00640245,-0.415146,-0.0288344,-1.54482,1.38642,-11.5778,-1.92468,21.8644,1.34523,1.41745,-1.22936,0.742578,-1.72445,0.312015,3.13929,0.799889,0.275477,-0.898932
652890,1,-1.5278,-0.524979,-0.0295995,-2.09635,-0.0191276,1.56962,0.726484,-1.52397,-0.526265,-0.0320303,-2.09412,-0.0197446,1.56942,0.721114,1.06729,-0.0464527,-0.713926,0.00133243,-0.392383,-0.0195506,-1.45865,1.13931,-0.0617077,-0.786437,0.00646844,-0.418552,-0.029071,-1.56251,1.08491,-11.5024,-2.28174,21.8405,1.28298,1.48794,-1.32641,0.710073,-1.75383,0.24926,3.15212,0.794522,0.265043,-0.90374
652891,1,-1.52667,-0.525029,-0.0303516,-2.09634,-0.0195354,1.5696,0.724957,-1.52282,-0.526328,-0.0328268,-2.09411,-0.0201666,1.56939,0.719534,1.07594,-0.044084,-0.717599,0.0021193,-0.396292,-0.0210364,-1.47756,1.1521,-0.0623372,-0.796427,0.00653442,-0.421958,-0.0293076,-1.5802,0.831005,-11.5024,-2.61102,21.789,1.22621,1.5209,-1.31359,0.656709,-1.78842,0.153715,3.16687,0.788338,0.254653,-0.908596
652892,1,-1.52552,-0.525085,-0.0311009,-2.09634,-0.0199585,1.5696,0.723366,-1.52165,-0.526391,-0.0336332,-2.0941,-0.020592,1.56937,0.717936,1.10601,-0.0472706,-0.726725,0.00143131,-0.400282,-0.0176603,-1.50962,1.16489,-0.0629667,-0.806417,0.00660041,-0.425364,-0.0295442,-1.59789,0.628673,-11.427,-2.96411,21.789,1.20333,1.43667,-0.970266,0.589227,-1.82463,0.0367207,3.18188,0.781493,0.244277,-0.913706
652893,1,-1.52437,-0.52514,-0.0318883,-2.09635,-0.0203841,1.56957,0.72179,-1.52047,-0.526454,-0.0344496,-2.0941,-0.0210207,1.56934,0.71632,1.11567,-0.0483213,-0.737616,-0.000238391,-0.410647,-0.0196883,-1.53386,1.17768,-0.0635962,-0.816407,0.0066664,-0.428771,-0.0297808,-1.61558,0.378734,-11.4032,-3.03949,21.8405,1.25459,1.46871,-0.7954,0.510505,-1.85915,-0.0947299,3.19621,0.774036,0.233918,-0.919014
652894,1,-1.5232,-0.525203,-0.0326699,-2.09635,-0.0208123,1.56955,0.720179,-1.51928,-0.526519,-0.035276,-2.09409,-0.0214529,1.56931,0.714687,1.13379,-0.0547449,-0.749607,-0.000705367,-0.415356,-0.0216583,-1.55127,1.19047,-0.0642257,-0.826397,0.00673238,-0.432177,-0.0300174,-1.63328,0.200207,-11.2763,-3.16644,21.8644,1.26009,1.51449,-0.659902,0.428128,-1.88604,-0.228359,3.20816,0.766287,0.223571,-0.924132
652895,1,-1.52205,-0.525263,-0.0334726,-2.09635,-0.02124,1.56952,0.718562,-1.51808,-0.526583,-0.0361124,-2.09408,-0.0218885,1.56928,0.713036,1.15219,-0.0542993,-0.76033,0.00162979,-0.421407,-0.0261421,-1.5734,1.20326,-0.0648552,-0.836387,0.00679837,-0.435583,-0.030254,-1.65097,0.350963,-11.2247,-3.19421,21.9159,1.23812,1.64266,-0.788992,0.347804,-1.89995,-0.355204,3.21527,0.758495,0.213154,-0.928523
652896,1,-1.52086,-0.525313,-0.0342892,-2.09634,-0.0216742,1.56949,0.716946,-1.51686,-0.526649,-0.0369587,-2.09408,-0.0223275,1.56924,0.711367,1.15498,-0.0542818,-0.777616,0.00489373,-0.424115,-0.0293588,-1.58373,1.21605,-0.0654847,-0.846377,0.00686436,-0.438989,-0.0304905,-1.66866,0.402538,-11.3001,-3.09106,21.7652,1.23812,1.63626,-0.918997,0.275331,-1.90225,-0.466649,3.21661,0.750918,0.202691,-0.931827
652897,1,-1.51965,-0.525369,-0.035093,-2.09633,-0.0221067,1.56948,0.715269,-1.51564,-0.526715,-0.0378149,-2.09407,-0.0227694,1.56921,0.709683,1.16751,-0.0524928,-0.782538,0.00763444,-0.428266,-0.0280192,-1.60597,1.22744,-0.0660405,-0.856164,0.00692262,-0.441924,-0.0306943,-1.68415,0.402538,-11.3279,-3.19421,21.7414,1.18135,1.52731,-0.87322,0.218199,-1.89874,-0.553288,3.21286,0.743909,0.192309,-0.934056
652898,1,-1.51843,-0.525426,-0.0359255,-2.09633,-0.0225424,1.56946,0.713609,-1.5144,-0.526782,-0.0386809,-2.09406,-0.0232143,1.56918,0.707983,1.1834,-0.051355,-0.793727,0.00610473,-0.434076,-0.0265692,-1.65418,1.23884,-0.0665963,-0.865951,0.00698088,-0.444858,-0.0308982,-1.69964,0.32716,-11.3517,-3.16644,21.7176,1.16945,1.53372,-0.925405,0.174562,-1.89623,-0.619016,3.20669,0.737445,0.182185,-0.935379
652899,1,-1.51719,-0.525489,-0.0367653,-2.09633,-0.0229904,1.56944,0.711912,-1.51315,-0.526849,-0.0395566,-2.09406,-0.0236621,1.56915,0.706268,1.18565,-0.0560595,-0.802793,0.0027431,-0.434895,-0.0249304,-1.65996,1.25023,-0.0671521,-0.875738,0.00703914,-0.447792,-0.031102,-1.71512,0.303356,-11.2763,-3.03949,21.789,1.21523,1.52731,-1.00323,0.141251,-1.89792,-0.669187,3.20143,0.73145,0.172556,-0.935975
652900,1,-1.51594,-0.525554,-0.0376244,-2.09633,-0.0234567,1.56941,0.710184,-1.51189,-0.526916,-0.0404421,-2.09405,-0.0241128,1.56912,0.704538,1.21559,-0.0592481,-0.817294,0.000880098,-0.44331,-0.0295209,-1.68175,1.26163,-0.0677079,-0.885525,0.00709741,-0.450727,-0.0313058,-1.73061,0.529491,-11.2009,-2.9403,21.8405,1.32234,1.54013,-1.06731,0.117071,-1.89935,-0.705408,3.19774,0.725856,0.163555,-0.936089
652901,1,-1.51473,-0.525618,-0.0384942,-2.09633,-0.0239122,1.56939,0.708484,-1.51061,-0.526985,-0.0413374,-2.09404,-0.0245665,1.56909,0.702792,1.20782,-0.0607833,-0.82709,-0.00033355,-0.449473,-0.0258869,-1.68144,1.27302,-0.0682637,-0.895313,0.00715567,-0.453661,-0.0315096,-1.7461,0.906383,-11.1493,-2.91253,21.8882,1.44136,1.50167,-1.18358,0.101152,-1.89675,-0.728467,3.19519,0.720678,0.155174,-0.936021
652902,1,-1.51348,-0.52568,-0.039381,-2.09633,-0.0243676,1.56937,0.706739,-1.50933,-0.527054,-0.0422425,-2.09403,-0.025023,1.56906,0.70103,1.21293,-0.0609639,-0.842593,0.00405777,-0.450932,-0.0199326,-1.69399,1.28442,-0.0688195,-0.9051,0.00721393,-0.456595,-0.0317134,-1.76159,1.16029,-11.1493,-2.6864,21.8644,1.50911,1.37258,-1.14513,0.101294,-1.88958,-0.729096,3.19203,0.716444,0.147066,-0.936149
652903,1,-1.51223,-0.525736,-0.0402894,-2.09633,-0.0248136,1.56935,0.70494,-1.50803,-0.527123,-0.0431574,-2.09403,-0.0254826,1.56903,0.699253,1.22404,-0.0599614,-0.852854,0.00190571,-0.451635,-0.0205967,-1.70333,1.29582,-0.0693753,-0.914887,0.00727219,-0.45953,-0.0319172,-1.77707,1.21186,-11.2009,-2.40869,21.9159,1.41847,1.37258,-0.847585,0.122754,-1.88009,-0.701513,3.18705,0.713586,0.138819,-0.936793
652904,1,-1.51096,-0.5258,-0.0411932,-2.09632,-0.025275,1.56931,0.703206,-1.50673,-0.527193,-0.0440821,-2.09402,-0.025945,1.56899,0.69746,1.22708,-0.0587064,-0.881916,0.00389573,-0.451325,-0.0198025,-1.709,1.30721,-0.0699311,-0.924674,0.00733045,-0.462464,-0.032121,-1.79256,1.36262,-11.1493,-2.25396,21.8167,1.41298,1.48153,-0.925405,0.167105,-1.87412,-0.642754,3.18253,0.712326,0.130433,-0.937984
652905,1,-1.50967,-0.525858,-0.0421209,-2.09632,-0.0257303,1.56929,0.701425,-1.50541,-0.527263,-0.0450166,-2.09401,-0.0264104,1.56896,0.695652,1.25595,-0.0594792,-0.896535,0.0045893,-0.453002,-0.0193793,-1.72373,1.31861,-0.070487,-0.934461,0.00738871,-0.465398,-0.0323248,-1.80805,1.48561,-11.1493,-2.0794,21.7414,1.33425,1.46871,-0.989492,0.235052,-1.87462,-0.549426,3.17964,0.712664,0.121965,-0.939472
652906,1,-1.50842,-0.52592,-0.0430667,-2.09632,-0.0261998,1.56926,0.699665,-1.50408,-0.527334,-0.0459608,-2.094,-0.0268788,1.56893,0.693829,1.25416,-0.0608694,-0.910207,0.00146798,-0.456728,-0.0244965,-1.73481,1.33,-0.0710428,-0.944248,0.00744698,-0.468333,-0.0325286,-1.82353,1.79109,-11.1255,-2.02783,21.8167,1.43587,1.46231,-1.15795,0.319415,-1.88046,-0.430525,3.17856,0.714138,0.113582,-0.941017
652907,1,-1.50711,-0.525988,-0.0440101,-2.09631,-0.0266676,1.56924,0.697833,-1.50274,-0.527406,-0.046914,-2.094,-0.0273496,1.5689,0.691992,1.26794,-0.0635914,-0.926247,0.00795093,-0.455898,-0.0218674,-1.74743,1.33978,-0.0715167,-0.95322,0.00749666,-0.470786,-0.032699,-1.83649,1.71571,-11.0224,-1.92468,21.666,1.48073,1.41745,-1.04809,0.416018,-1.88682,-0.293571,3.17758,0.716407,0.105326,-0.942641
652908,1,-1.50578,-0.526057,-0.0449537,-2.09631,-0.0271268,1.56921,0.69596,-1.50139,-0.527478,-0.0478762,-2.09399,-0.0278228,1.56886,0.690143,1.28024,-0.0653128,-0.926542,0.00567361,-0.469114,-0.0216895,-1.77782,1.34957,-0.0719907,-0.962191,0.00754634,-0.47324,-0.0328694,-1.84944,1.16029,-10.9232,-2.15478,21.666,1.43587,1.41745,-0.67272,0.518865,-1.88703,-0.149094,3.17263,0.719128,0.0968078,-0.944441
652909,1,-1.50439,-0.526129,-0.0459044,-2.09631,-0.0275979,1.56917,0.694126,-1.50003,-0.52755,-0.0488474,-2.09398,-0.0282985,1.56883,0.68828,1.30692,-0.0677904,-0.926236,0.00711774,-0.464507,-0.0282186,-1.80431,1.35935,-0.0724647,-0.971163,0.00759603,-0.475693,-0.0330398,-1.86239,0.200207,-10.7724,-2.4563,21.6898,1.43587,1.5978,-0.562856,0.609434,-1.87955,-0.0245079,3.16364,0.721518,0.0879535,-0.946152
652910,1,-1.50301,-0.526205,-0.0468361,-2.0963,-0.0280732,1.56913,0.692276,-1.49866,-0.527623,-0.0498275,-2.09397,-0.0287766,1.5688,0.686405,1.31857,-0.0701212,-0.922242,0.00636962,-0.466412,-0.0337824,-1.80768,1.36914,-0.0729387,-0.980134,0.00764571,-0.478147,-0.0332103,-1.87534,-0.252064,-10.5939,-2.96411,21.6422,1.45235,1.67471,-0.62145,0.668695,-1.86517,0.0532447,3.1525,0.722683,0.0790751,-0.947175
652911,1,-1.50168,-0.526272,-0.0477852,-2.0963,-0.0285456,1.5691,0.690432,-1.49728,-0.527697,-0.0508166,-2.09397,-0.0292572,1.56876,0.684517,1.31775,-0.0719131,-0.927296,0.00527916,-0.466766,-0.032662,-1.85964,1.37892,-0.0734127,-0.989105,0.0076954,-0.4806,-0.0333807,-1.88829,-0.355213,-10.5423,-3.59887,21.6144,1.43587,1.61062,-0.691946,0.693812,-1.84459,0.0802197,3.14042,0.722532,0.0705801,-0.947046
652912,1,-1.50028,-0.526343,-0.0487401,-2.0963,-0.0290155,1.56908,0.68856,-1.49589,-0.527771,-0.0518147,-2.09396,-0.0297403,1.56873,0.682616,1.33196,-0.0745579,-0.936931,0.00260036,-0.465079,-0.0313309,-1.86154,1.3887,-0.0738866,-0.998077,0.00774508,-0.483053,-0.0335511,-1.90124,-0.708302,-10.4431,-3.84881,21.666,1.39559,1.5209,-0.847585,0.695725,-1.81955,0.07239,3.12893,0.721717,0.0628482,-0.945689
652913,1,-1.49886,-0.526415,-0.0497181,-2.0963,-0.0294733,1.56906,0.686625,-1.49449,-0.527845,-0.0528217,-2.09395,-0.0302258,1.5687,0.680701,1.36769,-0.0721008,-0.942821,0.00139227,-0.469217,-0.0288213,-1.86923,1.39849,-0.0743606,-1.00705,0.00779477,-0.485507,-0.0337215,-1.91419,-1.21215,-10.3916,-4.00354,21.6898,1.15846,1.37899,-0.666311,0.676675,-1.79524,0.0359398,3.12075,0.720372,0.0560411,-0.943298
652914,1,-1.49746,-0.526484,-0.0507051,-2.09629,-0.0299196,1.56903,0.684731,-1.49309,-0.52792,-0.0538378,-2.09394,-0.0307138,1.56866,0.678774,1.3722,-0.0725606,-0.950841,0.000440202,-0.464303,-0.0270856,-1.87193,1.40827,-0.0748346,-1.01602,0.00784445,-0.48796,-0.0338919,-1.92714,-1.64061,-10.3678,-4.07892,21.7176,0.875566,1.37258,-0.607717,0.632475,-1.77904,-0.0318512,3.11893,0.71814,0.0500595,-0.940124
652915,1,-1.49604,-0.526553,-0.0516914,-2.09629,-0.0303897,1.56899,0.6828,-1.49167,-0.527995,-0.0548628,-2.09394,-0.0312042,1.56863,0.676834,1.37443,-0.0728462,-0.960692,0.0049467,-0.464951,-0.0321987,-1.88109,1.41805,-0.0753086,-1.02499,0.00789414,-0.490414,-0.0340623,-1.94009,-1.71599,-10.3678,-4.02734,21.666,0.825212,1.40463,-0.601309,0.57253,-1.77108,-0.117449,3.12187,0.714995,0.0444637,-0.936323
652916,1,-1.49466,-0.526627,-0.0526969,-2.09628,-0.030874,1.56895,0.680838,-1.49024,-0.528071,-0.0558967,-2.09393,-0.031697,1.56859,0.674881,1.3763,-0.074382,-0.976174,0.00934901,-0.475655,-0.0325683,-1.93089,1.42784,-0.0757826,-1.03396,0.00794382,-0.492867,-0.0342327,-1.95304,-1.41448,-10.3162,-4.05114,21.5668,0.909441,1.48794,-0.523489,0.514332,-1.76417,-0.196865,3.12357,0.711168,0.0386094,-0.931949
652917,1,-1.49323,-0.526702,-0.0536712,-2.09627,-0.031365,1.5689,0.678901,-1.4888,-0.528147,-0.0569384,-2.09392,-0.0321919,1.56856,0.672918,1.37419,-0.0729891,-0.996677,0.00734578,-0.476297,-0.0420645,-1.93203,1.43584,-0.0761685,-1.04165,0.00798427,-0.494834,-0.0343693,-1.96329,-1.31133,-10.2408,-4.33282,21.543,1.08522,1.68844,-0.54363,0.474054,-1.75526,-0.247038,3.12158,0.707136,0.0323977,-0.927024
652918,1,-1.49175,-0.526785,-0.0546665,-2.09626,-0.031853,1.56885,0.676911,-1.48736,-0.528224,-0.0579877,-2.09391,-0.0326887,1.56852,0.670944,1.41199,-0.0778214,-0.993602,0.00948497,-0.479809,-0.046669,-1.94426,1.44385,-0.0765544,-1.04933,0.00802473,-0.496801,-0.0345059,-1.97353,-1.64061,-10.0385,-4.58673,21.5152,1.21523,1.83584,-0.478628,0.450101,-1.74504,-0.269777,3.1177,0.702835,0.0263276,-0.921516
652919,1,-1.49026,-0.526864,-0.055696,-2.09626,-0.0323417,1.56881,0.674946,-1.48591,-0.528301,-0.0590447,-2.0939,-0.0331874,1.56849,0.668961,1.43332,-0.0817018,-1.00158,0.00628003,-0.486361,-0.0444005,-1.94331,1.45186,-0.0769403,-1.05702,0.00806518,-0.498768,-0.0346426,-1.98377,-2.29522,-9.93533,-4.53515,21.543,1.34523,1.83584,-0.497854,0.418457,-1.7294,-0.29873,3.11189,0.697357,0.0207127,-0.915298
652920,1,-1.48878,-0.526942,-0.0566879,-2.09627,-0.0328257,1.56878,0.67295,-1.48445,-0.528378,-0.0601094,-2.0939,-0.0336882,1.56846,0.666967,1.43898,-0.0806134,-0.99924,1.33522e-06,-0.48058,-0.0367022,-1.9526,1.45986,-0.0773262,-1.06471,0.00810564,-0.500735,-0.0347792,-1.99402,-2.21984,-9.88773,-4.83667,21.7414,1.34523,1.66189,-0.666311,0.364624,-1.70926,-0.355209,3.10674,0.690552,0.0159948,-0.908321
652921,1,-1.48736,-0.527016,-0.0577038,-2.09626,-0.0333181,1.56877,0.670939,-1.48298,-0.528456,-0.0611818,-2.09389,-0.0341909,1.56842,0.664962,1.43082,-0.0787196,-0.998198,-0.000214861,-0.487475,-0.029381,-1.96353,1.46787,-0.0777122,-1.07239,0.00814609,-0.502702,-0.0349158,-2.00426,-1.58904,-9.88773,-5.039,21.7652,1.36171,1.43026,-0.828359,0.293167,-1.69438,-0.435953,3.10798,0.683295,0.012625,-0.900747
652922,1,-1.48589,-0.527081,-0.0587614,-2.09625,-0.0338159,1.56874,0.668963,-1.4815,-0.528534,-0.0622619,-2.09388,-0.0346955,1.56839,0.662948,1.43816,-0.0715287,-1.01288,0.00523453,-0.487578,-0.0239613,-1.96248,1.47588,-0.0780981,-1.08008,0.00818654,-0.504669,-0.0350524,-2.0145,-1.41448,-10.0107,-4.78906,21.6898,1.35072,1.32131,-0.983084,0.216642,-1.69341,-0.526241,3.11706,0.676572,0.0102213,-0.892987
652923,1,-1.48437,-0.527146,-0.0598134,-2.09624,-0.0342932,1.5687,0.666917,-1.48002,-0.528612,-0.0633497,-2.09387,-0.0352022,1.56835,0.660923,1.47128,-0.0694162,-1.02375,0.00628148,-0.481723,-0.0290745,-1.97844,1.48388,-0.078484,-1.08776,0.008227,-0.506636,-0.035189,-2.02474,-1.54143,-10.1377,-4.48358,21.5906,1.18685,1.32131,-0.834768,0.141142,-1.71172,-0.616243,3.13279,0.670688,0.00804105,-0.885569
652924,1,-1.48291,-0.527221,-0.0608902,-2.09624,-0.0347769,1.56865,0.66488,-1.47853,-0.528691,-0.0644451,-2.09386,-0.0357108,1.56832,0.658888,1.46598,-0.0717173,-1.03934,0.00509827,-0.485379,-0.0386617,-1.99973,1.49189,-0.0788699,-1.09545,0.00826745,-0.508603,-0.0353257,-2.03499,-1.26372,-10.1139,-4.20587,21.5668,1.09072,1.48794,-0.523489,0.0673556,-1.74684,-0.702485,3.15392,0.665495,0.00579956,-0.878886
652925,1,-1.48143,-0.527302,-0.0619766,-2.09622,-0.0352784,1.56861,0.662846,-1.47703,-0.52877,-0.0655482,-2.09385,-0.0362214,1.56828,0.656843,1.45782,-0.0745091,-1.05522,0.00932273,-0.481371,-0.0426562,-1.99898,1.49989,-0.0792559,-1.10313,0.00830791,-0.51057,-0.0354623,-2.04523,-0.831288,-10.0385,-3.67425,21.4676,1.1017,1.57858,-0.537222,0.0100658,-1.78593,-0.765051,3.17574,0.66136,0.00339387,-0.873008
652926,1,-1.47997,-0.527389,-0.063077,-2.09622,-0.0357796,1.56859,0.660796,-1.47552,-0.52885,-0.0666591,-2.09385,-0.0367339,1.56824,0.654787,1.47994,-0.0786364,-1.05923,0.0102312,-0.499222,-0.0324627,-2.01443,1.5079,-0.0796418,-1.11082,0.00834836,-0.512537,-0.0355989,-2.05547,-0.355213,-9.85995,-3.26959,21.4676,1.09072,1.46231,-0.614126,-0.0215682,-1.81429,-0.792893,3.19081,0.658317,0.000378744,-0.867624
652927,1,-1.47845,-0.52748,-0.0641791,-2.09621,-0.0362857,1.56855,0.658758,-1.47401,-0.52893,-0.0677759,-2.09384,-0.0372479,1.56821,0.652724,1.4788,-0.0857823,-1.06479,0.0110767,-0.502411,-0.0313337,-2.02621,1.51401,-0.079935,-1.11687,0.0083791,-0.514015,-0.0357015,-2.06295,-0.379017,-9.63382,-3.03949,21.4676,1.1191,1.50808,-0.614126,-0.0372394,-1.82057,-0.800783,3.19363,0.655667,-0.00377001,-0.862349
652928,1,-1.47691,-0.527575,-0.065249,-2.09621,-0.0367934,1.5685,0.656661,-1.47249,-0.52901,-0.0688988,-2.09383,-0.0377634,1.56817,0.650654,1.48855,-0.0884436,-1.06957,0.0117712,-0.504386,-0.0333278,-2.03129,1.52011,-0.0802282,-1.12292,0.00840983,-0.515492,-0.0358041,-2.07044,-0.680531,-9.37991,-3.09106,21.4676,1.13008,1.63626,-0.34313,-0.0442829,-1.7989,-0.800514,3.18247,0.652923,-0.00915186,-0.857035
652929,1,-1.4754,-0.527661,-0.0663479,-2.0962,-0.0373034,1.56845,0.654569,-1.47096,-0.529091,-0.0700278,-2.09382,-0.0382804,1.56814,0.648576,1.4892,-0.0859725,-1.07229,0.00818277,-0.507696,-0.0382241,-2.09319,1.52622,-0.0805215,-1.12897,0.00844057,-0.51697,-0.0359068,-2.07792,-0.78368,-9.30453,-3.21801,21.4914,1.18135,1.7333,-0.0254419,-0.0459227,-1.7577,-0.797135,3.16297,0.650004,-0.0150505,-0.851517
652930,1,-1.47388,-0.527747,-0.0674539,-2.09619,-0.0378387,1.56841,0.652491,-1.46943,-0.529171,-0.0711628,-2.09381,-0.0387988,1.5681,0.646491,1.47797,-0.0868627,-1.08027,0.0088902,-0.514098,-0.0404478,-2.08638,1.53232,-0.0808147,-1.13502,0.00847131,-0.518447,-0.0360094,-2.0854,-0.605152,-9.25296,-3.19421,21.5152,1.37911,1.78457,-0.200308,-0.0404067,-1.71252,-0.788283,3.14408,0.64729,-0.0203595,-0.845351
652931,1,-1.47238,-0.527821,-0.0685603,-2.09619,-0.0383682,1.56839,0.650406,-1.46789,-0.529253,-0.0723039,-2.0938,-0.0393187,1.56806,0.644398,1.4932,-0.0832605,-1.08464,0.00935881,-0.523976,-0.0337276,-2.07333,1.53843,-0.0811079,-1.14107,0.00850204,-0.519924,-0.036112,-2.09288,-0.125111,-9.37991,-3.42035,21.543,1.41298,1.61062,-0.420034,-0.0244089,-1.67254,-0.76897,3.12985,0.645217,-0.0245752,-0.838098
652932,1,-1.47084,-0.527894,-0.0697029,-2.09619,-0.0388785,1.56836,0.648334,-1.46634,-0.529334,-0.073451,-2.09379,-0.0398401,1.56803,0.642297,1.50173,-0.0813217,-1.09386,0.00784187,-0.518094,-0.031535,-2.06794,1.54453,-0.0814011,-1.14712,0.00853278,-0.521402,-0.0362146,-2.10036,-0.454395,-9.48306,-3.36877,21.666,1.37911,1.49526,-0.582083,-0.00371437,-1.64521,-0.745558,3.12266,0.643764,-0.0276769,-0.82972
652933,1,-1.46925,-0.527968,-0.0708261,-2.09618,-0.0393978,1.56832,0.646197,-1.46479,-0.529416,-0.0746042,-2.09379,-0.040363,1.56799,0.64019,1.52497,-0.0770704,-1.10353,0.00951542,-0.519008,-0.0261762,-2.08083,1.55064,-0.0816943,-1.15317,0.00856352,-0.522879,-0.0363172,-2.10784,-1.109,-9.60605,-3.36877,21.666,1.26009,1.41104,-0.413626,0.0135136,-1.63729,-0.727143,3.12491,0.642705,-0.0298154,-0.82059
652934,1,-1.46771,-0.528042,-0.071938,-2.09616,-0.0399243,1.56829,0.64403,-1.46324,-0.529498,-0.0757634,-2.09378,-0.0408874,1.56796,0.638074,1.52658,-0.0776343,-1.09665,0.0147898,-0.520213,-0.0291147,-2.10527,1.55674,-0.0819876,-1.15922,0.00859425,-0.524356,-0.0364198,-2.11532,-1.3391,-9.7092,-3.69806,21.4914,1.23812,1.37258,-0.0968531,0.0194709,-1.64768,-0.72371,3.13441,0.641629,-0.0316152,-0.811096
652935,1,-1.46614,-0.528122,-0.0730633,-2.09615,-0.0404674,1.56824,0.64196,-1.46167,-0.52958,-0.0769287,-2.09377,-0.0414132,1.56792,0.635951,1.52209,-0.0800426,-1.13465,0.0149654,-0.528074,-0.0337086,-2.08773,1.56285,-0.0822808,-1.16527,0.00862499,-0.525834,-0.0365224,-2.1228,-1.38671,-9.733,-3.80121,21.3169,1.28847,1.54013,-0.400808,0.0216601,-1.66555,-0.724459,3.14489,0.640711,-0.0337532,-0.801354
652936,1,-1.46457,-0.528219,-0.0741924,-2.09613,-0.0410103,1.56819,0.639866,-1.46011,-0.529662,-0.0781,-2.09376,-0.0419405,1.56788,0.633821,1.55476,-0.0873607,-1.12551,0.0160359,-0.527987,-0.040126,-2.07081,1.56895,-0.082574,-1.17132,0.00865573,-0.527311,-0.036625,-2.13028,-1.41448,-9.50687,-4.05114,21.2455,1.28298,1.6683,-0.841177,0.0308299,-1.6766,-0.712377,3.15068,0.640238,-0.0364616,-0.791341
652937,1,-1.46299,-0.528318,-0.0753533,-2.09612,-0.0415265,1.56815,0.637767,-1.45853,-0.529745,-0.0792755,-2.09375,-0.0424688,1.56785,0.631686,1.55653,-0.0933754,-1.12924,0.0155758,-0.523324,-0.0417766,-2.0827,1.57307,-0.0827712,-1.17548,0.0086764,-0.528297,-0.0366935,-2.13505,-1.76757,-9.22916,-3.97577,21.2177,1.16396,1.71408,-0.995901,0.0336318,-1.66833,-0.706249,3.14761,0.639371,-0.0397702,-0.781286
652938,1,-1.46139,-0.528414,-0.0764916,-2.09612,-0.0420592,1.56813,0.635601,-1.45696,-0.529828,-0.0804551,-2.09374,-0.0429981,1.56781,0.629546,1.55818,-0.0934489,-1.13584,0.012317,-0.521814,-0.0358888,-2.09639,1.57719,-0.0829685,-1.17965,0.00869708,-0.529283,-0.036762,-2.13982,-1.9699,-9.00302,-3.90039,21.3169,1.1191,1.57217,-0.860403,0.0231729,-1.63852,-0.718094,3.13588,0.637739,-0.0433597,-0.77188
