shamilmamedov/beam_handling/log/param_estimation_ICRA/ocp_Xdown_25cm_0.44s_1.csv
duration, success rate, q[0], q[1], q[2], q[3], q[4], q[5], q[6],q_d[0], q_d[1], q_d[2], q_d[3], q_d[4], q_d[5], q_d[6],dq[0], dq[1], dq[2], dq[3], dq[4], dq[5], dq[6],dq_d[0], dq_d[1], dq_d[2], dq_d[3], dq_d[4], dq_d[5], dq_d[6],tau_J[0], tau_J[1], tau_J[2], tau_J[3], tau_J[4], tau_J[5], tau_J[6],tau_ext_hat_filtered[0], tau_ext_hat_filtered[1], tau_ext_hat_filtered[2], tau_ext_hat_filtered[3], tau_ext_hat_filtered[4], tau_ext_hat_filtered[5], tau_ext_hat_filtered[6]
2407328,0,-1.57091,-0.52276,-0.000656129,-2.09577,-1.57084,1.57156,0.785796,-1.5708,-0.523599,-4.36146e-08,-2.09439,-1.5708,1.5708,0.785399,-0.000284622,-0.000488892,0.000346091,0.0016841,-8.33282e-05,-0.000136057,0.000728123,0,0,0,0,0,0,0,0.0494498,-10.2646,1.01111,20.698,-0.746748,-0.57932,-0.219534,0.0429171,-1.16293,0.843039,2.23931,-0.186585,-0.581251,-0.259331
2407329,1,-1.57091,-0.522762,-0.0006559,-2.09578,-1.57084,1.57156,0.785799,-1.5708,-0.523599,-4.36146e-08,-2.09439,-1.5708,1.5708,0.785399,-0.000189748,-0.00088274,0.000230727,-0.000547703,0.000147898,-9.07046e-05,0.00157525,0,0,0,0,0,0,0,0.0494498,-10.2408,1.01111,20.7694,-0.752241,-0.57932,-0.246084,0.0435067,-1.16099,0.84391,2.23783,-0.18655,-0.581133,-0.259489
2407330,1,-1.57091,-0.522755,-0.000655824,-2.09578,-1.57084,1.57156,0.785791,-1.5708,-0.523599,-4.36146e-08,-2.09439,-1.5708,1.5708,0.785399,0.00107993,0.00173156,0.000153818,-0.000365135,0.000335958,-0.000297829,-0.00175218,0,0,0,0,0,0,0,-0.00212494,-10.34,1.01111,20.7694,-0.75865,-0.572911,-0.168264,0.0433744,-1.1601,0.843759,2.23694,-0.186539,-0.581128,-0.259709
2407331,1,-1.57091,-0.522757,-0.000657929,-2.09578,-1.57084,1.57156,0.785798,-1.5708,-0.523599,-4.36146e-08,-2.09439,-1.5708,1.5708,0.785399,-0.000486474,0.000597559,0.000102545,-0.000243423,-0.000216838,0.000513524,0.00126537,0,0,0,0,0,0,0,0.0494498,-10.3162,1.01111,20.7694,-0.746748,-0.592137,-0.232351,0.0426229,-1.16318,0.842893,2.2382,-0.186612,-0.581249,-0.259948
2407332,1,-1.57091,-0.522757,-0.000654551,-2.09578,-1.57084,1.57156,0.785791,-1.5708,-0.523599,-4.36146e-08,-2.09439,-1.5708,1.5708,0.785399,0.000232496,0.000398373,0.000717978,-0.000811896,5.88921e-05,0.000104991,-0.00124772,0,0,0,0,0,0,0,0.0256461,-10.3162,0.98334,20.7972,-0.752241,-0.585729,-0.174673,0.0416611,-1.16838,0.841774,2.24064,-0.186729,-0.58142,-0.260162
2407333,1,-1.57091,-0.52276,-0.000659824,-2.09578,-1.57084,1.57156,0.785793,-1.5708,-0.523599,-4.36146e-08,-2.09439,-1.5708,1.5708,0.785399,-0.000401815,-0.000940844,-0.000727774,-0.000541264,0.000480071,6.99938e-05,-0.000323404,0,0,0,0,0,0,0,0.0494498,-10.2646,1.03491,20.7972,-0.764143,-0.585729,-0.18749,0.0409176,-1.17249,0.840903,2.24287,-0.186834,-0.581544,-0.260332
2407334,1,-1.57091,-0.52276,-0.000656575,-2.09577,-1.57084,1.57156,0.785796,-1.5708,-0.523599,-4.36146e-08,-2.09439,-1.5708,1.5708,0.785399,-0.000267877,-0.000627229,7.16292e-05,0.000845583,0.000116597,-0.000428055,0.000996463,0,0,0,0,0,0,0,0.0494498,-10.2646,1.01111,20.7456,-0.75865,-0.572911,-0.219534,0.0409121,-1.17333,0.841017,2.2436,-0.18687,-0.58152,-0.260437
2407335,1,-1.57091,-0.522757,-0.000656049,-2.09578,-1.57084,1.57156,0.785794,-1.5708,-0.523599,-4.36146e-08,-2.09439,-1.5708,1.5708,0.785399,0.000378228,0.000788273,4.77528e-05,-0.000642704,7.77312e-05,-4.80113e-05,-0.000266174,0,0,0,0,0,0,0,0.0256461,-10.3162,1.01111,20.7972,-0.75865,-0.57932,-0.193899,0.0412337,-1.17229,0.841554,2.24315,-0.18687,-0.58143,-0.260463
2407336,1,-1.57092,-0.522755,-0.000653924,-2.09578,-1.57084,1.57156,0.785794,-1.5708,-0.523599,-4.36146e-08,-2.09439,-1.5708,1.5708,0.785399,-0.000861472,0.000525515,0.000681449,-0.000985281,-0.000388989,-3.20075e-05,-0.000163235,0,0,0,0,0,0,0,0.0732535,-10.3162,0.98334,20.821,-0.746748,-0.57932,-0.193899,0.041241,-1.17302,0.841623,2.24364,-0.186934,-0.581408,-0.26042
2407337,1,-1.57092,-0.522758,-0.000659616,-2.09577,-1.57084,1.57156,0.785797,-1.5708,-0.523599,-4.36146e-08,-2.09439,-1.5708,1.5708,0.785399,-0.000574315,-0.000206468,-0.000752126,0.00110638,-0.000462776,-2.13384e-05,0.00108863,0,0,0,0,0,0,0,0.0732535,-10.2924,1.03491,20.7456,-0.741255,-0.57932,-0.225942,0.041474,-1.17479,0.841919,2.2447,-0.187024,-0.581366,-0.260318
2407338,1,-1.57091,-0.522756,-0.000658636,-2.09578,-1.57084,1.57156,0.785797,-1.5708,-0.523599,-4.36146e-08,-2.09439,-1.5708,1.5708,0.785399,0.000173935,0.000419166,5.53943e-05,0.000180777,9.83835e-05,0.000223133,0.000733751,0,0,0,0,0,0,0,0.0494498,-10.3162,1.01111,20.7694,-0.752241,-0.585729,-0.225942,0.0422378,-1.17524,0.84289,2.2447,-0.187053,-0.581236,-0.260178
2407339,1,-1.57091,-0.52276,-0.000656736,-2.09578,-1.57084,1.57156,0.785797,-1.5708,-0.523599,-4.36146e-08,-2.09439,-1.5708,1.5708,0.785399,0.00132238,-0.000926982,3.69295e-05,-0.000529096,0.000302948,0.000148756,0.000495164,0,0,0,0,0,0,0,-0.00212494,-10.2646,1.01111,20.7972,-0.75865,-0.585729,-0.225942,0.0425557,-1.17452,0.843241,2.24402,-0.187057,-0.581164,-0.260039
2407340,1,-1.57091,-0.522758,-0.000656284,-2.09578,-1.57084,1.57156,0.785799,-1.5708,-0.523599,-4.36146e-08,-2.09439,-1.5708,1.5708,0.785399,-0.000324837,3.16262e-05,0.000674234,0.000296883,-0.000238844,-0.000138189,0.000809325,0,0,0,0,0,0,0,0.0494498,-10.2924,0.98334,20.7694,-0.746748,-0.57932,-0.23876,0.0419103,-1.17286,0.842211,2.24316,-0.187075,-0.581228,-0.259932
2407341,1,-1.57092,-0.522756,-0.000658732,-2.09578,-1.57084,1.57156,0.785797,-1.5708,-0.523599,-4.36146e-08,-2.09439,-1.5708,1.5708,0.785399,-0.00077337,2.10841e-05,-0.000200125,-0.00156532,4.42211e-05,-9.21257e-05,6.82054e-05,0,0,0,0,0,0,0,0.0732535,-10.2924,1.01111,20.8448,-0.752241,-0.57932,-0.225942,0.0412504,-1.17145,0.841064,2.24275,-0.18711,-0.581297,-0.259872
2407342,1,-1.57091,-0.522756,-0.000658898,-2.09578,-1.57084,1.57156,0.785796,-1.5708,-0.523599,-4.36146e-08,-2.09439,-1.5708,1.5708,0.785399,4.12318e-05,0.000570868,-0.000133417,-0.000486732,2.94807e-05,0.000175942,-0.000426718,0,0,0,0,0,0,0,0.0494498,-10.3162,1.01111,20.821,-0.752241,-0.585729,-0.213125,0.0412911,-1.17193,0.84087,2.24375,-0.187174,-0.581283,-0.259868
2407343,1,-1.57092,-0.522756,-0.000654874,-2.09578,-1.57084,1.57156,0.785797,-1.5708,-0.523599,-4.36146e-08,-2.09439,-1.5708,1.5708,0.785399,-0.000529324,-0.000176233,0.00056067,-0.0008813,1.96538e-05,-0.000120064,0.000192137,0,0,0,0,0,0,0,0.0732535,-10.2924,0.98334,20.8448,-0.752241,-0.57932,-0.225942,0.0416064,-1.1737,0.841033,2.24567,-0.187255,-0.581246,-0.259915
2407344,1,-1.57091,-0.522755,-0.000658262,-2.09578,-1.57084,1.57155,0.785797,-1.5708,-0.523599,-4.36146e-08,-2.09439,-1.5708,1.5708,0.785399,0.000203929,-0.000117489,-0.000275834,0.0011757,-0.000190348,-8.00429e-05,0.000129514,0,0,0,0,0,0,0,0.0494498,-10.2924,1.01111,20.7694,-0.746748,-0.57932,-0.225942,0.0418464,-1.17464,0.840969,2.24697,-0.187307,-0.581222,-0.260003
2407345,1,-1.57091,-0.522759,-0.000656793,-2.09578,-1.57084,1.57155,0.785792,-1.5708,-0.523599,-4.36146e-08,-2.09439,-1.5708,1.5708,0.785399,0.000135953,-0.00072794,0.000465724,0.000134189,-0.000126899,-0.000290721,-0.0015741,0,0,0,0,0,0,0,0.0494498,-10.2646,0.98334,20.7972,-0.746748,-0.572911,-0.181082,0.0419777,-1.17324,0.840637,2.24661,-0.187287,-0.581195,-0.26013
2407346,1,-1.57091,-0.522758,-0.000658901,-2.09578,-1.57084,1.57156,0.785794,-1.5708,-0.523599,-4.36146e-08,-2.09439,-1.5708,1.5708,0.785399,9.06352e-05,0.000164321,-0.000339131,8.94594e-05,-8.45991e-05,4.3545e-05,-0.000336524,0,0,0,0,0,0,0,0.0494498,-10.2924,1.01111,20.7972,-0.746748,-0.57932,-0.200308,0.0419868,-1.17046,0.840073,2.24533,-0.187222,-0.581168,-0.26027
2407347,1,-1.57091,-0.52276,-0.000656824,-2.09578,-1.57084,1.57156,0.785793,-1.5708,-0.523599,-4.36146e-08,-2.09439,-1.5708,1.5708,0.785399,6.04235e-05,-0.000540067,-0.000226087,0.000709254,0.000147051,0.000266389,-0.000698467,0,0,0,0,0,0,0,0.0494498,-10.2646,1.01111,20.7694,-0.752241,-0.585729,-0.18749,0.0421622,-1.1676,0.839758,2.24399,-0.187134,-0.581108,-0.260379
2407348,1,-1.57091,-0.52276,-0.000656132,-2.09578,-1.57084,1.57156,0.785794,-1.5708,-0.523599,-4.36146e-08,-2.09439,-1.5708,1.5708,0.785399,4.02823e-05,-0.000360045,-0.000150725,-0.00073359,9.80341e-05,-5.97663e-05,-0.000227835,0,0,0,0,0,0,0,0.0494498,-10.2646,1.01111,20.821,-0.752241,-0.57932,-0.193899,0.0425834,-1.16472,0.839827,2.24272,-0.187031,-0.581006,-0.260426
2407349,1,-1.57091,-0.52276,-0.000659702,-2.09578,-1.57084,1.57156,0.785795,-1.5708,-0.523599,-4.36146e-08,-2.09439,-1.5708,1.5708,0.785399,2.68549e-05,-0.00024003,-0.000657295,0.000717366,0.000302715,-3.98442e-05,0.000323165,0,0,0,0,0,0,0,0.0494498,-10.2646,1.03491,20.7694,-0.75865,-0.57932,-0.206716,0.0432197,-1.16207,0.840249,2.24182,-0.186934,-0.580871,-0.2604
2407350,1,-1.57091,-0.522758,-0.000656716,-2.09578,-1.57084,1.57156,0.785799,-1.5708,-0.523599,-4.36146e-08,-2.09439,-1.5708,1.5708,0.785399,1.79033e-05,0.000489594,0.000768229,0.00103506,0.000608711,-2.65628e-05,0.00140249,0,0,0,0,0,0,0,0.0494498,-10.2924,0.98334,20.7456,-0.769636,-0.57932,-0.23876,0.0438095,-1.15997,0.840634,2.24098,-0.18685,-0.580751,-0.260307
2407351,1,-1.57092,-0.522758,-0.000656927,-2.09578,-1.57084,1.57156,0.785795,-1.5708,-0.523599,-4.36146e-08,-2.09439,-1.5708,1.5708,0.785399,-0.000544876,0.000326396,0.000512153,0.000690037,-0.000238453,0.000457009,-0.00025161,0,0,0,0,0,0,0,0.0732535,-10.2924,0.98334,20.7456,-0.752241,-0.592137,-0.206716,0.0438636,-1.1588,0.840167,2.24011,-0.186802,-0.580733,-0.260181
2407352,1,-1.57092,-0.522758,-0.000656815,-2.09577,-1.57084,1.57156,0.785801,-1.5708,-0.523599,-4.36146e-08,-2.09439,-1.5708,1.5708,0.785399,-0.000363251,0.000217597,-0.000308179,0.000460025,-0.000158968,-0.000170045,0.00176518,0,0,0,0,0,0,0,0.0732535,-10.2924,1.01111,20.7456,-0.752241,-0.57932,-0.258901,0.0438209,-1.15859,0.839461,2.23952,-0.186799,-0.580756,-0.260058
2407353,1,-1.57091,-0.522755,-0.000658259,-2.09578,-1.57084,1.57156,0.7858,-1.5708,-0.523599,-4.36146e-08,-2.09439,-1.5708,1.5708,0.785399,0.000314645,0.000701877,-0.000205453,-0.000899743,0.000334831,-0.000113363,0.000939536,0,0,0,0,0,0,0,0.0494498,-10.3162,1.01111,20.7972,-0.764143,-0.57932,-0.252493,0.0441753,-1.15971,0.839356,2.23985,-0.186847,-0.580743,-0.259967
2407354,1,-1.57091,-0.522758,-0.00065661,-2.09578,-1.57084,1.57156,0.785798,-1.5708,-0.523599,-4.36146e-08,-2.09439,-1.5708,1.5708,0.785399,0.000209763,-8.8894e-05,-0.000136968,4.97855e-05,-0.000217589,-7.55755e-05,-0.000119548,0,0,0,0,0,0,0,0.0494498,-10.2924,1.01111,20.7694,-0.752241,-0.57932,-0.232351,0.0445941,-1.1622,0.83945,2.24135,-0.18696,-0.580737,-0.25995
2407355,1,-1.57091,-0.522758,-0.000656242,-2.09577,-1.57084,1.57156,0.785796,-1.5708,-0.523599,-4.36146e-08,-2.09439,-1.5708,1.5708,0.785399,0.00134627,-5.92627e-05,0.000558302,0.00114681,-0.000145059,-5.03837e-05,-0.000554356,0,0,0,0,0,0,0,-0.00212494,-10.2924,0.98334,20.7218,-0.752241,-0.57932,-0.219534,0.0444276,-1.16397,0.838758,2.24248,-0.18709,-0.580808,-0.260039
2407356,1,-1.57091,-0.522758,-0.000656587,-2.09577,-1.57084,1.57156,0.785795,-1.5708,-0.523599,-4.36146e-08,-2.09439,-1.5708,1.5708,0.785399,0.000247898,-3.95085e-05,-0.000277413,0.000207731,0.000140653,-3.35891e-05,-0.000844244,0,0,0,0,0,0,0,0.0256461,-10.2924,1.01111,20.7456,-0.75865,-0.57932,-0.206716,0.0435342,-1.164,0.837076,2.24235,-0.187197,-0.580961,-0.260219
2407357,1,-1.57091,-0.522753,-0.000657723,-2.09577,-1.57084,1.57156,0.785797,-1.5708,-0.523599,-4.36146e-08,-2.09439,-1.5708,1.5708,0.785399,-0.000391547,0.00108728,-0.000741754,0.000138487,-0.00014359,0.000214966,0.000149282,0,0,0,0,0,0,0,0.0494498,-10.34,1.03491,20.7456,-0.752241,-0.585729,-0.225942,0.0430206,-1.16422,0.836063,2.24216,-0.187293,-0.581044,-0.260442
2407358,1,-1.57091,-0.522758,-0.000657545,-2.09578,-1.57084,1.57156,0.785795,-1.5708,-0.523599,-4.36146e-08,-2.09439,-1.5708,1.5708,0.785399,-0.000261031,-0.000388767,-0.000494503,-0.00167091,-9.5727e-05,-0.000331407,-0.00061253,0,0,0,0,0,0,0,0.0494498,-10.2924,1.03491,20.821,-0.752241,-0.572911,-0.206716,0.0436398,-1.16605,0.836823,2.24311,-0.187404,-0.580959,-0.260667
2407359,1,-1.57091,-0.522758,-0.000653866,-2.09577,-1.57084,1.57155,0.785796,-1.5708,-0.523599,-4.36146e-08,-2.09439,-1.5708,1.5708,0.785399,0.000382791,-0.000908792,0.000876758,0.000649296,-0.000267269,1.64209e-05,-0.000170976,0,0,0,0,0,0,0,0.0256461,-10.2646,0.98334,20.7456,-0.746748,-0.57932,-0.213125,0.0444309,-1.16732,0.837851,2.24429,-0.187525,-0.580826,-0.260883
2407360,1,-1.57091,-0.522755,-0.000659596,-2.09578,-1.57084,1.57155,0.785791,-1.5708,-0.523599,-4.36146e-08,-2.09439,-1.5708,1.5708,0.785399,0.000904808,4.37525e-05,-0.000621921,-0.000123948,2.52715e-05,1.09473e-05,-0.00153812,0,0,0,0,0,0,0,-0.00212494,-10.2924,1.03491,20.7694,-0.752241,-0.57932,-0.174673,0.044422,-1.16639,0.837734,2.24433,-0.187616,-0.580775,-0.261084
2407361,1,-1.57092,-0.522754,-0.000656681,-2.09578,-1.57084,1.57156,0.785795,-1.5708,-0.523599,-4.36146e-08,-2.09439,-1.5708,1.5708,0.785399,-0.00116003,0.00114279,0.000791812,-0.00128906,-0.000593504,0.000244657,0.00016139,0,0,0,0,0,0,0,0.0732535,-10.34,0.98334,20.821,-0.735762,-0.585729,-0.206716,0.0440352,-1.16626,0.83718,2.24466,-0.187709,-0.58078,-0.261234
2407362,1,-1.57091,-0.522754,-0.000656915,-2.09578,-1.57084,1.57156,0.785796,-1.5708,-0.523599,-4.36146e-08,-2.09439,-1.5708,1.5708,0.785399,0.000340269,0.00020505,0.000527875,0.000347054,0.000214682,0.000400464,0.00034496,0,0,0,0,0,0,0,0.0256461,-10.3162,0.98334,20.7694,-0.752241,-0.592137,-0.213125,0.0435654,-1.1687,0.836518,2.24632,-0.187832,-0.580828,-0.261301
2407363,1,-1.57092,-0.522757,-0.000660613,-2.09577,-1.57084,1.57156,0.785795,-1.5708,-0.523599,-4.36146e-08,-2.09439,-1.5708,1.5708,0.785399,-0.000886778,-0.000420112,-0.000854509,0.00134499,0.000143122,2.96168e-05,-7.37941e-06,0,0,0,0,0,0,0,0.0732535,-10.2924,1.03491,20.7218,-0.752241,-0.585729,-0.206716,0.0433014,-1.17035,0.836089,2.24713,-0.187888,-0.580849,-0.261303
2407364,1,-1.57091,-0.522756,-0.000660639,-2.09578,-1.57084,1.57155,0.785795,-1.5708,-0.523599,-4.36146e-08,-2.09439,-1.5708,1.5708,0.785399,-3.43733e-05,-0.000280075,-0.000569673,-0.000216962,-0.000311487,-0.000217614,-4.91509e-06,0,0,0,0,0,0,0,0.0494498,-10.2924,1.03491,20.7694,-0.741255,-0.57932,-0.206716,0.0440249,-1.16927,0.837082,2.24606,-0.187822,-0.580707,-0.261268
2407365,1,-1.57091,-0.522754,-0.000654897,-2.09578,-1.57084,1.57155,0.7858,-1.5708,-0.523599,-4.36146e-08,-2.09439,-1.5708,1.5708,0.785399,-2.29156e-05,0.000370095,0.000826644,-0.00190788,0.000199243,-0.000145076,0.00169215,0,0,0,0,0,0,0,0.0494498,-10.3162,0.98334,20.8448,-0.752241,-0.57932,-0.252493,0.044998,-1.16822,0.838463,2.24535,-0.187751,-0.580539,-0.261198
2407366,1,-1.57092,-0.522757,-0.000656139,-2.09578,-1.57084,1.57155,0.785797,-1.5708,-0.523599,-4.36146e-08,-2.09439,-1.5708,1.5708,0.785399,-0.000572089,-0.000310082,-9.8518e-05,0.00160494,-7.06217e-05,-9.67175e-05,0.000144757,0,0,0,0,0,0,0,0.0732535,-10.2924,1.01111,20.7218,-0.746748,-0.57932,-0.225942,0.0453683,-1.16827,0.838919,2.2456,-0.187726,-0.580482,-0.261117
2407367,1,-1.57091,-0.522754,-0.000658034,-2.09578,-1.57084,1.57156,0.785799,-1.5708,-0.523599,-4.36146e-08,-2.09439,-1.5708,1.5708,0.785399,0.000732231,0.000350091,-6.56787e-05,-4.36623e-05,-4.70811e-05,-6.44783e-05,0.000842492,0,0,0,0,0,0,0,0.0256461,-10.3162,1.01111,20.7694,-0.746748,-0.57932,-0.246084,0.0454696,-1.16773,0.83892,2.24514,-0.187666,-0.580469,-0.261076
2407368,1,-1.57091,-0.522756,-0.000656717,-2.09578,-1.57084,1.57156,0.785796,-1.5708,-0.523599,-4.36146e-08,-2.09439,-1.5708,1.5708,0.785399,0.00113777,0.000233394,0.000605828,-0.00179235,-3.13874e-05,0.000431732,-0.000421682,0,0,0,0,0,0,0,-0.00212494,-10.3162,0.98334,20.8448,-0.746748,-0.592137,-0.219534,0.0448941,-1.16782,0.838042,2.245,-0.187623,-0.580565,-0.261095
2407369,1,-1.57091,-0.522758,-0.000660546,-2.09578,-1.57084,1.57156,0.785799,-1.5708,-0.523599,-4.36146e-08,-2.09439,-1.5708,1.5708,0.785399,-0.000447914,-0.000401216,-0.00080254,-0.000638085,-2.09249e-05,0.000287822,0.000430957,0,0,0,0,0,0,0,0.0494498,-10.2924,1.03491,20.821,-0.746748,-0.592137,-0.23876,0.0438167,-1.16943,0.836581,2.24631,-0.187635,-0.580749,-0.261175
2407370,1,-1.57091,-0.522757,-0.000656816,-2.09577,-1.57084,1.57156,0.785793,-1.5708,-0.523599,-4.36146e-08,-2.09439,-1.5708,1.5708,0.785399,-0.000298609,0.000289335,2.1785e-05,0.00133785,0.000426859,-0.000282837,-0.00161157,0,0,0,0,0,0,0,0.0494498,-10.3162,1.01111,20.7456,-0.75865,-0.57932,-0.18749,0.0434862,-1.1704,0.836213,2.24733,-0.187601,-0.580818,-0.261313
2407371,1,-1.57092,-0.522755,-0.000658259,-2.09578,-1.57084,1.57156,0.785796,-1.5708,-0.523599,-4.36146e-08,-2.09439,-1.5708,1.5708,0.785399,-0.000755885,0.000749702,1.45233e-05,-0.000314528,4.72141e-05,-0.000188558,0.000112418,0,0,0,0,0,0,0,0.0732535,-10.34,1.01111,20.7972,-0.752241,-0.57932,-0.219534,0.0439398,-1.17072,0.836895,2.2474,-0.187502,-0.580776,-0.261487
2407372,1,-1.57091,-0.522757,-0.000658741,-2.09578,-1.57084,1.57155,0.785792,-1.5708,-0.523599,-4.36146e-08,-2.09439,-1.5708,1.5708,0.785399,0.000609701,-5.70108e-05,9.68221e-06,-0.000209685,-0.000171974,-0.000600423,-0.00134921,0,0,0,0,0,0,0,0.0256461,-10.3162,1.01111,20.7972,-0.746748,-0.566503,-0.181082,0.044465,-1.17167,0.837631,2.24759,-0.187413,-0.580736,-0.261652
2407373,1,-1.57091,-0.522755,-0.000658901,-2.09578,-1.57084,1.57155,0.785794,-1.5708,-0.523599,-4.36146e-08,-2.09439,-1.5708,1.5708,0.785399,-0.000150345,0.000518805,6.45481e-06,0.000509824,-0.00011465,-0.000162923,-0.000424754,0,0,0,0,0,0,0,0.0494498,-10.34,1.01111,20.7694,-0.746748,-0.572911,-0.193899,0.0446904,-1.17275,0.837952,2.2479,-0.187344,-0.58073,-0.261778
2407374,1,-1.57091,-0.522755,-0.000660625,-2.09578,-1.57084,1.57155,0.785795,-1.5708,-0.523599,-4.36146e-08,-2.09439,-1.5708,1.5708,0.785399,-0.00010023,-0.000210942,-0.000552509,-0.000866543,0.000127017,0.000128744,0.000191549,0,0,0,0,0,0,0,0.0494498,-10.3162,1.03491,20.821,-0.752241,-0.57932,-0.206716,0.044895,-1.17353,0.838273,2.24808,-0.187275,-0.580701,-0.26184
2407375,0.99,-1.57091,-0.522754,-0.000656842,-2.09578,-1.57084,1.57156,0.785794,-1.5708,-0.523599,-4.36146e-08,-2.09439,-1.5708,1.5708,0.785399,-6.68199e-05,0.000416184,0.000188473,0.00062873,-0.000118772,8.5829e-05,-0.000347018,0,0,0,0,0,0,0,0.0494498,-10.34,1.01111,20.7694,-0.746748,-0.57932,-0.193899,0.0452876,-1.1741,0.838884,2.24831,-0.187204,-0.580621,-0.261825
2407376,0.98,-1.57091,-0.522758,-0.000654189,-2.09578,-1.57084,1.57156,0.785794,-1.5708,-0.523599,-4.36146e-08,-2.09439,-1.5708,1.5708,0.785399,-4.45466e-05,-0.000836168,0.000775262,-0.000787272,-7.91815e-05,5.72193e-05,6.0135e-06,0,0,0,0,0,0,0,0.0494498,-10.2924,0.98334,20.821,-0.746748,-0.57932,-0.200308,0.0453158,-1.17395,0.838897,2.24825,-0.187135,-0.580573,-0.261747
2407377,0.98,-1.57091,-0.522754,-0.000659704,-2.09578,-1.57084,1.57156,0.785796,-1.5708,-0.523599,-4.36146e-08,-2.09439,-1.5708,1.5708,0.785399,0.000527114,-6.33377e-07,-0.000689584,-0.00108166,0.000388022,0.000275505,0.000716086,0,0,0,0,0,0,0,0.0256461,-10.3162,1.03491,20.8448,-0.75865,-0.585729,-0.219534,0.0448795,-1.17319,0.838191,2.24829,-0.187087,-0.580578,-0.261612
2407378,0.98,-1.57091,-0.522758,-0.000656535,-2.09578,-1.57084,1.57156,0.785798,-1.5708,-0.523599,-4.36146e-08,-2.09439,-1.5708,1.5708,0.785399,-0.000205402,-0.000557234,9.70891e-05,0.00104213,-0.000182128,0.00018367,0.000952109,0,0,0,0,0,0,0,0.0494498,-10.2924,1.01111,20.7694,-0.746748,-0.585729,-0.232351,0.0445406,-1.17204,0.837691,2.24835,-0.187038,-0.580559,-0.261438
2407379,0.98,-1.57091,-0.522756,-0.000656217,-2.09578,-1.57084,1.57156,0.785796,-1.5708,-0.523599,-4.36146e-08,-2.09439,-1.5708,1.5708,0.785399,0.000419877,0.000185322,0.00071434,4.51401e-05,8.20317e-05,-0.000352271,0.000160021,0,0,0,0,0,0,0,0.0256461,-10.3162,0.98334,20.7972,-0.752241,-0.572911,-0.219534,0.0441467,-1.17012,0.837107,2.24764,-0.186965,-0.580548,-0.261264
2407380,0.98,-1.57091,-0.522758,-0.00066038,-2.09578,-1.57084,1.57156,0.785795,-1.5708,-0.523599,-4.36146e-08,-2.09439,-1.5708,1.5708,0.785399,-0.000276894,-0.000433264,-0.000730199,-0.000526719,0.000292047,2.51151e-06,-0.000368037,0,0,0,0,0,0,0,0.0494498,-10.2924,1.03491,20.821,-0.75865,-0.57932,-0.206716,0.0436411,-1.1683,0.836341,2.24683,-0.186896,-0.580558,-0.261119
2407381,0.98,-1.57092,-0.522756,-0.00066251,-2.09578,-1.57084,1.57156,0.785798,-1.5708,-0.523599,-4.36146e-08,-2.09439,-1.5708,1.5708,0.785399,-0.000741408,-0.000288842,-0.00113641,-0.000351146,-4.26611e-05,-0.000235685,0.000704078,0,0,0,0,0,0,0,0.0732535,-10.2924,1.06269,20.821,-0.752241,-0.572911,-0.232351,0.0441265,-1.16704,0.837083,2.24661,-0.186829,-0.580416,-0.261006
2407382,0.98,-1.57091,-0.522757,-0.00065682,-2.09578,-1.57084,1.57156,0.785799,-1.5708,-0.523599,-4.36146e-08,-2.09439,-1.5708,1.5708,0.785399,0.00126897,-0.000842176,0.000448817,-0.000234097,-0.000231891,0.000317595,0.000706744,0,0,0,0,0,0,0,-0.00212494,-10.2646,1.01111,20.821,-0.746748,-0.585729,-0.23876,0.0452293,-1.16554,0.838811,2.24654,-0.186763,-0.580171,-0.260924
2407383,0.98,-1.57091,-0.522759,-0.000658261,-2.09578,-1.57084,1.57156,0.785796,-1.5708,-0.523599,-4.36146e-08,-2.09439,-1.5708,1.5708,0.785399,-0.000360449,-0.00056145,0.000299211,0.00105036,-0.000154594,-2.56291e-05,-0.000240914,0,0,0,0,0,0,0,0.0494498,-10.2646,1.01111,20.7694,-0.746748,-0.57932,-0.219534,0.0454295,-1.16296,0.839262,2.24583,-0.186703,-0.580052,-0.260893
2407384,0.98,-1.57091,-0.522758,-0.00066236,-2.09577,-1.57084,1.57155,0.785796,-1.5708,-0.523599,-4.36146e-08,-2.09439,-1.5708,1.5708,0.785399,0.000316513,0.000275314,-0.00100695,0.00125705,-0.000306513,-0.000254445,-0.000160609,0,0,0,0,0,0,0,0.0256461,-10.2924,1.06269,20.7456,-0.741255,-0.572911,-0.219534,0.0452388,-1.15962,0.839171,2.24416,-0.186611,-0.579989,-0.260923
2407385,0.98,-1.57091,-0.522756,-0.000656771,-2.09578,-1.57084,1.57156,0.785794,-1.5708,-0.523599,-4.36146e-08,-2.09439,-1.5708,1.5708,0.785399,-0.000345803,0.000183542,0.000535125,0.000281223,-8.91684e-07,0.000305088,-0.00081915,0,0,0,0,0,0,0,0.0494498,-10.2924,1.01111,20.7694,-0.746748,-0.585729,-0.200308,0.0453609,-1.15724,0.83963,2.24245,-0.186495,-0.579891,-0.260999
2407386,0.98,-1.57091,-0.522759,-0.000656295,-2.09578,-1.57084,1.57155,0.785794,-1.5708,-0.523599,-4.36146e-08,-2.09439,-1.5708,1.5708,0.785399,-0.000230536,-0.00108406,0.00100636,-0.000462132,0.000202856,-0.000271326,-0.0005461,0,0,0,0,0,0,0,0.0494498,-10.2408,0.98334,20.7972,-0.752241,-0.572911,-0.200308,0.0451164,-1.15588,0.839523,2.24145,-0.186407,-0.579857,-0.261092
2407387,0.98,-1.57091,-0.522757,-0.000658736,-2.09577,-1.57084,1.57156,0.785792,-1.5708,-0.523599,-4.36146e-08,-2.09439,-1.5708,1.5708,0.785399,0.00105274,0.000483716,2.12952e-05,0.00145515,-6.82131e-05,-0.000180884,-0.00107614,0,0,0,0,0,0,0,-0.00212494,-10.2924,1.01111,20.7218,-0.746748,-0.572911,-0.181082,0.0441009,-1.15455,0.838221,2.24074,-0.186349,-0.579933,-0.261173
2407388,0.98,-1.57091,-0.522756,-0.000658439,-2.09577,-1.57084,1.57156,0.78579,-1.5708,-0.523599,-4.36146e-08,-2.09439,-1.5708,1.5708,0.785399,5.22097e-05,0.00087929,-0.000542615,0.0009701,0.000157975,-0.000120589,-0.00142951,0,0,0,0,0,0,0,0.0256461,-10.3162,1.03491,20.7218,-0.752241,-0.572911,-0.161856,0.0429024,-1.15419,0.836806,2.24012,-0.18629,-0.580038,-0.261209
2407389,0.98,-1.57091,-0.522756,-0.000658244,-2.09578,-1.57084,1.57156,0.785794,-1.5708,-0.523599,-4.36146e-08,-2.09439,-1.5708,1.5708,0.785399,-0.000522005,2.93811e-05,0.000195069,-0.0011165,0.000105317,0.000394325,0.000233791,0,0,0,0,0,0,0,0.0494498,-10.2924,1.01111,20.7972,-0.752241,-0.585729,-0.193899,0.0422767,-1.15589,0.836387,2.2404,-0.186247,-0.580064,-0.261155
2407390,0.98,-1.57091,-0.522758,-0.000660406,-2.09578,-1.57084,1.57156,0.785801,-1.5708,-0.523599,-4.36146e-08,-2.09439,-1.5708,1.5708,0.785399,-0.000348004,1.95874e-05,-0.000426766,-9.47224e-05,7.02112e-05,-0.000211835,0.00256336,0,0,0,0,0,0,0,0.0494498,-10.2924,1.03491,20.7694,-0.752241,-0.572911,-0.258901,0.04234,-1.15876,0.836981,2.24189,-0.186246,-0.579985,-0.260988
2407391,0.98,-1.57091,-0.522756,-0.00065695,-2.09578,-1.57084,1.57156,0.785795,-1.5708,-0.523599,-4.36146e-08,-2.09439,-1.5708,1.5708,0.785399,-0.000232002,1.30583e-05,0.000921915,-6.31483e-05,-0.000360094,9.61359e-05,-0.000223874,0,0,0,0,0,0,0,0.0494498,-10.2924,0.98334,20.7694,-0.741255,-0.57932,-0.206716,0.0425953,-1.16141,0.837778,2.24364,-0.186269,-0.579872,-0.260752
2407392,0.98,-1.57091,-0.522755,-0.000660624,-2.09577,-1.57084,1.57156,0.785796,-1.5708,-0.523599,-4.36146e-08,-2.09439,-1.5708,1.5708,0.785399,-0.000154668,8.70551e-06,-0.000591816,0.000514713,-0.000240062,0.00030145,0.000325468,0,0,0,0,0,0,0,0.0494498,-10.2924,1.03491,20.7456,-0.741255,-0.585729,-0.219534,0.0426854,-1.1632,0.838238,2.24483,-0.186281,-0.579779,-0.260524
2407393,0.98,-1.57091,-0.522757,-0.000658512,-2.09578,-1.57084,1.57156,0.785797,-1.5708,-0.523599,-4.36146e-08,-2.09439,-1.5708,1.5708,0.785399,-0.000103112,5.80367e-06,-0.000394544,-0.0014201,-0.000160042,0.000200966,0.000454338,0,0,0,0,0,0,0,0.0494498,-10.2924,1.03491,20.821,-0.741255,-0.585729,-0.225942,0.043008,-1.16462,0.839031,2.24585,-0.186272,-0.579657,-0.260329
2407394,0.98,-1.57091,-0.522756,-0.000658268,-2.09578,-1.57084,1.57156,0.785798,-1.5708,-0.523599,-4.36146e-08,-2.09439,-1.5708,1.5708,0.785399,0.00048807,0.000560681,0.000293783,0.000259695,9.67561e-05,-0.000103381,0.000540251,0,0,0,0,0,0,0,0.0256461,-10.3162,1.01111,20.7694,-0.746748,-0.57932,-0.232351,0.0433852,-1.16667,0.839966,2.24743,-0.186267,-0.579547,-0.260172
2407395,0.98,-1.57091,-0.522758,-0.000658743,-2.09577,-1.57084,1.57156,0.785797,-1.5708,-0.523599,-4.36146e-08,-2.09439,-1.5708,1.5708,0.785399,-0.000231432,-0.000832639,0.000195855,0.000729942,0.000267955,-0.00030628,0.000122808,0,0,0,0,0,0,0,0.0494498,-10.2646,1.01111,20.7456,-0.752241,-0.572911,-0.225942,0.0432718,-1.1681,0.840147,2.24849,-0.186241,-0.57952,-0.260071
2407396,0.98,-1.57091,-0.522755,-0.000656771,-2.09577,-1.57084,1.57155,0.785796,-1.5708,-0.523599,-4.36146e-08,-2.09439,-1.5708,1.5708,0.785399,0.000402524,9.45216e-05,0.00013057,0.000486628,0.000415995,-0.000441546,-0.000392846,0,0,0,0,0,0,0,0.0256461,-10.2924,1.01111,20.7456,-0.75865,-0.566503,-0.213125,0.0428647,-1.16733,0.839789,2.24796,-0.186158,-0.579519,-0.260042
2407397,0.98,-1.57092,-0.522757,-0.000656114,-2.09578,-1.57084,1.57156,0.785793,-1.5708,-0.523599,-4.36146e-08,-2.09439,-1.5708,1.5708,0.785399,-0.000845274,6.30144e-05,8.70467e-05,-0.000232393,3.99713e-05,0.000180354,-0.00121133,0,0,0,0,0,0,0,0.0732535,-10.2924,1.01111,20.7694,-0.752241,-0.57932,-0.18749,0.0425397,-1.16593,0.83947,2.24695,-0.18606,-0.579491,-0.260069
2407398,0.97,-1.57091,-0.522756,-0.000661645,-2.09578,-1.57084,1.57156,0.785794,-1.5708,-0.523599,-4.36146e-08,-2.09439,-1.5708,1.5708,0.785399,-6.70434e-06,0.000598822,-0.00114839,-0.000154929,2.66475e-05,0.000120236,-0.000570196,0,0,0,0,0,0,0,0.0494498,-10.3162,1.06269,20.7694,-0.752241,-0.57932,-0.193899,0.0428512,-1.16584,0.840078,2.24668,-0.185985,-0.579374,-0.260112
2407399,0.97,-1.57091,-0.52276,-0.000660333,-2.09577,-1.57084,1.57156,0.785792,-1.5708,-0.523599,-4.36146e-08,-2.09439,-1.5708,1.5708,0.785399,-4.46956e-06,-0.000807212,-0.000115983,0.000453526,-0.000185686,8.01574e-05,-0.000854849,0,0,0,0,0,0,0,0.0494498,-10.2646,1.03491,20.7456,-0.746748,-0.57932,-0.181082,0.0438181,-1.1662,0.841701,2.24669,-0.185916,-0.579161,-0.260131
2407400,0.97,-1.57091,-0.522758,-0.000658875,-2.09577,-1.57084,1.57156,0.785794,-1.5708,-0.523599,-4.36146e-08,-2.09439,-1.5708,1.5708,0.785399,0.00176026,0.000111473,0.00047949,0.000302351,7.96602e-05,0.000528156,0.000142178,0,0,0,0,0,0,0,-0.0259286,-10.2924,1.01111,20.7456,-0.752241,-0.592137,-0.200308,0.044115,-1.16541,0.842421,2.24599,-0.185853,-0.579041,-0.2601
2407401,0.97,-1.57091,-0.522758,-0.000656997,-2.09577,-1.57084,1.57156,0.785793,-1.5708,-0.523599,-4.36146e-08,-2.09439,-1.5708,1.5708,0.785399,-3.29205e-05,-0.000575299,0.000969274,0.000758379,5.31068e-05,0.000114745,-0.000379933,0,0,0,0,0,0,0,0.0256461,-10.2646,0.98334,20.7218,-0.752241,-0.585729,-0.18749,0.0428374,-1.16361,0.84089,2.24457,-0.185817,-0.579159,-0.260006
2407402,0.97,-1.57091,-0.522755,-0.000658509,-2.09578,-1.57084,1.57156,0.785797,-1.5708,-0.523599,-4.36146e-08,-2.09439,-1.5708,1.5708,0.785399,0.000627667,0.000266082,-0.000560243,-0.00181446,-0.000168046,7.64968e-05,0.00117087,0,0,0,0,0,0,0,-0.00212494,-10.2924,1.03491,20.821,-0.746748,-0.585729,-0.225942,0.0409804,-1.16221,0.838559,2.24351,-0.185825,-0.57938,-0.259844
2407403,0.97,-1.57091,-0.522757,-0.000658267,-2.09577,-1.57084,1.57156,0.785793,-1.5708,-0.523599,-4.36146e-08,-2.09439,-1.5708,1.5708,0.785399,-0.000787981,0.000177388,0.000183317,0.000553595,0.000328779,-0.00042372,-0.000643577,0,0,0,0,0,0,0,0.0494498,-10.2924,1.01111,20.7456,-0.75865,-0.572911,-0.18749,0.0398319,-1.1625,0.837347,2.24376,-0.185874,-0.579518,-0.259629
2407404,0.97,-1.57091,-0.522756,-0.000658283,-2.09578,-1.57084,1.57156,0.785796,-1.5708,-0.523599,-4.36146e-08,-2.09439,-1.5708,1.5708,0.785399,0.000681105,0.00067507,-0.000434601,-0.000837362,0.000422636,0.000192238,0.000757743,0,0,0,0,0,0,0,-0.00212494,-10.3162,1.03491,20.7972,-0.764143,-0.585729,-0.219534,0.039457,-1.1643,0.83735,2.24485,-0.185941,-0.579559,-0.259388
2407405,0.97,-1.57091,-0.522755,-0.000656243,-2.09578,-1.57084,1.57156,0.785799,-1.5708,-0.523599,-4.36146e-08,-2.09439,-1.5708,1.5708,0.785399,-0.000752356,0.00100686,0.000916692,-0.00111505,-0.000159052,-0.000346559,0.00148851,0,0,0,0,0,0,0,0.0494498,-10.34,0.98334,20.821,-0.752241,-0.572911,-0.246084,0.0392218,-1.16796,0.837623,2.24694,-0.186057,-0.5796,-0.259135
2407406,0.97,-1.57091,-0.522756,-0.000656769,-2.09578,-1.57084,1.57156,0.785794,-1.5708,-0.523599,-4.36146e-08,-2.09439,-1.5708,1.5708,0.785399,-0.000501571,-0.000442385,0.000611128,0.000463057,-0.000106035,0.000243678,-0.000703083,0,0,0,0,0,0,0,0.0494498,-10.2924,0.98334,20.7694,-0.752241,-0.585729,-0.200308,0.0388242,-1.17227,0.837553,2.24945,-0.186215,-0.579675,-0.258903
2407407,0.97,-1.57091,-0.522754,-0.000658433,-2.09578,-1.57084,1.57156,0.785802,-1.5708,-0.523599,-4.36146e-08,-2.09439,-1.5708,1.5708,0.785399,-0.00033438,0.000261889,-0.000799007,-0.00145453,-7.06897e-05,0.000399811,0.00193878,0,0,0,0,0,0,0,0.0494498,-10.3162,1.03491,20.8448,-0.752241,-0.592137,-0.26531,0.0387265,-1.17494,0.837749,2.25113,-0.186345,-0.579691,-0.258729
2407408,0.97,-1.57091,-0.522757,-0.000656111,-2.09578,-1.57084,1.57156,0.785797,-1.5708,-0.523599,-4.36146e-08,-2.09439,-1.5708,1.5708,0.785399,0.000333892,-0.000382219,2.41404e-05,0.000793549,-0.000250577,2.91818e-05,-0.000165545,0,0,0,0,0,0,0,0.0256461,-10.2924,1.01111,20.7694,-0.746748,-0.585729,-0.225942,0.0391651,-1.17605,0.838719,2.25205,-0.186433,-0.579621,-0.25863
2407409,0.97,-1.57091,-0.522756,-0.000655894,-2.09578,-1.57084,1.57155,0.785796,-1.5708,-0.523599,-4.36146e-08,-2.09439,-1.5708,1.5708,0.785399,0.000872208,0.000301999,1.60936e-05,-0.000120581,0.000477209,1.94546e-05,-0.000347722,0,0,0,0,0,0,0,-0.00212494,-10.3162,1.01111,20.7972,-0.764143,-0.585729,-0.219534,0.0393657,-1.17578,0.839393,2.25201,-0.186483,-0.579589,-0.258627
2407410,0.97,-1.57091,-0.522755,-0.000659623,-2.09578,-1.57084,1.57155,0.785791,-1.5708,-0.523599,-4.36146e-08,-2.09439,-1.5708,1.5708,0.785399,-6.81417e-05,0.000758145,-0.000546083,0.000569226,0.000114689,-0.000699107,-0.00213069,0,0,0,0,0,0,0,0.0256461,-10.34,1.03491,20.7694,-0.75865,-0.566503,-0.168264,0.0391647,-1.17531,0.839564,2.2515,-0.186518,-0.579625,-0.258714
2407411,0.97,-1.57092,-0.522757,-0.000662257,-2.09578,-1.57084,1.57156,0.785795,-1.5708,-0.523599,-4.36146e-08,-2.09439,-1.5708,1.5708,0.785399,-0.00115905,-5.13822e-05,-0.00101367,0.000379484,-0.00036435,0.000246005,3.69606e-06,0,0,0,0,0,0,0,0.0732535,-10.3162,1.06269,20.7694,-0.746748,-0.585729,-0.206716,0.039721,-1.17524,0.84088,2.25091,-0.186531,-0.57955,-0.258833
2407412,0.97,-1.57092,-0.522758,-0.000656736,-2.09578,-1.57084,1.57156,0.785791,-1.5708,-0.523599,-4.36146e-08,-2.09439,-1.5708,1.5708,0.785399,-0.00142232,-0.000591067,0.000530646,-0.000396624,0.00040136,-0.000310714,-0.00118433,0,0,0,0,0,0,0,0.101024,-10.2924,1.01111,20.7972,-0.764143,-0.572911,-0.174673,0.0413995,-1.17426,0.843662,2.24991,-0.186508,-0.579293,-0.258927
2407413,0.97,-1.57091,-0.52276,-0.000658233,-2.09578,-1.57084,1.57156,0.785796,-1.5708,-0.523599,-4.36146e-08,-2.09439,-1.5708,1.5708,0.785399,0.000815028,-0.00104366,0.000353764,-0.00137804,-0.000376687,0.000267575,0.0006346,0,0,0,0,0,0,0,0.0256461,-10.2646,1.01111,20.8448,-0.746748,-0.585729,-0.213125,0.0428057,-1.17199,0.845804,2.24889,-0.186509,-0.57906,-0.258962
2407414,0.97,-1.57091,-0.522757,-0.000656601,-2.09578,-1.57084,1.57156,0.785796,-1.5708,-0.523599,-4.36146e-08,-2.09439,-1.5708,1.5708,0.785399,0.000543352,0.000510654,0.000235843,0.00019493,-4.7674e-05,-5.89756e-05,0.000423067,0,0,0,0,0,0,0,0.0256461,-10.3162,1.01111,20.7972,-0.752241,-0.57932,-0.213125,0.0428083,-1.16966,0.845866,2.2484,-0.18658,-0.579039,-0.258929
2407415,0.97,-1.57092,-0.522757,-0.000659858,-2.09578,-1.57084,1.57156,0.785797,-1.5708,-0.523599,-4.36146e-08,-2.09439,-1.5708,1.5708,0.785399,-0.000751389,0.000340436,-0.000399583,0.000129954,0.000205576,-3.93171e-05,0.000756762,0,0,0,0,0,0,0,0.0732535,-10.3162,1.03491,20.7972,-0.75865,-0.57932,-0.225942,0.0422171,-1.16863,0.845126,2.2484,-0.186681,-0.579129,-0.258845
2407416,0.97,-1.57091,-0.522757,-0.000658717,-2.09577,-1.57084,1.57156,0.785797,-1.5708,-0.523599,-4.36146e-08,-2.09439,-1.5708,1.5708,0.785399,5.58857e-05,0.000226957,0.000290423,0.00129306,0.000137051,-2.62114e-05,0.000504508,0,0,0,0,0,0,0,0.0494498,-10.3162,1.01111,20.7456,-0.75865,-0.57932,-0.225942,0.0419942,-1.16835,0.844879,2.2482,-0.186756,-0.579179,-0.258748
2407417,0.97,-1.57092,-0.52276,-0.000660563,-2.09578,-1.57084,1.57156,0.7858,-1.5708,-0.523599,-4.36146e-08,-2.09439,-1.5708,1.5708,0.785399,-0.000519555,-0.00105512,-0.000363197,-0.000344385,-0.000349442,0.000457244,0.00131968,0,0,0,0,0,0,0,0.0732535,-10.2646,1.03491,20.7972,-0.746748,-0.592137,-0.252493,0.0420533,-1.16707,0.844929,2.24716,-0.186794,-0.579185,-0.258674
2407418,0.97,-1.57091,-0.522757,-0.000657003,-2.09578,-1.57084,1.57156,0.785796,-1.5708,-0.523599,-4.36146e-08,-2.09439,-1.5708,1.5708,0.785399,0.000210442,0.000503012,0.000964295,-0.000786402,-0.000639863,6.74701e-05,-0.000340914,0,0,0,0,0,0,0,0.0494498,-10.3162,0.98334,20.821,-0.735762,-0.585729,-0.219534,0.0420063,-1.16532,0.844716,2.2462,-0.186839,-0.579213,-0.25865
2407419,0.97,-1.57091,-0.522758,-0.000656841,-2.09578,-1.57084,1.57156,0.785798,-1.5708,-0.523599,-4.36146e-08,-2.09439,-1.5708,1.5708,0.785399,0.000697107,-0.000871085,-6.75072e-06,-0.000524268,0.000183777,-0.000429738,0.000247442,0,0,0,0,0,0,0,0.0256461,-10.2646,1.01111,20.821,-0.752241,-0.572911,-0.232351,0.0413543,-1.1645,0.843571,2.24627,-0.186929,-0.579354,-0.258693
2407420,0.97,-1.57091,-0.522755,-0.000658268,-2.09577,-1.57084,1.57156,0.785796,-1.5708,-0.523599,-4.36146e-08,-2.09439,-1.5708,1.5708,0.785399,0.000464738,6.88908e-05,-4.50048e-06,0.00141373,0.000359877,-4.91329e-05,-0.000309757,0,0,0,0,0,0,0,0.0256461,-10.2924,1.01111,20.7456,-0.75865,-0.57932,-0.219534,0.0402995,-1.16343,0.841859,2.24623,-0.187001,-0.579555,-0.258806
2407421,0.97,-1.57091,-0.522759,-0.000656795,-2.09578,-1.57084,1.57156,0.785795,-1.5708,-0.523599,-4.36146e-08,-2.09439,-1.5708,1.5708,0.785399,-0.000246987,-0.000603687,0.000646614,-0.000820754,2.55881e-06,0.000441963,-0.000681222,0,0,0,0,0,0,0,0.0494498,-10.2646,0.98334,20.821,-0.752241,-0.592137,-0.206716,0.0393079,-1.16156,0.840225,2.2455,-0.187023,-0.579735,-0.258977
2407422,0.97,-1.57091,-0.522756,-0.000656953,-2.09578,-1.57084,1.57156,0.785791,-1.5708,-0.523599,-4.36146e-08,-2.09439,-1.5708,1.5708,0.785399,-0.000164658,0.000803968,0.000431076,-0.00110398,0.000239065,-0.000180076,-0.0018783,0,0,0,0,0,0,0,0.0494498,-10.3162,0.98334,20.8448,-0.75865,-0.57932,-0.168264,0.038423,-1.161,0.838667,2.2457,-0.18707,-0.579911,-0.25917
2407423,0.97,-1.57092,-0.522758,-0.000656824,-2.09578,-1.57084,1.57156,0.785794,-1.5708,-0.523599,-4.36146e-08,-2.09439,-1.5708,1.5708,0.785399,-0.000666584,-2.08332e-05,-0.00036223,0.00102725,-0.000281433,-0.000120051,-0.000302766,0,0,0,0,0,0,0,0.0732535,-10.2924,1.01111,20.7694,-0.746748,-0.57932,-0.193899,0.0380739,-1.16237,0.837818,2.24711,-0.187146,-0.580031,-0.259337
2407424,0.97,-1.57091,-0.52276,-0.000656132,-2.09577,-1.57084,1.57156,0.785794,-1.5708,-0.523599,-4.36146e-08,-2.09439,-1.5708,1.5708,0.785399,0.000112423,-0.000663503,-0.000241487,0.00179846,-0.000187622,0.000157325,3.55153e-05,0,0,0,0,0,0,0,0.0494498,-10.2646,1.01111,20.7218,-0.746748,-0.585729,-0.200308,0.0386078,-1.1625,0.83817,2.24725,-0.187145,-0.580014,-0.259438
2407425,0.97,-1.57091,-0.522753,-0.000654412,-2.09578,-1.57084,1.57156,0.785793,-1.5708,-0.523599,-4.36146e-08,-2.09439,-1.5708,1.5708,0.785399,7.49485e-05,0.00197052,0.00104543,-0.00112108,-0.000125081,0.000104883,-0.000451041,0,0,0,0,0,0,0,0.0494498,-10.3678,0.959536,20.821,-0.746748,-0.585729,-0.18749,0.0391672,-1.16209,0.838504,2.24659,-0.187108,-0.579999,-0.259457
2407426,0.97,-1.57091,-0.522755,-0.000656716,-2.09578,-1.57084,1.57156,0.785796,-1.5708,-0.523599,-4.36146e-08,-2.09439,-1.5708,1.5708,0.785399,4.99657e-05,0.000107252,0.000140145,0.00045904,0.000357422,6.99223e-05,0.000886101,0,0,0,0,0,0,0,0.0494498,-10.3162,0.98334,20.7694,-0.75865,-0.585729,-0.219534,0.0390216,-1.16464,0.837796,2.24757,-0.187146,-0.580132,-0.25939
2407427,0.97,-1.57091,-0.522755,-0.000662495,-2.09578,-1.57084,1.57156,0.785797,-1.5708,-0.523599,-4.36146e-08,-2.09439,-1.5708,1.5708,0.785399,3.33104e-05,-0.000485311,-0.00176261,0.000306027,9.22346e-07,-0.000190744,0.000828093,0,0,0,0,0,0,0,0.0494498,-10.2924,1.06269,20.7694,-0.752241,-0.57932,-0.225942,0.0392469,-1.16738,0.837642,2.24883,-0.187182,-0.580214,-0.259262
2407428,0.97,-1.57092,-0.522757,-0.000654867,-2.09578,-1.57084,1.57156,0.785801,-1.5708,-0.523599,-4.36146e-08,-2.09439,-1.5708,1.5708,0.785399,-0.000534605,-0.00032354,0.000680966,-0.00100241,-0.000202836,-0.000127163,0.00177276,0,0,0,0,0,0,0,0.0732535,-10.2924,0.98334,20.821,-0.746748,-0.57932,-0.258901,0.0405058,-1.16791,0.838995,2.24923,-0.187163,-0.580111,-0.259117
2407429,0.97,-1.57092,-0.522755,-0.00065631,-2.09578,-1.57084,1.57156,0.785797,-1.5708,-0.523599,-4.36146e-08,-2.09439,-1.5708,1.5708,0.785399,-0.000356403,0.00089793,0.000453978,0.000538154,-0.000135224,-8.47752e-05,-3.88598e-05,0,0,0,0,0,0,0,0.0732535,-10.34,0.98334,20.7694,-0.746748,-0.57932,-0.225942,0.0417127,-1.16825,0.84014,2.24983,-0.18716,-0.580013,-0.259002
2407430,0.97,-1.57091,-0.522757,-0.000654661,-2.09578,-1.57084,1.57156,0.785801,-1.5708,-0.523599,-4.36146e-08,-2.09439,-1.5708,1.5708,0.785399,0.00152564,4.18082e-05,0.000302652,0.000358769,0.000113301,0.000418201,0.0011948,0,0,0,0,0,0,0,-0.00212494,-10.3162,0.98334,20.7694,-0.752241,-0.592137,-0.258901,0.0419146,-1.16931,0.839741,2.25054,-0.187184,-0.58008,-0.258962
2407431,0.97,-1.57091,-0.522758,-0.00065606,-2.09578,-1.57084,1.57156,0.785797,-1.5708,-0.523599,-4.36146e-08,-2.09439,-1.5708,1.5708,0.785399,-0.000189335,-0.00052894,-0.000447846,-0.000410434,-0.000331367,-0.000433276,-0.000424172,0,0,0,0,0,0,0,0.0494498,-10.2924,1.01111,20.7972,-0.741255,-0.572911,-0.225942,0.0414284,-1.16983,0.838416,2.2508,-0.187198,-0.58024,-0.259021
2407432,0.97,-1.57092,-0.522762,-0.000655877,-2.09578,-1.57084,1.57156,0.785801,-1.5708,-0.523599,-4.36146e-08,-2.09439,-1.5708,1.5708,0.785399,-0.000683036,-0.00155905,-0.000298564,0.000375991,0.00018599,-5.14918e-05,0.000937922,0,0,0,0,0,0,0,0.0732535,-10.2408,1.01111,20.7694,-0.752241,-0.57932,-0.258901,0.0415283,-1.16803,0.837922,2.25012,-0.187153,-0.580272,-0.259184
2407433,0.97,-1.57092,-0.522755,-0.000659617,-2.09578,-1.57084,1.57156,0.785796,-1.5708,-0.523599,-4.36146e-08,-2.09439,-1.5708,1.5708,0.785399,-0.000455357,0.00072387,-0.000755855,0.000250661,-0.000282908,-0.000271687,-0.000832781,0,0,0,0,0,0,0,0.0732535,-10.3162,1.03491,20.7694,-0.741255,-0.572911,-0.219534,0.0427772,-1.16455,0.839015,2.24864,-0.187036,-0.580099,-0.259444
2407434,0.97,-1.57091,-0.522757,-0.000658176,-2.09578,-1.57084,1.57156,0.785802,-1.5708,-0.523599,-4.36146e-08,-2.09439,-1.5708,1.5708,0.785399,0.00145967,-0.000723846,-0.000503903,0.000167107,-0.000188605,0.000530952,0.00114023,0,0,0,0,0,0,0,-0.00212494,-10.2646,1.03491,20.7694,-0.741255,-0.592137,-0.26531,0.0442747,-1.16182,0.84059,2.24733,-0.186902,-0.579888,-0.259783
2407435,0.97,-1.57091,-0.522756,-0.000659645,-2.09578,-1.57084,1.57156,0.785797,-1.5708,-0.523599,-4.36146e-08,-2.09439,-1.5708,1.5708,0.785399,-0.000233315,0.000723862,-0.000985549,0.000111405,-0.000125737,0.000116609,-0.000697906,0,0,0,0,0,0,0,0.0494498,-10.3162,1.06269,20.7694,-0.741255,-0.585729,-0.225942,0.0453575,-1.16045,0.841845,2.2466,-0.186778,-0.579749,-0.260187
2407436,0.97,-1.57091,-0.522756,-0.000655865,-2.09578,-1.57084,1.57156,0.785796,-1.5708,-0.523599,-4.36146e-08,-2.09439,-1.5708,1.5708,0.785399,-0.000155543,-7.42374e-05,0.000549393,-0.000575344,0.000323077,-0.000159619,-0.00070263,0,0,0,0,0,0,0,0.0494498,-10.2924,1.01111,20.7972,-0.752241,-0.57932,-0.219534,0.0461924,-1.16069,0.842907,2.24672,-0.186672,-0.579662,-0.260645
2407437,0.97,-1.57091,-0.522755,-0.000655994,-2.09578,-1.57084,1.57156,0.785791,-1.5708,-0.523599,-4.36146e-08,-2.09439,-1.5708,1.5708,0.785399,0.000453116,-4.94916e-05,0.00101588,-0.000383563,1.19338e-05,0.000368305,-0.00212993,0,0,0,0,0,0,0,0.0256461,-10.2924,0.98334,20.7972,-0.746748,-0.592137,-0.174673,0.0461869,-1.16209,0.842728,2.24767,-0.18661,-0.579716,-0.261132
2407438,0.97,-1.57091,-0.522757,-0.000654556,-2.09578,-1.57084,1.57156,0.785797,-1.5708,-0.523599,-4.36146e-08,-2.09439,-1.5708,1.5708,0.785399,0.000302078,-0.000682608,0.000677251,-0.000255708,-0.000195495,8.17767e-06,0.000478917,0,0,0,0,0,0,0,0.0256461,-10.2646,0.98334,20.7972,-0.741255,-0.585729,-0.225942,0.0448691,-1.16307,0.840584,2.24863,-0.186582,-0.579966,-0.261592
2407439,0.97,-1.57091,-0.522756,-0.000658156,-2.09577,-1.57084,1.57156,0.785791,-1.5708,-0.523599,-4.36146e-08,-2.09439,-1.5708,1.5708,0.785399,-0.000355427,0.000751354,-0.000198114,0.00103595,7.31208e-05,-0.000231907,-0.00181695,0,0,0,0,0,0,0,0.0494498,-10.3162,1.01111,20.7456,-0.746748,-0.57932,-0.168264,0.0433036,-1.16329,0.838078,2.24902,-0.186533,-0.580253,-0.261981
2407440,0.97,-1.57091,-0.522758,-0.000656757,-2.09578,-1.57084,1.57156,0.785796,-1.5708,-0.523597,-2.54361e-06,-2.09439,-1.5708,1.5708,0.785399,-0.000236951,-5.59095e-05,0.000517538,0.000133824,0.000489557,8.27542e-05,0.000450211,-0.00312521,0.001875,-0.0025,0.00231151,-0.00155837,0.005,-0.000158103,0.0494498,-10.2924,0.98334,20.7694,-0.75865,-0.585729,-0.213125,0.0423833,-1.16355,0.836524,2.24894,-0.186441,-0.58045,-0.262275
2407441,0.97,-1.57091,-0.522758,-0.00066056,-2.09578,-1.57084,1.57156,0.785796,-1.57081,-0.523593,-7.54361e-06,-2.09439,-1.5708,1.57081,0.785398,-0.000157967,-3.7273e-05,-0.0008614,-0.000560398,0.000326371,5.51694e-05,0.000300141,-0.00625042,0.00375,-0.005,0.00462301,-0.00311674,0.01,-0.000316207,0.0494498,-10.2924,1.03491,20.7972,-0.75865,-0.585729,-0.213125,0.0421735,-1.16408,0.836031,2.24895,-0.186338,-0.580544,-0.262458
2407442,0.97,-1.57091,-0.522758,-0.000657002,-2.09578,-1.57084,1.57156,0.785792,-1.57082,-0.523587,-1.50436e-05,-2.09438,-1.57081,1.57083,0.785398,-0.000105312,-2.48487e-05,0.000632159,-0.000373599,-1.97782e-05,-0.000200579,-0.000986701,-0.00937563,0.005625,-0.0075,0.00693452,-0.00467511,0.015,-0.00047431,0.0494498,-10.2924,0.98334,20.7972,-0.752241,-0.57932,-0.181082,0.0424645,-1.16484,0.836312,2.24944,-0.186262,-0.580563,-0.262542
2407443,0.97,-1.57092,-0.522756,-0.000654965,-2.09578,-1.57084,1.57156,0.785796,-1.57083,-0.52358,-2.50436e-05,-2.09437,-1.57081,1.57085,0.785397,-0.00146499,0.00566725,0.000807413,0.00491393,0.000834525,-0.00013372,0.000766353,-0.0125008,0.0075,-0.01,0.00924603,-0.00623348,0.02,-0.000632413,-0.0259286,-10.2646,0.832583,20.8448,-0.77513,-0.57932,-0.219534,0.0427458,-1.16835,0.836526,2.25035,-0.186223,-0.58063,-0.262542
2407444,0.97,-1.57092,-0.522758,-0.000654981,-2.09578,-1.57084,1.57156,0.785798,-1.57084,-0.523571,-3.75436e-05,-2.09436,-1.57082,1.57087,0.785396,-0.00483065,0.0026641,-0.00272171,0.00203577,0.00160751,-8.91464e-05,0.00098562,-0.0156261,0.009375,-0.0125,0.0115575,-0.00779185,0.025,-0.000790516,-0.279835,-10.0623,0.42792,20.9201,-0.803511,-0.57932,-0.232351,0.0447245,-1.1768,0.839005,2.25154,-0.186176,-0.580524,-0.262465
2407445,0.97,-1.57091,-0.522757,-0.000667553,-2.09578,-1.57084,1.57155,0.785799,-1.57086,-0.523559,-5.25436e-05,-2.09435,-1.57083,1.5709,0.785396,-0.00189276,0.000310237,-0.00678195,0.00325224,0.00191938,-0.000534149,0.00116571,-0.0187513,0.01125,-0.015,0.013869,-0.00935022,0.03,-0.00094862,-0.78368,-9.83615,0.0470608,20.9955,-0.826399,-0.566503,-0.246084,0.0515465,-1.18494,0.848492,2.25187,-0.186018,-0.579651,-0.262353
2407446,0.97,-1.57091,-0.522753,-0.000680594,-2.09578,-1.57084,1.57155,0.785799,-1.57088,-0.523546,-7.00436e-05,-2.09433,-1.57084,1.57094,0.785394,-0.00392897,-0.000103242,-0.0115313,0.00136557,0.0025342,-0.000356099,0.00050587,-0.0218765,0.013125,-0.0175,0.0161806,-0.0109086,0.035,-0.00110672,-1.13677,-9.65762,-0.409177,21.1939,-0.860274,-0.566503,-0.23876,0.0644315,-1.18659,0.86742,2.25023,-0.185705,-0.577628,-0.262275
2407447,0.97,-1.57092,-0.522744,-0.000692213,-2.09577,-1.57084,1.57156,0.785797,-1.57091,-0.523531,-9.00436e-05,-2.09431,-1.57085,1.57098,0.785393,-0.00706596,0.00406132,-0.0112128,0.00409559,0.000841757,-0.000712117,-0.000137471,-0.0250017,0.015,-0.02,0.0184921,-0.012467,0.04,-0.00126483,-1.43828,-9.53067,-0.913022,21.2177,-0.837385,-0.553685,-0.225942,0.0829981,-1.18442,0.895638,2.24835,-0.185329,-0.574401,-0.26226
2407448,0.97,-1.57092,-0.522727,-0.000715052,-2.09577,-1.57084,1.57156,0.785795,-1.57094,-0.523514,-0.000112544,-2.09429,-1.57087,1.57102,0.785392,-0.00636045,0.00701468,-0.011783,0.00230072,0.000357721,-0.000746012,-0.000803724,-0.0281269,0.016875,-0.0225,0.0208036,-0.0140253,0.045,-0.00142293,-1.86675,-9.53067,-1.26611,21.2693,-0.831892,-0.546361,-0.206716,0.104227,-1.18668,0.928689,2.24997,-0.185114,-0.570389,-0.262292
2407449,0.97,-1.57093,-0.52272,-0.000736155,-2.09576,-1.57084,1.57156,0.785794,-1.57097,-0.523496,-0.000137544,-2.09427,-1.57088,1.57107,0.78539,-0.00839094,0.00913813,-0.0083544,0.00539522,0.000441931,0.000486003,-0.00101053,-0.0312521,0.01875,-0.025,0.0231151,-0.0155837,0.05,-0.00158103,-2.19603,-9.40768,-1.64697,21.2693,-0.837385,-0.572911,-0.193899,0.122674,-1.19829,0.958521,2.25727,-0.18526,-0.56634,-0.262338
2407450,0.97,-1.57095,-0.522711,-0.00075733,-2.09575,-1.57084,1.57157,0.785791,-1.57101,-0.523473,-0.000167544,-2.09424,-1.5709,1.57113,0.785388,-0.0079413,0.00814668,-0.00897757,0.00831289,0.00114233,0.0060247,-0.00138577,-0.037128,0.0225,-0.03,0.0272517,-0.0182673,0.06,-0.00174171,-2.47374,-9.30453,-2.02783,21.3684,-0.860274,-0.598546,-0.174673,0.133685,-1.21513,0.978225,2.26748,-0.18574,-0.562832,-0.262375
2407451,0.97,-1.57096,-0.522703,-0.000777426,-2.09575,-1.57084,1.57158,0.785792,-1.57105,-0.523447,-0.000202544,-2.09421,-1.57092,1.5712,0.785387,-0.00787694,0.00946215,-0.0112274,0.0073287,-0.00364026,0.00393769,0.000262951,-0.0430039,0.02625,-0.035,0.0313884,-0.020951,0.07,-0.0019024,-2.75145,-9.15378,-2.33331,21.4676,-0.87126,-0.585729,-0.206716,0.135825,-1.23064,0.986069,2.27717,-0.186409,-0.559964,-0.262377
2407452,0.97,-1.57098,-0.522697,-0.000801428,-2.09574,-1.57084,1.57158,0.785795,-1.5711,-0.523417,-0.000242544,-2.09417,-1.57095,1.57128,0.785384,-0.00861867,0.00930704,-0.0139708,0.00866692,-0.00136951,0.00497976,0.000412659,-0.0488798,0.03,-0.04,0.035525,-0.0236346,0.08,-0.00206308,-2.97759,-8.95145,-2.58325,21.4914,-0.910628,-0.514318,-0.213125,0.130674,-1.24281,0.984995,2.28649,-0.187205,-0.5574,-0.26231
2407453,0.97,-1.57101,-0.52269,-0.000820966,-2.09574,-1.57084,1.57158,0.785796,-1.57115,-0.523383,-0.000287544,-2.09413,-1.57097,1.57137,0.785382,-0.0175374,0.0113576,-0.0154494,0.00721884,0.00109222,0.00523379,0.000512465,-0.0547557,0.03375,-0.045,0.0396617,-0.0263183,0.09,-0.00222376,-3.10454,-8.69754,-2.98791,21.6144,-0.972883,-0.418187,-0.219534,0.121872,-1.25232,0.980203,2.29696,-0.188133,-0.554512,-0.262178
2407454,0.97,-1.57103,-0.522682,-0.00084651,-2.09573,-1.57083,1.57159,0.785792,-1.57121,-0.523346,-0.000337544,-2.09409,-1.571,1.57147,0.78538,-0.0214461,0.0138934,-0.0199942,0.00588319,0.00219816,0.0061978,-0.00108251,-0.0606316,0.0375,-0.05,0.0437983,-0.0290019,0.1,-0.00238444,-3.48143,-8.34445,-3.51953,21.7414,-1.01866,-0.340367,-0.181082,0.114226,-1.26286,0.978028,2.31164,-0.189279,-0.550502,-0.261997
2407455,0.97,-1.57106,-0.522658,-0.000892507,-2.09572,-1.57084,1.5716,0.785799,-1.57128,-0.523304,-0.000392544,-2.09404,-1.57103,1.57158,0.785377,-0.0247847,0.0184631,-0.0323737,0.00930333,-0.00142715,0.00713939,0.00141456,-0.0665075,0.04125,-0.055,0.047935,-0.0316856,0.11,-0.00254512,-3.98528,-8.09055,-3.95196,21.8167,-1.06901,-0.263463,-0.23876,0.112883,-1.27912,0.986194,2.33299,-0.190661,-0.544471,-0.26176
2407456,0.97,-1.57109,-0.52263,-0.000938633,-2.0957,-1.57084,1.57162,0.785794,-1.57135,-0.523259,-0.000452544,-2.09399,-1.57107,1.5717,0.785375,-0.0277687,0.0188885,-0.0357766,0.0132729,-0.00488087,0.0143214,-0.000481116,-0.0723834,0.045,-0.06,0.0520716,-0.0343692,0.12,-0.0027058,-4.48912,-7.84061,-4.50738,21.8405,-1.10289,-0.237828,-0.200308,0.120709,-1.29983,1.00972,2.35866,-0.192128,-0.535801,-0.26148
2407457,0.97,-1.57114,-0.522595,-0.000987861,-2.09567,-1.57085,1.57165,0.785797,-1.57143,-0.523211,-0.000517544,-2.09393,-1.5711,1.57183,0.785372,-0.0338359,0.0265025,-0.0376752,0.0191582,-0.00358455,0.0245245,0.000628692,-0.0782594,0.04875,-0.065,0.0562083,-0.0370529,0.13,-0.00286648,-4.84221,-7.63828,-5.09057,21.8644,-1.11479,-0.225011,-0.225942,0.134479,-1.32176,1.04392,2.38482,-0.193657,-0.524851,-0.261195
2407458,0.97,-1.57119,-0.522552,-0.00104722,-2.09565,-1.57086,1.57168,0.785792,-1.57151,-0.523158,-0.000587544,-2.09387,-1.57114,1.57197,0.785369,-0.0356148,0.030884,-0.0426089,0.0197639,-0.00745812,0.0273139,-0.00124238,-0.0841353,0.0525,-0.07,0.0603449,-0.0397365,0.14,-0.00302716,-5.32225,-7.51132,-5.52301,21.9159,-1.12028,-0.192968,-0.181082,0.148755,-1.34825,1.08065,2.41192,-0.195458,-0.51241,-0.260919
2407459,0.97,-1.57125,-0.522516,-0.00110309,-2.09562,-1.57087,1.57173,0.785792,-1.5716,-0.523102,-0.000662544,-2.09381,-1.57119,1.57212,0.785366,-0.0466029,0.0347026,-0.0485865,0.0214597,-0.00518677,0.0352436,-0.000828256,-0.0900112,0.05625,-0.075,0.0644816,-0.0424201,0.15,-0.00318785,-5.62774,-7.28122,-6.00305,21.9159,-1.13676,-0.199376,-0.181082,0.162378,-1.38285,1.11817,2.44275,-0.197694,-0.498586,-0.260629
2407460,0.97,-1.57131,-0.522475,-0.00115696,-2.09559,-1.57088,1.5718,0.785787,-1.5717,-0.52304,-0.000745044,-2.09374,-1.57123,1.57229,0.785362,-0.0527464,0.0383215,-0.0493238,0.025502,-0.00783419,0.0490083,-0.00126425,-0.0984782,0.061875,-0.0825,0.0701127,-0.046137,0.165,-0.0031804,-5.90545,-7.07889,-6.51086,22.0627,-1.16514,-0.269872,-0.161856,0.175893,-1.4234,1.15671,2.47738,-0.200347,-0.483278,-0.260297
2407461,0.97,-1.57139,-0.522445,-0.00122,-2.09556,-1.57089,1.57187,0.785781,-1.57181,-0.522972,-0.000835044,-2.09366,-1.57128,1.57247,0.785359,-0.0594978,0.0374522,-0.0530202,0.0295492,-0.0092797,0.0611572,-0.00230089,-0.106945,0.0675,-0.09,0.0757438,-0.0498538,0.18,-0.00317296,-6.08001,-6.7258,-6.88775,22.1619,-1.20543,-0.289098,-0.122488,0.186832,-1.46203,1.19189,2.51188,-0.203299,-0.466952,-0.259908
2407462,0.97,-1.57146,-0.522407,-0.00128425,-2.09552,-1.57089,1.57196,0.785783,-1.57192,-0.522899,-0.000932544,-2.09358,-1.57134,1.57266,0.785356,-0.0599581,0.0382037,-0.0565587,0.0290498,-0.00980091,0.0689936,-0.00105921,-0.115412,0.073125,-0.0975,0.081375,-0.0535706,0.195,-0.00316552,-6.30614,-6.42429,-7.21704,22.2889,-1.26127,-0.276281,-0.135305,0.191612,-1.48921,1.21824,2.5425,-0.206496,-0.450242,-0.259437
2407463,0.97,-1.57155,-0.522366,-0.00135102,-2.09548,-1.5709,1.57205,0.785778,-1.57205,-0.522821,-0.00103754,-2.09349,-1.57139,1.57287,0.785353,-0.069969,0.0414077,-0.0636206,0.0330936,-0.0104853,0.0791991,-0.00118086,-0.123879,0.07875,-0.105,0.0870061,-0.0572874,0.21,-0.00315808,-6.38152,-6.095,-7.6217,22.3603,-1.31254,-0.237828,-0.122488,0.189716,-1.50232,1.23513,2.5696,-0.210006,-0.433341,-0.258835
2407464,0.97,-1.57165,-0.522318,-0.00142593,-2.09544,-1.57091,1.57216,0.785776,-1.57218,-0.522736,-0.00115004,-2.0934,-1.57145,1.5731,0.78535,-0.083437,0.0459278,-0.0695586,0.0353646,-0.0100213,0.089804,-7.51624e-05,-0.132346,0.084375,-0.1125,0.0926372,-0.0610043,0.225,-0.00315063,-6.4569,-5.71414,-8.12951,22.4634,-1.39128,-0.1536,-0.141714,0.186231,-1.50517,1.24934,2.59536,-0.213844,-0.415689,-0.258058
2407465,0.97,-1.57174,-0.522257,-0.00151858,-2.09538,-1.57093,1.57229,0.78577,-1.57232,-0.522646,-0.00127004,-2.0933,-1.57152,1.57334,0.785347,-0.0838094,0.0481345,-0.0779205,0.0397149,-0.0145401,0.104003,-0.00147426,-0.140814,0.09,-0.12,0.0982684,-0.0647211,0.24,-0.00314319,-6.93694,-5.41263,-8.60956,22.4634,-1.47093,-0.115148,-0.103262,0.185439,-1.50113,1.26641,2.62103,-0.218014,-0.396821,-0.257097
2407466,0.97,-1.57185,-0.522183,-0.00161861,-2.09532,-1.57095,1.57245,0.785763,-1.57247,-0.522551,-0.00139754,-2.0932,-1.57159,1.57359,0.785343,-0.0925137,0.0547346,-0.0844155,0.0463741,-0.0179241,0.119959,-0.00193228,-0.149281,0.095625,-0.1275,0.1039,-0.0684379,0.255,-0.00313575,-7.3416,-5.18649,-9.0896,22.4356,-1.54967,-0.186559,-0.077627,0.186168,-1.49147,1.28479,2.64614,-0.222581,-0.376996,-0.255965
2407467,0.97,-1.57197,-0.522107,-0.00171665,-2.09526,-1.57098,1.57263,0.785756,-1.57263,-0.522449,-0.00153254,-2.09309,-1.57166,1.57386,0.78534,-0.101916,0.0617382,-0.088754,0.0519415,-0.0235507,0.141054,-0.00322096,-0.157748,0.10125,-0.135,0.109531,-0.0721547,0.27,-0.00312831,-7.64312,-4.93259,-9.72436,22.511,-1.54417,-0.289098,-0.0254419,0.186611,-1.48017,1.30181,2.67069,-0.227663,-0.356632,-0.254639
2407468,0.97,-1.5721,-0.522022,-0.00183655,-2.09519,-1.57101,1.57282,0.785747,-1.5728,-0.522342,-0.00167504,-2.09298,-1.57173,1.57415,0.785337,-0.10959,0.0709431,-0.0996984,0.0608931,-0.0268997,0.159813,-0.00772834,-0.166215,0.106875,-0.1425,0.115162,-0.0758716,0.285,-0.00312086,-7.92083,-4.73026,-10.1806,22.388,-1.55607,-0.340367,0.000192821,0.186663,-1.47353,1.31723,2.69593,-0.233356,-0.336025,-0.253052
2407469,0.97,-1.57224,-0.521938,-0.00195847,-2.09511,-1.57104,1.57304,0.785739,-1.57297,-0.52223,-0.00182504,-2.09285,-1.57181,1.57445,0.785334,-0.119849,0.0732946,-0.106513,0.0682589,-0.0304215,0.178099,-0.00530084,-0.174682,0.1125,-0.15,0.120793,-0.0795884,0.3,-0.00311342,-8.27391,-4.45255,-10.5615,22.3603,-1.54417,-0.40537,-0.00621587,0.187668,-1.47147,1.33307,2.72045,-0.239561,-0.3152,-0.251136
2407470,0.97,-1.57239,-0.521851,-0.00207085,-2.09504,-1.57108,1.57327,0.785733,-1.57315,-0.52211,-0.00198503,-2.09273,-1.5719,1.57477,0.785331,-0.131546,0.0756577,-0.107515,0.0677186,-0.032762,0.197748,-0.00382337,-0.184801,0.119423,-0.15999,0.127417,-0.0838764,0.319216,-0.00301908,-8.45244,-4.19864,-11.0931,22.4634,-1.53319,-0.488683,-0.00621587,0.188993,-1.46696,1.34764,2.74228,-0.246215,-0.294365,-0.248853
2407471,0.97,-1.57255,-0.521768,-0.00218868,-2.09495,-1.57113,1.57353,0.785725,-1.57335,-0.521984,-0.00215501,-2.09259,-1.57199,1.5751,0.785328,-0.140812,0.080045,-0.111172,0.0721891,-0.0388518,0.218127,-0.00252866,-0.194919,0.126345,-0.16998,0.134041,-0.0881644,0.338431,-0.00292475,-8.5794,-3.92093,-11.5215,22.4872,-1.53319,-0.546361,-0.0126246,0.186757,-1.4562,1.35421,2.76295,-0.253435,-0.274256,-0.246199
2407472,0.96,-1.5727,-0.521673,-0.00231501,-2.09486,-1.57118,1.5738,0.785714,-1.57355,-0.521851,-0.00233498,-2.09245,-1.57208,1.57546,0.785325,-0.1451,0.0850128,-0.116158,0.0779548,-0.0417748,0.236237,-0.0069763,-0.205038,0.133268,-0.17997,0.140664,-0.0924524,0.357647,-0.00283041,-8.82933,-3.7186,-11.8508,22.5348,-1.57255,-0.488683,0.000192821,0.176998,-1.43958,1.34687,2.78382,-0.261249,-0.255671,-0.243201
2407473,0.96,-1.57288,-0.521579,-0.00244043,-2.09478,-1.57123,1.57408,0.785704,-1.57377,-0.521711,-0.00252494,-2.09231,-1.57218,1.57584,0.785323,-0.156639,0.0865316,-0.120985,0.0804091,-0.047346,0.25182,-0.00923234,-0.215157,0.140191,-0.18996,0.147288,-0.0967403,0.376863,-0.00273607,-9.00786,-3.41708,-12.3824,22.6856,-1.6403,-0.424596,-0.0190333,0.158304,-1.41579,1.32381,2.80414,-0.269544,-0.238889,-0.239905
2407474,0.96,-1.57307,-0.521475,-0.00257416,-2.09467,-1.57128,1.57439,0.785694,-1.57399,-0.521564,-0.00272489,-2.09215,-1.57228,1.57623,0.78532,-0.166882,0.0939036,-0.128295,0.0878827,-0.0525292,0.266108,-0.0149045,-0.225276,0.147113,-0.19995,0.153912,-0.101028,0.396079,-0.00264174,-9.234,-3.1116,-13.041,22.7332,-1.69707,-0.353185,-0.0584009,0.133389,-1.38376,1.2888,2.82356,-0.278192,-0.223387,-0.236355
2407475,0.97,-1.57324,-0.521357,-0.00273319,-2.09456,-1.57134,1.57472,0.78569,-1.57423,-0.52141,-0.00293483,-2.09199,-1.57238,1.57665,0.785317,-0.171863,0.10034,-0.139803,0.0930528,-0.0516593,0.285915,-0.0138789,-0.235394,0.154036,-0.20994,0.160536,-0.105316,0.415294,-0.0025474,-9.73784,-2.8577,-13.5726,22.6618,-1.75383,-0.359594,-0.116079,0.106133,-1.34722,1.2478,2.84306,-0.287145,-0.208411,-0.232626
2407476,0.98,-1.57344,-0.521224,-0.00289917,-2.09443,-1.57141,1.57508,0.785678,-1.57448,-0.521249,-0.00315476,-2.09182,-1.57249,1.57708,0.785315,-0.176923,0.108703,-0.152101,0.102946,-0.0563822,0.30923,-0.0160788,-0.245513,0.160959,-0.21993,0.16716,-0.109604,0.43451,-0.00245306,-10.2933,-2.73471,-14.0527,22.5864,-1.79869,-0.443822,-0.0968531,0.0784326,-1.31128,1.20493,2.86358,-0.296429,-0.19353,-0.228856
2407477,0.98,-1.57365,-0.521084,-0.00306438,-2.0943,-1.57148,1.57547,0.785666,-1.57473,-0.521081,-0.00338468,-2.09165,-1.57261,1.57754,0.785313,-0.192232,0.118231,-0.158211,0.110293,-0.0616735,0.331071,-0.0173163,-0.255632,0.167881,-0.22992,0.173784,-0.113892,0.453726,-0.00235873,-10.5432,-2.63156,-14.7112,22.511,-1.7932,-0.572911,-0.0840357,0.0513404,-1.27991,1.16254,2.88518,-0.30604,-0.178548,-0.225189
2407478,0.98,-1.57388,-0.520939,-0.00324669,-2.09416,-1.57157,1.57588,0.785647,-1.575,-0.520906,-0.00362459,-2.09147,-1.57272,1.57801,0.78531,-0.201577,0.127308,-0.165985,0.117408,-0.0704387,0.362941,-0.0163825,-0.265751,0.174804,-0.23991,0.180407,-0.11818,0.472941,-0.00226439,-10.8725,-2.4808,-15.2429,22.3603,-1.78221,-0.713903,0.00660151,0.0248709,-1.25758,1.12028,2.90886,-0.316014,-0.163633,-0.221686
2407479,0.98,-1.57411,-0.520788,-0.00343638,-2.09402,-1.57165,1.5763,0.785634,-1.57527,-0.520724,-0.00387449,-2.09128,-1.57285,1.5785,0.785308,-0.206932,0.134516,-0.171759,0.126685,-0.0768711,0.38091,-0.016779,-0.27587,0.181726,-0.2499,0.187031,-0.122468,0.492157,-0.00217005,-11.2533,-2.35385,-15.6475,22.2889,-1.77031,-0.740453,0.00660151,-0.00430933,-1.24502,1.07312,2.93451,-0.326381,-0.149537,-0.218321
2407480,0.98,-1.57435,-0.520628,-0.00361664,-2.09387,-1.57174,1.57675,0.785619,-1.57556,-0.520535,-0.00413438,-2.09109,-1.57297,1.57902,0.785306,-0.21735,0.142161,-0.172188,0.133475,-0.0766879,0.403116,-0.0138728,-0.286861,0.189216,-0.25989,0.194259,-0.127002,0.512147,-0.00203487,-11.5033,-2.20309,-16.1791,22.2373,-1.75932,-0.785314,0.0459692,-0.0420401,-1.23841,1.01236,2.96,-0.337193,-0.137243,-0.215009
2407481,0.98,-1.57459,-0.520474,-0.00381008,-2.09371,-1.57184,1.57722,0.785606,-1.57586,-0.520338,-0.00440426,-2.09089,-1.5731,1.57955,0.785304,-0.22426,0.141516,-0.175534,0.141,-0.0821194,0.42732,-0.0150578,-0.297852,0.196706,-0.26988,0.201487,-0.131535,0.532137,-0.0018997,-11.781,-1.94919,-16.6116,22.2135,-1.73094,-0.798131,0.0459692,-0.0933547,-1.22866,0.929902,2.98177,-0.348443,-0.127473,-0.211669
2407482,0.98,-1.57484,-0.520311,-0.00401479,-2.09355,-1.57194,1.57772,0.785594,-1.57617,-0.520134,-0.00468413,-2.09068,-1.57324,1.5801,0.785302,-0.229686,0.149206,-0.187083,0.148957,-0.0892223,0.451122,-0.0151505,-0.308843,0.204196,-0.27987,0.208715,-0.136069,0.552127,-0.00176452,-12.0587,-1.72305,-16.9131,22.2373,-1.74834,-0.75327,0.0258276,-0.15891,-1.20513,0.824873,2.99567,-0.359884,-0.120252,-0.208245
2407483,0.98,-1.5751,-0.520138,-0.0042301,-2.09338,-1.57205,1.57823,0.785581,-1.57649,-0.519922,-0.00497399,-2.09046,-1.57338,1.58067,0.785301,-0.241637,0.155957,-0.192205,0.154734,-0.0892773,0.473871,-0.0157565,-0.319834,0.211686,-0.28986,0.215942,-0.140603,0.572117,-0.00162934,-12.3126,-1.54453,-17.1948,22.2611,-1.78221,-0.707494,0.0194189,-0.23487,-1.16841,0.703761,3.00258,-0.371292,-0.114962,-0.20469
2407484,0.98,-1.57539,-0.519965,-0.00443772,-2.09319,-1.57215,1.57878,0.785571,-1.57682,-0.519703,-0.00527384,-2.09024,-1.57353,1.58126,0.785299,-0.254093,0.160644,-0.196584,0.163295,-0.0991575,0.503083,-0.0101476,-0.330825,0.219176,-0.29985,0.22317,-0.145136,0.592107,-0.00149416,-12.3364,-1.34219,-17.5994,22.2373,-1.80968,-0.740453,-0.0254419,-0.317664,-1.12299,0.571695,3.00526,-0.382609,-0.111012,-0.201007
2407485,0.98,-1.57567,-0.519775,-0.00467264,-2.093,-1.57226,1.57935,0.785558,-1.57716,-0.519477,-0.00558368,-2.09001,-1.57368,1.58188,0.785298,-0.263779,0.168779,-0.204655,0.174038,-0.100581,0.52623,-0.0120246,-0.341816,0.226666,-0.30984,0.230398,-0.14967,0.612097,-0.00135899,-12.3602,-1.21524,-17.8018,22.2611,-1.86094,-0.810948,-0.0382593,-0.405251,-1.06859,0.431148,3.00308,-0.393739,-0.108004,-0.197258
2407486,0.98,-1.57596,-0.519572,-0.00491554,-2.0928,-1.57237,1.57994,0.785552,-1.57751,-0.519242,-0.00590351,-2.08977,-1.57383,1.58251,0.785297,-0.271466,0.185001,-0.214527,0.182368,-0.106956,0.553553,-0.00745124,-0.352807,0.234156,-0.31983,0.237626,-0.154203,0.632087,-0.00122381,-12.6141,-1.24301,-17.9525,22.1897,-1.88933,-0.868627,-0.0840357,-0.495533,-1.01379,0.285689,2.99869,-0.40474,-0.105676,-0.193517
2407487,0.98,-1.57628,-0.519365,-0.00515944,-2.09258,-1.57249,1.58057,0.785541,-1.57788,-0.519001,-0.00623333,-2.08953,-1.57399,1.58316,0.785296,-0.283767,0.192209,-0.225437,0.191026,-0.112273,0.57126,-0.0107384,-0.363798,0.241646,-0.32982,0.244853,-0.158737,0.652077,-0.00108863,-12.5903,-1.21524,-18.0795,22.1381,-1.9232,-0.913488,-0.077627,-0.585216,-0.971905,0.141005,2.99795,-0.415794,-0.10369,-0.189854
2407488,0.98,-1.5766,-0.519144,-0.00541383,-2.09235,-1.57262,1.5812,0.78553,-1.57825,-0.518752,-0.00657314,-2.08927,-1.57415,1.58383,0.785295,-0.296458,0.201118,-0.232314,0.203153,-0.117095,0.583878,-0.0133858,-0.374789,0.249136,-0.33981,0.252081,-0.16327,0.672067,-0.000953452,-12.5903,-1.21524,-18.3572,21.9873,-1.92869,-0.972081,-0.0648096,-0.670079,-0.942203,0.00308479,3.00042,-0.426878,-0.101366,-0.186352
2407489,0.98,-1.57692,-0.518919,-0.00568854,-2.09213,-1.57275,1.58186,0.785519,-1.57864,-0.518495,-0.00692294,-2.08901,-1.57432,1.58452,0.785294,-0.297909,0.210978,-0.247162,0.20691,-0.121388,0.613949,-0.010596,-0.38578,0.256626,-0.3498,0.259309,-0.167804,0.692057,-0.000818274,-12.8403,-1.21524,-18.3849,22.0389,-1.91771,-1.02335,-0.0510767,-0.749034,-0.92035,-0.126447,3.0044,-0.438001,-0.0985171,-0.18307
2407490,0.98,-1.57724,-0.518691,-0.00596405,-2.09189,-1.57289,1.58256,0.785509,-1.57903,-0.518231,-0.00728273,-2.08875,-1.57449,1.58524,0.785293,-0.309777,0.213225,-0.258264,0.224261,-0.128424,0.637407,-0.00912345,-0.396985,0.264116,-0.35979,0.266848,-0.172378,0.712047,-0.000662276,-12.991,-1.13986,-18.5357,21.9635,-1.91771,-1.10026,-0.0190333,-0.822945,-0.900671,-0.247938,3.0074,-0.449094,-0.0954206,-0.180037
2407491,0.98,-1.57761,-0.518453,-0.00624975,-2.09165,-1.57305,1.58325,0.785508,-1.57944,-0.517959,-0.00765251,-2.08847,-1.57467,1.58597,0.785293,-0.326783,0.219499,-0.264847,0.225975,-0.138549,0.658705,-0.00527872,-0.40819,0.271606,-0.36978,0.274387,-0.176952,0.732037,-0.000506279,-12.8918,-1.11606,-18.738,22.0151,-1.89482,-1.06821,-0.0584009,-0.890407,-0.870807,-0.359891,3.00353,-0.459867,-0.0919445,-0.177241
2407492,0.98,-1.57797,-0.518207,-0.00653727,-2.09139,-1.5732,1.58396,0.785495,-1.57986,-0.51768,-0.00803228,-2.08819,-1.57485,1.58672,0.785292,-0.338005,0.22785,-0.271481,0.234736,-0.147159,0.671042,-0.00570543,-0.419395,0.279096,-0.37977,0.281926,-0.181527,0.752027,-0.000350281,-12.9672,-1.11606,-18.8888,22.0389,-1.87193,-0.933629,-0.0126246,-0.950698,-0.829433,-0.462803,2.99415,-0.470332,-0.088014,-0.174609
2407493,0.98,-1.57833,-0.51795,-0.0068444,-2.09114,-1.57336,1.58469,0.785491,-1.58029,-0.517394,-0.00842204,-2.0879,-1.57504,1.58749,0.785292,-0.343484,0.238882,-0.283782,0.244687,-0.147427,0.686341,-0.00811448,-0.4306,0.286586,-0.38976,0.289465,-0.186101,0.772017,-0.000194284,-13.1695,-1.21524,-18.9642,22.0627,-1.87834,-0.881444,-0.0318506,-1.00592,-0.785026,-0.559867,2.98423,-0.480693,-0.083844,-0.17207
2407494,0.98,-1.57871,-0.517689,-0.007155,-2.09086,-1.57352,1.58546,0.785482,-1.58073,-0.517099,-0.00882179,-2.0876,-1.57523,1.58828,0.785292,-0.353922,0.247726,-0.299234,0.253231,-0.152735,0.717939,-0.0121856,-0.441805,0.294076,-0.39975,0.297004,-0.190675,0.792007,-3.8286e-05,-13.2449,-1.31839,-19.1189,22.0151,-1.88383,-1.02976,0.00660151,-1.0569,-0.744407,-0.650903,2.9759,-0.490955,-0.0793768,-0.169585
2407495,0.98,-1.5791,-0.517413,-0.0074789,-2.09058,-1.57369,1.58626,0.78548,-1.58119,-0.516798,-0.00923153,-2.0873,-1.57542,1.5891,0.785292,-0.366213,0.258283,-0.307702,0.262192,-0.155666,0.7396,-0.00782556,-0.45301,0.301566,-0.40974,0.304543,-0.195249,0.811997,0.000117711,-13.2687,-1.46915,-19.2181,22.0151,-1.91221,-1.13962,-0.0254419,-1.10259,-0.711805,-0.733421,2.97077,-0.501044,-0.0744413,-0.167121
2407496,0.98,-1.5795,-0.517124,-0.00782521,-2.09028,-1.57386,1.58704,0.785483,-1.58165,-0.516489,-0.00965126,-2.08699,-1.57562,1.58993,0.785292,-0.374357,0.269958,-0.313673,0.273458,-0.157137,0.75517,-0.00792641,-0.464214,0.309056,-0.41973,0.312082,-0.199823,0.831987,0.000273709,-13.3441,-1.64767,-19.1943,21.9635,-1.96806,-1.09385,-0.0968531,-1.1453,-0.690176,-0.811076,2.9695,-0.511047,-0.0694764,-0.16465
2407497,0.98,-1.57992,-0.516829,-0.00816639,-2.08998,-1.57403,1.58785,0.785485,-1.58213,-0.516172,-0.010081,-2.08667,-1.57583,1.59078,0.785293,-0.390656,0.277045,-0.323051,0.281582,-0.16414,0.770252,-0.00522535,-0.475419,0.316546,-0.42972,0.319621,-0.204398,0.851977,0.000429707,-13.3441,-1.89761,-19.2181,21.8882,-1.99644,-1.01053,-0.122488,-1.18773,-0.6792,-0.888645,2.97122,-0.521102,-0.0649178,-0.1622
2407498,0.99,-1.58034,-0.516524,-0.00851844,-2.08969,-1.57422,1.5887,0.785483,-1.58261,-0.515848,-0.0105207,-2.08634,-1.57604,1.59165,0.785293,-0.401926,0.286093,-0.333998,0.287679,-0.169631,0.792813,-0.00931899,-0.486624,0.324036,-0.43971,0.32716,-0.208972,0.871967,0.000585704,-13.2687,-2.07614,-19.3212,21.9635,-2.00194,-1.01053,-0.10967,-1.228,-0.675397,-0.963876,2.9751,-0.531222,-0.0604131,-0.159866
2407499,0.99,-1.58076,-0.516223,-0.00889852,-2.08936,-1.57441,1.58957,0.785476,-1.58311,-0.515517,-0.0109704,-2.08601,-1.57625,1.59254,0.785294,-0.406128,0.289299,-0.34849,0.298463,-0.177926,0.815344,-0.00927478,-0.497829,0.331526,-0.4497,0.3347,-0.213546,0.891957,0.000741702,-13.4949,-2.15152,-19.1943,21.9159,-2.04222,-1.12681,-0.0510767,-1.26469,-0.672824,-1.03412,2.97926,-0.54133,-0.0556323,-0.157753
2407500,0.99,-1.5812,-0.51591,-0.00927772,-2.08904,-1.57461,1.59045,0.785476,-1.58362,-0.515178,-0.0114301,-2.08566,-1.57647,1.59346,0.785295,-0.415592,0.296092,-0.359491,0.307907,-0.180928,0.830334,-0.00685217,-0.508677,0.339016,-0.45969,0.342339,-0.218025,0.911947,0.000919523,-13.6218,-2.20309,-19.1665,21.9397,-2.03673,-1.10026,-0.0510767,-1.29888,-0.662014,-1.0998,2.97875,-0.551296,-0.0505847,-0.155909
2407501,0.99,-1.58167,-0.515585,-0.00966468,-2.08871,-1.5748,1.59132,0.785472,-1.58414,-0.514831,-0.0118998,-2.08531,-1.57669,1.59439,0.785296,-0.433212,0.299865,-0.363549,0.315136,-0.182601,0.843324,-0.00649401,-0.519525,0.346506,-0.46968,0.349978,-0.222504,0.931937,0.00109734,-13.5702,-2.20309,-19.2697,21.9635,-2.04771,-0.946447,-0.0126246,-1.33118,-0.636991,-1.16204,2.97067,-0.561142,-0.0452408,-0.154295
2407502,0.99,-1.58214,-0.515245,-0.0100565,-2.08837,-1.575,1.59225,0.785473,-1.58467,-0.514477,-0.0123794,-2.08496,-1.57692,1.59534,0.785298,-0.445017,0.309981,-0.372903,0.322017,-0.185762,0.877088,-0.00328149,-0.530373,0.353996,-0.47967,0.357618,-0.226983,0.951927,0.00127517,-13.5226,-2.35385,-19.2935,21.9159,-2.00834,-0.97849,-0.0510767,-1.36237,-0.600388,-1.22302,2.9573,-0.571054,-0.0397302,-0.152818
2407503,0.99,-1.5826,-0.514894,-0.0104763,-2.08804,-1.57521,1.59322,0.785468,-1.58521,-0.514116,-0.0128691,-2.08459,-1.57715,1.59631,0.785299,-0.443933,0.319955,-0.388053,0.332593,-0.19137,0.899241,-0.00365668,-0.541221,0.361486,-0.48966,0.365257,-0.231462,0.971917,0.00145299,-13.8003,-2.50461,-19.2181,21.9635,-1.98546,-1.10666,-0.0190333,-1.39502,-0.562044,-1.28546,2.94327,-0.581178,-0.0345605,-0.151397
2407504,0.99,-1.58309,-0.514535,-0.0109001,-2.08769,-1.57542,1.59419,0.785466,-1.58576,-0.513747,-0.0133687,-2.08422,-1.57738,1.5973,0.785301,-0.459252,0.338158,-0.397176,0.338455,-0.204049,0.924496,-0.00312418,-0.55207,0.368976,-0.49965,0.372896,-0.235942,0.991907,0.00163081,-13.9233,-2.78232,-19.2458,22.0627,-1.96806,-1.1973,-0.00621587,-1.43106,-0.537837,-1.34993,2.93496,-0.591582,-0.0302039,-0.149959
2407505,0.99,-1.58359,-0.514175,-0.0113195,-2.08733,-1.57564,1.59518,0.78547,-1.58633,-0.51337,-0.0138784,-2.08384,-1.57762,1.59832,0.785302,-0.470612,0.346858,-0.404051,0.343963,-0.203167,0.941952,-0.000817385,-0.562918,0.376466,-0.50964,0.380536,-0.240421,1.0119,0.00180863,-13.9233,-2.90927,-19.4204,22.1143,-2.00834,-1.22294,-0.044668,-1.46987,-0.542446,-1.41515,2.93962,-0.602361,-0.0268089,-0.148417
2407506,0.99,-1.5841,-0.513794,-0.0117617,-2.08697,-1.57586,1.59617,0.785478,-1.5869,-0.512986,-0.014398,-2.08345,-1.57787,1.59935,0.785304,-0.488238,0.357118,-0.415445,0.354999,-0.202963,0.957694,0.000794073,-0.573766,0.383956,-0.51963,0.388175,-0.2449,1.03189,0.00198645,-14.0503,-3.0878,-19.4204,22.1619,-2.03673,-1.13321,-0.0840357,-1.50882,-0.57494,-1.4784,2.95755,-0.613475,-0.0240318,-0.146746
2407507,0.99,-1.5846,-0.513419,-0.0122161,-2.0866,-1.57607,1.5972,0.78548,-1.58748,-0.512595,-0.0149276,-2.08305,-1.57812,1.6004,0.785307,-0.494184,0.360502,-0.42765,0.356179,-0.206804,0.987251,0.000914801,-0.584614,0.391446,-0.52962,0.395815,-0.249379,1.05188,0.00216427,-14.2288,-3.18698,-19.4482,22.3127,-2.09257,-1.0618,-0.0968531,-1.54496,-0.622849,-1.53595,2.98357,-0.62472,-0.0213095,-0.145028
2407508,0.99,-1.58512,-0.513026,-0.0126889,-2.08622,-1.5763,1.59826,0.785476,-1.58808,-0.512196,-0.0154672,-2.08265,-1.57837,1.60147,0.785309,-0.509582,0.368006,-0.438342,0.369141,-0.209575,1.01681,-0.00088126,-0.595462,0.398936,-0.53961,0.403454,-0.253858,1.07187,0.00234209,-14.3796,-3.36551,-19.5236,22.4356,-2.14934,-1.08103,-0.0584009,-1.57809,-0.673324,-1.58725,3.01257,-0.635922,-0.0184917,-0.143383
2407509,0.99,-1.58565,-0.512623,-0.0131719,-2.08584,-1.57653,1.59934,0.785474,-1.58869,-0.51179,-0.0160168,-2.08224,-1.57863,1.60256,0.785311,-0.519998,0.377609,-0.448707,0.374792,-0.21749,1.04399,-0.00138372,-0.60631,0.406426,-0.5496,0.411093,-0.258337,1.09186,0.00251992,-14.4787,-3.56784,-19.4958,22.5626,-2.18321,-1.13962,-0.0382593,-1.60911,-0.719763,-1.63334,3.04058,-0.646984,-0.0155981,-0.141886
2407510,0.99,-1.5862,-0.512225,-0.013669,-2.08544,-1.57677,1.60044,0.785473,-1.5893,-0.511376,-0.0165764,-2.08182,-1.57889,1.60367,0.785314,-0.527808,0.383638,-0.464871,0.378277,-0.225081,1.0595,-0.00143487,-0.61629,0.413916,-0.55959,0.418693,-0.262621,1.11106,0.00274184,-14.6335,-3.59164,-19.3728,22.7094,-2.17222,-1.15244,-0.0254419,-1.638,-0.763953,-1.67357,3.06875,-0.658009,-0.0124878,-0.140505
2407511,0.99,-1.58676,-0.511806,-0.0141746,-2.08505,-1.57701,1.60157,0.785477,-1.58993,-0.510954,-0.017146,-2.08139,-1.57916,1.6048,0.785317,-0.538979,0.393492,-0.476812,0.382675,-0.229609,1.08313,0.000473226,-0.626271,0.421406,-0.56958,0.426293,-0.266905,1.13027,0.00296377,-14.5065,-3.7424,-19.345,22.8086,-2.17772,-1.15885,-0.0648096,-1.6641,-0.809604,-1.70573,3.10111,-0.669192,-0.00890062,-0.139162
2407512,0.99,-1.58735,-0.511393,-0.0146823,-2.08464,-1.57724,1.60271,0.785475,-1.59056,-0.510525,-0.0177256,-2.08096,-1.57943,1.60595,0.78532,-0.550018,0.398782,-0.494687,0.391972,-0.227286,1.10727,-0.000451693,-0.636251,0.428896,-0.57957,0.433892,-0.271189,1.14948,0.00318569,-14.328,-3.77017,-19.2697,22.7848,-2.22258,-1.22934,-0.044668,-1.68561,-0.856935,-1.72672,3.1382,-0.68056,-0.00452443,-0.13783
2407513,0.99,-1.58794,-0.510959,-0.0152183,-2.08422,-1.57749,1.60389,0.785475,-1.59121,-0.510089,-0.0183151,-2.08052,-1.57971,1.60712,0.785324,-0.563476,0.405312,-0.5063,0.401168,-0.232852,1.13051,-0.00126646,-0.646231,0.436386,-0.58956,0.441492,-0.275472,1.16869,0.00340762,-14.3558,-3.89713,-19.1189,22.7848,-2.1942,-1.3328,-0.0190333,-1.70026,-0.899489,-1.73377,3.1753,-0.691921,0.000941869,-0.136545
2407514,0.99,-1.58853,-0.51052,-0.0157771,-2.08381,-1.57774,1.60505,0.785468,-1.59187,-0.509645,-0.0189147,-2.08007,-1.57999,1.60831,0.785327,-0.572207,0.410991,-0.52371,0.40617,-0.235152,1.14788,-0.00251774,-0.656211,0.443876,-0.59955,0.449092,-0.279756,1.18789,0.00362954,-14.2804,-3.92093,-18.9642,22.8601,-2.21709,-1.33921,0.0258276,-1.70691,-0.931502,-1.72615,3.20853,-0.703133,0.00755204,-0.135316
2407515,0.99,-1.58915,-0.510076,-0.0163268,-2.08338,-1.578,1.60624,0.785466,-1.59253,-0.509194,-0.0195242,-2.07961,-1.58027,1.60952,0.785331,-0.579544,0.41932,-0.526397,0.411469,-0.244035,1.15771,-0.00216215,-0.666192,0.451366,-0.60954,0.456691,-0.28404,1.2071,0.00385147,-14.1534,-3.9725,-18.865,22.8363,-2.17772,-1.29343,0.038645,-1.70941,-0.954733,-1.71,3.23935,-0.714353,0.014614,-0.134065
2407516,0.99,-1.58976,-0.509622,-0.0168912,-2.08295,-1.57826,1.60743,0.785475,-1.59321,-0.508735,-0.0201438,-2.07915,-1.58056,1.61074,0.785335,-0.590349,0.428626,-0.535134,0.42184,-0.242421,1.16145,0.00163753,-0.676172,0.458856,-0.61953,0.464291,-0.288324,1.22631,0.0040734,-14.0781,-4.04788,-18.865,22.7094,-2.21159,-1.1204,-0.044668,-1.71515,-0.974188,-1.69702,3.26985,-0.725882,0.0210224,-0.132687
2407517,0.99,-1.59039,-0.509168,-0.0174765,-2.0825,-1.57852,1.60862,0.785478,-1.5939,-0.508268,-0.0207733,-2.07868,-1.58085,1.61199,0.78534,-0.603979,0.449271,-0.551728,0.430745,-0.246668,1.17347,0.00207,-0.686152,0.466346,-0.62952,0.47189,-0.292607,1.24551,0.00429532,-14.0503,-4.12326,-18.7618,22.6618,-2.24547,-1.01053,-0.0712183,-1.72423,-1.00182,-1.68815,3.30335,-0.737846,0.0268102,-0.131124
2407518,0.99,-1.59105,-0.5087,-0.0180538,-2.08205,-1.57879,1.60988,0.785479,-1.59459,-0.507795,-0.0214128,-2.0782,-1.58115,1.61325,0.785344,-0.620768,0.453661,-0.555931,0.434951,-0.255932,1.20494,0.00185095,-0.696132,0.473836,-0.63951,0.47949,-0.296891,1.26472,0.00451725,-13.8479,-4.14706,-18.7142,22.5626,-2.25096,-1.1973,-0.0840357,-1.7319,-1.05007,-1.67696,3.34452,-0.750208,0.03265,-0.129422
2407519,0.99,-1.59171,-0.508225,-0.0186521,-2.08159,-1.57907,1.61114,0.785481,-1.5953,-0.507313,-0.0220623,-2.07771,-1.58145,1.61454,0.785349,-0.635098,0.460267,-0.565821,0.442811,-0.268093,1.22751,0.000519059,-0.706113,0.481326,-0.6495,0.48709,-0.301175,1.28393,0.00473917,-13.6734,-4.17484,-18.7142,22.4118,-2.23448,-1.35203,-0.0648096,-1.73793,-1.11229,-1.6646,3.3912,-0.762799,0.0384802,-0.127699
2407520,0.99,-1.59238,-0.507756,-0.0192621,-2.08112,-1.57936,1.61242,0.785487,-1.59601,-0.506824,-0.0227218,-2.07722,-1.58176,1.61584,0.785354,-0.641341,0.464806,-0.576227,0.448189,-0.271388,1.24917,0.00224279,-0.714748,0.488816,-0.65949,0.494575,-0.30523,1.30175,0.00505434,-13.5464,-4.17484,-18.6627,22.2373,-2.24547,-1.45456,-0.116079,-1.74422,-1.17327,-1.65473,3.43702,-0.775405,0.0438757,-0.126071
2407521,0.99,-1.59306,-0.507275,-0.0198933,-2.08064,-1.57965,1.61373,0.785499,-1.59674,-0.506328,-0.0233913,-2.07671,-1.58206,1.61716,0.785359,-0.650264,0.466016,-0.594975,0.469073,-0.275622,1.26785,0.0100998,-0.723383,0.496306,-0.66948,0.50206,-0.309285,1.31956,0.0053695,-13.5226,-4.12326,-18.5595,22.0389,-2.1887,-1.62851,-0.219534,-1.75032,-1.21623,-1.64639,3.47199,-0.787679,0.0487476,-0.124658
2407522,0.99,-1.59375,-0.506778,-0.0205333,-2.08014,-1.57994,1.61505,0.785508,-1.59747,-0.505824,-0.0240707,-2.0762,-1.58238,1.6185,0.785365,-0.662344,0.476058,-0.60386,0.476304,-0.289263,1.2673,0.00906263,-0.732018,0.503796,-0.67947,0.509545,-0.313339,1.33738,0.00568467,-13.5702,-4.30179,-18.5357,21.789,-2.0706,-1.84733,-0.271719,-1.75259,-1.22798,-1.63425,3.48599,-0.799174,0.0535144,-0.12361
2407523,0.99,-1.59445,-0.506283,-0.0211752,-2.07964,-1.58024,1.61636,0.785514,-1.59821,-0.505313,-0.0247602,-2.07569,-1.5827,1.61985,0.785371,-0.671434,0.478194,-0.609312,0.484134,-0.2931,1.27214,0.00800078,-0.740653,0.511286,-0.68946,0.51703,-0.317394,1.3552,0.00599984,-13.5702,-4.25021,-18.4326,21.6898,-2.03673,-1.6157,-0.31658,-1.75097,-1.2114,-1.61889,3.48021,-0.809867,0.0579841,-0.123055
2407524,0.99,-1.59516,-0.505783,-0.0218309,-2.07913,-1.58055,1.61766,0.785511,-1.59896,-0.504794,-0.0254596,-2.07516,-1.58302,1.62123,0.785377,-0.688014,0.483675,-0.620438,0.495378,-0.287804,1.28516,0.00342076,-0.749288,0.518776,-0.69945,0.524516,-0.321449,1.37301,0.006315,-13.4711,-4.12326,-18.3572,21.5152,-2.08708,-1.30076,-0.258901,-1.74786,-1.17051,-1.60456,3.4584,-0.81986,0.0616163,-0.123135
2407525,0.99,-1.59589,-0.505277,-0.0224838,-2.0786,-1.58084,1.61903,0.785517,-1.59972,-0.504268,-0.0261691,-2.07463,-1.58334,1.62262,0.785384,-0.700392,0.487125,-0.641609,0.50199,-0.287356,1.32016,0.00268521,-0.757923,0.526266,-0.70944,0.532001,-0.325504,1.39083,0.00663017,-13.3203,-4.04788,-18.3056,21.3684,-2.1887,-1.3328,-0.26531,-1.73919,-1.10633,-1.58506,3.422,-0.828983,0.0650311,-0.123958
2407526,0.99,-1.59661,-0.504758,-0.0231489,-2.07806,-1.58114,1.62043,0.785522,-1.60048,-0.503734,-0.0268885,-2.07409,-1.58367,1.62402,0.785391,-0.708821,0.494787,-0.651265,0.513039,-0.289205,1.34269,0.00776817,-0.766558,0.533756,-0.71943,0.539486,-0.329559,1.40864,0.00694533,-13.3441,-4.04788,-18.258,21.2693,-2.23448,-1.42252,-0.297354,-1.72139,-1.02451,-1.55383,3.37439,-0.837195,0.0689147,-0.125514
2407527,0.99,-1.59736,-0.504229,-0.0238369,-2.07752,-1.58146,1.62182,0.785532,-1.60126,-0.503193,-0.0276179,-2.07354,-1.58401,1.62545,0.785398,-0.717377,0.506754,-0.659572,0.520485,-0.296838,1.3549,0.0128249,-0.775193,0.541246,-0.72942,0.546971,-0.333613,1.42646,0.0072605,-13.1933,-4.04788,-18.1548,21.1939,-2.24547,-1.49393,-0.362356,-1.69959,-0.937164,-1.51732,3.32112,-0.844915,0.0726715,-0.127709
2407528,0.99,-1.59812,-0.503701,-0.0245178,-2.07697,-1.58178,1.62323,0.785554,-1.60204,-0.502644,-0.0283573,-2.07299,-1.58434,1.6269,0.785406,-0.72042,0.512768,-0.663321,0.525211,-0.298707,1.36977,0.015039,-0.783828,0.548736,-0.73941,0.554456,-0.337668,1.44428,0.00757567,-13.0188,-4.04788,-18.1826,21.1423,-2.22899,-1.50675,-0.51708,-1.68347,-0.8582,-1.48918,3.26944,-0.852828,0.0749772,-0.130463
2407529,0.99,-1.59888,-0.503156,-0.0252325,-2.07641,-1.5821,1.62467,0.785557,-1.60283,-0.502088,-0.0291067,-2.07243,-1.58469,1.62836,0.785414,-0.72718,0.521244,-0.673544,0.539028,-0.299605,1.38838,0.0098828,-0.792462,0.556226,-0.7494,0.561942,-0.341723,1.46209,0.00789083,-12.9434,-4.14706,-18.1033,21.0947,-2.20061,-1.53238,-0.497854,-1.68044,-0.791023,-1.48011,3.22161,-0.861347,0.0747682,-0.133834
2407530,0.99,-1.59963,-0.502613,-0.0259382,-2.07585,-1.58241,1.6261,0.785553,-1.60363,-0.501524,-0.0298661,-2.07186,-1.58503,1.62984,0.785422,-0.729414,0.527617,-0.679788,0.544495,-0.307011,1.40501,0.00787129,-0.799298,0.563705,-0.75939,0.569297,-0.345517,1.47826,0.0083875,-13.1695,-4.22244,-18.1548,21.2455,-2.14384,-1.55802,-0.394399,-1.69286,-0.732194,-1.49366,3.17523,-0.87047,0.0716669,-0.137967
2407531,0.99,-1.6004,-0.502042,-0.0266541,-2.07527,-1.58274,1.62754,0.785542,-1.60444,-0.500953,-0.0306355,-2.07128,-1.58538,1.63133,0.785431,-0.738115,0.538203,-0.685428,0.55219,-0.313718,1.41132,0.000465006,-0.806134,0.571184,-0.76938,0.576653,-0.349311,1.49442,0.00888417,-13.3719,-4.40097,-18.3056,21.2693,-2.17222,-1.42893,-0.246084,-1.72084,-0.682792,-1.53012,3.13145,-0.880147,0.065667,-0.142856
2407532,0.99,-1.60118,-0.50147,-0.0273744,-2.0747,-1.58307,1.62899,0.785533,-1.60525,-0.500375,-0.0314149,-2.0707,-1.58573,1.63284,0.78544,-0.750257,0.544505,-0.690633,0.55964,-0.316539,1.40434,-0.00397201,-0.81297,0.578662,-0.77937,0.584009,-0.353105,1.51059,0.00938084,-13.4711,-4.52792,-18.5357,21.3684,-2.26835,-1.31357,-0.116079,-1.76115,-0.645218,-1.58554,3.09277,-0.89031,0.0575349,-0.148246
2407533,0.99,-1.60196,-0.500896,-0.0280903,-2.07411,-1.5834,1.63044,0.785533,-1.60607,-0.499788,-0.0322042,-2.07011,-1.58609,1.63437,0.78545,-0.759218,0.552266,-0.704182,0.56504,-0.318353,1.40692,-0.00296035,-0.819805,0.586141,-0.78936,0.591365,-0.3569,1.52675,0.00987751,-13.6218,-4.65488,-18.6627,21.4438,-2.38096,-1.03617,-0.0968531,-1.80605,-0.617602,-1.6493,3.05955,-0.900828,0.048995,-0.153729
2407534,0.99,-1.60275,-0.500305,-0.028829,-2.07353,-1.58374,1.63196,0.785525,-1.6069,-0.499195,-0.0330036,-2.06951,-1.58645,1.63591,0.78546,-0.770319,0.55715,-0.715343,0.569126,-0.322501,1.42969,-0.00455598,-0.826641,0.593619,-0.79935,0.59872,-0.360694,1.54292,0.0103742,-13.6734,-4.78183,-18.7142,21.543,-2.40385,-1.02976,-0.0190333,-1.84812,-0.597268,-1.71015,3.03245,-0.911645,0.0416384,-0.158902
2407535,0.99,-1.60355,-0.49972,-0.0295769,-2.07294,-1.58409,1.63347,0.785521,-1.60773,-0.498594,-0.0338129,-2.0689,-1.58682,1.63747,0.785471,-0.780917,0.576773,-0.726565,0.569818,-0.332683,1.45936,-0.00399926,-0.833477,0.601098,-0.80934,0.606076,-0.364488,1.55909,0.0108708,-13.6218,-4.88101,-18.6865,21.7652,-2.38096,-1.14603,0.0130102,-1.88455,-0.593433,-1.7628,3.01778,-0.922937,0.0359751,-0.163433
2407536,0.99,-1.60437,-0.499109,-0.0303474,-2.07234,-1.58444,1.63503,0.785517,-1.60857,-0.497985,-0.0346323,-2.06829,-1.58718,1.63904,0.785483,-0.793203,0.588622,-0.744147,0.578703,-0.336233,1.49411,-0.00273489,-0.840312,0.608576,-0.81933,0.613432,-0.368282,1.57525,0.0113675,-13.5226,-5.10715,-18.3849,21.9159,-2.3361,-1.31357,0.0194189,-1.91407,-0.624646,-1.80391,3.02449,-0.934901,0.0318958,-0.167062
2407537,0.99,-1.60519,-0.498496,-0.031127,-2.07175,-1.58479,1.63656,0.785507,-1.60942,-0.497369,-0.0354616,-2.06767,-1.58756,1.64064,0.785495,-0.805837,0.592603,-0.74949,0.578479,-0.335591,1.50504,-0.00481636,-0.847148,0.616055,-0.82932,0.620788,-0.372076,1.59142,0.0118642,-13.2449,-5.18649,-18.1826,22.0905,-2.36449,-1.23575,0.103647,-1.93497,-0.690681,-1.83082,3.05219,-0.947439,0.0293891,-0.169671
2407538,0.99,-1.60604,-0.497886,-0.0319054,-2.07115,-1.58514,1.63812,0.785506,-1.61027,-0.496746,-0.0363009,-2.06704,-1.58793,1.64224,0.785507,-0.825125,0.597045,-0.757649,0.578426,-0.346026,1.53567,-0.0033534,-0.853984,0.623533,-0.83931,0.628143,-0.37587,1.60758,0.0123609,-12.7411,-5.28568,-18.1033,22.3365,-2.36998,-1.08744,0.110056,-1.94774,-0.774234,-1.84592,3.09502,-0.960395,0.0282934,-0.171229
2407539,0.99,-1.60686,-0.497254,-0.0327062,-2.07055,-1.5855,1.63971,0.7855,-1.61113,-0.496115,-0.0371502,-2.0664,-1.58831,1.64387,0.78552,-0.831042,0.606151,-0.765887,0.594721,-0.34704,1.54857,-0.00409724,-0.860819,0.631012,-0.8493,0.635499,-0.379664,1.62375,0.0128575,-12.6379,-5.38882,-17.9525,22.4634,-2.40385,-0.92722,0.162241,-1.95425,-0.860155,-1.85375,3.14545,-0.973558,0.0282716,-0.171726
2407540,0.99,-1.60769,-0.496627,-0.0335293,-2.06993,-1.58586,1.64129,0.785501,-1.612,-0.495476,-0.0380095,-2.06576,-1.58869,1.64551,0.785533,-0.833693,0.610536,-0.779216,0.601517,-0.361393,1.55893,-0.00220342,-0.865636,0.638238,-0.85929,0.642569,-0.38317,1.63805,0.0134816,-12.7649,-5.4642,-17.7502,22.5626,-2.41484,-0.740453,0.149424,-1.95783,-0.936299,-1.85938,3.19293,-0.986643,0.0290656,-0.171193
2407541,0.99,-1.60855,-0.49599,-0.0343432,-2.06931,-1.58622,1.64291,0.785509,-1.61287,-0.494831,-0.0388788,-2.06511,-1.58908,1.64716,0.785547,-0.841866,0.621564,-0.786953,0.602712,-0.362903,1.57132,0.000978573,-0.870452,0.645464,-0.86928,0.649638,-0.386676,1.65235,0.0141056,-12.6141,-5.48801,-17.6748,22.6856,-2.48259,-0.669042,0.0844213,-1.96167,-1.00084,-1.86652,3.23547,-0.999668,0.0306632,-0.169659
2407542,0.99,-1.60941,-0.495343,-0.0351847,-2.06868,-1.58659,1.64453,0.785524,-1.61375,-0.494178,-0.039758,-2.06446,-1.58947,1.64882,0.785562,-0.85164,0.621267,-0.799789,0.608871,-0.365171,1.58517,0.00475141,-0.875268,0.65269,-0.87927,0.656708,-0.390182,1.66665,0.0147296,-12.4118,-5.4642,-17.5994,22.7332,-2.51097,-0.720311,-0.0254419,-1.96572,-1.05652,-1.87465,3.27691,-1.01284,0.0334977,-0.167223
2407543,0.99,-1.61028,-0.494699,-0.0360389,-2.06804,-1.58696,1.64619,0.785533,-1.61463,-0.493518,-0.0406473,-2.06379,-1.58986,1.65051,0.785577,-0.856571,0.629952,-0.830943,0.617703,-0.363667,1.61087,0.00583497,-0.880084,0.659916,-0.88926,0.663777,-0.393688,1.68096,0.0153536,-12.2848,-5.48801,-17.2939,22.6856,-2.51097,-0.881444,-0.0968531,-1.96257,-1.09771,-1.8724,3.31515,-1.02598,0.0388953,-0.164159
2407544,0.99,-1.61115,-0.494051,-0.0369075,-2.0674,-1.58733,1.64788,0.785534,-1.61551,-0.492851,-0.0415465,-2.06312,-1.59026,1.6522,0.785593,-0.861148,0.635752,-0.84079,0.622584,-0.358718,1.63273,0.00295743,-0.884901,0.667142,-0.89925,0.670847,-0.397194,1.69526,0.0159777,-11.9595,-5.36105,-17.0678,22.6102,-2.4716,-1.14603,-0.0712183,-1.94522,-1.12337,-1.84816,3.34868,-1.0389,0.0476809,-0.160837
2407545,0.99,-1.61205,-0.493406,-0.0377838,-2.06675,-1.58772,1.64956,0.785541,-1.6164,-0.492177,-0.0424558,-2.06244,-1.59066,1.65391,0.78561,-0.868604,0.634702,-0.850181,0.634134,-0.370592,1.65702,0.00650008,-0.889717,0.674368,-0.90924,0.677917,-0.400699,1.70956,0.0166017,-11.5787,-5.10715,-16.8893,22.4356,-2.39836,-1.45456,-0.0648096,-1.91847,-1.13074,-1.80914,3.37508,-1.05163,0.0585639,-0.157583
2407546,0.99,-1.61292,-0.492759,-0.0386724,-2.06609,-1.5881,1.65126,0.785546,-1.61729,-0.491495,-0.043375,-2.06176,-1.59107,1.65563,0.785627,-0.858242,0.639663,-0.867015,0.639138,-0.372393,1.66051,0.0094928,-0.894533,0.681594,-0.91923,0.684986,-0.404205,1.72386,0.0172257,-11.654,-4.93259,-16.5878,22.2135,-2.38646,-1.50034,-0.0648096,-1.89132,-1.11022,-1.76936,3.38863,-1.06412,0.0694897,-0.154594
2407547,0.98,-1.6138,-0.492078,-0.0395736,-2.06542,-1.58849,1.65299,0.785556,-1.61819,-0.490806,-0.0443042,-2.06107,-1.59147,1.65737,0.785645,-0.863991,0.647755,-0.876944,0.650723,-0.379051,1.67622,0.00869039,-0.899349,0.68882,-0.92922,0.692056,-0.407711,1.73817,0.0178497,-11.6064,-5.00797,-16.3061,21.9635,-2.33061,-1.56443,-0.10967,-1.86934,-1.06457,-1.73645,3.38958,-1.0764,0.0789006,-0.151927
2407548,0.97,-1.6147,-0.491405,-0.0404556,-2.06474,-1.58888,1.65471,0.785575,-1.6191,-0.49011,-0.0452434,-2.06037,-1.59189,1.65912,0.785664,-0.869058,0.655781,-0.879484,0.653977,-0.389242,1.69816,0.00967579,-0.904165,0.696046,-0.93921,0.699125,-0.411217,1.75247,0.0184738,-11.3763,-5.13492,-16.3339,21.8167,-2.29033,-1.63492,-0.200308,-1.85654,-1.0066,-1.7165,3.38308,-1.08857,0.0854668,-0.149576
2407549,0.97,-1.61561,-0.490702,-0.041367,-2.06405,-1.58927,1.65642,0.785588,-1.62001,-0.489407,-0.0461926,-2.05966,-1.5923,1.66089,0.785683,-0.881346,0.67138,-0.890008,0.659011,-0.389233,1.69456,0.0118263,-0.908982,0.703272,-0.9492,0.706195,-0.414723,1.76677,0.0190978,-11.3287,-5.41263,-16.2585,21.666,-2.32512,-1.28061,-0.206716,-1.8534,-0.954632,-1.7114,3.37818,-1.10078,0.088579,-0.147552
2407550,0.97,-1.6165,-0.489997,-0.0423012,-2.06336,-1.58967,1.65815,0.785602,-1.62092,-0.488697,-0.0471518,-2.05895,-1.59272,1.66267,0.785702,-0.881752,0.677777,-0.895615,0.671228,-0.388904,1.71247,0.0123608,-0.91167,0.710067,-0.95919,0.712843,-0.417899,1.77911,0.0198114,-11.4041,-5.61496,-16.2069,21.5906,-2.37547,-1.12681,-0.181082,-1.85717,-0.922076,-1.71793,3.38072,-1.11313,0.0886586,-0.145939
2407551,0.97,-1.61741,-0.489297,-0.0432276,-2.06265,-1.59007,1.65992,0.785625,-1.62183,-0.48798,-0.048121,-2.05823,-1.59314,1.66446,0.785723,-0.891262,0.68486,-0.906747,0.681912,-0.393618,1.72421,0.0155062,-0.914359,0.716861,-0.96918,0.71949,-0.421075,1.79144,0.020525,-11.4795,-5.78952,-16.2307,21.5152,-2.42033,-1.1204,-0.225942,-1.86642,-0.902923,-1.73439,3.38501,-1.12545,0.0864243,-0.144843
2407552,0.97,-1.61831,-0.488581,-0.044165,-2.06196,-1.59048,1.66174,0.785643,-1.62275,-0.487256,-0.0491002,-2.0575,-1.59356,1.66627,0.785744,-0.896304,0.690317,-0.905278,0.684683,-0.399696,1.75606,0.0158267,-0.917048,0.723656,-0.97917,0.726138,-0.424251,1.80378,0.0212386,-11.5549,-5.89267,-16.3577,21.5906,-2.37547,-1.42893,-0.219534,-1.88216,-0.887404,-1.76255,3.38569,-1.13765,0.0822634,-0.144301
2407553,0.97,-1.61921,-0.487871,-0.045133,-2.06125,-1.5909,1.66353,0.785674,-1.62367,-0.486526,-0.0500893,-2.05677,-1.59399,1.66808,0.785766,-0.896287,0.713987,-0.917571,0.686565,-0.403444,1.77294,0.0241064,-0.919736,0.73045,-0.98916,0.732785,-0.427427,1.81611,0.0219523,-11.8048,-6.01962,-16.2585,21.6898,-2.37547,-1.48752,-0.297354,-1.90872,-0.888498,-1.80755,3.39139,-1.15011,0.0756288,-0.144265
2407554,0.97,-1.62013,-0.487132,-0.0460897,-2.06052,-1.59133,1.66535,0.785704,-1.62459,-0.485789,-0.0510885,-2.05603,-1.59442,1.66991,0.785789,-0.900544,0.719303,-0.934255,0.697121,-0.413458,1.77986,0.023631,-0.922425,0.737244,-0.99915,0.739432,-0.430603,1.82845,0.0226659,-11.7572,-6.24576,-16.2069,21.6898,-2.31322,-1.50675,-0.329397,-1.94436,-0.925174,-1.86429,3.41245,-1.16304,0.0666843,-0.144683
2407555,0.97,-1.62104,-0.48638,-0.0470687,-2.0598,-1.59177,1.66714,0.785722,-1.62552,-0.485045,-0.0520976,-2.05528,-1.59486,1.67175,0.785812,-0.903375,0.725369,-0.945362,0.704163,-0.419089,1.78514,0.0222185,-0.925114,0.744039,-1.00914,0.74608,-0.433779,1.84078,0.0233795,-11.6818,-6.59885,-16.1038,21.8644,-2.27934,-1.39048,-0.206716,-1.98016,-0.986853,-1.9187,3.44318,-1.17599,0.0569629,-0.145603
2407556,0.97,-1.62193,-0.485616,-0.0480545,-2.05908,-1.5922,1.66896,0.785736,-1.62645,-0.484294,-0.0531168,-2.05453,-1.59529,1.6736,0.785836,-0.894253,0.742813,-0.962082,0.703176,-0.419628,1.80038,0.0210186,-0.927802,0.750833,-1.01913,0.752727,-0.436955,1.85312,0.0240931,-11.9079,-7.07889,-15.7507,22.1143,-2.23448,-1.29343,-0.0648096,-2.01383,-1.0644,-1.9665,3.48037,-1.18873,0.0470623,-0.147026
2407557,0.97,-1.62283,-0.484856,-0.0490514,-2.05834,-1.59262,1.6708,0.785747,-1.62738,-0.483536,-0.0541459,-2.05377,-1.59573,1.67547,0.785861,-0.891734,0.746532,-0.968031,0.72202,-0.416996,1.80006,0.0149767,-0.930491,0.757628,-1.02912,0.759375,-0.440131,1.86545,0.0248067,-12.0349,-7.33279,-15.5206,22.3603,-2.35899,-1.08744,0.0972387,-2.05074,-1.16026,-2.01374,3.52549,-1.20135,0.0364892,-0.148758
2407558,0.97,-1.62376,-0.484095,-0.0500532,-2.05761,-1.59305,1.67264,0.785778,-1.62831,-0.482772,-0.055185,-2.05301,-1.59618,1.67735,0.785887,-0.90427,0.749806,-0.975872,0.719663,-0.426835,1.78817,0.0178049,-0.93318,0.764422,-1.03911,0.766022,-0.443307,1.87779,0.0255204,-11.8048,-7.30899,-15.4968,22.5626,-2.51097,-0.92722,0.071604,-2.09222,-1.25799,-2.06331,3.56981,-1.21369,0.0257551,-0.150459
2407559,0.97,-1.62469,-0.483343,-0.0510603,-2.05686,-1.59347,1.67449,0.785802,-1.62924,-0.482001,-0.0562341,-2.05223,-1.59662,1.67924,0.785913,-0.910834,0.748855,-0.991845,0.727522,-0.424749,1.79621,0.019006,-0.935868,0.771217,-1.0491,0.77267,-0.446483,1.89012,0.026234,-11.5271,-7.23361,-15.3698,22.6102,-2.62449,-0.798131,0.0587866,-2.12977,-1.3369,-2.10543,3.60636,-1.22555,0.0169257,-0.151753
2407560,0.97,-1.62561,-0.482571,-0.0520955,-2.05611,-1.59391,1.67634,0.785822,-1.63018,-0.481223,-0.0572932,-2.05145,-1.59707,1.68114,0.78594,-0.90159,0.748106,-0.999515,0.733812,-0.430092,1.81737,0.0180321,-0.936418,0.777445,-1.05909,0.778781,-0.449263,1.90047,0.0270145,-11.4795,-7.20584,-15.1952,22.6618,-2.67485,-0.649816,0.09083,-2.15998,-1.38162,-2.13599,3.63032,-1.23701,0.0109149,-0.152461
2407561,0.97,-1.62653,-0.4818,-0.053116,-2.05535,-1.59434,1.67823,0.785836,-1.63112,-0.480439,-0.0583623,-2.05067,-1.59752,1.68305,0.785968,-0.907956,0.751387,-1.02622,0.743755,-0.428437,1.84726,0.0163323,-0.936967,0.783673,-1.06908,0.784892,-0.452042,1.91083,0.027795,-11.4517,-7.28122,-15.1675,22.5626,-2.63548,-0.681859,0.149424,-2.18506,-1.38361,-2.15748,3.63691,-1.24821,0.00740812,-0.152572
2407562,0.97,-1.62747,-0.481016,-0.054148,-2.05458,-1.59478,1.68016,0.785852,-1.63206,-0.47965,-0.0594413,-2.04988,-1.59798,1.68497,0.785996,-0.917656,0.756396,-1.02284,0.749003,-0.431853,1.87154,0.0159345,-0.937517,0.789902,-1.07907,0.791003,-0.454822,1.92118,0.0285755,-11.4279,-7.33279,-15.3182,22.4872,-2.57323,-0.778905,0.187876,-2.20307,-1.34816,-2.16745,3.62767,-1.25928,0.00649822,-0.152063
2407563,0.97,-1.62837,-0.480218,-0.055223,-2.0538,-1.59523,1.68206,0.785868,-1.63299,-0.478853,-0.0605304,-2.04908,-1.59844,1.6869,0.786026,-0.910603,0.764696,-1.03276,0.757775,-0.436288,1.88406,0.0161141,-0.938066,0.79613,-1.08906,0.797115,-0.457602,1.93154,0.0293561,-11.6064,-7.45975,-15.0921,22.1381,-2.4716,-0.72672,0.213511,-2.22016,-1.28982,-2.176,3.60861,-1.27056,0.00704193,-0.150851
2407564,0.97,-1.62933,-0.479436,-0.0562625,-2.053,-1.59566,1.684,0.785886,-1.63393,-0.478051,-0.0616294,-2.04828,-1.5989,1.68884,0.786056,-0.916951,0.771823,-1.03741,0.767266,-0.438201,1.89275,0.0175702,-0.938615,0.802359,-1.09905,0.803226,-0.460381,1.94189,0.0301366,-11.0986,-7.48355,-15.1159,21.8405,-2.39836,-0.836583,0.200693,-2.24546,-1.22309,-2.1964,3.58485,-1.28234,0.007563,-0.148855
2407565,0.97,-1.63028,-0.478645,-0.0573317,-2.05219,-1.59611,1.68595,0.785908,-1.63487,-0.477242,-0.0627385,-2.04747,-1.59936,1.6908,0.786087,-0.927849,0.772649,-1.0365,0.782168,-0.443237,1.90494,0.0195333,-0.939165,0.808587,-1.10904,0.809337,-0.463161,1.95224,0.0309171,-10.6225,-7.3566,-14.9651,21.416,-2.31871,-0.933629,0.162241,-2.27974,-1.14852,-2.23112,3.55363,-1.29436,0.00785114,-0.146078
2407566,0.97,-1.63122,-0.477865,-0.0584349,-2.05137,-1.59657,1.68789,0.785937,-1.63581,-0.476428,-0.0638575,-2.04665,-1.59983,1.69276,0.786118,-0.931236,0.777356,-1.05746,0.793968,-0.444803,1.91727,0.0286837,-0.939714,0.814816,-1.11903,0.815448,-0.465941,1.9626,0.0316976,-10.444,-7.20584,-14.6874,21.0947,-2.20061,-1.10666,0.038645,-2.31653,-1.05595,-2.27333,3.50714,-1.30601,0.00854385,-0.142634
2407567,0.97,-1.63217,-0.477071,-0.059544,-2.05054,-1.59701,1.68986,0.785964,-1.63675,-0.475607,-0.0649865,-2.04583,-1.60029,1.69473,0.786151,-0.935416,0.780592,-1.07623,0.804393,-0.446868,1.92728,0.0346084,-0.940263,0.821044,-1.12902,0.821559,-0.468721,1.97295,0.0324781,-10.2179,-7.03128,-14.2312,20.8448,-2.17772,-1.1973,-0.0712183,-2.34295,-0.941637,-2.30467,3.44261,-1.3166,0.0110152,-0.138741
2407568,0.97,-1.63311,-0.476273,-0.0606618,-2.04972,-1.59747,1.69182,0.786001,-1.63769,-0.474779,-0.0661255,-2.045,-1.60077,1.69671,0.786184,-0.94061,0.785564,-1.07686,0.810262,-0.448814,1.90201,0.0400721,-0.940813,0.827272,-1.13901,0.827671,-0.4715,1.9833,0.0332586,-9.8886,-6.85275,-13.9535,20.7972,-2.14384,-1.33921,-0.213125,-2.35237,-0.810262,-2.31529,3.36376,-1.32586,0.0158585,-0.134697
2407569,0.97,-1.63407,-0.475469,-0.061796,-2.04888,-1.59792,1.69384,0.786039,-1.63863,-0.473946,-0.0672745,-2.04417,-1.60124,1.69871,0.786218,-0.944884,0.794998,-1.10116,0.814212,-0.44639,1.95031,0.0424825,-0.941362,0.833501,-1.149,0.833782,-0.47428,1.99366,0.0340392,-9.63866,-6.87656,-13.5726,20.698,-2.22899,-1.68711,-0.31658,-2.34625,-0.674725,-2.30699,3.27977,-1.33396,0.0223225,-0.130852
2407570,0.97,-1.63501,-0.474638,-0.062961,-2.04805,-1.59837,1.69581,0.786084,-1.63957,-0.473107,-0.0684331,-2.04333,-1.60172,1.70071,0.786253,-0.948464,0.805852,-1.11863,0.837117,-0.444926,1.96065,0.0449067,-0.94008,0.839064,-1.15855,0.839267,-0.476555,2.00188,0.0348761,-9.43633,-7.00351,-13.041,20.698,-2.28483,-1.42893,-0.440176,-2.32257,-0.548655,-2.27515,3.19684,-1.34086,0.0296166,-0.127629
2407571,0.97,-1.63597,-0.473801,-0.064099,-2.0472,-1.59883,1.69779,0.78611,-1.64051,-0.472262,-0.0696012,-2.04249,-1.6022,1.70272,0.786289,-0.94205,0.835762,-1.11141,0.837987,-0.45929,1.96146,0.0378324,-0.938797,0.844627,-1.16809,0.844751,-0.47883,2.0101,0.035713,-9.234,-7.3566,-12.9894,20.7972,-2.38096,-1.30076,-0.329397,-2.28877,-0.455116,-2.22851,3.12244,-1.34694,0.0358219,-0.125367
2407572,0.98,-1.63692,-0.472949,-0.0652405,-2.04634,-1.59929,1.6998,0.78617,-1.64145,-0.471412,-0.0707788,-2.04164,-1.60268,1.70474,0.786325,-0.940701,0.845736,-1.1232,0.838586,-0.455259,1.97904,0.0428631,-0.937515,0.850191,-1.17764,0.850236,-0.481105,2.01833,0.0365499,-9.28557,-7.71365,-13.041,20.9439,-2.44322,-1.15885,-0.465811,-2.26385,-0.429047,-2.19255,3.07522,-1.35341,0.0380595,-0.124183
2407573,0.98,-1.63785,-0.472093,-0.0664232,-2.04551,-1.59975,1.70181,0.786216,-1.64239,-0.470556,-0.071966,-2.04078,-1.60316,1.70677,0.786363,-0.935869,0.849755,-1.13121,0.83876,-0.458526,2.02915,0.0438635,-0.936232,0.855754,-1.18719,0.855721,-0.48338,2.02655,0.0373868,-9.51171,-7.99136,-12.8903,21.2693,-2.46611,-1.28061,-0.420034,-2.25668,-0.472827,-2.17911,3.06281,-1.36096,0.0351933,-0.124139
2407574,0.98,-1.6388,-0.471261,-0.0675881,-2.04466,-1.60022,1.70384,0.786274,-1.64332,-0.469695,-0.0731628,-2.03992,-1.60365,1.7088,0.786401,-0.936547,0.85033,-1.14592,0.835849,-0.46187,2.03524,0.050142,-0.934949,0.861317,-1.19674,0.861206,-0.485655,2.03477,0.0382238,-9.51171,-8.01517,-12.7871,21.6422,-2.47709,-1.30716,-0.510671,-2.26469,-0.557162,-2.18481,3.07697,-1.36955,0.0279389,-0.125322
2407575,0.98,-1.63975,-0.470406,-0.0687479,-2.0438,-1.60069,1.70586,0.786329,-1.64425,-0.468828,-0.074369,-2.03905,-1.60413,1.71084,0.78644,-0.964381,0.846347,-1.14222,0.85921,-0.460017,2.0236,0.0499712,-0.933667,0.866881,-1.20628,0.866691,-0.487931,2.04299,0.0390607,-9.234,-8.11832,-13.1442,21.8644,-2.44322,-1.09385,-0.485037,-2.27619,-0.641216,-2.19634,3.09854,-1.37869,0.01882,-0.127774
2407576,0.98,-1.64069,-0.469538,-0.0699461,-2.04295,-1.60118,1.70786,0.786357,-1.64519,-0.467956,-0.0755849,-2.03818,-1.60462,1.71289,0.78648,-0.955311,0.84957,-1.15377,0.856685,-0.465816,1.9938,0.0453761,-0.932384,0.872444,-1.21583,0.872175,-0.490206,2.05122,0.0398976,-9.234,-8.26907,-13.1442,21.9635,-2.36449,-0.940038,-0.18749,-2.27934,-0.688875,-2.20154,3.10667,-1.38785,0.0107328,-0.13147
2407577,0.98,-1.64159,-0.468677,-0.0711471,-2.04208,-1.60166,1.70988,0.786391,-1.64612,-0.467078,-0.0768102,-2.0373,-1.60512,1.71495,0.786521,-0.930701,0.852,-1.16687,0.85741,-0.470952,1.99134,0.036105,-0.931102,0.878007,-1.22538,0.87766,-0.492481,2.05944,0.0407345,-9.73784,-8.47141,-12.8625,22.0389,-2.25096,-0.701085,0.0322363,-2.27883,-0.699284,-2.20574,3.1025,-1.39717,0.00402377,-0.136129
2407578,0.98,-1.6425,-0.467799,-0.0723547,-2.0412,-1.60213,1.71191,0.78641,-1.64705,-0.466194,-0.0780452,-2.03642,-1.60561,1.71702,0.786562,-0.918537,0.853636,-1.17669,0.860708,-0.474258,2.02116,0.0302755,-0.929819,0.883571,-1.23493,0.883145,-0.494756,2.06766,0.0415715,-9.8886,-8.62216,-12.8625,21.789,-2.25645,-0.72672,0.356333,-2.28953,-0.686801,-2.22492,3.09596,-1.40689,-0.00301244,-0.141156
2407579,0.98,-1.64344,-0.46694,-0.0735507,-2.04031,-1.60261,1.71396,0.786453,-1.64798,-0.465305,-0.0792896,-2.03553,-1.60611,1.7191,0.786605,-0.924929,0.850527,-1.20262,0.864205,-0.47601,2.03776,0.0327467,-0.928537,0.889134,-1.24447,0.88863,-0.497031,2.07588,0.0424084,-9.71404,-8.62216,-12.9418,21.543,-2.30772,-0.733129,0.388376,-2.3114,-0.652333,-2.25636,3.08736,-1.41658,-0.0103202,-0.145798
2407580,0.98,-1.64436,-0.466071,-0.0748065,-2.03941,-1.60308,1.71601,0.786483,-1.6489,-0.464411,-0.0805427,-2.03464,-1.60661,1.72118,0.786648,-0.921847,0.851542,-1.2161,0.870799,-0.473444,2.03613,0.0376118,-0.925822,0.893966,-1.25309,0.893407,-0.498625,2.08189,0.0432975,-9.78942,-8.49521,-12.5332,21.2931,-2.46611,-0.560094,0.466196,-2.32817,-0.589387,-2.27716,3.07216,-1.42554,-0.0153919,-0.149308
2407581,0.98,-1.64529,-0.465175,-0.0760595,-2.03852,-1.60357,1.71805,0.786509,-1.64983,-0.463512,-0.0818044,-2.03374,-1.60711,1.72327,0.786692,-0.930513,0.858968,-1.22105,0.881948,-0.481068,2.04551,0.0358451,-0.923107,0.898799,-1.26171,0.898185,-0.500218,2.0879,0.0441866,-9.55931,-8.64597,-12.2555,21.0193,-2.51646,-0.463048,0.544016,-2.33253,-0.499816,-2.27843,3.04728,-1.43361,-0.0169585,-0.151135
