shamilmamedov/beam_handling/log/param_estimation_ICRA/ocp_Z_35cm_0.61s_3.csv
duration, success rate, q[0], q[1], q[2], q[3], q[4], q[5], q[6],q_d[0], q_d[1], q_d[2], q_d[3], q_d[4], q_d[5], q_d[6],dq[0], dq[1], dq[2], dq[3], dq[4], dq[5], dq[6],dq_d[0], dq_d[1], dq_d[2], dq_d[3], dq_d[4], dq_d[5], dq_d[6],tau_J[0], tau_J[1], tau_J[2], tau_J[3], tau_J[4], tau_J[5], tau_J[6],tau_ext_hat_filtered[0], tau_ext_hat_filtered[1], tau_ext_hat_filtered[2], tau_ext_hat_filtered[3], tau_ext_hat_filtered[4], tau_ext_hat_filtered[5], tau_ext_hat_filtered[6]
1762101,0,-1.57037,-0.523124,4.8881e-05,-2.09663,-0.00119182,1.5711,0.785526,-1.5708,-0.523599,-1.11414e-07,-2.0944,-2.17595e-07,1.5708,0.785399,7.06054e-05,-0.00044366,0.00101082,-0.00122154,-0.0001468,2.75597e-05,-0.000122449,0,0,0,0,0,0,0,-0.454395,-9.91153,-0.559934,21.8167,1.79201,1.46231,-0.155447,-0.450925,-0.790924,-0.0542667,3.25193,1.07328,-0.203787,-0.174965
1762102,1,-1.57037,-0.523125,4.69321e-05,-2.09663,-0.00118961,1.5711,0.785529,-1.5708,-0.523599,-1.11414e-07,-2.0944,-2.17595e-07,1.5708,0.785399,-0.000509742,-0.000852585,2.42639e-05,-0.000164745,0.000546393,-0.000218986,0.00110516,0,0,0,0,0,0,0,-0.430592,-9.88773,-0.532163,21.789,1.77461,1.46871,-0.18749,-0.451276,-0.79238,-0.0547942,3.25296,1.07334,-0.203651,-0.1749
1762103,1,-1.57037,-0.523124,4.52617e-05,-2.09663,-0.00119333,1.5711,0.78553,-1.5708,-0.523599,-1.11414e-07,-2.0944,-2.17595e-07,1.5708,0.785399,0.000216984,-1.1578e-05,-0.000540636,-0.000759444,0.000160812,-0.000145991,0.000974134,0,0,0,0,0,0,0,-0.454395,-9.91153,-0.508359,21.8167,1.78011,1.46871,-0.193899,-0.451647,-0.792469,-0.0553777,3.25367,1.07338,-0.203527,-0.174777
1762104,1,-1.57037,-0.523122,4.8881e-05,-2.09663,-0.00119375,1.5711,0.785529,-1.5708,-0.523599,-1.11414e-07,-2.0944,-2.17595e-07,1.5708,0.785399,0.000701468,0.000549093,0.000846002,0.000143318,0.000310658,-0.000334686,0.000412064,0,0,0,0,0,0,0,-0.478199,-9.93533,-0.559934,21.789,1.77461,1.47512,-0.18749,-0.452084,-0.79291,-0.0559821,3.25452,1.07339,-0.203403,-0.174639
1762105,1,-1.57037,-0.523122,4.69321e-05,-2.09662,-0.00119222,1.5711,0.785531,-1.5708,-0.523599,-1.11414e-07,-2.0944,-2.17595e-07,1.5708,0.785399,-8.91666e-05,0.000366062,-8.56127e-05,0.0024156,-0.000233704,1.4235e-05,0.000749427,0,0,0,0,0,0,0,-0.454395,-9.93533,-0.532163,21.6898,1.78652,1.46871,-0.200308,-0.453076,-0.79371,-0.0573355,3.25483,1.07332,-0.203372,-0.174527
1762106,1,-1.57037,-0.523128,4.8881e-05,-2.09663,-0.00119375,1.57109,0.785531,-1.5708,-0.523599,-1.11414e-07,-2.0944,-2.17595e-07,1.5708,0.785399,0.000497368,-0.000869582,0.000592539,-0.000152841,8.15563e-05,-0.000227869,0.000736977,0,0,0,0,0,0,0,-0.478199,-9.88773,-0.559934,21.7652,1.78011,1.47512,-0.206716,-0.454255,-0.792958,-0.0589562,3.25349,1.07318,-0.203516,-0.17447
1762107,1,-1.57037,-0.523127,4.69321e-05,-2.09663,-0.00119263,1.57109,0.785529,-1.5708,-0.523599,-1.11414e-07,-2.0944,-2.17595e-07,1.5708,0.785399,-0.000225234,-2.29097e-05,-0.000254588,-0.00186513,-0.000386439,8.54463e-05,-0.000220759,0,0,0,0,0,0,0,-0.454395,-9.91153,-0.532163,21.8405,1.79201,1.46871,-0.18749,-0.45529,-0.791538,-0.0603799,3.25219,1.07303,-0.203609,-0.174489
1762108,1,-1.57037,-0.523125,4.52617e-05,-2.09663,-0.0011912,1.5711,0.785531,-1.5708,-0.523599,-1.11414e-07,-2.0944,-2.17595e-07,1.5708,0.785399,0.000406656,0.000541539,-0.000726537,-3.69954e-05,-5.41752e-05,5.69642e-05,0.000564904,0,0,0,0,0,0,0,-0.478199,-9.93533,-0.508359,21.789,1.78652,1.46871,-0.206716,-0.455721,-0.791957,-0.0608854,3.25268,1.07294,-0.203487,-0.174591
1762109,1,-1.57037,-0.523123,4.52617e-05,-2.09663,-0.00119342,1.57109,0.785529,-1.5708,-0.523599,-1.11414e-07,-2.0944,-2.17595e-07,1.5708,0.785399,-0.00084252,0.000361026,-0.000484358,-2.46636e-05,0.000201242,3.79761e-05,-0.000335474,0,0,0,0,0,0,0,-0.430592,-9.93533,-0.508359,21.789,1.78011,1.46871,-0.18749,-0.455204,-0.794083,-0.0599319,3.25404,1.07292,-0.203285,-0.174774
1762110,1,-1.57037,-0.523126,4.69321e-05,-2.09663,-0.00119252,1.5711,0.785523,-1.5708,-0.523599,-1.11414e-07,-2.0944,-2.17595e-07,1.5708,0.785399,-0.00056168,-0.000316128,0.000233906,0.00054037,-0.000306648,0.000262676,-0.00215643,0,0,0,0,0,0,0,-0.430592,-9.91153,-0.532163,21.7652,1.79201,1.46231,-0.135305,-0.454059,-0.79588,-0.0581052,3.25485,1.07292,-0.203148,-0.175028
1762111,1,-1.57037,-0.523123,4.52617e-05,-2.09663,-0.00119178,1.5711,0.785527,-1.5708,-0.523599,-1.11414e-07,-2.0944,-2.17595e-07,1.5708,0.785399,0.000182359,0.00034606,-0.000400874,-0.000196566,-0.000204432,0.000175118,-0.000216916,0,0,0,0,0,0,0,-0.454395,-9.93533,-0.508359,21.789,1.79201,1.46231,-0.168264,-0.452935,-0.796584,-0.0563903,3.25487,1.07291,-0.203094,-0.175306
1762112,1,-1.57037,-0.523128,4.52617e-05,-2.09663,-0.0011934,1.5711,0.785526,-1.5708,-0.523599,-1.11414e-07,-2.0944,-2.17595e-07,1.5708,0.785399,0.000121572,-0.000882917,-0.00026725,-0.000780658,0.000304521,-0.000357973,-0.00038197,0,0,0,0,0,0,0,-0.454395,-9.88773,-0.508359,21.8167,1.78011,1.47512,-0.161856,-0.452159,-0.796687,-0.0551413,3.25476,1.07288,-0.203047,-0.175546
1762113,1,-1.57038,-0.523123,4.35913e-05,-2.09663,-0.0011951,1.5711,0.785527,-1.5708,-0.523599,-1.11414e-07,-2.0944,-2.17595e-07,1.5708,0.785399,-0.00112538,0.000525012,-0.000734978,-0.000520438,-3.43446e-05,0.000236069,-1.72876e-05,0,0,0,0,0,0,0,-0.402821,-9.93533,-0.484555,21.8167,1.78652,1.46231,-0.168264,-0.451259,-0.796703,-0.0536801,3.25502,1.07288,-0.202951,-0.175723
1762114,1,-1.57037,-0.523122,4.8881e-05,-2.09663,-0.00119223,1.57109,0.785525,-1.5708,-0.523599,-1.11414e-07,-2.0944,-2.17595e-07,1.5708,0.785399,-0.000100638,0.000350008,0.00127325,0.000302655,-2.28964e-05,-7.99794e-05,-0.000723602,0,0,0,0,0,0,0,-0.430592,-9.93533,-0.559934,21.789,1.78652,1.46871,-0.149038,-0.450308,-0.797464,-0.0522625,3.25569,1.07289,-0.202834,-0.175832
1762115,1,-1.57037,-0.523128,4.69321e-05,-2.09662,-0.00119188,1.5711,0.785523,-1.5708,-0.523599,-1.11414e-07,-2.0944,-2.17595e-07,1.5708,0.785399,0.00048972,-0.000880285,0.000199221,0.00131539,-0.000218715,-5.33196e-05,-0.000991028,0,0,0,0,0,0,0,-0.454395,-9.88773,-0.532163,21.7414,1.79201,1.46871,-0.135305,-0.450356,-0.797484,-0.0524284,3.25556,1.07283,-0.202825,-0.175867
1762116,1,-1.57037,-0.523126,4.8881e-05,-2.09663,-0.00119095,1.5711,0.785526,-1.5708,-0.523599,-1.11414e-07,-2.0944,-2.17595e-07,1.5708,0.785399,-0.000230332,-0.000586857,0.000782428,0.000320117,5.76406e-05,-0.000272905,0.000322659,0,0,0,0,0,0,0,-0.430592,-9.88773,-0.559934,21.7652,1.78652,1.47512,-0.161856,-0.45139,-0.794741,-0.054092,3.25364,1.07269,-0.202989,-0.175816
1762117,1,-1.57037,-0.523124,4.69321e-05,-2.09662,-0.00119146,1.57109,0.785524,-1.5708,-0.523599,-1.11414e-07,-2.0944,-2.17595e-07,1.5708,0.785399,0.000960069,0.000165574,-0.000127995,0.000770223,-0.000165023,-0.000181937,-0.000530879,0,0,0,0,0,0,0,-0.478199,-9.91153,-0.532163,21.7414,1.79201,1.47512,-0.141714,-0.452726,-0.790909,-0.0562141,3.25105,1.07253,-0.203204,-0.175672
1762118,1,-1.57037,-0.52312,4.69321e-05,-2.09663,-0.00119269,1.5711,0.785529,-1.5708,-0.523599,-1.11414e-07,-2.0944,-2.17595e-07,1.5708,0.785399,0.000640046,0.00131681,-8.53302e-05,-0.000600142,0.000534244,0.000116068,0.0013415,0,0,0,0,0,0,0,-0.478199,-9.9631,-0.532163,21.789,1.77461,1.46871,-0.18749,-0.454091,-0.789407,-0.0582754,3.24964,1.07239,-0.203307,-0.175441
1762119,1,-1.57037,-0.523127,4.52617e-05,-2.09662,-0.00119567,1.5711,0.785531,-1.5708,-0.523599,-1.11414e-07,-2.0944,-2.17595e-07,1.5708,0.785399,-0.000686926,-0.00153498,-0.000613699,0.00071353,-0.000288097,7.73785e-05,0.00160641,0,0,0,0,0,0,0,-0.430592,-9.85995,-0.508359,21.7414,1.79201,1.46871,-0.206716,-0.454838,-0.789766,-0.0593416,3.24929,1.0723,-0.203298,-0.175156
1762120,1,-1.57037,-0.523126,4.52617e-05,-2.09663,-0.00119222,1.5711,0.785531,-1.5708,-0.523599,-1.11414e-07,-2.0944,-2.17595e-07,1.5708,0.785399,9.8861e-05,0.000183106,-0.000409133,-8.11256e-05,1.13858e-05,-0.000185773,0.000833582,0,0,0,0,0,0,0,-0.454395,-9.91153,-0.508359,21.7652,1.78652,1.47512,-0.200308,-0.454487,-0.788884,-0.0588166,3.24845,1.07227,-0.203298,-0.17488
1762121,1,-1.57037,-0.523121,4.69321e-05,-2.09663,-0.00119188,1.5711,0.785529,-1.5708,-0.523599,-1.11414e-07,-2.0944,-2.17595e-07,1.5708,0.785399,6.59073e-05,0.00188531,0.000284057,-0.00126051,-0.00019586,-0.000123849,8.10034e-05,0,0,0,0,0,0,0,-0.454395,-9.98691,-0.532163,21.8167,1.79201,1.47512,-0.18749,-0.453743,-0.789557,-0.0577221,3.24861,1.07228,-0.203189,-0.174665
1762122,1,-1.57037,-0.523127,4.52617e-05,-2.09663,-0.00119156,1.5711,0.785533,-1.5708,-0.523599,-1.11414e-07,-2.0944,-2.17595e-07,1.5708,0.785399,4.39382e-05,-0.000506365,-0.000367441,-0.00139715,-0.000130573,0.000392152,0.000291361,0,0,0,0,0,0,0,-0.454395,-9.91153,-0.508359,21.8405,1.79201,1.46231,-0.193899,-0.453239,-0.794134,-0.05697,3.25126,1.07233,-0.202842,-0.174533
1762123,1,-1.57037,-0.523129,4.8881e-05,-2.09663,-0.00119465,1.5711,0.78553,-1.5708,-0.523599,-1.11414e-07,-2.0944,-2.17595e-07,1.5708,0.785399,0.000586104,-0.000894389,0.000961465,0.000274991,-8.70489e-05,0.000498794,-4.31182e-05,0,0,0,0,0,0,0,-0.478199,-9.88773,-0.559934,21.789,1.79201,1.4559,-0.18749,-0.453235,-0.797861,-0.0569318,3.25389,1.07239,-0.202477,-0.174488
1762124,1,-1.57037,-0.523127,4.69321e-05,-2.09663,-0.00119507,1.5711,0.78553,-1.5708,-0.523599,-1.11414e-07,-2.0944,-2.17595e-07,1.5708,0.785399,-0.000166076,-0.000596259,-8.63697e-06,0.00074014,0.000145418,-0.000142189,0.000208614,0,0,0,0,0,0,0,-0.454395,-9.88773,-0.532163,21.7652,1.78652,1.46871,-0.193899,-0.453894,-0.797503,-0.0578541,3.25424,1.07238,-0.202329,-0.174525
1762125,1,-1.57037,-0.523125,4.69321e-05,-2.09663,-0.00119664,1.5711,0.785531,-1.5708,-0.523599,-1.11414e-07,-2.0944,-2.17595e-07,1.5708,0.785399,-0.000110717,0.000716118,-5.75798e-06,-0.00126981,-0.000309956,-9.47925e-05,0.000376435,0,0,0,0,0,0,0,-0.454395,-9.93533,-0.532163,21.8405,1.7975,1.46871,-0.200308,-0.454503,-0.795871,-0.0587056,3.25364,1.07237,-0.202301,-0.174632
1762126,1,-1.57037,-0.523125,5.25003e-05,-2.09663,-0.00119162,1.5711,0.785527,-1.5708,-0.523599,-1.11414e-07,-2.0944,-2.17595e-07,1.5708,0.785399,-0.000630623,0.000477412,0.0018522,0.000916697,0.000437623,-6.3195e-05,-0.000935838,0,0,0,0,0,0,0,-0.430592,-9.93533,-0.611508,21.7652,1.78011,1.46871,-0.168264,-0.455017,-0.796093,-0.0595267,3.25391,1.07238,-0.202231,-0.174799
1762127,1,-1.57037,-0.523125,4.69321e-05,-2.09663,-0.00119131,1.5711,0.785531,-1.5708,-0.523599,-1.11414e-07,-2.0944,-2.17595e-07,1.5708,0.785399,0.000136396,-0.000238537,-0.000621239,5.43193e-05,5.43896e-05,0.000195229,0.000562903,0,0,0,0,0,0,0,-0.454395,-9.91153,-0.532163,21.789,1.78652,1.46231,-0.200308,-0.455733,-0.796908,-0.0608059,3.25419,1.07239,-0.202197,-0.175013
1762128,1,-1.57037,-0.523125,4.69321e-05,-2.09662,-0.00119477,1.5711,0.785526,-1.5708,-0.523599,-1.11414e-07,-2.0944,-2.17595e-07,1.5708,0.785399,-0.000465881,0.000397787,-0.000414159,0.00114984,-0.000167191,-0.000107206,-0.00128624,0,0,0,0,0,0,0,-0.430592,-9.93533,-0.532163,21.7414,1.79201,1.46871,-0.155447,-0.455783,-0.796751,-0.0611252,3.25359,1.07241,-0.202268,-0.17526
1762129,1,-1.57037,-0.523125,4.69321e-05,-2.09663,-0.00119511,1.5711,0.78553,-1.5708,-0.523599,-1.11414e-07,-2.0944,-2.17595e-07,1.5708,0.785399,0.000246225,-0.000291621,-0.000276106,-0.00099668,9.199e-05,0.000165888,0.000566657,0,0,0,0,0,0,0,-0.454395,-9.91153,-0.532163,21.8167,1.78652,1.46231,-0.193899,-0.454965,-0.796263,-0.0601329,3.25274,1.07246,-0.202365,-0.17552
1762130,1,-1.57037,-0.523124,4.67505e-05,-2.09663,-0.00119091,1.5711,0.785525,-1.5708,-0.523599,-1.11414e-07,-2.0944,-2.17595e-07,1.5708,0.785399,0.000720962,-0.000194414,0.000465543,-1.48394e-05,0.000502136,-0.000126767,-0.00128374,0,0,0,0,0,0,0,-0.478199,-9.91153,-0.559934,21.789,1.77461,1.46871,-0.149038,-0.454364,-0.795838,-0.0594263,3.25233,1.07251,-0.202407,-0.175765
1762131,1,-1.57038,-0.523126,4.6222e-05,-2.09663,-0.00119315,1.5711,0.785526,-1.5708,-0.523599,-1.11414e-07,-2.0944,-2.17595e-07,1.5708,0.785399,-0.0012826,-0.000686421,-0.000339252,0.000546919,0.000334757,-0.00032187,-0.000618468,0,0,0,0,0,0,0,-0.402821,-9.88773,-0.532163,21.7652,1.77461,1.47512,-0.155447,-0.45409,-0.794611,-0.0592321,3.25177,1.07253,-0.202447,-0.175981
1762132,1,-1.57037,-0.523128,4.66954e-05,-2.09663,-0.00119263,1.5711,0.785525,-1.5708,-0.523599,-1.11414e-07,-2.0944,-2.17595e-07,1.5708,0.785399,0.000351361,-0.000457614,-0.000226168,-0.000192199,-0.000421088,0.000260138,-0.000649671,0,0,0,0,0,0,0,-0.454395,-9.88773,-0.532163,21.789,1.79201,1.46231,-0.149038,-0.453361,-0.792103,-0.0584801,3.25051,1.07254,-0.202543,-0.176146
1762133,1,-1.57037,-0.523123,4.68532e-05,-2.09663,-0.00119242,1.5711,0.785523,-1.5708,-0.523599,-1.11414e-07,-2.0944,-2.17595e-07,1.5708,0.785399,0.000234241,0.00145816,-0.000150779,0.000428679,-0.000484176,-6.39338e-05,-0.00094174,0,0,0,0,0,0,0,-0.454395,-9.9631,-0.532163,21.7652,1.7975,1.46871,-0.135305,-0.452497,-0.790539,-0.0575383,3.24964,1.07253,-0.202615,-0.176226
1762134,1,-1.57037,-0.523123,5.05251e-05,-2.09663,-0.00119093,1.5711,0.785526,-1.5708,-0.523599,-1.11414e-07,-2.0944,-2.17595e-07,1.5708,0.785399,0.000156161,0.000972108,0.00110591,-0.00092064,8.4117e-05,0.000194736,0.000355517,0,0,0,0,0,0,0,-0.454395,-9.9631,-0.583737,21.8167,1.78652,1.46231,-0.161856,-0.452306,-0.792529,-0.0575734,3.25046,1.07252,-0.202566,-0.176198
1762135,1,-1.57037,-0.523127,4.69234e-05,-2.09663,-0.00119465,1.5711,0.785526,-1.5708,-0.523599,-1.11414e-07,-2.0944,-2.17595e-07,1.5708,0.785399,0.000660919,-0.000558354,-0.000469155,0.000592666,-0.000147373,-0.000107535,0.000237011,0,0,0,0,0,0,0,-0.478199,-9.91153,-0.532163,21.7652,1.79201,1.46871,-0.161856,-0.452848,-0.796096,-0.0587011,3.25215,1.0725,-0.202449,-0.176059
1762136,1,-1.57037,-0.523123,4.88781e-05,-2.09663,-0.00119055,1.5711,0.78553,-1.5708,-0.523599,-1.11414e-07,-2.0944,-2.17595e-07,1.5708,0.785399,-0.000116199,0.000184576,0.000336844,-0.000811315,0.000546012,0.000165669,0.0013448,0,0,0,0,0,0,0,-0.454395,-9.93533,-0.559934,21.8167,1.77461,1.46231,-0.193899,-0.453521,-0.798131,-0.0599775,3.25321,1.07246,-0.202374,-0.17584
1762137,1,-1.57037,-0.523124,4.888e-05,-2.09662,-0.00119177,1.5711,0.785527,-1.5708,-0.523599,-1.11414e-07,-2.0944,-2.17595e-07,1.5708,0.785399,-7.74662e-05,-0.000433761,0.000224563,0.00122236,-0.000280252,-0.000126913,-5.29009e-05,0,0,0,0,0,0,0,-0.454395,-9.91153,-0.559934,21.7414,1.79201,1.46871,-0.168264,-0.453991,-0.798464,-0.0609658,3.25338,1.07242,-0.202371,-0.175588
1762138,1,-1.57037,-0.523122,4.69318e-05,-2.09663,-0.00119411,1.5711,0.785529,-1.5708,-0.523599,-1.11414e-07,-2.0944,-2.17595e-07,1.5708,0.785399,0.000505168,0.000267638,-0.000499905,-0.000298717,1.66157e-05,0.000390109,0.00067681,0,0,0,0,0,0,0,-0.478199,-9.93533,-0.532163,21.789,1.78652,1.4559,-0.18749,-0.454252,-0.797632,-0.0616445,3.25274,1.07238,-0.202453,-0.175341
1762139,1,-1.57037,-0.523122,5.05513e-05,-2.09663,-0.00119251,1.5711,0.785532,-1.5708,-0.523599,-1.11414e-07,-2.0944,-2.17595e-07,1.5708,0.785399,0.000986392,0.000178425,0.000873156,0.000357668,-0.000192373,-0.000452004,0.000451206,0,0,0,0,0,0,0,-0.50597,-9.93533,-0.583737,21.7652,1.79201,1.47512,-0.18749,-0.454717,-0.796857,-0.0625061,3.25201,1.07232,-0.202551,-0.17512
1762140,1,-1.57037,-0.52313,4.69321e-05,-2.09663,-0.00119116,1.5711,0.785532,-1.5708,-0.523599,-1.11414e-07,-2.0944,-2.17595e-07,1.5708,0.785399,-0.000548831,-0.00164429,-0.000624322,0.000795257,7.52016e-05,-0.000301336,0.000775522,0,0,0,0,0,0,0,-0.454395,-9.85995,-0.532163,21.7414,1.78652,1.47512,-0.200308,-0.45546,-0.795149,-0.0636842,3.25081,1.07225,-0.202683,-0.174942
1762141,1,-1.57037,-0.523125,4.48016e-05,-2.09663,-0.00119092,1.5711,0.785533,-1.5708,-0.523599,-1.11414e-07,-2.0944,-2.17595e-07,1.5708,0.785399,-0.000922699,0.000110234,-0.000416215,-2.66406e-05,5.01344e-05,0.000273827,4.22969e-05,0,0,0,0,0,0,0,-0.430592,-9.91153,-0.532163,21.7652,1.78652,1.46231,-0.18749,-0.45529,-0.791359,-0.0635473,3.24852,1.07221,-0.202885,-0.174836
1762142,1,-1.57037,-0.523122,4.6222e-05,-2.09663,-0.00119084,1.5711,0.785529,-1.5708,-0.523599,-1.11414e-07,-2.0944,-2.17595e-07,1.5708,0.785399,-5.83208e-05,0.000630301,-0.000277477,-0.000574572,3.34229e-05,-5.48074e-05,-0.00044652,0,0,0,0,0,0,0,-0.454395,-9.93533,-0.532163,21.789,1.78652,1.46871,-0.174673,-0.454044,-0.788884,-0.0618825,3.24699,1.07225,-0.203003,-0.174811
1762143,1,-1.57037,-0.523124,4.66954e-05,-2.09663,-0.00119401,1.5711,0.785529,-1.5708,-0.523599,-1.11414e-07,-2.0944,-2.17595e-07,1.5708,0.785399,-3.88805e-05,-0.000136611,-0.000184984,0.000173764,2.2282e-05,0.000200821,-6.0321e-05,0,0,0,0,0,0,0,-0.454395,-9.91153,-0.532163,21.7652,1.78652,1.46231,-0.181082,-0.452748,-0.78918,-0.0601204,3.24701,1.07232,-0.202981,-0.174848
1762144,1,-1.57037,-0.523124,4.35124e-05,-2.09663,-0.00119567,1.5711,0.785527,-1.5708,-0.523599,-1.11414e-07,-2.0944,-2.17595e-07,1.5708,0.785399,-2.59203e-05,-9.1074e-05,-0.00123695,-0.00109058,-0.000188596,0.00013388,-0.000514932,0,0,0,0,0,0,0,-0.454395,-9.91153,-0.484555,21.8167,1.79201,1.46231,-0.168264,-0.451522,-0.790368,-0.0583639,3.24766,1.07241,-0.202896,-0.174924
1762145,1,-1.57037,-0.523124,4.69058e-05,-2.09663,-0.00119344,1.5711,0.785529,-1.5708,-0.523599,-1.11414e-07,-2.0944,-2.17595e-07,1.5708,0.785399,-0.000574092,-6.0716e-05,0.000288993,-0.000727056,-0.000329181,0.000326613,0.000368789,0,0,0,0,0,0,0,-0.430592,-9.91153,-0.532163,21.8167,1.7975,1.4559,-0.18749,-0.450176,-0.79194,-0.0563628,3.24886,1.07252,-0.202754,-0.175021
1762146,1,-1.57037,-0.523124,4.69234e-05,-2.09663,-0.00119188,1.5711,0.785524,-1.5708,-0.523599,-1.11414e-07,-2.0944,-2.17595e-07,1.5708,0.785399,0.000174084,0.000516335,0.000192662,0.000721722,-1.60036e-05,-0.000256976,-0.00168692,0,0,0,0,0,0,0,-0.454395,-9.93533,-0.532163,21.7652,1.79201,1.46871,-0.135305,-0.449302,-0.793813,-0.0550859,3.25025,1.07263,-0.202619,-0.175121
1762147,1,-1.57037,-0.523123,4.69292e-05,-2.09663,-0.00119095,1.5711,0.785527,-1.5708,-0.523599,-1.11414e-07,-2.0944,-2.17595e-07,1.5708,0.785399,0.000116056,0.000344223,0.000128441,-7.56638e-05,0.000192781,0.0003034,-0.00112461,0,0,0,0,0,0,0,-0.454395,-9.93533,-0.532163,21.789,1.78652,1.4559,-0.135305,-0.449301,-0.795675,-0.0550942,3.2512,1.07268,-0.20257,-0.175201
1762148,1,-1.57037,-0.523124,4.69312e-05,-2.09663,-0.00119404,1.5711,0.785526,-1.5708,-0.523599,-1.11414e-07,-2.0944,-2.17595e-07,1.5708,0.785399,7.73706e-05,-0.00032733,8.56275e-05,-0.000700057,0.000128521,-0.000272451,-0.000241116,0,0,0,0,0,0,0,-0.454395,-9.91153,-0.532163,21.8167,1.78652,1.46871,-0.149038,-0.449852,-0.797329,-0.0558732,3.25195,1.07272,-0.202563,-0.175219
1762149,1,-1.57037,-0.523124,4.35909e-05,-2.09663,-0.00119507,1.57109,0.785524,-1.5708,-0.523599,-1.11414e-07,-2.0944,-2.17595e-07,1.5708,0.785399,5.15804e-05,0.000338592,-0.00105654,0.00018291,8.56807e-05,-0.000181634,-0.00066937,0,0,0,0,0,0,0,-0.454395,-9.93533,-0.484555,21.789,1.78652,1.46871,-0.135305,-0.450281,-0.798522,-0.056407,3.25266,1.07276,-0.202556,-0.175145
1762150,1,-1.57037,-0.523125,4.6932e-05,-2.09663,-0.00119222,1.5711,0.785529,-1.5708,-0.523599,-1.11414e-07,-2.0944,-2.17595e-07,1.5708,0.785399,0.000591199,-0.000331084,0.000409265,-0.000527674,5.71204e-05,0.00011627,0.00124917,0,0,0,0,0,0,0,-0.478199,-9.91153,-0.532163,21.8167,1.78652,1.46231,-0.181082,-0.450478,-0.79924,-0.0564794,3.25319,1.0728,-0.202569,-0.174971
1762151,1,-1.57037,-0.523126,4.69321e-05,-2.09663,-0.00119127,1.57109,0.78553,-1.5708,-0.523599,-1.11414e-07,-2.0944,-2.17595e-07,1.5708,0.785399,-0.000719491,-0.000777535,0.000272843,-0.000351783,3.80803e-05,-0.000159846,0.0013075,0,0,0,0,0,0,0,-0.430592,-9.88773,-0.532163,21.8167,1.78652,1.46871,-0.193899,-0.450953,-0.798892,-0.0569341,3.25335,1.07282,-0.20261,-0.174713
1762152,1,-1.57037,-0.523124,4.52617e-05,-2.09663,-0.00119156,1.5711,0.785528,-1.5708,-0.523599,-1.11414e-07,-2.0944,-2.17595e-07,1.5708,0.785399,-0.000479661,3.84556e-05,-0.000374917,0.000971904,-0.000178064,0.000130795,0.00015959,0,0,0,0,0,0,0,-0.430592,-9.91153,-0.508359,21.7652,1.79201,1.46231,-0.174673,-0.451286,-0.7971,-0.0572792,3.25277,1.07282,-0.202717,-0.174428
1762153,1,-1.57037,-0.523122,4.69321e-05,-2.09663,-0.00119526,1.57109,0.785528,-1.5708,-0.523599,-1.11414e-07,-2.0944,-2.17595e-07,1.5708,0.785399,-0.000319774,0.000582449,0.000306868,9.11241e-05,-0.00032216,-0.000387521,0.000106393,0,0,0,0,0,0,0,-0.430592,-9.93533,-0.532163,21.789,1.7975,1.47512,-0.174673,-0.451122,-0.795308,-0.0569758,3.25179,1.07282,-0.202888,-0.174168
1762154,1,-1.57037,-0.523124,4.8881e-05,-2.09663,-0.00119507,1.5711,0.785529,-1.5708,-0.523599,-1.11414e-07,-2.0944,-2.17595e-07,1.5708,0.785399,0.000343629,-0.000168513,0.000854192,6.07494e-05,0.000192128,0.00021637,0.000545647,0,0,0,0,0,0,0,-0.454395,-9.91153,-0.559934,21.789,1.78652,1.46231,-0.18749,-0.451291,-0.794634,-0.0572202,3.25118,1.07282,-0.203038,-0.173944
1762155,1,-1.57037,-0.523125,4.52617e-05,-2.09663,-0.00119283,1.5711,0.785531,-1.5708,-0.523599,-1.11414e-07,-2.0944,-2.17595e-07,1.5708,0.785399,-0.000327726,-0.000669154,-0.000636964,4.04996e-05,-7.53652e-05,0.000144247,0.000838482,0,0,0,0,0,0,0,-0.430592,-9.88773,-0.508359,21.789,1.79201,1.46231,-0.200308,-0.451889,-0.793817,-0.0581315,3.25064,1.0728,-0.203166,-0.173763
1762156,1,-1.57037,-0.523126,4.35913e-05,-2.09663,-0.00119188,1.5711,0.785531,-1.5708,-0.523599,-1.11414e-07,-2.0944,-2.17595e-07,1.5708,0.785399,0.00154475,0.000110709,-0.000981455,-0.000622614,-5.02435e-05,-0.000141194,0.000796347,0,0,0,0,0,0,0,-0.50597,-9.91153,-0.484555,21.8167,1.79201,1.46871,-0.206716,-0.452172,-0.792491,-0.0584483,3.2501,1.07281,-0.203269,-0.173648
1762157,1,-1.57037,-0.523123,4.69321e-05,-2.09663,-0.00119344,1.5711,0.785531,-1.5708,-0.523599,-1.11414e-07,-2.0944,-2.17595e-07,1.5708,0.785399,0.000380222,0.00128023,0.000459321,-0.000415076,0.000407314,-9.41295e-05,0.000293539,0,0,0,0,0,0,0,-0.478199,-9.9631,-0.532163,21.8167,1.78011,1.46871,-0.200308,-0.452495,-0.793006,-0.0585691,3.25074,1.07284,-0.20326,-0.173615
1762158,1,-1.57037,-0.523125,4.8881e-05,-2.09663,-0.0011912,1.5711,0.785534,-1.5708,-0.523599,-1.11414e-07,-2.0944,-2.17595e-07,1.5708,0.785399,0.000253482,0.000203874,0.000955828,0.000372897,0.000271543,0.000649324,0.000195693,0,0,0,0,0,0,0,-0.478199,-9.93533,-0.559934,21.789,1.78011,1.44949,-0.200308,-0.453568,-0.795817,-0.0597146,3.25248,1.07286,-0.203173,-0.173675
1762159,1,-1.57037,-0.523128,4.52617e-05,-2.09663,-0.00119046,1.5711,0.785527,-1.5708,-0.523599,-1.11414e-07,-2.0944,-2.17595e-07,1.5708,0.785399,-0.000387824,-0.00162732,-0.000569207,0.00080541,0.000181028,-0.000516553,-0.00129369,0,0,0,0,0,0,0,-0.454395,-9.85995,-0.508359,21.7652,1.78011,1.47512,-0.161856,-0.454826,-0.796893,-0.0611911,3.25308,1.07284,-0.203197,-0.173833
1762160,1,-1.57037,-0.523125,4.69321e-05,-2.09663,-0.0011896,1.5711,0.785524,-1.5708,-0.523599,-1.11414e-07,-2.0944,-2.17595e-07,1.5708,0.785399,-0.000815361,0.000678357,0.00017734,-1.98722e-05,0.000324136,-0.00010701,-0.00184581,0,0,0,0,0,0,0,-0.430592,-9.93533,-0.532163,21.789,1.77461,1.46871,-0.135305,-0.455213,-0.794907,-0.0614529,3.25199,1.07281,-0.203358,-0.17407
1762161,1,-1.57037,-0.523125,4.69321e-05,-2.09663,-0.00119403,1.5711,0.785527,-1.5708,-0.523599,-1.11414e-07,-2.0944,-2.17595e-07,1.5708,0.785399,1.32376e-05,0.000452238,0.000118227,-0.000662862,-0.000224719,-7.13399e-05,-9.83378e-06,0,0,0,0,0,0,0,-0.454395,-9.93533,-0.532163,21.8167,1.78652,1.46871,-0.168264,-0.454896,-0.793883,-0.0607664,3.25151,1.07281,-0.203456,-0.174313
1762162,1,-1.57037,-0.523123,4.8881e-05,-2.09663,-0.00119507,1.5711,0.785524,-1.5708,-0.523599,-1.11414e-07,-2.0944,-2.17595e-07,1.5708,0.785399,-0.000547987,0.000301492,0.000728432,0.000764518,-0.000149812,-0.000284919,-0.0009899,0,0,0,0,0,0,0,-0.430592,-9.93533,-0.559934,21.7652,1.78652,1.47512,-0.141714,-0.454672,-0.79494,-0.0603073,3.25216,1.0728,-0.203449,-0.174497
1762163,1,-1.57037,-0.523124,4.52617e-05,-2.09663,-0.00119222,1.5711,0.785526,-1.5708,-0.523599,-1.11414e-07,-2.0944,-2.17595e-07,1.5708,0.785399,-0.000365325,-0.000355817,-0.000720805,0.000509679,-9.9875e-05,0.000284772,-0.000151307,0,0,0,0,0,0,0,-0.430592,-9.91153,-0.508359,21.7652,1.78652,1.46231,-0.155447,-0.454388,-0.795573,-0.0598517,3.25238,1.07276,-0.203478,-0.174603
1762164,1,-1.57037,-0.523124,4.8881e-05,-2.09662,-0.00118995,1.5711,0.785525,-1.5708,-0.523599,-1.11414e-07,-2.0944,-2.17595e-07,1.5708,0.785399,0.00151969,0.0003196,0.000725889,0.000896598,0.000374226,-4.7511e-05,-0.00033823,0,0,0,0,0,0,0,-0.50597,-9.93533,-0.559934,21.7414,1.77461,1.46871,-0.149038,-0.454229,-0.794912,-0.059542,3.2516,1.07268,-0.203588,-0.174622
1762165,1,-1.57037,-0.523127,4.8881e-05,-2.09663,-0.00119537,1.57109,0.785524,-1.5708,-0.523599,-1.11414e-07,-2.0944,-2.17595e-07,1.5708,0.785399,-0.0001933,-0.000343745,0.000483926,-0.00116551,-0.000598226,-3.1674e-05,-0.000496754,0,0,0,0,0,0,0,-0.454395,-9.91153,-0.559934,21.8167,1.7975,1.46871,-0.141714,-0.454994,-0.794092,-0.0605055,3.25083,1.07255,-0.203676,-0.174544
1762166,1,-1.57037,-0.523123,4.67505e-05,-2.09663,-0.00119252,1.5711,0.785532,-1.5708,-0.523599,-1.11414e-07,-2.0944,-2.17595e-07,1.5708,0.785399,-0.000128867,0.000327649,0.000322618,-0.00012739,-0.000195367,-2.1116e-05,0.00112689,0,0,0,0,0,0,0,-0.454395,-9.93533,-0.559934,21.789,1.79201,1.46871,-0.181082,-0.456115,-0.794147,-0.0620657,3.25101,1.07243,-0.203643,-0.174375
1762167,1,-1.57037,-0.523124,4.6222e-05,-2.09662,-0.00119497,1.5711,0.785527,-1.5708,-0.523599,-1.11414e-07,-2.0944,-2.17595e-07,1.5708,0.785399,-8.59112e-05,-0.00033838,-0.000434536,0.0010287,-0.000130245,0.000223282,-0.000198174,0,0,0,0,0,0,0,-0.454395,-9.91153,-0.532163,21.7414,1.79201,1.46231,-0.155447,-0.456641,-0.794338,-0.0628477,3.2513,1.07234,-0.203588,-0.174138
1762168,1,-1.57037,-0.523124,4.66954e-05,-2.09662,-0.0011926,1.5711,0.785528,-1.5708,-0.523599,-1.11414e-07,-2.0944,-2.17595e-07,1.5708,0.785399,0.000499538,-0.000225586,-0.00028969,0.000685798,-8.68298e-05,-0.000325863,0.000342602,0,0,0,0,0,0,0,-0.478199,-9.91153,-0.532163,21.7414,1.79201,1.47512,-0.168264,-0.45655,-0.793231,-0.0626896,3.25044,1.07228,-0.203643,-0.173869
1762169,1,-1.57037,-0.523126,4.66715e-05,-2.09663,-0.0011918,1.5711,0.785529,-1.5708,-0.523599,-1.11414e-07,-2.0944,-2.17595e-07,1.5708,0.785399,-0.000223787,-0.000150391,0.000456487,-0.000656425,-5.78865e-05,0.000257476,0.000703119,0,0,0,0,0,0,0,-0.454395,-9.91153,-0.559934,21.789,1.79201,1.46231,-0.181082,-0.45633,-0.791496,-0.0623026,3.24915,1.07224,-0.203726,-0.173587
1762170,1,-1.57037,-0.523125,4.81445e-05,-2.09663,-0.00119412,1.5711,0.785531,-1.5708,-0.523599,-1.11414e-07,-2.0944,-2.17595e-07,1.5708,0.785399,0.00105723,0.000456551,0.000304325,-0.000437617,0.000164859,0.00017165,0.00141818,0,0,0,0,0,0,0,-0.50597,-9.93533,-0.559934,21.789,1.78652,1.46231,-0.206716,-0.456581,-0.791061,-0.0626115,3.24885,1.07222,-0.2037,-0.173304
1762171,1,-1.57037,-0.523123,4.50162e-05,-2.09663,-0.0011951,1.5711,0.785531,-1.5708,-0.523599,-1.11414e-07,-2.0944,-2.17595e-07,1.5708,0.785399,-0.000501603,0.000304368,-0.00100354,-0.000291745,0.000109906,0.000114434,0.000945455,0,0,0,0,0,0,0,-0.454395,-9.93533,-0.508359,21.789,1.78652,1.46231,-0.206716,-0.456921,-0.79247,-0.0629897,3.24972,1.07224,-0.20357,-0.173062
1762172,1,-1.57037,-0.523125,4.68503e-05,-2.09663,-0.00119604,1.5711,0.78553,-1.5708,-0.523599,-1.11414e-07,-2.0944,-2.17595e-07,1.5708,0.785399,0.00022241,0.000202912,-0.000112217,-0.00140092,-0.00013018,-0.000635788,0.000155585,0,0,0,0,0,0,0,-0.478199,-9.93533,-0.532163,21.8405,1.79201,1.48153,-0.193899,-0.456546,-0.795205,-0.0622415,3.25146,1.07232,-0.20336,-0.172909
1762173,1,-1.57037,-0.523123,4.69049e-05,-2.09663,-0.00119234,1.5711,0.785533,-1.5708,-0.523599,-1.11414e-07,-2.0944,-2.17595e-07,1.5708,0.785399,0.000148274,0.000784888,-7.4811e-05,0.000272478,0.000116664,0.000525577,0.000103723,0,0,0,0,0,0,0,-0.478199,-9.9631,-0.532163,21.789,1.78652,1.4559,-0.193899,-0.455932,-0.798806,-0.0610924,3.2538,1.07243,-0.203097,-0.172866
1762174,1,-1.57037,-0.523123,4.6923e-05,-2.09663,-0.00119131,1.5711,0.785532,-1.5708,-0.523599,-1.11414e-07,-2.0944,-2.17595e-07,1.5708,0.785399,-0.000457963,-0.000126355,-4.9874e-05,0.000738464,7.77761e-05,0.000113026,0.000306508,0,0,0,0,0,0,0,-0.454395,-9.93533,-0.532163,21.7652,1.78652,1.46231,-0.200308,-0.455527,-0.801865,-0.0602195,3.25546,1.07253,-0.202926,-0.172928
1762175,1,-1.57037,-0.523122,4.52587e-05,-2.09663,-0.00119416,1.5711,0.78553,-1.5708,-0.523599,-1.11414e-07,-2.0944,-2.17595e-07,1.5708,0.785399,-0.000305309,-8.42367e-05,-0.000590061,-6.45028e-05,5.18507e-05,-0.000162008,-3.30203e-05,0,0,0,0,0,0,0,-0.454395,-9.93533,-0.508359,21.789,1.78652,1.46871,-0.193899,-0.454913,-0.802977,-0.0590446,3.25564,1.0726,-0.202915,-0.173085
1762176,1,-1.57037,-0.523126,4.69311e-05,-2.09663,-0.00119121,1.5711,0.785532,-1.5708,-0.523599,-1.11414e-07,-2.0944,-2.17595e-07,1.5708,0.785399,0.000353273,-0.00061297,0.000163438,-0.000692616,0.000271926,-0.000108006,0.000452704,0,0,0,0,0,0,0,-0.478199,-9.91153,-0.532163,21.8167,1.78011,1.46871,-0.206716,-0.454247,-0.802534,-0.0577639,3.25516,1.07267,-0.202955,-0.173326
1762177,1,-1.57037,-0.523123,4.67501e-05,-2.09663,-0.00119178,1.5711,0.785531,-1.5708,-0.523599,-1.11414e-07,-2.0944,-2.17595e-07,1.5708,0.785399,-0.000321297,0.000148165,0.000758572,0.000744682,-0.000259525,-7.20037e-05,6.44439e-05,0,0,0,0,0,0,0,-0.454395,-9.93533,-0.559934,21.7652,1.79201,1.46871,-0.200308,-0.454231,-0.801265,-0.0574254,3.2545,1.07269,-0.203001,-0.173634
1762178,1,-1.57037,-0.523125,4.98411e-05,-2.09662,-0.00119021,1.5711,0.78553,-1.5708,-0.523599,-1.11414e-07,-2.0944,-2.17595e-07,1.5708,0.785399,0.000342614,9.8777e-05,0.00106253,0.00105327,0.000267793,0.000189356,-0.00138119,0,0,0,0,0,0,0,-0.478199,-9.93533,-0.583737,21.7414,1.78011,1.46231,-0.161856,-0.455202,-0.799494,-0.0586138,3.25324,1.07264,-0.203122,-0.174
1762179,1,-1.57037,-0.523126,5.03147e-05,-2.09663,-0.00119403,1.5711,0.785526,-1.5708,-0.523599,-1.11414e-07,-2.0944,-2.17595e-07,1.5708,0.785399,0.000228409,-0.00104777,0.000708351,-0.000411446,-5.88306e-05,0.000126238,-0.00139551,0,0,0,0,0,0,0,-0.478199,-9.88773,-0.583737,21.789,1.78652,1.46231,-0.149038,-0.457032,-0.797011,-0.0611428,3.25136,1.07253,-0.203311,-0.174401
1762180,1,-1.57037,-0.523126,4.68532e-05,-2.09663,-0.00119249,1.5711,0.785523,-1.5708,-0.523599,-1.11414e-07,-2.0944,-2.17595e-07,1.5708,0.785399,0.000152273,-0.000141703,-0.000734192,0.000282515,-0.000242671,8.41584e-05,-0.00167633,0,0,0,0,0,0,0,-0.478199,-9.91153,-0.532163,21.7652,1.79201,1.46231,-0.128897,-0.458808,-0.793879,-0.0635887,3.24939,1.07242,-0.203489,-0.174783
1762181,1,-1.57037,-0.523125,4.52354e-05,-2.09663,-0.00119435,1.5711,0.785525,-1.5708,-0.523599,-1.11414e-07,-2.0944,-2.17595e-07,1.5708,0.785399,0.000751129,0.000462343,-0.00104627,-0.000368469,4.16699e-05,5.61056e-05,-0.000371566,0,0,0,0,0,0,0,-0.50597,-9.93533,-0.508359,21.789,1.78652,1.46231,-0.149038,-0.459535,-0.791826,-0.0643453,3.24815,1.07237,-0.203599,-0.175086
1762182,1,-1.57037,-0.523123,4.47928e-05,-2.09662,-0.00119446,1.5711,0.785529,-1.5708,-0.523599,-1.11414e-07,-2.0944,-2.17595e-07,1.5708,0.785399,-0.000705673,0.000308229,-0.000140703,0.000867978,0.000265139,3.74037e-05,0.000939084,0,0,0,0,0,0,0,-0.454395,-9.93533,-0.532163,21.7414,1.78011,1.46231,-0.181082,-0.459269,-0.791789,-0.0634827,3.24779,1.07238,-0.203651,-0.175266
1762183,1,-1.57037,-0.523126,4.6219e-05,-2.09663,-0.00119474,1.5711,0.785525,-1.5708,-0.523599,-1.11414e-07,-2.0944,-2.17595e-07,1.5708,0.785399,-0.000470449,-0.000351326,-9.38023e-05,-0.000534972,0.000176759,2.49358e-05,-0.000560739,0,0,0,0,0,0,0,-0.454395,-9.91153,-0.532163,21.789,1.78011,1.46231,-0.149038,-0.458476,-0.792469,-0.0618878,3.24767,1.07242,-0.203697,-0.175328
1762184,1,-1.57037,-0.523123,4.66944e-05,-2.09663,-0.00119554,1.5711,0.785526,-1.5708,-0.523599,-1.11414e-07,-2.0944,-2.17595e-07,1.5708,0.785399,-0.000870444,0.000322595,-6.25349e-05,-0.00156307,-0.000119519,-0.000220735,0.000100892,0,0,0,0,0,0,0,-0.430592,-9.93533,-0.532163,21.8405,1.78652,1.46871,-0.161856,-0.457438,-0.793755,-0.0600867,3.24829,1.07248,-0.203662,-0.175302
1762185,1,-1.57037,-0.523126,4.68529e-05,-2.09663,-0.00119486,1.57109,0.785526,-1.5708,-0.523599,-1.11414e-07,-2.0944,-2.17595e-07,1.5708,0.785399,-0.000580296,-0.000341749,-4.16899e-05,0.000164377,0.000157679,-0.000384516,-0.000170097,0,0,0,0,0,0,0,-0.430592,-9.91153,-0.532163,21.789,1.78011,1.47512,-0.155447,-0.456297,-0.795883,-0.0582837,3.2499,1.07255,-0.203518,-0.175203
1762186,1,-1.57037,-0.523126,4.35649e-05,-2.09663,-0.00119426,1.5711,0.785531,-1.5708,-0.523599,-1.11414e-07,-2.0944,-2.17595e-07,1.5708,0.785399,0.00072676,-0.000784645,-0.00114142,0.000109584,0.00030857,-0.000256344,0.00154811,0,0,0,0,0,0,0,-0.478199,-9.88773,-0.484555,21.789,1.77461,1.47512,-0.200308,-0.455211,-0.796746,-0.0565631,3.25084,1.07259,-0.203425,-0.175044
1762187,1,-1.57037,-0.523126,4.69233e-05,-2.09663,-0.001193,1.5711,0.785531,-1.5708,-0.523599,-1.11414e-07,-2.0944,-2.17595e-07,1.5708,0.785399,0.000484507,-0.000523096,0.000352679,-0.00113337,-0.000438547,0.000303822,0.00126944,0,0,0,0,0,0,0,-0.478199,-9.88773,-0.532163,21.8405,1.79201,1.46231,-0.206716,-0.454639,-0.795722,-0.0554303,3.25083,1.07256,-0.203405,-0.174853
1762188,1,-1.57037,-0.523124,4.69292e-05,-2.09663,-0.00119133,1.5711,0.785528,-1.5708,-0.523599,-1.11414e-07,-2.0944,-2.17595e-07,1.5708,0.785399,-0.00079062,0.000764893,0.000235119,-0.000198768,-8.89139e-05,-0.00027217,-0.000340505,0,0,0,0,0,0,0,-0.430592,-9.93533,-0.532163,21.8167,1.78652,1.47512,-0.174673,-0.454781,-0.795216,-0.055318,3.25128,1.07249,-0.203338,-0.17468
1762189,1,-1.57038,-0.523123,4.52607e-05,-2.09663,-0.00119539,1.5711,0.78553,-1.5708,-0.523599,-1.11414e-07,-2.0944,-2.17595e-07,1.5708,0.785399,-0.00117669,0.000509929,-0.000400066,0.000517102,-0.000466177,0.00053063,0.000485074,0,0,0,0,0,0,0,-0.402821,-9.93533,-0.508359,21.789,1.7975,1.4559,-0.193899,-0.454745,-0.796521,-0.0551219,3.25239,1.07244,-0.203242,-0.174567
1762190,1,-1.57038,-0.523122,4.69318e-05,-2.09663,-0.00119121,1.5711,0.785531,-1.5708,-0.523599,-1.11414e-07,-2.0944,-2.17595e-07,1.5708,0.785399,-0.000784462,0.000339952,0.000290102,0.000901547,0.000333475,-0.000358323,0.000560741,0,0,0,0,0,0,0,-0.402821,-9.93533,-0.532163,21.7652,1.78011,1.47512,-0.200308,-0.454001,-0.798319,-0.0541005,3.2531,1.07241,-0.203225,-0.174522
1762191,1,-1.57037,-0.523124,4.88809e-05,-2.09663,-0.00119046,1.5711,0.785529,-1.5708,-0.523599,-1.11414e-07,-2.0944,-2.17595e-07,1.5708,0.785399,0.000126639,0.000226635,0.000843015,-0.00116221,0.000222317,0.000473195,-0.00010089,0,0,0,0,0,0,0,-0.430592,-9.93533,-0.559934,21.8405,1.78011,1.4559,-0.18749,-0.453528,-0.799909,-0.0536586,3.25351,1.07237,-0.203247,-0.174542
1762192,1,-1.57037,-0.523128,4.52617e-05,-2.09662,-0.00119092,1.5711,0.785531,-1.5708,-0.523599,-1.11414e-07,-2.0944,-2.17595e-07,1.5708,0.785399,8.4426e-05,-0.000962534,-0.000644416,0.00154525,-8.91477e-05,-0.000396614,0.000407458,0,0,0,0,0,0,0,-0.430592,-9.88773,-0.508359,21.7414,1.78652,1.47512,-0.200308,-0.453766,-0.800414,-0.0543447,3.25357,1.07229,-0.203285,-0.17463
1762193,1,-1.57037,-0.523125,5.05514e-05,-2.09663,-0.00119464,1.5711,0.785529,-1.5708,-0.523599,-1.11414e-07,-2.0944,-2.17595e-07,1.5708,0.785399,5.6284e-05,-8.48773e-05,0.00133363,-8.34604e-05,-0.000262882,-2.70502e-05,-0.000203079,0,0,0,0,0,0,0,-0.430592,-9.91153,-0.583737,21.789,1.79201,1.46871,-0.18749,-0.454385,-0.798536,-0.0556404,3.25238,1.07216,-0.203423,-0.174783
1762194,1,-1.57037,-0.523128,4.52617e-05,-2.09663,-0.00119249,1.5711,0.785529,-1.5708,-0.523599,-1.11414e-07,-2.0944,-2.17595e-07,1.5708,0.785399,3.75227e-05,-0.000613397,-0.000874153,-5.56402e-05,-0.000175255,-1.80335e-05,-0.000372745,0,0,0,0,0,0,0,-0.430592,-9.88773,-0.508359,21.789,1.79201,1.46871,-0.181082,-0.455169,-0.795658,-0.0572759,3.25078,1.07202,-0.203581,-0.174992
1762195,1,-1.57037,-0.523126,4.69321e-05,-2.09663,-0.00119044,1.57109,0.785528,-1.5708,-0.523599,-1.11414e-07,-2.0944,-2.17595e-07,1.5708,0.785399,0.000581827,-0.000408931,-2.59567e-05,-0.000686707,0.000323973,-1.20223e-05,-0.000485856,0,0,0,0,0,0,0,-0.454395,-9.88773,-0.532163,21.8167,1.78011,1.46871,-0.174673,-0.455622,-0.793136,-0.0584403,3.24977,1.07192,-0.203653,-0.175243
1762196,1,-1.57037,-0.523124,4.69321e-05,-2.09663,-0.00119153,1.5711,0.785528,-1.5708,-0.523599,-1.11414e-07,-2.0944,-2.17595e-07,1.5708,0.785399,0.000944697,0.000284191,-1.73045e-05,-0.000457805,-0.000224828,-8.01488e-06,-0.000323904,0,0,0,0,0,0,0,-0.478199,-9.91153,-0.532163,21.8167,1.79201,1.46871,-0.174673,-0.456025,-0.791701,-0.0594408,3.24969,1.07185,-0.20362,-0.175506
1762197,1,-1.57037,-0.523127,4.8881e-05,-2.09663,-0.00119084,1.5711,0.785529,-1.5708,-0.523599,-1.11414e-07,-2.0944,-2.17595e-07,1.5708,0.785399,-0.000483826,-0.00101697,0.000638078,-0.000305203,5.35655e-05,-0.000242702,0.000258782,0,0,0,0,0,0,0,-0.430592,-9.85995,-0.559934,21.8167,1.78652,1.47512,-0.18749,-0.456749,-0.791144,-0.060899,3.25028,1.07179,-0.203519,-0.175756
1762198,1,-1.57037,-0.523128,4.48016e-05,-2.09663,-0.00119142,1.5711,0.78553,-1.5708,-0.523599,-1.11414e-07,-2.0944,-2.17595e-07,1.5708,0.785399,0.000234261,-2.83628e-05,-0.000224229,0.000446145,-0.00016774,7.55575e-05,0.00040988,0,0,0,0,0,0,0,-0.454395,-9.88773,-0.532163,21.789,1.79201,1.46871,-0.193899,-0.457318,-0.789974,-0.0622208,3.25055,1.07174,-0.203447,-0.175989
1762199,1,-1.57037,-0.523125,4.81708e-05,-2.09663,-0.0011908,1.5711,0.785524,-1.5708,-0.523599,-1.11414e-07,-2.0944,-2.17595e-07,1.5708,0.785399,0.000712986,0.000537903,0.000500128,-0.000352184,9.16237e-05,5.03717e-05,-0.00165953,0,0,0,0,0,0,0,-0.478199,-9.91153,-0.559934,21.8167,1.78652,1.46871,-0.141714,-0.457757,-0.789148,-0.0633556,3.25075,1.0717,-0.203396,-0.176211
1762200,1,-1.57037,-0.523126,4.66954e-05,-2.09663,-0.00119328,1.5711,0.785529,-1.5708,-0.523599,-1.11414e-07,-2.0944,-2.17595e-07,1.5708,0.785399,-0.0006383,0.000358602,-0.000316195,-0.000234789,0.000298441,0.00027094,0.00058907,0,0,0,0,0,0,0,-0.430592,-9.91153,-0.532163,21.8167,1.78011,1.46231,-0.18749,-0.458096,-0.790211,-0.0642996,3.25177,1.07169,-0.203289,-0.176413
1762201,1,-1.57037,-0.523125,4.51828e-05,-2.09663,-0.00119506,1.5711,0.785527,-1.5708,-0.523599,-1.11414e-07,-2.0944,-2.17595e-07,1.5708,0.785399,-0.000425533,0.00079588,-0.000767609,0.000493088,-3.8398e-05,0.000180627,-0.000319363,0,0,0,0,0,0,0,-0.430592,-9.93533,-0.508359,21.789,1.78652,1.46231,-0.168264,-0.457514,-0.792668,-0.0639064,3.25335,1.07173,-0.203155,-0.176579
1762202,1,-1.57038,-0.523123,4.3565e-05,-2.09663,-0.00119283,1.5711,0.78553,-1.5708,-0.523599,-1.11414e-07,-2.0944,-2.17595e-07,1.5708,0.785399,-0.000933303,0.000530587,-0.00106855,0.000885537,-0.000229049,0.000357777,0.000736527,0,0,0,0,0,0,0,-0.402821,-9.93533,-0.484555,21.7652,1.79201,1.4559,-0.193899,-0.455536,-0.795436,-0.0614668,3.25461,1.07183,-0.203086,-0.176712
1762203,1,-1.57037,-0.523122,4.69234e-05,-2.09663,-0.00119127,1.57109,0.785531,-1.5708,-0.523599,-1.11414e-07,-2.0944,-2.17595e-07,1.5708,0.785399,0.00114104,0.000353725,0.000401256,3.35461e-05,5.07511e-05,-0.0002362,0.000728377,0,0,0,0,0,0,0,-0.478199,-9.93533,-0.532163,21.789,1.78652,1.46871,-0.200308,-0.453285,-0.797772,-0.0585667,3.25534,1.07192,-0.203095,-0.176819
1762204,1,-1.57037,-0.523122,4.88781e-05,-2.09663,-0.00119024,1.5711,0.78553,-1.5708,-0.523599,-1.11414e-07,-2.0944,-2.17595e-07,1.5708,0.785399,0.000203879,0.000235816,0.000917118,-0.00062725,0.000271193,-0.000157467,0.000248226,0,0,0,0,0,0,0,-0.454395,-9.93533,-0.559934,21.8167,1.78011,1.46871,-0.193899,-0.452518,-0.799773,-0.0577663,3.25615,1.07195,-0.203091,-0.176916
1762205,1,-1.57037,-0.523122,4.52607e-05,-2.09663,-0.00119085,1.5711,0.785531,-1.5708,-0.523599,-1.11414e-07,-2.0944,-2.17595e-07,1.5708,0.785399,0.000692731,0.000157211,-0.000595014,0.000231447,-5.65636e-05,0.00036974,0.000640202,0,0,0,0,0,0,0,-0.478199,-9.93533,-0.508359,21.789,1.78652,1.4559,-0.206716,-0.453066,-0.8015,-0.0588218,3.25724,1.07192,-0.203045,-0.177033
1762206,1,-1.57037,-0.523126,4.69318e-05,-2.09663,-0.00119401,1.5711,0.785531,-1.5708,-0.523599,-1.11414e-07,-2.0944,-2.17595e-07,1.5708,0.785399,0.00111143,-0.000452005,0.000160136,0.00071111,-3.77091e-05,9.13444e-06,-0.000759994,0,0,0,0,0,0,0,-0.50597,-9.91153,-0.532163,21.7652,1.78652,1.46231,-0.174673,-0.453938,-0.801815,-0.0601697,3.25758,1.07186,-0.203065,-0.177193
1762207,1,-1.57037,-0.523125,4.35912e-05,-2.09663,-0.00119054,1.57109,0.78553,-1.5708,-0.523599,-1.11414e-07,-2.0944,-2.17595e-07,1.5708,0.785399,9.13427e-05,-0.000301336,-0.00100687,-0.000732352,0.00041567,-0.000231269,-3.19445e-05,0,0,0,0,0,0,0,-0.478199,-9.91153,-0.484555,21.8167,1.77461,1.46871,-0.18749,-0.454725,-0.800376,-0.0611432,3.25701,1.07178,-0.203162,-0.177399
1762208,1,-1.57037,-0.523124,4.88809e-05,-2.09662,-0.00119364,1.5711,0.785531,-1.5708,-0.523599,-1.11414e-07,-2.0944,-2.17595e-07,1.5708,0.785399,-0.00105273,-0.000200891,0.00109199,0.001275,7.36629e-05,-0.00015418,0.000453422,0,0,0,0,0,0,0,-0.430592,-9.91153,-0.559934,21.7414,1.78011,1.46871,-0.200308,-0.454984,-0.798063,-0.061281,3.25606,1.07173,-0.203283,-0.177633
1762209,1,-1.57037,-0.523126,4.8881e-05,-2.09662,-0.00119198,1.5711,0.785529,-1.5708,-0.523599,-1.11414e-07,-2.0944,-2.17595e-07,1.5708,0.785399,-0.000145007,-0.000133927,0.000727996,0.00029319,-0.00018825,-0.000577504,-0.000409796,0,0,0,0,0,0,0,-0.454395,-9.91153,-0.559934,21.7652,1.78652,1.48153,-0.181082,-0.455142,-0.795224,-0.0614302,3.25459,1.07165,-0.203453,-0.177881
1762210,1,-1.57037,-0.523128,4.69321e-05,-2.09662,-0.00119048,1.5711,0.78553,-1.5708,-0.523599,-1.11414e-07,-2.0944,-2.17595e-07,1.5708,0.785399,-0.000653483,-0.000646097,-0.000164283,0.000752272,0.000111859,0.000327074,-0.000747915,0,0,0,0,0,0,0,-0.430592,-9.88773,-0.532163,21.7414,1.78011,1.46231,-0.168264,-0.455388,-0.791912,-0.0618416,3.25265,1.07156,-0.203653,-0.178142
1762211,1,-1.57037,-0.523125,4.69321e-05,-2.09663,-0.00119473,1.5711,0.785528,-1.5708,-0.523599,-1.11414e-07,-2.0944,-2.17595e-07,1.5708,0.785399,-0.000435656,0.000682893,-0.000109522,-0.00126172,-0.000366237,0.000218049,-0.000735969,0,0,0,0,0,0,0,-0.430592,-9.93533,-0.532163,21.8167,1.79201,1.46231,-0.161856,-0.455086,-0.789508,-0.0614901,3.25129,1.0715,-0.203773,-0.178401
1762212,1,-1.57037,-0.523123,4.8881e-05,-2.09663,-0.00119252,1.5711,0.785528,-1.5708,-0.523599,-1.11414e-07,-2.0944,-2.17595e-07,1.5708,0.785399,0.000266375,0.000455262,0.000576599,-0.000841149,-0.000244158,0.000145366,-0.000253287,0,0,0,0,0,0,0,-0.454395,-9.93533,-0.559934,21.8167,1.79201,1.46231,-0.168264,-0.454579,-0.790204,-0.0608691,3.25196,1.07149,-0.20369,-0.178622
1762213,1,-1.57037,-0.523124,4.8881e-05,-2.09663,-0.00119045,1.5711,0.785529,-1.57079,-0.523597,-2.61141e-06,-2.0944,-1.74169e-06,1.5708,0.7854,0.000177583,-0.000253304,0.000384399,8.88481e-05,0.000278037,-0.000140448,0.000543219,0.00304939,0.001875,-0.0025,-0.003125,-0.00152409,0.005,0.00102661,-0.454395,-9.91153,-0.559934,21.789,1.78011,1.46871,-0.18749,-0.454663,-0.792756,-0.0611337,3.25388,1.07148,-0.20349,-0.178779
1762214,1,-1.57037,-0.523122,4.8881e-05,-2.09663,-0.00119092,1.5711,0.785525,-1.57079,-0.523593,-7.61141e-06,-2.0944,-4.78987e-06,1.57081,0.785402,-0.000438423,0.000387943,0.000256266,0.000616044,-5.20006e-05,-9.36321e-05,-0.00106201,0.00609879,0.00375,-0.005,-0.00625,-0.00304819,0.01,0.00205323,-0.430592,-9.93533,-0.559934,21.7652,1.78652,1.46871,-0.149038,-0.455093,-0.794514,-0.0619558,3.25513,1.07144,-0.203362,-0.178881
1762215,1,-1.57037,-0.52312,4.8881e-05,-2.09662,-0.00119464,1.5711,0.785527,-1.57078,-0.523587,-1.51114e-05,-2.09441,-9.36215e-06,1.57083,0.785405,0.00026453,0.000908242,0.000170844,0.000967508,-0.000238118,-0.00029978,4.07163e-06,0.00914818,0.005625,-0.0075,-0.009375,-0.00457228,0.015,0.00307984,-0.454395,-9.9631,-0.559934,21.7414,1.79201,1.47512,-0.168264,-0.455369,-0.795812,-0.0626294,3.25552,1.0714,-0.20334,-0.178937
1762216,1,-1.57037,-0.523122,4.62904e-05,-2.09663,-0.00119253,1.5711,0.785525,-1.57077,-0.52358,-2.51114e-05,-2.09443,-1.54585e-05,1.57085,0.785409,0.000176353,0.00447764,-0.00221775,-0.00360554,0.000892416,-0.000199854,-0.000709362,0.0121976,0.0075,-0.01,-0.0125,-0.00609637,0.02,0.00410645,-0.454395,-9.76077,-0.583737,21.6422,1.76363,1.47512,-0.149038,-0.45491,-0.801848,-0.0621617,3.25817,1.07142,-0.203132,-0.178934
1762217,1,-1.57037,-0.523131,4.37681e-05,-2.09663,-0.00119292,1.5711,0.785526,-1.57075,-0.523571,-3.76114e-05,-2.09444,-2.3079e-05,1.57087,0.785414,-0.00164567,0.00154326,-0.00284026,-0.00359597,-0.00306844,-0.000879221,-0.00121889,0.015247,0.009375,-0.0125,-0.015625,-0.00762046,0.025,0.00513307,-0.379017,-9.17758,-0.659116,21.2693,1.73525,1.49526,-0.128897,-0.452208,-0.816484,-0.0582873,3.2662,1.07168,-0.202396,-0.178865
1762218,1,-1.57036,-0.523126,3.94205e-05,-2.09662,-0.00119094,1.57109,0.785531,-1.57073,-0.523559,-5.26114e-05,-2.09446,-3.22235e-05,1.5709,0.78542,0.00273468,0.00269327,-0.00234379,-0.000418373,-0.00138734,-0.00177294,0.000645466,0.0182964,0.01125,-0.015,-0.01875,-0.00914456,0.03,0.00615968,-0.402821,-8.57059,-0.786069,20.7218,1.70687,1.52731,-0.168264,-0.447667,-0.833999,-0.0516511,3.27642,1.07205,-0.201353,-0.178716
1762219,1,-1.57036,-0.523113,2.41673e-05,-2.09663,-0.00119199,1.5711,0.78553,-1.57071,-0.523546,-7.01114e-05,-2.09448,-4.28922e-05,1.57094,0.785427,0.00595148,0.004858,-0.00435241,-0.00544189,-0.000371845,-0.00118196,-0.000281766,0.0213458,0.013125,-0.0175,-0.021875,-0.0106687,0.035,0.00718629,-0.430592,-7.99136,-0.81384,20.1981,1.68398,1.52731,-0.149038,-0.444254,-0.851207,-0.0462901,3.28623,1.07228,-0.200163,-0.178464
1762220,1,-1.57035,-0.523087,1.11215e-05,-2.09663,-0.00119516,1.5711,0.78553,-1.57069,-0.523531,-9.01114e-05,-2.09451,-5.50849e-05,1.57098,0.785436,0.00816426,0.0104235,-0.00841174,-0.00382538,-6.19899e-05,-0.00150005,-0.000187844,0.0243952,0.015,-0.02,-0.025,-0.0121927,0.04,0.0082129,-0.454395,-7.55893,-0.861447,19.5514,1.67299,1.54653,-0.149038,-0.442528,-0.874612,-0.0425899,3.29849,1.0723,-0.198463,-0.178118
1762221,1,-1.57034,-0.52306,4.37572e-06,-2.09664,-0.00120043,1.5711,0.78553,-1.57066,-0.523514,-0.000112611,-2.09454,-6.88018e-05,1.57102,0.785445,0.00981444,0.0152123,-0.0100042,-0.00334607,-0.0051157,-0.00147475,0.00011213,0.0274445,0.016875,-0.0225,-0.028125,-0.0137168,0.045,0.00923952,-0.478199,-7.15427,-0.964597,19.0555,1.67848,1.55935,-0.155447,-0.440577,-0.910498,-0.0376586,3.31462,1.07221,-0.196068,-0.177692
1762222,1,-1.57034,-0.523029,-1.15802e-05,-2.09665,-0.00120015,1.57111,0.785533,-1.57063,-0.523496,-0.000137611,-2.09457,-8.40427e-05,1.57107,0.785455,0.00677428,0.0201485,-0.00956011,-0.0063044,-0.00331652,-0.000271091,0.00102419,0.0304939,0.01875,-0.025,-0.03125,-0.0152409,0.05,0.0102661,-0.327442,-6.82895,-1.01617,18.5596,1.662,1.54013,-0.181082,-0.437133,-0.96176,-0.0303351,3.33444,1.07208,-0.192917,-0.17719
1762223,1,-1.57033,-0.523007,-3.08884e-05,-2.09666,-0.00120387,1.57112,0.785538,-1.57059,-0.523473,-0.000167139,-2.0946,-0.000101724,1.57113,0.785467,0.00785393,0.0200345,-0.0135422,-0.00840556,-0.00259832,0.00590915,0.00115751,0.0358261,0.0225,-0.029528,-0.0375,-0.0176816,0.06,0.011887,-0.303639,-6.44809,-1.01617,18.1867,1.662,1.50167,-0.193899,-0.430948,-1.02607,-0.0198145,3.35694,1.07198,-0.188962,-0.176654
1762224,1,-1.57031,-0.522991,-4.33292e-05,-2.09668,-0.00120637,1.57113,0.785535,-1.57055,-0.523447,-0.000201195,-2.09465,-0.000121847,1.5712,0.78548,0.0128641,0.0180927,-0.0131678,-0.0123732,-0.00598592,0.00855978,-0.000415121,0.0411582,0.02625,-0.034056,-0.04375,-0.0201223,0.07,0.013508,-0.327442,-5.99185,-1.14312,18.0637,1.64461,1.51449,-0.161856,-0.422545,-1.09259,-0.00711963,3.37764,1.07186,-0.18447,-0.176144
1762225,1,-1.5703,-0.522976,-6.00697e-05,-2.0967,-0.00120921,1.57114,0.785534,-1.57051,-0.523417,-0.000239779,-2.0947,-0.00014441,1.57128,0.785496,0.0130354,0.0179774,-0.0143266,-0.0115165,-0.00398208,0.00815358,0.00453541,0.0464904,0.03,-0.038584,-0.05,-0.022563,0.08,0.0151289,-0.327442,-5.58719,-1.2185,17.8138,1.62813,1.5914,-0.149038,-0.414721,-1.1487,0.00369908,3.391,1.07151,-0.179835,-0.175691
1762226,1,-1.57028,-0.522955,-7.96278e-05,-2.09672,-0.00121655,1.57115,0.785536,-1.57045,-0.523383,-0.000282891,-2.09475,-0.000169413,1.57137,0.785512,0.0128866,0.0190176,-0.0146852,-0.0173031,-0.00290263,0.00744668,0.0027182,0.0518226,0.03375,-0.043112,-0.05625,-0.0250037,0.09,0.0167498,-0.327442,-5.10715,-1.31769,17.5638,1.62264,1.68844,-0.128897,-0.408209,-1.18948,0.0111158,3.395,1.07085,-0.175129,-0.175288
1762227,1,-1.57027,-0.522938,-0.000106795,-2.09675,-0.00122366,1.57115,0.785537,-1.5704,-0.523346,-0.000330531,-2.09482,-0.000196858,1.57147,0.785531,0.0137104,0.0208037,-0.0205991,-0.0204457,-0.00162935,0.00947485,0.00638969,0.0571547,0.0375,-0.04764,-0.0625,-0.0274444,0.1,0.0183707,-0.22826,-4.32559,-1.42083,17.1433,1.60524,1.84866,-0.103262,-0.400794,-1.21814,0.018065,3.39231,1.06999,-0.169961,-0.174904
1762228,1,-1.57024,-0.522912,-0.000142341,-2.09678,-0.00123056,1.57116,0.785541,-1.57033,-0.523304,-0.000382699,-2.09489,-0.000226743,1.57158,0.785551,0.0187165,0.023498,-0.0237466,-0.0229383,-0.004119,0.0118225,0.00470331,0.0624869,0.04125,-0.0521679,-0.06875,-0.029885,0.11,0.0199916,-0.303639,-3.54007,-1.47241,16.572,1.55397,1.99697,-0.0968531,-0.390474,-1.23921,0.0278854,3.38558,1.06909,-0.163936,-0.174487
1762229,1,-1.5702,-0.522869,-0.000185684,-2.09681,-0.0012356,1.57118,0.78554,-1.57027,-0.523259,-0.000439395,-2.09496,-0.000259068,1.5717,0.785572,0.0270748,0.0288735,-0.0291814,-0.0276765,-0.00512268,0.0146891,0.00171341,0.067819,0.045,-0.0566959,-0.075,-0.0323257,0.12,0.0216125,-0.454395,-2.88547,-1.49621,15.9729,1.47524,2.10684,-0.044668,-0.378525,-1.25779,0.0396675,3.37688,1.0681,-0.156663,-0.173957
1762230,1,-1.57016,-0.522824,-0.000229487,-2.09685,-0.00123967,1.57121,0.78554,-1.57019,-0.523211,-0.000500619,-2.09504,-0.000293835,1.57183,0.785595,0.0324732,0.0307477,-0.0348148,-0.0290981,-0.00663883,0.0205933,0.00530675,0.0731512,0.04875,-0.0612239,-0.08125,-0.0347664,0.13,0.0232334,-0.454395,-2.25467,-1.57159,15.2787,1.41298,2.13247,-0.00621587,-0.367122,-1.27769,0.0513897,3.36751,1.06691,-0.147758,-0.17323
1762231,1,-1.57012,-0.522777,-0.00027678,-2.0969,-0.00124916,1.57127,0.785548,-1.57011,-0.523158,-0.000566371,-2.09513,-0.000331042,1.57197,0.78562,0.0361713,0.0361089,-0.0364469,-0.0393668,-0.00418399,0.0336414,0.00402152,0.0784833,0.0525,-0.0657519,-0.0875,-0.0372071,0.14,0.0248543,-0.430592,-1.67148,-1.64697,14.8066,1.37911,2.04183,0.000192821,-0.357029,-1.30019,0.0623678,3.35785,1.06538,-0.136985,-0.172225
1762232,1,-1.57008,-0.522726,-0.000329499,-2.09696,-0.00126377,1.57134,0.785552,-1.57003,-0.523102,-0.000636651,-2.09522,-0.00037069,1.57212,0.785647,0.0398032,0.038239,-0.0432128,-0.0422427,-0.00375232,0.0460525,0.00685746,0.0838155,0.05625,-0.0702799,-0.09375,-0.0396478,0.15,0.0264752,-0.303639,-1.13986,-1.72235,14.2829,1.3846,1.8688,0.038645,-0.347968,-1.32676,0.0726361,3.34889,1.06347,-0.124259,-0.170873
1762233,1,-1.57003,-0.52268,-0.000382076,-2.09703,-0.00128,1.57143,0.785563,-1.56994,-0.52304,-0.00071293,-2.09533,-0.000413356,1.57229,0.785675,0.0409822,0.039343,-0.0453871,-0.0505085,-0.00736209,0.0591706,0.0100959,0.0908067,0.061875,-0.0762795,-0.103125,-0.042666,0.165,0.0284338,-0.22826,-0.584442,-1.8255,14.0091,1.37361,1.68844,0.0523779,-0.338165,-1.3536,0.0840798,3.33852,1.06118,-0.110018,-0.169138
1762234,1,-1.56997,-0.522641,-0.000439796,-2.0971,-0.00130237,1.57152,0.785565,-1.56984,-0.522972,-0.00079521,-2.09544,-0.00045904,1.57247,0.785706,0.0467151,0.0359591,-0.046607,-0.0551139,-0.0116922,0.0702481,0.00493653,0.0977978,0.0675,-0.0822791,-0.1125,-0.0456841,0.18,0.0303924,-0.22826,0.0225525,-1.92468,13.8346,1.40749,1.5914,0.129282,-0.327802,-1.37024,0.0953803,3.32184,1.05847,-0.0951044,-0.166983
1762235,1,-1.5699,-0.522605,-0.000508227,-2.09718,-0.00132322,1.57162,0.78557,-1.56974,-0.522899,-0.000883488,-2.09556,-0.000507742,1.57266,0.785738,0.0523314,0.033404,-0.0527029,-0.0597773,-0.0130862,0.0793686,0.00641195,0.104789,0.073125,-0.0882787,-0.121875,-0.0487023,0.195,0.0323511,-0.279835,0.629547,-1.92468,13.7354,1.39559,1.61062,0.207102,-0.318918,-1.36324,0.103017,3.29282,1.0552,-0.0805279,-0.164348
1762236,1,-1.56983,-0.52256,-0.000567512,-2.09725,-0.00135492,1.57173,0.785585,-1.56963,-0.522821,-0.000977767,-2.09569,-0.000559463,1.57287,0.785772,0.0601366,0.0402266,-0.0536925,-0.0651417,-0.0198433,0.0875577,0.0109157,0.11178,0.07875,-0.0942783,-0.13125,-0.0517204,0.21,0.0343097,-0.252064,1.23654,-2.10321,13.4616,1.41298,1.72689,0.200693,-0.312959,-1.33008,0.105131,3.25014,1.05135,-0.0668829,-0.161132
1762237,1,-1.56975,-0.522511,-0.000640064,-2.09734,-0.00138847,1.57184,0.785594,-1.56951,-0.522736,-0.00107804,-2.09583,-0.000614201,1.5731,0.785809,0.0629552,0.043509,-0.0608493,-0.0756747,-0.0236411,0.0930747,0.0120334,0.118771,0.084375,-0.100278,-0.140625,-0.0547386,0.225,0.0362683,-0.204456,2.04587,-2.23016,13.0649,1.39559,1.88162,0.24647,-0.309998,-1.28465,0.101768,3.20152,1.04712,-0.0537774,-0.157212
1762238,1,-1.56965,-0.522453,-0.000730674,-2.09744,-0.00142154,1.57197,0.785614,-1.56938,-0.522646,-0.00118432,-2.09598,-0.000671958,1.57334,0.785847,0.0765215,0.0487126,-0.0700667,-0.079319,-0.0294368,0.102622,0.0164948,0.125763,0.09,-0.106277,-0.15,-0.0577568,0.24,0.0382269,-0.355213,2.879,-2.20636,12.4698,1.32784,2.02261,0.194285,-0.307913,-1.23905,0.0965461,3.15403,1.04282,-0.0405379,-0.152535
1762239,1,-1.56955,-0.522383,-0.000821077,-2.09754,-0.00145889,1.57213,0.785635,-1.56925,-0.522551,-0.0012966,-2.09614,-0.000732733,1.57359,0.785887,0.0847459,0.0530305,-0.0773082,-0.0884588,-0.0290138,0.118563,0.0188534,0.132754,0.095625,-0.112277,-0.159375,-0.0607749,0.255,0.0401855,-0.454395,3.58517,-2.28174,11.847,1.25459,2.04916,0.162241,-0.305826,-1.19702,0.0919845,3.10914,1.03852,-0.0268381,-0.147132
1762240,1,-1.56945,-0.5223,-0.000915862,-2.09766,-0.00149787,1.57231,0.785654,-1.56911,-0.522449,-0.00141488,-2.09631,-0.000796526,1.57386,0.785929,0.0908804,0.0601513,-0.0824609,-0.0987489,-0.0288614,0.136093,0.019296,0.139745,0.10125,-0.118277,-0.16875,-0.0637931,0.27,0.0421441,-0.430592,4.19217,-2.35711,11.3749,1.18135,1.93289,0.162241,-0.304161,-1.16248,0.0879911,3.06856,1.03418,-0.0123029,-0.141123
1762241,1,-1.56934,-0.522216,-0.00101573,-2.09779,-0.00154238,1.57252,0.785678,-1.56896,-0.522342,-0.00153915,-2.09649,-0.000863337,1.57415,0.785973,0.0962875,0.0642661,-0.0888137,-0.109652,-0.0303966,0.160301,0.0203995,0.146736,0.106875,-0.124276,-0.178125,-0.0668113,0.285,0.0441027,-0.430592,4.77536,-2.38092,10.9027,1.15297,1.75253,0.143015,-0.302324,-1.13954,0.0849228,3.03474,1.02977,0.00338859,-0.13468
1762242,1,-1.56923,-0.522121,-0.00111885,-2.09794,-0.00158901,1.57275,0.785708,-1.56881,-0.52223,-0.00166943,-2.09668,-0.000933167,1.57445,0.786019,0.0992648,0.073036,-0.0909679,-0.121019,-0.0366013,0.182681,0.0225953,0.153727,0.1125,-0.130276,-0.1875,-0.0698294,0.3,0.0460613,-0.252064,5.22763,-2.4563,10.5536,1.14198,1.58499,0.0844213,-0.299631,-1.13032,0.0828176,3.00874,1.0253,0.0201217,-0.127958
1762243,1,-1.56911,-0.522033,-0.00122594,-2.0981,-0.00164387,1.573,0.785732,-1.56865,-0.52211,-0.00180672,-2.09688,-0.00100644,1.57477,0.786068,0.100958,0.0797197,-0.0963484,-0.129568,-0.0384302,0.20129,0.0261953,0.161866,0.119954,-0.137296,-0.199509,-0.0732695,0.31999,0.0482125,-0.176685,5.78702,-2.50787,10.3553,1.17586,1.44949,0.110056,-0.295097,-1.13686,0.081805,2.9909,1.02078,0.0375019,-0.12111
1762244,1,-1.56897,-0.521952,-0.00132896,-2.09826,-0.00170166,1.57327,0.785756,-1.56848,-0.521983,-0.00195104,-2.09709,-0.00108315,1.57511,0.786118,0.113086,0.0806717,-0.0982239,-0.137736,-0.0448979,0.224084,0.0233241,0.170004,0.127408,-0.144317,-0.211519,-0.0767097,0.33998,0.0503638,-0.279835,6.39005,-2.65863,10.1093,1.22621,1.36618,0.149424,-0.28977,-1.15261,0.0796712,2.97692,1.01606,0.0547034,-0.114283
1762245,1,-1.56882,-0.521863,-0.00144648,-2.09843,-0.00175618,1.57354,0.785771,-1.5683,-0.521848,-0.00210238,-2.09731,-0.0011633,1.57547,0.78617,0.124155,0.0834753,-0.103946,-0.147208,-0.0473157,0.235166,0.0172728,0.178142,0.134862,-0.151337,-0.223528,-0.0801498,0.35997,0.052515,-0.355213,6.89786,-2.73797,10.0339,1.21523,1.41745,0.297739,-0.288548,-1.16288,0.0698787,2.95955,1.01086,0.0707865,-0.107532
1762246,1,-1.56866,-0.521774,-0.00156808,-2.0986,-0.00181814,1.57382,0.785796,-1.56811,-0.521705,-0.00226074,-2.09755,-0.00124689,1.57585,0.786225,0.136953,0.0885331,-0.108445,-0.15954,-0.050094,0.249492,0.0160285,0.18628,0.142315,-0.158358,-0.235538,-0.0835899,0.37996,0.0546662,-0.478199,7.52866,-2.86493,9.70859,1.23171,1.57858,0.36915,-0.295475,-1.16113,0.0476784,2.93711,1.00505,0.085557,-0.100768
1762247,1,-1.5685,-0.521677,-0.00170217,-2.09878,-0.00188429,1.57413,0.785833,-1.56792,-0.521556,-0.00242611,-2.09779,-0.00133392,1.57625,0.786282,0.149384,0.0946222,-0.114602,-0.169046,-0.0557951,0.268916,0.0230909,0.194418,0.149769,-0.165378,-0.247547,-0.08703,0.39995,0.0568175,-0.605152,8.31418,-2.9403,9.33567,1.21523,1.73971,0.36915,-0.311909,-1.15057,0.0120863,2.91251,0.998736,0.0993638,-0.0937819
1762248,1,-1.56832,-0.521565,-0.00184393,-2.09898,-0.00195116,1.57445,0.78587,-1.56771,-0.521398,-0.00259851,-2.09805,-0.00142439,1.57667,0.786341,0.156973,0.0990113,-0.121407,-0.179395,-0.0583821,0.286851,0.0334569,0.202557,0.157223,-0.172399,-0.259557,-0.0904701,0.41994,0.0589687,-0.680531,9.11954,-3.03949,8.81595,1.15297,1.88803,0.36915,-0.336342,-1.13366,-0.0341813,2.88684,0.992081,0.112515,-0.0863874
1762249,1,-1.56814,-0.521436,-0.00198835,-2.09919,-0.00201499,1.57482,0.78591,-1.5675,-0.521234,-0.00277793,-2.09833,-0.0015183,1.57711,0.786402,0.166128,0.108982,-0.128771,-0.188058,-0.0633764,0.310148,0.030973,0.210695,0.164677,-0.179419,-0.271566,-0.0939102,0.43993,0.06112,-0.755909,9.77811,-3.11487,8.31607,1.04585,1.89443,0.356333,-0.364572,-1.11235,-0.0849851,2.85992,0.985322,0.125357,-0.0785142
1762250,1,-1.56795,-0.521295,-0.00214478,-2.09942,-0.00208252,1.5752,0.785953,-1.56728,-0.521062,-0.00296437,-2.09861,-0.00161565,1.57757,0.786465,0.171385,0.117712,-0.134306,-0.198196,-0.0685975,0.335914,0.0350351,0.218833,0.172131,-0.18644,-0.283575,-0.0973504,0.45992,0.0632712,-0.755909,10.3613,-3.11487,7.84397,0.966203,1.79739,0.316965,-0.392801,-1.09239,-0.135098,2.83283,0.978624,0.138289,-0.0701703
1762251,1,-1.56775,-0.521146,-0.00231365,-2.09966,-0.00215793,1.57563,0.785996,-1.56706,-0.520882,-0.00315783,-2.0989,-0.00171644,1.57805,0.786531,0.177459,0.122136,-0.148402,-0.211939,-0.0693715,0.361671,0.0374222,0.226971,0.179585,-0.19346,-0.295585,-0.10079,0.47991,0.0654224,-0.708302,10.8413,-3.09106,7.47104,0.926836,1.56576,0.297739,-0.416258,-1.07624,-0.177835,2.80622,0.972094,0.151575,-0.0614562
1762252,1,-1.56756,-0.520997,-0.00248294,-2.09991,-0.00223692,1.57606,0.786047,-1.56682,-0.520695,-0.00335831,-2.09921,-0.00182067,1.57855,0.786598,0.184257,0.129353,-0.153588,-0.223168,-0.0707699,0.386161,0.0410577,0.23511,0.187038,-0.200481,-0.307594,-0.104231,0.4999,0.0675737,-0.605152,11.3452,-3.14264,7.14969,0.909441,1.3854,0.226328,-0.430643,-1.06065,-0.206918,2.77932,0.965736,0.1652,-0.0525426
1762253,1,-1.56734,-0.520846,-0.00266034,-2.10018,-0.00232016,1.57652,0.786082,-1.56658,-0.5205,-0.00356657,-2.09953,-0.00192855,1.57907,0.786668,0.191358,0.137183,-0.160988,-0.231369,-0.0776562,0.40208,0.0373894,0.243969,0.194528,-0.208255,-0.320084,-0.107882,0.51989,0.0698478,-0.605152,11.853,-3.16644,6.85215,0.926836,1.28836,0.323374,-0.436678,-1.04311,-0.223683,2.75072,0.959341,0.178796,-0.0435906
1762254,1,-1.56712,-0.520691,-0.00283424,-2.10045,-0.00240981,1.577,0.786136,-1.56633,-0.520298,-0.0037826,-2.09986,-0.00204008,1.57961,0.78674,0.203263,0.140989,-0.163357,-0.246493,-0.0823864,0.423063,0.0394831,0.252828,0.202018,-0.216028,-0.332574,-0.111533,0.53988,0.0721219,-0.557545,12.333,-3.26959,6.65378,0.943315,1.26913,0.297739,-0.43923,-1.02124,-0.23566,2.71931,0.952614,0.191929,-0.0346935
1762255,1,-1.56688,-0.520539,-0.00302504,-2.10074,-0.00250428,1.57749,0.786184,-1.56606,-0.520089,-0.0040064,-2.10021,-0.00215527,1.58017,0.786815,0.214748,0.143303,-0.173966,-0.261231,-0.0868903,0.451535,0.0442261,0.261688,0.209508,-0.223802,-0.345064,-0.115184,0.55987,0.074396,-0.632923,12.8131,-3.29339,6.47922,0.983598,1.32131,0.330698,-0.443303,-0.98959,-0.249999,2.68458,0.945382,0.204295,-0.0258707
1762256,1,-1.56662,-0.520382,-0.00321877,-2.10104,-0.00260139,1.578,0.786232,-1.56579,-0.519872,-0.00423797,-2.10057,-0.0022741,1.58075,0.786891,0.225189,0.14766,-0.180029,-0.272581,-0.0886431,0.471026,0.0422659,0.270547,0.216998,-0.231576,-0.357554,-0.118835,0.57986,0.0766701,-0.831288,13.3169,-3.42035,6.30466,0.983598,1.42385,0.36915,-0.450367,-0.942039,-0.2684,2.64505,0.937666,0.215604,-0.0171322
1762257,1,-1.56636,-0.520222,-0.0034259,-2.10135,-0.00270529,1.57854,0.786291,-1.56551,-0.519647,-0.00447732,-2.10094,-0.00239659,1.58135,0.78697,0.240035,0.154765,-0.188844,-0.283038,-0.0951076,0.494394,0.0483872,0.279406,0.224488,-0.23935,-0.370044,-0.122486,0.59985,0.0789442,-0.882862,13.7732,-3.49572,6.1063,0.994585,1.5209,0.343516,-0.461033,-0.877177,-0.291219,2.59924,0.929528,0.225729,-0.00845516
1762258,1,-1.56608,-0.520043,-0.00364223,-2.10167,-0.00280789,1.5791,0.786349,-1.56523,-0.519415,-0.00472445,-2.10132,-0.00252272,1.58196,0.787051,0.251356,0.158393,-0.195343,-0.295563,-0.0988976,0.51511,0.0525053,0.288265,0.231978,-0.247124,-0.382534,-0.126138,0.61984,0.0812183,-1.00982,14.1024,-3.5473,6.00711,0.97719,1.58499,0.330698,-0.476881,-0.796859,-0.320149,2.54702,0.921007,0.234831,0.000209483
1762259,1,-1.5658,-0.519858,-0.00386152,-2.102,-0.00291121,1.57969,0.786404,-1.56493,-0.519176,-0.00497935,-2.10171,-0.00265251,1.5826,0.787135,0.257881,0.168397,-0.202242,-0.30751,-0.096971,0.532518,0.0531249,0.297125,0.239468,-0.254897,-0.395024,-0.129789,0.63983,0.0834924,-1.03362,14.3048,-3.62268,5.85636,0.96071,1.60421,0.381968,-0.497326,-0.705156,-0.354455,2.49031,0.912239,0.243414,0.00885731
1762260,1,-1.56552,-0.519661,-0.0040983,-2.10235,-0.00301478,1.58029,0.786471,-1.56462,-0.518929,-0.00524202,-2.10212,-0.00278595,1.58326,0.787221,0.268067,0.177243,-0.212159,-0.320397,-0.103402,0.556817,0.061569,0.305984,0.246958,-0.262671,-0.407514,-0.13344,0.65982,0.0857665,-1.00982,14.4278,-3.62268,5.73337,0.915849,1.57217,0.362742,-0.519246,-0.611454,-0.390113,2.43356,0.903472,0.252155,0.0174638
1762261,1,-1.56522,-0.519452,-0.00433748,-2.10272,-0.00312319,1.58094,0.786538,-1.56431,-0.518675,-0.00551246,-2.10254,-0.00292304,1.58394,0.787309,0.278113,0.188782,-0.219424,-0.334886,-0.109096,0.577873,0.0674913,0.314843,0.254448,-0.270445,-0.420004,-0.137091,0.67981,0.0880406,-1.03362,14.4555,-3.64648,5.7056,0.875566,1.44949,0.356333,-0.540216,-0.526722,-0.423646,2.38204,0.894934,0.261596,0.0260378
1762262,1,-1.56493,-0.519248,-0.00457755,-2.10309,-0.00323572,1.58161,0.786607,-1.56398,-0.518413,-0.00579068,-2.10297,-0.00306379,1.58464,0.787399,0.282141,0.194363,-0.228897,-0.349437,-0.108568,0.609185,0.0647794,0.323703,0.261938,-0.278219,-0.432494,-0.140742,0.6998,0.0903147,-0.958241,14.5825,-3.64648,5.7056,0.830705,1.28836,0.394785,-0.558376,-0.45608,-0.452658,2.33863,0.886752,0.2719,0.0345716
1762263,1,-1.56461,-0.519033,-0.0048397,-2.10348,-0.00335418,1.5823,0.786684,-1.56365,-0.518143,-0.0060772,-2.10342,-0.00320825,1.58536,0.787492,0.295098,0.199386,-0.239545,-0.35893,-0.109832,0.641927,0.0658216,0.332975,0.269428,-0.286517,-0.444984,-0.14446,0.71979,0.0926466,-1.03362,14.6579,-3.5711,5.6818,0.825212,1.11441,0.356333,-0.571479,-0.392475,-0.474196,2.2993,0.878879,0.282367,0.0430243
1762264,1,-1.56428,-0.518815,-0.00509853,-2.10387,-0.0034675,1.583,0.786757,-1.56331,-0.517866,-0.00637201,-2.10388,-0.00335642,1.5861,0.787587,0.304276,0.205721,-0.241034,-0.381899,-0.107558,0.654659,0.068594,0.342247,0.276918,-0.294815,-0.457474,-0.148177,0.73978,0.0949786,-1.08519,14.757,-3.62268,5.63419,0.740068,1.09518,0.401194,-0.5819,-0.328266,-0.491621,2.26112,0.871044,0.292401,0.0513915
1762265,1,-1.56395,-0.51859,-0.00536395,-2.10428,-0.00359289,1.5837,0.786841,-1.56296,-0.517582,-0.00667512,-2.10435,-0.00350832,1.58686,0.787684,0.318722,0.212439,-0.248355,-0.386897,-0.11339,0.687893,0.0726238,0.351519,0.284408,-0.303113,-0.469964,-0.151895,0.75977,0.0973105,-1.18834,14.884,-3.69806,5.48343,0.723589,1.25631,0.401194,-0.595858,-0.262574,-0.513912,2.22529,0.862876,0.301856,0.0597037
1762266,1,-1.5636,-0.518351,-0.00564594,-2.1047,-0.00372721,1.58442,0.786927,-1.5626,-0.51729,-0.00698653,-2.10483,-0.00366393,1.58764,0.787784,0.323458,0.219089,-0.258256,-0.394556,-0.119167,0.694452,0.0769669,0.36079,0.291898,-0.311411,-0.482454,-0.155612,0.77976,0.0996425,-1.21215,14.9356,-3.69806,5.36045,0.745561,1.41745,0.362742,-0.61432,-0.190338,-0.542308,2.18652,0.854115,0.310031,0.0679768
1762267,1,-1.56324,-0.518115,-0.0059238,-2.10512,-0.00386894,1.58519,0.787007,-1.56223,-0.516991,-0.00730624,-2.10532,-0.00382326,1.58844,0.787886,0.338455,0.225328,-0.261489,-0.403669,-0.123949,0.717882,0.0767582,0.370062,0.299388,-0.319709,-0.494944,-0.159329,0.79975,0.101974,-1.41448,15.0625,-3.74963,5.23349,0.791338,1.43026,0.407602,-0.635384,-0.105912,-0.573958,2.13884,0.844662,0.316581,0.0762041
1762268,1,-1.56287,-0.517861,-0.00621623,-2.10556,-0.00400397,1.58596,0.787094,-1.56185,-0.516684,-0.00763425,-2.10583,-0.00398631,1.58926,0.78799,0.348125,0.235288,-0.269908,-0.415435,-0.125881,0.737352,0.0813703,0.379334,0.306878,-0.328007,-0.507434,-0.163047,0.81974,0.104306,-1.43828,15.0625,-3.77343,5.18589,0.791338,1.43667,0.459788,-0.660864,-0.011628,-0.611219,2.083,0.834497,0.321969,0.0843799
1762269,1,-1.5625,-0.517596,-0.00651368,-2.10601,-0.00413911,1.58675,0.78718,-1.56146,-0.516369,-0.00797055,-2.10635,-0.00415307,1.5901,0.788097,0.349141,0.240481,-0.281863,-0.426209,-0.126484,0.752355,0.0857478,0.388606,0.314368,-0.336305,-0.519924,-0.166764,0.83973,0.106638,-1.46209,14.9872,-3.87658,5.0867,0.76845,1.50808,0.504648,-0.687543,0.0870388,-0.64932,2.0223,0.823939,0.326823,0.0925045
1762270,1,-1.56212,-0.517316,-0.00682812,-2.10647,-0.00428088,1.58757,0.787273,-1.56106,-0.516048,-0.00831516,-2.10688,-0.00432355,1.59096,0.788206,0.354975,0.256023,-0.293326,-0.437317,-0.132556,0.772957,0.0889329,0.397878,0.321858,-0.344603,-0.532414,-0.170482,0.85972,0.10897,-1.41448,14.8324,-3.84881,4.98752,0.76845,1.50167,0.550425,-0.706177,0.18262,-0.675321,1.96081,0.813584,0.331786,0.100611
1762271,1,-1.56173,-0.517029,-0.00715765,-2.10694,-0.00442021,1.58842,0.787373,-1.56065,-0.515718,-0.00866806,-2.10743,-0.00449775,1.59184,0.788317,0.361941,0.266531,-0.303871,-0.442827,-0.132237,0.7918,0.0891894,0.40715,0.329348,-0.352901,-0.544904,-0.174199,0.87971,0.111302,-1.3629,14.7332,-3.82501,4.81296,0.762956,1.41104,0.518381,-0.712231,0.264797,-0.682784,1.90215,0.803768,0.337222,0.108796
1762272,1,-1.56135,-0.516731,-0.00748788,-2.10741,-0.00456338,1.58931,0.787471,-1.56024,-0.515381,-0.00902926,-2.10799,-0.00467567,1.59274,0.78843,0.37503,0.277202,-0.307114,-0.452031,-0.135689,0.817972,0.0874188,0.416422,0.336838,-0.361199,-0.557394,-0.177917,0.8997,0.113634,-1.18834,14.6063,-3.77343,4.6622,0.740068,1.173,0.531199,-0.709917,0.330873,-0.67761,1.84543,0.794319,0.342918,0.117169
1762273,1,-1.56094,-0.516423,-0.00782592,-2.10791,-0.00470475,1.5902,0.787577,-1.55981,-0.515037,-0.00939909,-2.10856,-0.00485728,1.59366,0.788546,0.381324,0.283594,-0.317387,-0.46289,-0.136353,0.841614,0.0928846,0.42587,0.344328,-0.369829,-0.569884,-0.181613,0.91969,0.115978,-1.13677,14.5309,-3.72583,4.53922,0.654924,1.10159,0.504648,-0.706015,0.386207,-0.669733,1.78783,0.784921,0.348365,0.125773
1762274,1,-1.56052,-0.51611,-0.00818715,-2.10841,-0.00484981,1.59109,0.787683,-1.55938,-0.514685,-0.00977755,-2.10914,-0.00504259,1.5946,0.788665,0.395022,0.29525,-0.333173,-0.476611,-0.136644,0.852921,0.0963873,0.435318,0.351818,-0.37846,-0.582374,-0.185308,0.93968,0.118322,-1.21215,14.4278,-3.59887,4.38846,0.558794,1.19223,0.491831,-0.70078,0.433171,-0.659336,1.7303,0.775543,0.353436,0.134561
1762275,1,-1.56009,-0.515795,-0.00854451,-2.10892,-0.00501236,1.59204,0.787792,-1.55893,-0.514326,-0.0101646,-2.10973,-0.00523159,1.59556,0.788785,0.405627,0.302116,-0.338462,-0.488779,-0.140248,0.880029,0.0981039,0.444766,0.359308,-0.38709,-0.594864,-0.189004,0.95967,0.120666,-1.31133,14.404,-3.51953,4.1901,0.547807,1.15377,0.491831,-0.69344,0.470216,-0.644654,1.67603,0.766145,0.358338,0.143456
1762276,1,-1.55965,-0.515477,-0.00891865,-2.10945,-0.00517302,1.59298,0.787908,-1.55848,-0.513959,-0.0105604,-2.11034,-0.00542429,1.59654,0.788908,0.41303,0.307515,-0.346283,-0.497924,-0.148298,0.895603,0.106071,0.454214,0.366798,-0.39572,-0.607354,-0.1927,0.97966,0.123009,-1.28753,14.4555,-3.47192,4.16629,0.553301,1.16659,0.459788,-0.68691,0.502647,-0.630104,1.62328,0.756451,0.362877,0.152388
1762277,1,-1.55921,-0.51515,-0.00928559,-2.11,-0.0053394,1.59396,0.788022,-1.55801,-0.513585,-0.0109647,-2.11096,-0.00562069,1.59754,0.789034,0.416694,0.312157,-0.348579,-0.514086,-0.150265,0.923508,0.104431,0.463662,0.374288,-0.404351,-0.619844,-0.196395,0.99965,0.125353,-1.16057,14.5309,-3.49572,4.21787,0.592668,1.19863,0.491831,-0.682798,0.540329,-0.619222,1.56783,0.74629,0.366712,0.16128
1762278,1,-1.55876,-0.514811,-0.00967219,-2.11056,-0.00550658,1.59494,0.788141,-1.55754,-0.513203,-0.0113777,-2.11159,-0.00582078,1.59856,0.789161,0.426744,0.320197,-0.361746,-0.524791,-0.15932,0.942353,0.104378,0.47311,0.381778,-0.412981,-0.632334,-0.200091,1.01964,0.127697,-1.18834,14.5309,-3.47192,4.21787,0.60457,1.21786,0.491831,-0.680171,0.586314,-0.611475,1.50938,0.735766,0.369887,0.17006
1762279,1,-1.55829,-0.514452,-0.0100741,-2.11115,-0.00568063,1.59596,0.788257,-1.55706,-0.512814,-0.0117993,-2.11224,-0.00602457,1.5996,0.789292,0.440329,0.332231,-0.371619,-0.538532,-0.164096,0.95256,0.109713,0.482558,0.389268,-0.421612,-0.644824,-0.203787,1.03963,0.130041,-1.26372,14.404,-3.36877,4.36466,0.666826,1.23709,0.491831,-0.677595,0.634099,-0.604013,1.45158,0.725089,0.372861,0.178707
1762280,1,-1.55782,-0.514086,-0.0104798,-2.11173,-0.00585779,1.59699,0.788375,-1.55657,-0.512417,-0.0122295,-2.1129,-0.00623205,1.60066,0.789424,0.440406,0.347421,-0.385,-0.558476,-0.169831,0.977137,0.112006,0.492006,0.396758,-0.430242,-0.657314,-0.207483,1.05962,0.132385,-1.21215,14.1263,-3.3172,4.51542,0.666826,1.29476,0.531199,-0.672092,0.666594,-0.591651,1.40387,0.714664,0.376648,0.187219
1762281,1,-1.55734,-0.513702,-0.0108918,-2.11233,-0.00603889,1.59803,0.788499,-1.55606,-0.512013,-0.0126684,-2.11357,-0.00644323,1.60174,0.789559,0.451655,0.361169,-0.390359,-0.569881,-0.174587,1.01211,0.11501,0.501454,0.404248,-0.438872,-0.669804,-0.211178,1.07961,0.134729,-1.16057,13.8247,-3.24182,4.56302,0.672319,1.3085,0.52479,-0.660684,0.667181,-0.570331,1.37496,0.704956,0.3819,0.195599
1762282,1,-1.55686,-0.513318,-0.0112986,-2.11294,-0.00622194,1.59911,0.788627,-1.55555,-0.511601,-0.0131159,-2.11425,-0.0066581,1.60284,0.789696,0.456372,0.368722,-0.399136,-0.585501,-0.1751,1.02958,0.118894,0.510902,0.411738,-0.447503,-0.682294,-0.214874,1.0996,0.137072,-1.06139,13.6462,-3.29339,4.73758,0.599077,1.34054,0.491831,-0.645346,0.635727,-0.543277,1.36378,0.695985,0.388358,0.203876
1762283,1,-1.55636,-0.512924,-0.0117237,-2.11359,-0.00640724,1.60022,0.788758,-1.55503,-0.511182,-0.0135722,-2.11494,-0.0068766,1.60396,0.789835,0.466574,0.375586,-0.404768,-0.606133,-0.175546,1.06311,0.116095,0.52034,0.419228,-0.45631,-0.694784,-0.218495,1.11959,0.139399,-0.986012,13.5431,-3.34497,4.91214,0.513933,1.27554,0.466196,-0.629616,0.58333,-0.515931,1.36596,0.687533,0.395802,0.212055
1762284,1,-1.55585,-0.512529,-0.0121653,-2.11425,-0.00659368,1.60133,0.788895,-1.5545,-0.510755,-0.0140373,-2.11565,-0.00709871,1.6051,0.789977,0.481231,0.377523,-0.412471,-0.623465,-0.177124,1.08259,0.121065,0.529778,0.426718,-0.465117,-0.707274,-0.222115,1.13958,0.141726,-1.109,13.5708,-3.21801,5.0629,0.45717,1.2499,0.394785,-0.617818,0.523301,-0.494513,1.37804,0.679269,0.404166,0.220096
1762285,1,-1.55534,-0.512143,-0.012603,-2.11492,-0.00678336,1.60247,0.789024,-1.55396,-0.510321,-0.0145113,-2.11637,-0.00732445,1.60626,0.790121,0.489148,0.382745,-0.411868,-0.642852,-0.182772,1.10343,0.125901,0.539215,0.434208,-0.473924,-0.719764,-0.225736,1.15957,0.144053,-1.21215,13.7216,-3.19421,5.18589,0.406816,1.2499,0.42042,-0.615848,0.468579,-0.487515,1.39605,0.670695,0.41325,0.227927
1762286,1,-1.5548,-0.511731,-0.0130499,-2.11561,-0.00698005,1.6036,0.789154,-1.55342,-0.509879,-0.014994,-2.1171,-0.0075538,1.60744,0.790267,0.503323,0.391556,-0.421311,-0.652575,-0.18584,1.12193,0.127663,0.548653,0.441698,-0.482731,-0.732254,-0.229356,1.17956,0.14638,-1.28753,13.7732,-3.26959,5.26126,0.440691,1.33413,0.511057,-0.62689,0.424701,-0.49959,1.41686,0.661418,0.422767,0.235463
1762287,1,-1.55426,-0.511317,-0.0135207,-2.11632,-0.0071887,1.60477,0.789288,-1.55286,-0.50943,-0.0154855,-2.11785,-0.00778678,1.60864,0.790416,0.509994,0.399855,-0.437191,-0.664503,-0.198445,1.1291,0.126644,0.558091,0.449188,-0.491537,-0.744744,-0.232976,1.19955,0.148707,-1.31133,13.797,-3.29339,5.20969,0.502947,1.3854,0.531199,-0.64624,0.391096,-0.523053,1.43739,0.651425,0.43237,0.242679
1762288,1,-1.55372,-0.510886,-0.0139992,-2.11703,-0.00740793,1.60596,0.789416,-1.55229,-0.508973,-0.0159859,-2.1186,-0.00802338,1.60986,0.790567,0.519227,0.408677,-0.45073,-0.679749,-0.207001,1.1461,0.123032,0.567528,0.456678,-0.500344,-0.757234,-0.236597,1.21954,0.151034,-1.3629,13.6978,-3.24182,5.18589,0.547807,1.35977,0.621836,-0.663418,0.36469,-0.541838,1.4569,0.641163,0.442123,0.249644
1762289,1,-1.55316,-0.510446,-0.0144924,-2.11775,-0.0076232,1.60714,0.789557,-1.55171,-0.508509,-0.016495,-2.11937,-0.00826359,1.6111,0.79072,0.529841,0.415137,-0.466997,-0.687802,-0.210567,1.15768,0.130081,0.576966,0.464168,-0.509151,-0.769724,-0.240217,1.23953,0.153361,-1.38671,13.5708,-3.11487,5.0867,0.519426,1.41104,0.601694,-0.671441,0.34427,-0.545309,1.47486,0.631049,0.4521,0.256481
1762290,1,-1.5526,-0.510007,-0.0149798,-2.11848,-0.00784306,1.60836,0.789697,-1.55113,-0.508037,-0.017013,-2.12016,-0.00850743,1.61235,0.790876,0.540451,0.423864,-0.463707,-0.70044,-0.212863,1.17222,0.133676,0.586404,0.471658,-0.517958,-0.782214,-0.243838,1.25952,0.155688,-1.26372,13.5431,-3.11487,4.91214,0.491045,1.39181,0.621836,-0.673269,0.332461,-0.5377,1.48806,0.620996,0.462021,0.263343
1762291,1,-1.55205,-0.509555,-0.0154837,-2.11923,-0.00806064,1.60962,0.789837,-1.55053,-0.507558,-0.0175398,-2.12095,-0.00875489,1.61363,0.791034,0.547111,0.431216,-0.47595,-0.711514,-0.218447,1.21623,0.13093,0.595842,0.479148,-0.526765,-0.794704,-0.247458,1.27951,0.158015,-1.03362,13.4955,-3.01568,4.78916,0.45717,1.19223,0.647471,-0.676351,0.330119,-0.530745,1.49424,0.610748,0.471444,0.270358
1762292,1,-1.55147,-0.509109,-0.0159907,-2.11998,-0.00828409,1.61089,0.789985,-1.54993,-0.507072,-0.0180753,-2.12176,-0.00900597,1.61493,0.791194,0.555285,0.435658,-0.485503,-0.723575,-0.218162,1.23934,0.137615,0.605279,0.486638,-0.535572,-0.807194,-0.251079,1.2995,0.160342,-0.910633,13.4955,-3.03949,4.6622,0.394914,1.01828,0.582468,-0.680524,0.339603,-0.525144,1.49057,0.600337,0.47964,0.277553
1762293,1,-1.55089,-0.508649,-0.0165075,-2.12074,-0.00851767,1.61218,0.790139,-1.54931,-0.506578,-0.0186198,-2.12258,-0.00926056,1.61625,0.791357,0.56876,0.446414,-0.500955,-0.735853,-0.21824,1.25563,0.14115,0.61456,0.493815,-0.544429,-0.819684,-0.254592,1.31949,0.162635,-0.732105,13.5431,-3.03949,4.53922,0.339067,0.927638,0.537607,-0.681899,0.361317,-0.515326,1.4765,0.589829,0.486263,0.28489
1762294,1,-1.55029,-0.508191,-0.0170537,-2.12153,-0.00876237,1.61348,0.790302,-1.54869,-0.506077,-0.019173,-2.12341,-0.00951866,1.61759,0.791522,0.575004,0.447494,-0.514624,-0.745291,-0.227019,1.27708,0.14593,0.62384,0.500991,-0.553286,-0.832174,-0.258104,1.33948,0.164928,-0.755909,13.7216,-2.96411,4.51542,0.383928,0.767421,0.440561,-0.677329,0.394324,-0.496654,1.45294,0.579209,0.491233,0.292267
1762295,1,-1.54967,-0.507725,-0.0175929,-2.12231,-0.00901909,1.61483,0.790473,-1.54805,-0.505569,-0.0197352,-2.12425,-0.00978028,1.61895,0.791689,0.584566,0.452084,-0.51613,-0.761013,-0.231071,1.29155,0.154859,0.633121,0.508168,-0.562144,-0.844664,-0.261617,1.35947,0.167221,-0.807484,13.797,-2.88873,4.51542,0.50844,0.509242,0.337107,-0.666629,0.444165,-0.469943,1.41848,0.568391,0.494251,0.299513
1762296,1,-1.54907,-0.507242,-0.0181334,-2.12311,-0.00926863,1.61614,0.790636,-1.54741,-0.505053,-0.0203062,-2.12511,-0.0100454,1.62033,0.791859,0.590235,0.461128,-0.522842,-0.774416,-0.236118,1.30628,0.153941,0.642401,0.515344,-0.571001,-0.857154,-0.26513,1.37946,0.169514,-0.708302,13.7454,-3.06726,4.46384,0.558794,0.683192,0.291331,-0.655057,0.509129,-0.444308,1.37654,0.557307,0.495404,0.30643
1762297,1,-1.54843,-0.506747,-0.0186969,-2.12392,-0.00952179,1.61748,0.790801,-1.54676,-0.504531,-0.020886,-2.12598,-0.0103141,1.62173,0.792031,0.609102,0.473684,-0.53275,-0.781113,-0.240746,1.31062,0.152532,0.651681,0.522521,-0.579858,-0.869644,-0.268642,1.39945,0.171807,-0.78368,13.6978,-3.06726,4.26548,0.638445,0.914821,0.265696,-0.647363,0.576656,-0.426541,1.33359,0.546061,0.495024,0.312807
1762298,1,-1.5478,-0.506248,-0.0192591,-2.12473,-0.0097828,1.61888,0.790973,-1.5461,-0.504001,-0.0214748,-2.12686,-0.0105862,1.62315,0.792205,0.616261,0.485467,-0.535174,-0.794835,-0.245762,1.33393,0.155449,0.660962,0.529697,-0.588715,-0.882134,-0.272155,1.41944,0.1741,-0.882862,13.5431,-3.01568,4.28928,0.643938,0.889186,0.265696,-0.647304,0.634328,-0.421171,1.29377,0.534794,0.493485,0.318481
1762299,1,-1.54716,-0.505751,-0.0198226,-2.12559,-0.0100329,1.62028,0.791144,-1.54543,-0.503464,-0.0220723,-2.12776,-0.0108619,1.62459,0.792381,0.618122,0.490177,-0.543161,-0.809558,-0.244786,1.35697,0.16719,0.670242,0.536873,-0.597572,-0.894624,-0.275668,1.43943,0.176393,-0.831288,13.5193,-3.19421,4.46384,0.502947,0.773829,0.272104,-0.654612,0.677767,-0.428392,1.25909,0.523805,0.491234,0.323329
1762300,1,-1.54651,-0.50525,-0.0203993,-2.12645,-0.0102878,1.62172,0.791322,-1.54475,-0.50292,-0.0226788,-2.12866,-0.0111411,1.62605,0.79256,0.626844,0.494579,-0.551355,-0.829991,-0.245362,1.36827,0.171751,0.679523,0.54405,-0.606429,-0.907114,-0.279181,1.45942,0.178686,-0.807484,13.4955,-3.26959,4.68998,0.389421,0.625514,0.284922,-0.664043,0.712304,-0.441617,1.23004,0.51343,0.488745,0.327272
1762301,1,-1.54585,-0.504733,-0.0210027,-2.12732,-0.0105497,1.62316,0.791521,-1.54406,-0.502369,-0.023294,-2.12958,-0.0114238,1.62753,0.792741,0.638182,0.501223,-0.572828,-0.846407,-0.243648,1.41297,0.18062,0.688803,0.551226,-0.615287,-0.919604,-0.282693,1.47941,0.180979,-0.859058,13.4439,-3.14264,4.86057,0.332659,0.64474,0.149424,-0.669814,0.742908,-0.451728,1.20748,0.503781,0.486234,0.330305
1762302,1,-1.54519,-0.50421,-0.0215951,-2.12823,-0.010813,1.62459,0.791715,-1.54336,-0.501811,-0.0239182,-2.13052,-0.01171,1.62903,0.792924,0.645953,0.507893,-0.574998,-0.864326,-0.253399,1.42242,0.183647,0.698083,0.558403,-0.624144,-0.932094,-0.286206,1.4994,0.183272,-0.680531,13.4201,-3.29339,5.20969,0.316179,0.793055,0.110056,-0.66887,0.770053,-0.453107,1.19217,0.494758,0.48351,0.332448
1762303,1,-1.54452,-0.503682,-0.0222002,-2.12912,-0.0110962,1.62607,0.7919,-1.54266,-0.501246,-0.0245511,-2.13146,-0.0119995,1.63055,0.793109,0.654529,0.518493,-0.573331,-0.874479,-0.262702,1.43316,0.187344,0.707093,0.564844,-0.632947,-0.944158,-0.289591,1.51835,0.185521,-0.529774,13.3169,-3.24182,5.23349,0.372942,0.921229,0.162241,-0.667253,0.791668,-0.454989,1.18508,0.48592,0.48069,0.333726
1762304,1,-1.54381,-0.50313,-0.0228263,-2.13004,-0.0113769,1.62753,0.792075,-1.54194,-0.500674,-0.0251929,-2.13242,-0.0122925,1.63208,0.793297,0.665465,0.528048,-0.588756,-0.889528,-0.265024,1.44839,0.180859,0.716102,0.571285,-0.64175,-0.956222,-0.292977,1.53731,0.187769,-0.708302,13.1146,-3.06726,5.33664,0.428789,1.06954,0.343516,-0.671075,0.80419,-0.466953,1.18678,0.476873,0.478171,0.334188
1762305,1,-1.5431,-0.502585,-0.0234404,-2.13097,-0.0116476,1.62904,0.792241,-1.54121,-0.500097,-0.0258434,-2.13339,-0.0125889,1.63364,0.793487,0.673569,0.533872,-0.603487,-0.897945,-0.262688,1.44914,0.17442,0.725111,0.577726,-0.650553,-0.968286,-0.296362,1.55626,0.190017,-0.78368,12.9638,-3.09106,5.40805,0.372942,1.10159,0.582468,-0.675536,0.808876,-0.481339,1.19493,0.467676,0.476266,0.333965
1762306,1,-1.5424,-0.50202,-0.0240612,-2.1319,-0.0119214,1.63056,0.792418,-1.54048,-0.499513,-0.0265028,-2.13437,-0.0128886,1.63522,0.79368,0.684019,0.543105,-0.60551,-0.903015,-0.266185,1.46814,0.173641,0.73412,0.584168,-0.659356,-0.98035,-0.299748,1.57521,0.192265,-0.78368,12.7377,-3.09106,5.28507,0.339067,1.30117,0.718882,-0.677048,0.814122,-0.492137,1.20248,0.458316,0.474832,0.333436
1762307,1,-1.54168,-0.501438,-0.0247044,-2.13285,-0.0122006,1.63209,0.792601,-1.53974,-0.498922,-0.027171,-2.13536,-0.0131918,1.63681,0.793874,0.688262,0.550498,-0.617355,-0.915319,-0.274594,1.49218,0.176628,0.74313,0.590609,-0.668159,-0.992414,-0.303133,1.59417,0.194513,-0.656727,12.3053,-3.06726,5.20969,0.321672,1.35336,0.770151,-0.677502,0.825904,-0.502157,1.20314,0.448655,0.473414,0.333185
1762308,1,-1.54097,-0.500872,-0.0253448,-2.13379,-0.0124956,1.63366,0.792806,-1.53898,-0.498325,-0.0278479,-2.13636,-0.0134983,1.63842,0.794071,0.709424,0.552848,-0.61456,-0.926065,-0.275976,1.50429,0.185208,0.752139,0.59705,-0.676962,-1.00448,-0.306519,1.61312,0.196761,-0.478199,12.0276,-3.09106,5.0629,0.321672,1.34054,0.641062,-0.681844,0.847912,-0.518416,1.19493,0.438524,0.472015,0.333764
1762309,1,-1.54025,-0.500295,-0.0260077,-2.13475,-0.0127902,1.63523,0.793001,-1.53822,-0.497721,-0.0285337,-2.13738,-0.0138082,1.64005,0.79427,0.715172,0.559928,-0.630691,-0.938507,-0.284687,1.52211,0.18956,0.761148,0.603492,-0.685766,-1.01654,-0.309904,1.63207,0.199009,-0.303639,11.7737,-3.03949,4.93595,0.304277,1.2499,0.550425,-0.695478,0.884052,-0.548155,1.17744,0.427714,0.47096,0.335473
1762310,1,-1.53949,-0.499707,-0.0266887,-2.13574,-0.0130708,1.63683,0.793185,-1.53745,-0.497111,-0.0292283,-2.13841,-0.0141215,1.64171,0.794471,0.728235,0.567169,-0.646481,-0.950761,-0.279985,1.5429,0.189521,0.770157,0.609933,-0.694569,-1.02861,-0.313289,1.65103,0.201257,-0.454395,11.5713,-2.96411,4.98752,0.186174,1.27554,0.544016,-0.712351,0.931054,-0.582409,1.15267,0.416481,0.47055,0.33822
1762311,1,-1.53874,-0.499121,-0.0273653,-2.13673,-0.0133719,1.63847,0.79338,-1.53667,-0.496495,-0.0299316,-2.13945,-0.0144382,1.64338,0.794675,0.738718,0.576797,-0.658055,-0.964453,-0.290912,1.57166,0.195993,0.779167,0.616374,-0.703372,-1.04067,-0.316675,1.66998,0.203506,-0.632923,11.3214,-2.78558,5.0867,0.202654,1.19863,0.485422,-0.724006,0.979984,-0.608751,1.12455,0.405187,0.470909,0.34171
1762312,1,-1.53797,-0.498508,-0.0280413,-2.13774,-0.0136744,1.64011,0.793568,-1.53589,-0.495872,-0.0306438,-2.1405,-0.0147582,1.64506,0.79488,0.750776,0.584176,-0.659117,-0.976435,-0.293165,1.59417,0.192981,0.788176,0.622815,-0.712175,-1.05273,-0.32006,1.68893,0.205754,-0.656727,10.9921,-2.86493,5.20969,0.186174,1.07595,0.511057,-0.732733,1.02344,-0.630369,1.09645,0.393782,0.471944,0.3457
1762313,1,-1.53719,-0.497897,-0.0287207,-2.13875,-0.0139884,1.64177,0.793764,-1.53509,-0.495244,-0.0313646,-2.14156,-0.0150815,1.64677,0.795088,0.758813,0.595022,-0.652433,-1.00848,-0.298666,1.59469,0.193293,0.796829,0.628049,-0.720835,-1.06374,-0.323307,1.70548,0.207948,-0.680531,10.7144,-2.88873,5.43583,0.287798,1.22427,0.466196,-0.749062,1.05022,-0.662977,1.07809,0.38207,0.474436,0.350058
1762314,1,-1.53641,-0.497281,-0.0294238,-2.1398,-0.0143071,1.64342,0.793973,-1.53428,-0.494611,-0.0320941,-2.14264,-0.0154081,1.64849,0.795298,0.764498,0.601489,-0.665948,-1.01968,-0.30256,1.64348,0.194588,0.805482,0.633282,-0.729496,-1.07475,-0.326554,1.72203,0.210143,-0.708302,10.5121,-2.81335,5.6818,0.378435,1.40463,0.394785,-0.778038,1.04926,-0.714594,1.08038,0.370174,0.479328,0.354658
1762315,1,-1.53562,-0.496641,-0.0301247,-2.14088,-0.0146146,1.64512,0.794165,-1.53347,-0.493972,-0.0328323,-2.14373,-0.0157379,1.65023,0.795511,0.765723,0.610798,-0.673713,-1.03201,-0.305529,1.65456,0.19061,0.814135,0.638515,-0.738157,-1.08575,-0.329801,1.73857,0.212337,-0.680531,10.2581,-2.9403,6.00711,0.350054,1.50808,0.453379,-0.810443,1.02522,-0.772493,1.09894,0.358547,0.485903,0.359256
1762316,1,-1.53482,-0.496017,-0.0308411,-2.14195,-0.014933,1.64686,0.794363,-1.53265,-0.493329,-0.0335791,-2.14482,-0.0160709,1.65199,0.795725,0.760638,0.611199,-0.684328,-1.04923,-0.311272,1.67482,0.192756,0.822788,0.643749,-0.746817,-1.09676,-0.333047,1.75512,0.214531,-0.755909,10.032,-2.81335,6.38004,0.298784,1.40463,0.504648,-0.833209,0.991608,-0.818968,1.12412,0.347676,0.493431,0.363603
1762317,1,-1.534,-0.495371,-0.0315897,-2.14305,-0.0152533,1.64858,0.794562,-1.53182,-0.49268,-0.0343346,-2.14593,-0.0164072,1.65376,0.795942,0.773545,0.621307,-0.708987,-1.06004,-0.313032,1.68654,0.194948,0.831441,0.648982,-0.755478,-1.10777,-0.336294,1.77167,0.216726,-0.958241,9.57578,-2.61102,6.75296,0.282305,1.27554,0.531199,-0.836019,0.958039,-0.839196,1.15153,0.337899,0.501926,0.367593
1762318,1,-1.5332,-0.494754,-0.0323086,-2.14416,-0.015571,1.65034,0.794764,-1.53098,-0.492025,-0.0350987,-2.14705,-0.0167468,1.65555,0.796161,0.778857,0.629335,-0.717562,-1.06409,-0.312316,1.70067,0.195617,0.840093,0.654215,-0.764138,-1.11877,-0.339541,1.78821,0.21892,-0.732105,9.37344,-2.6864,7.02671,0.220049,1.14736,0.615427,-0.815947,0.927595,-0.826607,1.17709,0.329105,0.51093,0.371264
1762319,1,-1.53239,-0.494138,-0.0330585,-2.14526,-0.0159048,1.65212,0.794982,-1.53013,-0.491366,-0.0358715,-2.14818,-0.0170895,1.65735,0.796382,0.785417,0.623412,-0.724453,-1.07584,-0.318936,1.70825,0.200606,0.848746,0.659449,-0.772799,-1.12978,-0.342787,1.80476,0.221114,-0.605152,9.34964,-2.63482,7.27268,0.208147,1.05032,0.57606,-0.779813,0.911094,-0.789773,1.19301,0.320731,0.51938,0.374763
1762320,1,-1.53153,-0.493512,-0.0338247,-2.14637,-0.0162421,1.65393,0.795212,-1.52927,-0.490701,-0.036653,-2.14932,-0.0174356,1.65917,0.796605,0.801441,0.620848,-0.729838,-1.0813,-0.322169,1.7408,0.206838,0.857399,0.664682,-0.781459,-1.14078,-0.346034,1.82131,0.223309,-0.882862,9.32187,-2.4563,7.32425,0.282305,0.625514,0.472605,-0.739378,0.932266,-0.745818,1.18833,0.312066,0.525808,0.378259
1762321,1,-1.53068,-0.49288,-0.0345804,-2.14748,-0.0165735,1.65575,0.795443,-1.5284,-0.490031,-0.0374431,-2.15047,-0.0177849,1.66101,0.796831,0.832213,0.627556,-0.72949,-1.08747,-0.320283,1.7418,0.210505,0.866052,0.669915,-0.79012,-1.15179,-0.349281,1.83785,0.225503,-1.03362,9.14731,-2.43249,7.37186,0.26491,0.64474,0.375559,-0.713099,1.00122,-0.719516,1.1579,0.302293,0.528966,0.381856
1762322,1,-1.52981,-0.492229,-0.0353411,-2.1486,-0.0168944,1.65754,0.795666,-1.52753,-0.489356,-0.0382419,-2.15163,-0.0181374,1.66286,0.797059,0.842052,0.634798,-0.731132,-1.09376,-0.323606,1.7668,0.215312,0.874705,0.675149,-0.798781,-1.1628,-0.352528,1.8544,0.227698,-1.21215,8.81802,-2.58325,7.1973,0.225542,0.721644,0.375559,-0.718257,1.10456,-0.733209,1.107,0.290874,0.528494,0.385515
1762323,1,-1.52893,-0.491558,-0.036132,-2.14973,-0.0172462,1.65939,0.795902,-1.52665,-0.488677,-0.0390491,-2.15281,-0.018493,1.66473,0.797288,0.853772,0.650878,-0.748809,-1.10155,-0.330937,1.77696,0.22271,0.88294,0.678799,-0.807223,-1.17224,-0.355631,1.86786,0.22983,-1.3629,8.28641,-2.53564,7.07431,0.316179,0.734462,0.272104,-0.752142,1.21744,-0.782548,1.04668,0.27816,0.524863,0.389045
1762324,1,-1.52806,-0.490883,-0.0369069,-2.15087,-0.0175947,1.66127,0.796141,-1.52575,-0.487995,-0.0398648,-2.15399,-0.0188518,1.66661,0.79752,0.864268,0.658112,-0.754077,-1.11009,-0.331917,1.7994,0.224573,0.891174,0.68245,-0.815666,-1.18169,-0.358735,1.88132,0.231963,-1.41448,7.83414,-2.61102,6.97513,0.298784,0.625514,0.240061,-0.800674,1.31698,-0.847716,0.987372,0.264935,0.518967,0.392208
1762325,1,-1.52718,-0.490202,-0.0377044,-2.15204,-0.0179239,1.66313,0.796385,-1.52485,-0.487309,-0.0406889,-2.15518,-0.0192136,1.66851,0.797754,0.867809,0.661831,-0.765559,-1.12375,-0.328801,1.8135,0.231787,0.899409,0.686101,-0.824109,-1.19114,-0.361838,1.89478,0.234096,-1.21215,7.50485,-2.63482,7.14969,0.168779,0.69601,0.213511,-0.854219,1.39741,-0.915871,0.933332,0.251745,0.511482,0.394769
1762326,1,-1.52628,-0.489525,-0.0385222,-2.1532,-0.0182769,1.66501,0.796644,-1.52395,-0.486619,-0.0415214,-2.15638,-0.0195785,1.67042,0.797991,0.87635,0.669929,-0.769868,-1.13546,-0.331659,1.81966,0.240642,0.907644,0.689752,-0.832552,-1.20059,-0.364942,1.90823,0.236229,-1.21215,7.12399,-2.30554,7.39963,0.186174,0.889186,0.0972387,-0.906731,1.4616,-0.98011,0.886365,0.238873,0.503065,0.396542
1762327,1,-1.5254,-0.488833,-0.0393762,-2.15441,-0.0186291,1.66688,0.796894,-1.52303,-0.485926,-0.0423624,-2.15759,-0.0199466,1.67234,0.798229,0.882237,0.676934,-0.79538,-1.1512,-0.340597,1.83818,0.240967,0.915879,0.693403,-0.840995,-1.21004,-0.368045,1.92169,0.238361,-0.958241,6.46939,-1.77392,7.99472,0.174272,1.108,0.143015,-0.951014,1.50661,-1.03105,0.850818,0.226585,0.494695,0.397392
1762328,1,-1.52453,-0.488123,-0.040213,-2.15563,-0.0189821,1.6688,0.797135,-1.52211,-0.485229,-0.0432119,-2.15881,-0.0203177,1.67427,0.79847,0.873771,0.68664,-0.799247,-1.1649,-0.34104,1.85181,0.244454,0.924113,0.697054,-0.849438,-1.21948,-0.371149,1.93515,0.240494,-0.402821,5.70767,-1.62317,8.54221,0.191667,1.12814,0.259287,-0.975856,1.52704,-1.05369,0.831204,0.215319,0.487372,0.397189
1762329,1,-1.52366,-0.487417,-0.0410664,-2.15684,-0.0193375,1.67073,0.797375,-1.52117,-0.484528,-0.0440697,-2.16004,-0.020692,1.67622,0.798712,0.872506,0.692863,-0.822812,-1.18072,-0.345559,1.86126,0.238847,0.932348,0.700704,-0.85788,-1.22893,-0.374252,1.94861,0.242627,0.101024,4.85074,-1.2185,9.1135,0.208147,1.31491,0.44697,-0.970804,1.5197,-1.03528,0.830538,0.205455,0.481996,0.395953
1762330,1,-1.52274,-0.486694,-0.041926,-2.15806,-0.0197039,1.67266,0.797609,-1.52023,-0.483824,-0.0449361,-2.16128,-0.0210693,1.67818,0.798957,0.879633,0.700497,-0.828921,-1.18591,-0.35534,1.88025,0.238626,0.940583,0.704355,-0.866323,-1.23838,-0.377356,1.96207,0.244759,0.200207,4.01761,-0.964597,9.48642,0.259416,1.40463,0.706064,-0.933412,1.48817,-0.973628,0.84662,0.197006,0.478779,0.393984
1762331,1,-1.52181,-0.485982,-0.042788,-2.15928,-0.0200734,1.67459,0.797863,-1.51929,-0.483116,-0.0458108,-2.16252,-0.0214498,1.68016,0.799204,0.890519,0.706981,-0.843387,-1.22027,-0.359634,1.87705,0.241003,0.948817,0.708006,-0.874766,-1.24783,-0.380459,1.97553,0.246892,0.251781,3.33524,-0.786069,9.73636,0.259416,1.61062,0.757334,-0.872986,1.43265,-0.881439,0.881318,0.189726,0.478304,0.391881
1762332,1,-1.5209,-0.485281,-0.0436704,-2.1605,-0.0204478,1.6765,0.798121,-1.51833,-0.482404,-0.046694,-2.16378,-0.0218334,1.68215,0.799453,0.901772,0.708902,-0.848546,-1.21946,-0.364584,1.8877,0.239893,0.957052,0.711657,-0.883209,-1.25727,-0.383563,1.98898,0.249025,0.378734,3.02975,-0.686887,9.66098,0.276811,1.86148,0.744517,-0.803214,1.3533,-0.776933,0.938411,0.183267,0.481512,0.390351
1762333,1,-1.51995,-0.484567,-0.044574,-2.16174,-0.0208193,1.67847,0.798382,-1.51736,-0.48169,-0.0475854,-2.16505,-0.0222199,1.68415,0.799704,0.915487,0.708052,-0.86066,-1.22037,-0.370422,1.90786,0.246553,0.964826,0.713606,-0.891374,-1.26494,-0.386519,1.99901,0.251088,0.227978,2.82742,-0.559934,9.51023,0.231035,1.87521,0.660288,-0.73461,1.27309,-0.674357,1.00076,0.176949,0.486994,0.389865
1762334,1,-1.51901,-0.483856,-0.0454533,-2.16298,-0.0212057,1.68048,0.798653,-1.51639,-0.480975,-0.048485,-2.16632,-0.0226094,1.68616,0.799957,0.922552,0.709007,-0.869039,-1.22846,-0.371997,1.93105,0.2595,0.9726,0.715555,-0.899538,-1.27261,-0.389476,2.00904,0.25315,0.227978,2.60129,-0.659116,9.60941,0.24843,1.75894,0.472605,-0.672054,1.2188,-0.580588,1.0462,0.170179,0.492578,0.390533
1762335,0.99,-1.51805,-0.483127,-0.0463541,-2.16425,-0.02158,1.68249,0.798908,-1.51541,-0.480257,-0.0493927,-2.1676,-0.0230018,1.68818,0.800212,0.932384,0.712895,-0.88111,-1.23547,-0.375843,1.95117,0.254216,0.980374,0.717504,-0.907703,-1.28028,-0.392432,2.01907,0.255213,0.176403,2.32358,-0.837644,9.76017,0.191667,1.46231,0.42042,-0.615239,1.19602,-0.495247,1.06921,0.162867,0.497658,0.392161
1762336,0.99,-1.51707,-0.482408,-0.0472689,-2.16554,-0.02196,1.68451,0.799176,-1.51442,-0.479538,-0.0503085,-2.16889,-0.0233972,1.6902,0.80047,0.941214,0.711085,-0.896297,-1.24449,-0.379073,1.96551,0.251893,0.988148,0.719453,-0.915868,-1.28795,-0.395389,2.0291,0.257276,-0.101307,1.94272,-0.913022,10.1807,0.140398,1.33413,0.310557,-0.561405,1.20146,-0.414339,1.07172,0.15514,0.502143,0.394359
1762337,0.99,-1.51608,-0.481666,-0.0481835,-2.16684,-0.0223501,1.68654,0.799452,-1.51343,-0.478816,-0.0512326,-2.17018,-0.0237955,1.69224,0.800729,0.952397,0.723212,-0.906171,-1.26411,-0.382284,1.97183,0.261641,0.995922,0.721402,-0.924032,-1.29562,-0.398345,2.03913,0.259339,-0.430592,1.23654,-0.964597,10.7798,0.106523,1.35977,0.149424,-0.508727,1.22213,-0.334726,1.06373,0.147185,0.506573,0.396714
1762338,0.99,-1.51511,-0.480932,-0.049097,-2.16815,-0.0227458,1.68856,0.799716,-1.51242,-0.478093,-0.0521648,-2.17149,-0.0241968,1.69429,0.80099,0.954942,0.72734,-0.90605,-1.27112,-0.388988,1.98616,0.265286,1.0037,0.723351,-0.932197,-1.30329,-0.401302,2.04916,0.261401,-0.22826,0.629547,-1.14312,11.2757,0.186174,1.29476,0.0972387,-0.460773,1.23533,-0.261166,1.06071,0.13908,0.511888,0.398842
1762339,0.99,-1.51415,-0.48021,-0.050015,-2.16945,-0.0231546,1.69061,0.799987,-1.51141,-0.477368,-0.0531051,-2.1728,-0.0246011,1.69635,0.801254,0.978284,0.730294,-0.900551,-1.28231,-0.398397,1.98282,0.270862,1.01147,0.7253,-0.940362,-1.31096,-0.404258,2.05918,0.263464,-0.00212494,-0.00125125,-1.14312,11.724,0.287798,1.29476,0.103647,-0.429944,1.23343,-0.211238,1.06787,0.130512,0.518065,0.400406
1762340,0.99,-1.51316,-0.479487,-0.0509637,-2.17078,-0.0235618,1.69269,0.800256,-1.51039,-0.476641,-0.0540536,-2.17412,-0.0250083,1.69842,0.801519,0.978574,0.726128,-0.911185,-1.29053,-0.400564,2.01314,0.272427,1.01924,0.727249,-0.948526,-1.31863,-0.407215,2.06921,0.265527,0.148632,-0.405914,-0.940793,12.1207,0.372942,0.773829,0.194285,-0.425376,1.22717,-0.198154,1.08025,0.12121,0.524212,0.401149
1762341,0.99,-1.51216,-0.478772,-0.0519263,-2.17211,-0.0239545,1.69479,0.800528,-1.50936,-0.475911,-0.0550103,-2.17544,-0.0254185,1.7005,0.801787,0.976544,0.72097,-0.921634,-1.29889,-0.397002,2.02486,0.271314,1.02702,0.729199,-0.956691,-1.3263,-0.410172,2.07924,0.26759,0.227978,-0.584442,-0.710691,12.3706,0.327165,0.560511,0.219919,-0.43493,1.23541,-0.206926,1.08821,0.11156,0.528835,0.400888
1762342,0.99,-1.51116,-0.478066,-0.0528777,-2.17341,-0.024353,1.69686,0.800809,-1.50833,-0.47518,-0.0559752,-2.17678,-0.0258316,1.70259,0.802057,0.985403,0.716097,-0.935935,-1.29855,-0.395484,2.02992,0.271116,1.03479,0.731148,-0.964856,-1.33396,-0.413128,2.08927,0.269653,0.200207,-0.683624,-0.635312,12.1961,0.304277,0.908412,0.213511,-0.440505,1.27667,-0.214023,1.08085,0.102017,0.530189,0.399606
1762343,0.99,-1.51015,-0.477349,-0.0538432,-2.17472,-0.0247558,1.69891,0.801095,-1.50729,-0.474449,-0.0569479,-2.17812,-0.0262475,1.70469,0.802328,0.993481,0.709074,-0.944254,-1.29617,-0.395605,2.03279,0.273042,1.04208,0.731437,-0.972692,-1.33982,-0.415935,2.09587,0.271635,0.303356,-0.786774,-0.508359,11.9699,0.310686,1.12814,0.175059,-0.436361,1.36503,-0.211072,1.04782,0.0925054,0.52686,0.39745
1762344,0.99,-1.50913,-0.476633,-0.0547992,-2.17602,-0.0251804,1.70103,0.801402,-1.50624,-0.473717,-0.0579284,-2.17946,-0.0266663,1.70679,0.802602,0.993934,0.716407,-0.931017,-1.29819,-0.404298,2.04808,0.289451,1.04937,0.731726,-0.980528,-1.34567,-0.418742,2.10247,0.273617,0.581066,-0.965302,-0.508359,11.7994,0.451677,0.908412,0.0130102,-0.429183,1.49959,-0.207335,0.985717,0.0827325,0.518572,0.394621
1762345,0.99,-1.50813,-0.475892,-0.0557745,-2.17735,-0.0255814,1.70313,0.801691,-1.50518,-0.472985,-0.0589168,-2.18081,-0.0270878,1.7089,0.802877,1.00217,0.724699,-0.940626,-1.30526,-0.412204,2.10893,0.289359,1.05666,0.732016,-0.988364,-1.35152,-0.421549,2.10907,0.275599,0.704052,-1.29062,-0.532163,11.5732,0.417803,0.754603,0.0322363,-0.428762,1.65445,-0.21689,0.904498,0.0727997,0.506104,0.39123
1762346,0.99,-1.50707,-0.475135,-0.0567585,-2.17871,-0.0259944,1.70524,0.801981,-1.50412,-0.472253,-0.059913,-2.18217,-0.0275122,1.71101,0.803155,1.02172,0.734167,-0.942001,-1.31044,-0.410233,2.1095,0.290426,1.06394,0.732305,-0.9962,-1.35738,-0.424356,2.11567,0.277581,0.477917,-1.89761,-0.532163,11.7478,0.36104,0.914821,0.0258276,-0.440316,1.7978,-0.245485,0.818814,0.0630781,0.490494,0.387251
1762347,0.99,-1.50602,-0.474375,-0.0577475,-2.18006,-0.0264009,1.70735,0.802292,-1.50305,-0.47152,-0.060917,-2.18353,-0.0279393,1.71313,0.803435,1.03941,0.739768,-0.961893,-1.32267,-0.403649,2.0945,0.293513,1.07123,0.732595,-1.00404,-1.36323,-0.427163,2.12227,0.279564,0.101024,-2.81009,-0.432981,12.1445,0.287798,1.17941,-0.0648096,-0.465902,1.90764,-0.292723,0.743095,0.0536788,0.473771,0.38268
1762348,0.99,-1.50496,-0.473609,-0.058736,-2.18143,-0.0268026,1.70944,0.802598,-1.50197,-0.470787,-0.0619289,-2.1849,-0.0283693,1.71526,0.803716,1.04317,0.743566,-0.969444,-1.33624,-0.405083,2.09072,0.308072,1.07852,0.732884,-1.01187,-1.36908,-0.42997,2.12887,0.281546,-0.00212494,-3.82175,-0.635312,12.7436,0.242937,1.46871,-0.103262,-0.499473,1.97323,-0.347965,0.689788,0.0447038,0.458582,0.377499
1762349,0.99,-1.5039,-0.472852,-0.0597236,-2.18279,-0.0272238,1.71158,0.802893,-1.50088,-0.470054,-0.0629486,-2.18628,-0.0288021,1.7174,0.804,1.04178,0.751885,-0.970304,-1.34915,-0.407958,2.08408,0.300699,1.08581,0.733173,-1.01971,-1.37494,-0.432777,2.13547,0.283528,0.0494498,-4.78183,-1.03998,13.4894,0.253923,1.51449,-0.0190333,-0.532444,1.99031,-0.399962,0.666691,0.0363648,0.446939,0.371639
1762350,0.99,-1.50284,-0.472107,-0.0607181,-2.18418,-0.0276468,1.71369,0.803193,-1.49979,-0.469321,-0.0639761,-2.18766,-0.0292377,1.71954,0.804285,1.05231,0.745992,-0.979223,-1.35942,-0.411558,2.13686,0.295297,1.0931,0.733463,-1.02754,-1.38079,-0.435584,2.14208,0.28551,0.0494498,-5.38882,-1.16693,14.2075,0.298784,1.53372,0.071604,-0.562304,1.96592,-0.447132,0.671493,0.0286952,0.439085,0.365093
1762351,0.99,-1.50175,-0.471368,-0.0617437,-2.18558,-0.0280522,1.7158,0.80347,-1.49869,-0.468587,-0.0650115,-2.18904,-0.0296761,1.72169,0.804573,1.06014,0.743908,-0.988877,-1.3637,-0.414031,2.11659,0.285893,1.10038,0.733752,-1.03538,-1.38664,-0.438391,2.14868,0.287492,-0.204456,-5.71414,-1.06378,14.7074,0.220049,1.83584,0.316965,-0.58854,1.92434,-0.489763,0.690445,0.0215056,0.433657,0.357988
1762352,0.99,-1.50067,-0.470635,-0.0627728,-2.18694,-0.0284577,1.71792,0.803758,-1.49758,-0.467853,-0.0660547,-2.19044,-0.0301173,1.72385,0.804862,1.04687,0.745216,-0.993737,-1.36848,-0.407835,2.1103,0.285797,1.10767,0.734042,-1.04322,-1.39249,-0.441198,2.15528,0.289475,-0.379017,-5.99185,-0.861447,14.7788,0.0671556,2.18374,0.511057,-0.605877,1.88428,-0.522023,0.712908,0.0146161,0.430107,0.35064
1762353,0.99,-1.49957,-0.469893,-0.0638223,-2.18832,-0.0288613,1.72002,0.804053,-1.49647,-0.46712,-0.0671054,-2.19183,-0.0305611,1.726,0.805153,1.06412,0.746506,-1.00875,-1.36722,-0.407912,2.10956,0.285786,1.11446,0.732909,-1.05068,-1.39671,-0.443852,2.15876,0.291366,-0.379017,-6.32114,-0.532163,14.6558,0.0158861,2.47396,0.595286,-0.608353,1.85052,-0.536435,0.734285,0.00780299,0.428699,0.343565
1762354,0.99,-1.4985,-0.469156,-0.0648753,-2.18972,-0.0292759,1.72219,0.804327,-1.49535,-0.466388,-0.0681636,-2.19323,-0.0310076,1.72817,0.805447,1.05993,0.744088,-1.01799,-1.37353,-0.413883,2.12244,0.281464,1.12125,0.731776,-1.05815,-1.40092,-0.446506,2.16225,0.293257,0.251781,-6.59885,-0.179074,14.6558,-0.0115797,2.28079,0.789377,-0.595761,1.82694,-0.531114,0.749566,0.00071496,0.429383,0.337338
1762355,0.98,-1.49745,-0.468404,-0.065911,-2.19113,-0.0297008,1.72439,0.804624,-1.49422,-0.465658,-0.0692292,-2.19464,-0.0314568,1.73033,0.805742,1.05221,0.747727,-1.03153,-1.38323,-0.413669,2.13052,0.281256,1.12803,0.730643,-1.06562,-1.40513,-0.44916,2.16574,0.295148,0.831005,-6.92813,-0.0798923,15.1279,-0.0289747,1.9457,0.763743,-0.563958,1.81268,-0.499994,0.758948,-0.00664556,0.432442,0.332441
