shamilmamedov/beam_handling/log/param_estimation_ICRA/ocp_Xdown_15cm_0.35s_3.csv
duration, success rate, q[0], q[1], q[2], q[3], q[4], q[5], q[6],q_d[0], q_d[1], q_d[2], q_d[3], q_d[4], q_d[5], q_d[6],dq[0], dq[1], dq[2], dq[3], dq[4], dq[5], dq[6],dq_d[0], dq_d[1], dq_d[2], dq_d[3], dq_d[4], dq_d[5], dq_d[6],tau_J[0], tau_J[1], tau_J[2], tau_J[3], tau_J[4], tau_J[5], tau_J[6],tau_ext_hat_filtered[0], tau_ext_hat_filtered[1], tau_ext_hat_filtered[2], tau_ext_hat_filtered[3], tau_ext_hat_filtered[4], tau_ext_hat_filtered[5], tau_ext_hat_filtered[6]
2147809,0,-1.57095,-0.522744,-0.000654866,-2.09576,-1.57078,1.57154,0.785817,-1.5708,-0.523599,-4.34675e-08,-2.09439,-1.5708,1.5708,0.785399,-2.74299e-05,-0.000679836,0.000349551,0.000837397,2.23198e-06,0.000104279,-0.00116025,0,0,0,0,0,0,0,0.0732535,-10.3162,0.98334,20.7456,-0.809004,-0.572911,-0.225942,0.0659325,-1.20258,0.822312,2.23906,-0.24514,-0.573159,-0.304585
2147810,1,-1.57095,-0.522746,-0.000658259,-2.09576,-1.57078,1.57154,0.78582,-1.5708,-0.523599,-4.34675e-08,-2.09439,-1.5708,1.5708,0.785399,0.000538525,-0.00101004,-0.00041658,1.45272e-06,1.48799e-06,-0.00016784,-0.00053614,0,0,0,0,0,0,0,0.0494498,-10.2924,1.01111,20.7694,-0.809004,-0.566503,-0.232351,0.0660395,-1.19859,0.82205,2.23676,-0.245059,-0.573085,-0.3047
2147811,1,-1.57095,-0.522742,-0.000656792,-2.09576,-1.57078,1.57154,0.78582,-1.5708,-0.523599,-4.34675e-08,-2.09439,-1.5708,1.5708,0.785399,-0.000197795,0.000440267,0.000371894,-0.000648645,9.91991e-07,0.000125466,0.0001512,0,0,0,0,0,0,0,0.0732535,-10.34,0.98334,20.7972,-0.809004,-0.572911,-0.246084,0.0660508,-1.19425,0.821691,2.23452,-0.244981,-0.573005,-0.30474
2147812,1,-1.57095,-0.522744,-0.000656952,-2.09576,-1.57078,1.57154,0.785818,-1.5708,-0.523599,-4.34675e-08,-2.09439,-1.5708,1.5708,0.785399,0.000981761,-0.000263301,0.000247929,-0.000989242,0.000441471,0.000321003,-0.000170467,0,0,0,0,0,0,0,0.0256461,-10.3162,0.98334,20.821,-0.820906,-0.57932,-0.23876,0.065697,-1.19221,0.820914,2.23391,-0.244974,-0.572993,-0.304689
2147813,1,-1.57095,-0.522744,-0.000657006,-2.09576,-1.57078,1.57154,0.785825,-1.5708,-0.523599,-4.34675e-08,-2.09439,-1.5708,1.5708,0.785399,0.00130412,-0.000175534,0.000165286,-0.000102683,-0.000146496,-2.33571e-05,0.00110706,0,0,0,0,0,0,0,-0.00212494,-10.3162,0.98334,20.7972,-0.809004,-0.572911,-0.271719,0.064564,-1.19184,0.819193,2.23449,-0.245036,-0.573107,-0.304564
2147814,1,-1.57095,-0.522742,-0.000658972,-2.09576,-1.57078,1.57154,0.785816,-1.5708,-0.523599,-4.34675e-08,-2.09439,-1.5708,1.5708,0.785399,-0.000337012,0.000439789,-0.000539423,0.00113797,0.000105787,-1.55714e-05,-0.0014321,0,0,0,0,0,0,0,0.0494498,-10.34,1.01111,20.7456,-0.814497,-0.572911,-0.213125,0.0632864,-1.19162,0.817471,2.23488,-0.245095,-0.573238,-0.304395
2147815,1,-1.57095,-0.522742,-0.000655359,-2.09576,-1.57078,1.57154,0.785818,-1.5708,-0.523599,-4.34675e-08,-2.09439,-1.5708,1.5708,0.785399,-0.000224675,0.000293193,0.00084681,0.00131546,-0.000132926,-1.03809e-05,-5.29764e-06,0,0,0,0,0,0,0,0.0494498,-10.34,0.959536,20.7218,-0.809004,-0.572911,-0.23876,0.062629,-1.19118,0.816713,2.23436,-0.245101,-0.573273,-0.304199
2147816,1,-1.57094,-0.522744,-0.00065898,-2.09576,-1.57078,1.57154,0.785814,-1.5708,-0.523599,-4.34675e-08,-2.09439,-1.5708,1.5708,0.785399,0.00161345,-0.00036135,-0.000641886,0.000320161,-0.000292068,-0.00024428,-0.00119033,0,0,0,0,0,0,0,-0.0259286,-10.3162,1.01111,20.7456,-0.803511,-0.566503,-0.206716,0.0620732,-1.19024,0.81617,2.23303,-0.245076,-0.573281,-0.303965
2147817,1,-1.57095,-0.522742,-0.000657032,-2.09576,-1.57078,1.57154,0.785818,-1.5708,-0.523599,-4.34675e-08,-2.09439,-1.5708,1.5708,0.785399,-0.000130789,0.000315912,0.00022169,-0.000992985,8.73862e-06,-0.000162853,0.000393244,0,0,0,0,0,0,0,0.0256461,-10.34,0.98334,20.7972,-0.809004,-0.566503,-0.23876,0.0613119,-1.18954,0.815568,2.23211,-0.245072,-0.573299,-0.303667
2147818,1,-1.57095,-0.52274,-0.000658981,-2.09576,-1.57078,1.57154,0.785819,-1.5708,-0.523599,-4.34675e-08,-2.09439,-1.5708,1.5708,0.785399,-0.00185043,0.000860222,-0.00050182,-1.23763e-05,5.82575e-06,0.00012879,-0.000449914,0,0,0,0,0,0,0,0.101024,-10.3678,1.01111,20.7694,-0.809004,-0.572911,-0.219534,0.0612685,-1.19078,0.816142,2.23274,-0.245105,-0.573204,-0.30329
2147819,1,-1.57095,-0.522744,-0.000657032,-2.09576,-1.57078,1.57154,0.785821,-1.5708,-0.523599,-4.34675e-08,-2.09439,-1.5708,1.5708,0.785399,-2.71946e-05,-0.000632945,0.000315067,0.00110537,-0.000199567,0.000323219,-6.2584e-05,0,0,0,0,0,0,0,0.0494498,-10.3162,0.98334,20.7218,-0.803511,-0.57932,-0.225942,0.0622448,-1.19264,0.818116,2.23368,-0.245115,-0.572951,-0.302847
2147820,1,-1.57095,-0.522744,-0.000655362,-2.09576,-1.57078,1.57154,0.785824,-1.5708,-0.523599,-4.34675e-08,-2.09439,-1.5708,1.5708,0.785399,-1.81297e-05,-0.000421963,0.000766857,-0.00102632,0.000273857,0.000215479,0.00189106,0,0,0,0,0,0,0,0.0494498,-10.3162,0.959536,20.7972,-0.814497,-0.57932,-0.278127,0.0629143,-1.19273,0.819534,2.23365,-0.245094,-0.572729,-0.302355
2147821,1,-1.57095,-0.522746,-0.000655362,-2.09576,-1.57078,1.57154,0.785817,-1.5708,-0.523599,-4.34675e-08,-2.09439,-1.5708,1.5708,0.785399,-1.20865e-05,-0.000838121,0.000511238,0.00107902,-0.00022433,-9.3706e-05,-0.000672075,0,0,0,0,0,0,0,0.0494498,-10.2924,0.959536,20.7218,-0.803511,-0.572911,-0.225942,0.0625633,-1.19109,0.819368,2.23292,-0.245075,-0.572652,-0.301845
2147822,1,-1.57095,-0.522744,-0.000657032,-2.09576,-1.57078,1.57154,0.785818,-1.5708,-0.523599,-4.34675e-08,-2.09439,-1.5708,1.5708,0.785399,-8.05766e-06,-1.93517e-06,-0.000215987,-0.000394275,-0.000149553,-6.24707e-05,2.66678e-05,0,0,0,0,0,0,0,0.0494498,-10.3162,0.98334,20.7694,-0.803511,-0.572911,-0.23876,0.0618933,-1.18856,0.818677,2.23172,-0.245043,-0.572628,-0.301353
2147823,1,-1.57095,-0.522742,-0.000658981,-2.09576,-1.57078,1.57154,0.785822,-1.5708,-0.523599,-4.34675e-08,-2.09439,-1.5708,1.5708,0.785399,0.00055144,0.000555522,-0.000793605,0.00140759,-0.000303153,-0.000279006,0.000289046,0,0,0,0,0,0,0,0.0256461,-10.34,1.01111,20.698,-0.798018,-0.566503,-0.246084,0.0615779,-1.18675,0.8186,2.23059,-0.24499,-0.57257,-0.300884
2147824,1,-1.57095,-0.52274,-0.000654902,-2.09576,-1.57078,1.57154,0.785824,-1.5708,-0.523599,-4.34675e-08,-2.09439,-1.5708,1.5708,0.785399,-0.000745997,0.00101996,0.000120544,-0.000175233,1.3487e-06,0.000288714,0.000430056,0,0,0,0,0,0,0,0.0732535,-10.3678,0.98334,20.7456,-0.803511,-0.57932,-0.252493,0.0617217,-1.18709,0.819334,2.23015,-0.244927,-0.572475,-0.300429
2147825,1,-1.57095,-0.522742,-0.000656322,-2.09576,-1.57078,1.57154,0.785821,-1.5708,-0.523599,-4.34675e-08,-2.09439,-1.5708,1.5708,0.785399,-0.00114695,3.03606e-05,8.03626e-05,0.00043999,0.0004078,-4.4883e-05,-0.00069664,0,0,0,0,0,0,0,0.101024,-10.34,0.98334,20.7218,-0.814497,-0.572911,-0.225942,0.0622624,-1.18923,0.820571,2.23047,-0.244867,-0.572348,-0.299998
2147826,1,-1.57095,-0.522744,-0.000658744,-2.09576,-1.57078,1.57154,0.78582,-1.5708,-0.523599,-4.34675e-08,-2.09439,-1.5708,1.5708,0.785399,-0.00076463,-0.000536572,-0.000596039,-0.000263486,-0.000135034,-2.9922e-05,-0.000701786,0,0,0,0,0,0,0,0.101024,-10.3162,1.01111,20.7456,-0.803511,-0.572911,-0.219534,0.063365,-1.19102,0.822393,2.23081,-0.244787,-0.572143,-0.299597
2147827,1,-1.57095,-0.52274,-0.000656953,-2.09576,-1.57078,1.57154,0.785822,-1.5708,-0.523599,-4.34675e-08,-2.09439,-1.5708,1.5708,0.785399,0.00013986,0.000848712,0.000252255,-0.00138208,0.000113428,-1.9948e-05,0.00122756,0,0,0,0,0,0,0,0.0732535,-10.3678,0.98334,20.7972,-0.809004,-0.572911,-0.26531,0.0646278,-1.19258,0.824313,2.23149,-0.244722,-0.571923,-0.299203
2147828,1,-1.57095,-0.522742,-0.000658955,-2.09576,-1.57078,1.57154,0.785819,-1.5708,-0.523599,-4.34675e-08,-2.09439,-1.5708,1.5708,0.785399,0.00120686,-8.38063e-05,-0.000481444,0.000285037,7.56185e-05,-1.32987e-05,-0.0011144,0,0,0,0,0,0,0,0.0256461,-10.34,1.01111,20.7456,-0.809004,-0.572911,-0.213125,0.0650939,-1.19532,0.82512,2.23313,-0.244719,-0.571849,-0.298804
2147829,1,-1.57095,-0.522744,-0.000658512,-2.09576,-1.57079,1.57154,0.785819,-1.5708,-0.523599,-4.34675e-08,-2.09439,-1.5708,1.5708,0.785399,-0.000309048,-0.000612683,-0.000877775,-0.0010164,-0.000559939,0.000228493,0.0002065,0,0,0,0,0,0,0,0.0732535,-10.3162,1.03491,20.7972,-0.792525,-0.57932,-0.23876,0.06504,-1.19753,0.825276,2.23456,-0.244721,-0.571855,-0.298415
2147830,1,-1.57095,-0.522744,-0.000656319,-2.09576,-1.57078,1.57154,0.785816,-1.5708,-0.523599,-4.34675e-08,-2.09439,-1.5708,1.5708,0.785399,0.00035078,-0.000408455,0.000621243,-2.79867e-05,-0.000169842,-8.50302e-05,-0.00057441,0,0,0,0,0,0,0,0.0494498,-10.3162,0.98334,20.7694,-0.798018,-0.572911,-0.219534,0.0650062,-1.19791,0.825453,2.23518,-0.244685,-0.571846,-0.298029
2147831,1,-1.57095,-0.522744,-0.000656795,-2.09576,-1.57078,1.57154,0.78582,-1.5708,-0.523599,-4.34675e-08,-2.09439,-1.5708,1.5708,0.785399,-0.000322959,-0.000272303,0.000414162,0.000538154,0.000497123,-5.66868e-05,0.00107512,0,0,0,0,0,0,0,0.0732535,-10.3162,0.98334,20.7456,-0.814497,-0.572911,-0.258901,0.0645113,-1.19685,0.82482,2.2349,-0.244617,-0.571903,-0.297635
2147832,1,-1.57095,-0.522742,-0.000654823,-2.09575,-1.57078,1.57154,0.785819,-1.5708,-0.523599,-4.34675e-08,-2.09439,-1.5708,1.5708,0.785399,0.00154793,0.000375276,0.000276108,0.00212201,0.000127965,-3.77912e-05,-0.000741314,0,0,0,0,0,0,0,-0.00212494,-10.34,0.98334,20.6702,-0.809004,-0.572911,-0.219534,0.0632551,-1.19472,0.823008,2.23329,-0.244506,-0.572076,-0.297241
2147833,1,-1.57095,-0.522742,-0.000658245,-2.09576,-1.57078,1.57154,0.78582,-1.5708,-0.523599,-4.34675e-08,-2.09439,-1.5708,1.5708,0.785399,-0.000731283,0.000250184,-0.000465542,-0.000905378,-0.00011814,0.000212165,-0.000494209,0,0,0,0,0,0,0,0.0732535,-10.34,1.01111,20.7694,-0.803511,-0.57932,-0.219534,0.0617842,-1.19293,0.820981,2.23119,-0.244376,-0.572288,-0.296855
2147834,1,-1.57095,-0.522746,-0.000654656,-2.09576,-1.57079,1.57154,0.785818,-1.5708,-0.523599,-4.34675e-08,-2.09439,-1.5708,1.5708,0.785399,6.92899e-05,-0.000946834,0.000339253,0.000510038,-0.000485661,-9.59157e-05,-9.2114e-05,0,0,0,0,0,0,0,0.0494498,-10.2924,0.98334,20.7218,-0.792525,-0.572911,-0.225942,0.060917,-1.19181,0.819883,2.22966,-0.244254,-0.572413,-0.29646
2147835,1,-1.57095,-0.522742,-0.00065624,-2.09576,-1.57078,1.57154,0.785819,-1.5708,-0.523599,-4.34675e-08,-2.09439,-1.5708,1.5708,0.785399,0.000603005,0.000482401,0.000226168,0.000340026,-0.000120324,0.000173415,-0.000536127,0,0,0,0,0,0,0,0.0256461,-10.34,0.98334,20.7218,-0.798018,-0.57932,-0.213125,0.0602649,-1.19044,0.819089,2.22824,-0.244131,-0.572502,-0.29604
2147836,1,-1.57095,-0.522744,-0.000658717,-2.09576,-1.57078,1.57154,0.785822,-1.5708,-0.523599,-4.34675e-08,-2.09439,-1.5708,1.5708,0.785399,-0.00136123,-0.000235211,-0.000498835,-0.00088694,0.000326685,-0.000359108,0.000354659,0,0,0,0,0,0,0,0.101024,-10.3162,1.01111,20.7694,-0.809004,-0.566503,-0.232351,0.0598146,-1.18978,0.818616,2.22732,-0.244011,-0.572567,-0.295588
2147837,1,-1.57095,-0.522746,-0.000655274,-2.09576,-1.57078,1.57154,0.785822,-1.5708,-0.523599,-4.34675e-08,-2.09439,-1.5708,1.5708,0.785399,-0.000257876,-0.000713619,0.000873869,-3.44815e-05,0.00086205,-2.04626e-06,0.000236439,0,0,0,0,0,0,0,0.0732535,-10.2924,0.959536,20.7456,-0.826399,-0.572911,-0.232351,0.0600729,-1.18974,0.819085,2.22714,-0.243899,-0.572527,-0.295103
2147838,1,-1.57095,-0.522744,-0.000655333,-2.09576,-1.57078,1.57154,0.785823,-1.5708,-0.523599,-4.34675e-08,-2.09439,-1.5708,1.5708,0.785399,0.000941707,8.10656e-05,0.000582579,-0.0005798,-0.00027301,0.000473354,0.000666252,0,0,0,0,0,0,0,0.0256461,-10.3162,0.959536,20.7694,-0.803511,-0.585729,-0.246084,0.0599048,-1.18943,0.818818,2.22711,-0.24382,-0.572546,-0.294601
2147839,1,-1.57095,-0.522746,-0.000657023,-2.09576,-1.57078,1.57154,0.785817,-1.5708,-0.523599,-4.34675e-08,-2.09439,-1.5708,1.5708,0.785399,7.09926e-05,-0.000502768,-0.000168426,-0.000386533,2.14436e-05,-0.000396508,-0.000539176,0,0,0,0,0,0,0,0.0494498,-10.2924,0.98334,20.7694,-0.809004,-0.566503,-0.219534,0.058905,-1.18938,0.817378,2.22734,-0.243792,-0.572699,-0.294105
2147840,1,-1.57095,-0.522746,-0.000660648,-2.09576,-1.57079,1.57154,0.78582,-1.5708,-0.523599,-4.34675e-08,-2.09439,-1.5708,1.5708,0.785399,-0.0011591,-0.000335179,-0.00131871,-0.000257689,-0.000596056,0.000210379,0.000861253,0,0,0,0,0,0,0,0.101024,-10.2924,1.03491,20.7694,-0.792525,-0.57932,-0.252493,0.0587482,-1.18928,0.817216,2.22763,-0.243758,-0.572727,-0.293627
2147841,1,-1.57095,-0.522746,-0.000654901,-2.09576,-1.57078,1.57154,0.785823,-1.5708,-0.523599,-4.34675e-08,-2.09439,-1.5708,1.5708,0.785399,0.000433694,-0.000223453,0.000327286,-0.000171792,0.000212981,-9.7106e-05,0.000574168,0,0,0,0,0,0,0,0.0494498,-10.2924,0.98334,20.7694,-0.809004,-0.572911,-0.252493,0.0598507,-1.18882,0.818881,2.22773,-0.243684,-0.572566,-0.293172
2147842,1,-1.57095,-0.522746,-0.00065614,-2.09576,-1.57078,1.57154,0.785822,-1.5708,-0.523599,-4.34675e-08,-2.09439,-1.5708,1.5708,0.785399,-0.000917296,-0.000148968,-0.000431423,-0.00132095,0.000345438,-6.47373e-05,-0.000125847,0,0,0,0,0,0,0,0.101024,-10.2924,1.01111,20.821,-0.814497,-0.572911,-0.23876,0.0610533,-1.18878,0.820659,2.22818,-0.243618,-0.572402,-0.292758
2147843,1,-1.57095,-0.522744,-0.000655904,-2.09576,-1.57078,1.57154,0.785818,-1.5708,-0.523599,-4.34675e-08,-2.09439,-1.5708,1.5708,0.785399,3.8083e-05,0.0004575,-0.000287615,-0.000323824,0.000230292,0.000194201,-0.000558616,0,0,0,0,0,0,0,0.0732535,-10.3162,1.01111,20.7972,-0.814497,-0.57932,-0.225942,0.062188,-1.18999,0.822304,2.22952,-0.243589,-0.572269,-0.292398
2147844,1,-1.57095,-0.522742,-0.000653876,-2.09576,-1.57078,1.57154,0.785815,-1.5708,-0.523599,-4.34675e-08,-2.09439,-1.5708,1.5708,0.785399,0.000582201,0.000861812,0.00045787,0.000990543,-4.99226e-05,-0.000107892,-0.000847129,0,0,0,0,0,0,0,0.0494498,-10.34,0.98334,20.7456,-0.809004,-0.572911,-0.213125,0.0628859,-1.19234,0.823327,2.23115,-0.243586,-0.572228,-0.292079
2147845,1,-1.57095,-0.522744,-0.000659599,-2.09576,-1.57078,1.57154,0.785819,-1.5708,-0.523599,-4.34675e-08,-2.09439,-1.5708,1.5708,0.785399,0.000944946,1.77292e-05,-0.000901179,-0.00110288,-3.32817e-05,-7.19279e-05,0.00089331,0,0,0,0,0,0,0,0.0256461,-10.3162,1.03491,20.821,-0.809004,-0.572911,-0.252493,0.0626979,-1.19509,0.823165,2.23252,-0.243607,-0.572337,-0.291776
2147846,1,-1.57095,-0.522747,-0.000655011,-2.09576,-1.57078,1.57154,0.785818,-1.5708,-0.523599,-4.34675e-08,-2.09439,-1.5708,1.5708,0.785399,7.31518e-05,-0.00119461,0.00116245,-0.000735251,0.000181263,-4.79519e-05,-0.000862522,0,0,0,0,0,0,0,0.0494498,-10.2646,0.959536,20.821,-0.814497,-0.572911,-0.213125,0.0619315,-1.19679,0.822239,2.23371,-0.243653,-0.572515,-0.291473
2147847,1,-1.57095,-0.522746,-0.000654785,-2.09576,-1.57078,1.57154,0.785823,-1.5708,-0.523599,-4.34675e-08,-2.09439,-1.5708,1.5708,0.785399,0.00060558,-0.00014679,0.000218156,0.00127307,-0.00048951,-3.19679e-05,0.000645688,0,0,0,0,0,0,0,0.0256461,-10.2924,0.98334,20.7456,-0.798018,-0.572911,-0.246084,0.0605762,-1.19587,0.820374,2.23383,-0.243689,-0.572742,-0.291176
2147848,1,-1.57095,-0.522742,-0.000656102,-2.09576,-1.57078,1.57154,0.785824,-1.5708,-0.523599,-4.34675e-08,-2.09439,-1.5708,1.5708,0.785399,-0.000709904,0.00101576,-0.000504177,-0.000914524,-0.000122889,0.000216047,0.000667818,0,0,0,0,0,0,0,0.0732535,-10.34,1.01111,20.821,-0.803511,-0.57932,-0.252493,0.0593368,-1.1943,0.818657,2.23332,-0.243699,-0.572941,-0.29088
2147849,1,-1.57095,-0.522744,-0.000656072,-2.09576,-1.57078,1.57154,0.785826,-1.5708,-0.523599,-4.34675e-08,-2.09439,-1.5708,1.5708,0.785399,-0.000473269,0.000120364,0.000313496,-0.000609683,0.000121524,-9.33276e-05,0.00091993,0,0,0,0,0,0,0,0.0732535,-10.3162,0.98334,20.821,-0.809004,-0.572911,-0.26531,0.0590382,-1.19495,0.818368,2.23403,-0.243721,-0.573018,-0.29059
2147850,1,-1.57095,-0.522742,-0.000656712,-2.09576,-1.57078,1.57154,0.785818,-1.5708,-0.523599,-4.34675e-08,-2.09439,-1.5708,1.5708,0.785399,0.000241299,0.000637055,0.000208997,-0.000406455,0.000284467,-0.000299577,-0.000844776,0,0,0,0,0,0,0,0.0494498,-10.34,0.98334,20.821,-0.814497,-0.566503,-0.225942,0.0590972,-1.19713,0.818583,2.23586,-0.243769,-0.573052,-0.290339
2147851,1,-1.57095,-0.522744,-0.000654795,-2.09576,-1.57078,1.57154,0.78582,-1.5708,-0.523599,-4.34675e-08,-2.09439,-1.5708,1.5708,0.785399,0.000160866,-0.000132109,0.000139332,0.000935456,-1.3806e-05,0.000275,0.00042016,0,0,0,0,0,0,0,0.0494498,-10.3162,0.98334,20.7694,-0.809004,-0.57932,-0.252493,0.0588683,-1.19887,0.818363,2.23737,-0.243806,-0.573118,-0.290147
2147852,1,-1.57095,-0.522744,-0.000654156,-2.09577,-1.57078,1.57154,0.785826,-1.5708,-0.523599,-4.34675e-08,-2.09439,-1.5708,1.5708,0.785399,0.00131367,-8.80726e-05,9.28878e-05,-0.0011396,-9.20402e-06,-5.40258e-05,0.00122954,0,0,0,0,0,0,0,-0.00212494,-10.3162,0.98334,20.8448,-0.809004,-0.572911,-0.278127,0.0581804,-1.19927,0.817532,2.23807,-0.243825,-0.573231,-0.290004
2147853,1,-1.57095,-0.522742,-0.000656074,-2.09576,-1.57078,1.57154,0.785824,-1.5708,-0.523599,-4.34675e-08,-2.09439,-1.5708,1.5708,0.785399,-0.000330646,0.000498097,6.19252e-05,0.00035389,-0.000209587,-3.60172e-05,-0.000129741,0,0,0,0,0,0,0,0.0494498,-10.34,0.98334,20.7972,-0.803511,-0.572911,-0.252493,0.0571771,-1.19924,0.816353,2.23874,-0.243853,-0.573374,-0.289911
2147854,1,-1.57095,-0.522744,-0.000652912,-2.09576,-1.57078,1.57154,0.785821,-1.5708,-0.523599,-4.34675e-08,-2.09439,-1.5708,1.5708,0.785399,-0.000220431,-0.000224747,0.000598095,0.000885541,-0.000139724,0.000213347,-8.64937e-05,0,0,0,0,0,0,0,0.0494498,-10.3162,0.959536,20.7694,-0.803511,-0.57932,-0.252493,0.0563595,-1.19883,0.815424,2.23907,-0.24386,-0.573478,-0.28989
2147855,1,-1.57095,-0.522742,-0.000657704,-2.09576,-1.57078,1.57154,0.785821,-1.5708,-0.523599,-4.34675e-08,-2.09439,-1.5708,1.5708,0.785399,-0.000703766,0.00040698,-0.00136451,-0.000616065,0.00055111,0.000142232,0.000179696,0,0,0,0,0,0,0,0.0732535,-10.34,1.03491,20.821,-0.820906,-0.57932,-0.258901,0.0563482,-1.19772,0.815596,2.23884,-0.243816,-0.57345,-0.289938
2147856,1,-1.57095,-0.52274,-0.000653919,-2.09576,-1.57078,1.57154,0.785822,-1.5708,-0.523599,-4.34675e-08,-2.09439,-1.5708,1.5708,0.785399,8.76348e-05,0.000920934,0.000296754,0.000795716,-7.34025e-05,9.48211e-05,0.000831874,0,0,0,0,0,0,0,0.0494498,-10.3678,0.98334,20.7694,-0.809004,-0.57932,-0.278127,0.0572506,-1.19745,0.817149,2.23906,-0.24376,-0.573296,-0.290036
2147857,1,-1.57095,-0.522744,-0.000653864,-2.09576,-1.57078,1.57154,0.785825,-1.5708,-0.523599,-4.34675e-08,-2.09439,-1.5708,1.5708,0.785399,-0.000498389,-0.00059247,0.000197836,0.00108729,-0.000455836,-0.000174145,0.000554583,0,0,0,0,0,0,0,0.0732535,-10.3162,0.98334,20.7456,-0.798018,-0.572911,-0.278127,0.0581497,-1.19726,0.818675,2.23903,-0.243704,-0.573158,-0.290188
2147858,1,-1.57095,-0.522744,-0.000654306,-2.09576,-1.57078,1.57154,0.785819,-1.5708,-0.523599,-4.34675e-08,-2.09439,-1.5708,1.5708,0.785399,0.000224553,-0.00039498,0.000688703,0.000168047,0.00010301,-0.000353456,-0.00108834,0,0,0,0,0,0,0,0.0494498,-10.3162,0.959536,20.7694,-0.809004,-0.566503,-0.23876,0.0584288,-1.19504,0.819133,2.23775,-0.243627,-0.573102,-0.290415
2147859,1,-1.57095,-0.522747,-0.000658629,-2.09576,-1.57078,1.57154,0.785823,-1.5708,-0.523599,-4.34675e-08,-2.09439,-1.5708,1.5708,0.785399,-0.00040711,-0.00146975,-0.000747291,-0.000537582,0.000712934,0.000239081,0.000732502,0,0,0,0,0,0,0,0.0732535,-10.2646,1.01111,20.7972,-0.826399,-0.57932,-0.278127,0.0584722,-1.19098,0.819127,2.23593,-0.243542,-0.573056,-0.290709
2147860,1,-1.57095,-0.522742,-0.000656733,-2.09576,-1.57078,1.57154,0.785823,-1.5708,-0.523599,-4.34675e-08,-2.09439,-1.5708,1.5708,0.785399,0.000285405,0.000783407,-0.000498194,0.000848038,0.000271839,-7.79717e-05,-0.000223742,0,0,0,0,0,0,0,0.0494498,-10.34,1.01111,20.7456,-0.820906,-0.572911,-0.258901,0.0589101,-1.18673,0.819729,2.23439,-0.243469,-0.57294,-0.291043
2147861,1,-1.57095,-0.522744,-0.000656101,-2.09576,-1.57078,1.57154,0.785822,-1.5708,-0.523599,-4.34675e-08,-2.09439,-1.5708,1.5708,0.785399,0.00019027,-3.45404e-05,-0.000332129,-0.000641067,-0.000259584,0.000422737,8.81975e-05,0,0,0,0,0,0,0,0.0494498,-10.3162,1.01111,20.7972,-0.809004,-0.585729,-0.26531,0.0595581,-1.18442,0.820786,2.23378,-0.243444,-0.572818,-0.291403
2147862,1,-1.57095,-0.522742,-0.000658021,-2.09576,-1.57078,1.57154,0.78582,-1.5708,-0.523599,-4.34675e-08,-2.09439,-1.5708,1.5708,0.785399,-0.00107958,0.000533785,-0.000221419,0.000222236,-0.000173056,4.44656e-05,-0.00041592,0,0,0,0,0,0,0,0.101024,-10.34,1.01111,20.7694,-0.809004,-0.57932,-0.252493,0.0602307,-1.18444,0.821952,2.23433,-0.243486,-0.572732,-0.29178
2147863,1,-1.57095,-0.522742,-0.000658661,-2.09576,-1.57078,1.57154,0.785822,-1.5708,-0.523599,-4.34675e-08,-2.09439,-1.5708,1.5708,0.785399,-7.01055e-05,0.000355857,-0.000147613,0.00126178,-0.000522272,2.96437e-05,0.000672156,0,0,0,0,0,0,0,0.0732535,-10.34,1.01111,20.7218,-0.798018,-0.57932,-0.278127,0.061128,-1.18542,0.823376,2.2351,-0.243547,-0.572647,-0.292167
2147864,1,-1.57095,-0.522744,-0.000656744,-2.09576,-1.57078,1.57154,0.785825,-1.5708,-0.523599,-4.34675e-08,-2.09439,-1.5708,1.5708,0.785399,0.000510075,-0.000319574,-9.84087e-05,-0.000272437,0.000499529,-0.000217596,0.000448104,0,0,0,0,0,0,0,0.0494498,-10.3162,1.01111,20.7694,-0.820906,-0.572911,-0.278127,0.0617578,-1.1861,0.824369,2.23531,-0.243598,-0.572622,-0.292565
2147865,1,-1.57095,-0.522742,-0.000654156,-2.09576,-1.57078,1.57154,0.785826,-1.5708,-0.523599,-4.34675e-08,-2.09439,-1.5708,1.5708,0.785399,0.000896862,0.000343763,0.000584008,-0.000831238,-0.00031124,-0.000145064,6.13771e-05,0,0,0,0,0,0,0,0.0256461,-10.34,0.98334,20.7972,-0.803511,-0.572911,-0.271719,0.0614105,-1.1868,0.824001,2.23577,-0.24369,-0.572751,-0.292982
2147866,1,-1.57095,-0.522742,-0.000658022,-2.09576,-1.57078,1.57154,0.785824,-1.5708,-0.523599,-4.34675e-08,-2.09439,-1.5708,1.5708,0.785399,4.1096e-05,0.000229175,-0.000260275,0.000652267,0.000199407,-9.67095e-05,-0.000671159,0,0,0,0,0,0,0,0.0494498,-10.34,1.01111,20.7456,-0.814497,-0.572911,-0.252493,0.0602525,-1.18826,0.822539,2.23688,-0.24383,-0.573005,-0.293427
2147867,0.99,-1.57095,-0.522744,-0.000658202,-2.09576,-1.57078,1.57154,0.785822,-1.5708,-0.523599,-4.34675e-08,-2.09439,-1.5708,1.5708,0.785399,2.73973e-05,-0.000404029,-0.000730329,-0.000121967,-7.05122e-05,-6.4473e-05,2.72787e-05,0,0,0,0,0,0,0,0.0494498,-10.3162,1.03491,20.7694,-0.809004,-0.572911,-0.26531,0.0594111,-1.18938,0.821606,2.23768,-0.243944,-0.573195,-0.293895
2147868,0.98,-1.57095,-0.522744,-0.000658164,-2.09576,-1.57078,1.57154,0.785823,-1.5708,-0.523599,-4.34675e-08,-2.09439,-1.5708,1.5708,0.785399,-0.000538547,-0.000269352,6.99261e-05,0.0004755,-0.000250459,0.000194377,0.000492904,0,0,0,0,0,0,0,0.0732535,-10.3162,1.01111,20.7456,-0.803511,-0.57932,-0.278127,0.0593874,-1.18912,0.821883,2.23766,-0.244002,-0.573235,-0.294367
2147869,0.98,-1.57095,-0.522744,-0.00065676,-2.09576,-1.57078,1.57154,0.785822,-1.5708,-0.523599,-4.34675e-08,-2.09439,-1.5708,1.5708,0.785399,0.000197781,-0.000179568,0.000696231,0.000873812,3.64781e-05,-0.000107774,0.000328602,0,0,0,0,0,0,0,0.0494498,-10.3162,0.98334,20.7218,-0.809004,-0.572911,-0.278127,0.0594106,-1.18764,0.822158,2.23679,-0.244024,-0.573251,-0.294841
2147870,0.98,-1.57095,-0.52274,-0.000656942,-2.09576,-1.57078,1.57154,0.785822,-1.5708,-0.523599,-4.34675e-08,-2.09439,-1.5708,1.5708,0.785399,-0.000424958,0.00108671,0.000464154,2.57295e-05,-0.000179132,-0.000309208,-0.000967726,0,0,0,0,0,0,0,0.0732535,-10.3678,0.98334,20.7456,-0.803511,-0.566503,-0.246084,0.0588879,-1.1866,0.821558,2.23579,-0.24405,-0.573352,-0.295323
2147871,0.98,-1.57095,-0.522744,-0.00065682,-2.09576,-1.57078,1.57154,0.785827,-1.5708,-0.523599,-4.34675e-08,-2.09439,-1.5708,1.5708,0.785399,0.000273506,-0.00048195,-0.000340178,-0.000539659,8.40293e-05,3.12199e-05,0.000779003,0,0,0,0,0,0,0,0.0494498,-10.3162,1.01111,20.7694,-0.809004,-0.572911,-0.284536,0.058236,-1.18729,0.820777,2.23572,-0.244106,-0.573483,-0.295805
2147872,0.98,-1.57095,-0.522746,-0.000658261,-2.09576,-1.57078,1.57154,0.785826,-1.5708,-0.523599,-4.34675e-08,-2.09439,-1.5708,1.5708,0.785399,0.000182338,-0.000878112,-0.000226785,-0.0015662,-0.000350881,2.08133e-05,4.46173e-05,0,0,0,0,0,0,0,0.0494498,-10.2924,1.01111,20.821,-0.798018,-0.572911,-0.271719,0.0578975,-1.1882,0.820527,2.23639,-0.244173,-0.573546,-0.29628
2147873,0.98,-1.57095,-0.522744,-0.000654662,-2.09576,-1.57078,1.57154,0.785824,-1.5708,-0.523599,-4.34675e-08,-2.09439,-1.5708,1.5708,0.785399,-0.000435254,-2.85961e-05,0.000498424,0.000719106,0.00017298,0.000251234,0.000504463,0,0,0,0,0,0,0,0.0732535,-10.3162,0.98334,20.7456,-0.809004,-0.57932,-0.284536,0.0577343,-1.18813,0.820541,2.23708,-0.244224,-0.573556,-0.296755
2147874,0.98,-1.57095,-0.522744,-0.00065606,-2.09576,-1.57078,1.57154,0.785824,-1.5708,-0.523599,-4.34675e-08,-2.09439,-1.5708,1.5708,0.785399,0.000823455,-1.9064e-05,-0.000317331,-0.000727022,0.00011532,-0.000307228,-0.000375768,0,0,0,0,0,0,0,0.0256461,-10.3162,1.01111,20.7972,-0.809004,-0.566503,-0.26531,0.0574712,-1.18782,0.820388,2.23747,-0.244249,-0.573575,-0.297246
2147875,0.98,-1.57095,-0.522747,-0.000659678,-2.09576,-1.57078,1.57154,0.785823,-1.5708,-0.523599,-4.34675e-08,-2.09439,-1.5708,1.5708,0.785399,-0.000564654,-0.00121914,-0.000768366,0.000164932,0.000517689,0.000269899,0.000224206,0,0,0,0,0,0,0,0.0732535,-10.2646,1.03491,20.7694,-0.820906,-0.57932,-0.278127,0.0574408,-1.18706,0.820634,2.2375,-0.244239,-0.573546,-0.297755
2147876,0.98,-1.57095,-0.52274,-0.000656526,-2.09576,-1.57078,1.57154,0.785825,-1.5708,-0.523599,-4.34675e-08,-2.09439,-1.5708,1.5708,0.785399,-0.000376436,0.00160009,4.45678e-05,0.00122358,-9.56831e-05,-5.74262e-05,-8.78885e-05,0,0,0,0,0,0,0,0.0732535,-10.3678,1.01111,20.7218,-0.809004,-0.572911,-0.271719,0.0580698,-1.18595,0.821868,2.23702,-0.244188,-0.573413,-0.298276
2147877,0.98,-1.57095,-0.522742,-0.000656214,-2.09576,-1.57078,1.57154,0.785821,-1.5708,-0.523599,-4.34675e-08,-2.09439,-1.5708,1.5708,0.785399,0.000305855,0.000417116,0.000679326,-0.00150433,0.000377021,-0.000275643,-0.00053331,0,0,0,0,0,0,0,0.0494498,-10.34,0.98334,20.821,-0.820906,-0.566503,-0.258901,0.0585622,-1.18703,0.8229,2.23722,-0.244175,-0.573334,-0.298797
2147878,0.98,-1.57095,-0.522746,-0.000658708,-2.09576,-1.57078,1.57154,0.785826,-1.5708,-0.523599,-4.34675e-08,-2.09439,-1.5708,1.5708,0.785399,0.000203903,-0.000835547,-0.00019673,-0.000446075,-0.000392913,5.35969e-05,0.000356537,0,0,0,0,0,0,0,0.0494498,-10.2924,1.01111,20.7972,-0.803511,-0.572911,-0.278127,0.0583115,-1.18975,0.822857,2.23862,-0.244248,-0.57338,-0.299306
2147879,0.98,-1.57095,-0.522744,-0.00065843,-2.09576,-1.57078,1.57154,0.785827,-1.5708,-0.523599,-4.34675e-08,-2.09439,-1.5708,1.5708,0.785399,-0.000420877,-2.19083e-07,-0.000687965,-0.000297383,0.000144959,-0.000201628,0.000237691,0,0,0,0,0,0,0,0.0732535,-10.3162,1.03491,20.7972,-0.814497,-0.566503,-0.278127,0.0581797,-1.19119,0.822989,2.23984,-0.244329,-0.573381,-0.299802
2147880,0.98,-1.57095,-0.522746,-0.000654161,-2.09576,-1.57078,1.57154,0.785824,-1.5708,-0.523599,-4.34675e-08,-2.09439,-1.5708,1.5708,0.785399,-0.000280584,-0.000556958,0.000747782,0.000451358,-0.000106811,0.00010294,0.000158461,0,0,0,0,0,0,0,0.0732535,-10.2924,0.98334,20.7694,-0.809004,-0.572911,-0.278127,0.0585143,-1.19101,0.823742,2.24018,-0.244372,-0.573288,-0.300293
2147881,0.98,-1.57096,-0.522746,-0.000659695,-2.09576,-1.57078,1.57154,0.785821,-1.5708,-0.523599,-4.34675e-08,-2.09439,-1.5708,1.5708,0.785399,-0.00139348,-0.000371305,-0.000707904,0.000300906,0.000573053,6.8627e-05,-0.00158978,0,0,0,0,0,0,0,0.124828,-10.2924,1.03491,20.7694,-0.826399,-0.572911,-0.232351,0.0591618,-1.18936,0.824771,2.23951,-0.244374,-0.573131,-0.300789
2147882,0.98,-1.57095,-0.522742,-0.000656532,-2.09576,-1.57078,1.57154,0.785823,-1.5708,-0.523599,-4.34675e-08,-2.09439,-1.5708,1.5708,0.785399,0.000277438,0.000866087,8.48757e-05,0.000757416,0.000178585,-0.000191608,0.000635567,0,0,0,0,0,0,0,0.0732535,-10.34,1.01111,20.7456,-0.820906,-0.566503,-0.278127,0.0602507,-1.18749,0.826313,2.2384,-0.244356,-0.572912,-0.301272
2147883,0.98,-1.57095,-0.52274,-0.000656034,-2.09577,-1.57078,1.57154,0.78582,-1.5708,-0.523599,-4.34675e-08,-2.09439,-1.5708,1.5708,0.785399,0.000184959,0.00122701,5.65838e-05,-0.00181511,-0.000321753,0.000584338,-0.000288365,0,0,0,0,0,0,0,0.0732535,-10.3678,1.01111,20.8448,-0.809004,-0.585729,-0.258901,0.0610054,-1.18848,0.827426,2.23868,-0.244421,-0.572786,-0.301707
2147884,0.98,-1.57095,-0.522744,-0.000655868,-2.09576,-1.57078,1.57154,0.785821,-1.5708,-0.523599,-4.34675e-08,-2.09439,-1.5708,1.5708,0.785399,0.000680118,-0.000388422,3.77225e-05,-9.64468e-05,-0.000417953,-0.000322518,4.51154e-05,0,0,0,0,0,0,0,0.0494498,-10.3162,1.01111,20.7972,-0.803511,-0.566503,-0.26531,0.0608971,-1.19222,0.827387,2.24081,-0.244599,-0.572832,-0.30209
2147885,0.98,-1.57095,-0.522747,-0.000657944,-2.09576,-1.57078,1.57154,0.785819,-1.5708,-0.523599,-4.34675e-08,-2.09439,-1.5708,1.5708,0.785399,0.000453412,-0.00146537,2.51484e-05,-6.42979e-05,-7.51845e-05,0.000497065,-0.000444641,0,0,0,0,0,0,0,0.0494498,-10.2646,1.01111,20.7972,-0.809004,-0.585729,-0.252493,0.0602662,-1.19398,0.826584,2.24228,-0.244774,-0.572942,-0.302442
2147886,0.98,-1.57095,-0.522742,-0.000658175,-2.09576,-1.57078,1.57154,0.785819,-1.5708,-0.523599,-4.34675e-08,-2.09439,-1.5708,1.5708,0.785399,0.000302275,0.000786322,-0.000540046,-0.000599677,-5.0123e-05,9.40177e-05,-0.000296427,0,0,0,0,0,0,0,0.0494498,-10.34,1.03491,20.821,-0.809004,-0.57932,-0.252493,0.0595894,-1.19299,0.825712,2.24245,-0.244891,-0.573035,-0.302767
2147887,0.98,-1.57095,-0.522746,-0.000656207,-2.09576,-1.57078,1.57154,0.785822,-1.5708,-0.523599,-4.34675e-08,-2.09439,-1.5708,1.5708,0.785399,0.000758328,-0.000589409,0.000846395,0.000806641,0.000170035,6.26784e-05,0.000751818,0,0,0,0,0,0,0,0.0256461,-10.2924,0.98334,20.7694,-0.814497,-0.57932,-0.278127,0.0588386,-1.19193,0.824805,2.24248,-0.244989,-0.573153,-0.303048
2147888,0.98,-1.57095,-0.522744,-0.000658706,-2.09576,-1.57078,1.57154,0.785818,-1.5708,-0.523599,-4.34675e-08,-2.09439,-1.5708,1.5708,0.785399,-0.000608072,0.000163872,-8.53506e-05,-0.000111853,-0.000496995,4.17856e-05,-0.00095685,0,0,0,0,0,0,0,0.0732535,-10.3162,1.01111,20.7972,-0.798018,-0.57932,-0.23876,0.0578752,-1.19062,0.823581,2.2421,-0.245063,-0.573316,-0.303292
2147889,0.98,-1.57095,-0.522744,-0.000656941,-2.09576,-1.57078,1.57154,0.785823,-1.5708,-0.523599,-4.34675e-08,-2.09439,-1.5708,1.5708,0.785399,-0.000405381,0.000109248,0.000592714,-0.000631381,0.000516381,2.78571e-05,-0.000129274,0,0,0,0,0,0,0,0.0732535,-10.3162,0.98334,20.821,-0.820906,-0.57932,-0.252493,0.0572573,-1.18958,0.822779,2.24187,-0.24512,-0.573445,-0.303502
2147890,0.98,-1.57095,-0.522742,-0.000657002,-2.09576,-1.57078,1.57154,0.785823,-1.5708,-0.523599,-4.34675e-08,-2.09439,-1.5708,1.5708,0.785399,0.000286558,0.000629644,0.000395142,0.000135891,-9.65557e-05,-0.000218788,0.000863253,0,0,0,0,0,0,0,0.0494498,-10.34,0.98334,20.7972,-0.809004,-0.572911,-0.278127,0.0568658,-1.19,0.822254,2.24257,-0.245197,-0.573566,-0.303668
2147891,0.98,-1.57095,-0.52274,-0.000657022,-2.09576,-1.57078,1.57154,0.785821,-1.5708,-0.523599,-4.34675e-08,-2.09439,-1.5708,1.5708,0.785399,-0.00101539,0.00106938,0.000263428,0.000740208,0.00013908,-0.000145858,0.000100784,0,0,0,0,0,0,0,0.101024,-10.3678,0.98334,20.7694,-0.814497,-0.572911,-0.26531,0.0565361,-1.19173,0.821776,2.24369,-0.245281,-0.573705,-0.303795
2147892,0.98,-1.57095,-0.522742,-0.000658978,-2.09576,-1.57078,1.57154,0.785822,-1.5708,-0.523599,-4.34675e-08,-2.09439,-1.5708,1.5708,0.785399,-2.73109e-05,6.33038e-05,-0.000473995,0.00105028,-0.00011073,-0.000334598,0.000541907,0,0,0,0,0,0,0,0.0732535,-10.34,1.01111,20.7456,-0.809004,-0.566503,-0.278127,0.0568405,-1.19363,0.822141,2.24436,-0.245327,-0.573757,-0.303914
2147893,0.98,-1.57095,-0.522746,-0.000654901,-2.09576,-1.57078,1.57154,0.78582,-1.5708,-0.523599,-4.34675e-08,-2.09439,-1.5708,1.5708,0.785399,0.000538605,-0.00107142,0.000333617,-0.000506236,0.00012963,0.000251653,-0.00133415,0,0,0,0,0,0,0,0.0494498,-10.2924,0.98334,20.7972,-0.814497,-0.57932,-0.232351,0.0574782,-1.19363,0.822932,2.24397,-0.245323,-0.573732,-0.304048
2147894,0.98,-1.57095,-0.52274,-0.00065614,-2.09576,-1.57078,1.57154,0.785823,-1.5708,-0.523599,-4.34675e-08,-2.09439,-1.5708,1.5708,0.785399,-0.000847356,0.00104896,-0.000427202,0.000312123,-0.000320481,0.000167768,0.000568629,0,0,0,0,0,0,0,0.101024,-10.3678,1.01111,20.7694,-0.803511,-0.57932,-0.271719,0.0580639,-1.1924,0.823613,2.2433,-0.245312,-0.573689,-0.304191
2147895,0.98,-1.57095,-0.522739,-0.000658034,-2.09576,-1.57078,1.57154,0.785825,-1.5708,-0.523599,-4.34675e-08,-2.09439,-1.5708,1.5708,0.785399,0.00119833,0.00125612,-0.000284802,0.00132171,0.000193247,-0.000362872,0.000379086,0,0,0,0,0,0,0,0.0256461,-10.3916,1.01111,20.7218,-0.814497,-0.566503,-0.271719,0.0587549,-1.1927,0.824498,2.24323,-0.245318,-0.573649,-0.304316
2147896,0.98,-1.57095,-0.522746,-0.000656535,-2.09576,-1.57078,1.57154,0.785825,-1.5708,-0.523599,-4.34675e-08,-2.09439,-1.5708,1.5708,0.785399,0.000242077,-0.00148264,-0.000189868,0.000324325,0.000128831,-0.000241915,1.53651e-05,0,0,0,0,0,0,0,0.0494498,-10.2924,1.01111,20.7456,-0.814497,-0.566503,-0.26531,0.059217,-1.19315,0.825156,2.2428,-0.245314,-0.573637,-0.304436
2147897,0.98,-1.57095,-0.522746,-0.000658166,-2.09576,-1.57078,1.57154,0.785824,-1.5708,-0.523599,-4.34675e-08,-2.09439,-1.5708,1.5708,0.785399,0.000161385,-0.000988426,-0.000126579,0.00132984,-0.000524464,0.000313441,0.000484961,0,0,0,0,0,0,0,0.0494498,-10.2924,1.01111,20.698,-0.798018,-0.57932,-0.278127,0.0594388,-1.19011,0.825448,2.24059,-0.245255,-0.573601,-0.304573
2147898,0.98,-1.57095,-0.522742,-0.000656579,-2.09576,-1.57078,1.57154,0.785825,-1.5708,-0.523599,-4.34675e-08,-2.09439,-1.5708,1.5708,0.785399,-0.000449222,0.000454673,-8.43857e-05,0.000329749,-0.000146192,-2.83981e-05,8.59486e-05,0,0,0,0,0,0,0,0.0732535,-10.34,1.01111,20.7218,-0.803511,-0.572911,-0.271719,0.0597864,-1.1851,0.825869,2.23737,-0.245157,-0.573509,-0.304731
2147899,0.98,-1.57095,-0.522744,-0.00065772,-2.09576,-1.57078,1.57154,0.785827,-1.5708,-0.523599,-4.34675e-08,-2.09439,-1.5708,1.5708,0.785399,-0.000299481,-0.000253696,-0.000613069,-0.000893792,0.00030944,-1.8932e-05,0.000532017,0,0,0,0,0,0,0,0.0732535,-10.3162,1.03491,20.7694,-0.814497,-0.572911,-0.284536,0.0604995,-1.18206,0.826862,2.23535,-0.245087,-0.573371,-0.304906
2147900,0.98,-1.57095,-0.522742,-0.000659675,-2.09576,-1.57078,1.57154,0.785823,-1.5708,-0.523599,-4.34675e-08,-2.09439,-1.5708,1.5708,0.785399,-0.000199654,0.000387681,-0.000408713,-3.90491e-05,-0.000200608,-1.26214e-05,-0.00012004,0,0,0,0,0,0,0,0.0732535,-10.34,1.03491,20.7456,-0.803511,-0.572911,-0.271719,0.0616379,-1.18168,0.828574,2.23516,-0.245069,-0.573188,-0.305103
2147901,0.98,-1.57095,-0.522742,-0.000652906,-2.09576,-1.57078,1.57154,0.785823,-1.5708,-0.523599,-4.34675e-08,-2.09439,-1.5708,1.5708,0.785399,-0.000782717,0.000258454,0.00149076,0.000530779,0.000273162,-8.41424e-06,-0.000792103,0,0,0,0,0,0,0,0.101024,-10.34,0.959536,20.7218,-0.814497,-0.572911,-0.252493,0.0625025,-1.1828,0.829857,2.23574,-0.245083,-0.573062,-0.305331
2147902,0.98,-1.57095,-0.522744,-0.000656032,-2.09576,-1.57078,1.57154,0.785827,-1.5708,-0.523599,-4.34675e-08,-2.09439,-1.5708,1.5708,0.785399,0.000684615,-0.000384509,-0.000212584,-0.000759771,0.000182108,-5.60949e-06,0.000421367,0,0,0,0,0,0,0,0.0494498,-10.3162,1.01111,20.7694,-0.814497,-0.572911,-0.278127,0.0624564,-1.18427,0.829675,2.23634,-0.245124,-0.573081,-0.305581
2147903,0.98,-1.57095,-0.522744,-0.000655868,-2.09576,-1.57078,1.57154,0.785824,-1.5708,-0.523599,-4.34675e-08,-2.09439,-1.5708,1.5708,0.785399,-0.000750016,-0.00025634,-0.000141723,0.00060711,-0.000285496,0.000233619,0.000280911,0,0,0,0,0,0,0,0.101024,-10.3162,1.01111,20.7218,-0.803511,-0.57932,-0.278127,0.0621439,-1.18512,0.829067,2.23666,-0.245167,-0.573136,-0.305836
2147904,0.98,-1.57095,-0.522742,-0.000655813,-2.09576,-1.57078,1.57154,0.785827,-1.5708,-0.523599,-4.34675e-08,-2.09439,-1.5708,1.5708,0.785399,0.000706415,0.000385919,-9.44818e-05,-0.000152072,1.31202e-05,-8.16128e-05,0.000661992,0,0,0,0,0,0,0,0.0494498,-10.34,1.01111,20.7456,-0.809004,-0.572911,-0.290945,0.0621354,-1.18553,0.828926,2.23663,-0.245191,-0.573148,-0.306097
2147905,0.98,-1.57095,-0.522742,-0.000657925,-2.09576,-1.57078,1.57154,0.785824,-1.5708,-0.523599,-4.34675e-08,-2.09439,-1.5708,1.5708,0.785399,0.000470943,0.000257279,-6.29879e-05,0.000455431,0.000212197,0.00018295,-0.000982826,0,0,0,0,0,0,0,0.0494498,-10.34,1.01111,20.7218,-0.814497,-0.57932,-0.252493,0.0619656,-1.18652,0.828636,2.23661,-0.245217,-0.5732,-0.306379
2147906,0.98,-1.57095,-0.522744,-0.00065668,-2.09576,-1.57078,1.57154,0.785825,-1.5708,-0.523599,-4.34675e-08,-2.09439,-1.5708,1.5708,0.785399,-0.00024285,-0.000385292,0.000607622,-0.000253192,-6.19857e-05,-0.000115392,0.000768937,0,0,0,0,0,0,0,0.0732535,-10.3162,0.98334,20.7456,-0.809004,-0.572911,-0.290945,0.0614445,-1.18768,0.827871,2.23655,-0.245251,-0.573311,-0.306682
2147907,0.98,-1.57095,-0.52274,-0.000656915,-2.09576,-1.57078,1.57154,0.785825,-1.5708,-0.523599,-4.34675e-08,-2.09439,-1.5708,1.5708,0.785399,-0.0001619,0.000949564,0.000405081,0.000388018,0.000162127,-0.000314287,-0.000199452,0,0,0,0,0,0,0,0.0732535,-10.3678,0.98334,20.7218,-0.814497,-0.566503,-0.271719,0.0608113,-1.18884,0.826841,2.23642,-0.245295,-0.573443,-0.306995
2147908,0.98,-1.57095,-0.522744,-0.000658942,-2.09576,-1.57078,1.57154,0.785823,-1.5708,-0.523599,-4.34675e-08,-2.09439,-1.5708,1.5708,0.785399,-0.000107933,-0.000573383,-0.00037956,-0.000298134,0.000108085,2.78343e-05,0.000104391,0,0,0,0,0,0,0,0.0732535,-10.3162,1.01111,20.7456,-0.814497,-0.572911,-0.278127,0.0604352,-1.19033,0.826112,2.23642,-0.245345,-0.573539,-0.307316
2147909,0.98,-1.57095,-0.522744,-0.000658508,-2.09576,-1.57078,1.57154,0.785825,-1.5708,-0.523599,-4.34675e-08,-2.09439,-1.5708,1.5708,0.785399,0.000484856,-0.000382255,-0.000809852,-0.000198756,-0.000334845,0.000255915,-0.000167765,0,0,0,0,0,0,0,0.0494498,-10.3162,1.03491,20.7456,-0.803511,-0.57932,-0.271719,0.0606807,-1.19103,0.826334,2.23615,-0.245375,-0.573521,-0.307651
2147910,0.98,-1.57095,-0.522744,-0.000659937,-2.09576,-1.57078,1.57154,0.785823,-1.5708,-0.523599,-4.34675e-08,-2.09439,-1.5708,1.5708,0.785399,-0.000233574,-0.000254837,-0.000539901,-0.000689316,-0.00022323,0.00017061,-0.000111843,0,0,0,0,0,0,0,0.0732535,-10.3162,1.03491,20.7694,-0.803511,-0.57932,-0.271719,0.0615167,-1.1908,0.827534,2.23572,-0.245383,-0.573398,-0.307994
2147911,0.98,-1.57095,-0.522744,-0.000652993,-2.09576,-1.57078,1.57154,0.785826,-1.5708,-0.523599,-4.34675e-08,-2.09439,-1.5708,1.5708,0.785399,0.000401096,-0.000169891,0.0014033,0.00065408,0.000258081,-0.000123619,0.000162797,0,0,0,0,0,0,0,0.0494498,-10.3162,0.959536,20.7218,-0.814497,-0.572911,-0.278127,0.0620934,-1.19032,0.828369,2.2352,-0.245391,-0.573315,-0.308335
2147912,0.98,-1.57096,-0.522746,-0.000656243,-2.09576,-1.57078,1.57154,0.785822,-1.5708,-0.523599,-4.34675e-08,-2.09439,-1.5708,1.5708,0.785399,-0.00149584,-0.000670073,0.000378724,-0.000677571,0.000172054,0.000154946,-0.000366187,0,0,0,0,0,0,0,0.124828,-10.2924,0.98334,20.7694,-0.814497,-0.57932,-0.26531,0.0619326,-1.18927,0.82793,2.23428,-0.245404,-0.573347,-0.308673
2147913,0.98,-1.57095,-0.522742,-0.000656769,-2.09576,-1.57078,1.57154,0.785821,-1.5708,-0.523599,-4.34675e-08,-2.09439,-1.5708,1.5708,0.785399,0.000209199,0.000666909,0.000252483,-0.00110133,-8.87478e-05,-0.000134061,-0.000244125,0,0,0,0,0,0,0,0.0732535,-10.34,0.98334,20.7972,-0.809004,-0.572911,-0.26531,0.0617867,-1.18882,0.827314,2.2339,-0.245439,-0.573394,-0.308999
2147914,0.98,-1.57095,-0.522742,-0.000656945,-2.09576,-1.57078,1.57154,0.785824,-1.5708,-0.523599,-4.34675e-08,-2.09439,-1.5708,1.5708,0.785399,0.000696278,0.000444606,0.000168322,0.00102902,-0.000466066,-0.000564092,-0.00016275,0,0,0,0,0,0,0,0.0494498,-10.34,0.98334,20.7218,-0.798018,-0.560094,-0.26531,0.0616392,-1.19021,0.82671,2.23447,-0.245509,-0.573471,-0.309302
2147915,0.98,-1.57095,-0.522742,-0.000657003,-2.09576,-1.57078,1.57154,0.78582,-1.5708,-0.523599,-4.34675e-08,-2.09439,-1.5708,1.5708,0.785399,0.000464185,0.000296404,0.000112214,-0.000427611,0.000537,0.000336015,-0.000583218,0,0,0,0,0,0,0,0.0494498,-10.34,0.98334,20.7694,-0.820906,-0.57932,-0.252493,0.0610771,-1.19234,0.825605,2.23498,-0.245575,-0.573618,-0.309578
2147916,0.98,-1.57095,-0.522744,-0.000658511,-2.09576,-1.57078,1.57154,0.785823,-1.5708,-0.523599,-4.34675e-08,-2.09439,-1.5708,1.5708,0.785399,-0.000247355,-0.000359209,-0.00113162,-0.000934688,-8.28097e-05,0.000461369,0.000797983,0,0,0,0,0,0,0,0.0732535,-10.3162,1.03491,20.7972,-0.809004,-0.585729,-0.284536,0.0608338,-1.19431,0.825049,2.23548,-0.24562,-0.573705,-0.309818
2147917,0.98,-1.57095,-0.52274,-0.000656319,-2.09575,-1.57078,1.57154,0.785819,-1.5708,-0.523599,-4.34675e-08,-2.09439,-1.5708,1.5708,0.785399,0.00094872,0.000966953,0.000452015,0.00234654,-0.000258657,7.02205e-05,-0.000892165,0,0,0,0,0,0,0,0.0256461,-10.3678,0.98334,20.6702,-0.803511,-0.57932,-0.246084,0.0611263,-1.19569,0.82536,2.2356,-0.245629,-0.573703,-0.310026
2147918,0.98,-1.57095,-0.522746,-0.000654664,-2.09576,-1.57078,1.57154,0.785819,-1.5708,-0.523599,-4.34675e-08,-2.09439,-1.5708,1.5708,0.785399,7.56684e-05,-0.0011186,0.000301343,-0.000755691,3.10125e-05,-0.000665263,-0.000594777,0,0,0,0,0,0,0,0.0494498,-10.2924,0.98334,20.7694,-0.809004,-0.560094,-0.246084,0.0610632,-1.19563,0.825165,2.23447,-0.245594,-0.573745,-0.310209
2147919,0.98,-1.57095,-0.522744,-0.000657732,-2.09577,-1.57078,1.57154,0.785819,-1.5708,-0.523599,-4.34675e-08,-2.09439,-1.5708,1.5708,0.785399,-0.000506366,-0.000188923,-0.00100553,-0.00226703,2.0675e-05,3.12091e-05,-0.000159159,0,0,0,0,0,0,0,0.0732535,-10.3162,1.03491,20.8448,-0.809004,-0.572911,-0.252493,0.0610947,-1.19477,0.825092,2.23352,-0.245565,-0.573748,-0.310348
2147920,0.98,-1.57096,-0.522744,-0.000654389,-2.09576,-1.57078,1.57155,0.785825,-1.5708,-0.523599,-4.34675e-08,-2.09439,-1.5708,1.5708,0.785399,-0.001544,-0.000125949,0.00109288,0.000251883,1.37834e-05,0.000732883,0.000605971,0,0,0,0,0,0,0,0.124828,-10.3162,0.959536,20.7694,-0.809004,-0.592137,-0.271719,0.0619887,-1.19452,0.826203,2.23391,-0.245564,-0.573611,-0.310421
2147921,0.98,-1.57095,-0.522744,-0.000656708,-2.09576,-1.57078,1.57154,0.78582,-1.5708,-0.523597,-2.54347e-06,-2.09439,-1.5708,1.5708,0.785399,0.00017709,-8.39658e-05,0.000171778,-0.000481692,9.1889e-06,-0.000460847,-0.000308096,-0.00327632,0.00177864,-0.0025,0.00165757,-0.00155807,0.005,0.000207453,0.0732535,-10.3162,0.98334,20.7972,-0.809004,-0.566503,-0.252493,0.0629508,-1.19452,0.827209,2.23447,-0.245564,-0.573477,-0.310441
2147922,0.98,-1.57095,-0.522744,-0.000658873,-2.09576,-1.57078,1.57154,0.785822,-1.57081,-0.523593,-7.54347e-06,-2.09439,-1.5708,1.57081,0.785399,0.00011806,-5.59772e-05,-0.000535096,-0.000321128,6.12593e-06,-6.98725e-05,0.000506679,-0.00655263,0.00355727,-0.005,0.00331513,-0.00311614,0.01,0.000414907,0.0732535,-10.3162,1.01111,20.7972,-0.809004,-0.572911,-0.271719,0.0635766,-1.19439,0.827657,2.23478,-0.245558,-0.573409,-0.310429
2147923,0.98,-1.57095,-0.522744,-0.000658945,-2.09576,-1.57078,1.57154,0.785823,-1.57082,-0.523588,-1.50435e-05,-2.09439,-1.57081,1.57083,0.7854,0.00119233,-3.73181e-05,-0.00035673,-0.000214085,4.08396e-06,-0.000283941,0.000812504,-0.00982895,0.00533591,-0.0075,0.0049727,-0.00467421,0.015,0.00062236,0.0256461,-10.3162,1.01111,20.7972,-0.809004,-0.566503,-0.284536,0.0640188,-1.1944,0.827997,2.23514,-0.245549,-0.573371,-0.310399
2147924,0.98,-1.57095,-0.522745,-0.000659042,-2.09576,-1.57078,1.57154,0.785823,-1.57083,-0.523581,-2.50435e-05,-2.09438,-1.57081,1.57085,0.785401,-0.0023422,-0.00178812,0.000162897,0.00612656,-0.00892458,0.000285424,-0.000645125,-0.0131053,0.00711455,-0.01,0.00663027,-0.00623228,0.02,0.000829814,0.0256461,-10.2408,0.860354,20.7972,-0.820906,-0.57932,-0.252493,0.0646763,-1.19093,0.828599,2.23261,-0.245386,-0.573282,-0.31038
2147925,0.98,-1.57095,-0.522747,-0.00065402,-2.09576,-1.57078,1.57154,0.785825,-1.57085,-0.523572,-3.75435e-05,-2.09437,-1.57082,1.57087,0.785402,-0.000759244,0.000165258,0.00105793,0.00284358,-0.00571315,-0.000284435,4.46344e-05,-0.0163816,0.00889318,-0.0125,0.00828783,-0.00779035,0.025,0.00103727,-0.279835,-10.0385,0.404117,20.8725,-0.848372,-0.566503,-0.26531,0.0658888,-1.18131,0.829585,2.22484,-0.24494,-0.573082,-0.310389
2147926,0.98,-1.57095,-0.522748,-0.000666119,-2.09576,-1.57078,1.57154,0.785825,-1.57087,-0.523561,-5.25435e-05,-2.09436,-1.57083,1.5709,0.785403,0.00195999,0.000413676,-0.00394151,0.00349397,-0.00334311,-0.000664341,2.97562e-05,-0.0196579,0.0106718,-0.015,0.0099454,-0.00934842,0.03,0.00124472,-0.680531,-9.76077,0.0232571,20.821,-0.876753,-0.553685,-0.26531,0.0673341,-1.17053,0.830946,2.2155,-0.244409,-0.572812,-0.31041
2147927,0.98,-1.57095,-0.522743,-0.000675843,-2.09576,-1.57078,1.57154,0.785826,-1.57089,-0.523549,-7.00435e-05,-2.09435,-1.57084,1.57094,0.785405,0.00148292,0.00262302,-0.00755191,0.00141676,-0.00182016,-0.000205535,0.000257196,-0.0229342,0.0124505,-0.0175,0.011603,-0.0109065,0.035,0.00145217,-1.13677,-9.55844,-0.508359,20.8725,-0.899641,-0.560094,-0.271719,0.0701235,-1.16444,0.835337,2.2092,-0.244008,-0.572227,-0.310427
2147928,0.98,-1.57095,-0.522729,-0.000693592,-2.09576,-1.57078,1.57155,0.785823,-1.57091,-0.523535,-9.00435e-05,-2.09434,-1.57085,1.57098,0.785406,0.00134377,0.0074709,-0.00957636,0.00181453,-0.00174624,-0.00064565,-0.00104924,-0.0262105,0.0142291,-0.02,0.0132605,-0.0124646,0.04,0.00165963,-1.48986,-9.48306,-0.964597,20.8448,-0.894148,-0.546361,-0.23876,0.0755762,-1.16875,0.845306,2.20946,-0.243877,-0.571041,-0.310426
2147929,0.98,-1.57096,-0.522721,-0.000717541,-2.09576,-1.57079,1.57155,0.785818,-1.57094,-0.523519,-0.000112543,-2.09432,-1.57087,1.57102,0.785408,-0.00128891,0.00657595,-0.0130533,0.0019318,-0.00205543,-0.000430433,-0.00117421,-0.0294868,0.0160077,-0.0225,0.0149181,-0.0140226,0.045,0.00186708,-1.86675,-9.35611,-1.34546,20.821,-0.876753,-0.546361,-0.225942,0.0838027,-1.18589,0.861059,2.2175,-0.244076,-0.569118,-0.310387
2147930,0.98,-1.57097,-0.522704,-0.000741614,-2.09575,-1.57078,1.57155,0.785821,-1.57098,-0.523501,-0.000137543,-2.0943,-1.57088,1.57107,0.78541,-0.00152718,0.0112819,-0.0162858,0.00196866,-0.00111474,0.000696389,0.000437896,-0.0327632,0.0177864,-0.025,0.0165757,-0.0155807,0.05,0.00207453,-2.19603,-9.32834,-1.69854,20.7972,-0.888655,-0.572911,-0.258901,0.0948163,-1.21299,0.882534,2.23172,-0.244525,-0.566283,-0.310281
2147931,0.98,-1.57098,-0.522697,-0.000760997,-2.09575,-1.57078,1.57156,0.785823,-1.57102,-0.52348,-0.000167543,-2.09428,-1.5709,1.57113,0.785413,-0.00473951,0.0111051,-0.0148929,0.00356935,-0.005276,0.00188841,0.000291931,-0.0384892,0.0208342,-0.03,0.0194205,-0.0182686,0.06,0.0023951,-2.52532,-9.15378,-2.0794,20.8448,-0.894148,-0.611364,-0.258901,0.106857,-1.24759,0.907029,2.2505,-0.245158,-0.562689,-0.310087
2147932,0.98,-1.57099,-0.522691,-0.000781417,-2.09575,-1.57078,1.57157,0.785827,-1.57106,-0.523456,-0.000202543,-2.09426,-1.57092,1.5712,0.785415,-0.00592949,0.00798324,-0.0144352,0.00452751,-0.00295349,0.0052383,0.00114406,-0.0442153,0.023882,-0.035,0.0222653,-0.0209564,0.07,0.00271567,-2.77526,-8.97525,-2.43249,20.8963,-0.922529,-0.592137,-0.284536,0.11626,-1.28145,0.928585,2.26937,-0.245871,-0.558786,-0.309838
2147933,0.98,-1.57101,-0.522686,-0.000804231,-2.09574,-1.57078,1.57157,0.785828,-1.57111,-0.523429,-0.000242543,-2.09424,-1.57095,1.57128,0.785418,-0.00794719,0.00779473,-0.0164799,0.00657348,-0.00107987,0.00566666,0.000762704,-0.0499414,0.0269298,-0.04,0.0251101,-0.0236443,0.08,0.00303624,-2.97759,-8.74911,-2.6864,20.8963,-0.956404,-0.514318,-0.284536,0.120554,-1.30357,0.943147,2.28306,-0.246544,-0.554822,-0.309606
2147934,0.98,-1.57104,-0.522677,-0.000829216,-2.09574,-1.57078,1.57157,0.785832,-1.57116,-0.523399,-0.000287543,-2.09421,-1.57097,1.57137,0.785422,-0.016614,0.00467182,-0.0217002,0.00597998,-0.00338709,0.000662057,0.00193262,-0.0556675,0.0299776,-0.045,0.0279549,-0.0263321,0.09,0.0033568,-3.12835,-8.52298,-3.03949,20.9955,-1.01866,-0.411779,-0.322988,0.122565,-1.30862,0.954651,2.28945,-0.247066,-0.550216,-0.309444
2147935,0.98,-1.57107,-0.522669,-0.000858988,-2.09573,-1.57078,1.57158,0.785833,-1.57123,-0.523366,-0.000337543,-2.09418,-1.571,1.57147,0.785425,-0.0225629,0.00661386,-0.0227281,0.00666628,-0.000990254,0.00371524,0.00152577,-0.0613936,0.0330254,-0.05,0.0307997,-0.02902,0.1,0.00367737,-3.42986,-8.2175,-3.51953,21.0431,-1.06901,-0.359594,-0.329397,0.127731,-1.2968,0.970526,2.28957,-0.247401,-0.54398,-0.309388
2147936,0.98,-1.57109,-0.522643,-0.000906678,-2.09573,-1.57078,1.57159,0.785832,-1.57129,-0.52333,-0.000392543,-2.09414,-1.57103,1.57158,0.785429,-0.0203159,0.0127529,-0.029202,0.00556806,0.000587384,0.00510967,0.000779824,-0.0671197,0.0360732,-0.055,0.0336445,-0.0317078,0.11,0.00399794,-4.01305,-8.09055,-3.90039,21.1701,-1.11479,-0.282689,-0.322988,0.136461,-1.27844,0.991669,2.28893,-0.247833,-0.536009,-0.309466
2147937,0.98,-1.57113,-0.52262,-0.000950212,-2.09571,-1.57079,1.57161,0.785828,-1.57137,-0.523291,-0.000452543,-2.09411,-1.57107,1.5717,0.785434,-0.0254257,0.0121279,-0.0323067,0.00880691,0.0013103,0.0128354,-0.000666912,-0.0728458,0.039121,-0.06,0.0364894,-0.0343957,0.12,0.0043185,-4.46532,-7.88821,-4.48358,21.1185,-1.14866,-0.257054,-0.290945,0.145927,-1.26401,1.01518,2.29231,-0.248683,-0.526696,-0.309702
2147938,0.98,-1.57117,-0.522585,-0.000995424,-2.0957,-1.5708,1.57164,0.785827,-1.57144,-0.523249,-0.000517543,-2.09407,-1.5711,1.57183,0.785438,-0.0345333,0.0178551,-0.0347253,0.00983122,-2.26525e-05,0.0227109,-0.000919326,-0.0785718,0.0421688,-0.065,0.0393342,-0.0370835,0.13,0.00463907,-4.84221,-7.81284,-5.09057,21.1185,-1.13127,-0.218602,-0.278127,0.155188,-1.25486,1.03996,2.29957,-0.25001,-0.516116,-0.310091
2147939,0.98,-1.57123,-0.522554,-0.001054,-2.09568,-1.57081,1.57167,0.785826,-1.57153,-0.523204,-0.000587543,-2.09403,-1.57114,1.57197,0.785443,-0.0387766,0.0195937,-0.0408589,0.00900529,-0.000610947,0.0296061,-0.0010876,-0.0842979,0.0452167,-0.07,0.042179,-0.0397714,0.14,0.00495964,-5.1953,-7.63828,-5.52301,21.1939,-1.12028,-0.166417,-0.26531,0.164778,-1.2531,1.06653,2.31154,-0.251828,-0.504164,-0.310573
2147940,0.98,-1.57129,-0.522526,-0.00110915,-2.09567,-1.57082,1.57173,0.785817,-1.57162,-0.523155,-0.000662543,-2.09398,-1.57119,1.57212,0.785449,-0.0438233,0.0196818,-0.0445264,0.0127353,-0.000549006,0.0385292,-0.00360728,-0.090024,0.0482645,-0.075,0.0450238,-0.0424592,0.15,0.0052802,-5.59996,-7.40817,-5.97925,21.2177,-1.12028,-0.212194,-0.18749,0.174453,-1.25718,1.0947,2.32777,-0.254074,-0.490758,-0.311083
2147941,0.98,-1.57135,-0.522497,-0.00116037,-2.09565,-1.57083,1.5718,0.785813,-1.57172,-0.523103,-0.000745043,-2.09393,-1.57123,1.57229,0.785454,-0.0523226,0.0229807,-0.0494902,0.0137676,-0.0039165,0.0506835,-0.00359165,-0.0975663,0.0521734,-0.0825,0.04868,-0.046191,0.164879,0.0056568,-5.8023,-7.18204,-6.48309,21.3169,-1.15416,-0.289098,-0.155447,0.183424,-1.26102,1.12325,2.34489,-0.256543,-0.475922,-0.311548
2147942,0.98,-1.57142,-0.522472,-0.00122411,-2.09563,-1.57084,1.57188,0.785811,-1.57182,-0.523047,-0.000835043,-2.09388,-1.57128,1.57247,0.78546,-0.0588074,0.0238559,-0.0535763,0.0162559,-0.00711657,0.0586723,-0.00314042,-0.105109,0.0560822,-0.09,0.0523363,-0.0499227,0.179759,0.0060334,-5.98082,-6.87656,-6.83618,21.3446,-1.17155,-0.340367,-0.135305,0.191663,-1.26239,1.15177,2.36151,-0.25908,-0.459767,-0.311838
2147943,0.98,-1.5715,-0.522445,-0.00129137,-2.09562,-1.57085,1.57196,0.78581,-1.57193,-0.522987,-0.000932543,-2.09382,-1.57134,1.57266,0.785467,-0.0636508,0.0213975,-0.0550568,0.017886,-0.00848828,0.0665338,-0.00256833,-0.112651,0.0599911,-0.0975,0.0559925,-0.0536545,0.194638,0.00641,-6.15538,-6.57504,-7.11786,21.5152,-1.21641,-0.321141,-0.122488,0.197659,-1.25624,1.17744,2.37556,-0.261619,-0.442678,-0.311834
2147944,0.98,-1.57159,-0.52241,-0.00135423,-2.09559,-1.57086,1.57206,0.785811,-1.57205,-0.522923,-0.00103754,-2.09376,-1.57139,1.57287,0.785474,-0.0729876,0.0285913,-0.0586951,0.0190323,-0.00963294,0.0794912,-0.0012375,-0.120193,0.0639,-0.105,0.0596487,-0.0573862,0.209518,0.0067866,-6.20696,-6.37271,-7.54632,21.5668,-1.26127,-0.250646,-0.135305,0.199088,-1.24056,1.1962,2.38666,-0.264241,-0.425239,-0.311458
2147945,0.98,-1.57169,-0.52237,-0.00143156,-2.09556,-1.57087,1.57217,0.78581,-1.57218,-0.522855,-0.00115004,-2.0937,-1.57145,1.57309,0.785481,-0.0808716,0.0294341,-0.0673967,0.022902,-0.00983124,0.0949155,-0.00129972,-0.127735,0.0678089,-0.1125,0.0633049,-0.061118,0.224397,0.00716319,-6.33391,-6.1188,-7.97876,21.6144,-1.32902,-0.179235,-0.122488,0.197433,-1.22156,1.20983,2.39786,-0.267057,-0.407563,-0.310666
2147946,0.98,-1.57178,-0.522321,-0.00152214,-2.09554,-1.57089,1.57231,0.785813,-1.57232,-0.522784,-0.00127004,-2.09363,-1.57152,1.57333,0.785488,-0.0815263,0.035146,-0.0780051,0.0239628,-0.014199,0.108145,0.000354223,-0.135278,0.0717178,-0.12,0.0669611,-0.0648497,0.239277,0.00753979,-6.687,-5.94424,-8.38342,21.7414,-1.40867,-0.1536,-0.155447,0.195964,-1.20333,1.22354,2.4109,-0.270081,-0.389339,-0.309471
2147947,0.98,-1.57188,-0.522267,-0.00162122,-2.09549,-1.57091,1.57246,0.785813,-1.57246,-0.522708,-0.00139754,-2.09356,-1.57159,1.57359,0.785496,-0.0885185,0.0408306,-0.0854192,0.0322476,-0.0185758,0.126365,-1.20997e-06,-0.14282,0.0756267,-0.1275,0.0706174,-0.0685815,0.254156,0.00791639,-7.04009,-5.84109,-8.81189,21.6898,-1.46544,-0.218602,-0.149038,0.195488,-1.18894,1.23924,2.42626,-0.273359,-0.370498,-0.307917
2147948,0.98,-1.572,-0.52221,-0.00171346,-2.09545,-1.57094,1.57264,0.78581,-1.57261,-0.522629,-0.00153254,-2.09349,-1.57166,1.57386,0.785504,-0.10161,0.0437696,-0.0861781,0.0331669,-0.023264,0.144999,-0.000746792,-0.150362,0.0795356,-0.135,0.0742736,-0.0723132,0.269036,0.00829299,-7.21465,-5.69034,-9.44665,21.7176,-1.48192,-0.308324,-0.128897,0.195148,-1.17957,1.25496,2.44324,-0.276992,-0.351263,-0.306076
2147949,0.98,-1.57213,-0.522152,-0.00182821,-2.09541,-1.57098,1.57284,0.785812,-1.57277,-0.522545,-0.00167504,-2.09341,-1.57174,1.57414,0.785513,-0.110024,0.0493347,-0.0931686,0.0327996,-0.0266031,0.161835,-2.31434e-05,-0.157904,0.0834445,-0.1425,0.0779298,-0.076045,0.283915,0.00866959,-7.44078,-5.56339,-9.82751,21.789,-1.49382,-0.346776,-0.141714,0.194122,-1.17576,1.26785,2.46329,-0.281196,-0.331918,-0.303996
2147950,0.98,-1.57226,-0.522088,-0.00195072,-2.09537,-1.57102,1.57305,0.78581,-1.57293,-0.522458,-0.00182504,-2.09333,-1.57182,1.57444,0.785522,-0.116724,0.0544576,-0.0984074,0.0359898,-0.0345769,0.179668,-0.000490147,-0.165447,0.0873534,-0.15,0.081586,-0.0797767,0.298794,0.00904619,-7.77007,-5.4642,-10.1806,21.8405,-1.48741,-0.398961,-0.128897,0.191651,-1.18084,1.27626,2.48976,-0.286177,-0.312783,-0.301698
2147951,0.98,-1.5724,-0.522032,-0.00206516,-2.09531,-1.57107,1.57329,0.78581,-1.57311,-0.522366,-0.00198503,-2.09324,-1.5719,1.57476,0.785532,-0.122684,0.0540119,-0.101448,0.0441718,-0.0407877,0.194212,-0.000564123,-0.174037,0.0917964,-0.15999,0.0857532,-0.0842096,0.31596,0.00944466,-7.9486,-5.18649,-10.5853,21.789,-1.47093,-0.495092,-0.122488,0.185368,-1.18938,1.27674,2.51917,-0.29183,-0.294311,-0.299229
2147952,0.98,-1.57255,-0.521967,-0.00217496,-2.09527,-1.57112,1.57355,0.785809,-1.57329,-0.52227,-0.00215501,-2.09315,-1.57199,1.57509,0.785541,-0.131139,0.0569018,-0.1018,0.0423306,-0.0446714,0.212943,-0.000613441,-0.182627,0.0962395,-0.16998,0.0899203,-0.0886425,0.333126,0.00984314,-8.09935,-5.03177,-11.0653,21.9397,-1.47642,-0.539952,-0.116079,0.171349,-1.19057,1.26315,2.54552,-0.297977,-0.277119,-0.29665
2147953,0.98,-1.5727,-0.521901,-0.00230298,-2.09522,-1.57117,1.57381,0.785803,-1.57348,-0.522169,-0.00233498,-2.09306,-1.57208,1.57544,0.785552,-0.137444,0.0616367,-0.110545,0.0457483,-0.0463934,0.231892,-0.00230783,-0.191218,0.100682,-0.17997,0.0940874,-0.0930753,0.350292,0.0102416,-8.22234,-4.88101,-11.3192,22.0151,-1.5103,-0.463048,-0.0648096,0.148088,-1.18414,1.23319,2.57012,-0.304639,-0.261613,-0.293974
2147954,0.98,-1.57286,-0.521828,-0.00242656,-2.09516,-1.57122,1.5741,0.7858,-1.57368,-0.522064,-0.00252494,-2.09296,-1.57218,1.57581,0.785562,-0.143413,0.064403,-0.11793,0.0500761,-0.051402,0.25169,-0.00275926,-0.199808,0.105126,-0.18996,0.0982545,-0.0975082,0.367458,0.0106401,-8.42467,-4.80563,-11.7993,22.0389,-1.57255,-0.392553,-0.0318506,0.118009,-1.17368,1.19102,2.59517,-0.31174,-0.247599,-0.291189
2147955,0.98,-1.57304,-0.521753,-0.00256376,-2.0951,-1.57128,1.5744,0.7858,-1.57389,-0.521954,-0.00272489,-2.09286,-1.57228,1.57619,0.785573,-0.153805,0.0646902,-0.1271,0.0510901,-0.0559356,0.268496,-0.00160215,-0.208399,0.109569,-0.19995,0.102422,-0.101941,0.384623,0.0110386,-8.627,-4.67868,-12.3824,22.1381,-1.62382,-0.373326,-0.0382593,0.0853044,-1.15652,1.14314,2.61921,-0.319061,-0.234368,-0.288252
2147956,0.98,-1.5732,-0.521668,-0.00272534,-2.09502,-1.57135,1.57474,0.785803,-1.57411,-0.52184,-0.00293483,-2.09275,-1.57239,1.57659,0.785585,-0.151766,0.0723195,-0.137757,0.0558351,-0.0589705,0.286907,-8.47534e-05,-0.216989,0.114012,-0.20994,0.106589,-0.106374,0.401789,0.0114371,-9.13085,-4.6033,-12.8387,22.0627,-1.67967,-0.40537,-0.0648096,0.0524555,-1.13246,1.09358,2.64236,-0.326565,-0.221338,-0.285108
2147957,0.98,-1.57338,-0.521575,-0.00288846,-2.09495,-1.57142,1.57509,0.785806,-1.57433,-0.521722,-0.00315476,-2.09264,-1.5725,1.57701,0.785597,-0.161004,0.0799645,-0.147479,0.0607214,-0.0622482,0.30717,0.000892933,-0.22558,0.118455,-0.21993,0.110756,-0.110807,0.418955,0.0118355,-9.61089,-4.6033,-13.3465,22.0627,-1.71355,-0.469457,-0.0904444,0.0191514,-1.10973,1.04294,2.66734,-0.334412,-0.208448,-0.281739
2147958,0.98,-1.57358,-0.521475,-0.00304744,-2.09488,-1.5715,1.57547,0.785803,-1.57457,-0.521599,-0.00338468,-2.09253,-1.57261,1.57745,0.785609,-0.171723,0.0825104,-0.15046,0.067556,-0.0704512,0.328115,-0.00157485,-0.23417,0.122898,-0.22992,0.114923,-0.11524,0.436121,0.012234,-9.94017,-4.6033,-14.0289,22.0627,-1.71995,-0.566503,-0.0318506,-0.014927,-1.09232,0.990617,2.69409,-0.34266,-0.195728,-0.278192
2147959,0.98,-1.57379,-0.521373,-0.00322926,-2.0948,-1.57158,1.57587,0.785807,-1.57481,-0.521472,-0.00362459,-2.09241,-1.57273,1.5779,0.785622,-0.185401,0.0900022,-0.158736,0.0709964,-0.0717734,0.349594,-6.65558e-05,-0.242761,0.127341,-0.23991,0.11909,-0.119673,0.453287,0.0126325,-10.1663,-4.5795,-14.4851,22.1381,-1.72545,-0.701085,-0.0584009,-0.0492456,-1.07761,0.93611,2.72034,-0.351256,-0.183121,-0.274521
2147960,0.98,-1.57399,-0.521266,-0.00341765,-2.09471,-1.57167,1.57628,0.785806,-1.57506,-0.52134,-0.00387449,-2.09229,-1.57286,1.57837,0.785635,-0.18802,0.0955321,-0.164622,0.0761365,-0.082441,0.367308,-0.000315638,-0.251351,0.131784,-0.2499,0.123257,-0.124105,0.470453,0.013031,-10.5432,-4.55173,-14.9413,22.0905,-1.71995,-0.75327,-0.0510767,-0.0844233,-1.06712,0.878158,2.74684,-0.360236,-0.170851,-0.270734
2147961,0.98,-1.5742,-0.521162,-0.00360593,-2.09461,-1.57177,1.57672,0.785806,-1.57532,-0.521203,-0.00413438,-2.09216,-1.57299,1.57886,0.785648,-0.200196,0.0963725,-0.169693,0.0818019,-0.0862356,0.385259,-0.000447784,-0.260345,0.136498,-0.25989,0.127696,-0.128867,0.488346,0.0134316,-10.8487,-4.42477,-15.3698,22.1143,-1.69707,-0.830175,-0.044668,-0.123141,-1.05843,0.813057,2.77255,-0.369574,-0.159425,-0.266852
2147962,0.98,-1.57443,-0.521053,-0.00379158,-2.09452,-1.57187,1.57717,0.785804,-1.57559,-0.521062,-0.00440426,-2.09203,-1.57312,1.57937,0.785662,-0.208828,0.0992519,-0.176099,0.0864664,-0.0886267,0.41708,-0.000773241,-0.269339,0.141213,-0.26988,0.132134,-0.133629,0.50624,0.0138322,-11.0986,-4.3494,-15.826,22.1143,-1.68608,-0.817357,-0.0318506,-0.167051,-1.04254,0.738153,2.79342,-0.37909,-0.149186,-0.262928
2147963,0.98,-1.57466,-0.520933,-0.00399655,-2.09441,-1.57198,1.57764,0.785804,-1.57587,-0.520916,-0.00468413,-2.09189,-1.57326,1.57989,0.785676,-0.21145,0.105356,-0.186219,0.0894723,-0.0941904,0.433627,-0.000515494,-0.278332,0.145928,-0.27987,0.136573,-0.138391,0.524134,0.0142328,-11.3763,-4.32559,-16.1553,22.1381,-1.70256,-0.778905,-0.0318506,-0.216886,-1.01815,0.65302,2.80959,-0.388692,-0.140386,-0.258988
2147964,0.98,-1.57489,-0.520815,-0.00421391,-2.0943,-1.57209,1.57814,0.785805,-1.57616,-0.520766,-0.00497399,-2.09175,-1.5734,1.58043,0.785691,-0.219648,0.111047,-0.197044,0.0940025,-0.0974814,0.450573,0.00455213,-0.287326,0.150642,-0.28986,0.141011,-0.143153,0.542028,0.0146334,-11.5271,-4.19864,-16.3577,22.0627,-1.74193,-0.740453,-0.0382593,-0.27221,-0.991945,0.55985,2.82501,-0.398398,-0.13292,-0.255018
2147965,0.98,-1.57514,-0.520684,-0.00443139,-2.09419,-1.57219,1.57865,0.78581,-1.57645,-0.52061,-0.00527384,-2.0916,-1.57355,1.58099,0.785706,-0.232834,0.117491,-0.203065,0.0992118,-0.100331,0.466828,0.00389767,-0.296319,0.155357,-0.29985,0.14545,-0.147915,0.559922,0.015034,-11.6064,-4.17484,-16.6354,22.0389,-1.7758,-0.772496,-0.0510767,-0.329841,-0.969044,0.463635,2.84211,-0.40819,-0.126105,-0.25101
2147966,0.98,-1.5754,-0.52055,-0.00466663,-2.09407,-1.5723,1.5792,0.78581,-1.57676,-0.52045,-0.00558368,-2.09145,-1.5737,1.58157,0.785721,-0.240625,0.12158,-0.212055,0.106312,-0.101616,0.490007,0.00265224,-0.305313,0.160072,-0.30984,0.149888,-0.152677,0.577815,0.0154346,-11.654,-4.12326,-16.8377,22.0151,-1.82707,-0.862218,-0.044668,-0.38756,-0.949388,0.366901,2.86005,-0.418021,-0.119452,-0.246987
2147967,0.99,-1.57566,-0.520404,-0.00490658,-2.09394,-1.57242,1.57977,0.785816,-1.57707,-0.520285,-0.00590351,-2.0913,-1.57386,1.58217,0.785737,-0.248005,0.127746,-0.224189,0.113107,-0.107486,0.510447,0.00836969,-0.314307,0.164786,-0.31983,0.154327,-0.157439,0.595709,0.0158352,-11.7572,-4.12326,-16.9409,21.9159,-1.86094,-0.907079,-0.0904444,-0.444714,-0.930069,0.27057,2.87626,-0.427824,-0.112843,-0.242997
2147968,1,-1.57593,-0.520256,-0.0051469,-2.09381,-1.57255,1.58035,0.78582,-1.5774,-0.520116,-0.00623333,-2.09114,-1.57402,1.58278,0.785753,-0.257642,0.131835,-0.227449,0.121322,-0.113114,0.534015,0.00637157,-0.3233,0.169501,-0.32982,0.158765,-0.162201,0.613603,0.0162358,-11.8048,-4.17484,-17.1194,21.8167,-1.88383,-0.919896,-0.0968531,-0.501896,-0.908354,0.173878,2.88825,-0.437574,-0.10649,-0.239096
2147969,1,-1.57622,-0.520103,-0.00539427,-2.09367,-1.57267,1.58096,0.785827,-1.57773,-0.519942,-0.00657314,-2.09098,-1.57419,1.58341,0.78577,-0.267193,0.136573,-0.240381,0.12499,-0.122856,0.556,0.00585032,-0.332294,0.174216,-0.33981,0.163204,-0.166963,0.631497,0.0166364,-11.7572,-4.17484,-17.3455,21.8167,-1.88383,-0.946447,-0.128897,-0.559915,-0.882374,0.075242,2.89492,-0.4473,-0.100674,-0.235342
2147970,1,-1.5765,-0.519948,-0.00566468,-2.09352,-1.57281,1.58158,0.785825,-1.57807,-0.519763,-0.00692294,-2.09081,-1.57436,1.58406,0.785787,-0.272736,0.140905,-0.248284,0.129683,-0.130501,0.574276,0.00183849,-0.341287,0.17893,-0.3498,0.167642,-0.171725,0.649391,0.0170371,-11.8802,-4.19864,-17.4447,21.7414,-1.87193,-0.991307,-0.0648096,-0.617877,-0.852663,-0.0240163,2.89769,-0.457048,-0.0953486,-0.231785
2147971,1,-1.57679,-0.519792,-0.00594544,-2.09338,-1.57296,1.58223,0.785827,-1.57842,-0.519579,-0.00728273,-2.09064,-1.57454,1.58473,0.785804,-0.279154,0.144518,-0.2541,0.134024,-0.136376,0.593426,0.000476208,-0.350129,0.183705,-0.35979,0.172163,-0.176586,0.667099,0.0174296,-12.0587,-4.14706,-17.524,21.7652,-1.84996,-1.04899,-0.0382593,-0.677309,-0.820124,-0.126054,2.89826,-0.466931,-0.0907566,-0.228443
2147972,1,-1.5771,-0.519627,-0.00623207,-2.09323,-1.57312,1.58289,0.785835,-1.57878,-0.51939,-0.00765251,-2.09046,-1.57472,1.58541,0.785822,-0.289581,0.148492,-0.264558,0.140534,-0.141746,0.610855,0.0017136,-0.358972,0.188479,-0.36978,0.176684,-0.181447,0.684808,0.017822,-12.0071,-4.09946,-17.6232,21.789,-1.80418,-1.06821,-0.0712183,-0.739749,-0.783543,-0.233373,2.89637,-0.476978,-0.0871308,-0.225275
2147973,1,-1.57741,-0.519457,-0.00652193,-2.09307,-1.57328,1.58355,0.785838,-1.57915,-0.519197,-0.00803228,-2.09028,-1.5749,1.58611,0.78584,-0.297863,0.155772,-0.269751,0.145275,-0.145151,0.624871,0.00174868,-0.367814,0.193253,-0.37977,0.181205,-0.186309,0.702516,0.0182145,-12.0587,-4.14706,-17.8018,21.8167,-1.77031,-0.991307,-0.0840357,-0.80368,-0.744179,-0.343956,2.89241,-0.487115,-0.0842696,-0.222215
2147974,1,-1.57773,-0.519288,-0.00683152,-2.09291,-1.57344,1.58424,0.785838,-1.57952,-0.518999,-0.00842204,-2.09009,-1.5751,1.58684,0.785859,-0.305429,0.159453,-0.281863,0.151177,-0.14521,0.643777,0.00468767,-0.376656,0.198027,-0.38976,0.185726,-0.19117,0.720225,0.018607,-12.1857,-4.09946,-17.8018,21.7652,-1.7932,-0.919896,-0.0510767,-0.868013,-0.705575,-0.456175,2.88805,-0.49729,-0.0820006,-0.219247
2147975,1,-1.57805,-0.519107,-0.00714294,-2.09274,-1.5736,1.58496,0.785841,-1.57991,-0.518796,-0.00882179,-2.0899,-1.57529,1.58757,0.785878,-0.310405,0.164789,-0.291138,0.157269,-0.14974,0.666513,0.00751811,-0.385498,0.202802,-0.39975,0.190247,-0.196031,0.737933,0.0189995,-12.3364,-4.14706,-17.9009,21.7652,-1.83256,-1.01694,-0.0318506,-0.932213,-0.667977,-0.568625,2.88339,-0.507379,-0.0801418,-0.216388
2147976,1,-1.5784,-0.518919,-0.00746933,-2.09256,-1.57376,1.5857,0.785841,-1.5803,-0.518589,-0.00923153,-2.08971,-1.57549,1.58833,0.785897,-0.32187,0.175046,-0.298276,0.159055,-0.152518,0.689101,0.00899738,-0.39434,0.207576,-0.40974,0.194767,-0.200892,0.755642,0.019392,-12.3126,-4.19864,-17.9803,21.7414,-1.89482,-1.15244,0.00660151,-0.996651,-0.635942,-0.681157,2.8809,-0.517399,-0.0787292,-0.213602
2147977,1,-1.57874,-0.518724,-0.00780777,-2.09237,-1.57394,1.58645,0.785848,-1.58071,-0.518376,-0.00965126,-2.08951,-1.5757,1.5891,0.785917,-0.328061,0.178467,-0.312932,0.168042,-0.155805,0.709471,0.0132684,-0.403182,0.21235,-0.41973,0.199288,-0.205754,0.77335,0.0197845,-12.388,-4.22244,-17.9525,21.666,-1.9232,-1.13962,-0.0382593,-1.06039,-0.615447,-0.792013,2.88362,-0.527449,-0.0777441,-0.210808
2147978,1,-1.5791,-0.518521,-0.00815597,-2.09218,-1.57412,1.58719,0.78586,-1.58112,-0.518159,-0.010081,-2.0893,-1.57591,1.58989,0.785937,-0.337217,0.184641,-0.320186,0.17464,-0.167242,0.7171,0.01661,-0.412024,0.217125,-0.42972,0.203809,-0.210615,0.791059,0.020177,-12.3602,-4.37717,-17.9287,21.5906,-1.96806,-1.04258,-0.0904444,-1.1209,-0.601745,-0.897294,2.88813,-0.537421,-0.076821,-0.207962
2147979,1,-1.57946,-0.518315,-0.0085086,-2.09199,-1.57432,1.58797,0.785862,-1.58154,-0.517937,-0.0105207,-2.0891,-1.57612,1.5907,0.785958,-0.348813,0.19177,-0.330093,0.181491,-0.177012,0.731687,0.0158127,-0.420866,0.221899,-0.43971,0.20833,-0.215476,0.808767,0.0205695,-12.3364,-4.45255,-17.9803,21.5668,-1.96806,-0.952855,-0.0584009,-1.17676,-0.590237,-0.995289,2.89105,-0.547248,-0.0756218,-0.205074
2147980,1,-1.57983,-0.518103,-0.0088796,-2.09179,-1.57452,1.58877,0.785866,-1.58197,-0.517711,-0.0109704,-2.08888,-1.57634,1.59153,0.785979,-0.353742,0.200479,-0.344625,0.185963,-0.185917,0.753171,0.0151508,-0.429708,0.226673,-0.4497,0.212851,-0.220337,0.826475,0.020962,-12.4634,-4.6033,-17.8771,21.5668,-1.9406,-0.965673,-0.0190333,-1.2268,-0.584518,-1.08421,2.89393,-0.55701,-0.073873,-0.202185
2147981,1,-1.58021,-0.517893,-0.00926394,-2.09159,-1.57472,1.5896,0.785861,-1.58241,-0.517479,-0.0114301,-2.08867,-1.57657,1.59237,0.786,-0.359966,0.202101,-0.356614,0.188661,-0.191704,0.776017,0.00669429,-0.437907,0.231335,-0.45969,0.217306,-0.225152,0.843502,0.0213431,-12.511,-4.5795,-17.8018,21.5906,-1.93419,-1.06821,0.110056,-1.27102,-0.586592,-1.16298,2.89898,-0.566774,-0.0714843,-0.199305
2147982,1,-1.5806,-0.517671,-0.0096543,-2.09139,-1.57492,1.59044,0.785875,-1.58285,-0.517243,-0.0118998,-2.08844,-1.5768,1.59323,0.786022,-0.372192,0.20716,-0.365237,0.194279,-0.196643,0.791512,0.0071555,-0.446106,0.235996,-0.46968,0.221761,-0.229968,0.860528,0.0217242,-12.3602,-4.67868,-17.774,21.6144,-1.90581,-1.03617,0.0651953,-1.3105,-0.591257,-1.23286,2.90538,-0.576521,-0.0684951,-0.196359
2147983,1,-1.58101,-0.517447,-0.0100501,-2.09117,-1.57513,1.59127,0.78588,-1.58331,-0.517003,-0.0123794,-2.08822,-1.57703,1.59411,0.786044,-0.38133,0.213672,-0.374165,0.199484,-0.199433,0.810519,0.00411952,-0.454305,0.240658,-0.47967,0.226216,-0.234783,0.877554,0.0221053,-12.261,-4.78183,-17.774,21.5906,-1.90031,-0.90067,0.103647,-1.34601,-0.595042,-1.29578,2.91177,-0.586228,-0.0649956,-0.19321
2147984,1,-1.58141,-0.517214,-0.0104707,-2.09095,-1.57534,1.59215,0.785895,-1.58377,-0.516757,-0.0128691,-2.08799,-1.57727,1.595,0.786067,-0.387531,0.218283,-0.385862,0.201638,-0.20699,0.827088,0.00853067,-0.462504,0.24532,-0.48966,0.230672,-0.239598,0.894581,0.0224863,-12.3364,-4.88101,-17.6986,21.6422,-1.87193,-0.933629,0.09083,-1.37874,-0.599827,-1.35388,2.91914,-0.595928,-0.0611595,-0.189768
2147985,1,-1.58182,-0.516973,-0.0109047,-2.09073,-1.57557,1.59306,0.785905,-1.58424,-0.516507,-0.0133687,-2.08775,-1.57752,1.59592,0.786089,-0.392379,0.226662,-0.399947,0.208628,-0.219077,0.851885,0.0110141,-0.470702,0.249981,-0.49965,0.235127,-0.244413,0.911607,0.0228674,-12.511,-5.03177,-17.524,21.6144,-1.88383,-1.08103,0.0972387,-1.4096,-0.608392,-1.40785,2.92893,-0.605575,-0.057084,-0.185997
2147986,1,-1.58225,-0.516724,-0.0113414,-2.0905,-1.57579,1.59397,0.785909,-1.58472,-0.516253,-0.0138784,-2.08751,-1.57777,1.59684,0.786113,-0.404664,0.234549,-0.408529,0.213639,-0.219517,0.868854,0.00666374,-0.478901,0.254643,-0.50964,0.239582,-0.249229,0.928633,0.0232485,-12.4634,-5.26187,-17.524,21.5668,-1.91771,-1.16526,0.143015,-1.43854,-0.624518,-1.45698,2.94185,-0.615067,-0.0528426,-0.181896
2147987,1,-1.58268,-0.516474,-0.0117825,-2.09027,-1.57602,1.5949,0.78593,-1.58521,-0.515994,-0.014398,-2.08727,-1.57802,1.59779,0.786136,-0.409945,0.236699,-0.427256,0.218647,-0.219307,0.883655,0.0124936,-0.4871,0.259305,-0.51963,0.244037,-0.254044,0.94566,0.0236296,-12.4872,-5.41263,-17.4725,21.6144,-1.96806,-1.10026,0.071604,-1.46356,-0.647427,-1.49819,2.95699,-0.624343,-0.0482309,-0.177489
2147988,1,-1.58312,-0.516219,-0.0122443,-2.09003,-1.57625,1.59583,0.785948,-1.5857,-0.51573,-0.0149276,-2.08702,-1.57828,1.59875,0.78616,-0.418869,0.242608,-0.441348,0.224615,-0.22451,0.902362,0.0116953,-0.495299,0.263966,-0.52962,0.248492,-0.258859,0.962686,0.0240107,-12.5387,-5.53958,-17.524,21.5668,-2.00834,-1.05539,0.00660151,-1.48129,-0.670596,-1.52608,2.97146,-0.633316,-0.042749,-0.17283
2147989,1,-1.58356,-0.515962,-0.0127333,-2.08979,-1.57648,1.59679,0.785961,-1.5862,-0.515461,-0.0154672,-2.08677,-1.57854,1.59973,0.786185,-0.422592,0.244304,-0.451165,0.226902,-0.228642,0.915195,0.0132679,-0.503497,0.268628,-0.53961,0.252947,-0.263674,0.979712,0.0243917,-12.7411,-5.61496,-17.4725,21.6144,-2.03673,-0.991307,0.00660151,-1.49238,-0.689311,-1.54142,2.98337,-0.642039,-0.0364414,-0.16804
2147990,1,-1.584,-0.515699,-0.0132104,-2.08955,-1.57674,1.59778,0.78598,-1.58672,-0.515188,-0.0160168,-2.08651,-1.57881,1.60073,0.786209,-0.429031,0.249889,-0.457304,0.228501,-0.233654,0.930733,0.0150543,-0.511696,0.27329,-0.5496,0.257402,-0.26849,0.996739,0.0247728,-12.9434,-5.66653,-17.4725,21.666,-2.01933,-0.965673,-0.00621587,-1.50328,-0.703092,-1.55398,2.99386,-0.650853,-0.0301233,-0.163272
2147991,1,-1.58446,-0.51543,-0.0137197,-2.0893,-1.57698,1.59878,0.78599,-1.58724,-0.51491,-0.0165764,-2.08625,-1.57909,1.60174,0.786235,-0.439657,0.256464,-0.470158,0.232984,-0.236368,0.95089,0.0142299,-0.518868,0.277698,-0.55959,0.261678,-0.273162,1.01281,0.0251453,-12.991,-5.69034,-17.3693,21.6898,-2.01933,-1.02976,0.038645,-1.51838,-0.71623,-1.57045,3.00589,-0.660062,-0.0243327,-0.158641
2147992,1,-1.58494,-0.515156,-0.0142355,-2.08905,-1.57723,1.59981,0.786009,-1.58776,-0.514628,-0.017146,-2.08598,-1.57936,1.60277,0.78626,-0.454512,0.260555,-0.485667,0.242978,-0.236036,0.970025,0.0156536,-0.52604,0.282106,-0.56958,0.265953,-0.277834,1.02888,0.0255178,-12.9156,-5.69034,-17.3217,21.666,-2.0706,-1.01053,0.0322363,-1.53342,-0.730175,-1.58473,3.01864,-0.669516,-0.0183927,-0.154211
2147993,1,-1.58542,-0.514874,-0.0147472,-2.08879,-1.57748,1.60084,0.786034,-1.58829,-0.514341,-0.0177256,-2.08571,-1.57965,1.60382,0.786286,-0.461123,0.270931,-0.492531,0.245042,-0.243777,1.01197,0.0219143,-0.533212,0.286514,-0.57957,0.270228,-0.282507,1.04495,0.0258902,-12.8641,-5.78952,-17.3217,21.666,-2.0587,-1.07462,0.00660151,-1.54499,-0.745611,-1.59185,3.03042,-0.679002,-0.011986,-0.149997
2147994,1,-1.58592,-0.514578,-0.0152813,-2.08853,-1.57774,1.60192,0.786055,-1.58884,-0.51405,-0.0183151,-2.08544,-1.57993,1.60488,0.786312,-0.465971,0.27927,-0.501991,0.248234,-0.249644,1.02753,0.0204032,-0.540384,0.290922,-0.58956,0.274503,-0.287179,1.06102,0.0262627,-12.8165,-5.96805,-17.2424,21.7176,-2.04222,-1.19089,0.0258276,-1.55875,-0.772157,-1.59956,3.04595,-0.688764,-0.00632498,-0.14597
2147995,1,-1.58641,-0.514289,-0.0158271,-2.08827,-1.57801,1.603,0.786082,-1.58938,-0.513755,-0.0189147,-2.08516,-1.58023,1.60595,0.786339,-0.477194,0.283063,-0.519357,0.25392,-0.259236,1.04117,0.0211598,-0.547556,0.29533,-0.59955,0.278778,-0.291852,1.07708,0.0266352,-12.8641,-6.0712,-17.167,21.6422,-2.00834,-1.26139,-0.00621587,-1.57636,-0.813276,-1.61,3.06775,-0.698892,-0.00173585,-0.142105
2147996,1,-1.5869,-0.513997,-0.0163907,-2.088,-1.57828,1.60408,0.786101,-1.58994,-0.513455,-0.0195242,-2.08488,-1.58052,1.60705,0.786366,-0.479248,0.283875,-0.531058,0.257134,-0.259203,1.05906,0.0235493,-0.554728,0.299738,-0.60954,0.283053,-0.296524,1.09315,0.0270076,-12.991,-6.19418,-17.0162,21.7176,-2.04222,-1.24857,0.038645,-1.59322,-0.857801,-1.61665,3.09093,-0.70907,0.00258816,-0.138416
2147997,1,-1.58742,-0.513696,-0.0169585,-2.08773,-1.57856,1.60518,0.786128,-1.5905,-0.513151,-0.0201438,-2.08459,-1.58082,1.60816,0.786393,-0.495941,0.283758,-0.53888,0.26101,-0.264612,1.06814,0.0234485,-0.5619,0.304146,-0.61953,0.287328,-0.301196,1.10922,0.0273801,-12.8403,-6.24576,-17.0162,21.7652,-2.04771,-1.17167,0.0130102,-1.60813,-0.8914,-1.61855,3.10964,-0.719077,0.00692244,-0.134933
2147998,1,-1.58795,-0.51339,-0.0175275,-2.08746,-1.57883,1.60627,0.786154,-1.59107,-0.512843,-0.0207733,-2.0843,-1.58113,1.60928,0.786421,-0.507393,0.291002,-0.554125,0.263327,-0.271157,1.07262,0.0220215,-0.569072,0.308554,-0.62952,0.291603,-0.305869,1.12529,0.0277526,-12.6657,-6.37271,-17.04,21.8405,-2.07609,-1.11399,0.0194189,-1.61827,-0.909335,-1.61303,3.12257,-0.728834,0.0118295,-0.131626
2147999,1,-1.58848,-0.513082,-0.0181109,-2.08718,-1.57912,1.60739,0.786182,-1.59164,-0.51253,-0.0214128,-2.084,-1.58144,1.61042,0.786449,-0.512074,0.294564,-0.559415,0.265133,-0.277064,1.08231,0.0209491,-0.576244,0.312963,-0.63951,0.295878,-0.310541,1.14136,0.028125,-12.6379,-6.47189,-16.9924,21.8882,-2.12645,-1.08103,0.0258276,-1.62233,-0.918626,-1.59877,3.13367,-0.738464,0.017649,-0.128433
2148000,1,-1.58901,-0.512769,-0.0187099,-2.0869,-1.57942,1.60853,0.786209,-1.59223,-0.512212,-0.0220623,-2.0837,-1.58175,1.61158,0.786478,-0.519623,0.297779,-0.575283,0.268097,-0.277696,1.08848,0.019954,-0.583416,0.317371,-0.6495,0.300154,-0.315214,1.15743,0.0284975,-12.6141,-6.55124,-16.8893,22.0389,-2.16032,-1.10026,0.038645,-1.6241,-0.924399,-1.58119,3.14585,-0.748213,0.0239568,-0.125328
2148001,1,-1.58956,-0.512454,-0.0193296,-2.08661,-1.57971,1.60967,0.786242,-1.59282,-0.511891,-0.0227218,-2.0834,-1.58207,1.61275,0.786506,-0.527532,0.305109,-0.587567,0.275808,-0.280187,1.10427,0.0258368,-0.58935,0.321417,-0.65949,0.304154,-0.31967,1.17234,0.028862,-12.5903,-6.702,-16.7901,22.0905,-2.13835,-1.18448,0.000192821,-1.62397,-0.927653,-1.56063,3.15859,-0.758156,0.0307677,-0.12231
2148002,1,-1.59012,-0.51213,-0.0199572,-2.08632,-1.58001,1.61084,0.786276,-1.59341,-0.511565,-0.0233913,-2.08309,-1.5824,1.61394,0.786536,-0.532396,0.311443,-0.597993,0.280807,-0.287203,1.11762,0.0256985,-0.595283,0.325464,-0.66948,0.308155,-0.324127,1.18725,0.0292266,-12.511,-6.80118,-16.7385,22.1619,-2.08159,-1.24216,-0.044668,-1.6222,-0.931926,-1.53709,3.17128,-0.768292,0.0378868,-0.119383
2148003,1,-1.59068,-0.511794,-0.0205849,-2.08603,-1.58032,1.61203,0.786306,-1.59401,-0.511236,-0.0240707,-2.08278,-1.58273,1.61514,0.786565,-0.542154,0.316431,-0.60212,0.284347,-0.302909,1.13653,0.028043,-0.601217,0.329511,-0.67947,0.312155,-0.328584,1.20215,0.0295911,-12.4356,-6.92813,-16.7385,22.2611,-2.0706,-1.28061,-0.0318506,-1.62326,-0.940436,-1.51737,3.1844,-0.778639,0.0443157,-0.116577
2148004,1,-1.59127,-0.511461,-0.0212355,-2.08572,-1.58062,1.61323,0.786345,-1.59462,-0.510902,-0.0247602,-2.08246,-1.58306,1.61636,0.786595,-0.554482,0.321895,-0.610042,0.287644,-0.296793,1.15429,0.0322803,-0.607151,0.333557,-0.68946,0.316156,-0.333041,1.21706,0.0299556,-12.2095,-7.07889,-16.6116,22.2889,-2.09257,-1.40329,-0.0840357,-1.63036,-0.954154,-1.50733,3.19913,-0.789193,0.0492312,-0.11395
2148005,1,-1.59185,-0.511119,-0.0218861,-2.08542,-1.58094,1.61448,0.786374,-1.59523,-0.510565,-0.0254596,-2.08214,-1.5834,1.61759,0.786626,-0.559549,0.323735,-0.632921,0.293445,-0.302637,1.18255,0.0331308,-0.613084,0.337604,-0.69945,0.320156,-0.337498,1.23197,0.0303201,-12.0825,-7.23361,-16.4608,22.3365,-2.08159,-1.74479,-0.077627,-1.63985,-0.970429,-1.50205,3.21499,-0.799775,0.0528816,-0.111589
2148006,1,-1.59244,-0.510777,-0.0225609,-2.08512,-1.58125,1.61569,0.786414,-1.59585,-0.510223,-0.0261691,-2.08182,-1.58374,1.61884,0.786656,-0.563384,0.327999,-0.649024,0.295278,-0.302674,1.19254,0.0353526,-0.619018,0.341651,-0.70944,0.324157,-0.341955,1.24688,0.0306847,-11.9318,-7.40817,-16.2307,22.3603,-2.0706,-1.73838,-0.10967,-1.64463,-0.984489,-1.48989,3.23026,-0.81007,0.0559956,-0.109579
2148007,1,-1.59305,-0.510431,-0.0232288,-2.08481,-1.58158,1.61688,0.78645,-1.59648,-0.509877,-0.0268885,-2.08149,-1.58409,1.6201,0.786687,-0.577838,0.329202,-0.652721,0.295555,-0.311327,1.19239,0.0365932,-0.624952,0.345697,-0.71943,0.328157,-0.346412,1.26179,0.0310492,-11.7056,-7.45975,-16.1553,22.4118,-2.07609,-1.25498,-0.128897,-1.64251,-0.994427,-1.46774,3.24556,-0.820049,0.0586202,-0.107948
2148008,1,-1.59365,-0.510079,-0.0239024,-2.08449,-1.5819,1.61811,0.786491,-1.59711,-0.509528,-0.0276179,-2.08116,-1.58444,1.62138,0.786719,-0.586609,0.335787,-0.663468,0.304103,-0.311919,1.19572,0.0381403,-0.630885,0.349744,-0.72942,0.332158,-0.350869,1.27669,0.0314137,-11.5549,-7.51132,-16.08,22.388,-2.12095,-0.959264,-0.168264,-1.63497,-0.999857,-1.43989,3.26111,-0.829839,0.0606656,-0.106697
2148009,1,-1.59425,-0.509728,-0.0245997,-2.08418,-1.58222,1.61939,0.786525,-1.59775,-0.509174,-0.0283573,-2.08082,-1.58479,1.62267,0.786751,-0.586778,0.339066,-0.669911,0.30769,-0.313173,1.2159,0.0362798,-0.636819,0.353791,-0.73941,0.336158,-0.355326,1.2916,0.0317783,-11.6064,-7.5867,-16.0284,22.4356,-2.14934,-1.11399,-0.128897,-1.62632,-1.00143,-1.41351,3.27523,-0.839547,0.0620715,-0.105864
2148010,1,-1.59488,-0.509371,-0.0253193,-2.08386,-1.58254,1.62068,0.786554,-1.59839,-0.508816,-0.0291067,-2.08048,-1.58515,1.62397,0.786783,-0.608463,0.342542,-0.683393,0.31797,-0.316352,1.22699,0.0324427,-0.642752,0.357837,-0.7494,0.340159,-0.359783,1.30651,0.0321428,-11.4795,-7.66208,-15.9292,22.388,-2.22899,-1.26139,-0.0190333,-1.61848,-0.997736,-1.39153,3.28522,-0.849161,0.0631555,-0.105487
2148011,1,-1.59552,-0.509014,-0.0260308,-2.08353,-1.58288,1.62197,0.786596,-1.59904,-0.508455,-0.0298661,-2.08014,-1.58552,1.6253,0.786815,-0.621647,0.347235,-0.686906,0.315745,-0.325834,1.26192,0.0348818,-0.647383,0.361441,-0.75939,0.343806,-0.363958,1.32009,0.0324993,-11.2256,-7.78903,-15.9768,22.3127,-2.26286,-1.37125,-0.044668,-1.60706,-0.988026,-1.3687,3.29048,-0.858578,0.064662,-0.10548
2148012,1,-1.59616,-0.508646,-0.0267612,-2.08319,-1.58323,1.62326,0.786647,-1.59969,-0.50809,-0.0306355,-2.07979,-1.58588,1.62663,0.786848,-0.630575,0.349672,-0.692668,0.320945,-0.329769,1.26566,0.0395826,-0.652014,0.365045,-0.76938,0.347453,-0.368133,1.33366,0.0328558,-11.1264,-7.86441,-15.9768,22.1897,-2.26286,-1.32639,-0.149038,-1.59298,-0.976228,-1.34712,3.29461,-0.86804,0.0661524,-0.105654
2148013,1,-1.59679,-0.508267,-0.0274905,-2.08286,-1.58359,1.62459,0.786691,-1.60034,-0.507721,-0.0314149,-2.07944,-1.58626,1.62798,0.786881,-0.631248,0.355846,-0.704544,0.326629,-0.335184,1.27346,0.0444944,-0.656644,0.368649,-0.77937,0.351101,-0.372307,1.34724,0.0332123,-11.301,-8.01517,-15.9768,22.1143,-2.1887,-1.31357,-0.174673,-1.58115,-0.964358,-1.3333,3.29878,-0.877871,0.0668178,-0.105917
2148014,1,-1.59741,-0.507891,-0.0282301,-2.08251,-1.58395,1.6259,0.786724,-1.60101,-0.507349,-0.0322042,-2.07908,-1.58663,1.62934,0.786915,-0.61751,0.361891,-0.718989,0.331247,-0.34326,1.29273,0.044439,-0.661275,0.372252,-0.78936,0.354748,-0.376482,1.36081,0.0335688,-11.6302,-8.1937,-16.0046,22.0151,-2.12645,-1.36484,-0.0904444,-1.57702,-0.955758,-1.3321,3.30293,-0.888205,0.0659317,-0.106333
2148015,1,-1.59806,-0.507511,-0.0289796,-2.08217,-1.58431,1.62723,0.78675,-1.60167,-0.506973,-0.0330036,-2.07872,-1.58701,1.63071,0.786949,-0.638503,0.36323,-0.731459,0.333789,-0.346178,1.30409,0.0370422,-0.665905,0.375856,-0.79935,0.358395,-0.380657,1.37439,0.0339252,-11.781,-8.36826,-16.1038,21.9635,-2.12645,-1.2678,0.0651953,-1.5818,-0.952731,-1.34253,3.30782,-0.898912,0.0633435,-0.106949
2148016,1,-1.5987,-0.507132,-0.0297118,-2.08182,-1.58466,1.62856,0.786779,-1.60234,-0.506593,-0.0338129,-2.07836,-1.5874,1.6321,0.786983,-0.643025,0.37688,-0.732916,0.335946,-0.346269,1.31497,0.0332428,-0.670536,0.37946,-0.80934,0.362042,-0.384832,1.38796,0.0342817,-11.781,-8.52298,-16.3061,21.9159,-2.2061,-1.15885,0.187876,-1.59043,-0.959544,-1.35775,3.31631,-0.909813,0.0598821,-0.107619
2148017,1,-1.59935,-0.50675,-0.0304773,-2.08146,-1.58503,1.62991,0.786823,-1.60302,-0.50621,-0.0346323,-2.078,-1.58779,1.6335,0.787018,-0.646993,0.375684,-0.741628,0.34224,-0.353823,1.31997,0.0373179,-0.675167,0.383064,-0.81933,0.36569,-0.389007,1.40154,0.0346382,-11.8326,-8.54678,-16.3815,21.7652,-2.21159,-0.997716,0.129282,-1.60422,-0.98135,-1.38049,3.33072,-0.920996,0.0556036,-0.108029
2148018,1,-1.59999,-0.506362,-0.0312419,-2.08111,-1.58541,1.63129,0.786864,-1.6037,-0.505824,-0.0354616,-2.07763,-1.58818,1.63492,0.787053,-0.644187,0.382734,-0.74685,0.341613,-0.35913,1.33265,0.0397062,-0.679797,0.386667,-0.82932,0.369337,-0.393182,1.41512,0.0349947,-11.9079,-8.59836,-16.433,21.7176,-2.22899,-0.984899,0.071604,-1.62883,-1.01313,-1.41857,3.34841,-0.93255,0.0501309,-0.107908
2148019,1,-1.60065,-0.505984,-0.0320323,-2.08074,-1.58579,1.63268,0.786907,-1.60438,-0.505433,-0.0363009,-2.07725,-1.58858,1.63634,0.787088,-0.640496,0.383192,-0.752844,0.345181,-0.36376,1.36077,0.0423582,-0.684428,0.390271,-0.83931,0.372984,-0.397357,1.42869,0.0353512,-12.0071,-8.57059,-16.4092,21.6422,-2.23448,-1.1204,-0.0126246,-1.67058,-1.05004,-1.48009,3.36792,-0.944598,0.0428419,-0.10718
2148020,1,-1.60133,-0.505599,-0.0328368,-2.08038,-1.58617,1.6341,0.786948,-1.60507,-0.505039,-0.0371502,-2.07688,-1.58898,1.63779,0.787124,-0.652044,0.383268,-0.762402,0.349582,-0.364821,1.3743,0.0411942,-0.689058,0.393875,-0.8493,0.376632,-0.401532,1.44227,0.0357077,-11.9318,-8.54678,-16.2823,21.6422,-2.27934,-1.22934,-0.0190333,-1.73041,-1.08434,-1.56625,3.38573,-0.957054,0.0336587,-0.105986
2148021,1,-1.60199,-0.505195,-0.0336346,-2.08,-1.58656,1.63553,0.786976,-1.60576,-0.504642,-0.0380093,-2.0765,-1.58938,1.63924,0.78716,-0.660637,0.389816,-0.77231,0.359047,-0.371119,1.38055,0.0330613,-0.692514,0.396975,-0.859101,0.379862,-0.405347,1.45428,0.0360576,-11.8564,-8.62216,-16.2823,21.5152,-2.31871,-1.22934,0.0459692,-1.7981,-1.10679,-1.66346,3.39578,-0.969509,0.024078,-0.104533
2148022,1,-1.60268,-0.504796,-0.0344449,-2.07963,-1.58694,1.63694,0.787019,-1.60646,-0.504242,-0.0388782,-2.07611,-1.58979,1.64071,0.787196,-0.666453,0.391536,-0.773722,0.360831,-0.371703,1.39166,0.0372012,-0.695969,0.400074,-0.868902,0.383093,-0.409163,1.4663,0.0364075,-11.6064,-8.69754,-16.3577,21.5668,-2.34709,-1.02335,-0.0318506,-1.86628,-1.11744,-1.76218,3.39651,-0.981822,0.0150537,-0.102947
2148023,1,-1.60335,-0.504384,-0.0352881,-2.07924,-1.58733,1.63839,0.787045,-1.60716,-0.503839,-0.0397569,-2.07573,-1.59021,1.64219,0.787233,-0.672633,0.392259,-0.804533,0.373857,-0.377319,1.40674,0.0378786,-0.699424,0.403173,-0.878703,0.386323,-0.412978,1.47831,0.0367574,-11.5787,-8.87607,-16.2307,21.4438,-2.35258,-0.946447,0.071604,-1.9289,-1.11385,-1.85367,3.38606,-0.993866,0.00738636,-0.101311
2148024,1,-1.60404,-0.503984,-0.036139,-2.07884,-1.58774,1.63985,0.787082,-1.60786,-0.503433,-0.0406454,-2.07534,-1.59062,1.64368,0.78727,-0.672792,0.393175,-0.81506,0.378979,-0.389817,1.42327,0.0397644,-0.702879,0.406273,-0.888504,0.389554,-0.416794,1.49033,0.0371074,-11.6064,-8.95145,-15.9014,21.3684,-2.26835,-0.907079,0.0194189,-1.97613,-1.08855,-1.9226,3.35975,-1.00521,0.00261175,-0.099704
2148025,1,-1.60475,-0.503579,-0.0370112,-2.07845,-1.58814,1.64133,0.787117,-1.60857,-0.503024,-0.0415437,-2.07495,-1.59104,1.64518,0.787307,-0.678292,0.393053,-0.827257,0.382391,-0.396148,1.43276,0.0387481,-0.706334,0.409372,-0.898305,0.392784,-0.420609,1.50234,0.0374573,-11.2771,-8.95145,-15.5721,21.4438,-2.25096,-0.830175,0.0322363,-2.00763,-1.04003,-1.96787,3.31755,-1.01576,0.000911774,-0.0981182
2148026,1,-1.60549,-0.503174,-0.0378798,-2.07806,-1.58855,1.64284,0.787157,-1.60928,-0.502611,-0.0424518,-2.07455,-1.59147,1.64669,0.787345,-0.705895,0.395514,-0.837578,0.390642,-0.391693,1.44357,0.040859,-0.709789,0.412472,-0.908106,0.396015,-0.424425,1.51436,0.0378072,-10.4956,-8.95145,-15.2429,21.416,-2.24547,-0.823766,-0.0254419,-2.02299,-0.971357,-1.99054,3.26284,-1.02558,0.00246249,-0.0965322
2148027,1,-1.60621,-0.502778,-0.0387929,-2.07766,-1.58896,1.64434,0.787201,-1.60999,-0.502196,-0.0433697,-2.07415,-1.5919,1.64822,0.787383,-0.71141,0.396308,-0.8584,0.392007,-0.396817,1.4578,0.0431966,-0.713244,0.415571,-0.917907,0.399245,-0.42824,1.52638,0.0381571,-10.0671,-8.89987,-14.6874,21.4438,-2.26286,-0.887853,-0.116079,-2.01378,-0.886591,-1.98056,3.19894,-1.03458,0.0085132,-0.0949777
2148028,1,-1.60693,-0.502373,-0.0397159,-2.07726,-1.58937,1.64587,0.787236,-1.61071,-0.501777,-0.0442974,-2.07375,-1.59233,1.64976,0.787422,-0.726443,0.39394,-0.880239,0.391885,-0.399612,1.47344,0.0397101,-0.7167,0.418671,-0.927708,0.402476,-0.432056,1.53839,0.038507,-9.73784,-8.89987,-14.1558,21.5668,-2.27934,-1.01694,-0.0712183,-1.97351,-0.789761,-1.92883,3.13084,-1.04267,0.0197987,-0.0935492
2148029,1,-1.60766,-0.501965,-0.040623,-2.07686,-1.58978,1.64737,0.787268,-1.61143,-0.501355,-0.0452349,-2.07334,-1.59277,1.65131,0.787461,-0.728428,0.399897,-0.893549,0.393412,-0.399307,1.48341,0.0328944,-0.720155,0.42177,-0.937509,0.405706,-0.435871,1.55041,0.0388569,-9.43633,-8.92368,-13.8781,21.6144,-2.26286,-1.01053,-0.0318506,-1.90278,-0.687291,-1.83534,3.06476,-1.05002,0.0358302,-0.0923573
2148030,1,-1.60839,-0.501538,-0.0415492,-2.07644,-1.59021,1.64889,0.787302,-1.61215,-0.50093,-0.0461822,-2.07293,-1.5932,1.65287,0.7875,-0.726248,0.404621,-0.899323,0.399945,-0.407997,1.48257,0.0329883,-0.72361,0.42487,-0.94731,0.408937,-0.439687,1.56242,0.0392068,-9.28557,-9.1022,-13.6996,21.666,-2.26286,-0.907079,0.000192821,-1.81487,-0.590749,-1.71841,3.00598,-1.05715,0.0542215,-0.0914106
2148031,1,-1.60911,-0.501107,-0.0424843,-2.07603,-1.59064,1.65042,0.787342,-1.61288,-0.500503,-0.0471384,-2.07252,-1.59365,1.65444,0.78754,-0.722135,0.410854,-0.904969,0.40326,-0.412841,1.49237,0.0384424,-0.726028,0.427417,-0.956171,0.4117,-0.443036,1.57272,0.0395574,-9.28557,-9.30453,-13.5488,21.6898,-2.30223,-0.746862,0.0130102,-1.72981,-0.509518,-1.60627,2.95652,-1.06466,0.0717428,-0.0906295
2148032,1,-1.60984,-0.500677,-0.0434228,-2.07562,-1.59107,1.65196,0.787384,-1.61361,-0.500073,-0.0481035,-2.07211,-1.59409,1.65603,0.787579,-0.713305,0.416816,-0.912777,0.407698,-0.417492,1.50386,0.0395985,-0.728447,0.429963,-0.965033,0.414462,-0.446384,1.58302,0.039908,-9.46013,-9.53067,-13.6758,21.7652,-2.31871,-0.772496,-0.0190333,-1.66338,-0.449718,-1.52074,2.91769,-1.07298,0.0859767,-0.0899204
2148033,1,-1.61057,-0.50023,-0.0443577,-2.0752,-1.59152,1.65358,0.787427,-1.61434,-0.49964,-0.0490773,-2.07169,-1.59454,1.65762,0.78762,-0.712146,0.422429,-0.907709,0.407631,-0.426619,1.53858,0.0405633,-0.730866,0.43251,-0.973895,0.417225,-0.449733,1.59332,0.0402585,-9.68627,-9.80838,-14.0527,21.8644,-2.28483,-1.28061,-0.0584009,-1.62773,-0.416417,-1.47855,2.89174,-1.08246,0.0950374,-0.0892186
2148034,1,-1.61128,-0.499797,-0.04531,-2.07479,-1.59197,1.65519,0.787476,-1.61507,-0.499205,-0.0500601,-2.07127,-1.595,1.65922,0.78766,-0.707959,0.433372,-0.921008,0.410631,-0.440726,1.55731,0.0467909,-0.733284,0.435057,-0.982756,0.419988,-0.453082,1.60362,0.0406091,-10.1663,-9.9631,-14.1558,21.9635,-2.25096,-1.50675,-0.122488,-1.62851,-0.415845,-1.48757,2.88205,-1.09325,0.0976854,-0.0885096
2148035,1,-1.612,-0.499354,-0.0462744,-2.07438,-1.59242,1.65675,0.787522,-1.61581,-0.498768,-0.0510517,-2.07085,-1.59545,1.66084,0.787701,-0.710259,0.432861,-0.932121,0.41242,-0.445957,1.5575,0.0498591,-0.735703,0.437604,-0.991618,0.422751,-0.456431,1.61392,0.0409596,-10.4202,-10.213,-14.2312,22.0389,-2.1887,-1.3328,-0.149038,-1.65751,-0.44769,-1.53528,2.88885,-1.10502,0.0947016,-0.0878543
2148036,1,-1.61272,-0.498913,-0.0472205,-2.07397,-1.59288,1.65837,0.787568,-1.61654,-0.498328,-0.0520522,-2.07042,-1.59591,1.66246,0.787743,-0.717195,0.437076,-0.952768,0.410961,-0.448632,1.57028,0.0521969,-0.738121,0.440151,-1.00048,0.425513,-0.459779,1.62422,0.0413102,-10.5194,-10.3678,-14.4335,22.1381,-2.15483,-1.3328,-0.181082,-1.69679,-0.499903,-1.59546,2.90795,-1.11715,0.0887141,-0.087382
2148037,1,-1.61343,-0.498479,-0.0481957,-2.07354,-1.59334,1.65998,0.787613,-1.61728,-0.497885,-0.0530615,-2.06999,-1.59638,1.6641,0.787784,-0.708909,0.436996,-0.958622,0.412747,-0.451502,1.58089,0.0475525,-0.74054,0.442698,-1.00934,0.428276,-0.463128,1.63451,0.0416607,-10.8725,-10.4154,-14.3582,22.1143,-2.10448,-1.39048,-0.161856,-1.7355,-0.561418,-1.65203,2.93589,-1.12916,0.081574,-0.0872264
2148038,1,-1.61413,-0.498036,-0.0491772,-2.07313,-1.5938,1.66164,0.787648,-1.61803,-0.49744,-0.0540797,-2.06956,-1.59684,1.66574,0.787826,-0.703431,0.438329,-0.960614,0.415043,-0.452113,1.60178,0.0455499,-0.742959,0.445244,-1.0182,0.431039,-0.466477,1.64481,0.0420113,-11.2533,-10.4908,-14.2074,22.3127,-2.1887,-1.67429,-0.0510767,-1.78093,-0.623559,-1.71503,2.96835,-1.14099,0.0724352,-0.087487
2148039,1,-1.61487,-0.49759,-0.0501486,-2.0727,-1.59426,1.66329,0.787712,-1.61877,-0.496992,-0.0551068,-2.06913,-1.59731,1.6674,0.787869,-0.711946,0.434753,-0.961802,0.419378,-0.449386,1.61238,0.054057,-0.745377,0.447791,-1.02706,0.433802,-0.469826,1.65511,0.0423619,-10.9756,-10.5423,-14.2074,22.2889,-2.26286,-1.55802,-0.200308,-1.84282,-0.674749,-1.79921,2.99843,-1.15266,0.0599341,-0.0881707
2148040,1,-1.61562,-0.497138,-0.0511428,-2.07226,-1.59471,1.66491,0.787763,-1.61952,-0.496541,-0.0561427,-2.06869,-1.59779,1.66906,0.787911,-0.719985,0.439273,-0.971772,0.423154,-0.448646,1.61655,0.0507141,-0.747796,0.450338,-1.03593,0.436565,-0.473174,1.66541,0.0427124,-10.6225,-10.6931,-14.1558,22.1897,-2.30772,-1.33921,-0.225942,-1.91681,-0.706772,-1.89981,3.02087,-1.16407,0.0447525,-0.0892151
2148041,1,-1.61632,-0.496675,-0.0521454,-2.07185,-1.59517,1.66655,0.787824,-1.62027,-0.496089,-0.0571861,-2.06825,-1.59826,1.67073,0.787954,-0.711754,0.44337,-1.00161,0.424343,-0.453309,1.6155,0.0495351,-0.749335,0.452302,-1.04338,0.438812,-0.475892,1.67387,0.0430711,-10.7733,-10.8954,-13.9257,22.3127,-2.31322,-1.0618,-0.290945,-1.98874,-0.724808,-1.9957,3.0375,-1.17507,0.0292727,-0.0906089
2148042,1,-1.61704,-0.496218,-0.0531659,-2.07142,-1.59563,1.66821,0.787865,-1.62102,-0.495635,-0.0582369,-2.06781,-1.59874,1.67242,0.787998,-0.708236,0.446253,-1.00704,0.426571,-0.454154,1.63462,0.0463592,-0.750874,0.454266,-1.05083,0.441059,-0.47861,1.68233,0.0434299,-10.9756,-11.0739,-13.7234,22.388,-2.29674,-1.08744,-0.174673,-2.05048,-0.73961,-2.07259,3.05357,-1.18568,0.0151967,-0.0924116
2148043,1,-1.61778,-0.49576,-0.0541797,-2.07098,-1.59609,1.6699,0.787906,-1.62177,-0.495179,-0.0592952,-2.06737,-1.59922,1.67411,0.788042,-0.714153,0.444156,-0.999409,0.42736,-0.45617,1.65148,0.0451638,-0.752414,0.45623,-1.05829,0.443306,-0.481329,1.69079,0.0437886,-10.9479,-11.1771,-13.8027,22.3603,-2.35258,-1.08103,-0.0712183,-2.11081,-0.752796,-2.1435,3.07003,-1.19625,0.00163565,-0.0946601
2148044,1,-1.61851,-0.4953,-0.0552037,-2.07055,-1.59656,1.67161,0.787953,-1.62253,-0.49472,-0.060361,-2.06692,-1.59971,1.67581,0.788086,-0.722471,0.446121,-1.0097,0.426785,-0.455776,1.65348,0.0463424,-0.753953,0.458193,-1.06574,0.445553,-0.484047,1.69925,0.0441473,-10.7455,-11.2009,-13.6758,22.388,-2.34709,-1.0618,-0.0190333,-2.17791,-0.760692,-2.22308,3.08586,-1.20709,-0.0123123,-0.0972276
2148045,1,-1.61925,-0.494848,-0.0562374,-2.07011,-1.59702,1.67329,0.787997,-1.62328,-0.49426,-0.0614342,-2.06648,-1.60019,1.67751,0.78813,-0.733204,0.44358,-1.01329,0.429714,-0.45549,1.66223,0.0467288,-0.755492,0.460157,-1.0732,0.4478,-0.486765,1.70771,0.044506,-10.4202,-11.1771,-13.4219,22.3603,-2.3416,-0.997716,0.0587866,-2.24609,-0.760014,-2.30515,3.10015,-1.21815,-0.0255091,-0.0998535
2148046,1,-1.61999,-0.494389,-0.0572878,-2.06965,-1.5975,1.675,0.788038,-1.62404,-0.493798,-0.0625148,-2.06603,-1.60068,1.67923,0.788175,-0.748864,0.446183,-1.02068,0.440836,-0.462888,1.66907,0.0432732,-0.757031,0.462121,-1.08065,0.450047,-0.489483,1.71617,0.0448648,-10.0394,-11.2525,-13.1164,22.2889,-2.23448,-1.01053,0.103647,-2.30609,-0.744547,-2.37832,3.10769,-1.2291,-0.0364546,-0.102276
2148047,1,-1.62073,-0.493933,-0.0583383,-2.06921,-1.59797,1.6767,0.788079,-1.6248,-0.493334,-0.0636029,-2.06557,-1.60117,1.68096,0.78822,-0.747963,0.448178,-1.02827,0.441912,-0.46732,1.67851,0.0411987,-0.758571,0.464085,-1.08811,0.452294,-0.492201,1.72463,0.0452235,-9.78942,-11.2763,-12.6879,22.2135,-2.16032,-0.907079,0.135691,-2.35365,-0.712672,-2.43743,3.10438,-1.23959,-0.0445951,-0.10425
2148048,1,-1.62147,-0.493473,-0.0594215,-2.06877,-1.59843,1.67843,0.788106,-1.62556,-0.492868,-0.0646985,-2.06512,-1.60167,1.68269,0.788266,-0.742046,0.448668,-1.04563,0.439498,-0.46545,1.68506,0.0363493,-0.76011,0.466049,-1.09556,0.454541,-0.494919,1.73309,0.0455822,-9.61089,-11.2525,-12.1801,22.2373,-2.22899,-0.772496,0.252878,-2.39077,-0.672653,-2.48329,3.09509,-1.24961,-0.0503398,-0.105568
2148049,1,-1.62221,-0.493012,-0.0604904,-2.06833,-1.5989,1.68016,0.788151,-1.62632,-0.4924,-0.0658015,-2.06466,-1.60217,1.68443,0.788312,-0.74397,0.448217,-1.05703,0.442032,-0.464229,1.69342,0.0355061,-0.761649,0.468013,-1.10302,0.456788,-0.497637,1.74155,0.045941,-9.30938,-11.2247,-11.8508,22.2611,-2.30223,-0.553685,0.175059,-2.41924,-0.630749,-2.51565,3.08586,-1.2592,-0.0539313,-0.106073
2148050,1,-1.62299,-0.49256,-0.0615825,-2.06787,-1.59936,1.68187,0.788184,-1.62708,-0.49193,-0.066912,-2.0642,-1.60267,1.68618,0.788358,-0.748392,0.447801,-1.06444,0.44668,-0.45659,1.70201,0.0357813,-0.763189,0.469976,-1.11047,0.459035,-0.500355,1.75001,0.0462997,-8.70238,-11.1493,-11.5493,22.1619,-2.43773,-0.424596,0.187876,-2.43874,-0.58484,-2.53366,3.07595,-1.26838,-0.055168,-0.105686
2148051,1,-1.62377,-0.492084,-0.0627078,-2.06741,-1.59983,1.68364,0.788222,-1.62785,-0.491459,-0.0680283,-2.06374,-1.60317,1.68794,0.788405,-0.751164,0.452505,-1.07504,0.445802,-0.46381,1.71281,0.0378374,-0.764032,0.471357,-1.11629,0.460706,-0.502219,1.75651,0.0466605,-8.30169,-11.3001,-11.0137,22.1143,-2.46062,-0.482274,0.149424,-2.44983,-0.535719,-2.53913,3.06499,-1.27735,-0.053984,-0.104434
2148052,1,-1.62453,-0.491605,-0.0638283,-2.06696,-1.60031,1.6854,0.788264,-1.62861,-0.490986,-0.0691504,-2.06328,-1.60367,1.6897,0.788452,-0.756676,0.465208,-1.08555,0.4503,-0.475259,1.72262,0.0415767,-0.764875,0.472738,-1.12211,0.462377,-0.504082,1.76301,0.0470213,-7.9486,-11.427,-10.3829,21.9873,-2.38646,-0.553685,0.0459692,-2.45209,-0.498861,-2.5318,3.05972,-1.28645,-0.0504121,-0.102378
2148053,1,-1.62533,-0.491136,-0.0649622,-2.0665,-1.6008,1.68715,0.788302,-1.62938,-0.490512,-0.0702783,-2.06282,-1.60418,1.69147,0.788499,-0.765772,0.466833,-1.09929,0.455703,-0.48253,1.73705,0.0374837,-0.765718,0.474119,-1.12793,0.464048,-0.505946,1.76951,0.0473821,-7.49236,-11.554,-9.90289,21.8405,-2.29033,-0.688268,-0.00621587,-2.44186,-0.487211,-2.50675,3.06431,-1.29575,-0.0442792,-0.0996576
2148054,1,-1.62612,-0.490665,-0.0660976,-2.06605,-1.60131,1.68892,0.788358,-1.63014,-0.490036,-0.0714121,-2.06235,-1.60469,1.69325,0.788547,-0.777707,0.467225,-1.13541,0.452258,-0.48873,1.74171,0.0435502,-0.766562,0.4755,-1.13375,0.465719,-0.507809,1.77601,0.0477429,-7.04009,-11.6294,-9.54583,21.9159,-2.16032,-0.785314,-0.181082,-2.40531,-0.494184,-2.44438,3.07564,-1.30475,-0.0339322,-0.0965567
2148055,1,-1.62691,-0.49019,-0.0672646,-2.06559,-1.6018,1.69069,0.788397,-1.63091,-0.489559,-0.0725516,-2.06188,-1.6052,1.69503,0.788595,-0.783349,0.469503,-1.13859,0.449376,-0.485758,1.74318,0.0417799,-0.767405,0.476882,-1.13957,0.46739,-0.509673,1.78251,0.0481037,-6.687,-11.8079,-8.96661,21.8882,-2.10997,-0.875035,-0.193899,-2.3301,-0.510928,-2.32721,3.0931,-1.31298,-0.0179124,-0.0934351
2148056,1,-1.62771,-0.489711,-0.0684137,-2.06512,-1.60229,1.6925,0.788441,-1.63168,-0.489081,-0.073697,-2.06141,-1.60571,1.69682,0.788644,-0.787932,0.47217,-1.13671,0.456362,-0.491259,1.76259,0.0449426,-0.768248,0.478263,-1.14539,0.469061,-0.511536,1.78901,0.0484645,-6.33391,-12.0102,-8.81189,21.8644,-2.08159,-1.21012,-0.193899,-2.22873,-0.534494,-2.17481,3.11614,-1.32059,0.00139453,-0.0906773
2148057,1,-1.62848,-0.489236,-0.0695562,-2.06465,-1.6028,1.69431,0.788495,-1.63245,-0.488602,-0.0748482,-2.06094,-1.60622,1.69861,0.788692,-0.784591,0.471623,-1.14247,0.460155,-0.49665,1.77063,0.0495986,-0.769092,0.479644,-1.15121,0.470732,-0.5134,1.79551,0.0488254,-6.28234,-12.161,-8.68493,21.789,-2.03673,-1.37766,-0.252493,-2.12426,-0.55801,-2.02209,3.13812,-1.3278,0.0198166,-0.088589
2148058,1,-1.62926,-0.488757,-0.0707049,-2.06417,-1.60329,1.69603,0.788547,-1.63322,-0.488121,-0.0760053,-2.06047,-1.60674,1.70041,0.788742,-0.780229,0.477948,-1.13303,0.462159,-0.492318,1.76108,0.0514323,-0.769935,0.481025,-1.15703,0.472403,-0.515264,1.80202,0.0491862,-6.28234,-12.3871,-8.66113,21.6898,-2.08708,-0.849401,-0.26531,-2.03432,-0.578564,-1.89471,3.15521,-1.33483,0.0340993,-0.0873246
2148059,1,-1.63001,-0.488269,-0.0718531,-2.06371,-1.6038,1.69781,0.788601,-1.63399,-0.487638,-0.0771681,-2.06,-1.60725,1.70222,0.788791,-0.770519,0.478107,-1.14346,0.471684,-0.495289,1.75212,0.052995,-0.770778,0.482406,-1.16285,0.474074,-0.517127,1.80852,0.049547,-6.63543,-12.6172,-8.58575,21.7176,-2.09807,-0.560094,-0.284536,-1.97067,-0.598414,-1.80894,3.16687,-1.34201,0.042487,-0.0869538
2148060,1,-1.63077,-0.487784,-0.0730164,-2.06322,-1.6043,1.6996,0.788653,-1.63476,-0.487154,-0.0783368,-2.05952,-1.60777,1.70404,0.788841,-0.75962,0.479463,-1.1477,0.476259,-0.493314,1.76717,0.0517725,-0.771622,0.483787,-1.16867,0.475745,-0.518991,1.81502,0.0499078,-7.06389,-12.8434,-8.60956,21.5668,-2.10997,-0.604955,-0.246084,-1.93577,-0.613495,-1.76643,3.16913,-1.3493,0.0452855,-0.0875212
2148061,1,-1.63155,-0.487292,-0.0741946,-2.06274,-1.60481,1.70145,0.788695,-1.63553,-0.48667,-0.0795095,-2.05904,-1.60829,1.70586,0.788891,-0.760189,0.483324,-1.14497,0.472617,-0.496325,1.79309,0.0471786,-0.771958,0.484594,-1.17269,0.476802,-0.519969,1.81944,0.0502548,-7.24242,-13.0219,-8.55798,21.5668,-2.13286,-1.09385,-0.0904444,-1.93055,-0.62523,-1.76623,3.16368,-1.35673,0.0429891,-0.0889876
2148062,1,-1.63234,-0.486797,-0.0753749,-2.06226,-1.60532,1.70328,0.788757,-1.63631,-0.486184,-0.0806862,-2.05857,-1.60881,1.70768,0.788942,-0.772443,0.486682,-1.15639,0.470994,-0.497277,1.79911,0.046159,-0.772295,0.485402,-1.1767,0.477859,-0.520948,1.82386,0.0506017,-7.0877,-13.1211,-8.30804,21.543,-2.20061,-1.18448,-0.116079,-1.949,-0.644744,-1.79879,3.15996,-1.36437,0.0366138,-0.0911271
2148063,1,-1.63315,-0.486304,-0.0765507,-2.06178,-1.60583,1.70507,0.788814,-1.63708,-0.485698,-0.0818669,-2.05809,-1.60934,1.70951,0.788993,-0.777266,0.490056,-1.15763,0.474591,-0.504604,1.79286,0.0488498,-0.772632,0.486209,-1.18072,0.478916,-0.521926,1.82828,0.0509487,-6.73461,-13.248,-8.30804,21.543,-2.22899,-1.04258,-0.10967,-1.97502,-0.676903,-1.84118,3.1626,-1.37206,0.0284398,-0.0936022
