shamilmamedov/beam_handling/log/param_estimation_ICRA/ocp_Z_15cm_0.42s_6.csv
duration, success rate, q[0], q[1], q[2], q[3], q[4], q[5], q[6],q_d[0], q_d[1], q_d[2], q_d[3], q_d[4], q_d[5], q_d[6],dq[0], dq[1], dq[2], dq[3], dq[4], dq[5], dq[6],dq_d[0], dq_d[1], dq_d[2], dq_d[3], dq_d[4], dq_d[5], dq_d[6],tau_J[0], tau_J[1], tau_J[2], tau_J[3], tau_J[4], tau_J[5], tau_J[6],tau_ext_hat_filtered[0], tau_ext_hat_filtered[1], tau_ext_hat_filtered[2], tau_ext_hat_filtered[3], tau_ext_hat_filtered[4], tau_ext_hat_filtered[5], tau_ext_hat_filtered[6]
752968,0,-1.57045,-0.523508,0.000211849,-2.09685,-0.00124967,1.57121,0.785669,-1.5708,-0.5236,1.88166e-07,-2.0944,-8.12175e-07,1.5708,0.785398,-0.000677944,0.000147936,-0.00032352,-0.000277557,9.1279e-06,-0.000213198,-0.00049099,0,0,0,0,0,0,0,-0.430592,-9.35611,-0.786069,21.9397,1.71236,1.39181,-0.193899,-0.444525,-0.235186,-0.299171,3.41365,0.996454,-0.281269,-0.207079
752969,0,-1.57045,-0.52351,0.000210117,-2.09685,-0.00124906,1.57121,0.785666,-1.5708,-0.5236,1.88166e-07,-2.0944,-8.12175e-07,1.5708,0.785398,-0.000451963,-0.00055099,-0.000772492,-0.00129866,0.000209536,-0.000142132,-0.00127676,0,0,0,0,0,0,0,-0.430592,-9.32834,-0.762265,21.9873,1.70687,1.39181,-0.168264,-0.444246,-0.238596,-0.298879,3.41554,0.996473,-0.281057,-0.206993
752970,1,-1.57045,-0.523508,0.000210096,-2.09685,-0.00124967,1.57121,0.78567,-1.5708,-0.5236,1.88166e-07,-2.0944,-8.12175e-07,1.5708,0.785398,-0.000301309,0.000282287,-0.000514995,0.000247849,-6.376e-05,-0.000332114,0.00033562,0,0,0,0,0,0,0,-0.430592,-9.35611,-0.762265,21.9397,1.71236,1.39822,-0.200308,-0.442946,-0.240153,-0.297068,3.41674,0.996544,-0.280877,-0.206902
752971,1,-1.57045,-0.523512,0.000213709,-2.09685,-0.00124845,1.57121,0.785669,-1.5708,-0.5236,1.88166e-07,-2.0944,-8.12175e-07,1.5708,0.785398,0.000912752,-0.00101823,0.000863096,0.000722045,0.000364394,-0.000221409,-1.36125e-05,0,0,0,0,0,0,0,-0.478199,-9.30453,-0.81384,21.9159,1.70137,1.39822,-0.193899,-0.441959,-0.239473,-0.295669,3.41657,0.996573,-0.28082,-0.206771
752972,1,-1.57045,-0.523512,0.000208138,-2.09685,-0.00124906,1.57121,0.785669,-1.5708,-0.5236,1.88166e-07,-2.0944,-8.12175e-07,1.5708,0.785398,5.16891e-05,-0.000678823,-0.00128064,-0.000632261,3.94791e-05,0.000327112,-9.07497e-06,0,0,0,0,0,0,0,-0.454395,-9.30453,-0.734494,21.9635,1.70687,1.3854,-0.193899,-0.441863,-0.236113,-0.295482,3.41478,0.996522,-0.280901,-0.206599
752973,1,-1.57045,-0.52351,0.000211757,-2.09685,-0.00124906,1.57121,0.785665,-1.5708,-0.5236,1.88166e-07,-2.0944,-8.12175e-07,1.5708,0.785398,-0.000522353,0.000104263,0.000352664,-0.000421507,2.63194e-05,0.000218075,-0.00119284,0,0,0,0,0,0,0,-0.430592,-9.32834,-0.786069,21.9635,1.70687,1.3854,-0.161856,-0.441691,-0.232246,-0.295121,3.41289,0.996469,-0.280975,-0.206402
752974,1,-1.57045,-0.523508,0.000208137,-2.09685,-0.00124967,1.57121,0.785669,-1.5708,-0.5236,1.88166e-07,-2.0944,-8.12175e-07,1.5708,0.785398,0.000208577,0.000719123,-0.000971316,0.00148223,-0.000185904,0.000145383,0.000391565,0,0,0,0,0,0,0,-0.454395,-9.35611,-0.734494,21.8882,1.71236,1.3854,-0.193899,-0.441138,-0.229916,-0.294202,3.41157,0.996436,-0.281027,-0.206168
752975,1,-1.57045,-0.52351,0.000210268,-2.09685,-0.00124647,1.57121,0.785668,-1.5708,-0.5236,1.88166e-07,-2.0944,-8.12175e-07,1.5708,0.785398,-0.000417761,-0.000170199,-0.000647544,-0.000218271,-0.000123936,9.6922e-05,2.36843e-05,0,0,0,0,0,0,0,-0.430592,-9.32834,-0.734494,21.9397,1.71236,1.3854,-0.18749,-0.440271,-0.228689,-0.292755,3.41026,0.996403,-0.281126,-0.205885
752976,1,-1.57045,-0.523506,0.000210796,-2.09685,-0.00124992,1.57121,0.785669,-1.5708,-0.5236,1.88166e-07,-2.0944,-8.12175e-07,1.5708,0.785398,0.000278305,0.00109296,0.000217918,-0.000145514,-0.000523434,-0.000172744,0.000253148,0,0,0,0,0,0,0,-0.454395,-9.37991,-0.762265,21.9397,1.72426,1.39181,-0.193899,-0.439385,-0.2287,-0.291217,3.40953,0.996382,-0.281192,-0.205558
752977,1,-1.57045,-0.523508,0.000211993,-2.09685,-0.00124931,1.57121,0.785673,-1.5708,-0.5236,1.88166e-07,-2.0944,-8.12175e-07,1.5708,0.785398,0.000185537,0.000171828,0.00070209,-0.000653821,9.18537e-05,-0.000115163,0.00135556,0,0,0,0,0,0,0,-0.454395,-9.35611,-0.786069,21.9635,1.71236,1.39181,-0.225942,-0.439412,-0.230585,-0.291022,3.4101,0.996355,-0.281144,-0.205198
752978,1,-1.57045,-0.523508,0.000210165,-2.09685,-0.00124833,1.57121,0.785674,-1.5708,-0.5236,1.88166e-07,-2.0944,-8.12175e-07,1.5708,0.785398,0.000123691,0.000114552,-8.87516e-05,0.000677743,0.000468137,0.000160584,0.00137842,0,0,0,0,0,0,0,-0.454395,-9.35611,-0.762265,21.9159,1.70137,1.3854,-0.23876,-0.440363,-0.232765,-0.292178,3.41099,0.996307,-0.281063,-0.204838
752979,1,-1.57045,-0.523508,0.000211783,-2.09685,-0.00124902,1.57121,0.785665,-1.5708,-0.5236,1.88166e-07,-2.0944,-8.12175e-07,1.5708,0.785398,-0.000474351,7.6368e-05,0.000497644,0.00110144,0.000108641,0.000344415,-0.00192936,0,0,0,0,0,0,0,-0.430592,-9.35611,-0.786069,21.8882,1.70687,1.37899,-0.161856,-0.441463,-0.233335,-0.293563,3.41076,0.996241,-0.281093,-0.204537
752980,1,-1.57045,-0.523508,0.000206476,-2.09685,-0.00124965,1.57121,0.785665,-1.5708,-0.5236,1.88166e-07,-2.0944,-8.12175e-07,1.5708,0.785398,-0.000965848,5.0912e-05,-0.00143148,-0.00102894,-0.000131023,-7.74911e-06,-0.00128624,0,0,0,0,0,0,0,-0.402821,-9.35611,-0.710691,21.9635,1.71236,1.3854,-0.161856,-0.441745,-0.232895,-0.293802,3.4098,0.996205,-0.281193,-0.204311
752981,1,-1.57045,-0.52351,0.000213708,-2.09685,-0.00125099,1.57121,0.785673,-1.5708,-0.5236,1.88166e-07,-2.0944,-8.12175e-07,1.5708,0.785398,5.7152e-06,-0.000615673,0.00145854,0.000427662,-0.000528158,-0.000242525,0.00175346,0,0,0,0,0,0,0,-0.430592,-9.32834,-0.81384,21.9159,1.72426,1.39181,-0.232351,-0.441283,-0.232178,-0.29304,3.40906,0.996212,-0.281258,-0.204105
752982,1,-1.57044,-0.52351,0.000213706,-2.09686,-0.00125099,1.57121,0.785674,-1.5708,-0.5236,1.88166e-07,-2.0944,-8.12175e-07,1.5708,0.785398,0.00176705,-0.000410448,0.000972357,-0.00259175,-0.000352106,0.000313035,0.00140633,0,0,0,0,0,0,0,-0.50597,-9.32834,-0.81384,22.0389,1.72426,1.37899,-0.23876,-0.442072,-0.231168,-0.294166,3.40887,0.996179,-0.281248,-0.203874
752983,1,-1.57045,-0.523512,0.000213887,-2.09685,-0.00124906,1.57121,0.785669,-1.5708,-0.5236,1.88166e-07,-2.0944,-8.12175e-07,1.5708,0.785398,-0.000585206,-0.000830444,-1.37613e-06,0.000592214,0.000409523,-0.000266028,-0.000723959,0,0,0,0,0,0,0,-0.430592,-9.30453,-0.786069,21.9397,1.70687,1.39181,-0.193899,-0.444262,-0.229967,-0.297319,3.40927,0.99611,-0.281168,-0.203665
752984,1,-1.57045,-0.52351,0.000214416,-2.09685,-0.00124967,1.57121,0.785665,-1.5708,-0.5236,1.88166e-07,-2.0944,-8.12175e-07,1.5708,0.785398,-0.000390137,3.18248e-06,0.000648697,-0.000718815,6.95648e-05,-0.000177352,-0.00166943,0,0,0,0,0,0,0,-0.430592,-9.32834,-0.81384,21.9873,1.71236,1.39181,-0.161856,-0.445993,-0.228254,-0.299864,3.40941,0.99608,-0.281121,-0.203526
752985,1,-1.57045,-0.523506,0.000210323,-2.09685,-0.00125038,1.57121,0.785671,-1.5708,-0.5236,1.88166e-07,-2.0944,-8.12175e-07,1.5708,0.785398,-0.000260091,0.00120855,-0.000773962,-0.00112882,-0.000190982,-0.000118235,0.000785915,0,0,0,0,0,0,0,-0.430592,-9.37991,-0.762265,22.0151,1.71877,1.39181,-0.213125,-0.44661,-0.228173,-0.300902,3.41021,0.996125,-0.281047,-0.203426
752986,1,-1.57045,-0.523506,0.000210165,-2.09685,-0.00124845,1.57121,0.785675,-1.5708,-0.5236,1.88166e-07,-2.0944,-8.12175e-07,1.5708,0.785398,0.000383418,0.000805698,-0.000515974,0.000453877,0.000516938,0.000395895,0.00174465,0,0,0,0,0,0,0,-0.454395,-9.37991,-0.762265,21.9635,1.70137,1.37899,-0.246084,-0.446236,-0.231296,-0.300461,3.41243,0.99624,-0.280886,-0.203321
752987,1,-1.57045,-0.523512,0.000210112,-2.09685,-0.00124967,1.57121,0.785669,-1.5708,-0.5236,1.88166e-07,-2.0944,-8.12175e-07,1.5708,0.785398,-0.000950814,-0.00122611,-0.000343983,0.00206582,-6.22755e-05,2.65709e-05,-0.000769682,0,0,0,0,0,0,0,-0.402821,-9.30453,-0.762265,21.8882,1.71236,1.3854,-0.193899,-0.445152,-0.233349,-0.298932,3.41334,0.996348,-0.280893,-0.203237
752988,1,-1.57045,-0.52351,0.000208146,-2.09685,-0.00124906,1.57121,0.785668,-1.5708,-0.5236,1.88166e-07,-2.0944,-8.12175e-07,1.5708,0.785398,0.00057255,-0.000260592,-0.000878936,0.000170789,0.000161934,1.77139e-05,-0.000987839,0,0,0,0,0,0,0,-0.454395,-9.32834,-0.734494,21.9397,1.70687,1.3854,-0.181082,-0.443664,-0.231138,-0.296814,3.4114,0.996408,-0.281178,-0.20321
752989,1,-1.57045,-0.523508,0.000210089,-2.09685,-0.00125038,1.57121,0.785673,-1.5708,-0.5236,1.88166e-07,-2.0944,-8.12175e-07,1.5708,0.785398,0.0003817,0.000475886,6.36567e-05,-0.000442953,-0.000332854,-0.00022555,0.00100295,0,0,0,0,0,0,0,-0.454395,-9.35611,-0.762265,21.9635,1.71877,1.39181,-0.225942,-0.442394,-0.228107,-0.294937,3.40916,0.996442,-0.281481,-0.203213
752990,1,-1.57045,-0.523506,0.000212218,-2.09685,-0.00125038,1.57121,0.785673,-1.5708,-0.5236,1.88166e-07,-2.0944,-8.12175e-07,1.5708,0.785398,-0.000951959,0.000874069,4.24378e-05,-0.000295302,-0.000221903,-0.000150366,0.000668635,0,0,0,0,0,0,0,-0.402821,-9.37991,-0.762265,21.9635,1.71877,1.39181,-0.225942,-0.441631,-0.227914,-0.293801,3.40883,0.996483,-0.281603,-0.203214
752991,1,-1.57045,-0.523508,0.000212467,-2.09685,-0.00124906,1.57121,0.78567,-1.5708,-0.5236,1.88166e-07,-2.0944,-8.12175e-07,1.5708,0.785398,-0.00063464,2.59009e-05,0.000585104,0.00156637,0.000292874,0.000137115,-0.000503679,0,0,0,0,0,0,0,-0.402821,-9.35611,-0.786069,21.8882,1.70687,1.3854,-0.200308,-0.441013,-0.229332,-0.29306,3.40929,0.996535,-0.281658,-0.203233
752992,1,-1.57045,-0.523512,0.000210323,-2.09685,-0.00124967,1.57121,0.785672,-1.5708,-0.5236,1.88166e-07,-2.0944,-8.12175e-07,1.5708,0.785398,0.000226521,-0.00118916,-0.000166743,0.00104425,-8.20088e-06,0.000328769,0.000376291,0,0,0,0,0,0,0,-0.430592,-9.30453,-0.762265,21.8882,1.71236,1.37899,-0.219534,-0.440623,-0.228587,-0.2928,3.40819,0.996547,-0.281854,-0.203294
752993,1,-1.57045,-0.523512,0.000211836,-2.09685,-0.00124906,1.57121,0.785672,-1.5708,-0.5236,1.88166e-07,-2.0944,-8.12175e-07,1.5708,0.785398,0.000707826,-0.000792772,0.00044565,-0.000510261,0.000197983,0.000219179,0.000250861,0,0,0,0,0,0,0,-0.454395,-9.30453,-0.786069,21.9397,1.70687,1.37899,-0.219534,-0.440838,-0.224769,-0.293408,3.40557,0.996503,-0.282159,-0.203387
752994,1,-1.57045,-0.523508,0.000213732,-2.09685,-0.00124906,1.57121,0.78567,-1.5708,-0.5236,1.88166e-07,-2.0944,-8.12175e-07,1.5708,0.785398,-8.4928e-05,0.000677911,0.000946714,-0.000896986,0.000131989,-0.000565957,-0.000307477,0,0,0,0,0,0,0,-0.430592,-9.35611,-0.81384,21.9635,1.70687,1.39822,-0.206716,-0.441859,-0.221586,-0.295189,3.40393,0.99644,-0.282335,-0.203505
752995,1,-1.57045,-0.523506,0.000212225,-2.09685,-0.00124967,1.57121,0.785667,-1.5708,-0.5236,1.88166e-07,-2.0944,-8.12175e-07,1.5708,0.785398,-5.66187e-05,0.00100875,-0.000575283,-0.000597991,-0.000115458,-0.000614664,-0.00139178,0,0,0,0,0,0,0,-0.430592,-9.37991,-0.762265,21.9635,1.71236,1.40463,-0.174673,-0.443007,-0.222414,-0.297224,3.40488,0.996416,-0.282263,-0.203643
752996,1,-1.57045,-0.523512,0.000210799,-2.09685,-0.00124967,1.57121,0.78567,-1.5708,-0.5236,1.88166e-07,-2.0944,-8.12175e-07,1.5708,0.785398,0.000519066,-0.00109074,-0.000383522,-0.000398661,-7.6972e-05,0.000302301,0.000258942,0,0,0,0,0,0,0,-0.454395,-9.30453,-0.762265,21.9635,1.71236,1.3854,-0.206716,-0.443435,-0.225331,-0.298178,3.40706,0.996441,-0.282062,-0.203785
752997,1,-1.57045,-0.52351,0.000210324,-2.09685,-0.00124906,1.57121,0.785674,-1.5708,-0.5236,1.88166e-07,-2.0944,-8.12175e-07,1.5708,0.785398,-0.000210768,-0.000170345,-0.000255681,-0.000265774,0.000152136,-3.5825e-05,0.00135942,0,0,0,0,0,0,0,-0.430592,-9.32834,-0.762265,21.9635,1.70687,1.39181,-0.23876,-0.443263,-0.226704,-0.298162,3.40853,0.996474,-0.281897,-0.203903
752998,1,-1.57045,-0.52351,0.000211836,-2.09685,-0.00125038,1.57121,0.785671,-1.5708,-0.5236,1.88166e-07,-2.0944,-8.12175e-07,1.5708,0.785398,0.0004163,-0.000113564,0.000386358,-0.000177182,-0.000339386,-2.38833e-05,-4.31541e-05,0,0,0,0,0,0,0,-0.454395,-9.32834,-0.786069,21.9635,1.71877,1.39181,-0.213125,-0.443012,-0.226769,-0.298009,3.40928,0.996491,-0.281786,-0.204005
752999,1,-1.57045,-0.52351,0.000210113,-2.09685,-0.00125099,1.57121,0.785666,-1.5708,-0.5236,1.88166e-07,-2.0944,-8.12175e-07,1.5708,0.785398,-0.000928893,-7.57091e-05,-0.00029924,0.00164512,-0.000429708,-1.59222e-05,-0.00169028,0,0,0,0,0,0,0,-0.402821,-9.32834,-0.762265,21.8882,1.72426,1.39181,-0.168264,-0.442735,-0.226217,-0.297855,3.40926,0.996491,-0.281761,-0.204123
753000,1,-1.57045,-0.523508,0.000213896,-2.09685,-0.00124967,1.57121,0.785671,-1.5708,-0.5236,1.88166e-07,-2.0944,-8.12175e-07,1.5708,0.785398,0.000587164,0.000599141,0.000357319,-0.000109682,0.000154338,-0.000485333,0.000534658,0,0,0,0,0,0,0,-0.454395,-9.35611,-0.786069,21.9397,1.71236,1.40463,-0.213125,-0.442298,-0.225339,-0.297512,3.40846,0.996489,-0.281828,-0.204248
753001,1,-1.57045,-0.523508,0.000210799,-2.09685,-0.00124967,1.57121,0.785674,-1.5708,-0.5236,1.88166e-07,-2.0944,-8.12175e-07,1.5708,0.785398,0.000391443,0.000399427,-0.0003186,-0.000629933,0.000102892,0.000151163,0.00130587,0,0,0,0,0,0,0,-0.454395,-9.35611,-0.762265,21.9635,1.71236,1.39181,-0.23876,-0.442116,-0.225935,-0.297487,3.40835,0.996502,-0.281821,-0.204343
753002,1,-1.57045,-0.523508,0.000216074,-2.09685,-0.00124906,1.57121,0.785669,-1.5708,-0.5236,1.88166e-07,-2.0944,-8.12175e-07,1.5708,0.785398,0.000260962,0.000266285,0.000994026,0.000136857,0.000272045,0.000100775,-0.00079093,0,0,0,0,0,0,0,-0.454395,-9.35611,-0.81384,21.9397,1.70687,1.39181,-0.193899,-0.442494,-0.228042,-0.298205,3.40931,0.996524,-0.281688,-0.20442
753003,1,-1.57045,-0.52351,0.000212546,-2.09685,-0.00124967,1.57121,0.785667,-1.5708,-0.5236,1.88166e-07,-2.0944,-8.12175e-07,1.5708,0.785398,0.000173975,-0.000472091,1.30702e-05,0.00064805,-2.20871e-05,0.000304542,-0.00123936,0,0,0,0,0,0,0,-0.454395,-9.32834,-0.786069,21.9159,1.71236,1.3854,-0.174673,-0.443326,-0.22944,-0.299588,3.40989,0.996526,-0.281574,-0.20451
753004,1,-1.57044,-0.523508,0.00021248,-2.09685,-0.00124906,1.57121,0.785671,-1.5708,-0.5236,1.88166e-07,-2.0944,-8.12175e-07,1.5708,0.785398,0.00132241,0.000334887,-0.000548099,0.000432033,0.000188726,-3.43307e-05,0.000597911,0,0,0,0,0,0,0,-0.50597,-9.35611,-0.762265,21.9159,1.70687,1.39181,-0.213125,-0.444227,-0.229263,-0.300958,3.40943,0.996505,-0.281549,-0.204595
753005,1,-1.57045,-0.523508,0.000212555,-2.09685,-0.00124967,1.57121,0.78567,-1.5708,-0.5236,1.88166e-07,-2.0944,-8.12175e-07,1.5708,0.785398,-0.00153125,0.000223258,0.000191413,0.000937636,-7.76333e-05,-2.28871e-05,0.000161249,0,0,0,0,0,0,0,-0.402821,-9.35611,-0.786069,21.8882,1.71236,1.39181,-0.206716,-0.444603,-0.228649,-0.301428,3.40845,0.996492,-0.281575,-0.204649
753006,1,-1.57045,-0.52351,0.000210352,-2.09685,-0.00125038,1.57121,0.78567,-1.5708,-0.5236,1.88166e-07,-2.0944,-8.12175e-07,1.5708,0.785398,0.000742407,-0.000500775,-0.000429203,-0.000581335,-0.000289115,0.000222101,-0.00012986,0,0,0,0,0,0,0,-0.478199,-9.32834,-0.762265,21.9397,1.71877,1.3854,-0.200308,-0.44425,-0.227998,-0.300858,3.4074,0.996511,-0.281601,-0.20468
753007,1,-1.57045,-0.523508,0.000213794,-2.09685,-0.00124845,1.57121,0.78567,-1.5708,-0.5236,1.88166e-07,-2.0944,-8.12175e-07,1.5708,0.785398,-0.000618686,0.000315764,0.00092029,-0.00215079,0.000451517,0.000148067,0.000150786,0,0,0,0,0,0,0,-0.430592,-9.35611,-0.81384,22.0151,1.70137,1.3854,-0.206716,-0.443851,-0.228128,-0.300257,3.40745,0.996563,-0.281492,-0.204697
753008,1,-1.57045,-0.52351,0.000211786,-2.09685,-0.00124967,1.57121,0.785672,-1.5708,-0.5236,1.88166e-07,-2.0944,-8.12175e-07,1.5708,0.785398,0.000144355,-0.000439105,-3.6087e-05,0.000329375,-0.00010589,9.87115e-05,0.000575242,0,0,0,0,0,0,0,-0.454395,-9.32834,-0.786069,21.9397,1.71236,1.3854,-0.219534,-0.443855,-0.229479,-0.300297,3.40888,0.996629,-0.281238,-0.2047
753009,1,-1.57045,-0.523506,0.000211766,-2.09685,-0.00125038,1.57121,0.785673,-1.5708,-0.5236,1.88166e-07,-2.0944,-8.12175e-07,1.5708,0.785398,-0.000460575,0.000913689,-2.4058e-05,0.000219583,-0.000307952,-0.000171551,0.000858212,0,0,0,0,0,0,0,-0.430592,-9.37991,-0.786069,21.9397,1.71877,1.39181,-0.232351,-0.443817,-0.230866,-0.300313,3.41016,0.996683,-0.28103,-0.204704
753010,1,-1.57045,-0.523508,0.000210089,-2.09685,-0.00124906,1.57121,0.78567,-1.5708,-0.5236,1.88166e-07,-2.0944,-8.12175e-07,1.5708,0.785398,-0.000956664,5.23143e-05,-0.000572851,-0.000410423,0.000235508,0.000122991,-0.000377294,0,0,0,0,0,0,0,-0.402821,-9.35611,-0.762265,21.9635,1.70687,1.3854,-0.206716,-0.443114,-0.232509,-0.29939,3.4111,0.99675,-0.280898,-0.204737
753011,1,-1.57045,-0.523512,0.000211758,-2.09685,-0.00124967,1.57121,0.785669,-1.5708,-0.5236,1.88166e-07,-2.0944,-8.12175e-07,1.5708,0.785398,0.00056865,-0.00117155,0.000174912,0.000840008,-4.64451e-05,-0.000392724,-0.000726247,0,0,0,0,0,0,0,-0.454395,-9.30453,-0.786069,21.9159,1.71236,1.39822,-0.193899,-0.441983,-0.233051,-0.297883,3.41132,0.996821,-0.280845,-0.204816
753012,1,-1.57045,-0.52351,0.000210087,-2.09685,-0.00124845,1.57121,0.785672,-1.5708,-0.5236,1.88166e-07,-2.0944,-8.12175e-07,1.5708,0.785398,0.0003791,-0.000224221,-0.000440204,3.19368e-06,0.000375938,-2.44568e-05,0.000465271,0,0,0,0,0,0,0,-0.454395,-9.32834,-0.762265,21.9397,1.70137,1.39181,-0.219534,-0.441324,-0.230836,-0.296997,3.41004,0.996834,-0.280921,-0.204923
753013,1,-1.57045,-0.523508,0.000211757,-2.09685,-0.00124906,1.57121,0.785671,-1.5708,-0.5236,1.88166e-07,-2.0944,-8.12175e-07,1.5708,0.785398,0.000252733,0.000500133,0.000263342,-0.000554683,4.71746e-05,-1.63045e-05,7.28216e-05,0,0,0,0,0,0,0,-0.454395,-9.35611,-0.786069,21.9635,1.70687,1.39181,-0.213125,-0.441261,-0.228585,-0.29689,3.40878,0.996808,-0.280993,-0.205032
753014,1,-1.57045,-0.52351,0.000210086,-2.09685,-0.00124967,1.57121,0.78567,-1.5708,-0.5236,1.88166e-07,-2.0944,-8.12175e-07,1.5708,0.785398,0.000168489,-0.000316192,-0.00038125,-0.000369789,-0.000172001,-1.08697e-05,-0.00042617,0,0,0,0,0,0,0,-0.454395,-9.32834,-0.762265,21.9635,1.71236,1.39181,-0.200308,-0.441459,-0.228211,-0.297124,3.4087,0.99678,-0.280956,-0.205143
753015,1,-1.57045,-0.523508,0.000210086,-2.09685,-0.00124906,1.57121,0.785674,-1.5708,-0.5236,1.88166e-07,-2.0944,-8.12175e-07,1.5708,0.785398,0.000112326,0.000438819,-0.000254167,-0.000246526,8.87833e-05,0.000230112,0.00114004,0,0,0,0,0,0,0,-0.454395,-9.35611,-0.762265,21.9635,1.70687,1.3854,-0.23876,-0.441595,-0.228807,-0.297221,3.40927,0.996757,-0.280861,-0.205261
753016,1,-1.57045,-0.52351,0.000210086,-2.09685,-0.00124845,1.57121,0.785673,-1.5708,-0.5236,1.88166e-07,-2.0944,-8.12175e-07,1.5708,0.785398,-0.000481928,-0.000357068,-0.000169445,-0.00016435,0.000262639,-0.00032131,0.000522668,0,0,0,0,0,0,0,-0.430592,-9.32834,-0.762265,21.9635,1.70137,1.39822,-0.232351,-0.441443,-0.22966,-0.29687,3.40997,0.996741,-0.280761,-0.20539
753017,1,-1.57045,-0.523506,0.000210086,-2.09685,-0.00125099,1.57121,0.78567,-1.5708,-0.5236,1.88166e-07,-2.0944,-8.12175e-07,1.5708,0.785398,0.000235527,0.000968381,-0.000112963,-0.000666379,-0.000672618,-0.000214206,-0.000600991,0,0,0,0,0,0,0,-0.454395,-9.37991,-0.762265,21.9873,1.72426,1.39822,-0.206716,-0.441127,-0.231048,-0.296285,3.41099,0.996727,-0.280636,-0.205553
753018,1,-1.57045,-0.52351,0.000210086,-2.09685,-0.00124967,1.57121,0.785665,-1.5708,-0.5236,1.88166e-07,-2.0944,-8.12175e-07,1.5708,0.785398,-0.000399794,-0.000560839,-7.53087e-05,0.000669371,-7.60225e-06,9.45547e-05,-0.00229953,0,0,0,0,0,0,0,-0.430592,-9.32834,-0.762265,21.9397,1.71236,1.39181,-0.155447,-0.440851,-0.232759,-0.295749,3.41214,0.996712,-0.280505,-0.205755
753019,1,-1.57045,-0.52351,0.000210086,-2.09685,-0.00124906,1.57121,0.785672,-1.5708,-0.5236,1.88166e-07,-2.0944,-8.12175e-07,1.5708,0.785398,-0.000266529,-0.000373892,-5.02058e-05,-0.000667376,0.000198382,0.000537754,0.000840568,0,0,0,0,0,0,0,-0.430592,-9.32834,-0.762265,21.9873,1.70687,1.37899,-0.219534,-0.440583,-0.233085,-0.295239,3.41249,0.996691,-0.280443,-0.205959
753020,1,-1.57045,-0.52351,0.000210086,-2.09685,-0.00125038,1.57121,0.785672,-1.5708,-0.5236,1.88166e-07,-2.0944,-8.12175e-07,1.5708,0.785398,-0.0008273,-0.000249262,-3.34705e-05,0.000668706,-0.000308555,-0.000353574,0.000560379,0,0,0,0,0,0,0,-0.402821,-9.32834,-0.762265,21.9397,1.71877,1.39822,-0.219534,-0.440154,-0.231837,-0.294563,3.41206,0.996671,-0.280449,-0.206117
753021,1,-1.57045,-0.523508,0.000208137,-2.09685,-0.00124967,1.57121,0.785669,-1.5708,-0.5236,1.88166e-07,-2.0944,-8.12175e-07,1.5708,0.785398,-0.000551534,0.00048344,-0.000671928,-0.000111008,3.16559e-05,1.64299e-06,-0.00057585,0,0,0,0,0,0,0,-0.402821,-9.35611,-0.734494,21.9635,1.71236,1.39181,-0.193899,-0.439297,-0.230524,-0.293346,3.41149,0.99667,-0.280482,-0.206236
753022,1,-1.57045,-0.523506,0.000210086,-2.09685,-0.00125099,1.57121,0.785668,-1.5708,-0.5236,1.88166e-07,-2.0944,-8.12175e-07,1.5708,0.785398,0.000838737,0.000879105,0.000201662,-7.40052e-05,-0.000419706,0.000238454,-0.000621259,0,0,0,0,0,0,0,-0.454395,-9.37991,-0.762265,21.9635,1.72426,1.3854,-0.18749,-0.438418,-0.230811,-0.292087,3.4116,0.996688,-0.280473,-0.206331
753023,1,-1.57045,-0.523508,0.000212217,-2.09685,-0.00125038,1.57121,0.785673,-1.5708,-0.5236,1.88166e-07,-2.0944,-8.12175e-07,1.5708,0.785398,-0.000647268,2.9258e-05,0.000134441,0.00106429,-7.63532e-05,0.000396328,0.00124734,0,0,0,0,0,0,0,-0.402821,-9.35611,-0.762265,21.9159,1.71877,1.37899,-0.232351,-0.438197,-0.232304,-0.291753,3.41214,0.996694,-0.280453,-0.20639
753024,1,-1.57045,-0.523508,0.000208848,-2.09685,-0.00124967,1.57121,0.78567,-1.5708,-0.5236,1.88166e-07,-2.0944,-8.12175e-07,1.5708,0.785398,-0.000431512,1.95053e-05,-0.000559986,0.000152713,0.000186457,-0.000210499,-0.000117876,0,0,0,0,0,0,0,-0.402821,-9.35611,-0.734494,21.9397,1.71236,1.39181,-0.206716,-0.438041,-0.232959,-0.291579,3.412,0.996701,-0.280513,-0.20642
753025,1,-1.57045,-0.52351,0.000213942,-2.09685,-0.0012516,1.57121,0.785669,-1.5708,-0.5236,1.88166e-07,-2.0944,-8.12175e-07,1.5708,0.785398,0.000918751,-0.00063661,0.00148272,0.00065862,-0.000519955,9.70263e-05,-0.000553302,0,0,0,0,0,0,0,-0.454395,-9.32834,-0.81384,21.9159,1.72975,1.3854,-0.193899,-0.438138,-0.232053,-0.291852,3.41107,0.996702,-0.280641,-0.206446
753026,1,-1.57045,-0.523508,0.000208216,-2.09685,-0.00124967,1.57121,0.78567,-1.5708,-0.5236,1.88166e-07,-2.0944,-8.12175e-07,1.5708,0.785398,-0.000593925,0.000225207,-0.000867563,0.00043908,0.000297623,-0.000647393,-0.000131509,0,0,0,0,0,0,0,-0.402821,-9.35611,-0.734494,21.9159,1.71236,1.40463,-0.200308,-0.438945,-0.230059,-0.293201,3.40967,0.996682,-0.280797,-0.206469
753027,1,-1.57045,-0.52351,0.000210112,-2.09685,-0.00124967,1.57121,0.785673,-1.5708,-0.5236,1.88166e-07,-2.0944,-8.12175e-07,1.5708,0.785398,0.00136729,-0.000499476,7.12388e-05,-0.000820904,0.000198415,0.000280482,0.000861763,0,0,0,0,0,0,0,-0.478199,-9.32834,-0.762265,21.9635,1.71236,1.3854,-0.225942,-0.439661,-0.22827,-0.294366,3.40859,0.996694,-0.2809,-0.206478
753028,1,-1.57045,-0.52351,0.000208146,-2.09685,-0.00125038,1.57121,0.785668,-1.5708,-0.5236,1.88166e-07,-2.0944,-8.12175e-07,1.5708,0.785398,-0.000202099,-0.000332984,-0.000602121,9.54283e-06,-0.000105082,0.000186988,-0.000849645,0,0,0,0,0,0,0,-0.430592,-9.32834,-0.734494,21.9397,1.71877,1.3854,-0.18749,-0.440149,-0.227006,-0.295064,3.40819,0.996748,-0.280906,-0.206479
753029,1,-1.57045,-0.52351,0.000213708,-2.09685,-0.00125038,1.57121,0.785665,-1.5708,-0.5236,1.88166e-07,-2.0944,-8.12175e-07,1.5708,0.785398,-0.000134732,-0.000221989,0.00145463,6.36188e-06,-7.00547e-05,0.000124659,-0.00151587,0,0,0,0,0,0,0,-0.430592,-9.32834,-0.81384,21.9397,1.71877,1.3854,-0.161856,-0.440689,-0.225758,-0.295847,3.40796,0.996819,-0.280884,-0.206479
753030,1,-1.57045,-0.523512,0.000211758,-2.09685,-0.00125038,1.57121,0.785673,-1.5708,-0.5236,1.88166e-07,-2.0944,-8.12175e-07,1.5708,0.785398,-8.98216e-05,-0.000704805,0.000320136,4.24126e-06,-4.67031e-05,0.000320465,0.00160037,0,0,0,0,0,0,0,-0.430592,-9.30453,-0.786069,21.9397,1.71877,1.37899,-0.232351,-0.441538,-0.224245,-0.29725,3.40755,0.996882,-0.280888,-0.206449
753031,1,-1.57045,-0.523506,0.000210087,-2.09685,-0.00124906,1.57121,0.785674,-1.5708,-0.5236,1.88166e-07,-2.0944,-8.12175e-07,1.5708,0.785398,0.00105374,0.00129337,-0.000343388,2.8275e-06,0.000409674,-0.000261075,0.00130427,0,0,0,0,0,0,0,-0.478199,-9.37991,-0.762265,21.9397,1.70687,1.39181,-0.23876,-0.442527,-0.223535,-0.298865,3.40745,0.996945,-0.280889,-0.206372
753032,1,-1.57045,-0.523508,0.000210086,-2.09685,-0.00124906,1.57121,0.785669,-1.5708,-0.5236,1.88166e-07,-2.0944,-8.12175e-07,1.5708,0.785398,0.000145683,0.000305433,-0.000228925,1.885e-06,0.000273116,-0.000411409,-0.000791997,0,0,0,0,0,0,0,-0.454395,-9.35611,-0.762265,21.9397,1.70687,1.39822,-0.193899,-0.443192,-0.225244,-0.299822,3.40836,0.997033,-0.28083,-0.206292
753033,1,-1.57045,-0.523512,0.000211757,-2.09685,-0.00125038,1.57121,0.785669,-1.5708,-0.5236,1.88166e-07,-2.0944,-8.12175e-07,1.5708,0.785398,9.71222e-05,-0.0010028,0.000404195,0.000558069,-0.000258732,-3.69136e-05,-0.000527998,0,0,0,0,0,0,0,-0.454395,-9.30453,-0.786069,21.9159,1.71877,1.39181,-0.193899,-0.443557,-0.227063,-0.300238,3.40917,0.997125,-0.280782,-0.20625
753034,1,-1.57045,-0.523508,0.000212217,-2.09685,-0.00124967,1.57121,0.785672,-1.5708,-0.5236,1.88166e-07,-2.0944,-8.12175e-07,1.5708,0.785398,6.47481e-05,0.00053789,-0.000287348,-0.000184766,6.48709e-05,-2.46091e-05,0.000597437,0,0,0,0,0,0,0,-0.454395,-9.35611,-0.762265,21.9397,1.71236,1.39181,-0.219534,-0.443714,-0.22715,-0.300346,3.40906,0.9972,-0.280797,-0.206231
753035,1,-1.57045,-0.523512,0.000214416,-2.09685,-0.00124906,1.57121,0.78567,-1.5708,-0.5236,1.88166e-07,-2.0944,-8.12175e-07,1.5708,0.785398,-0.000513647,-0.000847832,0.00101486,-0.000679989,0.000246698,-1.6406e-05,-0.000313785,0,0,0,0,0,0,0,-0.430592,-9.30453,-0.81384,21.9635,1.70687,1.39181,-0.200308,-0.443758,-0.227002,-0.300331,3.40902,0.997278,-0.280785,-0.206217
753036,1,-1.57045,-0.523508,0.000213942,-2.09685,-0.00125099,1.57121,0.785667,-1.5708,-0.5236,1.88166e-07,-2.0944,-8.12175e-07,1.5708,0.785398,0.000771193,0.000641204,0.000676573,0.000103486,-0.000479795,0.000463781,-0.00115863,0,0,0,0,0,0,0,-0.478199,-9.35611,-0.81384,21.9397,1.72426,1.37899,-0.174673,-0.444205,-0.227195,-0.300998,3.40939,0.997341,-0.280719,-0.206206
753037,1,-1.57045,-0.52351,0.000211836,-2.09685,-0.00124967,1.57121,0.785672,-1.5708,-0.5236,1.88166e-07,-2.0944,-8.12175e-07,1.5708,0.785398,-4.26834e-05,-0.000222144,-0.000198565,0.00183223,0.000120946,-0.000165531,0.000889095,0,0,0,0,0,0,0,-0.454395,-9.32834,-0.786069,21.8644,1.71236,1.39181,-0.219534,-0.445038,-0.227189,-0.302217,3.40927,0.997367,-0.28072,-0.206183
753038,1,-1.57044,-0.523508,0.000208164,-2.09685,-0.00124967,1.57121,0.785673,-1.5708,-0.5236,1.88166e-07,-2.0944,-8.12175e-07,1.5708,0.785398,0.00117797,0.000501518,-0.0013388,1.50596e-05,8.06308e-05,0.000127005,0.00106745,0,0,0,0,0,0,0,-0.50597,-9.35611,-0.734494,21.9159,1.71236,1.3854,-0.232351,-0.445348,-0.22669,-0.302472,3.40821,0.997388,-0.280839,-0.20614
753039,1,-1.57045,-0.52351,0.000212225,-2.09685,-0.00124906,1.57121,0.785667,-1.5708,-0.5236,1.88166e-07,-2.0944,-8.12175e-07,1.5708,0.785398,-0.000421112,-0.000315269,-0.000242921,-0.0016604,0.000257204,8.467e-05,-0.0014246,0,0,0,0,0,0,0,-0.454395,-9.32834,-0.762265,21.9873,1.70687,1.3854,-0.174673,-0.444845,-0.22696,-0.30129,3.40774,0.997461,-0.280888,-0.206101
753040,1,-1.57045,-0.52351,0.000216549,-2.09685,-0.00124967,1.57121,0.785668,-1.5708,-0.5236,1.88166e-07,-2.0944,-8.12175e-07,1.5708,0.785398,0.000276071,-0.000210179,0.00104448,0.000563505,-3.19809e-05,5.64467e-05,-0.000712373,0,0,0,0,0,0,0,-0.478199,-9.32834,-0.81384,21.9159,1.71236,1.3854,-0.181082,-0.444359,-0.227962,-0.300092,3.40833,0.997563,-0.280811,-0.206077
753041,1,-1.57045,-0.523513,0.000214653,-2.09685,-0.00124967,1.57121,0.785673,-1.5708,-0.5236,1.88166e-07,-2.0944,-8.12175e-07,1.5708,0.785398,-0.000372765,-0.00125374,0.000696319,-0.000181142,-2.13206e-05,-0.000199728,0.0011866,0,0,0,0,0,0,0,-0.454395,-9.28073,-0.81384,21.9397,1.71236,1.39181,-0.225942,-0.444694,-0.227372,-0.300218,3.40828,0.997611,-0.280782,-0.206034
753042,1,-1.57045,-0.52351,0.000210402,-2.09685,-0.00125099,1.57121,0.785674,-1.5708,-0.5236,1.88166e-07,-2.0944,-8.12175e-07,1.5708,0.785398,-0.000805322,0.000277795,-0.000742213,0.00108566,-0.000455023,0.000104207,0.00126578,0,0,0,0,0,0,0,-0.430592,-9.32834,-0.762265,21.8882,1.72426,1.3854,-0.23876,-0.445006,-0.224951,-0.300412,3.40709,0.997626,-0.280869,-0.205965
753043,1,-1.57045,-0.523508,0.000210373,-2.09685,-0.00125099,1.57121,0.785665,-1.5708,-0.5236,1.88166e-07,-2.0944,-8.12175e-07,1.5708,0.785398,0.000576743,0.000834811,-0.00114442,-0.000482649,-0.000303349,-0.000405247,-0.00200445,0,0,0,0,0,0,0,-0.478199,-9.35611,-0.734494,21.9397,1.72426,1.39822,-0.161856,-0.444237,-0.22356,-0.298965,3.40607,0.997692,-0.280964,-0.205909
753044,1,-1.57045,-0.523506,0.000210831,-2.09685,-0.00124906,1.57121,0.785667,-1.5708,-0.5236,1.88166e-07,-2.0944,-8.12175e-07,1.5708,0.785398,-0.000172317,0.00111335,-0.000113335,-0.000878578,0.000442027,-3.28054e-05,-0.000861584,0,0,0,0,0,0,0,-0.454395,-9.37991,-0.762265,21.9635,1.70687,1.39181,-0.174673,-0.442965,-0.225757,-0.2966,3.40687,0.997828,-0.280903,-0.205877
753045,1,-1.57045,-0.52351,0.000210516,-2.09685,-0.00124906,1.57121,0.785673,-1.5708,-0.5236,1.88166e-07,-2.0944,-8.12175e-07,1.5708,0.785398,-0.000114878,-0.000464191,-0.00072517,-0.000585719,0.000294685,-2.18703e-05,0.00156184,0,0,0,0,0,0,0,-0.454395,-9.32834,-0.734494,21.9635,1.70687,1.39181,-0.232351,-0.441837,-0.230085,-0.294346,3.40913,0.997999,-0.280692,-0.205823
753046,1,-1.57045,-0.523508,0.00021255,-2.09685,-0.00124967,1.57121,0.785669,-1.5708,-0.5236,1.88166e-07,-2.0944,-8.12175e-07,1.5708,0.785398,-0.00128301,0.000340153,0.000722979,-0.000390479,-6.99388e-06,0.000460138,-0.000382926,0,0,0,0,0,0,0,-0.402821,-9.35611,-0.786069,21.9635,1.71236,1.37899,-0.193899,-0.440841,-0.233595,-0.292356,3.41122,0.998162,-0.280475,-0.205732
753047,1,-1.57045,-0.52351,0.000214151,-2.09685,-0.00124967,1.57121,0.785668,-1.5708,-0.5236,1.88166e-07,-2.0944,-8.12175e-07,1.5708,0.785398,0.000351085,-0.000422845,0.000481986,-0.000817131,-4.66258e-06,6.93995e-05,-0.000492643,0,0,0,0,0,0,0,-0.454395,-9.32834,-0.786069,21.9873,1.71236,1.3854,-0.18749,-0.440407,-0.23575,-0.291372,3.41277,0.99828,-0.280305,-0.205629
753048,1,-1.57045,-0.523508,0.000212555,-2.09685,-0.00124967,1.57121,0.785674,-1.5708,-0.5236,1.88166e-07,-2.0944,-8.12175e-07,1.5708,0.785398,0.000790869,0.000367717,0.000321324,1.20577e-05,-3.10839e-06,4.62664e-05,0.00157044,0,0,0,0,0,0,0,-0.478199,-9.35611,-0.786069,21.9635,1.71236,1.3854,-0.23876,-0.4411,-0.236981,-0.292082,3.41394,0.998323,-0.280184,-0.205516
753049,1,-1.57045,-0.523513,0.000212023,-2.09685,-0.00124845,1.57121,0.785672,-1.5708,-0.5236,1.88166e-07,-2.0944,-8.12175e-07,1.5708,0.785398,-2.95662e-05,-0.00151809,0.000214216,0.00112166,0.000404829,3.08442e-05,0.000334885,0,0,0,0,0,0,0,-0.454395,-9.28073,-0.786069,21.9159,1.70137,1.3854,-0.219534,-0.442581,-0.236051,-0.29387,3.41375,0.998279,-0.280214,-0.205401
753050,1,-1.57045,-0.523508,0.000210175,-2.09685,-0.00124967,1.57121,0.785667,-1.5708,-0.5236,1.88166e-07,-2.0944,-8.12175e-07,1.5708,0.785398,-1.97108e-05,0.000751176,-0.000414001,0.000747775,-0.000137015,2.05628e-05,-0.00143826,0,0,0,0,0,0,0,-0.454395,-9.35611,-0.762265,21.9159,1.71236,1.3854,-0.174673,-0.443884,-0.232598,-0.295369,3.41172,0.998188,-0.280442,-0.205326
753051,1,-1.57045,-0.523512,0.000210116,-2.09685,-0.00124967,1.57121,0.78567,-1.5708,-0.5236,1.88166e-07,-2.0944,-8.12175e-07,1.5708,0.785398,-0.000569952,-0.000705642,-0.000276001,0.000498517,-9.13435e-05,1.37085e-05,0.000227957,0,0,0,0,0,0,0,-0.430592,-9.30453,-0.762265,21.9159,1.71236,1.3854,-0.206716,-0.444358,-0.228858,-0.295673,3.40914,0.998107,-0.280748,-0.205293
753052,1,-1.57045,-0.523508,0.000206477,-2.09685,-0.00125038,1.57121,0.785674,-1.5708,-0.5236,1.88166e-07,-2.0944,-8.12175e-07,1.5708,0.785398,0.000176844,0.000735998,-0.00139043,-0.000224468,-0.000298255,9.13903e-06,0.00133877,0,0,0,0,0,0,0,-0.454395,-9.35611,-0.710691,21.9397,1.71877,1.3854,-0.23876,-0.44385,-0.226336,-0.294521,3.40719,0.998073,-0.281005,-0.205267
753054,0.98,-1.57045,-0.52351,0.000210087,-2.09685,-0.00124784,1.57121,0.785668,-1.5708,-0.5236,1.88166e-07,-2.0944,-8.12175e-07,1.5708,0.785398,-0.000942225,7.96382e-05,7.12629e-07,0.000457049,0.000636033,-7.50579e-05,-0.00106651,0,0,0,0,0,0,0,-0.402821,-9.32834,-0.762265,21.9159,1.69588,1.39181,-0.18749,-0.442382,-0.224264,-0.29165,3.4057,0.998072,-0.281259,-0.205274
753055,0.98,-1.57045,-0.52351,0.000210087,-2.09685,-0.00124967,1.57121,0.785671,-1.5708,-0.5236,1.88166e-07,-2.0944,-8.12175e-07,1.5708,0.785398,0.000578276,5.30921e-05,4.75086e-07,-0.000252113,-0.000186329,0.00018732,0.000238432,0,0,0,0,0,0,0,-0.454395,-9.32834,-0.762265,21.9397,1.71236,1.3854,-0.213125,-0.442159,-0.223453,-0.291176,3.40523,0.998052,-0.281334,-0.205333
753056,0.98,-1.57045,-0.523512,0.000210086,-2.09685,-0.00125038,1.57121,0.785673,-1.5708,-0.5236,1.88166e-07,-2.0944,-8.12175e-07,1.5708,0.785398,0.000385517,-0.000521417,3.16724e-07,0.000388737,-0.000361579,-0.000349838,0.000871032,0,0,0,0,0,0,0,-0.454395,-9.30453,-0.762265,21.9159,1.71877,1.39822,-0.232351,-0.442399,-0.222896,-0.291346,3.40492,0.997998,-0.281381,-0.205401
753057,0.98,-1.57045,-0.523508,0.000210086,-2.09685,-0.00124967,1.57121,0.785673,-1.5708,-0.5236,1.88166e-07,-2.0944,-8.12175e-07,1.5708,0.785398,-0.000949414,0.000858814,2.11149e-07,-0.000854466,-3.69341e-06,0.000241493,0.000580688,0,0,0,0,0,0,0,-0.402821,-9.35611,-0.762265,21.9635,1.71236,1.3854,-0.232351,-0.442816,-0.222875,-0.291778,3.405,0.997935,-0.281378,-0.20548
753058,0.98,-1.57045,-0.523508,0.000211757,-2.09685,-0.00125038,1.57121,0.785668,-1.5708,-0.5236,1.88166e-07,-2.0944,-8.12175e-07,1.5708,0.785398,-0.000632943,0.000572543,0.000556953,-0.00112646,-0.000239821,-7.63637e-05,-0.00151175,0,0,0,0,0,0,0,-0.402821,-9.35611,-0.786069,21.9873,1.71877,1.39181,-0.181082,-0.44286,-0.225245,-0.291853,3.40659,0.997926,-0.281227,-0.205596
753059,0.98,-1.57045,-0.52351,0.000212217,-2.09685,-0.00124845,1.57121,0.785672,-1.5708,-0.5236,1.88166e-07,-2.0944,-8.12175e-07,1.5708,0.785398,-0.000421962,-0.000267919,-0.00018551,0.000362653,0.000484379,-5.09092e-05,0.000416323,0,0,0,0,0,0,0,-0.402821,-9.32834,-0.762265,21.9397,1.70137,1.39181,-0.219534,-0.442651,-0.228837,-0.291771,3.409,0.997955,-0.280991,-0.205746
753060,0.98,-1.57045,-0.52351,0.000208848,-2.09685,-0.00124906,1.57121,0.785674,-1.5708,-0.5236,1.88166e-07,-2.0944,-8.12175e-07,1.5708,0.785398,-0.000281308,-0.000178612,-0.000773287,0.000798581,0.000119469,0.000203419,0.000989625,0,0,0,0,0,0,0,-0.402821,-9.32834,-0.734494,21.9159,1.70687,1.3854,-0.23876,-0.442047,-0.230437,-0.291193,3.41008,0.99797,-0.280879,-0.205909
753061,0.98,-1.57045,-0.52351,0.000214124,-2.09685,-0.00125099,1.57121,0.78567,-1.5708,-0.5236,1.88166e-07,-2.0944,-8.12175e-07,1.5708,0.785398,0.00101889,-0.000119075,0.000690901,-0.00113805,-0.000564614,-0.000101746,-0.000527044,0,0,0,0,0,0,0,-0.454395,-9.32834,-0.786069,21.9873,1.72426,1.39181,-0.206716,-0.441484,-0.230221,-0.29066,3.41,0.997949,-0.280873,-0.20608
753062,0.98,-1.57045,-0.523508,0.000210875,-2.09685,-0.00125099,1.57121,0.785669,-1.5708,-0.5236,1.88166e-07,-2.0944,-8.12175e-07,1.5708,0.785398,0.000122446,0.000570231,-9.62113e-05,0.000354925,-0.000376409,0.000406887,-0.000826081,0,0,0,0,0,0,0,-0.430592,-9.35611,-0.762265,21.9397,1.72426,1.37899,-0.193899,-0.441781,-0.23028,-0.291365,3.41025,0.997891,-0.280838,-0.20627
753063,0.98,-1.57045,-0.523515,0.000210349,-2.09685,-0.00124967,1.57121,0.785673,-1.5708,-0.5236,1.88166e-07,-2.0944,-8.12175e-07,1.5708,0.785398,0.000638443,-0.0020327,-6.41409e-05,0.000793428,0.00018987,-0.000440819,0.000873433,0,0,0,0,0,0,0,-0.454395,-9.25296,-0.762265,21.9159,1.71236,1.39822,-0.232351,-0.442511,-0.229125,-0.292678,3.40981,0.997811,-0.280871,-0.206466
753064,0.98,-1.57045,-0.523506,0.000208225,-2.09685,-0.00125038,1.57121,0.78567,-1.5708,-0.5236,1.88166e-07,-2.0944,-8.12175e-07,1.5708,0.785398,-0.000780797,0.00161453,-0.000692375,0.000528952,-0.000110779,0.000180839,-0.000604506,0,0,0,0,0,0,0,-0.402821,-9.37991,-0.734494,21.9159,1.71877,1.3854,-0.200308,-0.442766,-0.226053,-0.293275,3.40806,0.997744,-0.281032,-0.20666
753065,0.98,-1.57045,-0.523513,0.000211786,-2.09685,-0.00125038,1.57121,0.785667,-1.5708,-0.5236,1.88166e-07,-2.0944,-8.12175e-07,1.5708,0.785398,-0.00107734,-0.0012437,0.000744843,-0.000204177,-7.38527e-05,0.000120559,-0.00135244,0,0,0,0,0,0,0,-0.379017,-9.28073,-0.786069,21.9397,1.71877,1.3854,-0.174673,-0.442176,-0.223758,-0.292766,3.40652,0.997742,-0.281183,-0.206853
753066,0.98,-1.57045,-0.523508,0.000213897,-2.09685,-0.00124906,1.57121,0.785668,-1.5708,-0.5236,1.88166e-07,-2.0944,-8.12175e-07,1.5708,0.785398,-0.000161417,0.000934108,0.000496562,0.000420694,0.000391574,0.000317732,-0.000426909,0,0,0,0,0,0,0,-0.402821,-9.35611,-0.786069,21.9159,1.70687,1.37899,-0.18749,-0.441418,-0.222442,-0.292268,3.40557,0.997781,-0.281283,-0.207019
753067,0.98,-1.57045,-0.523506,0.0002108,-2.09685,-0.00124845,1.57121,0.785676,-1.5708,-0.5236,1.88166e-07,-2.0944,-8.12175e-07,1.5708,0.785398,-0.000107611,0.00117955,-0.000225771,-0.000833161,0.0004645,-0.000262897,0.00137691,0,0,0,0,0,0,0,-0.402821,-9.37991,-0.762265,21.9635,1.70137,1.39181,-0.232351,-0.440962,-0.223276,-0.292351,3.4058,0.997833,-0.281291,-0.207118
753068,0.98,-1.57045,-0.523508,0.000212455,-2.09685,-0.00124845,1.57121,0.785671,-1.5708,-0.5236,1.88166e-07,-2.0944,-8.12175e-07,1.5708,0.785398,0.00113468,0.000229555,-0.000150514,1.37108e-06,0.000309667,0.000299453,-0.000268857,0,0,0,0,0,0,0,-0.454395,-9.35611,-0.762265,21.9397,1.70137,1.37899,-0.200308,-0.440696,-0.226881,-0.292654,3.40755,0.99789,-0.281176,-0.207153
753069,0.98,-1.57045,-0.52351,0.000213006,-2.09685,-0.00125038,1.57121,0.785669,-1.5708,-0.5236,1.88166e-07,-2.0944,-8.12175e-07,1.5708,0.785398,0.000756457,-0.000496577,-0.000100343,-0.000555898,-0.000437816,-0.000275082,-0.000416597,0,0,0,0,0,0,0,-0.454395,-9.32834,-0.762265,21.9635,1.71877,1.39181,-0.193899,-0.440871,-0.230051,-0.293437,3.40931,0.997903,-0.281054,-0.207159
753070,0.98,-1.57045,-0.523508,0.000214679,-2.09685,-0.00124906,1.57121,0.785672,-1.5708,-0.5236,1.88166e-07,-2.0944,-8.12175e-07,1.5708,0.785398,0.000504304,0.000318562,0.00113953,0.000743025,0.000148932,5.39708e-05,0.000671705,0,0,0,0,0,0,0,-0.454395,-9.35611,-0.81384,21.9159,1.70687,1.3854,-0.219534,-0.441721,-0.231252,-0.295115,3.41014,0.997847,-0.281011,-0.207147
753071,0.98,-1.57045,-0.523506,0.000208462,-2.09685,-0.00124967,1.57121,0.785671,-1.5708,-0.5236,1.88166e-07,-2.0944,-8.12175e-07,1.5708,0.785398,-0.000220609,0.000769187,-0.00109635,-6.14617e-05,-0.000104162,-0.000201378,0.000210444,0,0,0,0,0,0,0,-0.430592,-9.37991,-0.734494,21.9397,1.71236,1.39181,-0.213125,-0.442602,-0.231915,-0.296836,3.41043,0.997764,-0.281034,-0.207118
753072,0.98,-1.57045,-0.523512,0.000213995,-2.09685,-0.00124967,1.57121,0.785667,-1.5708,-0.5236,1.88166e-07,-2.0944,-8.12175e-07,1.5708,0.785398,-0.000796687,-0.00125045,0.000475524,-4.09745e-05,-6.94415e-05,0.000103107,-0.00128386,0,0,0,0,0,0,0,-0.402821,-9.30453,-0.786069,21.9397,1.71236,1.3854,-0.174673,-0.442465,-0.23215,-0.297097,3.41037,0.99772,-0.281088,-0.207097
753073,0.98,-1.57045,-0.52351,0.000207213,-2.09685,-0.00124845,1.57121,0.78567,-1.5708,-0.5236,1.88166e-07,-2.0944,-8.12175e-07,1.5708,0.785398,-0.00108794,-0.000276819,-0.00144622,-0.000584128,0.000360607,6.87378e-05,9.35307e-05,0,0,0,0,0,0,0,-0.379017,-9.32834,-0.710691,21.9635,1.70137,1.3854,-0.200308,-0.440996,-0.230623,-0.295509,3.40968,0.997732,-0.281165,-0.207083
753074,0.98,-1.57045,-0.523508,0.000210335,-2.09685,-0.00124906,1.57121,0.785673,-1.5708,-0.5236,1.88166e-07,-2.0944,-8.12175e-07,1.5708,0.785398,0.00159476,0.000465068,0.000242278,-0.000389419,3.6954e-05,-0.000191534,0.00101179,0,0,0,0,0,0,0,-0.478199,-9.35611,-0.762265,21.9635,1.70687,1.39181,-0.225942,-0.43903,-0.228993,-0.293152,3.4092,0.997765,-0.281207,-0.207046
753075,0.98,-1.57045,-0.52351,0.00020822,-2.09685,-0.00124906,1.57121,0.785668,-1.5708,-0.5236,1.88166e-07,-2.0944,-8.12175e-07,1.5708,0.785398,-0.000700065,-0.000339569,-0.000488095,-0.000259613,2.4636e-05,-0.000127689,-0.000749627,0,0,0,0,0,0,0,-0.402821,-9.32834,-0.734494,21.9635,1.70687,1.39181,-0.18749,-0.437712,-0.228642,-0.291571,3.40945,0.997764,-0.28119,-0.206982
753076,0.98,-1.57045,-0.523512,0.000211784,-2.09685,-0.00124845,1.57121,0.785665,-1.5708,-0.5236,1.88166e-07,-2.0944,-8.12175e-07,1.5708,0.785398,0.000739716,-0.000783191,0.000881029,0.000383737,0.000219875,-8.51261e-05,-0.00144919,0,0,0,0,0,0,0,-0.454395,-9.30453,-0.786069,21.9397,1.70137,1.39181,-0.161856,-0.437185,-0.227676,-0.29109,3.40936,0.997703,-0.281205,-0.206911
753077,0.98,-1.57045,-0.52351,0.000211766,-2.09685,-0.00124967,1.57121,0.785671,-1.5708,-0.5236,1.88166e-07,-2.0944,-8.12175e-07,1.5708,0.785398,0.00104996,3.46846e-05,0.000587353,0.000255825,-0.000260318,-5.67507e-05,0.000932747,0,0,0,0,0,0,0,-0.478199,-9.32834,-0.786069,21.9397,1.71236,1.39181,-0.213125,-0.437812,-0.225326,-0.292248,3.40839,0.997556,-0.2813,-0.20681
753078,0.98,-1.57045,-0.523508,0.000215379,-2.09685,-0.00124906,1.57121,0.785673,-1.5708,-0.5236,1.88166e-07,-2.0944,-8.12175e-07,1.5708,0.785398,-0.000413653,0.000672737,0.00159799,-0.000943074,2.99052e-05,0.000199525,0.00133391,0,0,0,0,0,0,0,-0.430592,-9.35611,-0.837644,21.9873,1.70687,1.3854,-0.232351,-0.439658,-0.223958,-0.295173,3.40787,0.997346,-0.281365,-0.206652
753079,0.98,-1.57045,-0.52351,0.000215837,-2.09685,-0.00124967,1.57121,0.785668,-1.5708,-0.5236,1.88166e-07,-2.0944,-8.12175e-07,1.5708,0.785398,-0.000275769,-0.000201123,0.000508518,0.000484908,-0.000183514,-0.000104342,-0.0010096,0,0,0,0,0,0,0,-0.430592,-9.32834,-0.81384,21.9397,1.71236,1.39181,-0.181082,-0.44167,-0.224491,-0.29849,3.40841,0.997145,-0.281343,-0.206473
753080,0.98,-1.57045,-0.523508,0.000212927,-2.09685,-0.00124906,1.57121,0.78567,-1.5708,-0.5236,1.88166e-07,-2.0944,-8.12175e-07,1.5708,0.785398,0.000372966,0.000515532,-0.000867414,0.000880084,8.1108e-05,0.000167797,3.90104e-05,0,0,0,0,0,0,0,-0.454395,-9.35611,-0.762265,21.9159,1.70687,1.3854,-0.200308,-0.442805,-0.225119,-0.300565,3.40871,0.996982,-0.281356,-0.206314
753081,0.98,-1.57045,-0.52351,0.000211033,-2.09685,-0.00124906,1.57121,0.785672,-1.5708,-0.523598,1.88212e-07,-2.0944,-8.12252e-07,1.5708,0.785398,-0.000308168,-0.000305926,-0.000578276,-0.000526901,5.4072e-05,0.000349224,0.000738084,1.18455e-07,0.00155352,4.60725e-08,-0.003125,-7.70999e-08,0.005,1.18982e-07,-0.430592,-9.32834,-0.762265,21.9635,1.70687,1.37899,-0.219534,-0.442557,-0.225328,-0.300473,3.40846,0.996874,-0.281426,-0.206173
753082,0.98,-1.57045,-0.523508,0.000210402,-2.09685,-0.00125038,1.57121,0.785668,-1.5708,-0.523595,1.88304e-07,-2.0944,-8.12406e-07,1.57081,0.785398,-0.000205445,0.000445663,-0.000385517,-0.00090808,-0.000404761,-0.000241902,-0.000694739,2.3691e-07,0.00310704,9.2145e-08,-0.00625,-1.542e-07,0.01,2.37964e-07,-0.430592,-9.35611,-0.762265,21.9873,1.71877,1.39181,-0.18749,-0.441259,-0.226079,-0.298761,3.4088,0.996836,-0.28143,-0.206042
753083,0.98,-1.57045,-0.523512,0.000215941,-2.09685,-0.00124647,1.57121,0.78567,-1.5708,-0.523591,1.88443e-07,-2.09441,-8.12638e-07,1.57083,0.785398,-0.000136964,-0.000909317,0.000949414,0.000508238,-3.2482e-05,-0.000161268,0.000248918,3.55365e-07,0.00466055,1.38218e-07,-0.009375,-2.313e-07,0.015,3.56946e-07,-0.430592,-9.30453,-0.81384,21.9397,1.71236,1.39181,-0.206716,-0.439933,-0.226823,-0.29706,3.40955,0.99682,-0.281382,-0.205924
753084,0.98,-1.57045,-0.523511,0.000214451,-2.09685,-0.00124616,1.57121,0.785673,-1.5708,-0.523584,1.88627e-07,-2.09443,-8.12946e-07,1.57085,0.785398,-9.1309e-05,0.00221574,0.000632943,-0.00248814,0.000792147,-0.000107512,0.00111538,4.73819e-07,0.00621407,1.8429e-07,-0.0125,-3.084e-07,0.02,4.75928e-07,-0.430592,-9.15378,-0.81384,21.789,1.69039,1.39181,-0.232351,-0.43945,-0.228529,-0.296716,3.41107,0.996791,-0.281262,-0.205807
753085,0.98,-1.57045,-0.523512,0.000206715,-2.09685,-0.00124935,1.57121,0.785671,-1.5708,-0.523577,1.88857e-07,-2.09444,-8.13331e-07,1.57087,0.785398,0.000495939,0.00450312,-0.00199089,-0.00310122,0.000765457,-0.000783751,3.15104e-05,5.92274e-07,0.00776759,2.30363e-07,-0.015625,-3.855e-07,0.025,5.9491e-07,-0.454395,-8.72531,-0.710691,21.416,1.68398,1.41104,-0.213125,-0.43907,-0.237625,-0.2965,3.4169,0.996838,-0.280757,-0.205697
753086,0.98,-1.57045,-0.52351,0.00020822,-2.09684,-0.00125005,1.57121,0.78567,-1.5708,-0.523567,1.89134e-07,-2.09446,-8.13794e-07,1.5709,0.785398,-0.000226186,0.00394131,-0.000770448,-0.00154832,0.000713755,0.00801328,-0.000453711,7.10729e-07,0.00932111,2.76435e-07,-0.01875,-4.626e-07,0.03,7.13892e-07,-0.430592,-8.16592,-0.734494,20.9439,1.67848,1.43667,-0.200308,-0.43765,-0.25578,-0.294528,3.42718,0.997006,-0.279896,-0.205628
753087,0.98,-1.57045,-0.523499,0.000211784,-2.09685,-0.00124804,1.57121,0.785673,-1.5708,-0.523556,1.89456e-07,-2.09448,-8.14334e-07,1.57094,0.785398,-0.000150791,0.00497803,0.000692794,-0.00229224,0.00128964,0.00542055,0.000646962,8.29184e-07,0.0108746,3.22508e-07,-0.021875,-5.397e-07,0.035,8.32874e-07,-0.430592,-7.63828,-0.786069,20.5234,1.65651,1.4559,-0.225942,-0.435935,-0.277232,-0.292027,3.4378,0.997179,-0.279041,-0.205603
753088,0.98,-1.57045,-0.523479,0.000206476,-2.09685,-0.00124747,1.57121,0.785673,-1.5708,-0.523544,1.89825e-07,-2.09451,-8.14951e-07,1.57098,0.785398,-0.000750141,0.00837672,-0.00130138,-0.000715076,0.00109712,0.00325709,0.000431308,9.47639e-07,0.0124281,3.6858e-07,-0.025,-6.168e-07,0.04,9.51857e-07,-0.402821,-7.20584,-0.710691,19.9997,1.6501,1.48153,-0.225942,-0.434489,-0.299995,-0.289962,3.44709,0.997272,-0.278148,-0.205607
753089,0.98,-1.57045,-0.523459,0.00020814,-2.09686,-0.00124432,1.57121,0.785672,-1.5708,-0.52353,1.9024e-07,-2.09454,-8.15644e-07,1.57102,0.785398,0.000706332,0.0124282,-0.000310772,0.000142614,0.000731412,0.00732598,5.01796e-05,1.06609e-06,0.0139817,4.14653e-07,-0.028125,-6.939e-07,0.045,1.07084e-06,-0.454395,-6.82895,-0.734494,19.603,1.6501,1.48153,-0.219534,-0.432848,-0.326829,-0.287523,3.45529,0.99728,-0.277023,-0.205642
753090,0.98,-1.57045,-0.52343,0.000206468,-2.09686,-0.00124399,1.57122,0.785675,-1.5708,-0.523515,1.907e-07,-2.09457,-8.16415e-07,1.57107,0.785398,0.0010277,0.0150408,-0.000763993,-0.00286651,0.000250249,0.0100733,3.34531e-05,1.18455e-06,0.0155352,4.60725e-07,-0.03125,-7.70999e-07,0.05,1.18982e-06,-0.478199,-6.57504,-0.710691,19.2301,1.65651,1.48794,-0.219534,-0.431581,-0.36053,-0.285361,3.46309,0.997197,-0.27552,-0.205707
753091,0.98,-1.57045,-0.523416,0.000208138,-2.09687,-0.00124486,1.57123,0.785672,-1.5708,-0.523497,1.91237e-07,-2.0946,-8.17276e-07,1.57113,0.785398,-0.0010781,0.0159458,4.74833e-05,-0.00251218,-0.000240068,0.012805,-0.000215057,1.39022e-06,0.0176023,5.36882e-07,-0.0375,-8.60127e-07,0.0584956,1.40124e-06,-0.402821,-6.14658,-0.734494,18.881,1.6675,1.47512,-0.213125,-0.430809,-0.40007,-0.283738,3.4705,0.997065,-0.273514,-0.205798
753092,0.98,-1.57045,-0.523394,0.000212217,-2.09689,-0.00124474,1.57124,0.785671,-1.5708,-0.523477,1.9185e-07,-2.09465,-8.18225e-07,1.5712,0.785398,-0.000718736,0.0176507,0.000681269,-0.00609853,-0.000160046,0.0138602,-0.000143371,1.59589e-06,0.0196694,6.13039e-07,-0.04375,-9.49254e-07,0.0669912,1.61265e-06,-0.402821,-5.89267,-0.762265,18.7064,1.6675,1.48794,-0.213125,-0.430042,-0.441207,-0.28224,3.47606,0.996932,-0.270987,-0.205913
753093,0.98,-1.57045,-0.523385,0.000210796,-2.09691,-0.00124409,1.57124,0.78567,-1.5708,-0.523456,1.92539e-07,-2.0947,-8.19263e-07,1.57127,0.785398,-0.000479158,0.014449,0.00045418,-0.00872104,9.67535e-05,0.0117822,-0.000570299,1.80156e-06,0.0217365,6.89195e-07,-0.05,-1.03838e-06,0.0754868,1.82407e-06,-0.402821,-5.4642,-0.762265,18.5358,1.662,1.57858,-0.200308,-0.42957,-0.47833,-0.281425,3.47837,0.996802,-0.267878,-0.20604
753094,0.98,-1.57045,-0.523369,0.000212453,-2.09692,-0.00124727,1.57124,0.785673,-1.5708,-0.523432,1.93305e-07,-2.09475,-8.20391e-07,1.57136,0.785398,0.000886988,0.0166518,0.000302786,-0.0129247,6.45023e-05,0.0102978,0.000569237,2.00723e-06,0.0238035,7.65352e-07,-0.05625,-1.12751e-06,0.0839824,2.03548e-06,-0.454395,-5.08334,-0.762265,18.2105,1.662,1.67471,-0.225942,-0.429802,-0.506597,-0.281754,3.47682,0.996666,-0.264019,-0.206163
753095,0.98,-1.57045,-0.523352,0.000210875,-2.09694,-0.00124579,1.57125,0.785673,-1.5708,-0.523406,1.94146e-07,-2.09482,-8.21607e-07,1.57145,0.785398,3.4513e-05,0.019148,0.000201858,-0.0186852,0.000890712,0.00838478,0.000379491,2.2129e-06,0.0258706,8.41509e-07,-0.0625,-1.21664e-06,0.0924781,2.2469e-06,-0.430592,-4.6033,-0.762265,17.8614,1.63912,1.79739,-0.225942,-0.430697,-0.529225,-0.28304,3.47432,0.996587,-0.25896,-0.206268
753096,0.98,-1.57045,-0.523334,0.000215639,-2.09697,-0.00124558,1.57126,0.785669,-1.5708,-0.523378,1.95064e-07,-2.09489,-8.22913e-07,1.57155,0.785398,2.30087e-05,0.0195079,0.00189781,-0.0236931,-0.00288276,0.00832212,-0.000933801,2.41858e-06,0.0279377,9.17665e-07,-0.06875,-1.30576e-06,0.100974,2.45831e-06,-0.430592,-4.04788,-0.837644,17.3893,1.60524,1.88803,-0.193899,-0.432145,-0.551783,-0.285255,3.47457,0.996651,-0.252169,-0.206354
753097,0.98,-1.57045,-0.523308,0.000211844,-2.09699,-0.00123858,1.57127,0.785668,-1.5708,-0.523348,1.96058e-07,-2.09496,-8.24308e-07,1.57166,0.785398,0.00112896,0.0223225,5.87805e-05,-0.0275404,-0.000654594,0.00979402,-0.000859893,2.62425e-06,0.0300048,9.93822e-07,-0.075,-1.39489e-06,0.109469,2.66973e-06,-0.478199,-3.59164,-0.786069,16.7942,1.56038,1.9393,-0.18749,-0.434191,-0.57489,-0.288539,3.47775,0.996851,-0.243435,-0.20642
753098,0.98,-1.57045,-0.523277,0.000211786,-2.09703,-0.00122906,1.5713,0.78567,-1.5708,-0.523316,1.97128e-07,-2.09504,-8.25792e-07,1.57178,0.785398,-0.000360982,0.0255444,3.9187e-05,-0.0324813,0.00221794,0.0112912,-9.85439e-05,2.82992e-06,0.0320719,1.06998e-06,-0.08125,-1.48402e-06,0.117965,2.88114e-06,-0.430592,-3.18698,-0.786069,16.2467,1.48073,1.97775,-0.200308,-0.436045,-0.599573,-0.291566,3.48305,0.997123,-0.232699,-0.206448
753099,0.98,-1.57045,-0.523246,0.000210096,-2.09708,-0.00123077,1.57134,0.785668,-1.5708,-0.523282,1.98274e-07,-2.09513,-8.27365e-07,1.5719,0.785398,0.000872969,0.0288858,-0.000530687,-0.0366388,0.0100751,0.0232378,-0.000777773,3.03559e-06,0.034139,1.14614e-06,-0.0875,-1.57314e-06,0.12646,3.09256e-06,-0.478199,-2.83389,-0.762265,15.8499,1.49812,1.97775,-0.181082,-0.436987,-0.62776,-0.293158,3.48952,0.997339,-0.220041,-0.20643
753100,0.98,-1.57045,-0.523214,0.000210089,-2.09713,-0.00122811,1.57139,0.785668,-1.5708,-0.523245,1.99496e-07,-2.09522,-8.29027e-07,1.57204,0.785398,-0.000531644,0.0289802,-0.000353792,-0.0413194,0.00713547,0.0295922,-0.000281156,3.24126e-06,0.0362061,1.22229e-06,-0.09375,-1.66227e-06,0.134956,3.30397e-06,-0.430592,-2.50461,-0.762265,15.5246,1.50362,1.91366,-0.18749,-0.437158,-0.657236,-0.293487,3.49433,0.997325,-0.205834,-0.20637
753101,0.98,-1.57045,-0.523183,0.000212218,-2.09719,-0.00122637,1.57145,0.785673,-1.5708,-0.523208,2.00811e-07,-2.09533,-8.30726e-07,1.57218,0.785398,0.000202382,0.0295374,-0.000235861,-0.045926,0.00437593,0.0447764,0.00123672,3.50912e-06,0.0377552,1.31447e-06,-0.103125,-1.69881e-06,0.14588,3.61328e-06,-0.454395,-2.20309,-0.762265,15.2509,1.52651,1.81021,-0.225942,-0.436685,-0.681547,-0.292855,3.49328,0.99702,-0.190648,-0.206262
753102,0.98,-1.57045,-0.52316,0.000210797,-2.09725,-0.00122935,1.57152,0.785664,-1.5708,-0.523168,2.02217e-07,-2.09544,-8.32462e-07,1.57234,0.785398,-0.0010715,0.0247094,-0.000157241,-0.0502105,0.00759156,0.0545838,-0.00202383,3.77699e-06,0.0393043,1.40665e-06,-0.1125,-1.73535e-06,0.156804,3.92258e-06,-0.402821,-1.82224,-0.762265,15.0287,1.53749,1.74612,-0.149038,-0.435752,-0.691021,-0.291679,3.48131,0.996412,-0.175228,-0.206125
753103,0.98,-1.57045,-0.523135,0.000212454,-2.09732,-0.00122801,1.5716,0.785661,-1.5708,-0.523128,2.03716e-07,-2.09556,-8.34233e-07,1.57251,0.785398,0.00049209,0.0229593,-0.000104827,-0.057188,0.00636206,0.0639616,-0.00233256,4.04485e-06,0.0408535,1.49883e-06,-0.121875,-1.77188e-06,0.167728,4.23188e-06,-0.454395,-1.52072,-0.762265,14.9811,1.5201,1.75253,-0.122488,-0.43479,-0.676048,-0.290619,3.45431,0.995482,-0.160217,-0.205983
753104,0.98,-1.57044,-0.52311,0.000216625,-2.09739,-0.00123018,1.57169,0.785666,-1.5708,-0.523085,2.05307e-07,-2.09569,-8.36042e-07,1.57269,0.785398,0.0020913,0.0203987,0.00113654,-0.0633215,0.00514084,0.0688686,0.000140378,4.31271e-06,0.0424026,1.59101e-06,-0.13125,-1.80842e-06,0.178653,4.54118e-06,-0.529774,-1.16763,-0.81384,14.7312,1.50911,1.81661,-0.168264,-0.435155,-0.634086,-0.291522,3.41268,0.994238,-0.145792,-0.205776
753105,0.98,-1.57044,-0.523081,0.00021848,-2.09748,-0.00122755,1.57178,0.785671,-1.5708,-0.523041,2.0699e-07,-2.09583,-8.37887e-07,1.57288,0.785398,0.00260062,0.0227398,0.00131451,-0.0695753,0.00505127,0.0767947,0.0017551,4.58058e-06,0.0439517,1.68319e-06,-0.140625,-1.84496e-06,0.189577,4.85048e-06,-0.581349,-0.862152,-0.837644,14.5328,1.47524,1.90725,-0.213125,-0.438243,-0.57045,-0.296247,3.36017,0.992704,-0.131782,-0.205427
753106,0.98,-1.57043,-0.523047,0.000216871,-2.09756,-0.00122477,1.57189,0.785665,-1.5708,-0.522996,2.08766e-07,-2.09598,-8.39768e-07,1.57308,0.785398,0.00294018,0.0250546,0.000319525,-0.0714008,0.00469574,0.0886063,-0.000966165,4.84844e-06,0.0455008,1.77537e-06,-0.15,-1.8815e-06,0.200501,5.15978e-06,-0.632923,-0.584442,-0.81384,14.0845,1.44686,1.96493,-0.155447,-0.443571,-0.494205,-0.303906,3.30039,0.990945,-0.118046,-0.204954
753107,0.98,-1.57043,-0.523014,0.000220232,-2.09766,-0.0012249,1.57201,0.785667,-1.5708,-0.522949,2.10633e-07,-2.09614,-8.41686e-07,1.57329,0.785398,0.00251693,0.0279049,0.00132664,-0.078892,0.0033383,0.100991,6.79668e-05,5.1163e-06,0.04705,1.86755e-06,-0.159375,-1.91804e-06,0.211425,5.46908e-06,-0.656727,-0.358307,-0.861447,13.7354,1.44686,1.9393,-0.174673,-0.449873,-0.413689,-0.312516,3.23575,0.989028,-0.104502,-0.204412
753108,0.98,-1.57043,-0.522983,0.000222188,-2.09777,-0.00122179,1.57216,0.78567,-1.5708,-0.5229,2.12593e-07,-2.09631,-8.43641e-07,1.57351,0.785398,0.00288438,0.0286639,0.00153404,-0.093082,0.00343255,0.116598,0.000994747,5.38416e-06,0.0485991,1.95973e-06,-0.16875,-1.95457e-06,0.222349,5.77838e-06,-0.708302,-0.080597,-0.889218,13.4894,1.41847,1.86148,-0.200308,-0.456811,-0.336846,-0.321634,3.17134,0.987061,-0.0906543,-0.203811
753109,0.98,-1.57043,-0.52295,0.00022386,-2.0979,-0.00121738,1.57233,0.78567,-1.5708,-0.52285,2.14645e-07,-2.09649,-8.45632e-07,1.57374,0.785398,0.00247973,0.0272432,0.00157951,-0.104644,0.0122746,0.128802,0.000663165,5.65203e-06,0.0501482,2.05191e-06,-0.178125,-1.99111e-06,0.233273,6.08768e-06,-0.732105,0.149506,-0.913022,13.3149,1.40749,1.75253,-0.200308,-0.464456,-0.26822,-0.331399,3.11285,0.985141,-0.0758663,-0.203171
753110,0.98,-1.57043,-0.522923,0.000218571,-2.09803,-0.00121058,1.57251,0.785664,-1.5708,-0.522798,2.16789e-07,-2.09668,-8.4766e-07,1.57399,0.785398,0.00165315,0.0280559,-0.000710234,-0.11523,0.00990701,0.147644,-0.00145676,5.91989e-06,0.0516973,2.14408e-06,-0.1875,-2.02765e-06,0.244197,6.39698e-06,-0.732105,0.427216,-0.837644,13.0649,1.3846,1.64266,-0.149038,-0.471734,-0.206316,-0.340147,3.06125,0.983304,-0.0601028,-0.202554
753111,0.98,-1.57043,-0.522894,0.000220242,-2.09818,-0.00120917,1.57271,0.785669,-1.5708,-0.522746,2.19034e-07,-2.09688,-8.49677e-07,1.57425,0.785398,-0.00121795,0.0291632,8.33228e-05,-0.125357,0.00726183,0.163895,0.000690338,6.2299e-06,0.0525803,2.2452e-06,-0.19912,-2.0171e-06,0.256415,6.7686e-06,-0.632923,0.681122,-0.861447,12.9181,1.3846,1.5914,-0.193899,-0.476598,-0.14978,-0.344994,3.01529,0.981635,-0.0438315,-0.201982
753112,0.98,-1.57043,-0.52286,0.000222191,-2.09833,-0.00120808,1.57291,0.785668,-1.5708,-0.522692,2.2138e-07,-2.09709,-8.51683e-07,1.57451,0.785398,0.00150809,0.0319034,0.000705162,-0.133769,0.00553753,0.174118,0.000222866,6.53992e-06,0.0534633,2.34631e-06,-0.210739,-2.00656e-06,0.268633,7.14021e-06,-0.732105,0.855682,-0.889218,12.815,1.37911,1.5978,-0.18749,-0.479168,-0.0994254,-0.346326,2.97409,0.980121,-0.0275296,-0.201424
753113,0.98,-1.57042,-0.522828,0.000220242,-2.09849,-0.00120792,1.57312,0.785663,-1.5708,-0.522638,2.23828e-07,-2.09731,-8.53679e-07,1.57479,0.785398,0.00221182,0.0337547,-0.000179506,-0.138819,0.00406134,0.186299,-0.00154684,6.84993e-06,0.0543463,2.44742e-06,-0.222359,-1.99601e-06,0.28085,7.51183e-06,-0.78368,1.03421,-0.861447,12.6682,1.37911,1.61703,-0.141714,-0.481619,-0.0548104,-0.347105,2.93554,0.978578,-0.0116425,-0.200859
753114,0.98,-1.57042,-0.522792,0.000222373,-2.09866,-0.00120985,1.57335,0.785668,-1.5708,-0.522583,2.26376e-07,-2.09754,-8.55665e-07,1.57509,0.785398,0.00147454,0.036217,-0.00011967,-0.147979,0.0033917,0.196715,0.000426833,7.15994e-06,0.0552293,2.54854e-06,-0.233978,-1.98546e-06,0.293068,7.88345e-06,-0.78368,1.16116,-0.861447,12.4936,1.36812,1.71408,-0.181082,-0.484639,-0.0140716,-0.348047,2.89694,0.976893,0.00347722,-0.200278
753115,0.98,-1.57041,-0.522758,0.000221412,-2.09883,-0.00120638,1.57358,0.785667,-1.5708,-0.522526,2.29026e-07,-2.09779,-8.5764e-07,1.57539,0.785399,0.00395269,0.037328,-0.000636592,-0.163252,0.00290987,0.210844,4.71965e-05,7.46995e-06,0.0561123,2.64965e-06,-0.245598,-1.97491e-06,0.305286,8.25506e-06,-0.910633,1.31192,-0.837644,12.3191,1.35622,1.79739,-0.174673,-0.488235,0.0216055,-0.34904,2.85989,0.975102,0.0180828,-0.199654
753116,0.98,-1.57042,-0.52272,0.000226939,-2.09902,-0.00120703,1.57384,0.785665,-1.5708,-0.522469,2.31777e-07,-2.09805,-8.59604e-07,1.57571,0.785399,0.000779089,0.0391762,0.00133884,-0.165414,0.00270621,0.227795,-0.000443254,7.77997e-06,0.0569953,2.75076e-06,-0.257218,-1.96437e-06,0.317503,8.62668e-06,-0.831288,1.4111,-0.913022,12.0969,1.33974,1.84225,-0.161856,-0.492952,0.0523216,-0.350892,2.82525,0.973221,0.0324473,-0.198989
753117,0.98,-1.57041,-0.522682,0.000227018,-2.09923,-0.00120907,1.57412,0.785661,-1.5708,-0.522412,2.34629e-07,-2.09831,-8.61558e-07,1.57604,0.785399,0.00172582,0.0401497,0.000892562,-0.182588,0.0015142,0.238874,-0.00175356,8.08998e-06,0.0578783,2.85188e-06,-0.268837,-1.95382e-06,0.329721,8.99829e-06,-0.882862,1.51425,-0.913022,11.9977,1.35072,1.8038,-0.122488,-0.498709,0.0809394,-0.353774,2.791,0.971225,0.0466045,-0.198298
753118,0.98,-1.57042,-0.522654,0.000227504,-2.09944,-0.00120554,1.57441,0.785667,-1.5708,-0.522353,2.37582e-07,-2.09859,-8.63501e-07,1.57638,0.785399,0.0019774,0.0356226,3.82294e-05,-0.18929,0.00130064,0.257708,0.000763737,8.39999e-06,0.0587613,2.95299e-06,-0.280457,-1.94327e-06,0.341938,9.36991e-06,-0.78368,1.71658,-0.889218,11.7716,1.34523,1.72689,-0.174673,-0.505091,0.112117,-0.357123,2.75584,0.969129,0.0607315,-0.197567
753119,0.98,-1.57042,-0.522613,0.000228223,-2.09968,-0.00120264,1.57473,0.785666,-1.5708,-0.522293,2.40636e-07,-2.09889,-8.65434e-07,1.57674,0.785399,0.00158051,0.0352894,2.54863e-05,-0.203351,0.00157714,0.278174,0.000271799,8.71001e-06,0.0596443,3.0541e-06,-0.292076,-1.93273e-06,0.354156,9.74153e-06,-0.78368,1.79196,-0.889218,11.6724,1.32784,1.57858,-0.168264,-0.511659,0.153953,-0.360218,2.71651,0.966927,0.0746212,-0.196793
753120,0.98,-1.57042,-0.522575,0.000224843,-2.09992,-0.00120048,1.57505,0.785658,-1.5708,-0.522233,2.43791e-07,-2.09919,-8.67356e-07,1.5771,0.785399,0.00236398,0.0349033,-0.00118944,-0.215793,0.00171112,0.296548,-0.00151422,9.02002e-06,0.0605273,3.15521e-06,-0.303696,-1.92218e-06,0.366374,1.01131e-05,-0.831288,1.86734,-0.837644,11.4978,1.31136,1.49526,-0.122488,-0.51793,0.20753,-0.362477,2.67273,0.964663,0.0880684,-0.196004
753121,0.98,-1.57042,-0.522537,0.000226594,-2.10018,-0.00119976,1.57539,0.785661,-1.5708,-0.522172,2.47052e-07,-2.09951,-8.69241e-07,1.57748,0.785399,0.000609871,0.035013,-0.000236145,-0.229636,0.0013812,0.309205,-0.000534763,9.35614e-06,0.0608632,3.26104e-06,-0.316186,-1.88514e-06,0.379007,1.05104e-05,-0.78368,1.91891,-0.861447,11.3987,1.30586,1.43667,-0.135305,-0.523581,0.267305,-0.363623,2.62812,0.962418,0.101168,-0.1952
753122,0.98,-1.57042,-0.522495,0.000222819,-2.10044,-0.00120034,1.57574,0.78567,-1.5708,-0.522111,2.50419e-07,-2.09984,-8.71089e-07,1.57787,0.785399,0.00107403,0.0357021,-0.000714242,-0.237488,0.000745107,0.320757,0.00228835,9.69227e-06,0.0611992,3.36687e-06,-0.328676,-1.84811e-06,0.39164,1.09077e-05,-0.807484,1.94272,-0.837644,11.2241,1.31136,1.44308,-0.206716,-0.528539,0.329917,-0.363778,2.58399,0.960172,0.113834,-0.194346
753123,0.98,-1.57042,-0.52245,0.000224249,-2.10071,-0.00119839,1.57609,0.785667,-1.5708,-0.522049,2.53892e-07,-2.10018,-8.729e-07,1.57828,0.785399,-0.000407434,0.0397443,-0.000476161,-0.252364,0.00116181,0.33179,0.00057613,1.00284e-05,0.0615351,3.4727e-06,-0.341166,-1.81107e-06,0.404273,1.1305e-05,-0.755909,1.94272,-0.837644,11.1249,1.29396,1.5209,-0.181082,-0.532753,0.390513,-0.362988,2.5416,0.957902,0.126014,-0.193445
753124,0.98,-1.57042,-0.522413,0.000226396,-2.101,-0.001199,1.57645,0.785662,-1.5708,-0.521987,2.5747e-07,-2.10053,-8.74674e-07,1.57869,0.785399,-0.000766203,0.0377073,0.000239371,-0.26204,0.000586705,0.339472,-0.00154869,1.03645e-05,0.061871,3.57853e-06,-0.353656,-1.77404e-06,0.416906,1.17023e-05,-0.732105,2.0181,-0.861447,10.9781,1.29946,1.61062,-0.128897,-0.53624,0.444587,-0.361422,2.50289,0.955627,0.137905,-0.19255
753125,0.98,-1.57042,-0.52237,0.000224424,-2.10131,-0.00119717,1.57684,0.785663,-1.5708,-0.521925,2.61154e-07,-2.1009,-8.76411e-07,1.57912,0.785399,9.26833e-05,0.0417816,0.000159581,-0.274634,0.0010132,0.357374,-0.000557745,1.07006e-05,0.062207,3.68436e-06,-0.366146,-1.737e-06,0.42954,1.20996e-05,-0.755909,1.99429,-0.861447,10.9265,1.28298,1.64907,-0.141714,-0.539628,0.492353,-0.360082,2.46739,0.953305,0.149614,-0.191676
753126,0.98,-1.57042,-0.522328,0.000227846,-2.10163,-0.00119716,1.57725,0.785662,-1.5708,-0.521862,2.64945e-07,-2.10127,-8.78111e-07,1.57957,0.785399,9.67939e-05,0.0409711,0.000756001,-0.286944,0.000684247,0.37392,0.000136797,1.10368e-05,0.0625429,3.79019e-06,-0.378636,-1.69997e-06,0.442173,1.24969e-05,-0.755909,1.99429,-0.889218,10.8512,1.28298,1.61062,-0.155447,-0.543725,0.533669,-0.360066,2.4344,0.9509,0.161185,-0.190786
753127,0.98,-1.57042,-0.522286,0.000223047,-2.10197,-0.00119519,1.57767,0.785667,-1.5708,-0.5218,2.68841e-07,-2.10167,-8.79774e-07,1.58002,0.785399,-0.00102284,0.0409558,-0.00125924,-0.300064,5.58498e-05,0.389839,0.00127799,1.13729e-05,0.0628788,3.89602e-06,-0.391126,-1.66293e-06,0.454806,1.28942e-05,-0.708302,1.96652,-0.81384,10.8512,1.29396,1.57217,-0.18749,-0.547987,0.57013,-0.360559,2.40317,0.948451,0.172664,-0.189869
753128,0.98,-1.57042,-0.522246,0.000221262,-2.10231,-0.00119351,1.5781,0.785667,-1.5708,-0.521736,2.72843e-07,-2.10207,-8.814e-07,1.58049,0.785399,-0.00131182,0.0402101,-0.00148911,-0.314558,0.000245624,0.406298,0.000614636,1.1709e-05,0.0632148,4.00184e-06,-0.403616,-1.6259e-06,0.467439,1.32915e-05,-0.680531,1.96652,-0.786069,10.8789,1.28847,1.55935,-0.181082,-0.550816,0.604953,-0.359246,2.3728,0.946045,0.184068,-0.188962
753129,0.98,-1.57043,-0.522197,0.000221317,-2.10267,-0.00119316,1.57856,0.785664,-1.5708,-0.521673,2.7695e-07,-2.10249,-8.82989e-07,1.58097,0.785399,-0.00262302,0.0449341,-0.000992737,-0.329804,0.000167454,0.420645,0.000409757,1.20452e-05,0.0635507,4.10767e-06,-0.416106,-1.58886e-06,0.480072,1.36888e-05,-0.605152,1.86734,-0.786069,10.8512,1.28847,1.48794,-0.181082,-0.551726,0.634958,-0.355534,2.34581,0.94378,0.195622,-0.188105
753130,0.98,-1.57043,-0.522151,0.000219664,-2.10305,-0.00119426,1.57904,0.785666,-1.5708,-0.521609,2.81164e-07,-2.10291,-8.84541e-07,1.58146,0.785399,-0.00229441,0.0478446,-0.00121864,-0.34106,-0.000292486,0.432289,3.58126e-05,1.23813e-05,0.0638866,4.2135e-06,-0.428596,-1.55183e-06,0.492705,1.40861e-05,-0.581349,1.79196,-0.762265,10.8274,1.29946,1.39181,-0.174673,-0.551262,0.652612,-0.350373,2.32594,0.941701,0.207569,-0.18731
753131,0.98,-1.57043,-0.522103,0.000217722,-2.10343,-0.00119422,1.57952,0.785658,-1.5708,-0.521545,2.85484e-07,-2.10336,-8.86041e-07,1.58197,0.785399,-0.00207811,0.04938,-0.00146204,-0.353544,-0.000192907,0.447992,-0.0019089,1.27307e-05,0.0637499,4.32054e-06,-0.441086,-1.49971e-06,0.505231,1.44878e-05,-0.557545,1.74039,-0.734494,10.8274,1.29946,1.35977,-0.122488,-0.550016,0.656043,-0.344609,2.31303,0.939765,0.219718,-0.186574
753132,0.98,-1.57043,-0.522052,0.000216053,-2.10383,-0.00119421,1.58001,0.78566,-1.5708,-0.521482,2.89912e-07,-2.10381,-8.87488e-07,1.58248,0.785399,-0.000822367,0.0479745,-0.0015315,-0.364561,-0.000127042,0.460687,-5.19001e-05,1.30801e-05,0.0636132,4.42758e-06,-0.453576,-1.44759e-06,0.517757,1.48895e-05,-0.581349,1.66501,-0.710691,10.8036,1.29946,1.40463,-0.155447,-0.548766,0.651788,-0.339223,2.30298,0.937864,0.231506,-0.185873
753133,0.98,-1.57043,-0.522008,0.000217724,-2.10424,-0.00119298,1.58051,0.785666,-1.5708,-0.521418,2.94446e-07,-2.10428,-8.88884e-07,1.58301,0.785399,-0.000543572,0.0476986,-0.000464191,-0.38012,0.000323379,0.474393,0.00210163,1.34295e-05,0.0634765,4.53462e-06,-0.466066,-1.39547e-06,0.530284,1.52911e-05,-0.581349,1.68881,-0.734494,10.7798,1.28847,1.49526,-0.213125,-0.548604,0.647605,-0.335705,2.29235,0.935898,0.242565,-0.185166
753134,0.98,-1.57043,-0.52196,0.000216054,-2.10467,-0.00119237,1.58102,0.785661,-1.5708,-0.521355,2.99088e-07,-2.10475,-8.90227e-07,1.58356,0.785399,-0.000915689,0.0491924,-0.000866272,-0.392463,0.000419916,0.491236,-0.000497785,1.37789e-05,0.0633398,4.64166e-06,-0.478556,-1.34335e-06,0.54281,1.56928e-05,-0.557545,1.6412,-0.710691,10.8036,1.28298,1.54013,-0.161856,-0.549971,0.645524,-0.334738,2.281,0.93386,0.25295,-0.184457
753135,0.98,-1.57044,-0.521913,0.000216054,-2.10511,-0.00119115,1.58157,0.785658,-1.5708,-0.521292,3.03837e-07,-2.10524,-8.91518e-07,1.58411,0.785399,-0.00125744,0.0501695,-0.000577515,-0.403774,0.000687504,0.50285,-0.00107784,1.41284e-05,0.0632031,4.74871e-06,-0.491046,-1.29123e-06,0.555336,1.60944e-05,-0.529774,1.58963,-0.710691,10.8036,1.27199,1.47512,-0.141714,-0.552145,0.644335,-0.335346,2.26919,0.93179,0.262802,-0.183792
753136,0.98,-1.57044,-0.521868,0.000214384,-2.10556,-0.00119044,1.58212,0.785667,-1.5708,-0.521228,3.08693e-07,-2.10575,-8.92757e-07,1.58468,0.785399,-0.00139314,0.0486024,-0.000941822,-0.421708,0.00069619,0.52279,0.00097686,1.44778e-05,0.0630664,4.85575e-06,-0.503536,-1.23912e-06,0.567862,1.64961e-05,-0.50597,1.51425,-0.686887,10.9027,1.26558,1.37899,-0.18749,-0.55435,0.64422,-0.336448,2.25696,0.929714,0.272269,-0.18317
753137,0.98,-1.57044,-0.521815,0.000210304,-2.10602,-0.00119044,1.58269,0.785671,-1.5708,-0.521166,3.13655e-07,-2.10626,-8.93944e-07,1.58526,0.785399,-0.0021337,0.0502344,-0.0012775,-0.432872,0.000464497,0.533892,0.00160068,1.48272e-05,0.0629297,4.96279e-06,-0.516026,-1.187e-06,0.580388,1.68978e-05,-0.454395,1.31192,-0.659116,10.9265,1.26558,1.33413,-0.213125,-0.555914,0.64524,-0.337117,2.24537,0.927679,0.281484,-0.182575
753138,0.98,-1.57044,-0.521769,0.000209594,-2.10648,-0.00118979,1.58326,0.785667,-1.5708,-0.521103,3.18725e-07,-2.10679,-8.95079e-07,1.58585,0.785399,-0.000864549,0.0513992,-0.000851663,-0.441862,-0.000537767,0.55696,-0.000357037,1.51766e-05,0.062793,5.06983e-06,-0.528516,-1.13488e-06,0.592914,1.72994e-05,-0.478199,1.23654,-0.659116,10.8036,1.28847,1.35977,-0.174673,-0.556694,0.647619,-0.337108,2.23305,0.925638,0.290106,-0.182035
753139,0.98,-1.57044,-0.521712,0.000211306,-2.10696,-0.00118994,1.58384,0.785663,-1.5708,-0.52104,3.23902e-07,-2.10733,-8.96162e-07,1.58646,0.785399,-0.00113235,0.0521514,8.18383e-05,-0.449584,-0.000765204,0.557045,-0.000475383,1.5526e-05,0.0626563,5.17687e-06,-0.541006,-1.08276e-06,0.60544,1.77011e-05,-0.454395,1.03421,-0.686887,10.7282,1.29946,1.41745,-0.168264,-0.557606,0.653588,-0.337671,2.21607,0.923446,0.29758,-0.18158
753140,0.98,-1.57045,-0.521659,0.000209739,-2.10744,-0.00119213,1.58444,0.78567,-1.5708,-0.520978,3.29186e-07,-2.10789,-8.97193e-07,1.58708,0.785399,-0.00131109,0.0539925,-0.00115187,-0.459099,-0.00135769,0.570291,0.00134459,1.58754e-05,0.0625195,5.28391e-06,-0.553496,-1.03064e-06,0.617966,1.81027e-05,-0.430592,0.907257,-0.635312,10.6052,1.32234,1.37258,-0.213125,-0.558791,0.66452,-0.338983,2.19225,0.921037,0.303821,-0.181193
753141,0.98,-1.57045,-0.52161,0.000208292,-2.10794,-0.0011914,1.58506,0.785665,-1.5708,-0.520916,3.34575e-07,-2.10845,-8.98161e-07,1.58771,0.785399,-0.0015232,0.0504702,-0.000767911,-0.470008,-0.000701559,0.586277,0.000184317,1.62279e-05,0.0619437,5.3892e-06,-0.565986,-9.68507e-07,0.630087,1.84974e-05,-0.402821,0.855682,-0.635312,10.4306,1.31685,1.30117,-0.193899,-0.559382,0.682169,-0.339776,2.16059,0.918473,0.308893,-0.180873
753142,0.98,-1.57045,-0.521563,0.000206139,-2.10845,-0.00118383,1.58568,0.78566,-1.5708,-0.520854,3.4007e-07,-2.10903,-8.99068e-07,1.58835,0.785399,-0.00101512,0.0466213,-0.00106875,-0.478923,0.00204161,0.5957,-0.00130128,1.65803e-05,0.0613678,5.49449e-06,-0.578476,-9.06371e-07,0.642207,1.88921e-05,-0.402821,0.855682,-0.611508,10.2799,1.2491,1.26913,-0.155447,-0.5593,0.713699,-0.33992,2.11815,0.915773,0.312616,-0.180652
753143,0.98,-1.57044,-0.521518,0.000207649,-2.10897,-0.00118067,1.58632,0.785664,-1.5708,-0.520793,3.45669e-07,-2.10962,-8.99912e-07,1.589,0.785399,0.000529944,0.0464839,-0.00015569,-0.491567,0.0024123,0.609481,0.000319278,1.69328e-05,0.0607919,5.59977e-06,-0.590966,-8.44235e-07,0.654328,1.92868e-05,-0.454395,0.883453,-0.635312,10.1093,1.22072,1.33413,-0.18749,-0.55954,0.763186,-0.340758,2.06377,0.912877,0.314946,-0.180525
753144,0.98,-1.57044,-0.521472,0.000205925,-2.1095,-0.00117747,1.58696,0.785666,-1.5708,-0.520733,3.51374e-07,-2.11023,-9.00694e-07,1.58967,0.785399,-0.000203319,0.0440358,-0.000660605,-0.506755,0.00160825,0.620528,0.00116229,1.72852e-05,0.0602161,5.70506e-06,-0.603456,-7.82099e-07,0.666449,1.96814e-05,-0.430592,0.883453,-0.611508,10.0577,1.22072,1.39181,-0.213125,-0.56078,0.825346,-0.343188,2.00172,0.909789,0.316331,-0.180444
753145,0.98,-1.57045,-0.521422,0.000203958,-2.11006,-0.00117575,1.58763,0.785664,-1.5708,-0.520674,3.57185e-07,-2.11084,-9.01414e-07,1.59035,0.785399,-0.00134182,0.0448273,-0.00109002,-0.518283,0.00494647,0.634984,-0.00112401,1.76377e-05,0.0596402,5.81035e-06,-0.615946,-7.19964e-07,0.67857,2.00761e-05,-0.379017,0.780304,-0.583737,10.0577,1.24361,1.35336,-0.161856,-0.561992,0.892928,-0.345788,1.93715,0.906599,0.317362,-0.180405
753146,0.98,-1.57045,-0.52137,0.000203952,-2.11062,-0.00117494,1.58831,0.785667,-1.5708,-0.520615,3.631e-07,-2.11147,-9.02072e-07,1.59104,0.785399,-0.000337626,0.0469569,-0.000726678,-0.542885,0.00348772,0.647647,-3.72653e-05,1.79901e-05,0.0590643,5.91564e-06,-0.628436,-6.57828e-07,0.690691,2.04708e-05,-0.402821,0.601776,-0.583737,10.1569,1.2491,1.31491,-0.181082,-0.562249,0.954738,-0.347279,1.87748,0.903474,0.318853,-0.180408
753147,0.98,-1.57045,-0.521323,0.000205899,-2.1112,-0.00117127,1.58901,0.785667,-1.5708,-0.520556,3.69121e-07,-2.11211,-9.02667e-07,1.59174,0.785399,0.000424613,0.0457996,0.000165162,-0.556793,0.00262029,0.664416,-0.000262202,1.83426e-05,0.0584884,6.02093e-06,-0.640926,-5.95692e-07,0.702812,2.08654e-05,-0.430592,0.526398,-0.611508,10.2323,1.2491,1.20504,-0.174673,-0.562466,0.999196,-0.348962,1.83124,0.900589,0.321635,-0.180408
753148,0.98,-1.57045,-0.521275,0.000203768,-2.1118,-0.00116882,1.58973,0.785668,-1.5708,-0.520498,3.75248e-07,-2.11276,-9.03201e-07,1.59246,0.785399,0.000283138,0.0462765,0.000110108,-0.563149,0.00237512,0.676846,0.000299916,1.8695e-05,0.0579126,6.12621e-06,-0.653416,-5.33557e-07,0.714932,2.12601e-05,-0.430592,0.399445,-0.611508,10.4306,1.23812,1.21786,-0.18749,-0.563555,1.02872,-0.35208,1.79584,0.897891,0.325285,-0.180381
753149,0.98,-1.57044,-0.521229,0.000205188,-2.1124,-0.00116522,1.59043,0.785664,-1.5708,-0.520441,3.81479e-07,-2.11343,-9.03672e-07,1.59318,0.785399,0.000745617,0.0447045,7.34052e-05,-0.574979,0.00174943,0.683131,-3.74148e-05,1.90475e-05,0.0573367,6.2315e-06,-0.665906,-4.71421e-07,0.727053,2.16548e-05,-0.454395,0.351837,-0.611508,10.629,1.23812,1.32131,-0.181082,-0.56528,1.05325,-0.356168,1.76223,0.895182,0.328723,-0.180337
753150,0.98,-1.57044,-0.52118,0.000205662,-2.11302,-0.00116646,1.59115,0.78567,-1.5708,-0.520384,3.87816e-07,-2.11411,-9.04082e-07,1.59392,0.785399,0.00105393,0.0449166,4.89368e-05,-0.585153,0.000477,0.69142,0.00116185,1.93999e-05,0.0567608,6.33679e-06,-0.678396,-4.09285e-07,0.739174,2.20495e-05,-0.478199,0.248688,-0.611508,10.6806,1.26009,1.43667,-0.213125,-0.567265,1.07806,-0.360548,1.72658,0.892367,0.33159,-0.180284
753151,0.98,-1.57045,-0.521134,0.00020749,-2.11366,-0.00116042,1.59189,0.785665,-1.5708,-0.520328,3.94254e-07,-2.1148,-9.04419e-07,1.59467,0.785399,0.000145831,0.046944,0.000589436,-0.605496,0.00122519,0.709612,-0.000174868,1.97472e-05,0.05574,6.43775e-06,-0.690886,-3.37126e-07,0.750741,2.24329e-05,-0.454395,0.197113,-0.635312,10.8274,1.23812,1.39822,-0.18749,-0.569267,1.09963,-0.364863,1.69216,0.889531,0.334308,-0.180235
753152,0.98,-1.57044,-0.521095,0.000203923,-2.11431,-0.00115607,1.59265,0.785666,-1.5708,-0.520274,4.00792e-07,-2.1155,-9.04684e-07,1.59544,0.785399,0.00130367,0.0434216,-0.000813468,-0.620511,0.00193799,0.727186,-0.000591297,2.00945e-05,0.0547192,6.53871e-06,-0.703376,-2.64966e-07,0.762309,2.28164e-05,-0.50597,0.224884,-0.583737,10.9781,1.20973,1.35977,-0.174673,-0.570881,1.11245,-0.368533,1.66452,0.886862,0.337501,-0.180214
753153,0.98,-1.57044,-0.521047,0.00020589,-2.11499,-0.00114932,1.59342,0.785665,-1.5708,-0.52022,4.07432e-07,-2.11622,-9.04877e-07,1.59621,0.785399,0.00142594,0.0461309,0.000107302,-0.636559,0.00239569,0.733028,-0.000868916,2.04418e-05,0.0536984,6.63967e-06,-0.715866,-1.92806e-07,0.773876,2.31999e-05,-0.529774,0.173309,-0.611508,11.1011,1.18135,1.37899,-0.161856,-0.572123,1.11609,-0.371415,1.6458,0.884404,0.341463,-0.180222
753154,0.98,-1.57044,-0.521007,0.000203765,-2.11566,-0.00114873,1.59419,0.785669,-1.5708,-0.520167,4.14173e-07,-2.11695,-9.04997e-07,1.597,0.785399,0.00160025,0.043779,7.15345e-05,-0.650401,0.00143307,0.740926,0.00179431,2.07891e-05,0.0526776,6.74063e-06,-0.728356,-1.20646e-07,0.785444,2.35834e-05,-0.557545,0.173309,-0.611508,11.1249,1.18685,1.4559,-0.225942,-0.573522,1.11089,-0.37417,1.63639,0.882063,0.346335,-0.18022
753155,0.98,-1.57044,-0.520964,0.000203238,-2.11637,-0.00114575,1.59498,0.785667,-1.5708,-0.520116,4.21014e-07,-2.11769,-9.05046e-07,1.59779,0.785399,-0.000139584,0.044401,-0.000601924,-0.668895,0.000781477,0.748731,0.00072149,2.11364e-05,0.0516568,6.84159e-06,-0.740846,-4.84866e-08,0.797011,2.39668e-05,-0.50597,0.0741272,-0.583737,11.2241,1.19234,1.43667,-0.213125,-0.574657,1.09777,-0.376251,1.63645,0.879794,0.352265,-0.180198
753156,0.98,-1.57044,-0.520921,0.000202042,-2.11708,-0.00114329,1.59578,0.785659,-1.5708,-0.520065,4.27957e-07,-2.11844,-9.05022e-07,1.5986,0.785399,0.000463762,0.0453944,-0.000958095,-0.681258,-0.000101114,0.762375,-0.0018926,2.14837e-05,0.050636,6.94255e-06,-0.753336,2.36732e-08,0.808579,2.43503e-05,-0.529774,-0.052826,-0.559934,11.2241,1.20973,1.3854,-0.149038,-0.574446,1.07668,-0.37614,1.64596,0.877629,0.359297,-0.180201
753157,0.98,-1.57044,-0.520881,0.000200251,-2.1178,-0.00113791,1.59657,0.785662,-1.5708,-0.520015,4.35e-07,-2.11921,-9.04926e-07,1.59942,0.785399,0.000309179,0.0454084,-0.00128834,-0.696007,0.00018657,0.774025,-0.00126173,2.1831e-05,0.0496152,7.04351e-06,-0.765826,9.58329e-08,0.820146,2.47338e-05,-0.529774,-0.155975,-0.532163,11.2003,1.20333,1.41104,-0.149038,-0.572844,1.04794,-0.373669,1.66305,0.875551,0.367119,-0.180238
753158,0.98,-1.57044,-0.520838,0.000200122,-2.11853,-0.00113388,1.59739,0.785665,-1.5708,-0.519967,4.42145e-07,-2.11999,-9.04758e-07,1.60025,0.785399,0.000855737,0.0428288,-0.000209282,-0.70097,-0.000100514,0.781118,0.000820359,2.21782e-05,0.0485944,7.14447e-06,-0.778316,1.67993e-07,0.831714,2.51173e-05,-0.557545,-0.282928,-0.559934,11.1527,1.20973,1.43667,-0.193899,-0.570802,1.01879,-0.370099,1.6812,0.873403,0.374977,-0.180261
753159,0.98,-1.57044,-0.520806,0.000197481,-2.11927,-0.00113158,1.59821,0.785661,-1.5708,-0.519919,4.4939e-07,-2.12078,-9.04518e-07,1.6011,0.785399,-7.91199e-05,0.0383573,-0.000789135,-0.711687,0.000179699,0.798812,-0.000639889,2.25255e-05,0.0475736,7.24543e-06,-0.790806,2.40152e-07,0.843281,2.55008e-05,-0.529774,-0.306732,-0.532163,11.0257,1.20333,1.43667,-0.161856,-0.56907,1.00273,-0.366517,1.6903,0.870965,0.381859,-0.180249
753160,0.98,-1.57044,-0.520767,0.00019725,-2.12003,-0.00112409,1.59905,0.78566,-1.5708,-0.519873,4.56737e-07,-2.12158,-9.04206e-07,1.60195,0.785399,-0.000609557,0.0395002,-0.00052609,-0.723189,0.00138142,0.805311,-0.000663951,2.28728e-05,0.0465527,7.34639e-06,-0.803296,3.12312e-07,0.854849,2.58842e-05,-0.50597,-0.382111,-0.532163,11.0257,1.16945,1.47512,-0.155447,-0.56735,1.00599,-0.362577,1.68572,0.868193,0.387321,-0.180223
753161,0.98,-1.57044,-0.520738,0.000197173,-2.1208,-0.00111661,1.59991,0.785661,-1.5708,-0.519828,4.64177e-07,-2.1224,-9.03806e-07,1.60282,0.785399,-0.00040637,0.0343,-0.000350727,-0.732781,0.00194346,0.823234,3.20836e-05,2.32084e-05,0.0450417,7.44071e-06,-0.815786,3.99577e-07,0.865828,2.62584e-05,-0.50597,-0.330536,-0.532163,10.9265,1.14198,1.43667,-0.168264,-0.565464,1.02656,-0.358115,1.66855,0.865126,0.391512,-0.180181
753162,0.98,-1.57044,-0.520704,0.000197147,-2.12157,-0.00110365,1.60077,0.785664,-1.5708,-0.519784,4.71712e-07,-2.12322,-9.03319e-07,1.60369,0.785399,-0.000920525,0.0325346,-0.000233818,-0.746398,0.00769649,0.834211,0.000733466,2.3544e-05,0.0435306,7.53502e-06,-0.828276,4.86841e-07,0.876807,2.66325e-05,-0.478199,-0.358307,-0.532163,10.9781,1.09621,1.44308,-0.18749,-0.563808,1.06458,-0.35376,1.63918,0.861721,0.394521,-0.180116
753163,0.98,-1.57044,-0.520674,0.000197139,-2.12237,-0.00109976,1.60165,0.785659,-1.5708,-0.519742,4.79342e-07,-2.12406,-9.02745e-07,1.60458,0.785399,-0.00117049,0.0336983,-0.000155879,-0.759648,0.00488148,0.848968,-0.000935176,2.38795e-05,0.0420196,7.62934e-06,-0.840766,5.74106e-07,0.887786,2.70067e-05,-0.454395,-0.358307,-0.532163,11.0773,1.1136,1.34695,-0.149038,-0.562395,1.11444,-0.349635,1.60165,0.857994,0.396741,-0.180039
753164,0.98,-1.57044,-0.520638,0.000195465,-2.12318,-0.00109458,1.60254,0.785665,-1.5708,-0.519701,4.87065e-07,-2.12492,-9.02084e-07,1.60548,0.785399,-0.000780329,0.0344046,-0.000660731,-0.789155,0.00723046,0.86598,0.000325985,2.42151e-05,0.0405085,7.72366e-06,-0.853256,6.61371e-07,0.898765,2.73808e-05,-0.454395,-0.48526,-0.508359,11.2241,1.14198,1.27554,-0.174673,-0.560992,1.15948,-0.345525,1.56816,0.85418,0.399274,-0.179938
753165,0.98,-1.57044,-0.520597,0.000193794,-2.124,-0.0010872,1.60344,0.785671,-1.5708,-0.519662,4.94883e-07,-2.12578,-9.01335e-07,1.60639,0.785399,0.00124302,0.0375574,-0.000997299,-0.798775,0.00850828,0.87263,0.00164148,2.45507e-05,0.0389974,7.81798e-06,-0.865746,7.48635e-07,0.909744,2.7755e-05,-0.529774,-0.735199,-0.484555,11.351,1.18685,1.24349,-0.213125,-0.55989,1.18358,-0.341745,1.55091,0.85052,0.403165,-0.179785
753166,0.98,-1.57044,-0.52056,0.000193794,-2.12485,-0.00108426,1.60435,0.785664,-1.5708,-0.519625,5.02796e-07,-2.12666,-9.00499e-07,1.60731,0.785399,0.000271867,0.0391318,-0.00381778,-0.812176,0.00507079,0.878024,-0.000329836,2.48862e-05,0.0374864,7.91229e-06,-0.878236,8.359e-07,0.920722,2.81291e-05,-0.50597,-0.965302,-0.484555,11.6248,1.22621,1.3085,-0.174673,-0.558643,1.18288,-0.337314,1.55071,0.847065,0.408322,-0.179593
753167,0.98,-1.57044,-0.520537,0.000193794,-2.12571,-0.00107425,1.60525,0.78566,-1.5708,-0.519589,5.10802e-07,-2.12755,-8.99576e-07,1.60824,0.785399,-0.000468368,0.0327162,-0.00280793,-0.822104,0.0101716,0.883736,-0.00116933,2.52218e-05,0.0359753,8.00661e-06,-0.890726,9.23165e-07,0.931701,2.85033e-05,-0.478199,-1.01291,-0.484555,11.8985,1.18685,1.34695,-0.149038,-0.555851,1.1678,-0.330141,1.5595,0.843788,0.41393,-0.179414
753168,0.98,-1.57044,-0.520507,0.000190174,-2.12659,-0.00106476,1.60617,0.785667,-1.5708,-0.519555,5.18903e-07,-2.12846,-8.98566e-07,1.60919,0.7854,-0.000869057,0.0306089,-0.00327543,-0.836065,0.0127864,0.889463,0.00159404,2.55574e-05,0.0344643,8.10093e-06,-0.903216,1.01043e-06,0.94268,2.88775e-05,-0.454395,-1.16763,-0.432981,12.2437,1.17586,1.41745,-0.213125,-0.551561,1.15445,-0.32056,1.56865,0.840585,0.419312,-0.179266
753169,0.98,-1.57044,-0.520482,0.000193794,-2.1275,-0.00106064,1.60708,0.785672,-1.5708,-0.519522,5.27098e-07,-2.12937,-8.97468e-07,1.61014,0.7854,-2.25594e-05,0.02646,-0.00112499,-0.855558,0.00896228,0.91151,0.00201213,2.58929e-05,0.0329532,8.19525e-06,-0.915706,1.09769e-06,0.953659,2.92516e-05,-0.478199,-1.21524,-0.484555,12.6444,1.19234,1.43667,-0.23876,-0.547339,1.14965,-0.311105,1.57625,0.837403,0.42435,-0.179141
753170,0.98,-1.57044,-0.520459,0.000186555,-2.12841,-0.00104596,1.60802,0.785666,-1.57079,-0.51949,5.35388e-07,-2.1303,-8.96283e-07,1.6111,0.7854,-0.000571851,0.0240858,-0.00327369,-0.875566,0.00886345,0.9175,-0.00103217,2.62285e-05,0.0314421,8.28956e-06,-0.928196,1.18496e-06,0.964638,2.96258e-05,-0.454395,-1.29062,-0.381406,13.0173,1.13558,1.52731,-0.174673,-0.544103,1.1503,-0.303246,1.58727,0.834385,0.429518,-0.179071
753171,0.98,-1.57045,-0.520428,0.000180805,-2.12934,-0.00103814,1.60895,0.785665,-1.57079,-0.519461,5.43764e-07,-2.13124,-8.94995e-07,1.61208,0.7854,-0.000938046,0.0279831,-0.00347202,-0.892623,0.0118477,0.922534,-0.00116283,2.65471e-05,0.0294706,8.37575e-06,-0.940656,1.28796e-06,0.974981,2.99896e-05,-0.430592,-1.46915,-0.329831,13.291,1.1191,1.70767,-0.161856,-0.540858,1.14691,-0.295481,1.60904,0.831695,0.435643,-0.179087
753172,0.98,-1.57045,-0.520398,0.000176754,-2.13027,-0.00103291,1.60989,0.785668,-1.57079,-0.519433,5.52226e-07,-2.13219,-8.93604e-07,1.61306,0.7854,-0.000625364,0.0275568,-0.00349065,-0.909231,0.0123842,0.934254,0.000174215,2.68657e-05,0.027499,8.46193e-06,-0.953117,1.39096e-06,0.985323,3.03534e-05,-0.430592,-1.64767,-0.282224,13.5132,1.14748,1.69485,-0.18749,-0.536909,1.12874,-0.286653,1.64691,0.829328,0.443393,-0.179147
753173,0.98,-1.57045,-0.520369,0.000176517,-2.13124,-0.00102874,1.61086,0.785665,-1.57079,-0.519408,5.60774e-07,-2.13316,-8.9211e-07,1.61406,0.7854,-0.00162334,0.025866,-0.00237386,-0.919665,0.00866528,0.940714,0.000116143,2.71843e-05,0.0255274,8.54811e-06,-0.965577,1.49396e-06,0.995665,3.07172e-05,-0.379017,-1.77066,-0.282224,13.66,1.16396,1.68844,-0.18749,-0.532856,1.09676,-0.277625,1.69839,0.827121,0.452656,-0.179199
753174,0.98,-1.57046,-0.520337,0.000174308,-2.13221,-0.00101975,1.61183,0.785663,-1.57079,-0.519384,5.69408e-07,-2.13414,-8.90513e-07,1.61507,0.7854,-0.00284546,0.0271075,-0.00161765,-0.931394,0.011465,0.944731,-0.00015993,2.75029e-05,0.0235559,8.63429e-06,-0.978038,1.59696e-06,1.00601,3.10811e-05,-0.303639,-2.00076,-0.282224,13.6878,1.15846,1.64266,-0.181082,-0.529049,1.05868,-0.2691,1.75658,0.8249,0.462866,-0.179233
753175,0.98,-1.57046,-0.520308,0.000169952,-2.13316,-0.00101432,1.61282,0.785667,-1.57079,-0.519363,5.78128e-07,-2.13513,-8.88813e-07,1.61608,0.7854,-0.00245379,0.0277508,-0.00231116,-0.933732,0.00735554,0.959507,0.00108017,2.78215e-05,0.0215843,8.72047e-06,-0.990498,1.69996e-06,1.01635,3.14449e-05,-0.279835,-2.2269,-0.230649,13.414,1.19234,1.48794,-0.213125,-0.525252,1.02014,-0.260842,1.81423,0.822522,0.473197,-0.179261
753176,0.98,-1.57046,-0.520282,0.000167576,-2.13413,-0.00100491,1.61383,0.785666,-1.57079,-0.519343,5.86935e-07,-2.13613,-8.8701e-07,1.61711,0.7854,-0.00163586,0.0270113,-0.0015605,-0.938475,0.0114037,0.97959,0.000482757,2.81401e-05,0.0196128,8.80666e-06,-1.00296,1.80297e-06,1.02669,3.18087e-05,-0.279835,-2.40543,-0.230649,13.0411,1.16396,1.17941,-0.206716,-0.52153,0.989017,-0.252788,1.86138,0.819813,0.482238,-0.179312
753177,0.98,-1.57046,-0.52027,0.000168455,-2.13509,-0.00099399,1.61484,0.785665,-1.57079,-0.519325,5.95828e-07,-2.13715,-8.85104e-07,1.61815,0.7854,-0.003018,0.01974,-0.000498319,-0.94031,0.0140627,0.997226,-0.000864956,2.84588e-05,0.0176412,8.89284e-06,-1.01542,1.90597e-06,1.03703,3.21726e-05,-0.327442,-2.42923,-0.254453,12.4936,1.14198,0.973414,-0.174673,-0.518553,0.978908,-0.245877,1.88649,0.81657,0.488308,-0.179442
753178,0.98,-1.57046,-0.520258,0.000168191,-2.13607,-0.000980297,1.61584,0.785676,-1.57079,-0.51931,6.04807e-07,-2.13817,-8.83095e-07,1.61919,0.7854,-0.00337905,0.0177442,-0.00034331,-0.947809,0.0166883,0.995766,0.00254294,2.87774e-05,0.0156696,8.97902e-06,-1.02788,2.00897e-06,1.04738,3.25364e-05,-0.279835,-2.45303,-0.254453,12.0453,1.1017,1.11441,-0.258901,-0.516385,1.00119,-0.240387,1.88265,0.812664,0.490363,-0.17968
753179,0.98,-1.57046,-0.520249,0.000168103,-2.13706,-0.000973986,1.61686,0.78568,-1.57079,-0.519296,6.13872e-07,-2.13921,-8.80983e-07,1.62025,0.7854,-0.00132914,0.0159209,-0.00339011,-0.95227,0.0112898,0.992548,0.00288209,2.9096e-05,0.0136981,9.0652e-06,-1.04034,2.11197e-06,1.05772,3.29002e-05,-0.327442,-2.45303,-0.254453,11.5256,1.13008,1.22427,-0.290945,-0.514121,1.05387,-0.234795,1.85208,0.808134,0.488629,-0.180019
753180,0.98,-1.57046,-0.520237,0.000169562,-2.13806,-0.000968958,1.61789,0.785678,-1.57079,-0.519284,6.23024e-07,-2.14027,-8.78768e-07,1.62132,0.7854,-0.00279188,0.0153956,-0.00132263,-0.965331,0.00799731,1.00493,0.00144667,2.94146e-05,0.0117265,9.15139e-06,-1.0528,2.21497e-06,1.06806,3.3264e-05,-0.252064,-2.4808,-0.306028,11.3749,1.14198,1.20504,-0.278127,-0.511044,1.12566,-0.22779,1.80241,0.803177,0.484118,-0.180495
753181,0.98,-1.57046,-0.520222,0.000170973,-2.13908,-0.000961671,1.61897,0.785673,-1.57079,-0.519275,6.32253e-07,-2.14133,-8.76445e-07,1.6224,0.7854,-0.000204927,0.0161171,-0.00108349,-0.982571,0.00560833,1.02327,-0.000730972,2.9712e-05,0.00947334,9.2291e-06,-1.06484,2.32335e-06,1.07762,3.36075e-05,-0.327442,-2.55618,-0.306028,11.3987,1.15297,1.01187,-0.232351,-0.508118,1.20102,-0.220971,1.74473,0.798104,0.478118,-0.181159
753182,0.98,-1.57046,-0.5202,0.000169312,-2.1401,-0.000948679,1.62002,0.785678,-1.57079,-0.519267,6.41559e-07,-2.14241,-8.74013e-07,1.62348,0.7854,-0.000773614,0.0190931,-0.000873631,-1.01505,0.0102469,1.03703,0.000970747,3.00095e-05,0.00722019,9.30681e-06,-1.07688,2.43174e-06,1.08718,3.3951e-05,-0.303639,-2.73471,-0.306028,11.351,1.1191,1.00546,-0.271719,-0.506717,1.25711,-0.216502,1.69719,0.793363,0.472491,-0.182
753183,0.98,-1.57046,-0.520178,0.000168759,-2.14115,-0.000933557,1.62108,0.785677,-1.57079,-0.519263,6.50944e-07,-2.1435,-8.71473e-07,1.62458,0.7854,-0.00113269,0.018473,-0.000695899,-1.02486,0.0152922,1.04256,0.000409806,3.0307e-05,0.00496704,9.38453e-06,-1.08892,2.54012e-06,1.09674,3.42945e-05,-0.279835,-2.93704,-0.306028,11.4264,1.03945,1.12814,-0.26531,-0.50664,1.27705,-0.214194,1.67403,0.789262,0.468699,-0.182978
753184,0.98,-1.57046,-0.520158,0.000164955,-2.14222,-0.000927008,1.62219,0.785678,-1.57079,-0.51926,6.60406e-07,-2.1446,-8.68825e-07,1.62569,0.7854,-0.00144985,0.017714,-0.00175547,-1.03694,0.0105295,1.05976,0.000510563,3.06045e-05,0.00271389,9.46224e-06,-1.10096,2.6485e-06,1.1063,3.46381e-05,-0.252064,-3.13541,-0.254453,11.474,1.05684,1.02468,-0.271719,-0.506648,1.26614,-0.212351,1.67077,0.785667,0.466338,-0.184089
753185,0.98,-1.57047,-0.520141,0.000163223,-2.14329,-0.000923528,1.62327,0.785682,-1.57079,-0.519259,6.69946e-07,-2.14571,-8.66068e-07,1.6268,0.7854,-0.00452687,0.0165543,-0.00179095,-1.04792,0.00690621,1.07495,0.00176453,3.09019e-05,0.000460737,9.53996e-06,-1.11301,2.75689e-06,1.11586,3.49816e-05,-0.101307,-3.31393,-0.230649,11.5732,1.07973,0.986232,-0.310171,-0.504831,1.23853,-0.20841,1.67547,0.78234,0.46418,-0.185346
753186,0.98,-1.57047,-0.520125,0.000164873,-2.14437,-0.000915171,1.62439,0.785684,-1.57079,-0.519261,6.79564e-07,-2.14684,-8.63203e-07,1.62793,0.7854,-0.00248647,0.0161958,-0.000685031,-1.05736,0.00620599,1.08204,0.00188843,3.11994e-05,-0.00179241,9.61767e-06,-1.12505,2.86527e-06,1.12542,3.53251e-05,-0.125111,-3.51627,-0.254453,11.6486,1.05135,0.889186,-0.329397,-0.500587,1.20348,-0.201776,1.68062,0.779115,0.461433,-0.186757
753187,0.98,-1.57047,-0.520124,0.000161247,-2.14547,-0.000906434,1.6255,0.78568,-1.57079,-0.519265,6.89259e-07,-2.14797,-8.60229e-07,1.62906,0.7854,-0.00102706,0.00659328,-0.00169902,-1.06787,0.00948689,1.11134,7.21582e-05,3.14969e-05,-0.00404557,9.69539e-06,-1.13709,2.97365e-06,1.13498,3.56686e-05,-0.152882,-3.59164,-0.202878,11.7002,1.04585,0.914821,-0.297354,-0.49576,1.17344,-0.194939,1.67841,0.775728,0.457257,-0.188362
753188,0.98,-1.57047,-0.520127,0.000163194,-2.14656,-0.000894223,1.62661,0.785677,-1.57079,-0.519271,6.99032e-07,-2.14912,-8.57147e-07,1.63021,0.7854,-0.000698978,0.00166532,-0.000509994,-1.07419,0.0138475,1.10457,-0.00212203,3.17943e-05,-0.00629872,9.7731e-06,-1.14913,3.08204e-06,1.14454,3.60121e-05,-0.152882,-3.61942,-0.230649,11.7002,0.989092,1.12173,-0.23876,-0.491993,1.16535,-0.189927,1.65987,0.771883,0.450799,-0.190205
753189,0.98,-1.57047,-0.520134,0.000161062,-2.14767,-0.00089089,1.62774,0.785676,-1.57079,-0.51928,7.08883e-07,-2.15028,-8.53956e-07,1.63136,0.7854,-0.000476689,-0.00142381,-0.000360192,-1.07599,0.0142793,1.10017,-0.00114342,3.20918e-05,-0.00855187,9.85082e-06,-1.16117,3.19042e-06,1.1541,3.63556e-05,-0.152882,-3.66702,-0.230649,11.6486,1.00557,1.31491,-0.246084,-0.489792,1.18799,-0.187367,1.61976,0.767313,0.441965,-0.192236
753190,0.98,-1.57047,-0.520141,0.000162022,-2.14878,-0.000882819,1.62888,0.785679,-1.57079,-0.519291,7.18812e-07,-2.15146,-8.50658e-07,1.63253,0.7854,0.000880606,-0.00297061,0.000301536,-1.09067,0.0116563,1.11439,0.000661873,3.23893e-05,-0.010805,9.92853e-06,-1.17321,3.2988e-06,1.16366,3.66991e-05,-0.204456,-3.7424,-0.254453,11.6724,0.97719,1.33413,-0.284536,-0.489305,1.23644,-0.187429,1.56034,0.761953,0.431499,-0.194331
753191,0.98,-1.57047,-0.520146,0.000163734,-2.14994,-0.000875501,1.63003,0.785674,-1.57079,-0.519304,7.28809e-07,-2.15264,-8.47252e-07,1.6337,0.7854,-0.00127499,-0.00343321,0.000839277,-1.10968,0.0130921,1.12019,-0.00125417,3.26623e-05,-0.0131922,9.99754e-06,-1.18453,3.40613e-06,1.17235,3.70161e-05,-0.125111,-3.84555,-0.282224,12.0215,0.983598,1.40463,-0.23876,-0.490096,1.29434,-0.189605,1.49362,0.756104,0.420949,-0.196403
753192,0.98,-1.57047,-0.520148,0.000163655,-2.1511,-0.000872069,1.63121,0.785674,-1.57079,-0.51932,7.38876e-07,-2.15384,-8.43738e-07,1.63488,0.7854,0.00211516,-0.00330414,0.000550998,-1.11921,0.00892026,1.13483,-0.000836115,3.29353e-05,-0.0155794,1.00666e-05,-1.19585,3.51346e-06,1.18104,3.73331e-05,-0.252064,-3.9725,-0.282224,12.1961,1.00557,1.39181,-0.23876,-0.4916,1.34519,-0.193167,1.43196,0.7501,0.411752,-0.198412
753193,0.98,-1.57047,-0.520143,0.000165299,-2.15228,-0.000866874,1.63238,0.785679,-1.57079,-0.519338,7.49011e-07,-2.15505,-8.40117e-07,1.63607,0.7854,0.000849905,-0.00145171,0.000917753,-1.13955,0.0103555,1.14627,0.000188575,3.32083e-05,-0.0179665,1.01356e-05,-1.20717,3.62079e-06,1.18973,3.765e-05,-0.22826,-4.17484,-0.306028,12.6682,1.03395,1.35336,-0.258901,-0.493799,1.37867,-0.197891,1.38199,0.744127,0.404555,-0.200312
753194,0.98,-1.57047,-0.52015,0.00016362,-2.15349,-0.000866592,1.63358,0.785676,-1.57079,-0.519358,7.59216e-07,-2.15626,-8.36389e-07,1.63727,0.7854,7.25134e-06,-0.00273762,5.02309e-05,-1.15356,0.00596278,1.16298,-0.00133235,3.34813e-05,-0.0203537,1.02046e-05,-1.21848,3.72812e-06,1.19842,3.7967e-05,-0.204456,-4.27402,-0.282224,13.1879,1.08522,1.26913,-0.219534,-0.495692,1.38779,-0.202339,1.34903,0.738426,0.399741,-0.202078
753195,0.98,-1.57047,-0.520154,0.000161487,-2.1547,-0.000866387,1.63476,0.785679,-1.57079,-0.519381,7.6949e-07,-2.15749,-8.32554e-07,1.63847,0.7854,0.00111655,-0.00431572,2.98927e-05,-1.17651,0.00303217,1.1754,-0.000176153,3.37543e-05,-0.0227409,1.02736e-05,-1.2298,3.83545e-06,1.2071,3.8284e-05,-0.252064,-4.47635,-0.282224,13.787,1.13008,1.26913,-0.23876,-0.49606,1.37161,-0.204846,1.33632,0.733257,0.397407,-0.203704
753196,0.98,-1.57046,-0.520158,0.000160776,-2.15595,-0.000855867,1.63595,0.78568,-1.57079,-0.519406,7.79832e-07,-2.15873,-8.28611e-07,1.63969,0.7854,0.00139255,-0.00502535,1.72326e-05,-1.19824,0.00442528,1.17496,0.00134063,3.40273e-05,-0.0251281,1.03426e-05,-1.24112,3.94278e-06,1.21579,3.8601e-05,-0.279835,-4.70645,-0.282224,14.3344,1.07973,1.5209,-0.278127,-0.495336,1.32983,-0.205887,1.34827,0.728822,0.397854,-0.205169
753197,0.98,-1.57046,-0.520167,0.00016434,-2.15722,-0.000852903,1.63714,0.78568,-1.57079,-0.519433,7.90244e-07,-2.15999,-8.24561e-07,1.64091,0.7854,0.00204092,-0.00756394,0.000566278,-1.21799,0.00379515,1.17525,0.00113111,3.43004e-05,-0.0275153,1.04116e-05,-1.25244,4.05011e-06,1.22448,3.8918e-05,-0.327442,-4.85721,-0.306028,14.7788,1.06783,1.74612,-0.284536,-0.494521,1.26225,-0.206724,1.38892,0.725192,0.401609,-0.206478
753198,0.98,-1.57045,-0.520184,0.000161351,-2.15846,-0.00084977,1.63834,0.785679,-1.57079,-0.519463,8.00724e-07,-2.16125,-8.20403e-07,1.64215,0.785401,0.00312305,-0.00750507,-0.000830423,-1.22262,0.00262976,1.18117,-0.000432721,3.45734e-05,-0.0299024,1.04806e-05,-1.26375,4.15744e-06,1.23317,3.9235e-05,-0.402821,-4.95639,-0.254453,14.9057,1.07332,1.84225,-0.252493,-0.494065,1.17669,-0.207726,1.45259,0.722168,0.40833,-0.207694
753199,0.98,-1.57046,-0.520196,0.000165181,-2.15972,-0.000839774,1.63955,0.785676,-1.57079,-0.519496,8.11274e-07,-2.16253,-8.16139e-07,1.64339,0.785401,0.00152462,-0.00921753,0.000651673,-1.22879,0.00489664,1.18288,-0.00052584,3.48464e-05,-0.0322896,1.05496e-05,-1.27507,4.26477e-06,1.24186,3.95519e-05,-0.379017,-5.10715,-0.306028,14.8304,0.994585,1.97134,-0.246084,-0.493762,1.08712,-0.208326,1.52496,0.719354,0.416741,-0.208879
753200,0.98,-1.57046,-0.520217,0.000161632,-2.16095,-0.000826092,1.64075,0.785678,-1.57079,-0.51953,8.21893e-07,-2.16381,-8.11766e-07,1.64464,0.785401,0.00101596,-0.0128455,-0.00077283,-1.22694,0.0115212,1.19373,-0.00035056,3.51194e-05,-0.0346768,1.06186e-05,-1.28639,4.3721e-06,1.25054,3.98689e-05,-0.379017,-5.15872,-0.254453,14.3582,0.903948,2.1517,-0.246084,-0.492985,1.00991,-0.207593,1.58973,0.716302,0.425353,-0.210069
753201,0.98,-1.57045,-0.520237,0.000170383,-2.16221,-0.000812986,1.64199,0.785679,-1.57079,-0.519567,8.32571e-07,-2.16511,-8.07292e-07,1.6459,0.785401,0.00123378,-0.0172514,0.00310342,-1.23666,0.0168957,1.20425,-0.000233707,3.53653e-05,-0.0370744,1.06788e-05,-1.29675,4.47425e-06,1.2583,4.01554e-05,-0.402821,-5.26187,-0.409177,13.8861,0.796831,2.12606,-0.246084,-0.492283,0.959002,-0.206368,1.63464,0.712572,0.433146,-0.211278
753202,0.98,-1.57045,-0.520266,0.000168192,-2.16351,-0.000808736,1.64328,0.785673,-1.57079,-0.519607,8.4331e-07,-2.16642,-8.02716e-07,1.64716,0.785401,0.00202869,-0.0228585,0.000862039,-1.24918,0.0159438,1.23027,-0.00137651,3.56112e-05,-0.039472,1.07389e-05,-1.30711,4.5764e-06,1.26606,4.04419e-05,-0.454395,-5.26187,-0.357602,13.6878,0.819719,1.72689,-0.213125,-0.49315,0.938527,-0.206853,1.65739,0.707928,0.440107,-0.212502
753203,0.98,-1.57045,-0.520288,0.000170338,-2.16479,-0.000810761,1.64455,0.785681,-1.57079,-0.519649,8.54109e-07,-2.16773,-7.98037e-07,1.64844,0.785401,0.000795458,-0.0240453,0.00113115,-1.25284,0.0127416,1.24507,0.00101511,3.58571e-05,-0.0418696,1.07991e-05,-1.31747,4.67854e-06,1.27382,4.07284e-05,-0.430592,-5.38882,-0.381406,13.5608,0.915849,1.28836,-0.26531,-0.494914,0.945371,-0.208117,1.66015,0.702385,0.446278,-0.213721
753204,0.98,-1.57045,-0.520313,0.000172446,-2.16609,-0.000812064,1.64582,0.785675,-1.57079,-0.519693,8.64969e-07,-2.16906,-7.93257e-07,1.64972,0.785401,0.000530162,-0.0251312,0.00140344,-1.26551,0.00609679,1.2513,-0.000306605,3.6103e-05,-0.0442672,1.08592e-05,-1.32782,4.78069e-06,1.28158,4.10149e-05,-0.430592,-5.51181,-0.409177,13.4616,1.01106,1.13455,-0.23876,-0.496091,0.971541,-0.208189,1.6462,0.696107,0.45131,-0.2149
753205,0.98,-1.57045,-0.520332,0.000174169,-2.16742,-0.000813973,1.64707,0.785671,-1.57079,-0.51974,8.75888e-07,-2.1704,-7.88374e-07,1.65101,0.785401,0.00146696,-0.0229627,0.00149224,-1.28239,0.00111342,1.27611,-0.0013912,3.6349e-05,-0.0466648,1.09194e-05,-1.33818,4.88284e-06,1.28934,4.13014e-05,-0.478199,-5.76572,-0.432981,13.6124,1.1136,1.21145,-0.206716,-0.496739,1.0011,-0.207329,1.62567,0.689519,0.455261,-0.21601
753206,0.98,-1.57044,-0.520356,0.000177806,-2.16873,-0.000815797,1.64833,0.785677,-1.57079,-0.519789,8.86868e-07,-2.17175,-7.83389e-07,1.65231,0.785401,0.00394755,-0.0216174,0.0022011,-1.29487,-0.000284254,1.27732,0.000259329,3.65949e-05,-0.0490624,1.09795e-05,-1.34854,4.98499e-06,1.2971,4.1588e-05,-0.605152,-6.01962,-0.484555,13.4378,1.15846,1.35336,-0.23876,-0.498203,1.01677,-0.207322,1.61049,0.683129,0.458525,-0.21701
753207,0.98,-1.57043,-0.520387,0.000177812,-2.17008,-0.000812768,1.64962,0.785677,-1.57079,-0.51984,8.97907e-07,-2.17311,-7.78302e-07,1.65361,0.785401,0.00439488,-0.0263901,0.00146729,-1.30925,-0.000120171,1.28155,0.000918871,3.68408e-05,-0.05146,1.10397e-05,-1.3589,5.08714e-06,1.30486,4.18745e-05,-0.680531,-6.17038,-0.484555,13.5132,1.16945,1.36618,-0.258901,-0.501801,1.01327,-0.209717,1.60548,0.677242,0.46151,-0.217864
753208,0.98,-1.57043,-0.520425,0.000181154,-2.1714,-0.000802645,1.6509,0.785673,-1.57079,-0.519894,9.09007e-07,-2.17448,-7.73112e-07,1.65492,0.785401,0.00181625,-0.0289935,0.00836044,-1.31767,0.00424435,1.2877,-0.000608122,3.70867e-05,-0.0538576,1.10998e-05,-1.36926,5.18929e-06,1.31262,4.2161e-05,-0.632923,-6.22195,-0.532163,13.4378,1.06233,1.35977,-0.225942,-0.508581,0.998333,-0.21621,1.60746,0.671934,0.464303,-0.218596
753209,0.98,-1.57043,-0.520472,0.000183104,-2.17276,-0.000785029,1.65221,0.785675,-1.57079,-0.51995,9.20167e-07,-2.17586,-7.67821e-07,1.65624,0.785401,0.000561186,-0.0331224,0.00674557,-1.32458,0.00916705,1.29079,0.00034057,3.73326e-05,-0.0562552,1.116e-05,-1.37962,5.29144e-06,1.32037,4.24475e-05,-0.605152,-6.17038,-0.559934,13.414,0.898454,1.35977,-0.246084,-0.518941,0.982854,-0.22797,1.60905,0.667066,0.466481,-0.21926
753210,0.98,-1.57043,-0.520524,0.000181615,-2.17413,-0.000769417,1.65355,0.785686,-1.57079,-0.520009,9.31387e-07,-2.17725,-7.62427e-07,1.65757,0.785401,0.00213734,-0.0395797,0.00368237,-1.33536,0.0105169,1.30177,0.002838,3.75785e-05,-0.0586528,1.12202e-05,-1.38998,5.39358e-06,1.32813,4.2734e-05,-0.680531,-6.095,-0.508359,13.4378,0.784929,1.14736,-0.31658,-0.530382,0.976691,-0.241269,1.60328,0.662396,0.467553,-0.219904
753211,0.98,-1.57043,-0.520574,0.000187615,-2.17549,-0.000757695,1.65487,0.785696,-1.57079,-0.52007,9.42659e-07,-2.17864,-7.5694e-07,1.65891,0.785401,0.000311248,-0.0423725,0.00451196,-1.34508,0.00967119,1.3093,0.00477421,3.77953e-05,-0.060955,1.12714e-05,-1.3992,5.4877e-06,1.33492,4.29873e-05,-0.632923,-6.095,-0.583737,13.5886,0.71718,1.05673,-0.394399,-0.540116,0.985009,-0.251645,1.58748,0.657653,0.467264,-0.220599
753212,0.98,-1.57043,-0.520619,0.000186182,-2.17687,-0.000758755,1.6562,0.785697,-1.57079,-0.520133,9.53981e-07,-2.18005,-7.51358e-07,1.66025,0.785401,-0.00044213,-0.0452428,0.00267152,-1.35191,0.00361044,1.30796,0.00365753,3.8012e-05,-0.0632572,1.13226e-05,-1.40842,5.58182e-06,1.34172,4.32406e-05,-0.605152,-6.19418,-0.559934,13.5886,0.796831,1.108,-0.407217,-0.54694,1.00628,-0.257454,1.56253,0.652562,0.465502,-0.221458
753213,0.98,-1.57043,-0.520658,0.000184312,-2.17826,-0.000759083,1.65754,0.785701,-1.57079,-0.520199,9.65355e-07,-2.18147,-7.45682e-07,1.6616,0.785401,-0.000294764,-0.04079,0.00129667,-1.39728,-0.00167902,1.31657,0.00267571,3.82287e-05,-0.0655594,1.13738e-05,-1.41765,5.67593e-06,1.34851,4.3494e-05,-0.605152,-6.44809,-0.532163,13.9099,0.909441,1.08236,-0.413626,-0.549911,1.02099,-0.257572,1.54426,0.647295,0.463743,-0.222591
753214,0.98,-1.57044,-0.5207,0.000180997,-2.17969,-0.000767593,1.6589,0.785699,-1.57079,-0.520266,9.7678e-07,-2.1829,-7.39912e-07,1.66295,0.785401,-0.00131014,-0.0421469,-0.000125229,-1.40606,-0.00631158,1.32492,0.000597012,3.84455e-05,-0.0678616,1.1425e-05,-1.42687,5.77005e-06,1.3553,4.37473e-05,-0.557545,-6.65042,-0.484555,14.4336,1.05135,0.99264,-0.381582,-0.548652,1.00131,-0.251575,1.55599,0.64242,0.464301,-0.224062
753215,0.98,-1.57043,-0.520743,0.000175716,-2.18114,-0.000771337,1.66026,0.785695,-1.57079,-0.520337,9.88256e-07,-2.18433,-7.34048e-07,1.66431,0.785401,0.000889804,-0.041754,-0.00175376,-1.41369,-0.00727962,1.3324,-0.00102615,3.86622e-05,-0.0701638,1.14762e-05,-1.43609,5.86417e-06,1.36209,4.40006e-05,-0.632923,-6.92813,-0.409177,15.0525,1.13558,0.999049,-0.34313,-0.543716,0.947123,-0.240117,1.59568,0.638085,0.466738,-0.225897
