shamilmamedov/beam_handling/log/param_estimation_ICRA/ocp_Z_15cm_0.42s_4.csv
duration, success rate, q[0], q[1], q[2], q[3], q[4], q[5], q[6],q_d[0], q_d[1], q_d[2], q_d[3], q_d[4], q_d[5], q_d[6],dq[0], dq[1], dq[2], dq[3], dq[4], dq[5], dq[6],dq_d[0], dq_d[1], dq_d[2], dq_d[3], dq_d[4], dq_d[5], dq_d[6],tau_J[0], tau_J[1], tau_J[2], tau_J[3], tau_J[4], tau_J[5], tau_J[6],tau_ext_hat_filtered[0], tau_ext_hat_filtered[1], tau_ext_hat_filtered[2], tau_ext_hat_filtered[3], tau_ext_hat_filtered[4], tau_ext_hat_filtered[5], tau_ext_hat_filtered[6]
663637,0,-1.57045,-0.523459,0.000190911,-2.09684,-0.00120591,1.57119,0.785671,-1.5708,-0.5236,1.68969e-07,-2.0944,-8.13025e-07,1.5708,0.785398,-0.00109598,0.000358349,-0.000258147,-0.000113848,0.000246138,-0.000333172,7.22975e-05,0,0,0,0,0,0,0,-0.430592,-9.40768,-0.762265,21.9397,1.70687,1.41104,-0.213125,-0.451065,-0.289291,-0.311016,3.39632,0.998798,-0.26782,-0.206467
663638,1,-1.57045,-0.523458,0.000190911,-2.09684,-0.00120591,1.57119,0.78567,-1.5708,-0.5236,1.68969e-07,-2.0944,-8.13025e-07,1.5708,0.785398,-0.000173842,0.000795711,-0.000172098,-0.000632711,0.000164092,1.52444e-05,-0.00042652,0,0,0,0,0,0,0,-0.454395,-9.43149,-0.762265,21.9635,1.70687,1.40463,-0.200308,-0.450608,-0.290682,-0.309835,3.39737,0.998881,-0.267715,-0.206561
663639,1,-1.57045,-0.523456,0.000190911,-2.09684,-0.00120724,1.5712,0.785673,-1.5708,-0.5236,1.68969e-07,-2.0944,-8.13025e-07,1.5708,0.785398,-0.000672706,0.000530474,-0.000114732,-0.000421807,-0.000331415,1.01629e-05,0.000665089,0,0,0,0,0,0,0,-0.430592,-9.43149,-0.762265,21.9635,1.71877,1.40463,-0.225942,-0.449839,-0.293947,-0.308244,3.39937,0.998982,-0.26753,-0.206657
663640,1,-1.57045,-0.523457,0.000188963,-2.09684,-0.00120724,1.57119,0.785668,-1.5708,-0.5236,1.68969e-07,-2.0944,-8.13025e-07,1.5708,0.785398,-0.000448471,-0.000203163,-0.000726102,-0.000281205,-0.000220943,-0.000230584,-0.000980761,0,0,0,0,0,0,0,-0.430592,-9.40768,-0.734494,21.9635,1.71877,1.41104,-0.18749,-0.448855,-0.297406,-0.306356,3.40152,0.99908,-0.267329,-0.206753
663641,1,-1.57045,-0.523459,0.000192582,-2.09683,-0.00120652,1.5712,0.785668,-1.5708,-0.5236,1.68969e-07,-2.0944,-8.13025e-07,1.5708,0.785398,0.000257831,-0.000135442,0.000722358,0.000926154,9.00634e-05,0.000320995,-0.00065384,0,0,0,0,0,0,0,-0.454395,-9.40768,-0.786069,21.9159,1.71236,1.39822,-0.18749,-0.448045,-0.298943,-0.304721,3.40255,0.999141,-0.267226,-0.206849
663642,1,-1.57045,-0.523455,0.000190911,-2.09683,-0.00120652,1.57119,0.785672,-1.5708,-0.5236,1.68969e-07,-2.0944,-8.13025e-07,1.5708,0.785398,0.000171888,0.000466517,-7.524e-05,0.000617436,6.00423e-05,-0.000260721,0.000750901,0,0,0,0,0,0,0,-0.454395,-9.43149,-0.762265,21.9159,1.71236,1.41104,-0.219534,-0.448147,-0.298564,-0.304395,3.40214,0.999124,-0.267263,-0.206917
663643,1,-1.57045,-0.523457,0.000194531,-2.09684,-0.00120652,1.57119,0.785673,-1.5708,-0.5236,1.68969e-07,-2.0944,-8.13025e-07,1.5708,0.785398,-0.00044222,-0.0002458,0.00115627,-0.000145188,4.00282e-05,-0.000173814,0.000975319,0,0,0,0,0,0,0,-0.430592,-9.40768,-0.81384,21.9397,1.71236,1.41104,-0.232351,-0.449019,-0.297635,-0.305246,3.40123,0.999054,-0.267349,-0.206947
663644,1,-1.57045,-0.523457,0.000192582,-2.09684,-0.00120724,1.57119,0.785669,-1.5708,-0.5236,1.68969e-07,-2.0944,-8.13025e-07,1.5708,0.785398,0.000261998,0.000392945,0.00012123,-0.000653604,-0.000210673,0.000596201,-0.000773941,0,0,0,0,0,0,0,-0.454395,-9.43149,-0.786069,21.9635,1.71877,1.39181,-0.193899,-0.450285,-0.297091,-0.306804,3.4008,0.998974,-0.26737,-0.206964
663645,1,-1.57045,-0.523454,0.000190911,-2.09684,-0.00120724,1.5712,0.78567,-1.5708,-0.5236,1.68969e-07,-2.0944,-8.13025e-07,1.5708,0.785398,0.000174666,0.000818775,-0.000475992,0.0013275,-0.000140449,-7.72506e-05,-0.000278602,0,0,0,0,0,0,0,-0.454395,-9.45529,-0.762265,21.8882,1.71877,1.40463,-0.200308,-0.451419,-0.297491,-0.308193,3.40088,0.998915,-0.267343,-0.206995
663646,1,-1.57044,-0.523457,0.000192582,-2.09684,-0.00120652,1.5712,0.785674,-1.5708,-0.5236,1.68969e-07,-2.0944,-8.13025e-07,1.5708,0.785398,0.000673256,-0.000567774,0.000239484,-0.000321425,0.000143726,0.000185859,5.16243e-05,0,0,0,0,0,0,0,-0.478199,-9.40768,-0.786069,21.9397,1.71236,1.39822,-0.206716,-0.452211,-0.297931,-0.308994,3.40068,0.998868,-0.267356,-0.20703
663647,1,-1.57045,-0.523457,0.000192582,-2.09683,-0.00120724,1.5712,0.785675,-1.5708,-0.5236,1.68969e-07,-2.0944,-8.13025e-07,1.5708,0.785398,-0.000107975,0.000178296,0.000159656,0.000342529,-0.000141541,0.000598624,0.00122121,0,0,0,0,0,0,0,-0.454395,-9.43149,-0.786069,21.9159,1.71877,1.3854,-0.23876,-0.453023,-0.297391,-0.309789,3.40002,0.998821,-0.267409,-0.207055
663648,1,-1.57045,-0.523457,0.000190911,-2.09684,-0.00120652,1.57119,0.785667,-1.5708,-0.5236,1.68969e-07,-2.0944,-8.13025e-07,1.5708,0.785398,-7.19832e-05,-0.000437948,-0.000450375,-0.000885271,0.000142998,-7.56355e-05,-0.00179681,0,0,0,0,0,0,0,-0.454395,-9.40768,-0.762265,21.9635,1.71236,1.39822,-0.168264,-0.453562,-0.29649,-0.310218,3.39945,0.998803,-0.267449,-0.207085
663649,1,-1.57044,-0.523457,0.000196201,-2.09684,-0.00120591,1.57119,0.785671,-1.5708,-0.5236,1.68969e-07,-2.0944,-8.13025e-07,1.5708,0.785398,0.000508823,-0.000291965,0.00146299,-3.33689e-05,0.000298783,-5.04237e-05,0.000226282,0,0,0,0,0,0,0,-0.478199,-9.40768,-0.837644,21.9397,1.70687,1.39822,-0.206716,-0.454077,-0.295532,-0.310662,3.39922,0.998805,-0.26746,-0.207122
663650,1,-1.57045,-0.523458,0.000192582,-2.09683,-0.00120724,1.57119,0.785674,-1.5708,-0.5236,1.68969e-07,-2.0944,-8.13025e-07,1.5708,0.785398,-0.000217597,-0.000844257,-0.0002311,0.00118418,-0.000241621,-0.000270975,0.00133765,0,0,0,0,0,0,0,-0.454395,-9.37991,-0.786069,21.8882,1.71877,1.40463,-0.23876,-0.455085,-0.293414,-0.311899,3.39841,0.99877,-0.267538,-0.207141
663651,1,-1.57045,-0.523456,0.000192582,-2.09683,-0.00120785,1.57119,0.78567,-1.5708,-0.5236,1.68969e-07,-2.0944,-8.13025e-07,1.5708,0.785398,-0.000145064,8.67757e-05,-0.000154067,0.000789453,-0.000364531,-0.000655368,-0.000295029,0,0,0,0,0,0,0,-0.454395,-9.40768,-0.786069,21.8882,1.72426,1.41745,-0.206716,-0.455719,-0.289892,-0.312629,3.39638,0.998718,-0.267751,-0.207151
663652,1,-1.57045,-0.523457,0.000188963,-2.09684,-0.00120591,1.57119,0.785665,-1.5708,-0.5236,1.68969e-07,-2.0944,-8.13025e-07,1.5708,0.785398,-9.67096e-05,0.000614662,-0.00130914,-0.000680124,0.000401239,3.78061e-05,-0.0018582,0,0,0,0,0,0,0,-0.454395,-9.43149,-0.734494,21.9397,1.70687,1.40463,-0.161856,-0.455232,-0.287596,-0.311675,3.39473,0.998729,-0.267933,-0.207183
663653,1,-1.57045,-0.523461,0.000194531,-2.09684,-0.00120785,1.57119,0.785673,-1.5708,-0.5236,1.68969e-07,-2.0944,-8.13025e-07,1.5708,0.785398,-6.4473e-05,-0.00135346,0.000983282,-0.000453416,-0.000376767,2.52041e-05,0.00113479,0,0,0,0,0,0,0,-0.454395,-9.35611,-0.81384,21.9397,1.72426,1.40463,-0.225942,-0.45424,-0.287138,-0.309949,3.39436,0.998803,-0.267967,-0.207217
663654,1,-1.57045,-0.523459,0.000194531,-2.09684,-0.0012053,1.57119,0.785673,-1.5708,-0.5236,1.68969e-07,-2.0944,-8.13025e-07,1.5708,0.785398,-0.000599794,0.000304117,0.000655521,-0.000302277,0.000596532,-0.000220556,0.000993886,0,0,0,0,0,0,0,-0.430592,-9.40768,-0.81384,21.9397,1.70137,1.41104,-0.232351,-0.453815,-0.286647,-0.309188,3.39443,0.998868,-0.267918,-0.207218
663655,1,-1.57045,-0.523459,0.000192582,-2.09684,-0.0012053,1.5712,0.785673,-1.5708,-0.5236,1.68969e-07,-2.0944,-8.13025e-07,1.5708,0.785398,0.000156949,0.000202745,-0.0002126,-0.000201518,0.000397688,9.03214e-05,0.000425232,0,0,0,0,0,0,0,-0.454395,-9.40768,-0.786069,21.9397,1.70137,1.40463,-0.225942,-0.45387,-0.286878,-0.309285,3.39495,0.998915,-0.267817,-0.207207
663656,1,-1.57044,-0.523459,0.000192582,-2.09684,-0.00120591,1.5712,0.785667,-1.5708,-0.5236,1.68969e-07,-2.0944,-8.13025e-07,1.5708,0.785398,0.00131106,0.000135163,-0.000141733,-0.000691157,6.1675e-05,-0.000177145,-0.00161538,0,0,0,0,0,0,0,-0.50597,-9.40768,-0.786069,21.9635,1.70687,1.41104,-0.174673,-0.454104,-0.288577,-0.309573,3.39618,0.998948,-0.267649,-0.207227
663657,1,-1.57045,-0.523457,0.000190911,-2.09684,-0.00120785,1.57119,0.785673,-1.5708,-0.5236,1.68969e-07,-2.0944,-8.13025e-07,1.5708,0.785398,-0.00153881,9.01088e-05,-0.000651301,9.60404e-05,-0.000603143,0.000119263,0.00105931,0,0,0,0,0,0,0,-0.402821,-9.40768,-0.762265,21.9397,1.72426,1.40463,-0.232351,-0.454125,-0.290808,-0.309449,3.39769,0.998971,-0.267451,-0.207275
663658,1,-1.57045,-0.523457,0.000190911,-2.09684,-0.00120652,1.5712,0.785668,-1.5708,-0.5236,1.68969e-07,-2.0944,-8.13025e-07,1.5708,0.785398,0.000180551,6.00725e-05,-0.000434201,6.40269e-05,3.87139e-05,7.95083e-05,-0.000955307,0,0,0,0,0,0,0,-0.454395,-9.40768,-0.762265,21.9397,1.71236,1.40463,-0.18749,-0.453179,-0.292719,-0.307964,3.39884,0.999017,-0.267287,-0.207332
663659,1,-1.57045,-0.523461,0.000192582,-2.09684,-0.00120652,1.57119,0.785671,-1.5708,-0.5236,1.68969e-07,-2.0944,-8.13025e-07,1.5708,0.785398,-0.00108606,-0.000609566,0.000267345,-0.000514127,2.58093e-05,0.000290365,0.000312564,0,0,0,0,0,0,0,-0.402821,-9.37991,-0.786069,21.9635,1.71236,1.39822,-0.213125,-0.451781,-0.293676,-0.305923,3.39943,0.99907,-0.267176,-0.20739
663660,1,-1.57044,-0.523457,0.000194531,-2.09684,-0.00120591,1.57119,0.785675,-1.5708,-0.5236,1.68969e-07,-2.0944,-8.13025e-07,1.5708,0.785398,0.0010392,0.000243237,0.000827844,0.00021406,0.000220657,-4.37826e-05,0.00142908,0,0,0,0,0,0,0,-0.478199,-9.40768,-0.81384,21.9397,1.70687,1.40463,-0.246084,-0.451115,-0.293752,-0.30506,3.39968,0.999078,-0.267095,-0.207437
663661,1,-1.57045,-0.523457,0.000197872,-2.09684,-0.00120652,1.57119,0.785673,-1.5708,-0.5236,1.68969e-07,-2.0944,-8.13025e-07,1.5708,0.785398,-0.00107044,0.00071897,0.00166552,0.000142707,-5.63461e-05,-2.91884e-05,0.000206734,0,0,0,0,0,0,0,-0.402821,-9.43149,-0.861447,21.9397,1.71236,1.40463,-0.225942,-0.4518,-0.294168,-0.306334,3.4,0.999011,-0.267035,-0.207481
663662,1,-1.57045,-0.523455,0.000194531,-2.09683,-0.00120724,1.5712,0.785668,-1.5708,-0.5236,1.68969e-07,-2.0944,-8.13025e-07,1.5708,0.785398,-6.40118e-05,0.000479313,-3.27734e-06,0.00130156,-0.000274923,0.000455259,-0.00128633,0,0,0,0,0,0,0,-0.430592,-9.43149,-0.81384,21.8882,1.71877,1.39181,-0.18749,-0.45305,-0.295359,-0.308677,3.40027,0.998905,-0.267022,-0.207562
663663,1,-1.57044,-0.523457,0.000192582,-2.09683,-0.00120591,1.57119,0.785668,-1.5708,-0.5236,1.68969e-07,-2.0944,-8.13025e-07,1.5708,0.785398,0.00172056,-0.00023727,-0.000651799,0.000867709,0.000257527,6.6147e-05,-0.000857554,0,0,0,0,0,0,0,-0.50597,-9.40768,-0.786069,21.8882,1.70687,1.39822,-0.18749,-0.453999,-0.29581,-0.310584,3.39961,0.998789,-0.267124,-0.207684
663664,1,-1.57045,-0.523458,0.000190911,-2.09684,-0.00120724,1.5712,0.785674,-1.5708,-0.5236,1.68969e-07,-2.0944,-8.13025e-07,1.5708,0.785398,-5.93835e-05,-0.000807794,-0.000991345,-0.000627953,-0.000269124,-0.000193261,0.00132717,0,0,0,0,0,0,0,-0.454395,-9.37991,-0.762265,21.9397,1.71877,1.40463,-0.23876,-0.45444,-0.294577,-0.311487,3.39813,0.998682,-0.26729,-0.207807
663665,1,-1.57044,-0.523459,0.000192582,-2.09683,-0.00120591,1.57119,0.785672,-1.5708,-0.5236,1.68969e-07,-2.0944,-8.13025e-07,1.5708,0.785398,0.000517223,0.000111085,-0.000104084,0.000787791,0.000261393,0.000108518,0.000172702,0,0,0,0,0,0,0,-0.478199,-9.40768,-0.786069,21.8882,1.70687,1.39822,-0.219534,-0.454206,-0.292467,-0.311253,3.39664,0.998614,-0.267428,-0.207914
663666,1,-1.57045,-0.523459,0.000190911,-2.09684,-0.00120591,1.5712,0.785668,-1.5708,-0.5236,1.68969e-07,-2.0944,-8.13025e-07,1.5708,0.785398,-0.000211997,7.40565e-05,-0.000626202,-0.00123804,0.000174262,7.23455e-05,-0.00107166,0,0,0,0,0,0,0,-0.454395,-9.40768,-0.762265,21.9635,1.70687,1.39822,-0.18749,-0.453593,-0.291146,-0.310423,3.39583,0.998587,-0.267494,-0.208025
663667,1,-1.57045,-0.523459,0.000192582,-2.09683,-0.00120652,1.57119,0.78567,-1.5708,-0.5236,1.68969e-07,-2.0944,-8.13025e-07,1.5708,0.785398,-0.000698143,4.9371e-05,0.000139344,0.000288261,-8.72758e-05,-0.000189129,-0.000239722,0,0,0,0,0,0,0,-0.430592,-9.40768,-0.786069,21.9159,1.71236,1.40463,-0.200308,-0.452691,-0.291326,-0.3092,3.39607,0.9986,-0.267461,-0.208142
663668,1,-1.57045,-0.523459,0.000192582,-2.09683,-0.0012053,1.57119,0.785673,-1.5708,-0.5236,1.68969e-07,-2.0944,-8.13025e-07,1.5708,0.785398,-0.000465429,-0.0006167,9.28962e-05,0.000192174,0.000348717,-0.000363445,0.000789621,0,0,0,0,0,0,0,-0.430592,-9.37991,-0.786069,21.9159,1.70137,1.41104,-0.225942,-0.451625,-0.291471,-0.307855,3.39636,0.998619,-0.267423,-0.208241
663669,1,-1.57044,-0.523459,0.000192582,-2.09683,-0.00120591,1.57119,0.78567,-1.5708,-0.5236,1.68969e-07,-2.0944,-8.13025e-07,1.5708,0.785398,0.000803338,0.000238481,6.19308e-05,0.00077773,2.90276e-05,-4.9375e-06,-0.000185663,0,0,0,0,0,0,0,-0.478199,-9.40768,-0.786069,21.8882,1.70687,1.40463,-0.206716,-0.45099,-0.290572,-0.307166,3.39585,0.998586,-0.267461,-0.208314
663670,1,-1.57045,-0.523457,0.000192582,-2.09684,-0.00121043,1.5712,0.78567,-1.5708,-0.5236,1.68969e-07,-2.0944,-8.13025e-07,1.5708,0.785398,-2.12532e-05,0.000158987,4.12872e-05,-0.000687939,-0.000421458,0.000471426,-0.000361134,0,0,0,0,0,0,0,-0.454395,-9.40768,-0.786069,21.9397,1.71877,1.39181,-0.200308,-0.451025,-0.289974,-0.307359,3.39532,0.998506,-0.267506,-0.208374
663671,1,-1.57045,-0.523455,0.000190911,-2.09684,-0.00120891,1.5712,0.785674,-1.5708,-0.5236,1.68969e-07,-2.0944,-8.13025e-07,1.5708,0.785398,-0.000570981,0.000662803,-0.000529287,-0.000458626,-0.000484422,-0.000160434,0.0011834,0,0,0,0,0,0,0,-0.430592,-9.43149,-0.762265,21.9397,1.72426,1.40463,-0.23876,-0.451027,-0.291167,-0.307458,3.39586,0.998445,-0.267455,-0.208426
663672,1,-1.57045,-0.523455,0.000192582,-2.09684,-0.00120627,1.5712,0.785671,-1.5708,-0.5236,1.68969e-07,-2.0944,-8.13025e-07,1.5708,0.785398,0.000176158,0.000441869,0.000203954,-0.000305751,0.000321312,0.000130403,-0.0013473,0,0,0,0,0,0,0,-0.454395,-9.43149,-0.786069,21.9397,1.70687,1.39822,-0.181082,-0.450624,-0.294101,-0.30697,3.39745,0.998433,-0.267312,-0.208477
663673,1,-1.57045,-0.523458,0.000194531,-2.09684,-0.00120542,1.5712,0.785667,-1.5708,-0.5236,1.68969e-07,-2.0944,-8.13025e-07,1.5708,0.785398,0.000117439,-0.000911847,0.000785583,-0.000760646,0.000417658,-0.000150424,-0.00161028,0,0,0,0,0,0,0,-0.454395,-9.37991,-0.81384,21.9635,1.70137,1.40463,-0.161856,-0.450661,-0.296792,-0.307134,3.3991,0.998418,-0.267157,-0.20853
663674,1,-1.57045,-0.523456,0.000192582,-2.09683,-0.00120728,1.5712,0.785671,-1.5708,-0.5236,1.68969e-07,-2.0944,-8.13025e-07,1.5708,0.785398,-0.000478519,4.17162e-05,-0.000125892,0.00125614,-0.000365821,-0.000337641,0.000587995,0,0,0,0,0,0,0,-0.430592,-9.40768,-0.786069,21.8882,1.71877,1.41104,-0.206716,-0.451229,-0.29728,-0.308122,3.39964,0.998362,-0.267093,-0.208551
663675,1,-1.57045,-0.523456,0.000194531,-2.09684,-0.00120725,1.5712,0.785674,-1.5708,-0.5236,1.68969e-07,-2.0944,-8.13025e-07,1.5708,0.785398,0.000237799,2.78108e-05,0.000565686,-0.000925811,-0.000243881,1.22647e-05,0.00157879,0,0,0,0,0,0,0,-0.454395,-9.40768,-0.81384,21.9635,1.71877,1.40463,-0.23876,-0.451739,-0.29648,-0.309083,3.39927,0.998283,-0.267119,-0.208505
663676,1,-1.57045,-0.523456,0.000196201,-2.09684,-0.00120785,1.5712,0.785669,-1.5708,-0.5236,1.68969e-07,-2.0944,-8.13025e-07,1.5708,0.785398,-0.000398279,1.85405e-05,0.000933936,-0.000617207,-0.000366038,-0.000229182,-0.000608985,0,0,0,0,0,0,0,-0.430592,-9.40768,-0.837644,21.9635,1.72426,1.41104,-0.193899,-0.452431,-0.296346,-0.310405,3.39939,0.998209,-0.267094,-0.208413
663677,1,-1.57045,-0.523456,0.000188963,-2.09684,-0.00120531,1.5712,0.785668,-1.5708,-0.5236,1.68969e-07,-2.0944,-8.13025e-07,1.5708,0.785398,-0.000915133,1.23604e-05,-0.00179023,-0.000411471,0.000603685,0.00032193,-0.000880708,0,0,0,0,0,0,0,-0.402821,-9.40768,-0.734494,21.9635,1.70137,1.39822,-0.181082,-0.452564,-0.297002,-0.311018,3.40019,0.998195,-0.266989,-0.208325
663678,1,-1.57045,-0.52346,0.000190911,-2.09684,-0.0012053,1.5712,0.785672,-1.5708,-0.5236,1.68969e-07,-2.0944,-8.13025e-07,1.5708,0.785398,0.000596337,-0.000641374,-0.000543871,-0.000274314,0.000402457,0.00021462,0.000837015,0,0,0,0,0,0,0,-0.454395,-9.37991,-0.762265,21.9635,1.70137,1.39822,-0.219534,-0.451264,-0.297276,-0.309486,3.40081,0.998256,-0.266893,-0.208243
663679,1,-1.57045,-0.523459,0.000194531,-2.09684,-0.00120652,1.57119,0.78567,-1.5708,-0.5236,1.68969e-07,-2.0944,-8.13025e-07,1.5708,0.785398,-0.000159254,0.000222031,0.000843845,0.000930748,-0.000138596,-9.42791e-05,8.32922e-05,0,0,0,0,0,0,0,-0.430592,-9.40768,-0.81384,21.9159,1.71236,1.40463,-0.206716,-0.449945,-0.296397,-0.307855,3.40063,0.998291,-0.266885,-0.208145
663680,1,-1.57045,-0.523463,0.000190911,-2.09683,-0.00120652,1.5712,0.785668,-1.5708,-0.5236,1.68969e-07,-2.0944,-8.13025e-07,1.5708,0.785398,0.000450643,-0.0010584,-0.000643863,0.000620498,-9.23976e-05,0.000174506,-0.000656549,0,0,0,0,0,0,0,-0.454395,-9.35611,-0.762265,21.9159,1.71236,1.39822,-0.18749,-0.449518,-0.294033,-0.307548,3.39927,0.99824,-0.267015,-0.208038
663681,1,-1.57045,-0.523461,0.000194531,-2.09684,-0.0012053,1.5712,0.78567,-1.5708,-0.5236,1.68969e-07,-2.0944,-8.13025e-07,1.5708,0.785398,-0.000905997,-0.000148791,0.000777184,-0.000699958,0.000345303,-0.000121021,3.70188e-05,0,0,0,0,0,0,0,-0.402821,-9.37991,-0.81384,21.9635,1.70137,1.40463,-0.200308,-0.449353,-0.290647,-0.307689,3.39736,0.998155,-0.267201,-0.207929
663682,1,-1.57045,-0.52346,0.000194531,-2.09683,-0.00120591,1.5712,0.785672,-1.5708,-0.5236,1.68969e-07,-2.0944,-8.13025e-07,1.5708,0.785398,0.000602428,0.00055042,0.000518123,0.000646985,2.67512e-05,0.000156678,0.000736756,0,0,0,0,0,0,0,-0.454395,-9.40768,-0.81384,21.9159,1.70687,1.39822,-0.219534,-0.449487,-0.28833,-0.3084,3.3962,0.998061,-0.267322,-0.207804
663683,1,-1.57045,-0.523458,0.000190911,-2.09684,-0.00120652,1.5712,0.78567,-1.5708,-0.5236,1.68969e-07,-2.0944,-8.13025e-07,1.5708,0.785398,-0.000804808,0.000923758,-0.000861011,-0.000125489,-0.000185616,0.000104452,-0.000220906,0,0,0,0,0,0,0,-0.402821,-9.43149,-0.762265,21.9397,1.71236,1.39822,-0.200308,-0.449643,-0.288557,-0.309217,3.39621,0.997969,-0.26737,-0.207668
663684,1,-1.57045,-0.523456,0.000196201,-2.09684,-0.00120652,1.5712,0.785673,-1.5708,-0.5236,1.68969e-07,-2.0944,-8.13025e-07,1.5708,0.785398,0.000669888,0.000615839,0.00118923,0.00112277,-0.000123744,0.000306994,-0.000147271,0,0,0,0,0,0,0,-0.454395,-9.43149,-0.837644,21.8882,1.71236,1.39181,-0.200308,-0.44952,-0.290696,-0.309648,3.39687,0.997887,-0.267396,-0.20754
663685,1,-1.57045,-0.523457,0.000188963,-2.09684,-0.00120652,1.5712,0.78567,-1.5708,-0.5236,1.68969e-07,-2.0944,-8.13025e-07,1.5708,0.785398,0.000446592,0.000410559,-0.00162003,9.88973e-05,-8.24962e-05,0.000204662,-0.000335539,0,0,0,0,0,0,0,-0.454395,-9.43149,-0.734494,21.9159,1.71236,1.39181,-0.193899,-0.449501,-0.293196,-0.310179,3.39744,0.997793,-0.267457,-0.20742
663686,1,-1.57044,-0.523457,0.000194531,-2.09684,-0.00120785,1.57119,0.785673,-1.5708,-0.5236,1.68969e-07,-2.0944,-8.13025e-07,1.5708,0.785398,0.00085454,-0.000283106,0.000776019,-0.00104769,-0.000495807,-0.000100917,0.000963102,0,0,0,0,0,0,0,-0.478199,-9.40768,-0.81384,21.9635,1.72426,1.39822,-0.225942,-0.449538,-0.295329,-0.310629,3.39808,0.997704,-0.267504,-0.2073
663687,1,-1.57045,-0.523457,0.000194531,-2.09684,-0.00120652,1.5712,0.785672,-1.5708,-0.5236,1.68969e-07,-2.0944,-8.13025e-07,1.5708,0.785398,1.28812e-05,-0.000188737,0.000517346,-0.00014165,0.000110272,0.000170081,0.000404709,0,0,0,0,0,0,0,-0.454395,-9.40768,-0.81384,21.9397,1.71236,1.39181,-0.219534,-0.450051,-0.296776,-0.311717,3.39905,0.997621,-0.267494,-0.207181
663688,1,-1.57045,-0.523457,0.000190911,-2.09683,-0.00120652,1.5712,0.78567,-1.5708,-0.5236,1.68969e-07,-2.0944,-8.13025e-07,1.5708,0.785398,8.58748e-06,0.000430987,-0.000861529,0.000462379,7.35144e-05,-0.000361331,-0.000204912,0,0,0,0,0,0,0,-0.454395,-9.43149,-0.762265,21.9159,1.71236,1.40463,-0.206716,-0.450665,-0.297432,-0.312961,3.39976,0.997553,-0.267508,-0.207087
663689,1,-1.57045,-0.523459,0.000196201,-2.09683,-0.00120591,1.57119,0.785673,-1.5708,-0.5236,1.68969e-07,-2.0944,-8.13025e-07,1.5708,0.785398,-0.000551087,-0.000269487,0.00118889,0.000308253,0.00025246,-0.000240887,0.000812828,0,0,0,0,0,0,0,-0.430592,-9.40768,-0.837644,21.9159,1.70687,1.40463,-0.232351,-0.450717,-0.297488,-0.313389,3.39985,0.997517,-0.267594,-0.207037
663690,1,-1.57045,-0.523459,0.000194531,-2.09684,-0.00120785,1.57119,0.785673,-1.5708,-0.5236,1.68969e-07,-2.0944,-8.13025e-07,1.5708,0.785398,-0.000367391,-0.000829272,0.000235778,-0.00035131,-0.000475953,7.67675e-05,0.000304526,0,0,0,0,0,0,0,-0.430592,-9.37991,-0.81384,21.9397,1.72426,1.39822,-0.225942,-0.450729,-0.296323,-0.31389,3.39928,0.997482,-0.26773,-0.20703
663691,1,-1.57044,-0.523459,0.000194531,-2.09684,-0.00120785,1.57119,0.785675,-1.5708,-0.5236,1.68969e-07,-2.0944,-8.13025e-07,1.5708,0.785398,0.000868696,-0.000552848,0.000157186,-0.000791019,-0.000317302,-0.000186181,-3.43414e-05,0,0,0,0,0,0,0,-0.478199,-9.37991,-0.81384,21.9635,1.72426,1.40463,-0.219534,-0.450953,-0.294008,-0.314765,3.3985,0.997452,-0.267853,-0.207076
663692,1,-1.57045,-0.523459,0.000192582,-2.09683,-0.00120785,1.57119,0.785671,-1.5708,-0.5236,1.68969e-07,-2.0944,-8.13025e-07,1.5708,0.785398,-0.000534493,0.000281049,-0.000544824,0.00234952,-0.000211535,-0.00012412,-0.000497612,0,0,0,0,0,0,0,-0.430592,-9.40768,-0.786069,21.8405,1.72426,1.40463,-0.206716,-0.45104,-0.291322,-0.315346,3.39741,0.99744,-0.267999,-0.207179
663693,1,-1.57045,-0.523458,0.000192582,-2.09684,-0.00120591,1.5712,0.785672,-1.5708,-0.5236,1.68969e-07,-2.0944,-8.13025e-07,1.5708,0.785398,-0.000356329,0.000744178,-0.000363216,-0.000753706,0.000503237,0.000391971,0.000142976,0,0,0,0,0,0,0,-0.430592,-9.43149,-0.786069,21.9397,1.70687,1.39181,-0.219534,-0.450365,-0.289535,-0.314754,3.39605,0.997481,-0.268198,-0.207329
663694,1,-1.57045,-0.523456,0.000190911,-2.09684,-0.00120652,1.5712,0.785671,-1.5708,-0.5236,1.68969e-07,-2.0944,-8.13025e-07,1.5708,0.785398,-0.000887166,0.000496118,-0.000798956,-0.00105928,0.000132041,-0.000213404,-0.000142041,0,0,0,0,0,0,0,-0.402821,-9.43149,-0.762265,21.9635,1.71236,1.40463,-0.213125,-0.448733,-0.2906,-0.312792,3.39616,0.997618,-0.268261,-0.207506
663695,1,-1.57045,-0.523459,0.000190911,-2.09683,-0.00120652,1.5712,0.785668,-1.5708,-0.5236,1.68969e-07,-2.0944,-8.13025e-07,1.5708,0.785398,0.000614982,-0.00087568,-0.000532637,0.00161386,8.80271e-05,-0.000142269,-0.00104413,0,0,0,0,0,0,0,-0.454395,-9.37991,-0.762265,21.8644,1.71236,1.40463,-0.18749,-0.446687,-0.292483,-0.310204,3.39697,0.997799,-0.268236,-0.207697
663696,1,-1.57045,-0.523459,0.000190911,-2.09684,-0.00120652,1.5712,0.785673,-1.5708,-0.5236,1.68969e-07,-2.0944,-8.13025e-07,1.5708,0.785398,-0.000146824,6.58271e-05,-0.000355091,-0.000130518,5.86847e-05,-0.000332205,0.000728067,0,0,0,0,0,0,0,-0.430592,-9.40768,-0.762265,21.9159,1.71236,1.41104,-0.225942,-0.444995,-0.292103,-0.308029,3.39638,0.997928,-0.268322,-0.207884
663697,1,-1.57045,-0.523459,0.000192582,-2.09684,-0.00120652,1.5712,0.78567,-1.5708,-0.5236,1.68969e-07,-2.0944,-8.13025e-07,1.5708,0.785398,0.000458929,4.38847e-05,0.000320084,0.000562602,3.91232e-05,0.000253248,-0.000464058,0,0,0,0,0,0,0,-0.454395,-9.40768,-0.786069,21.8882,1.71236,1.39822,-0.200308,-0.444093,-0.290883,-0.306937,3.39521,0.997999,-0.268445,-0.208046
663698,1,-1.57045,-0.523457,0.000190911,-2.09684,-0.00120591,1.5712,0.785672,-1.5708,-0.5236,1.68969e-07,-2.0944,-8.13025e-07,1.5708,0.785398,0.000305953,2.92565e-05,-0.000343422,-0.000274546,0.000229533,-6.85271e-05,0.000402705,0,0,0,0,0,0,0,-0.454395,-9.40768,-0.762265,21.9159,1.70687,1.40463,-0.219534,-0.443992,-0.290307,-0.306962,3.39442,0.998032,-0.268516,-0.208181
663699,1,-1.57045,-0.523457,0.000190911,-2.09684,-0.00120724,1.5712,0.785671,-1.5708,-0.5236,1.68969e-07,-2.0944,-8.13025e-07,1.5708,0.785398,0.000203969,1.95043e-05,-0.000228948,-0.000183031,-0.000287788,0.000191674,3.1111e-05,0,0,0,0,0,0,0,-0.454395,-9.40768,-0.762265,21.9159,1.71877,1.39822,-0.213125,-0.444242,-0.290374,-0.307398,3.39411,0.99805,-0.268521,-0.208299
663700,1,-1.57044,-0.523461,0.000192582,-2.09684,-0.0012053,1.57119,0.785675,-1.5708,-0.5236,1.68969e-07,-2.0944,-8.13025e-07,1.5708,0.785398,0.000692791,-0.000636611,0.00040418,-0.00123564,0.000452402,0.000127783,0.00124144,0,0,0,0,0,0,0,-0.478199,-9.37991,-0.786069,21.9635,1.70137,1.39822,-0.246084,-0.444771,-0.290819,-0.308138,3.3944,0.998062,-0.268446,-0.208408
663701,1,-1.57045,-0.523459,0.000192582,-2.09684,-0.00120591,1.57119,0.785671,-1.5708,-0.5236,1.68969e-07,-2.0944,-8.13025e-07,1.5708,0.785398,-9.49513e-05,0.000225207,0.000269453,0.000289861,9.81505e-05,-0.000389529,-0.000393074,0,0,0,0,0,0,0,-0.454395,-9.40768,-0.786069,21.9159,1.70687,1.41104,-0.213125,-0.445819,-0.291236,-0.309565,3.39502,0.998048,-0.268322,-0.208527
663702,1,-1.57045,-0.523461,0.000190911,-2.09684,-0.00120591,1.5712,0.785666,-1.5708,-0.5236,1.68969e-07,-2.0944,-8.13025e-07,1.5708,0.785398,-6.33009e-05,-0.00105629,-0.000377176,0.000193241,6.54337e-05,-0.000259686,-0.00192356,0,0,0,0,0,0,0,-0.454395,-9.35611,-0.762265,21.9159,1.70687,1.41104,-0.168264,-0.446792,-0.29085,-0.310835,3.39514,0.998012,-0.268242,-0.20868
663703,1,-1.57045,-0.523457,0.000192582,-2.09684,-0.00120652,1.5712,0.785671,-1.5708,-0.5236,1.68969e-07,-2.0944,-8.13025e-07,1.5708,0.785398,-0.000599013,0.00105905,0.000305361,-0.000427985,-0.000159828,-0.000173124,0.000379138,0,0,0,0,0,0,0,-0.430592,-9.43149,-0.786069,21.9397,1.71236,1.41104,-0.213125,-0.447171,-0.290133,-0.311219,3.39487,0.99798,-0.268198,-0.208844
663704,1,-1.57045,-0.523459,0.000194531,-2.09683,-0.00120591,1.5712,0.785672,-1.5708,-0.5236,1.68969e-07,-2.0944,-8.13025e-07,1.5708,0.785398,0.00015747,0.000149219,0.000853188,0.000921103,9.68985e-05,0.000359302,0.000490118,0,0,0,0,0,0,0,-0.454395,-9.40768,-0.81384,21.8882,1.70687,1.39822,-0.219534,-0.447467,-0.29076,-0.311528,3.39502,0.99794,-0.268128,-0.20897
663705,1,-1.57045,-0.523459,0.000192582,-2.09683,-0.00120591,1.5712,0.78567,-1.5708,-0.5236,1.68969e-07,-2.0944,-8.13025e-07,1.5708,0.785398,0.00010498,9.9479e-05,-8.0822e-05,0.000614068,6.4599e-05,0.000239535,-0.000385332,0,0,0,0,0,0,0,-0.454395,-9.40768,-0.786069,21.8882,1.70687,1.39822,-0.200308,-0.448132,-0.291661,-0.312399,3.39484,0.997858,-0.26811,-0.209056
663706,1,-1.57045,-0.52346,0.000188963,-2.09683,-0.00120652,1.5712,0.785669,-1.5708,-0.5236,1.68969e-07,-2.0944,-8.13025e-07,1.5708,0.785398,-0.000486825,6.63193e-05,-0.00126031,0.000409379,-0.000160385,0.00015969,-0.000494247,0,0,0,0,0,0,0,-0.430592,-9.40768,-0.734494,21.8882,1.71236,1.39822,-0.193899,-0.44828,-0.291731,-0.312438,3.3939,0.997774,-0.268167,-0.209126
663707,1,-1.57045,-0.523461,0.000190911,-2.09684,-0.00120724,1.5712,0.785672,-1.5708,-0.5236,1.68969e-07,-2.0944,-8.13025e-07,1.5708,0.785398,-0.00032455,-0.00116221,-0.000190591,-0.000376695,-0.000344282,0.000343819,0.000619938,0,0,0,0,0,0,0,-0.430592,-9.35611,-0.762265,21.9159,1.71877,1.39181,-0.219534,-0.44727,-0.290853,-0.310716,3.39261,0.997735,-0.268238,-0.209179
663708,1,-1.57044,-0.523457,0.000194712,-2.09684,-0.00120591,1.5712,0.785671,-1.5708,-0.5236,1.68969e-07,-2.0944,-8.13025e-07,1.5708,0.785398,0.000897257,0.000431617,0.000429751,-0.00025113,0.000211288,-0.000482864,0.000175933,0,0,0,0,0,0,0,-0.478199,-9.40768,-0.786069,21.9159,1.70687,1.41104,-0.213125,-0.446343,-0.289345,-0.309086,3.39147,0.9977,-0.268275,-0.209204
663709,1,-1.57045,-0.523455,0.000193292,-2.09684,-0.00120724,1.5712,0.785668,-1.5708,-0.5236,1.68969e-07,-2.0944,-8.13025e-07,1.5708,0.785398,4.13595e-05,0.000844557,0.000286501,-0.00183786,-0.000299951,-8.45506e-05,-0.000832147,0,0,0,0,0,0,0,-0.454395,-9.43149,-0.786069,21.9873,1.71877,1.40463,-0.18749,-0.446522,-0.29002,-0.309036,3.39198,0.997653,-0.268156,-0.209204
663710,1,-1.57045,-0.523459,0.000194767,-2.09684,-0.00120652,1.57119,0.785673,-1.5708,-0.5236,1.68969e-07,-2.0944,-8.13025e-07,1.5708,0.785398,-0.000529239,6.2259e-06,0.000840615,0.000445199,3.73918e-05,0.000180992,0.00110675,0,0,0,0,0,0,0,-0.430592,-9.40768,-0.81384,21.9159,1.71236,1.39822,-0.232351,-0.447311,-0.293268,-0.309938,3.39412,0.99762,-0.267898,-0.209187
663711,1,-1.57044,-0.523461,0.000192661,-2.09684,-0.0012053,1.5712,0.785674,-1.5708,-0.5236,1.68969e-07,-2.0944,-8.13025e-07,1.5708,0.785398,0.000760798,-0.000645463,-8.92042e-05,0.000296799,0.000431829,0.000120661,0.000975191,0,0,0,0,0,0,0,-0.478199,-9.37991,-0.786069,21.9159,1.70137,1.39822,-0.23876,-0.448248,-0.295347,-0.311139,3.39546,0.99757,-0.267731,-0.209162
663712,1,-1.57045,-0.523459,0.000194557,-2.09684,-0.00120652,1.5712,0.785669,-1.5708,-0.5236,1.68969e-07,-2.0944,-8.13025e-07,1.5708,0.785398,-0.00125604,0.000219305,0.000590144,0.000197866,-0.000119015,-0.000156918,-0.00101139,0,0,0,0,0,0,0,-0.402821,-9.40768,-0.81384,21.9159,1.71236,1.40463,-0.193899,-0.449035,-0.29507,-0.312169,3.39521,0.997497,-0.267726,-0.209162
663713,1,-1.57045,-0.52346,0.000192591,-2.09684,-0.00120724,1.5712,0.785665,-1.5708,-0.5236,1.68969e-07,-2.0944,-8.13025e-07,1.5708,0.785398,0.000369066,0.000146203,-0.000256184,-0.000424901,-0.000316702,-0.000341971,-0.00186105,0,0,0,0,0,0,0,-0.454395,-9.40768,-0.786069,21.9397,1.71877,1.41104,-0.161856,-0.449297,-0.294602,-0.312542,3.39478,0.997444,-0.267746,-0.2092
663714,1,-1.57045,-0.523457,0.000192585,-2.09683,-0.00120652,1.57119,0.785673,-1.5708,-0.5236,1.68969e-07,-2.0944,-8.13025e-07,1.5708,0.785398,-0.000310768,9.74689e-05,-0.00017079,0.000273544,2.6224e-05,9.37826e-06,0.00113289,0,0,0,0,0,0,0,-0.430592,-9.40768,-0.786069,21.9159,1.71236,1.40463,-0.225942,-0.449089,-0.29478,-0.312272,3.39471,0.997422,-0.267734,-0.209236
663715,1,-1.57045,-0.523457,0.000192583,-2.09684,-0.00120652,1.5712,0.785668,-1.5708,-0.5236,1.68969e-07,-2.0944,-8.13025e-07,1.5708,0.785398,-0.000207178,6.49793e-05,-0.00011386,-0.000931261,1.74827e-05,0.000243611,-0.000668895,0,0,0,0,0,0,0,-0.430592,-9.40768,-0.786069,21.9635,1.71236,1.39822,-0.18749,-0.44853,-0.295267,-0.311504,3.39488,0.997427,-0.267693,-0.209232
663716,1,-1.57045,-0.523456,0.000192582,-2.09684,-0.00120652,1.5712,0.785667,-1.5708,-0.5236,1.68969e-07,-2.0944,-8.13025e-07,1.5708,0.785398,0.000418693,4.33195e-05,-7.59065e-05,-6.40287e-05,1.16551e-05,0.000162407,-0.000920648,0,0,0,0,0,0,0,-0.454395,-9.40768,-0.786069,21.9397,1.71236,1.39822,-0.174673,-0.447906,-0.296036,-0.310676,3.39539,0.997449,-0.267615,-0.20919
663717,1,-1.57045,-0.523459,0.000194531,-2.09684,-0.0012053,1.5712,0.785673,-1.5708,-0.5236,1.68969e-07,-2.0944,-8.13025e-07,1.5708,0.785398,0.000279129,2.88797e-05,0.00059901,0.000514126,0.000414671,0.000108272,0.00128511,0,0,0,0,0,0,0,-0.454395,-9.40768,-0.81384,21.9159,1.70137,1.39822,-0.225942,-0.447782,-0.296462,-0.310577,3.39569,0.997444,-0.26757,-0.209103
663718,1,-1.57045,-0.523459,0.000192582,-2.09683,-0.00120591,1.5712,0.785673,-1.5708,-0.5236,1.68969e-07,-2.0944,-8.13025e-07,1.5708,0.785398,0.000186086,-0.000630361,-0.000250274,0.000992365,7.29969e-05,7.21811e-05,0.000856738,0,0,0,0,0,0,0,-0.454395,-9.37991,-0.786069,21.8882,1.70687,1.39822,-0.225942,-0.448153,-0.295317,-0.311203,3.39479,0.997381,-0.267659,-0.208968
663719,1,-1.57045,-0.523455,0.000192582,-2.09684,-0.00120724,1.57119,0.785666,-1.5708,-0.5236,1.68969e-07,-2.0944,-8.13025e-07,1.5708,0.785398,-0.00108237,0.001343,-0.000166849,-0.000544849,-0.000392145,0.00028548,-0.00156507,0,0,0,0,0,0,0,-0.402821,-9.45529,-0.786069,21.9397,1.71877,1.39181,-0.168264,-0.448138,-0.293886,-0.311322,3.3935,0.997318,-0.267808,-0.208827
663720,1,-1.57045,-0.523458,0.000196201,-2.09684,-0.00120724,1.57119,0.785669,-1.5708,-0.5236,1.68969e-07,-2.0944,-8.13025e-07,1.5708,0.785398,0.000484847,0.00033852,0.00109519,-0.000363233,-0.00026143,-4.70392e-05,-9.39456e-05,0,0,0,0,0,0,0,-0.454395,-9.43149,-0.837644,21.9397,1.71877,1.39822,-0.193899,-0.447798,-0.294902,-0.311109,3.39359,0.997296,-0.267853,-0.208691
663721,1,-1.57045,-0.523457,0.000192582,-2.09683,-0.00120724,1.57119,0.785675,-1.5708,-0.5236,1.68969e-07,-2.0944,-8.13025e-07,1.5708,0.785398,-0.000233581,-0.000331132,-0.000476297,0.000314657,-0.000174287,-0.000268718,0.00187015,0,0,0,0,0,0,0,-0.430592,-9.40768,-0.786069,21.9159,1.71877,1.40463,-0.246084,-0.447823,-0.296849,-0.311537,3.39441,0.997277,-0.267841,-0.208533
663722,1,-1.57045,-0.523455,0.000194531,-2.09683,-0.00120846,1.5712,0.785673,-1.5708,-0.5236,1.68969e-07,-2.0944,-8.13025e-07,1.5708,0.785398,0.000401091,0.000336057,0.000332082,0.000209771,-0.000523092,-0.000179146,0.00073814,0,0,0,0,0,0,0,-0.454395,-9.43149,-0.81384,21.9159,1.72975,1.40463,-0.232351,-0.447909,-0.297499,-0.31206,3.39458,0.997253,-0.267886,-0.208366
663723,1,-1.57045,-0.523461,0.000190911,-2.09684,-0.00120785,1.57119,0.78567,-1.5708,-0.5236,1.68969e-07,-2.0944,-8.13025e-07,1.5708,0.785398,-0.000289418,-0.000982388,-0.000985038,-0.00153059,-0.000145278,-0.00011943,-0.000694701,0,0,0,0,0,0,0,-0.430592,-9.37991,-0.762265,21.9873,1.72426,1.40463,-0.200308,-0.447631,-0.297339,-0.312028,3.39457,0.997271,-0.267924,-0.208244
663724,1,-1.57045,-0.523461,0.000192582,-2.09684,-0.00120591,1.5712,0.785668,-1.5708,-0.5236,1.68969e-07,-2.0944,-8.13025e-07,1.5708,0.785398,-0.000842559,-0.000654925,-9.98798e-05,0.000650044,0.000547408,-7.96203e-05,-0.000937852,0,0,0,0,0,0,0,-0.402821,-9.37991,-0.786069,21.9159,1.70687,1.40463,-0.18749,-0.446632,-0.295977,-0.310965,3.39441,0.997362,-0.267936,-0.208193
663725,1,-1.57045,-0.523459,0.000192582,-2.09683,-0.00120724,1.5712,0.785672,-1.5708,-0.5236,1.68969e-07,-2.0944,-8.13025e-07,1.5708,0.785398,8.79079e-05,-0.000436617,-6.65865e-05,0.000433362,-7.58706e-05,-0.000290439,0.00056156,0,0,0,0,0,0,0,-0.430592,-9.37991,-0.786069,21.9159,1.71877,1.41104,-0.219534,-0.445231,-0.292914,-0.30939,3.39325,0.997479,-0.268024,-0.208181
663726,1,-1.57045,-0.523459,0.000194531,-2.09684,-0.00120591,1.5712,0.785673,-1.5708,-0.5236,1.68969e-07,-2.0944,-8.13025e-07,1.5708,0.785398,0.000615417,0.000358536,0.000605223,-0.000267904,0.000390229,0.000281092,0.000849091,0,0,0,0,0,0,0,-0.454395,-9.40768,-0.81384,21.9397,1.70687,1.39822,-0.232351,-0.444519,-0.289897,-0.308852,3.3918,0.997562,-0.268149,-0.20817
663727,1,-1.57044,-0.523457,0.000194531,-2.09683,-0.00120724,1.5712,0.78567,-1.5708,-0.5236,1.68969e-07,-2.0944,-8.13025e-07,1.5708,0.785398,0.0016167,0.000239024,0.000403482,0.00102782,-0.000180657,-4.99644e-05,-0.000620734,0,0,0,0,0,0,0,-0.50597,-9.40768,-0.81384,21.8882,1.71877,1.40463,-0.200308,-0.445217,-0.288427,-0.310273,3.39092,0.997584,-0.268238,-0.208166
663728,1,-1.57045,-0.523455,0.000192582,-2.09684,-0.00120724,1.57119,0.785675,-1.5708,-0.5236,1.68969e-07,-2.0944,-8.13025e-07,1.5708,0.785398,-0.000128623,0.000716161,-0.000380626,-0.00052121,-0.000120438,0.000441408,0.0012816,0,0,0,0,0,0,0,-0.454395,-9.43149,-0.786069,21.9397,1.71877,1.39181,-0.246084,-0.446689,-0.288575,-0.312668,3.39063,0.997575,-0.268294,-0.208185
663729,1,-1.57045,-0.523457,0.000190911,-2.09684,-0.00120724,1.5712,0.785672,-1.5708,-0.5236,1.68969e-07,-2.0944,-8.13025e-07,1.5708,0.785398,-0.000642561,0.000477441,-0.000810563,-0.000347474,-8.02919e-05,5.69132e-05,-0.000128945,0,0,0,0,0,0,0,-0.430592,-9.43149,-0.762265,21.9397,1.71877,1.39822,-0.219534,-0.447225,-0.29063,-0.313624,3.39136,0.997636,-0.268262,-0.208243
663730,1,-1.57045,-0.523459,0.000192582,-2.09683,-0.00120591,1.5712,0.785667,-1.5708,-0.5236,1.68969e-07,-2.0944,-8.13025e-07,1.5708,0.785398,-0.000428374,-0.000238518,1.64369e-05,0.000974777,0.000387282,0.00051266,-0.00174748,0,0,0,0,0,0,0,-0.430592,-9.40768,-0.786069,21.8882,1.70687,1.3854,-0.174673,-0.446428,-0.293062,-0.312659,3.39233,0.997775,-0.268212,-0.208356
663731,1,-1.57045,-0.523458,0.000188963,-2.09684,-0.00120591,1.57119,0.785671,-1.5708,-0.5236,1.68969e-07,-2.0944,-8.13025e-07,1.5708,0.785398,-0.000285582,0.0003978,-0.00119547,-0.00111339,0.000258188,-0.000370303,0.00025917,0,0,0,0,0,0,0,-0.430592,-9.43149,-0.734494,21.9635,1.70687,1.40463,-0.213125,-0.444975,-0.294551,-0.310728,3.39279,0.997939,-0.268213,-0.208504
663732,1,-1.57045,-0.523457,0.000194531,-2.09684,-0.00121165,1.5712,0.785676,-1.5708,-0.5236,1.68969e-07,-2.0944,-8.13025e-07,1.5708,0.785398,-0.000190388,-0.000291612,0.00105906,-0.000185446,-0.000675585,0.000227849,0.00163084,0,0,0,0,0,0,0,-0.430592,-9.40768,-0.81384,21.9397,1.72975,1.39181,-0.252493,-0.443553,-0.295959,-0.308828,3.39356,0.9981,-0.268184,-0.208637
663733,1,-1.57045,-0.523457,0.000194531,-2.09684,-0.00120759,1.5712,0.785672,-1.5708,-0.5236,1.68969e-07,-2.0944,-8.13025e-07,1.5708,0.785398,0.000429886,0.000362404,0.000706041,0.000433181,0.00019387,-0.000322819,-0.000133475,0,0,0,0,0,0,0,-0.454395,-9.43149,-0.81384,21.9159,1.71236,1.40463,-0.219534,-0.443249,-0.29702,-0.30862,3.39434,0.998196,-0.268165,-0.208754
663734,1,-1.57045,-0.523461,0.000192582,-2.09684,-0.00120627,1.57119,0.785666,-1.5708,-0.5236,1.68969e-07,-2.0944,-8.13025e-07,1.5708,0.785398,-0.000270221,-0.00152164,-0.00017892,-0.000268024,0.000332697,-0.000215212,-0.00198786,0,0,0,0,0,0,0,-0.430592,-9.35611,-0.786069,21.9397,1.70687,1.40463,-0.168264,-0.443924,-0.296404,-0.309875,3.39419,0.998225,-0.268233,-0.208897
663735,1,-1.57045,-0.523461,0.000194531,-2.09683,-0.00120735,1.5712,0.785673,-1.5708,-0.5236,1.68969e-07,-2.0944,-8.13025e-07,1.5708,0.785398,0.000376665,-0.000457612,0.000530334,0.000378129,-0.000219011,9.3884e-05,0.000810994,0,0,0,0,0,0,0,-0.454395,-9.37991,-0.81384,21.9159,1.71877,1.39822,-0.225942,-0.444683,-0.293426,-0.311237,3.39294,0.998229,-0.268381,-0.209057
663736,1,-1.57045,-0.523461,0.000192582,-2.09683,-0.00120656,1.5712,0.785675,-1.5708,-0.5236,1.68969e-07,-2.0944,-8.13025e-07,1.5708,0.785398,-0.000305702,-0.000305074,-0.000296058,0.00145851,9.13513e-05,-0.000412129,0.00128665,0,0,0,0,0,0,0,-0.430592,-9.37991,-0.786069,21.8644,1.71236,1.41104,-0.246084,-0.445311,-0.289081,-0.312399,3.39073,0.998208,-0.268617,-0.209196
663737,1,-1.57045,-0.523458,0.000192582,-2.09683,-0.00120654,1.5712,0.785672,-1.5708,-0.5236,1.68969e-07,-2.0944,-8.13025e-07,1.5708,0.785398,-0.000203801,0.00100304,-0.000197372,0.000415529,6.09009e-05,-0.000274752,-0.000125579,0,0,0,0,0,0,0,-0.430592,-9.43149,-0.786069,21.8882,1.71236,1.41104,-0.219534,-0.44542,-0.285722,-0.312793,3.38841,0.998194,-0.268884,-0.209328
663738,1,-1.57045,-0.523454,0.000192582,-2.09684,-0.00120653,1.5712,0.785667,-1.5708,-0.5236,1.68969e-07,-2.0944,-8.13025e-07,1.5708,0.785398,0.000420944,0.00122551,-0.000131581,-0.000929406,4.06006e-05,0.000528909,-0.00174523,0,0,0,0,0,0,0,-0.454395,-9.45529,-0.786069,21.9397,1.71236,1.39181,-0.174673,-0.44509,-0.286138,-0.31252,3.38786,0.998227,-0.268992,-0.209484
663739,1,-1.57045,-0.523455,0.000194531,-2.09683,-0.00120653,1.5712,0.78567,-1.5708,-0.5236,1.68969e-07,-2.0944,-8.13025e-07,1.5708,0.785398,0.00028063,0.000260193,0.000561893,-6.27923e-05,2.70671e-05,0.000115247,2.33068e-05,0,0,0,0,0,0,0,-0.454395,-9.43149,-0.81384,21.9159,1.71236,1.39822,-0.206716,-0.445066,-0.29011,-0.312659,3.38943,0.998289,-0.26889,-0.209644
663740,1,-1.57045,-0.52346,0.000194531,-2.09683,-0.00120724,1.5712,0.785673,-1.5708,-0.5236,1.68969e-07,-2.0944,-8.13025e-07,1.5708,0.785398,-0.000369726,-0.00158978,0.000374595,-4.18615e-05,-0.000219314,-0.000160528,0.000727615,0,0,0,0,0,0,0,-0.430592,-9.35611,-0.81384,21.9159,1.71877,1.40463,-0.225942,-0.445513,-0.292999,-0.313532,3.3908,0.998324,-0.268772,-0.209772
663741,1,-1.57045,-0.523458,0.000192582,-2.09684,-0.00120408,1.5712,0.785667,-1.5708,-0.5236,1.68969e-07,-2.0944,-8.13025e-07,1.5708,0.785398,0.000310328,-0.000503039,-0.000399884,-0.00114153,0.000904952,0.00013034,-0.0014138,0,0,0,0,0,0,0,-0.454395,-9.37991,-0.786069,21.9635,1.69039,1.39822,-0.174673,-0.445916,-0.292497,-0.314402,3.39088,0.998337,-0.268721,-0.20987
663742,1,-1.57045,-0.52346,0.000194531,-2.09684,-0.00120652,1.5712,0.785673,-1.5708,-0.5236,1.68969e-07,-2.0944,-8.13025e-07,1.5708,0.785398,0.000206885,-0.000892171,0.000383025,-0.000204209,-0.000210501,-0.000150465,0.000956341,0,0,0,0,0,0,0,-0.454395,-9.35611,-0.81384,21.9397,1.71236,1.40463,-0.225942,-0.446149,-0.29048,-0.314996,3.39063,0.998343,-0.268666,-0.209941
663743,1,-1.57044,-0.52346,0.000190911,-2.09684,-0.00120724,1.57119,0.785672,-1.5708,-0.5236,1.68969e-07,-2.0944,-8.13025e-07,1.5708,0.785398,0.000694736,-3.79688e-05,-0.000951076,-0.000692951,-0.000377693,-0.000575028,0.000400202,0,0,0,0,0,0,0,-0.478199,-9.37991,-0.762265,21.9635,1.71877,1.41745,-0.219534,-0.446322,-0.288518,-0.315397,3.39057,0.998331,-0.268591,-0.209975
663744,1,-1.57045,-0.523457,0.000190911,-2.09683,-0.00120652,1.5712,0.785666,-1.5708,-0.5236,1.68969e-07,-2.0944,-8.13025e-07,1.5708,0.785398,-9.36549e-05,0.000624301,-0.000634051,0.000651656,-1.44364e-05,-0.000145993,-0.00163207,0,0,0,0,0,0,0,-0.454395,-9.40768,-0.762265,21.9159,1.71236,1.41104,-0.168264,-0.446033,-0.287781,-0.314946,3.39089,0.998326,-0.268501,-0.209989
663745,1,-1.57045,-0.523459,0.000194531,-2.09684,-0.00120652,1.5712,0.785667,-1.5708,-0.5236,1.68969e-07,-2.0944,-8.13025e-07,1.5708,0.785398,-6.24366e-05,-0.000233413,0.000783725,-0.000122374,-9.62425e-06,0.00014003,-0.000850688,0,0,0,0,0,0,0,-0.454395,-9.37991,-0.81384,21.9397,1.71236,1.40463,-0.174673,-0.445502,-0.288255,-0.314057,3.39135,0.998327,-0.26842,-0.209987
663746,1,-1.57045,-0.523461,0.000194531,-2.09683,-0.00120652,1.5712,0.78567,-1.5708,-0.5236,1.68969e-07,-2.0944,-8.13025e-07,1.5708,0.785398,-0.00124805,-0.000155609,0.000522484,0.000475229,-6.41617e-06,0.000330712,0.000619669,0,0,0,0,0,0,0,-0.402821,-9.37991,-0.81384,21.9159,1.71236,1.39822,-0.206716,-0.445272,-0.288439,-0.313747,3.39139,0.998309,-0.268384,-0.209929
663747,1,-1.57044,-0.523457,0.000192582,-2.09684,-0.00120652,1.57119,0.785675,-1.5708,-0.5236,1.68969e-07,-2.0944,-8.13025e-07,1.5708,0.785398,0.000931204,0.000545875,-0.000301292,-0.000239993,-4.27745e-06,0.000220475,0.00187118,0,0,0,0,0,0,0,-0.478199,-9.40768,-0.786069,21.9397,1.71236,1.39822,-0.246084,-0.445194,-0.288503,-0.313777,3.39128,0.998281,-0.268367,-0.209799
663748,1,-1.57045,-0.523459,0.000190911,-2.09683,-0.00120724,1.57119,0.785668,-1.5708,-0.5236,1.68969e-07,-2.0944,-8.13025e-07,1.5708,0.785398,6.39909e-05,-0.000285697,-0.000757673,0.00160324,-0.000240211,0.000146983,-0.000922689,0,0,0,0,0,0,0,-0.454395,-9.37991,-0.762265,21.8644,1.71877,1.39822,-0.18749,-0.445054,-0.288649,-0.313578,3.39096,0.998245,-0.268388,-0.209638
663749,1,-1.57045,-0.523459,0.000192582,-2.09683,-0.00120591,1.57119,0.785666,-1.5708,-0.523598,1.69015e-07,-2.0944,-8.13102e-07,1.5708,0.785398,-0.000514151,0.000459149,5.16966e-05,-0.000137597,0.000280669,-0.000376729,-0.0013272,1.18455e-07,0.00155352,4.60725e-08,-0.003125,-7.70999e-08,0.005,1.18982e-07,-0.430592,-9.40768,-0.786069,21.9159,1.70687,1.41104,-0.168264,-0.444622,-0.288289,-0.312816,3.39009,0.998216,-0.268471,-0.209493
663750,1,-1.57045,-0.523459,0.000192582,-2.09684,-0.00120591,1.57119,0.785672,-1.5708,-0.523595,1.69107e-07,-2.0944,-8.13256e-07,1.57081,0.785398,-0.000342768,0.000306099,3.44644e-05,-0.00120536,0.000187113,-1.37937e-05,0.00101407,2.3691e-07,0.00310704,9.2145e-08,-0.00625,-1.542e-07,0.01,2.37964e-07,-0.430592,-9.40768,-0.786069,21.9635,1.70687,1.40463,-0.219534,-0.443978,-0.288927,-0.311792,3.39001,0.998222,-0.268465,-0.209344
663751,1,-1.57045,-0.523456,0.000192582,-2.09684,-0.00120785,1.5712,0.78567,-1.5708,-0.523591,1.69245e-07,-2.09441,-8.13487e-07,1.57083,0.785398,0.0003283,0.000760878,2.29763e-05,-0.00080357,-0.000519518,0.000228163,0.000201329,3.55365e-07,0.00466055,1.38218e-07,-0.009375,-2.313e-07,0.015,3.56946e-07,-0.454395,-9.43149,-0.786069,21.9635,1.72426,1.39822,-0.206716,-0.443553,-0.291831,-0.311146,3.3918,0.99826,-0.268263,-0.209161
663752,1,-1.57045,-0.523459,0.000190451,-2.09684,-0.00120591,1.57119,0.785668,-1.5708,-0.523584,1.69429e-07,-2.09443,-8.13796e-07,1.57085,0.785398,0.000218867,0.00206151,1.53175e-05,-0.00386049,0.000297915,-0.000559968,-0.000577858,4.73819e-07,0.00621407,1.8429e-07,-0.0125,-3.084e-07,0.02,4.75928e-07,-0.454395,-9.22916,-0.786069,21.8405,1.70687,1.41745,-0.18749,-0.443561,-0.298394,-0.311102,3.39629,0.998334,-0.267799,-0.208958
663753,1,-1.57045,-0.523463,0.000190201,-2.09683,-0.00120789,1.57119,0.785668,-1.5708,-0.523577,1.6966e-07,-2.09444,-8.14181e-07,1.57087,0.785398,-0.000410901,0.000129352,-0.0005466,-0.00322648,0.000605511,-0.000610671,-0.000385239,5.92274e-07,0.00776759,2.30363e-07,-0.015625,-3.855e-07,0.025,5.9491e-07,-0.430592,-8.74911,-0.762265,21.4438,1.69588,1.42385,-0.18749,-0.443626,-0.30894,-0.311106,3.40405,0.998479,-0.266994,-0.208748
663754,1,-1.57045,-0.523457,0.000190675,-2.09683,-0.00120641,1.57119,0.785671,-1.5708,-0.523567,1.69936e-07,-2.09446,-8.14644e-07,1.5709,0.785398,-0.000273934,0.00187946,-0.0003644,-0.00187839,0.00125138,0.0081436,0.00069261,7.10729e-07,0.00932111,2.76435e-07,-0.01875,-4.626e-07,0.03,7.13892e-07,-0.430592,-8.2413,-0.762265,20.9717,1.67299,1.44949,-0.213125,-0.443205,-0.319833,-0.310393,3.41234,0.998665,-0.266128,-0.208531
663755,1,-1.57045,-0.523446,0.000188884,-2.09684,-0.00120677,1.57119,0.785668,-1.5708,-0.523556,1.70259e-07,-2.09448,-8.15184e-07,1.57094,0.785398,0.000374189,0.00404202,-0.000892547,-0.00433981,0.000834256,0.00574603,-0.000725055,8.29184e-07,0.0108746,3.22508e-07,-0.021875,-5.397e-07,0.035,8.32874e-07,-0.454395,-7.73746,-0.734494,20.4996,1.67299,1.46231,-0.181082,-0.442393,-0.331164,-0.309034,3.41977,0.998847,-0.265369,-0.208305
663756,1,-1.57045,-0.523429,0.000188936,-2.09684,-0.00120505,1.57119,0.785673,-1.5708,-0.523544,1.70627e-07,-2.09451,-8.158e-07,1.57098,0.785398,0.00024946,0.00778439,-0.000595032,0.000221345,0.00116652,0.00347501,0.00117814,9.47639e-07,0.0124281,3.6858e-07,-0.025,-6.168e-07,0.04,9.51857e-07,-0.454395,-7.30899,-0.734494,19.9997,1.65651,1.48794,-0.225942,-0.441498,-0.346907,-0.307366,3.4273,0.998991,-0.264499,-0.208065
663757,1,-1.57044,-0.523408,0.000190903,-2.09685,-0.0012019,1.5712,0.785674,-1.5708,-0.52353,1.71042e-07,-2.09454,-8.16494e-07,1.57102,0.785398,0.000723118,0.00864757,-0.00599619,-0.00224582,0.000777682,0.00225337,0.00126015,1.06609e-06,0.0139817,4.14653e-07,-0.028125,-6.939e-07,0.045,1.07084e-06,-0.478199,-6.92813,-0.762265,19.603,1.65651,1.50167,-0.23876,-0.43928,-0.367821,-0.303277,3.43408,0.999103,-0.263368,-0.20782
663758,1,-1.57045,-0.523384,0.000190909,-2.09685,-0.00120085,1.5712,0.785672,-1.5708,-0.523514,1.71503e-07,-2.09457,-8.17265e-07,1.57107,0.785398,-0.000631545,0.0117286,-0.00451822,-0.00520226,0.000518454,0.00207359,0.000128021,1.18455e-06,0.0155352,4.60725e-07,-0.03125,-7.70999e-07,0.05,1.18982e-06,-0.430592,-6.65042,-0.762265,19.2539,1.65651,1.49526,-0.219534,-0.433842,-0.3941,-0.293788,3.44066,0.999292,-0.261681,-0.207613
663759,1,-1.57045,-0.523361,0.00019045,-2.09686,-0.00120369,1.57121,0.785669,-1.5708,-0.523497,1.72039e-07,-2.0946,-8.18125e-07,1.57113,0.785398,-0.00162746,0.0132258,-0.0028459,-0.00759154,0.000345636,0.00659743,-0.000864089,1.39022e-06,0.0176023,5.36882e-07,-0.0375,-8.60127e-07,0.0584956,1.40124e-06,-0.379017,-6.34891,-0.786069,18.9087,1.65651,1.48794,-0.193899,-0.426065,-0.426928,-0.280698,3.44888,0.9996,-0.259118,-0.207471
663760,1,-1.57045,-0.523349,0.000191871,-2.09688,-0.00120586,1.57122,0.78567,-1.5708,-0.523477,1.72652e-07,-2.09465,-8.19075e-07,1.5712,0.785398,-0.00108497,0.0150208,-0.0021902,-0.00920805,-0.000176477,0.00423128,-0.000101341,1.59589e-06,0.0196694,6.13039e-07,-0.04375,-9.49254e-07,0.0669912,1.61265e-06,-0.379017,-5.94424,-0.786069,18.7064,1.6675,1.50808,-0.206716,-0.418396,-0.464811,-0.268232,3.4582,0.999943,-0.25568,-0.207374
663761,1,-1.57045,-0.523335,0.000192345,-2.0969,-0.00120679,1.57122,0.785673,-1.5708,-0.523455,1.73342e-07,-2.0947,-8.20113e-07,1.57127,0.785398,-0.000166502,0.0151067,-0.00167983,-0.0141166,-0.000321102,0.0048701,0.000644516,1.80156e-06,0.0217365,6.89195e-07,-0.05,-1.03838e-06,0.0754868,1.82407e-06,-0.402821,-5.61496,-0.786069,18.5358,1.67299,1.5914,-0.225942,-0.412462,-0.504425,-0.25889,3.46745,1.00025,-0.251385,-0.207283
663762,1,-1.57045,-0.523323,0.000194452,-2.09691,-0.00120628,1.57123,0.78567,-1.5708,-0.523432,1.74107e-07,-2.09475,-8.21241e-07,1.57136,0.785398,0.00109542,0.0120504,-0.000635042,-0.0147218,-1.06173e-05,0.00526381,-0.000282399,2.00723e-06,0.0238035,7.65352e-07,-0.05625,-1.12751e-06,0.0839824,2.03548e-06,-0.454395,-5.15872,-0.81384,18.2343,1.6675,1.68203,-0.206716,-0.409469,-0.538923,-0.254316,3.47412,1.00044,-0.246326,-0.207191
663763,1,-1.57045,-0.523304,0.000190885,-2.09693,-0.00120636,1.57123,0.785673,-1.5708,-0.523406,1.74948e-07,-2.09482,-8.22457e-07,1.57145,0.785398,0.000173471,0.0164834,-0.00175337,-0.0158618,-0.00368721,0.00463732,0.000523811,2.2129e-06,0.0258706,8.41509e-07,-0.0625,-1.21664e-06,0.0924781,2.2469e-06,-0.430592,-4.70645,-0.762265,17.8376,1.63912,1.8038,-0.225942,-0.409281,-0.562303,-0.254171,3.47484,1.0005,-0.240702,-0.207109
663764,1,-1.57045,-0.523287,0.000192573,-2.09696,-0.00120306,1.57124,0.785673,-1.5708,-0.523378,1.75866e-07,-2.09489,-8.23763e-07,1.57155,0.785398,0.000672459,0.013743,-0.000704783,-0.0185135,-0.00139436,0.0105706,0.000349207,2.41858e-06,0.0279377,9.17665e-07,-0.06875,-1.30576e-06,0.100974,2.45831e-06,-0.454395,-4.12326,-0.786069,17.3655,1.59975,1.88803,-0.225942,-0.410565,-0.574213,-0.256418,3.46847,1.00047,-0.234522,-0.207048
663765,1,-1.57044,-0.523259,0.000192579,-2.09698,-0.00119833,1.57126,0.785668,-1.5708,-0.523348,1.7686e-07,-2.09496,-8.25158e-07,1.57166,0.785398,0.00100512,0.0149374,-0.000539368,-0.0179049,0.000470145,0.0159892,-0.00119135,2.62425e-06,0.0300048,9.93822e-07,-0.075,-1.39489e-06,0.109469,2.66973e-06,-0.478199,-3.66702,-0.786069,16.7704,1.55397,1.9457,-0.18749,-0.41307,-0.572034,-0.260594,3.45292,1.00029,-0.227839,-0.207028
663766,1,-1.57044,-0.523222,0.000192581,-2.09702,-0.00119088,1.57128,0.785667,-1.5708,-0.523316,1.7793e-07,-2.09504,-8.26642e-07,1.57178,0.785398,0.000670079,0.0195028,-0.000411713,-0.0249209,0.00154971,0.0211103,-0.00126895,2.82992e-06,0.0320719,1.06998e-06,-0.08125,-1.48402e-06,0.117965,2.88114e-06,-0.478199,-3.36551,-0.786069,16.3459,1.5146,1.97134,-0.174673,-0.416815,-0.558226,-0.266608,3.42885,0.99989,-0.220453,-0.207048
663767,1,-1.57044,-0.523197,0.000192582,-2.09707,-0.00118925,1.57132,0.785673,-1.5708,-0.523282,1.79076e-07,-2.09513,-8.28215e-07,1.5719,0.785398,0.000446719,0.0194616,-0.000313577,-0.0295508,0.00107026,0.0258501,0.00129026,3.03559e-06,0.034139,1.14614e-06,-0.0875,-1.57314e-06,0.12646,3.09256e-06,-0.478199,-2.93704,-0.786069,15.8976,1.50911,1.97134,-0.232351,-0.421078,-0.541948,-0.273369,3.40163,0.999323,-0.21173,-0.207055
663768,1,-1.57045,-0.523171,0.000190911,-2.09712,-0.00118697,1.57137,0.785673,-1.5708,-0.523245,1.80298e-07,-2.09522,-8.29877e-07,1.57204,0.785398,-0.000258999,0.0207196,-0.000795189,-0.0387797,0.00123301,0.0357303,0.000860176,3.24126e-06,0.0362061,1.22229e-06,-0.09375,-1.66227e-06,0.134956,3.30397e-06,-0.454395,-2.55618,-0.762265,15.5524,1.49172,1.92007,-0.232351,-0.425017,-0.526714,-0.279684,3.37458,0.998646,-0.201259,-0.207025
663769,1,-1.57045,-0.523142,0.000194531,-2.09718,-0.00118621,1.57143,0.785668,-1.5708,-0.523208,1.81613e-07,-2.09533,-8.31576e-07,1.57218,0.785398,-0.000172666,0.0222314,0.000654306,-0.0430582,-0.000119264,0.0493335,-0.00132542,3.50912e-06,0.0377552,1.31447e-06,-0.103125,-1.69881e-06,0.14588,3.61328e-06,-0.454395,-2.20309,-0.81384,15.2509,1.5146,1.82302,-0.181082,-0.428369,-0.512739,-0.285246,3.34841,0.997883,-0.189086,-0.206991
663770,1,-1.57044,-0.523113,0.000188963,-2.09724,-0.00118643,1.57151,0.785663,-1.5708,-0.523168,1.8302e-07,-2.09544,-8.33311e-07,1.57234,0.785398,0.00109131,0.0237834,-0.00143633,-0.0494464,-0.000590492,0.0573948,-0.00234168,3.77699e-06,0.0393043,1.40665e-06,-0.1125,-1.73535e-06,0.156804,3.92258e-06,-0.50597,-1.87381,-0.734494,15.1041,1.52651,1.75894,-0.141714,-0.431436,-0.499634,-0.29041,3.32217,0.997025,-0.175623,-0.20697
663771,1,-1.57044,-0.523091,0.000192582,-2.09731,-0.00118986,1.57159,0.785665,-1.5708,-0.523128,1.84518e-07,-2.09556,-8.35083e-07,1.57251,0.785398,7.79297e-05,0.0217232,0.0002365,-0.0535457,-0.000649741,0.0649909,-0.000815132,4.04485e-06,0.0408535,1.49883e-06,-0.121875,-1.77188e-06,0.167728,4.23188e-06,-0.478199,-1.54453,-0.786069,14.9295,1.532,1.76535,-0.161856,-0.43425,-0.483271,-0.295029,3.29314,0.996046,-0.161434,-0.206916
663772,1,-1.57044,-0.523063,0.000194531,-2.09738,-0.00118948,1.57168,0.785664,-1.5708,-0.523085,1.86109e-07,-2.09569,-8.36892e-07,1.57269,0.785398,0.0081022,0.0269513,0.000798001,-0.0615923,-3.18231e-05,0.0702604,-0.00101814,4.31271e-06,0.0424026,1.59101e-06,-0.13125,-1.80842e-06,0.178653,4.54118e-06,-0.557545,-1.24301,-0.81384,14.7074,1.5201,1.81661,-0.149038,-0.439,-0.461732,-0.301924,3.26058,0.994861,-0.146847,-0.206745
663773,1,-1.57044,-0.523032,0.00019982,-2.09747,-0.00118736,1.57177,0.785668,-1.5708,-0.523041,1.87793e-07,-2.09583,-8.38737e-07,1.57288,0.785398,0.00647446,0.0282581,0.00228828,-0.0687531,0.000762983,0.0783176,0.000508035,4.58058e-06,0.0439517,1.68319e-06,-0.140625,-1.84496e-06,0.189577,4.85048e-06,-0.581349,-0.965302,-0.889218,14.5328,1.49812,1.89443,-0.181082,-0.448869,-0.44061,-0.315279,3.22804,0.993407,-0.131746,-0.206396
663774,1,-1.57043,-0.523003,0.00019982,-2.09755,-0.00118689,1.57188,0.785673,-1.5708,-0.522996,1.89568e-07,-2.09598,-8.40618e-07,1.57308,0.785398,0.00526026,0.0285365,0.0015203,-0.0748534,0.00174106,0.0853962,0.0020002,4.84844e-06,0.0455008,1.77537e-06,-0.15,-1.8815e-06,0.200501,5.15978e-06,-0.605152,-0.659821,-0.889218,14.1361,1.46425,1.9457,-0.225942,-0.462603,-0.421647,-0.333594,3.19691,0.991782,-0.116068,-0.205878
663775,1,-1.57043,-0.522969,0.000198332,-2.09766,-0.00118423,1.57201,0.785666,-1.5708,-0.522949,1.91435e-07,-2.09614,-8.42536e-07,1.57329,0.785398,0.00556043,0.0297813,-0.000196807,-0.0855784,0.00239867,0.0965501,-0.000802762,5.1163e-06,0.04705,1.86755e-06,-0.159375,-1.91804e-06,0.211425,5.46908e-06,-0.680531,-0.405914,-0.837644,13.8346,1.43038,1.9393,-0.168264,-0.476364,-0.401918,-0.351727,3.16623,0.99015,-0.0998354,-0.205273
663776,1,-1.57043,-0.522943,0.000199042,-2.09777,-0.00117947,1.57216,0.785664,-1.5708,-0.5229,1.93395e-07,-2.09631,-8.44491e-07,1.57351,0.785398,0.00392472,0.025918,-0.00013414,-0.0965233,0.00223088,0.117317,-0.00124725,5.38416e-06,0.0485991,1.95973e-06,-0.16875,-1.95457e-06,0.222349,5.77838e-06,-0.680531,-0.080597,-0.837644,13.537,1.41298,1.85507,-0.149038,-0.487798,-0.378627,-0.366284,3.13579,0.988626,-0.0830205,-0.204665
663777,1,-1.57043,-0.522906,0.000197148,-2.09789,-0.00117279,1.57233,0.785667,-1.5708,-0.52285,1.95447e-07,-2.09649,-8.46482e-07,1.57374,0.785398,0.0027798,0.027043,-9.16289e-05,-0.105248,0.0023256,0.128786,0.000117935,5.65203e-06,0.0501482,2.05191e-06,-0.178125,-1.99111e-06,0.233273,6.08768e-06,-0.680531,0.0741272,-0.837644,13.2633,1.39009,1.73971,-0.174673,-0.49613,-0.347446,-0.376271,3.10405,0.987222,-0.0658421,-0.20407
663778,1,-1.57043,-0.522877,0.000198647,-2.09803,-0.00117019,1.57251,0.785672,-1.5708,-0.522798,1.97591e-07,-2.09668,-8.4851e-07,1.57399,0.785398,0.00197569,0.0278379,-6.27374e-05,-0.115626,0.00195028,0.141911,0.00174014,5.91989e-06,0.0516973,2.14408e-06,-0.1875,-2.02765e-06,0.244197,6.39698e-06,-0.680531,0.351837,-0.837644,13.1403,1.37911,1.64907,-0.219534,-0.501469,-0.308894,-0.381959,3.07069,0.98588,-0.0485181,-0.203459
663779,1,-1.57043,-0.522849,0.000199147,-2.09818,-0.00116851,1.5727,0.785668,-1.5708,-0.522746,1.99836e-07,-2.09688,-8.50527e-07,1.57425,0.785398,0.001409,0.0284944,-4.30635e-05,-0.127312,0.00170182,0.154855,-0.000264063,6.2299e-06,0.0525803,2.2452e-06,-0.19912,-2.0171e-06,0.256415,6.7686e-06,-0.680531,0.629547,-0.837644,12.9419,1.36812,1.60421,-0.181082,-0.504361,-0.267502,-0.384119,3.03767,0.984561,-0.031135,-0.202842
663780,1,-1.57043,-0.522815,0.000200984,-2.09833,-0.00117018,1.57291,0.785665,-1.5708,-0.522692,2.02183e-07,-2.09709,-8.52533e-07,1.57451,0.785398,0.00100824,0.0282406,0.000527174,-0.135729,0.000520241,0.171623,-0.000888119,6.53992e-06,0.0534633,2.34631e-06,-0.210739,-2.00656e-06,0.268633,7.14021e-06,-0.680531,0.804108,-0.861447,12.8427,1.3846,1.60421,-0.161856,-0.505656,-0.224679,-0.383951,3.00548,0.983215,-0.0139701,-0.202255
663781,1,-1.57042,-0.522783,0.00020104,-2.09849,-0.00116694,1.57312,0.785668,-1.5708,-0.522638,2.0463e-07,-2.09731,-8.54529e-07,1.57479,0.785398,0.00313669,0.0315667,0.000350753,-0.14356,0.000343863,0.185005,0.000119998,6.84993e-06,0.0543463,2.44742e-06,-0.222359,-1.99601e-06,0.28085,7.51183e-06,-0.78368,0.958832,-0.861447,12.692,1.3846,1.61062,-0.181082,-0.50672,-0.180183,-0.383257,2.97255,0.981738,0.00250926,-0.201692
663782,1,-1.57041,-0.522748,0.000203007,-2.09865,-0.00116844,1.57335,0.785665,-1.5708,-0.522583,2.07179e-07,-2.09754,-8.56515e-07,1.57509,0.785398,0.00389312,0.0346595,0.000882927,-0.148754,0.00043047,0.196714,-0.000632078,7.15994e-06,0.0552293,2.54854e-06,-0.233978,-1.98546e-06,0.293068,7.88345e-06,-0.859058,1.08182,-0.889218,12.5452,1.37911,1.69485,-0.161856,-0.509156,-0.136054,-0.383965,2.93761,0.980018,0.0179719,-0.20112
663783,1,-1.57041,-0.522712,0.000204684,-2.09883,-0.00117041,1.57359,0.785663,-1.5708,-0.522526,2.09828e-07,-2.09779,-8.5849e-07,1.57539,0.785399,0.00262448,0.0366397,0.00114504,-0.157941,-0.00852533,0.209322,-0.00116737,7.46995e-06,0.0561123,2.64965e-06,-0.245598,-1.97491e-06,0.305286,8.25506e-06,-0.859058,1.20877,-0.913022,12.3429,1.36171,1.79739,-0.141714,-0.513357,-0.0942737,-0.386487,2.90024,0.978062,0.0323603,-0.200512
663784,1,-1.57041,-0.52268,0.000206816,-2.09902,-0.00117049,1.57384,0.785665,-1.5708,-0.522469,2.12579e-07,-2.09805,-8.60454e-07,1.57571,0.785399,0.00177145,0.037366,0.000763065,-0.165691,-0.00606581,0.221702,-0.00457876,7.77997e-06,0.0569953,2.75076e-06,-0.257218,-1.96437e-06,0.317503,8.62668e-06,-0.859058,1.36349,-0.913022,12.1723,1.35072,1.84866,-0.161856,-0.518178,-0.0541395,-0.389325,2.86034,0.975988,0.0458778,-0.199845
663785,1,-1.57041,-0.522647,0.000202237,-2.09922,-0.00116711,1.57412,0.785667,-1.5708,-0.522412,2.15431e-07,-2.09831,-8.62408e-07,1.57604,0.785399,0.000547707,0.0378998,-0.00125475,-0.176773,-0.00443229,0.239139,-0.00295667,8.08998e-06,0.0578783,2.85188e-06,-0.268837,-1.95382e-06,0.329721,8.99829e-06,-0.831288,1.51425,-0.837644,11.9461,1.34523,1.8038,-0.174673,-0.521896,-0.0134003,-0.390017,2.81773,0.973874,0.0588505,-0.199116
663786,1,-1.57041,-0.522609,0.000208224,-2.09944,-0.00116619,1.57442,0.785661,-1.5708,-0.522353,2.18384e-07,-2.09859,-8.64351e-07,1.57638,0.785399,-0.000179411,0.0393203,0.000369762,-0.186976,-0.00339876,0.258026,-0.00418805,8.39999e-06,0.0587613,2.95299e-06,-0.280457,-1.94327e-06,0.341938,9.36991e-06,-0.807484,1.61343,-0.889218,11.7994,1.34523,1.72689,-0.122488,-0.5237,0.0287888,-0.387407,2.77296,0.97175,0.0715633,-0.198353
663787,1,-1.57041,-0.522576,0.000203263,-2.09968,-0.00116528,1.57473,0.785662,-1.5708,-0.522293,2.21438e-07,-2.09889,-8.66284e-07,1.57674,0.785399,-0.000667222,0.0368146,0.00218295,-0.198711,-0.00239532,0.278724,-0.00178445,8.71001e-06,0.0596443,3.0541e-06,-0.292076,-1.93273e-06,0.354156,9.74153e-06,-0.78368,1.74039,-0.837644,11.724,1.33974,1.5914,-0.155447,-0.52506,0.0739955,-0.383935,2.72621,0.969568,0.0840722,-0.197566
663788,1,-1.57042,-0.522533,0.000202816,-2.09992,-0.00115882,1.57506,0.785666,-1.5708,-0.522233,2.24593e-07,-2.09919,-8.68206e-07,1.5771,0.785399,-0.000437917,0.0372613,0.00171712,-0.217168,-0.000795412,0.295933,-0.000637392,9.02002e-06,0.0605273,3.15521e-06,-0.303696,-1.92218e-06,0.366374,1.01131e-05,-0.78368,1.76419,-0.837644,11.5732,1.31136,1.50808,-0.174673,-0.527674,0.123223,-0.382329,2.6792,0.967312,0.0964815,-0.196735
663789,1,-1.57041,-0.522495,0.000202667,-2.10017,-0.00115772,1.5754,0.785666,-1.5708,-0.522172,2.27854e-07,-2.09951,-8.70091e-07,1.57748,0.785399,0.000270041,0.0367651,0.00134111,-0.226001,-0.000717545,0.309382,-0.000782165,9.35614e-06,0.0608632,3.26104e-06,-0.316186,-1.88514e-06,0.379007,1.05104e-05,-0.807484,1.81577,-0.837644,11.3987,1.31136,1.43026,-0.168264,-0.531654,0.174101,-0.382612,2.63518,0.965042,0.108971,-0.195866
663790,1,-1.57041,-0.522454,0.000204288,-2.10044,-0.00115675,1.57574,0.785658,-1.5708,-0.522111,2.31221e-07,-2.09984,-8.71939e-07,1.57787,0.785399,0.000183907,0.0362519,0.00159816,-0.239843,-0.000415366,0.320705,-0.00206941,9.69227e-06,0.0611992,3.36687e-06,-0.328676,-1.84811e-06,0.39164,1.09077e-05,-0.807484,1.86734,-0.861447,11.2757,1.30586,1.44308,-0.128897,-0.536717,0.226547,-0.384154,2.5939,0.962728,0.121344,-0.194988
663791,1,-1.57042,-0.52241,0.000202601,-2.10071,-0.00115724,1.5761,0.785663,-1.5708,-0.522049,2.34694e-07,-2.10018,-8.7375e-07,1.57828,0.785399,-0.00108091,0.0370696,0.000619086,-0.249648,-0.000585701,0.331521,0.000485739,1.00284e-05,0.0615351,3.4727e-06,-0.341166,-1.81107e-06,0.404273,1.1305e-05,-0.755909,1.86734,-0.837644,11.1249,1.31136,1.5209,-0.181082,-0.542121,0.281105,-0.385904,2.55404,0.960343,0.133353,-0.194107
663792,1,-1.57042,-0.522369,0.000206215,-2.101,-0.00115659,1.57646,0.785663,-1.5708,-0.521987,2.38272e-07,-2.10053,-8.75524e-07,1.57869,0.785399,-0.000718425,0.036997,0.00170199,-0.260482,-0.000266022,0.344682,0.000273252,1.03645e-05,0.061871,3.57853e-06,-0.353656,-1.77404e-06,0.416906,1.17023e-05,-0.755909,1.89114,-0.889218,11.0019,1.30586,1.60421,-0.181082,-0.547102,0.33722,-0.386914,2.51452,0.957886,0.144851,-0.193216
663793,1,-1.57042,-0.522333,0.000202594,-2.1013,-0.00115657,1.57685,0.785661,-1.5708,-0.521925,2.41957e-07,-2.1009,-8.77261e-07,1.57912,0.785399,-0.000477313,0.0361792,-9.63259e-06,-0.271921,-0.000236602,0.356768,-0.000567839,1.07006e-05,0.062207,3.68436e-06,-0.366146,-1.737e-06,0.42954,1.20996e-05,-0.755909,1.94272,-0.837644,10.8789,1.30586,1.61703,-0.161856,-0.551708,0.395843,-0.387329,2.4736,0.955327,0.15577,-0.19234
663794,1,-1.57042,-0.522292,0.000200923,-2.10162,-0.00115463,1.57725,0.785658,-1.5708,-0.521862,2.45747e-07,-2.10127,-8.78961e-07,1.57957,0.785399,0.00269452,0.0374261,-0.000516635,-0.286748,0.000442085,0.375435,-0.00139035,1.10368e-05,0.0625429,3.79019e-06,-0.378636,-1.69997e-06,0.442173,1.24969e-05,-0.755909,1.91891,-0.81384,10.8789,1.28847,1.57858,-0.135305,-0.55634,0.455851,-0.387484,2.43177,0.952687,0.166335,-0.191504
663795,1,-1.57042,-0.522248,0.000206394,-2.10196,-0.00115402,1.57767,0.785665,-1.5708,-0.5218,2.49643e-07,-2.10167,-8.80624e-07,1.58002,0.785399,0.000934605,0.0419598,0.00080415,-0.298004,0.000464844,0.390771,0.00145926,1.13729e-05,0.0628788,3.89602e-06,-0.391126,-1.66293e-06,0.454806,1.28942e-05,-0.708302,1.86734,-0.861447,10.8036,1.28298,1.56576,-0.200308,-0.561762,0.510472,-0.388373,2.3924,0.950019,0.17689,-0.190686
663796,1,-1.57042,-0.522207,0.000201633,-2.1023,-0.00115402,1.57812,0.785662,-1.5708,-0.521736,2.53645e-07,-2.10207,-8.8225e-07,1.58049,0.785399,0.000162366,0.0440314,-0.000551312,-0.314056,0.000284898,0.406974,7.40318e-06,1.1709e-05,0.0632148,4.00184e-06,-0.403616,-1.6259e-06,0.467439,1.32915e-05,-0.680531,1.86734,-0.81384,10.752,1.28298,1.53372,-0.174673,-0.567483,0.551317,-0.389712,2.35943,0.947423,0.187734,-0.189867
663797,1,-1.57043,-0.52216,0.000201341,-2.10266,-0.00115585,1.57857,0.785656,-1.5708,-0.521673,2.57752e-07,-2.10249,-8.83839e-07,1.58097,0.785399,-0.00151331,0.0474431,-0.000997497,-0.329787,-0.000439168,0.425625,-0.0021772,1.20452e-05,0.0635507,4.10767e-06,-0.416106,-1.58886e-06,0.480072,1.36888e-05,-0.605152,1.79196,-0.786069,10.7282,1.29946,1.46871,-0.116079,-0.571527,0.573025,-0.389091,2.3363,0.945074,0.199149,-0.189076
663798,1,-1.57043,-0.522117,0.000196143,-2.10304,-0.00115718,1.57904,0.785658,-1.5708,-0.521609,2.61966e-07,-2.10291,-8.85391e-07,1.58146,0.785399,-0.00145942,0.0454158,-0.00185668,-0.344118,-0.000747649,0.435205,-0.000511035,1.23813e-05,0.0638866,4.2135e-06,-0.428596,-1.55183e-06,0.492705,1.40861e-05,-0.581349,1.76419,-0.734494,10.8036,1.31136,1.37899,-0.141714,-0.572731,0.576913,-0.385041,2.32353,0.943062,0.211195,-0.188313
663799,1,-1.57043,-0.522068,0.000199236,-2.10342,-0.00115718,1.57953,0.785662,-1.5708,-0.521545,2.66286e-07,-2.10336,-8.86891e-07,1.58197,0.785399,-0.00209968,0.048242,-2.03023e-05,-0.354055,-0.000508979,0.449981,0.000873262,1.27307e-05,0.0637499,4.32054e-06,-0.441086,-1.49971e-06,0.505231,1.44878e-05,-0.529774,1.68881,-0.786069,10.7282,1.31136,1.34695,-0.174673,-0.571799,0.570674,-0.378721,2.31703,0.94128,0.223473,-0.187526
663800,1,-1.57043,-0.522018,0.000197391,-2.10382,-0.00115718,1.58002,0.785658,-1.5708,-0.521482,2.70714e-07,-2.10381,-8.88338e-07,1.58248,0.785399,-0.0006904,0.0502425,-0.000562053,-0.365583,-0.000347229,0.463164,-0.00088095,1.30801e-05,0.0636132,4.42758e-06,-0.453576,-1.44759e-06,0.517757,1.48895e-05,-0.557545,1.61343,-0.762265,10.7282,1.31136,1.37899,-0.135305,-0.570465,0.559414,-0.372685,2.3124,0.939554,0.235369,-0.186697
663801,1,-1.57043,-0.521971,0.000193713,-2.10423,-0.00115524,1.58052,0.785662,-1.5708,-0.521418,2.75249e-07,-2.10428,-8.89734e-07,1.58301,0.785399,0.000141374,0.0468309,-0.00157491,-0.377755,0.000406842,0.470835,0.000866965,1.34295e-05,0.0634765,4.53462e-06,-0.466066,-1.39547e-06,0.530284,1.52911e-05,-0.581349,1.61343,-0.710691,10.7282,1.29396,1.48153,-0.174673,-0.569651,0.547981,-0.368024,2.30626,0.937776,0.246478,-0.185841
663802,1,-1.57043,-0.521928,0.000192023,-2.10466,-0.00115524,1.58103,0.785666,-1.5708,-0.521355,2.7989e-07,-2.10475,-8.91077e-07,1.58356,0.785399,-0.000428941,0.0475265,-0.00160209,-0.390834,0.000266779,0.484089,0.00176192,1.37789e-05,0.0633398,4.64166e-06,-0.478556,-1.34335e-06,0.54281,1.56928e-05,-0.557545,1.61343,-0.686887,10.7282,1.29396,1.5209,-0.206716,-0.569115,0.543263,-0.364129,2.29595,0.935901,0.256727,-0.184981
663803,1,-1.57043,-0.521883,0.000193687,-2.10509,-0.00115402,1.58158,0.785658,-1.5708,-0.521292,2.84639e-07,-2.10524,-8.92368e-07,1.58411,0.785399,-0.000260744,0.0459937,-0.000507746,-0.403502,0.000581417,0.502626,-0.00147238,1.41284e-05,0.0632031,4.74871e-06,-0.491046,-1.29123e-06,0.555336,1.60944e-05,-0.557545,1.56583,-0.710691,10.7282,1.28298,1.46231,-0.135305,-0.568841,0.547705,-0.360997,2.2808,0.933929,0.266206,-0.184158
663804,1,-1.57043,-0.521836,0.000190066,-2.10555,-0.00115402,1.58214,0.785658,-1.5708,-0.521228,2.89495e-07,-2.10575,-8.93607e-07,1.58468,0.785399,-0.000804531,0.0460677,-0.0015423,-0.419378,0.000385109,0.518094,-0.000745828,1.44778e-05,0.0630664,4.85575e-06,-0.503536,-1.23912e-06,0.567862,1.64961e-05,-0.529774,1.46268,-0.659116,10.8512,1.28298,1.34695,-0.141714,-0.568947,0.560267,-0.358869,2.26186,0.931898,0.27506,-0.183405
663805,1,-1.57043,-0.521792,0.000193684,-2.106,-0.00114889,1.5827,0.785666,-1.5708,-0.521166,2.94458e-07,-2.10626,-8.94794e-07,1.58526,0.785399,-0.00052217,0.0454304,0.000180195,-0.431393,0.000899122,0.530939,0.00214644,1.48272e-05,0.0629297,4.96279e-06,-0.516026,-1.187e-06,0.580388,1.68978e-05,-0.529774,1.3873,-0.710691,10.7798,1.26558,1.32131,-0.213125,-0.569369,0.578748,-0.357661,2.24096,0.929841,0.283441,-0.182694
663806,1,-1.57044,-0.521737,0.000192013,-2.10647,-0.00114783,1.58327,0.785667,-1.5708,-0.521103,2.99527e-07,-2.10679,-8.95929e-07,1.58585,0.785399,-0.0015439,0.0479208,-0.000435206,-0.454331,0.000598007,0.541685,0.00166742,1.51766e-05,0.062793,5.06983e-06,-0.528516,-1.13488e-06,0.592914,1.72994e-05,-0.478199,1.18497,-0.686887,10.7282,1.26558,1.35977,-0.219534,-0.570215,0.596631,-0.357604,2.22296,0.927822,0.291737,-0.182004
663807,1,-1.57044,-0.521687,0.000192013,-2.10694,-0.00115002,1.58385,0.785664,-1.5708,-0.52104,3.04704e-07,-2.10733,-8.97012e-07,1.58646,0.785399,-0.0015781,0.0477447,-0.00028903,-0.457648,-0.000450095,0.546806,0.000161499,1.5526e-05,0.0626563,5.17687e-06,-0.541006,-1.08276e-06,0.60544,1.77011e-05,-0.454395,1.05801,-0.686887,10.6052,1.28847,1.39822,-0.193899,-0.570942,0.608255,-0.357961,2.21114,0.925891,0.300244,-0.18138
663808,1,-1.57045,-0.521636,0.000188394,-2.10743,-0.00115183,1.58445,0.785664,-1.5708,-0.520978,3.09988e-07,-2.10789,-8.98043e-07,1.58708,0.785399,-0.00280932,0.0467734,-0.00139828,-0.466019,-0.000945115,0.562236,-0.0001302,1.58754e-05,0.0625195,5.28391e-06,-0.553496,-1.03064e-06,0.617966,1.81027e-05,-0.379017,0.958832,-0.635312,10.506,1.30586,1.35977,-0.18749,-0.570483,0.620281,-0.357137,2.19815,0.923909,0.308248,-0.180886
663809,1,-1.57044,-0.521584,0.000186724,-2.10792,-0.00114986,1.58508,0.785667,-1.5708,-0.520916,3.15377e-07,-2.10845,-8.99011e-07,1.58771,0.785399,-0.000661967,0.0456658,-0.00148838,-0.475551,1.35894e-05,0.576789,-8.71801e-05,1.62279e-05,0.0619437,5.3892e-06,-0.565986,-9.68507e-07,0.630087,1.84974e-05,-0.430592,0.883453,-0.611508,10.3553,1.28847,1.24349,-0.18749,-0.568556,0.642371,-0.354566,2.17515,0.921731,0.314855,-0.180538
663810,1,-1.57044,-0.521539,0.000190064,-2.10843,-0.00114608,1.5857,0.785665,-1.5708,-0.520854,3.20872e-07,-2.10903,-8.99917e-07,1.58835,0.785399,-0.000437945,0.0431238,0.000121839,-0.483663,0.00126323,0.583837,-5.84052e-05,1.65803e-05,0.0613678,5.49449e-06,-0.578476,-9.06371e-07,0.642207,1.88921e-05,-0.430592,0.883453,-0.659116,10.2561,1.25459,1.23709,-0.18749,-0.566662,0.678975,-0.35224,2.13899,0.919259,0.319753,-0.180315
663811,1,-1.57044,-0.521497,0.000192013,-2.10895,-0.00114353,1.58633,0.785662,-1.5708,-0.520793,3.26472e-07,-2.10962,-9.00762e-07,1.589,0.785399,-0.000289439,0.0395864,0.00073119,-0.493255,0.00168953,0.594648,-0.000513869,1.69328e-05,0.0607919,5.59977e-06,-0.590966,-8.44235e-07,0.654328,1.92868e-05,-0.430592,0.958832,-0.686887,10.1093,1.23171,1.29476,-0.174673,-0.566504,0.734169,-0.352648,2.08783,0.916375,0.32281,-0.180189
663812,1,-1.57044,-0.52145,0.000186724,-2.10949,-0.00114105,1.58697,0.785666,-1.5708,-0.520733,3.32177e-07,-2.11023,-9.01544e-07,1.58967,0.785399,-0.000191066,0.0401817,-0.00127551,-0.504349,0.000888742,0.619076,0.00108141,1.72852e-05,0.0602161,5.70506e-06,-0.603456,-7.82099e-07,0.666449,1.96814e-05,-0.430592,0.907257,-0.611508,10.0339,1.23812,1.36618,-0.213125,-0.567573,0.807512,-0.35508,2.02238,0.913106,0.324024,-0.18014
663813,1,-1.57044,-0.521405,0.000188394,-2.11004,-0.0011412,1.58764,0.785663,-1.5708,-0.520674,3.37987e-07,-2.11084,-9.02264e-07,1.59035,0.785399,-0.000125957,0.0406263,-0.000293334,-0.515894,0.000185406,0.635883,-0.000465972,1.76377e-05,0.0596402,5.81035e-06,-0.615946,-7.19964e-07,0.67857,2.00761e-05,-0.430592,0.855682,-0.635312,10.0061,1.2491,1.33413,-0.181082,-0.568476,0.890952,-0.35741,1.94701,0.909614,0.323678,-0.180162
663814,1,-1.57044,-0.521353,0.000184593,-2.11059,-0.00113963,1.58833,0.785657,-1.5708,-0.520615,3.43903e-07,-2.11147,-9.02922e-07,1.59104,0.785399,0.000473905,0.0437937,-0.00075222,-0.529631,0.000530364,0.651467,-0.00224352,1.79901e-05,0.0590643,5.91564e-06,-0.628436,-6.57828e-07,0.690691,2.04708e-05,-0.454395,0.681122,-0.611508,10.0339,1.23812,1.3085,-0.128897,-0.569067,0.972789,-0.359368,1.86858,0.906055,0.322456,-0.180243
663815,1,-1.57045,-0.521307,0.000180264,-2.11118,-0.00113499,1.58903,0.785664,-1.5708,-0.520556,3.49924e-07,-2.11211,-9.03517e-07,1.59174,0.785399,-0.00088969,0.0411099,-0.0017078,-0.550237,0.00079428,0.666977,0.000674392,1.83426e-05,0.0584884,6.02093e-06,-0.640926,-5.95692e-07,0.702812,2.08654e-05,-0.402821,0.577972,-0.559934,10.2323,1.22621,1.21786,-0.18749,-0.569008,1.04294,-0.360455,1.79524,0.902624,0.321326,-0.180334
663816,1,-1.57044,-0.521259,0.000185317,-2.11178,-0.00113073,1.58974,0.785666,-1.5708,-0.520498,3.5605e-07,-2.11276,-9.04051e-07,1.59246,0.785399,0.000613898,0.041931,0.000624791,-0.560157,0.0015806,0.678525,0.00116162,1.8695e-05,0.0579126,6.12621e-06,-0.653416,-5.33557e-07,0.714932,2.12601e-05,-0.454395,0.47879,-0.635312,10.4782,1.19783,1.21145,-0.206716,-0.568323,1.09874,-0.360747,1.73151,0.899413,0.320875,-0.18038
663817,1,-1.57044,-0.521213,0.000181618,-2.11238,-0.00113413,1.59045,0.785662,-1.5708,-0.520441,3.62281e-07,-2.11343,-9.04522e-07,1.59318,0.785399,-0.000147097,0.0427601,-0.000789836,-0.572586,-0.000200937,0.684135,-0.000412419,1.90475e-05,0.0573367,6.2315e-06,-0.665906,-4.71421e-07,0.727053,2.16548e-05,-0.430592,0.375641,-0.583737,10.6806,1.23171,1.34054,-0.174673,-0.568024,1.14215,-0.361699,1.67647,0.896299,0.321024,-0.180381
663818,1,-1.57044,-0.521167,0.000181592,-2.113,-0.00113594,1.59117,0.785661,-1.5708,-0.520384,3.68618e-07,-2.11411,-9.04932e-07,1.59392,0.785399,0.0010159,0.0458986,-0.000526511,-0.587488,-0.000778262,0.689166,-0.000749692,1.93999e-05,0.0567608,6.33679e-06,-0.678396,-4.09285e-07,0.739174,2.20495e-05,-0.478199,0.300262,-0.583737,10.8036,1.2491,1.43026,-0.161856,-0.567941,1.1712,-0.362913,1.63087,0.893238,0.321892,-0.180355
663819,1,-1.57044,-0.521122,0.000179913,-2.11363,-0.00113396,1.59192,0.785664,-1.5708,-0.520328,3.75056e-07,-2.1148,-9.05269e-07,1.59467,0.785399,0.00188394,0.0445424,-0.000907784,-0.601514,0.000125385,0.705303,0.000686978,1.97472e-05,0.05574,6.43775e-06,-0.690886,-3.37126e-07,0.750741,2.24329e-05,-0.529774,0.248688,-0.559934,10.9781,1.23171,1.39822,-0.193899,-0.568018,1.18355,-0.364073,1.59692,0.890281,0.323837,-0.180293
663820,1,-1.57044,-0.521077,0.000183529,-2.11429,-0.00113212,1.59267,0.785662,-1.5708,-0.520274,3.81595e-07,-2.1155,-9.05534e-07,1.59544,0.785399,0.00125615,0.0429751,0.000601263,-0.618305,0.000693916,0.723984,-0.000254107,2.00945e-05,0.0547192,6.53871e-06,-0.703376,-2.64966e-07,0.762309,2.28164e-05,-0.529774,0.224884,-0.611508,11.1527,1.21523,1.37258,-0.174673,-0.568948,1.18362,-0.366089,1.57339,0.887438,0.326807,-0.180192
663821,1,-1.57043,-0.521032,0.000183528,-2.11497,-0.0011315,1.59343,0.785659,-1.5708,-0.52022,3.88234e-07,-2.11622,-9.05726e-07,1.59621,0.785399,0.00260081,0.044987,0.000400862,-0.632209,0.000666043,0.730937,-0.00111885,2.04418e-05,0.0536984,6.63967e-06,-0.715866,-1.92806e-07,0.773876,2.31999e-05,-0.605152,0.197113,-0.611508,11.2757,1.20973,1.40463,-0.149038,-0.571221,1.17518,-0.369703,1.55915,0.884703,0.330684,-0.18007
663822,1,-1.57043,-0.520993,0.000181579,-2.11565,-0.00113079,1.5942,0.785664,-1.5708,-0.520167,3.94975e-07,-2.11695,-9.05847e-07,1.597,0.785399,0.000620359,0.0435253,-0.000382358,-0.649219,0.000681373,0.739349,0.000678243,2.07891e-05,0.0526776,6.74063e-06,-0.728356,-1.20646e-07,0.785444,2.35834e-05,-0.557545,0.173309,-0.583737,11.3749,1.20333,1.48153,-0.18749,-0.57423,1.15787,-0.373984,1.55508,0.882097,0.335606,-0.179917
663823,1,-1.57044,-0.520948,0.000185198,-2.11636,-0.00112698,1.59499,0.785666,-1.5708,-0.520116,4.01816e-07,-2.11769,-9.05896e-07,1.59779,0.785399,-0.00144239,0.0448303,0.000951532,-0.661147,0.000657689,0.754587,0.00116423,2.11364e-05,0.0516568,6.84159e-06,-0.740846,-4.84866e-08,0.797011,2.39668e-05,-0.478199,0.0463562,-0.635312,11.3749,1.19783,1.4559,-0.206716,-0.57629,1.13304,-0.37669,1.56043,0.879653,0.341558,-0.179728
663824,1,-1.57044,-0.520904,0.000179909,-2.11708,-0.00112785,1.59579,0.785662,-1.5708,-0.520065,4.08759e-07,-2.11844,-9.05872e-07,1.5986,0.785399,-0.000961531,0.0461562,-0.00112888,-0.679686,-0.000205809,0.764694,-0.000410645,2.14837e-05,0.050636,6.94255e-06,-0.753336,2.36732e-08,0.808579,2.43503e-05,-0.478199,-0.104401,-0.559934,11.4502,1.21523,1.39181,-0.174673,-0.576328,1.10078,-0.376514,1.57439,0.877395,0.348437,-0.179532
663825,1,-1.57044,-0.520865,0.000181579,-2.1178,-0.00112495,1.59657,0.785658,-1.5708,-0.520015,4.15803e-07,-2.11921,-9.05776e-07,1.59942,0.785399,0.000565449,0.0452619,-0.000195765,-0.694488,0.000710499,0.774546,-0.00173183,2.1831e-05,0.0496152,7.04351e-06,-0.765826,9.58329e-08,0.820146,2.47338e-05,-0.529774,-0.179779,-0.583737,11.4264,1.19234,1.44949,-0.135305,-0.574765,1.05971,-0.373903,1.59774,0.875324,0.356311,-0.179356
663826,1,-1.57044,-0.520825,0.000179909,-2.11854,-0.00112484,1.59739,0.785663,-1.5708,-0.519967,4.22947e-07,-2.11999,-9.05608e-07,1.60025,0.785399,-0.000179812,0.0420842,-0.000687317,-0.707019,0.000473661,0.787209,0.000540865,2.21782e-05,0.0485944,7.14447e-06,-0.778316,1.67993e-07,0.831714,2.51173e-05,-0.50597,-0.282928,-0.559934,11.3749,1.19234,1.49526,-0.181082,-0.572871,1.0155,-0.37051,1.62717,0.873323,0.364865,-0.179181
663827,1,-1.57043,-0.520787,0.000181579,-2.11927,-0.00112099,1.59822,0.785658,-1.5708,-0.519919,4.30192e-07,-2.12078,-9.05368e-07,1.6011,0.785399,0.00108658,0.0422519,9.86038e-05,-0.715299,0.000519221,0.798017,-0.00133485,2.25255e-05,0.0475736,7.24543e-06,-0.790806,2.40152e-07,0.843281,2.55008e-05,-0.557545,-0.358307,-0.583737,11.2003,1.18685,1.49526,-0.135305,-0.57146,0.978081,-0.367484,1.65495,0.871194,0.373326,-0.17898
663828,1,-1.57044,-0.520752,0.000179909,-2.12003,-0.00111869,1.59905,0.78566,-1.5708,-0.519873,4.37539e-07,-2.12158,-9.05056e-07,1.60195,0.785399,-0.000482023,0.0416684,-0.000491073,-0.723517,0.000753046,0.810196,-0.000143914,2.28728e-05,0.0465527,7.34639e-06,-0.803296,3.12312e-07,0.854849,2.58842e-05,-0.50597,-0.405914,-0.559934,11.1249,1.17586,1.51449,-0.155447,-0.570611,0.953042,-0.364934,1.6743,0.868781,0.380999,-0.178746
663829,1,-1.57044,-0.520725,0.000176289,-2.12081,-0.00111066,1.59991,0.785663,-1.5708,-0.519828,4.4498e-07,-2.1224,-9.04656e-07,1.60282,0.785399,0.000235478,0.0353345,-0.00153381,-0.735384,0.001994,0.821085,0.000853492,2.32084e-05,0.0450417,7.44071e-06,-0.815786,3.99577e-07,0.865828,2.62584e-05,-0.529774,-0.330536,-0.508359,11.1249,1.13558,1.44949,-0.181082,-0.569518,0.945618,-0.361701,1.68038,0.866013,0.387471,-0.17848
663830,1,-1.57044,-0.520691,0.000174159,-2.12159,-0.00110571,1.60077,0.785664,-1.5708,-0.519784,4.52515e-07,-2.12322,-9.04169e-07,1.60369,0.785399,-0.00104943,0.0364452,-0.00102254,-0.748436,0.00258394,0.834587,0.00104371,2.3544e-05,0.0435306,7.53502e-06,-0.828276,4.86841e-07,0.876807,2.66325e-05,-0.478199,-0.358307,-0.508359,11.1765,1.1017,1.42385,-0.193899,-0.567534,0.95834,-0.356875,1.67255,0.862904,0.39277,-0.178197
663831,1,-1.57044,-0.520654,0.000175579,-2.12238,-0.00109953,1.60165,0.78566,-1.5708,-0.519742,4.60144e-07,-2.12406,-9.03595e-07,1.60458,0.785399,0.000506814,0.0352299,-0.00068169,-0.757808,0.00151918,0.846066,-0.000728347,2.38795e-05,0.0420196,7.62934e-06,-0.840766,5.74106e-07,0.887786,2.70067e-05,-0.529774,-0.433685,-0.508359,11.1765,1.10719,1.33413,-0.155447,-0.565254,0.985443,-0.351375,1.65438,0.859459,0.397147,-0.177928
663832,1,-1.57044,-0.520616,0.000173922,-2.12319,-0.00110114,1.60254,0.785665,-1.5708,-0.519701,4.67868e-07,-2.12492,-9.02934e-07,1.60548,0.785399,-0.00021893,0.0360432,-0.000454459,-0.773654,-0.000275736,0.857264,0.00117595,2.42151e-05,0.0405085,7.72366e-06,-0.853256,6.61371e-07,0.898765,2.73808e-05,-0.50597,-0.584442,-0.508359,11.3272,1.14198,1.27554,-0.200308,-0.563575,1.01898,-0.346518,1.63036,0.85569,0.400842,-0.17768
663833,1,-1.57044,-0.520577,0.00017337,-2.12402,-0.00109837,1.60343,0.785664,-1.5708,-0.519662,4.75686e-07,-2.12578,-9.02185e-07,1.60639,0.785399,0.000410863,0.0375843,-0.000302972,-0.785141,-0.00164189,0.865153,0.000309247,2.45507e-05,0.0389974,7.81798e-06,-0.865746,7.48635e-07,0.909744,2.7755e-05,-0.529774,-0.786774,-0.508359,11.474,1.18135,1.27554,-0.18749,-0.562706,1.05045,-0.342638,1.60617,0.851701,0.404221,-0.177443
663834,1,-1.57044,-0.520537,0.000173186,-2.12487,-0.00110036,1.60433,0.785661,-1.5708,-0.519625,4.83598e-07,-2.12666,-9.01349e-07,1.60731,0.785399,-0.0002829,0.0371252,-0.000201981,-0.801362,-0.00255265,0.872591,-0.000505913,2.48862e-05,0.0374864,7.91229e-06,-0.878236,8.359e-07,0.920722,2.81291e-05,-0.50597,-1.06448,-0.508359,11.6724,1.22072,1.32772,-0.168264,-0.562421,1.07303,-0.339467,1.58671,0.84766,0.407621,-0.177221
663835,1,-1.57044,-0.520512,0.000169505,-2.12572,-0.00109199,1.60525,0.785666,-1.5708,-0.519589,4.91604e-07,-2.12755,-9.00426e-07,1.60824,0.785399,-0.00139502,0.0316402,-0.00134108,-0.813776,-0.000243707,0.879325,0.00132424,2.52218e-05,0.0359753,8.00661e-06,-0.890726,9.23165e-07,0.931701,2.85033e-05,-0.454395,-1.13986,-0.456784,11.9223,1.18135,1.3854,-0.213125,-0.561857,1.08888,-0.335847,1.5726,0.843714,0.411146,-0.177033
663836,1,-1.57044,-0.520483,0.000169484,-2.1266,-0.00109005,1.60615,0.785666,-1.5708,-0.519555,4.99705e-07,-2.12846,-8.99416e-07,1.60919,0.7854,0.000833224,0.0284395,-0.000894053,-0.829324,4.09787e-05,0.887851,0.000882825,2.55574e-05,0.0344643,8.10093e-06,-0.903216,1.01043e-06,0.94268,2.88775e-05,-0.529774,-1.24301,-0.456784,12.2715,1.17586,1.44949,-0.213125,-0.560646,1.10648,-0.331224,1.56113,0.839909,0.414707,-0.176897
663837,1,-1.57044,-0.520463,0.000169478,-2.1275,-0.0010857,1.60708,0.785665,-1.5708,-0.519522,5.07901e-07,-2.12937,-8.98318e-07,1.61014,0.7854,-1.32787e-06,0.023687,-0.000596035,-0.863726,0.000264678,0.890812,-0.00107296,2.58929e-05,0.0329532,8.19525e-06,-0.915706,1.09769e-06,0.953659,2.92516e-05,-0.50597,-1.24301,-0.456784,12.6444,1.16945,1.4559,-0.168264,-0.5599,1.1249,-0.327132,1.55769,0.836359,0.419124,-0.176833
663838,1,-1.57044,-0.520433,0.000166134,-2.12841,-0.00107828,1.608,0.78566,-1.57079,-0.51949,5.1619e-07,-2.1303,-8.97133e-07,1.6111,0.7854,-0.00176412,0.0270933,-0.00151098,-0.878105,0.00224487,0.902173,-0.00142739,2.62285e-05,0.0314421,8.28956e-06,-0.928196,1.18496e-06,0.964638,2.96258e-05,-0.430592,-1.39377,-0.409177,12.9895,1.1136,1.53372,-0.149038,-0.559363,1.13141,-0.323378,1.57455,0.833338,0.425809,-0.17683
663839,1,-1.57044,-0.520407,0.000164185,-2.12935,-0.00107397,1.60894,0.785664,-1.57079,-0.519461,5.24566e-07,-2.13124,-8.95845e-07,1.61208,0.7854,-0.00117608,0.0289066,-0.00480612,-0.89917,0.00173394,0.907981,0.000472563,2.65471e-05,0.0294706,8.37575e-06,-0.940656,1.28796e-06,0.974981,2.99896e-05,-0.430592,-1.52072,-0.381406,13.2633,1.10719,1.67471,-0.18749,-0.556782,1.11475,-0.316697,1.61661,0.83096,0.435119,-0.176844
663840,1,-1.57045,-0.520372,0.000160384,-2.13028,-0.0010709,1.6099,0.785665,-1.57079,-0.519433,5.33028e-07,-2.13219,-8.94454e-07,1.61306,0.7854,-0.00143367,0.0289261,-0.00402332,-0.912698,0.000715148,0.923802,-0.000159676,2.68657e-05,0.027499,8.46193e-06,-0.953117,1.39096e-06,0.985323,3.03534e-05,-0.402821,-1.72305,-0.357602,13.414,1.1191,1.64907,-0.174673,-0.551077,1.07256,-0.305302,1.68124,0.829101,0.446636,-0.176834
663841,1,-1.57045,-0.520342,0.000154384,-2.13124,-0.0010732,1.61085,0.785662,-1.57079,-0.519408,5.41576e-07,-2.13316,-8.9296e-07,1.61406,0.7854,-0.000955777,0.0306608,-0.00464228,-0.921378,-0.000777847,0.934382,-0.000581168,2.71843e-05,0.0255274,8.54811e-06,-0.965577,1.49396e-06,0.995665,3.07172e-05,-0.402821,-1.87381,-0.282224,13.414,1.15297,1.64266,-0.161856,-0.543367,1.01221,-0.290791,1.75988,0.827469,0.459421,-0.176798
663842,1,-1.57045,-0.520311,0.000153687,-2.1322,-0.00106758,1.61182,0.78566,-1.57079,-0.519384,5.5021e-07,-2.13414,-8.91363e-07,1.61507,0.7854,-0.00240042,0.030033,-0.00268566,-0.928377,0.000125696,0.940409,-0.000862164,2.75029e-05,0.0235559,8.63429e-06,-0.978038,1.59696e-06,1.00601,3.10811e-05,-0.327442,-2.07614,-0.306028,13.3625,1.13558,1.62344,-0.149038,-0.535163,0.945317,-0.275511,1.84057,0.825721,0.472221,-0.176738
663843,1,-1.57045,-0.520284,0.000151227,-2.13315,-0.00106692,1.61281,0.785665,-1.57079,-0.519363,5.58931e-07,-2.13513,-8.89663e-07,1.61608,0.7854,-0.00271391,0.0320279,-0.00245796,-0.931902,0.00355489,0.975798,0.0013241,2.78215e-05,0.0215843,8.72047e-06,-0.990498,1.69996e-06,1.01635,3.14449e-05,-0.279835,-2.25467,-0.282224,13.0887,1.16945,1.44949,-0.200308,-0.527451,0.882897,-0.261132,1.91185,0.823587,0.483693,-0.176653
663844,1,-1.57045,-0.520264,0.000145214,-2.13411,-0.001063,1.61383,0.785659,-1.57079,-0.519343,5.67737e-07,-2.13613,-8.8786e-07,1.61711,0.7854,-0.00125246,0.0290748,-0.0029281,-0.939156,0.00357753,0.990087,-0.00101614,2.81401e-05,0.0196128,8.80666e-06,-1.00296,1.80297e-06,1.02669,3.18087e-05,-0.303639,-2.37766,-0.230649,12.6682,1.14748,1.10159,-0.149038,-0.520772,0.834294,-0.248454,1.96426,0.820911,0.492491,-0.176569
663845,1,-1.57045,-0.52025,0.000149706,-2.13507,-0.00105555,1.61486,0.785666,-1.57079,-0.519325,5.7663e-07,-2.13715,-8.85954e-07,1.61815,0.7854,-0.00027816,0.0252834,-0.000251107,-0.94616,0.00393499,1.00455,0.00169616,2.84588e-05,0.0176412,8.89284e-06,-1.01542,1.90597e-06,1.03703,3.21726e-05,-0.327442,-2.42923,-0.306028,12.1723,1.1136,0.876368,-0.213125,-0.516304,0.807976,-0.239017,1.99267,0.817622,0.497852,-0.176508
663846,1,-1.57046,-0.520241,0.000145821,-2.13605,-0.00104604,1.61584,0.785674,-1.57079,-0.51931,5.85609e-07,-2.13817,-8.83945e-07,1.61919,0.7854,-0.00129906,0.0214303,-0.00142054,-0.953102,0.00454027,1.00095,0.00353827,2.87774e-05,0.0156696,8.97902e-06,-1.02788,2.00897e-06,1.04738,3.25364e-05,-0.279835,-2.42923,-0.254453,11.7716,1.06783,1.04391,-0.278127,-0.514765,0.809924,-0.233909,1.99568,0.813681,0.499527,-0.176478
663847,1,-1.57046,-0.520231,0.000149352,-2.13703,-0.00104646,1.61686,0.785674,-1.57079,-0.519296,5.94674e-07,-2.13921,-8.81833e-07,1.62025,0.7854,-0.000866042,0.0186982,0.00022437,-0.956171,0.00149756,0.999446,0.00259621,2.9096e-05,0.0136981,9.0652e-06,-1.04034,2.11197e-06,1.05772,3.29002e-05,-0.279835,-2.42923,-0.306028,11.2519,1.1136,1.15377,-0.284536,-0.515122,0.841721,-0.231764,1.97347,0.809071,0.497596,-0.176537
663848,1,-1.57046,-0.520218,0.000149322,-2.13803,-0.00104095,1.61791,0.785677,-1.57079,-0.519284,6.03826e-07,-2.14027,-8.79618e-07,1.62132,0.7854,-0.000577362,0.0180918,0.000123307,-0.970297,0.000309175,1.00888,0.0017308,2.94146e-05,0.0117265,9.15139e-06,-1.0528,2.21497e-06,1.06806,3.3264e-05,-0.279835,-2.4808,-0.306028,11.1765,1.13558,1.15377,-0.284536,-0.516765,0.897754,-0.23179,1.92981,0.803869,0.492709,-0.17678
663849,1,-1.57046,-0.520199,0.000151443,-2.13906,-0.00103887,1.61899,0.785676,-1.57079,-0.519275,6.13055e-07,-2.14133,-8.77295e-07,1.6224,0.7854,-0.000384908,0.0194047,6.25003e-05,-0.985942,0.00378931,1.02851,0.000441793,2.9712e-05,0.00947334,9.2291e-06,-1.06484,2.32335e-06,1.07762,3.36075e-05,-0.279835,-2.60776,-0.306028,11.3272,1.16945,0.94778,-0.26531,-0.519357,0.962347,-0.233519,1.87534,0.798393,0.486133,-0.177277
663850,1,-1.57045,-0.520177,0.000150019,-2.14007,-0.00103255,1.62005,0.785676,-1.57079,-0.519267,6.22362e-07,-2.14241,-8.74863e-07,1.62348,0.7854,0.000857019,0.0213507,2.68884e-05,-1.0021,0.00919407,1.02986,5.71698e-05,3.00095e-05,0.00722019,9.30681e-06,-1.07688,2.43174e-06,1.08718,3.3951e-05,-0.327442,-2.78232,-0.306028,11.351,1.13008,0.967006,-0.258901,-0.522468,1.01705,-0.236207,1.8229,0.793014,0.479211,-0.178042
663851,1,-1.57046,-0.520157,0.000153164,-2.14113,-0.00101737,1.6211,0.785678,-1.57079,-0.519263,6.31746e-07,-2.1435,-8.72323e-07,1.62458,0.7854,-0.000542278,0.0221594,0.00121327,-1.01431,0.0095865,1.03539,0.000512831,3.0307e-05,0.00496704,9.38453e-06,-1.08892,2.54012e-06,1.09674,3.42945e-05,-0.279835,-2.93704,-0.357602,11.4978,1.05684,1.12814,-0.271719,-0.526074,1.05068,-0.239772,1.78053,0.787928,0.472792,-0.179039
663852,1,-1.57046,-0.520134,0.000151057,-2.1422,-0.00101046,1.6222,0.785686,-1.57079,-0.51926,6.41209e-07,-2.1446,-8.69675e-07,1.62569,0.7854,-0.00156794,0.0211795,0.000150918,-1.02787,0.00633899,1.05332,0.0032241,3.06045e-05,0.00271389,9.46224e-06,-1.10096,2.6485e-06,1.1063,3.46381e-05,-0.22826,-3.16318,-0.329831,11.597,1.07332,1.04391,-0.349539,-0.529176,1.06273,-0.243014,1.74906,0.783189,0.466978,-0.180227
663853,1,-1.57047,-0.520119,0.000149334,-2.14327,-0.00100506,1.62331,0.785687,-1.57079,-0.519259,6.50748e-07,-2.14571,-8.66918e-07,1.6268,0.7854,-0.00345815,0.0190407,-0.000462434,-1.04296,0.00912553,1.07066,0.00238676,3.09019e-05,0.000460737,9.53996e-06,-1.11301,2.75689e-06,1.11586,3.49816e-05,-0.125111,-3.33774,-0.306028,11.7994,1.07973,0.986232,-0.355947,-0.529742,1.05897,-0.243305,1.72562,0.778811,0.461468,-0.181629
663854,1,-1.57047,-0.520106,0.000149316,-2.14436,-0.00099405,1.62441,0.785676,-1.57079,-0.519261,6.60366e-07,-2.14684,-8.64052e-07,1.62793,0.7854,-0.00341906,0.0180549,-0.000312966,-1.05274,0.0113001,1.07866,-0.00200312,3.11994e-05,-0.00179241,9.61767e-06,-1.12505,2.86527e-06,1.12542,3.53251e-05,-0.0775034,-3.54007,-0.306028,11.9461,1.08522,0.927638,-0.258901,-0.526809,1.04593,-0.239431,1.70695,0.774721,0.455946,-0.183321
663855,1,-1.57047,-0.520105,0.000140401,-2.14545,-0.000981851,1.62552,0.785682,-1.57079,-0.519265,6.70062e-07,-2.14797,-8.61079e-07,1.62906,0.7854,-0.000516133,0.0137142,-0.00318181,-1.08789,0.0138284,1.0793,-0.000385977,3.14969e-05,-0.00404557,9.69539e-06,-1.13709,2.97365e-06,1.13498,3.56686e-05,-0.152882,-3.59164,-0.179074,12.0453,1.06783,0.973414,-0.284536,-0.521161,1.02357,-0.232332,1.69698,0.770926,0.451001,-0.185299
663856,1,-1.57047,-0.520109,0.000141888,-2.14656,-0.000967053,1.62662,0.785682,-1.57079,-0.519271,6.79835e-07,-2.14912,-8.57997e-07,1.63021,0.7854,-0.000344089,0.00753344,-0.000917414,-1.08915,0.0166702,1.07913,-0.000732036,3.17943e-05,-0.00629872,9.7731e-06,-1.14913,3.08204e-06,1.14454,3.60121e-05,-0.152882,-3.64322,-0.230649,12.0215,1.02297,1.20504,-0.271719,-0.514563,0.993686,-0.224135,1.70001,0.767402,0.447415,-0.187458
663857,1,-1.57047,-0.520116,0.000142848,-2.14768,-0.00095678,1.62774,0.785677,-1.57079,-0.51928,6.89685e-07,-2.15028,-8.54806e-07,1.63136,0.7854,-0.000229392,0.00242451,-0.00321093,-1.09173,0.0172548,1.08619,-0.0012001,3.20918e-05,-0.00855187,9.85082e-06,-1.16117,3.19042e-06,1.1541,3.63556e-05,-0.152882,-3.66702,-0.254453,11.9977,1.01747,1.39822,-0.252493,-0.50819,0.974822,-0.216312,1.70201,0.763733,0.443983,-0.189724
663858,1,-1.57047,-0.520118,0.000142611,-2.1488,-0.000945845,1.6289,0.785685,-1.57079,-0.519291,6.99614e-07,-2.15146,-8.51508e-07,1.63253,0.7854,-0.000152928,0.00178911,-0.00240494,-1.10448,0.0132433,1.10396,0.00231951,3.23893e-05,-0.010805,9.92853e-06,-1.17321,3.2988e-06,1.16366,3.66991e-05,-0.152882,-3.82175,-0.254453,12.0969,1.00557,1.39181,-0.336721,-0.501638,0.979894,-0.208228,1.68895,0.759593,0.439381,-0.192048
663859,1,-1.57047,-0.520128,0.000144481,-2.14995,-0.000935028,1.63004,0.785676,-1.57079,-0.519304,7.09612e-07,-2.15264,-8.48101e-07,1.6337,0.7854,-0.000101952,-0.00133617,-0.00115193,-1.11785,0.0102102,1.11526,-0.00157324,3.26623e-05,-0.0131922,9.99754e-06,-1.18453,3.40613e-06,1.17235,3.70161e-05,-0.152882,-3.86935,-0.282224,12.2953,0.994585,1.42385,-0.252493,-0.495144,1.00221,-0.200409,1.66333,0.755067,0.433984,-0.194389
663860,1,-1.57047,-0.520125,0.000146125,-2.15111,-0.000923463,1.63121,0.785672,-1.57079,-0.51932,7.19678e-07,-2.15384,-8.44588e-07,1.63488,0.7854,0.000488844,0.00012858,-0.000359822,-1.12457,0.0118677,1.12711,-0.00226953,3.29353e-05,-0.0155794,1.00666e-05,-1.19585,3.51346e-06,1.18104,3.73331e-05,-0.176685,-4.07169,-0.306028,12.4182,1.00557,1.41745,-0.219534,-0.489957,1.03225,-0.194856,1.63053,0.750234,0.428448,-0.196729
663861,1,-1.57047,-0.520124,0.000140366,-2.1523,-0.00091342,1.63238,0.785674,-1.57079,-0.519338,7.29814e-07,-2.15505,-8.40967e-07,1.63607,0.7854,0.00097551,-0.00028421,-0.00155782,-1.1468,0.013375,1.16629,-0.000800941,3.32083e-05,-0.0179665,1.01356e-05,-1.20717,3.62079e-06,1.18973,3.765e-05,-0.204456,-4.22244,-0.254453,12.8904,1.01106,1.37258,-0.23876,-0.4863,1.06016,-0.191803,1.59587,0.745191,0.423149,-0.199018
663862,1,-1.57047,-0.520126,0.000145403,-2.15351,-0.00091298,1.63357,0.785679,-1.57079,-0.519358,7.40018e-07,-2.15626,-8.37239e-07,1.63727,0.7854,0.00065034,-0.00311081,8.42453e-05,-1.15845,0.00791515,1.17536,0.000212024,3.34813e-05,-0.0203537,1.02046e-05,-1.21848,3.72812e-06,1.19842,3.7967e-05,-0.204456,-4.40097,-0.306028,13.3149,1.06783,1.29476,-0.258901,-0.483659,1.07786,-0.190426,1.56605,0.740167,0.418479,-0.201183
663863,1,-1.57047,-0.520128,0.000143745,-2.15471,-0.000910646,1.63478,0.785675,-1.57079,-0.519381,7.50292e-07,-2.15749,-8.33404e-07,1.63847,0.7854,0.00043356,-0.00219866,-6.56218e-06,-1.17627,0.00400005,1.17901,-0.000604636,3.37543e-05,-0.0227409,1.02736e-05,-1.2298,3.83545e-06,1.2071,3.8284e-05,-0.204456,-4.5795,-0.306028,13.7354,1.12459,1.28836,-0.23876,-0.481776,1.08246,-0.190444,1.54589,0.735341,0.414916,-0.203179
663864,1,-1.57046,-0.520138,0.000141522,-2.15596,-0.000897653,1.63594,0.785674,-1.57079,-0.519406,7.60634e-07,-2.15873,-8.29461e-07,1.63969,0.7854,0.000845852,-0.00222303,-0.000608231,-1.19913,0.00559168,1.18247,-0.00040309,3.40273e-05,-0.0251281,1.03426e-05,-1.24112,3.94278e-06,1.21579,3.8601e-05,-0.22826,-4.73026,-0.282224,14.3067,1.06233,1.53372,-0.23876,-0.480169,1.06706,-0.191139,1.5432,0.730941,0.413373,-0.204985
663865,1,-1.57045,-0.520147,0.000143008,-2.15722,-0.000893042,1.63713,0.785678,-1.57079,-0.519433,7.71046e-07,-2.15999,-8.25411e-07,1.64091,0.7854,0.00409038,-0.00164722,0.000116041,-1.21618,0.00398874,1.18084,0.000951976,3.43004e-05,-0.0275153,1.04116e-05,-1.25244,4.05011e-06,1.22448,3.8918e-05,-0.379017,-4.90482,-0.306028,14.632,1.06783,1.71408,-0.271719,-0.479257,1.02392,-0.192737,1.56637,0.727144,0.41485,-0.206587
663866,1,-1.57045,-0.520158,0.000141458,-2.15846,-0.000890039,1.63835,0.785673,-1.57079,-0.519463,7.81527e-07,-2.16125,-8.21253e-07,1.64215,0.785401,0.00328373,-0.00555954,-0.00115553,-1.22307,0.0023632,1.19567,-0.00106077,3.45734e-05,-0.0299024,1.04806e-05,-1.26375,4.15744e-06,1.23317,3.9235e-05,-0.402821,-5.03177,-0.254453,14.6558,1.08522,1.79098,-0.225942,-0.479872,0.959005,-0.195936,1.61177,0.723809,0.41917,-0.208004
663867,1,-1.57045,-0.520173,0.000145307,-2.15971,-0.000873762,1.63955,0.78567,-1.57079,-0.519495,7.92076e-07,-2.16253,-8.16988e-07,1.64339,0.785401,0.00163234,-0.00837897,0.000973039,-1.22358,0.00931826,1.19851,-0.00141926,3.48464e-05,-0.0322896,1.05496e-05,-1.27507,4.26477e-06,1.24186,3.95519e-05,-0.379017,-5.15872,-0.329831,14.4574,1.01106,1.9457,-0.206716,-0.481308,0.892684,-0.199586,1.66247,0.720564,0.424759,-0.209303
663868,1,-1.57045,-0.520198,0.000146775,-2.16094,-0.000855985,1.64076,0.785673,-1.57079,-0.51953,8.02695e-07,-2.16381,-8.12616e-07,1.64464,0.785401,0.00164504,-0.0134514,0.00128342,-1.22149,0.01077,1.20009,3.26444e-06,3.51194e-05,-0.0346768,1.06186e-05,-1.28639,4.3721e-06,1.25054,3.98689e-05,-0.402821,-5.15872,-0.357602,13.9615,0.903948,2.0812,-0.232351,-0.483148,0.847163,-0.203215,1.69904,0.71692,0.429898,-0.210516
663869,1,-1.57045,-0.52022,0.000148286,-2.1622,-0.000837565,1.64199,0.785676,-1.57079,-0.519567,8.13374e-07,-2.16511,-8.08142e-07,1.6459,0.785401,0.00174631,-0.0151683,0.00140126,-1.22767,0.0156776,1.21068,0.00098552,3.53653e-05,-0.0370744,1.06788e-05,-1.29675,4.47425e-06,1.2583,4.01554e-05,-0.430592,-5.2341,-0.381406,13.4894,0.81331,2.02261,-0.258901,-0.485621,0.834011,-0.207127,1.71046,0.712484,0.433824,-0.21164
663870,1,-1.57045,-0.520248,0.000148232,-2.16348,-0.000826516,1.64327,0.78567,-1.57079,-0.519607,8.24113e-07,-2.16642,-8.03566e-07,1.64716,0.785401,0.00172102,-0.0212325,0.000925802,-1.24133,0.0154678,1.23033,-0.00127577,3.56112e-05,-0.039472,1.07389e-05,-1.30711,4.5764e-06,1.26606,4.04419e-05,-0.454395,-5.2341,-0.381406,13.1879,0.825212,1.62985,-0.206716,-0.488451,0.851071,-0.210857,1.69804,0.707159,0.436877,-0.212702
663871,1,-1.57045,-0.52027,0.000146544,-2.16477,-0.000823487,1.64457,0.785674,-1.57079,-0.519649,8.34912e-07,-2.16773,-7.98887e-07,1.64844,0.785401,0.00114734,-0.0200269,5.41099e-05,-1.2531,0.0124086,1.24943,-0.000613152,3.58571e-05,-0.0418696,1.07991e-05,-1.31747,4.67854e-06,1.27382,4.07284e-05,-0.454395,-5.33725,-0.357602,13.291,0.921343,1.21145,-0.213125,-0.490775,0.887479,-0.213218,1.67033,0.701106,0.439694,-0.213722
663872,1,-1.57045,-0.520298,0.000148669,-2.16607,-0.000825647,1.64583,0.785674,-1.57079,-0.519693,8.45771e-07,-2.16906,-7.94106e-07,1.64972,0.785401,-0.000998342,-0.0225764,3.13635e-05,-1.26389,0.00969039,1.25213,0.000303309,3.6103e-05,-0.0442672,1.08592e-05,-1.32782,4.78069e-06,1.28158,4.10149e-05,-0.379017,-5.43643,-0.357602,13.291,1.03945,1.07595,-0.232351,-0.491232,0.930024,-0.212477,1.63604,0.694608,0.442434,-0.21467
663873,1,-1.57045,-0.520316,0.000152996,-2.16739,-0.000825715,1.64709,0.785677,-1.57079,-0.51974,8.5669e-07,-2.1704,-7.89224e-07,1.65101,0.785401,0.000540865,-0.0165273,0.0012238,-1.30554,0.00536797,1.25178,0.00142291,3.6349e-05,-0.0466648,1.09194e-05,-1.33818,4.88284e-06,1.28934,4.13014e-05,-0.430592,-5.74191,-0.409177,13.5886,1.1017,1.17941,-0.26531,-0.489846,0.955758,-0.208975,1.61348,0.688225,0.446217,-0.215488
663874,1,-1.57044,-0.520341,0.000158522,-2.16873,-0.000821516,1.64833,0.785669,-1.57079,-0.519789,8.6767e-07,-2.17175,-7.84239e-07,1.65231,0.785401,0.00388705,-0.0174416,0.00257646,-1.31483,0.00299679,1.25676,-0.00169625,3.65949e-05,-0.0490624,1.09795e-05,-1.34854,4.98499e-06,1.2971,4.1588e-05,-0.581349,-5.96805,-0.484555,13.66,1.14198,1.37258,-0.193899,-0.489505,0.939392,-0.206809,1.62429,0.682591,0.452741,-0.216138
663875,1,-1.57043,-0.520367,0.0001586,-2.17007,-0.000821066,1.64962,0.785676,-1.57079,-0.51984,8.7871e-07,-2.17311,-7.79152e-07,1.65361,0.785401,0.00611784,-0.0206693,0.00171565,-1.31853,0.00186664,1.26162,0.00127666,3.68408e-05,-0.05146,1.10397e-05,-1.3589,5.08714e-06,1.30486,4.18745e-05,-0.732105,-6.22195,-0.484555,13.7116,1.16396,1.41104,-0.258901,-0.493098,0.88758,-0.20957,1.66228,0.677716,0.4611,-0.216641
663876,1,-1.57043,-0.520409,0.000163916,-2.17141,-0.000806979,1.65091,0.785679,-1.57079,-0.519894,8.89809e-07,-2.17448,-7.73962e-07,1.65492,0.785401,0.00231532,-0.0287891,0.00290552,-1.32342,0.00613056,1.26958,0.000851109,3.70867e-05,-0.0538576,1.10998e-05,-1.36926,5.18929e-06,1.31262,4.2161e-05,-0.656727,-6.24576,-0.559934,13.787,1.04585,1.46231,-0.258901,-0.500088,0.83122,-0.216239,1.70255,0.673253,0.468822,-0.217058
663877,1,-1.57043,-0.520459,0.000161976,-2.17277,-0.000790891,1.6522,0.785675,-1.57079,-0.51995,9.00969e-07,-2.17586,-7.68671e-07,1.65624,0.785401,0.00210036,-0.0336588,0.00128628,-1.32836,0.0097268,1.2777,-0.000178579,3.73326e-05,-0.0562552,1.116e-05,-1.37962,5.29144e-06,1.32037,4.24475e-05,-0.680531,-6.17038,-0.532163,13.8108,0.903948,1.47512,-0.23876,-0.507685,0.794823,-0.223134,1.72722,0.668967,0.474335,-0.21749
663878,1,-1.57043,-0.520509,0.00016411,-2.17414,-0.000776296,1.65354,0.78568,-1.57079,-0.520009,9.1219e-07,-2.17725,-7.63277e-07,1.65757,0.785401,0.000286617,-0.0393665,0.00713033,-1.33463,0.0105363,1.28642,0.00181373,3.75785e-05,-0.0586528,1.12202e-05,-1.38998,5.39358e-06,1.32813,4.2734e-05,-0.632923,-6.1188,-0.532163,13.8623,0.802324,1.21786,-0.290945,-0.515303,0.789156,-0.229842,1.7286,0.664564,0.477065,-0.218001
663879,1,-1.57043,-0.520561,0.00016631,-2.17551,-0.000761886,1.65489,0.785697,-1.57079,-0.52007,9.23461e-07,-2.17864,-7.57789e-07,1.65891,0.785401,-0.000458536,-0.0429012,0.00648215,-1.34462,0.0142697,1.29944,0.00599024,3.77953e-05,-0.060955,1.12714e-05,-1.3992,5.4877e-06,1.33492,4.29873e-05,-0.605152,-6.095,-0.583737,14.0091,0.740068,1.108,-0.420034,-0.524439,0.813529,-0.238949,1.70737,0.659698,0.477076,-0.218609
663880,1,-1.57043,-0.520607,0.000164166,-2.1769,-0.000758694,1.6562,0.785699,-1.57079,-0.520133,9.34783e-07,-2.18005,-7.52208e-07,1.66025,0.785401,-0.000305691,-0.0418816,0.00415626,-1.35362,0.0128956,1.30278,0.00423085,3.8012e-05,-0.0632572,1.13226e-05,-1.40842,5.58182e-06,1.34172,4.32406e-05,-0.605152,-6.22195,-0.559934,14.1361,0.791338,1.15377,-0.426443,-0.534027,0.857225,-0.248896,1.67077,0.654209,0.474821,-0.219407
663881,1,-1.57043,-0.520644,0.000160849,-2.17828,-0.000768158,1.65755,0.785694,-1.57079,-0.520199,9.46157e-07,-2.18147,-7.46532e-07,1.6616,0.785401,-0.000760606,-0.0409884,0.00130132,-1.36734,0.00313451,1.30169,0.000921696,3.82287e-05,-0.0655594,1.13738e-05,-1.41765,5.67593e-06,1.34851,4.3494e-05,-0.581349,-6.49966,-0.484555,14.1837,0.96071,1.108,-0.375173,-0.540859,0.902344,-0.254697,1.6305,0.648223,0.471244,-0.220542
663882,1,-1.57043,-0.520687,0.000163177,-2.17971,-0.000771873,1.65889,0.785696,-1.57079,-0.520266,9.57582e-07,-2.1829,-7.40762e-07,1.66295,0.785401,-0.00050707,-0.0425248,0.00164465,-1.38246,-0.00171053,1.31475,0.000377105,3.84455e-05,-0.0678616,1.1425e-05,-1.42687,5.77005e-06,1.3553,4.37473e-05,-0.581349,-6.702,-0.508359,14.6082,1.07973,1.03109,-0.368765,-0.543427,0.934204,-0.254075,1.59771,0.642092,0.467402,-0.222083
663883,1,-1.57043,-0.520731,0.000163396,-2.18117,-0.000774256,1.66024,0.785692,-1.57079,-0.520337,9.69059e-07,-2.18433,-7.34898e-07,1.66431,0.785401,0.000868379,-0.0424498,0.00126166,-1.39881,-0.00360055,1.31854,-0.00144402,3.86622e-05,-0.0701638,1.14762e-05,-1.43609,5.86417e-06,1.36209,4.40006e-05,-0.632923,-6.9559,-0.508359,15.2033,1.15846,1.05673,-0.322988,-0.543155,0.945518,-0.249072,1.57968,0.636229,0.463942,-0.22399
663884,1,-1.57043,-0.520781,0.000161799,-2.18261,-0.000776508,1.66161,0.78569,-1.57079,-0.520409,9.80586e-07,-2.18578,-7.28939e-07,1.66568,0.785401,-0.000627507,-0.0451938,0.000408206,-1.41408,-0.00351649,1.32718,-0.00191211,3.88789e-05,-0.072466,1.15274e-05,-1.44532,5.95829e-06,1.36888,4.42539e-05,-0.581349,-7.10666,-0.484555,15.6516,1.19783,1.10159,-0.297354,-0.541547,0.934094,-0.24185,1.58017,0.631009,0.461188,-0.226172
