shamilmamedov/beam_handling/log/param_estimation_ICRA/ocp_Z_35cm_0.61s_6.csv
duration, success rate, q[0], q[1], q[2], q[3], q[4], q[5], q[6],q_d[0], q_d[1], q_d[2], q_d[3], q_d[4], q_d[5], q_d[6],dq[0], dq[1], dq[2], dq[3], dq[4], dq[5], dq[6],dq_d[0], dq_d[1], dq_d[2], dq_d[3], dq_d[4], dq_d[5], dq_d[6],tau_J[0], tau_J[1], tau_J[2], tau_J[3], tau_J[4], tau_J[5], tau_J[6],tau_ext_hat_filtered[0], tau_ext_hat_filtered[1], tau_ext_hat_filtered[2], tau_ext_hat_filtered[3], tau_ext_hat_filtered[4], tau_ext_hat_filtered[5], tau_ext_hat_filtered[6]
1922394,0,-1.57035,-0.522836,-0.000203755,-2.09713,-0.00149613,1.5713,0.785933,-1.5708,-0.523599,-3.97414e-08,-2.0944,-1.06498e-07,1.5708,0.785398,0.000863294,0.00021087,0.000527494,0.000842278,-1.15398e-05,-6.72098e-05,0.000325096,0,0,0,0,0,0,0,-0.529774,-10.1892,-0.329831,22.2889,1.85976,1.32131,-0.394399,-0.504985,-1.05689,0.170509,3.78881,1.14627,-0.350913,-0.368219
1922395,1,-1.57036,-0.522836,-0.000205426,-2.09713,-0.00149416,1.5713,0.785929,-1.5708,-0.523599,-3.97414e-08,-2.0944,-1.06498e-07,1.5708,0.785398,-0.000630896,0.00014058,-0.000205149,-0.000552105,-0.000414594,-0.000282165,-0.000732705,0,0,0,0,0,0,0,-0.478199,-10.1892,-0.306028,22.3365,1.87074,1.32772,-0.368765,-0.50507,-1.05604,0.170181,3.78807,1.14625,-0.350962,-0.368435
1922396,1,-1.57035,-0.522836,-0.000205426,-2.09713,-0.0014931,1.5713,0.785932,-1.5708,-0.523599,-3.97414e-08,-2.0944,-1.06498e-07,1.5708,0.785398,0.000785828,9.372e-05,-0.000136766,-0.00036807,-0.000276396,0.000286608,-0.000251111,0,0,0,0,0,0,0,-0.529774,-10.1892,-0.306028,22.3365,1.87074,1.31491,-0.375173,-0.505161,-1.05645,0.169824,3.78811,1.14624,-0.350934,-0.368699
1922397,1,-1.57036,-0.522839,-0.000205426,-2.09713,-0.00149411,1.5713,0.785928,-1.5708,-0.523599,-3.97414e-08,-2.0944,-1.06498e-07,1.5708,0.785398,-0.00068254,-0.00114395,-9.11774e-05,-0.000802192,0.000426087,-4.62872e-05,-0.000879484,0,0,0,0,0,0,0,-0.478199,-10.1377,-0.306028,22.3603,1.85426,1.32131,-0.355947,-0.505081,-1.05693,0.169712,3.78858,1.14626,-0.350841,-0.368986
1922398,1,-1.57035,-0.522836,-0.000209045,-2.09713,-0.00149445,1.5713,0.785924,-1.5708,-0.523599,-3.97414e-08,-2.0944,-1.06498e-07,1.5708,0.785398,0.000751399,0.000443795,-0.00126721,2.20173e-05,0.000487509,-0.000268217,-0.00156967,0,0,0,0,0,0,0,-0.529774,-10.1892,-0.254453,22.3365,1.84877,1.32772,-0.329397,-0.504634,-1.05665,0.170183,3.78892,1.14631,-0.350737,-0.369268
1922399,1,-1.57035,-0.522836,-0.000207096,-2.09713,-0.00149721,1.5713,0.785931,-1.5708,-0.523599,-3.97414e-08,-2.0944,-1.06498e-07,1.5708,0.785398,0.000500932,0.000295864,-0.000195193,0.00057149,-0.000488796,5.85475e-05,0.00136105,0,0,0,0,0,0,0,-0.529774,-10.1892,-0.282224,22.3127,1.87074,1.32131,-0.394399,-0.503924,-1.05672,0.171218,3.78921,1.14637,-0.350651,-0.369502
1922400,1,-1.57035,-0.522836,-0.000207096,-2.09713,-0.0014935,1.5713,0.785924,-1.5708,-0.523599,-3.97414e-08,-2.0944,-1.06498e-07,1.5708,0.785398,0.000333955,0.000197242,-0.000130129,-0.000175819,-0.000122414,0.000276391,-0.00150013,0,0,0,0,0,0,0,-0.529774,-10.1892,-0.282224,22.3365,1.86525,1.31491,-0.329397,-0.503579,-1.05744,0.171896,3.78944,1.14639,-0.3506,-0.369661
1922401,1,-1.57035,-0.522834,-0.000207096,-2.09713,-0.00149506,1.5713,0.78593,-1.5708,-0.523599,-3.97414e-08,-2.0944,-1.06498e-07,1.5708,0.785398,-0.000334175,0.000688307,-8.67526e-05,-0.000117212,0.000121841,0.00018426,0.000932694,0,0,0,0,0,0,0,-0.50597,-10.213,-0.282224,22.3365,1.85976,1.31491,-0.381582,-0.503561,-1.05884,0.172152,3.78995,1.1464,-0.350538,-0.369752
1922402,1,-1.57035,-0.522836,-0.000209045,-2.09713,-0.0014932,1.5713,0.785925,-1.5708,-0.523599,-3.97414e-08,-2.0944,-1.06498e-07,1.5708,0.785398,-0.000222784,-9.79407e-05,-0.000707449,0.00103548,-0.000122223,0.00012284,-0.000802358,0,0,0,0,0,0,0,-0.50597,-10.1892,-0.254453,22.2889,1.86525,1.31491,-0.34313,-0.50331,-1.06042,0.17278,3.79042,1.14643,-0.350496,-0.369785
1922403,1,-1.57036,-0.522836,-0.000207096,-2.09713,-0.00149618,1.5713,0.785925,-1.5708,-0.523599,-3.97414e-08,-2.0944,-1.06498e-07,1.5708,0.785398,-0.000148522,-6.52938e-05,0.000177981,0.00013351,-0.000284932,-0.000392824,-0.00175561,0,0,0,0,0,0,0,-0.50597,-10.1892,-0.282224,22.3127,1.87074,1.32772,-0.310171,-0.502795,-1.06077,0.173847,3.79004,1.14647,-0.350542,-0.369767
1922404,1,-1.57036,-0.522836,-0.000210715,-2.09713,-0.00149575,1.5713,0.78593,-1.5708,-0.523599,-3.97414e-08,-2.0944,-1.06498e-07,1.5708,0.785398,-9.90149e-05,-4.35292e-05,-0.00108777,-0.00102462,0.000216946,-0.000261883,0.00123709,0,0,0,0,0,0,0,-0.50597,-10.1892,-0.230649,22.3603,1.85976,1.32772,-0.375173,-0.502222,-1.06049,0.175077,3.7896,1.14652,-0.350572,-0.369678
1922405,1,-1.57035,-0.522841,-0.000205426,-2.09713,-0.00149343,1.5713,0.785926,-1.5708,-0.523599,-3.97414e-08,-2.0944,-1.06498e-07,1.5708,0.785398,0.000490802,-0.00179226,0.00103806,-0.000683078,-5.88198e-05,0.000300129,-0.000124708,0,0,0,0,0,0,0,-0.529774,-10.1139,-0.306028,22.3603,1.86525,1.31491,-0.349539,-0.501991,-1.05951,0.175905,3.78955,1.14657,-0.350516,-0.369498
1922406,1,-1.57035,-0.522834,-0.000209045,-2.09713,-0.00149184,1.5713,0.785927,-1.5708,-0.523599,-3.97414e-08,-2.0944,-1.06498e-07,1.5708,0.785398,0.000976815,0.00112521,-0.000514388,-0.000455386,0.000164237,0.000200086,0.000154221,0,0,0,0,0,0,0,-0.557545,-10.213,-0.254453,22.3603,1.85976,1.31491,-0.355947,-0.50278,-1.05779,0.175377,3.78962,1.1466,-0.350424,-0.36925
1922407,1,-1.57036,-0.522834,-0.000205426,-2.09713,-0.00149532,1.5713,0.785926,-1.5708,-0.523599,-3.97414e-08,-2.0944,-1.06498e-07,1.5708,0.785398,-0.00120483,0.000750141,0.0008635,-0.00030359,-9.3959e-05,0.000133391,-0.000134545,0,0,0,0,0,0,0,-0.478199,-10.213,-0.306028,22.3603,1.86525,1.31491,-0.349539,-0.504066,-1.05821,0.174214,3.79067,1.14661,-0.35028,-0.368957
1922408,1,-1.57035,-0.522838,-0.000205426,-2.09713,-0.00149186,1.5713,0.785931,-1.5708,-0.523599,-3.97414e-08,-2.0944,-1.06498e-07,1.5708,0.785398,-0.000153606,-0.00061353,0.000575667,0.00091123,0.000344262,8.89272e-05,0.000385021,0,0,0,0,0,0,0,-0.50597,-10.1654,-0.306028,22.3127,1.85426,1.31491,-0.362356,-0.505172,-1.05981,0.173202,3.79193,1.14664,-0.350168,-0.368637
1922409,1,-1.57035,-0.522832,-0.000209045,-2.09713,-0.00149553,1.5713,0.785934,-1.5708,-0.523599,-3.97414e-08,-2.0944,-1.06498e-07,1.5708,0.785398,-0.000102404,0.00135422,-0.000822648,0.000607487,-0.000177393,-0.000178074,0.000968758,0,0,0,0,0,0,0,-0.50597,-10.2408,-0.254453,22.3127,1.86525,1.32131,-0.381582,-0.50593,-1.06039,0.172629,3.79212,1.14665,-0.350193,-0.368305
1922410,1,-1.57036,-0.522836,-0.000207096,-2.09713,-0.00149254,1.5713,0.78593,-1.5708,-0.523599,-3.97414e-08,-2.0944,-1.06498e-07,1.5708,0.785398,-0.000717883,-0.000303614,0.000101182,-0.000708633,8.51884e-05,-0.000356075,0.00017112,0,0,0,0,0,0,0,-0.478199,-10.1892,-0.282224,22.3603,1.85976,1.32772,-0.368765,-0.505946,-1.06131,0.173183,3.79226,1.14669,-0.350242,-0.367985
1922411,1,-1.57035,-0.522834,-0.000207096,-2.09713,-0.00149494,1.5713,0.785929,-1.5708,-0.523599,-3.97414e-08,-2.0944,-1.06498e-07,1.5708,0.785398,0.000171025,0.000354403,6.74547e-05,0.000641202,5.67922e-05,-0.000237383,0.00011408,0,0,0,0,0,0,0,-0.50597,-10.213,-0.282224,22.3127,1.85976,1.32772,-0.368765,-0.505596,-1.06238,0.174232,3.79269,1.14673,-0.350248,-0.367703
1922412,1,-1.57035,-0.522834,-0.000205426,-2.09713,-0.00149696,1.5713,0.785935,-1.5708,-0.523599,-3.97414e-08,-2.0944,-1.06498e-07,1.5708,0.785398,0.000670829,0.000236268,0.000601782,-0.000129344,-0.00036904,0.000316462,0.00126285,0,0,0,0,0,0,0,-0.529774,-10.213,-0.306028,22.3365,1.87074,1.31491,-0.400808,-0.505818,-1.06289,0.174427,3.79287,1.14674,-0.350258,-0.367466
1922413,1,-1.57035,-0.522834,-0.000207096,-2.09713,-0.00149408,1.5713,0.785934,-1.5708,-0.523599,-3.97414e-08,-2.0944,-1.06498e-07,1.5708,0.785398,0.000447219,0.000157512,-0.000155624,0.00102739,0.000805135,-2.63841e-05,0.000129822,0,0,0,0,0,0,0,-0.529774,-10.213,-0.282224,22.2889,1.84236,1.32131,-0.381582,-0.506799,-1.06298,0.173569,3.79268,1.1467,-0.350298,-0.367286
1922414,1,-1.57036,-0.522836,-0.000205426,-2.09713,-0.00149351,1.5713,0.785933,-1.5708,-0.523599,-3.97414e-08,-2.0944,-1.06498e-07,1.5708,0.785398,-0.000908279,-0.000451804,0.000453063,-0.000985506,-0.000310954,0.00021977,0.000798625,0,0,0,0,0,0,0,-0.478199,-10.1892,-0.306028,22.3603,1.86525,1.31491,-0.400808,-0.507764,-1.06236,0.172709,3.79212,1.14665,-0.350354,-0.367189
1922415,1,-1.57035,-0.522836,-0.000205426,-2.09713,-0.00149248,1.5713,0.785931,-1.5708,-0.523599,-3.97414e-08,-2.0944,-1.06498e-07,1.5708,0.785398,0.000600906,-0.000301203,0.000302042,0.00045662,-0.000207303,-9.08459e-05,5.76987e-05,0,0,0,0,0,0,0,-0.529774,-10.1892,-0.306028,22.3127,1.86525,1.32131,-0.387991,-0.508421,-1.061,0.172165,3.79151,1.14661,-0.350387,-0.367186
1922416,1,-1.57035,-0.522839,-0.000205426,-2.09713,-0.00149533,1.5713,0.785929,-1.5708,-0.523599,-3.97414e-08,-2.0944,-1.06498e-07,1.5708,0.785398,-0.000156208,-0.00140723,0.000201361,0.000861225,-0.000138202,-0.000535282,-0.000436252,0,0,0,0,0,0,0,-0.50597,-10.1377,-0.306028,22.2889,1.86525,1.33413,-0.375173,-0.50912,-1.05789,0.171487,3.79008,1.14654,-0.350473,-0.367278
1922417,1,-1.57036,-0.522834,-0.000203755,-2.09713,-0.00149125,1.5713,0.785931,-1.5708,-0.523599,-3.97414e-08,-2.0944,-1.06498e-07,1.5708,0.785398,-0.000753752,0.000825086,0.000691053,-0.00109629,0.000518217,0.000355222,0.000421242,0,0,0,0,0,0,0,-0.478199,-10.213,-0.329831,22.3603,1.84877,1.31491,-0.394399,-0.509704,-1.05405,0.170867,3.78824,1.14648,-0.35058,-0.367452
1922418,1,-1.57035,-0.522834,-0.000203755,-2.09714,-0.00149492,1.5713,0.78593,-1.5708,-0.523599,-3.97414e-08,-2.0944,-1.06498e-07,1.5708,0.785398,0.000703924,0.000550057,0.000460702,-0.00138047,-6.1423e-05,-5.44088e-07,-0.00019389,0,0,0,0,0,0,0,-0.529774,-10.213,-0.329831,22.388,1.85976,1.32131,-0.381582,-0.510234,-1.05355,0.170156,3.7885,1.14646,-0.350484,-0.36768
1922419,1,-1.57036,-0.522836,-0.000209045,-2.09713,-0.00149376,1.5713,0.78593,-1.5708,-0.523599,-3.97414e-08,-2.0944,-1.06498e-07,1.5708,0.785398,-8.75294e-05,-0.000190107,-0.0014561,-0.0002707,-0.00044785,-3.62725e-07,0.000108099,0,0,0,0,0,0,0,-0.50597,-10.1892,-0.254453,22.3603,1.87074,1.32131,-0.387991,-0.510491,-1.05611,0.169846,3.79071,1.14649,-0.350211,-0.367954
1922420,1,-1.57036,-0.522832,-0.000205426,-2.09713,-0.00149555,1.5713,0.785928,-1.5708,-0.523599,-3.97414e-08,-2.0944,-1.06498e-07,1.5708,0.785398,-5.83529e-05,0.00107969,0.00023569,0.000933157,-9.5116e-05,0.000237117,-0.000640011,0,0,0,0,0,0,0,-0.50597,-10.2408,-0.306028,22.3127,1.86525,1.31491,-0.368765,-0.509886,-1.05885,0.170877,3.7927,1.14654,-0.349981,-0.368269
1922421,1,-1.57035,-0.522832,-0.000207096,-2.09713,-0.00149635,1.5713,0.785927,-1.5708,-0.523599,-3.97414e-08,-2.0944,-1.06498e-07,1.5708,0.785398,0.00051791,0.000719792,-0.000399685,0.00238534,-6.34106e-05,-7.92809e-05,-0.00188474,0,0,0,0,0,0,0,-0.529774,-10.2408,-0.282224,22.2373,1.86525,1.32131,-0.329397,-0.509045,-1.06099,0.172289,3.79327,1.14657,-0.349945,-0.368607
1922422,1,-1.57036,-0.522834,-0.000205426,-2.09713,-0.00149662,1.5713,0.785931,-1.5708,-0.523599,-3.97414e-08,-2.0944,-1.06498e-07,1.5708,0.785398,-0.000211539,-0.000169753,0.000290355,-0.000173009,-4.22738e-05,0.000184505,0.000676289,0,0,0,0,0,0,0,-0.50597,-10.213,-0.306028,22.3127,1.86525,1.31491,-0.381582,-0.508558,-1.06194,0.173198,3.79236,1.14656,-0.350083,-0.368923
1922423,1,-1.57035,-0.522834,-0.000205426,-2.09713,-0.0014961,1.5713,0.785927,-1.5708,-0.523599,-3.97414e-08,-2.0944,-1.06498e-07,1.5708,0.785398,-0.000141026,-0.000113168,0.00019357,-0.00011534,0.000175268,-0.000114356,-0.00171928,0,0,0,0,0,0,0,-0.50597,-10.213,-0.306028,22.3127,1.85976,1.32131,-0.322988,-0.508327,-1.06181,0.173667,3.79115,1.14656,-0.350219,-0.369177
1922424,1,-1.57035,-0.522836,-0.000205426,-2.09713,-0.00149552,1.5713,0.785925,-1.5708,-0.523599,-3.97414e-08,-2.0944,-1.06498e-07,1.5708,0.785398,-9.40172e-05,-0.000632258,0.000129047,-7.68931e-05,0.000320296,0.000398481,-0.000908827,0,0,0,0,0,0,0,-0.50597,-10.1892,-0.306028,22.3127,1.85426,1.3085,-0.329397,-0.508273,-1.06093,0.173776,3.79017,1.14657,-0.350288,-0.369353
1922425,1,-1.57035,-0.522836,-0.000205426,-2.09713,-0.00149675,1.5713,0.785927,-1.5708,-0.523599,-3.97414e-08,-2.0944,-1.06498e-07,1.5708,0.785398,-6.26781e-05,-0.000421505,8.60312e-05,-0.000608074,-0.00019337,0.000265654,0.000377459,0,0,0,0,0,0,0,-0.50597,-10.1892,-0.306028,22.3365,1.86525,1.3085,-0.355947,-0.508291,-1.05925,0.173723,3.78923,1.14659,-0.350328,-0.369425
1922426,1,-1.57036,-0.522836,-0.000205426,-2.09713,-0.00149614,1.5713,0.785924,-1.5708,-0.523599,-3.97414e-08,-2.0944,-1.06498e-07,1.5708,0.785398,-0.000691399,-0.000281003,5.73541e-05,-0.000405383,7.45369e-05,-6.02564e-05,-0.000731705,0,0,0,0,0,0,0,-0.478199,-10.1892,-0.306028,22.3365,1.85976,1.31491,-0.329397,-0.508163,-1.05756,0.173802,3.78865,1.14662,-0.350331,-0.369375
1922427,1,-1.57036,-0.522836,-0.000203755,-2.09713,-0.00149675,1.5713,0.785928,-1.5708,-0.523599,-3.97414e-08,-2.0944,-1.06498e-07,1.5708,0.785398,0.000188681,-0.000187336,0.000595048,-0.000270255,-0.000153759,-0.00027753,-0.000216536,0,0,0,0,0,0,0,-0.50597,-10.1892,-0.329831,22.3365,1.86525,1.32131,-0.336721,-0.507986,-1.05644,0.173841,3.78855,1.14666,-0.350307,-0.369216
1922428,1,-1.57036,-0.522836,-0.000209045,-2.09713,-0.00149675,1.5713,0.785929,-1.5708,-0.523599,-3.97414e-08,-2.0944,-1.06498e-07,1.5708,0.785398,-0.000523826,-0.00012489,-0.00136654,0.000933454,-0.000102506,-0.00018502,0.00104244,0,0,0,0,0,0,0,-0.478199,-10.1892,-0.254453,22.2889,1.86525,1.32131,-0.368765,-0.507603,-1.05548,0.174141,3.78832,1.14669,-0.350321,-0.368957
1922429,1,-1.57036,-0.522834,-0.000205426,-2.09713,-0.00149614,1.5713,0.785927,-1.5708,-0.523599,-3.97414e-08,-2.0944,-1.06498e-07,1.5708,0.785398,0.000300396,0.000473552,0.0002954,6.54906e-05,0.000135113,0.000114012,0.00022024,0,0,0,0,0,0,0,-0.50597,-10.213,-0.306028,22.3127,1.85976,1.31491,-0.355947,-0.506684,-1.05476,0.175264,3.78772,1.14673,-0.350403,-0.368623
1922430,1,-1.57035,-0.522836,-0.000207096,-2.09713,-0.00149553,1.5713,0.785928,-1.5708,-0.523599,-3.97414e-08,-2.0944,-1.06498e-07,1.5708,0.785398,0.000757076,-0.000241111,-0.000359879,4.36604e-05,0.000293526,7.60082e-05,0.000621545,0,0,0,0,0,0,0,-0.529774,-10.1892,-0.282224,22.3127,1.85426,1.31491,-0.368765,-0.506038,-1.05478,0.176062,3.78726,1.14676,-0.350489,-0.368249
1922431,1,-1.57036,-0.522836,-0.000205426,-2.09713,-0.00149614,1.5713,0.785924,-1.5708,-0.523599,-3.97414e-08,-2.0944,-1.06498e-07,1.5708,0.785398,-0.000701708,-0.000160741,0.000316893,0.000585919,-7.76659e-06,5.06722e-05,-0.0010437,0,0,0,0,0,0,0,-0.478199,-10.1892,-0.306028,22.2889,1.85976,1.31491,-0.329397,-0.505945,-1.05477,0.176081,3.78676,1.14676,-0.350581,-0.367868
1922432,1,-1.57036,-0.522834,-0.000205426,-2.09714,-0.00149295,1.5713,0.785931,-1.5708,-0.523599,-3.97414e-08,-2.0944,-1.06498e-07,1.5708,0.785398,-0.000467805,0.000449652,0.000211262,-0.00192944,-5.17773e-06,3.37814e-05,0.0017117,0,0,0,0,0,0,0,-0.478199,-10.213,-0.306028,22.388,1.85976,1.31491,-0.394399,-0.505818,-1.05527,0.176025,3.78675,1.14677,-0.35062,-0.367491
1922433,1,-1.57036,-0.522838,-0.000205426,-2.09713,-0.00149447,1.5713,0.78593,-1.5708,-0.523599,-3.97414e-08,-2.0944,-1.06498e-07,1.5708,0.785398,0.000337743,-0.000813856,0.000140841,-0.000636678,0.000199999,2.2521e-05,0.000666415,0,0,0,0,0,0,0,-0.50597,-10.1654,-0.306028,22.3603,1.85426,1.31491,-0.381582,-0.505722,-1.05707,0.175787,3.78808,1.14679,-0.350517,-0.367123
1922434,1,-1.57036,-0.522838,-0.000207096,-2.09714,-0.00149579,1.5713,0.785932,-1.5708,-0.523599,-3.97414e-08,-2.0944,-1.06498e-07,1.5708,0.785398,-0.000424451,-0.000542571,-0.000462918,-0.000424452,-7.01181e-05,0.000252373,0.000206917,0,0,0,0,0,0,0,-0.478199,-10.1654,-0.282224,22.3603,1.85976,1.3085,-0.375173,-0.505639,-1.05813,0.175513,3.78948,1.14681,-0.350398,-0.366802
1922435,1,-1.57036,-0.522832,-0.000207096,-2.09714,-0.00149283,1.5713,0.785931,-1.5708,-0.523599,-3.97414e-08,-2.0944,-1.06498e-07,1.5708,0.785398,0.000366646,0.00140152,-0.000308612,-0.000282968,-4.67454e-05,-6.91103e-05,0.000375304,0,0,0,0,0,0,0,-0.50597,-10.2408,-0.282224,22.3603,1.85976,1.31491,-0.381582,-0.50524,-1.05901,0.175737,3.79064,1.14682,-0.350331,-0.366559
1922436,1,-1.57035,-0.522836,-0.000205426,-2.09713,-0.00149504,1.5713,0.785929,-1.5708,-0.523599,-3.97414e-08,-2.0944,-1.06498e-07,1.5708,0.785398,0.00145086,-0.000272077,0.000351071,-0.000188645,-3.11636e-05,-0.000283432,1.28436e-05,0,0,0,0,0,0,0,-0.557545,-10.1892,-0.306028,22.3603,1.85976,1.32131,-0.375173,-0.505199,-1.06139,0.175568,3.79228,1.1468,-0.350272,-0.36639
1922437,1,-1.57036,-0.522836,-0.000209045,-2.09713,-0.00149638,1.5713,0.785935,-1.5708,-0.523599,-3.97414e-08,-2.0944,-1.06498e-07,1.5708,0.785398,-0.000239188,-0.000181384,-0.000972379,0.00098786,-0.000224226,-0.000188955,0.000957998,0,0,0,0,0,0,0,-0.50597,-10.1892,-0.254453,22.3127,1.86525,1.32131,-0.400808,-0.505709,-1.06298,0.174781,3.79321,1.14673,-0.350305,-0.366295
1922438,0.99,-1.57035,-0.522839,-0.000207096,-2.09713,-0.00149663,1.5713,0.785935,-1.5708,-0.523599,-3.97414e-08,-2.0944,-1.06498e-07,1.5708,0.785398,0.000397353,-0.00132735,1.36144e-06,0.000658574,-0.000149484,-0.00012597,0.000163948,0,0,0,0,0,0,0,-0.529774,-10.1377,-0.282224,22.3127,1.86525,1.32131,-0.387991,-0.505871,-1.06139,0.174631,3.79216,1.14663,-0.350519,-0.366284
1922439,0.99,-1.57036,-0.522836,-0.000207096,-2.09713,-0.00149732,1.5713,0.785935,-1.5708,-0.523599,-3.97414e-08,-2.0944,-1.06498e-07,1.5708,0.785398,-0.000941523,0.000321527,9.07627e-07,-0.000117763,-0.000303107,-0.000321339,0.000109298,0,0,0,0,0,0,0,-0.478199,-10.1892,-0.282224,22.3365,1.87074,1.32772,-0.387991,-0.505632,-1.05779,0.17508,3.78999,1.14655,-0.350815,-0.366364
1922440,0.99,-1.57036,-0.522838,-0.000205426,-2.09713,-0.00149613,1.5713,0.785933,-1.5708,-0.523599,-3.97414e-08,-2.0944,-1.06498e-07,1.5708,0.785398,2.19312e-05,-0.000342461,0.000557417,-7.85086e-05,0.00020483,2.3133e-05,0.000310225,0,0,0,0,0,0,0,-0.50597,-10.1654,-0.306028,22.3365,1.85976,1.32131,-0.394399,-0.505373,-1.05501,0.175474,3.78845,1.1465,-0.35103,-0.366527
1922441,0.99,-1.57035,-0.522834,-0.000205426,-2.09714,-0.00149736,1.5713,0.785928,-1.5708,-0.523599,-3.97414e-08,-2.0944,-1.06498e-07,1.5708,0.785398,0.000571433,0.000885317,0.000371611,-0.000609151,-0.000270348,1.5422e-05,-0.000979978,0,0,0,0,0,0,0,-0.529774,-10.213,-0.306028,22.3603,1.87074,1.32131,-0.362356,-0.505628,-1.05437,0.175092,3.78827,1.14648,-0.351101,-0.366757
1922442,0.99,-1.57036,-0.522834,-0.000205426,-2.09713,-0.00149614,1.5713,0.78593,-1.5708,-0.523599,-3.97414e-08,-2.0944,-1.06498e-07,1.5708,0.785398,-0.000175857,0.000590211,0.000247741,-0.000406101,0.000226669,0.000484999,5.87579e-05,0,0,0,0,0,0,0,-0.50597,-10.213,-0.306028,22.3603,1.85976,1.3085,-0.381582,-0.506461,-1.05631,0.173919,3.78959,1.14648,-0.351028,-0.367035
1922443,0.99,-1.57035,-0.522834,-0.000209045,-2.09713,-0.00149492,1.5713,0.78593,-1.5708,-0.523599,-3.97414e-08,-2.0944,-1.06498e-07,1.5708,0.785398,0.000439574,0.000393474,-0.00104127,0.000286078,0.000558014,0.000323333,3.91719e-05,0,0,0,0,0,0,0,-0.529774,-10.213,-0.254453,22.3365,1.84877,1.3085,-0.381582,-0.507021,-1.05968,0.173246,3.7916,1.14652,-0.3509,-0.367337
1922444,0.99,-1.57036,-0.522839,-0.000207096,-2.09713,-0.00149675,1.5713,0.785926,-1.5708,-0.523599,-3.97414e-08,-2.0944,-1.06498e-07,1.5708,0.785398,-0.000913376,-0.00150092,-4.45629e-05,0.000190719,-0.000238342,-0.000259163,-0.00214402,0,0,0,0,0,0,0,-0.478199,-10.1377,-0.282224,22.3365,1.86525,1.32131,-0.322988,-0.506754,-1.06124,0.173885,3.79257,1.14658,-0.350867,-0.367655
1922445,0.99,-1.57036,-0.522838,-0.000209045,-2.09713,-0.00149356,1.5713,0.785934,-1.5708,-0.523599,-3.97414e-08,-2.0944,-1.06498e-07,1.5708,0.785398,-0.000608917,-0.000351001,-0.000679323,0.000127146,-0.000158895,-0.000172775,0.000740789,0,0,0,0,0,0,0,-0.478199,-10.1654,-0.254453,22.3365,1.86525,1.32131,-0.381582,-0.505669,-1.05945,0.175686,3.79191,1.14664,-0.350962,-0.367961
1922446,0.99,-1.57035,-0.522838,-0.000203755,-2.09714,-0.00149569,1.5713,0.785928,-1.5708,-0.523599,-3.97414e-08,-2.0944,-1.06498e-07,1.5708,0.785398,0.00080048,-0.000234,0.00131036,-0.00112166,-0.00010593,-0.000115183,-0.00143892,0,0,0,0,0,0,0,-0.529774,-10.1654,-0.329831,22.388,1.86525,1.32131,-0.329397,-0.50481,-1.05676,0.177091,3.7911,1.14669,-0.351054,-0.368207
1922447,0.99,-1.57036,-0.522838,-0.000203755,-2.09713,-0.00149518,1.5713,0.785928,-1.5708,-0.523599,-3.97414e-08,-2.0944,-1.06498e-07,1.5708,0.785398,-0.000672772,-0.000156,0.000873571,0.00101546,0.000336281,-0.000314148,2.40639e-05,0,0,0,0,0,0,0,-0.478199,-10.1654,-0.329831,22.3127,1.85426,1.32772,-0.355947,-0.505304,-1.0549,0.176438,3.79092,1.14668,-0.351088,-0.36837
1922448,0.99,-1.57036,-0.522838,-0.000209045,-2.09713,-0.00149663,1.5713,0.78593,-1.5708,-0.523599,-3.97414e-08,-2.0944,-1.06498e-07,1.5708,0.785398,-0.000448514,-0.000104,-0.00118086,0.000120164,-0.000182714,2.7927e-05,-0.000221316,0,0,0,0,0,0,0,-0.478199,-10.1654,-0.254453,22.3365,1.86525,1.32131,-0.349539,-0.505937,-1.05316,0.175471,3.79053,1.14666,-0.351149,-0.368446
1922449,0.99,-1.57036,-0.522834,-0.000210715,-2.09713,-0.0014961,1.5713,0.785929,-1.5708,-0.523599,-3.97414e-08,-2.0944,-1.06498e-07,1.5708,0.785398,-0.00029901,0.00104429,-0.00134405,0.00119373,8.16414e-05,-0.0004561,-0.000622262,0,0,0,0,0,0,0,-0.478199,-10.213,-0.230649,22.2889,1.85976,1.33413,-0.336721,-0.505049,-1.05217,0.176763,3.79,1.14669,-0.351233,-0.368445
1922450,0.99,-1.57036,-0.522836,-0.000207096,-2.09713,-0.00149674,1.5713,0.785928,-1.5708,-0.523599,-3.97414e-08,-2.0944,-1.06498e-07,1.5708,0.785398,-0.00019934,0.000139382,0.000310392,0.00023901,-0.000149023,-6.67076e-05,0.000297235,0,0,0,0,0,0,0,-0.478199,-10.1892,-0.282224,22.3127,1.86525,1.32772,-0.355947,-0.503277,-1.05265,0.179419,3.78979,1.14676,-0.351289,-0.368366
1922451,0.99,-1.57036,-0.522836,-0.000206914,-2.09713,-0.00149614,1.5713,0.785924,-1.5708,-0.523599,-3.97414e-08,-2.0944,-1.06498e-07,1.5708,0.785398,0.00051672,9.29211e-05,-0.000442686,-0.000397472,0.000104102,-0.000281831,-0.000785187,0,0,0,0,0,0,0,-0.50597,-10.1892,-0.254453,22.3365,1.85976,1.33413,-0.329397,-0.502021,-1.05382,0.181317,3.79001,1.1468,-0.351268,-0.368204
1922452,0.99,-1.57036,-0.522834,-0.000206386,-2.09713,-0.00149736,1.57131,0.78593,-1.5708,-0.523599,-3.97414e-08,-2.0944,-1.06498e-07,1.5708,0.785398,-0.000861945,0.000618759,0.00035449,-0.000821793,-0.0003375,0.00052419,0.000459886,0,0,0,0,0,0,0,-0.454395,-10.213,-0.282224,22.3603,1.87074,1.31491,-0.355947,-0.501413,-1.05576,0.182224,3.79113,1.14685,-0.351107,-0.367965
1922453,0.99,-1.57036,-0.522838,-0.000205189,-2.09713,-0.00149101,1.5713,0.785929,-1.5708,-0.523599,-3.97414e-08,-2.0944,-1.06498e-07,1.5708,0.785398,-1.78181e-05,-0.000701118,0.000793139,0.000565762,0.000826161,0.000586819,-0.000405486,0,0,0,0,0,0,0,-0.478199,-10.1654,-0.306028,22.3127,1.84236,1.3085,-0.336721,-0.501265,-1.05775,0.182304,3.79256,1.14688,-0.350885,-0.36766
1922454,0.99,-1.57035,-0.522841,-0.000205347,-2.09713,-0.00149249,1.5713,0.785928,-1.5708,-0.523599,-3.97414e-08,-2.0944,-1.06498e-07,1.5708,0.785398,0.00119455,-0.00167384,0.000528759,0.000377174,-0.000296936,-0.000320864,0.000441753,0,0,0,0,0,0,0,-0.529774,-10.1139,-0.306028,22.3127,1.86525,1.32772,-0.355947,-0.502101,-1.05658,0.180845,3.79236,1.14684,-0.350791,-0.367301
1922455,0.99,-1.57036,-0.522838,-0.00020707,-2.09714,-0.00149533,1.5713,0.785929,-1.5708,-0.523599,-3.97414e-08,-2.0944,-1.06498e-07,1.5708,0.785398,0.000239552,9.05341e-05,-0.000204306,-0.00151179,-0.000197958,0.000498167,-0.000180216,0,0,0,0,0,0,0,-0.50597,-10.1654,-0.282224,22.388,1.86525,1.3085,-0.34313,-0.503691,-1.05288,0.17835,3.79113,1.14672,-0.350771,-0.366902
1922456,0.99,-1.57036,-0.522834,-0.000209036,-2.09713,-0.00149125,1.5713,0.785927,-1.5708,-0.523599,-3.97414e-08,-2.0944,-1.06498e-07,1.5708,0.785398,-0.00104672,0.00117398,-0.000785818,0.00131219,0.00047838,9.47526e-05,-0.000120144,0,0,0,0,0,0,0,-0.454395,-10.213,-0.254453,22.2889,1.84877,1.31491,-0.34313,-0.50447,-1.05112,0.177083,3.79094,1.14666,-0.350677,-0.36648
1922457,0.99,-1.57036,-0.522836,-0.000205423,-2.09713,-0.00149492,1.5713,0.785927,-1.5708,-0.523599,-3.97414e-08,-2.0944,-1.06498e-07,1.5708,0.785398,0.000508609,0.000225841,0.000682547,-0.000795642,-8.79812e-05,-0.000174191,0.000394622,0,0,0,0,0,0,0,-0.50597,-10.1892,-0.306028,22.3603,1.85976,1.32131,-0.355947,-0.504152,-1.05224,0.177369,3.79178,1.14666,-0.350549,-0.366043
1922458,0.99,-1.57035,-0.522838,-0.000207095,-2.09713,-0.00149573,1.5713,0.785923,-1.5708,-0.523599,-3.97414e-08,-2.0944,-1.06498e-07,1.5708,0.785398,0.000895885,-0.000406251,-0.00010178,0.000583196,-5.86541e-05,0.000121232,-0.000957622,0,0,0,0,0,0,0,-0.529774,-10.1654,-0.282224,22.3127,1.85976,1.31491,-0.322988,-0.504169,-1.05377,0.177187,3.79271,1.14663,-0.350444,-0.365592
1922459,0.99,-1.57036,-0.522836,-0.000207096,-2.09713,-0.00149601,1.5713,0.78593,-1.5708,-0.523599,-3.97414e-08,-2.0944,-1.06498e-07,1.5708,0.785398,-0.000609169,0.000285978,-6.78536e-05,-0.000168015,-3.91027e-05,-0.000156538,0.000582289,0,0,0,0,0,0,0,-0.478199,-10.1892,-0.282224,22.3365,1.85976,1.32131,-0.355947,-0.504535,-1.05431,0.176561,3.79315,1.14656,-0.350388,-0.36513
1922460,0.99,-1.57035,-0.522839,-0.000207096,-2.09713,-0.00149671,1.5713,0.785928,-1.5708,-0.523599,-3.97414e-08,-2.0944,-1.06498e-07,1.5708,0.785398,0.00144993,-0.00101577,-4.52357e-05,-0.00011201,-0.000229519,-0.000341717,0.000388192,0,0,0,0,0,0,0,-0.557545,-10.1377,-0.282224,22.3365,1.86525,1.32772,-0.355947,-0.504753,-1.05387,0.176215,3.79317,1.14649,-0.35037,-0.364655
1922461,0.99,-1.57036,-0.522836,-0.000207096,-2.09714,-0.00149735,1.5713,0.785928,-1.5708,-0.523599,-3.97414e-08,-2.0944,-1.06498e-07,1.5708,0.785398,-0.000889421,0.000529243,-3.01572e-05,-0.0012811,-0.000356463,0.000246906,0.000496154,0,0,0,0,0,0,0,-0.478199,-10.1892,-0.282224,22.388,1.87074,1.31491,-0.362356,-0.504973,-1.05319,0.175945,3.79343,1.14643,-0.350313,-0.364177
1922462,0.99,-1.57036,-0.522839,-0.000205426,-2.09713,-0.00149553,1.5713,0.785928,-1.5708,-0.523599,-3.97414e-08,-2.0944,-1.06498e-07,1.5708,0.785398,-0.000592948,-0.000853597,0.000536707,0.00146598,0.000372709,0.000164604,0.000568128,0,0,0,0,0,0,0,-0.478199,-10.1377,-0.306028,22.2889,1.85426,1.31491,-0.368765,-0.504834,-1.05254,0.176128,3.79379,1.14641,-0.350249,-0.363724
1922463,0.99,-1.57036,-0.522836,-0.000205426,-2.09713,-0.00149675,1.5713,0.785924,-1.5708,-0.523599,-3.97414e-08,-2.0944,-1.06498e-07,1.5708,0.785398,-0.000395298,0.000637361,0.000357805,0.000420511,-0.000158428,-0.000127623,-0.00107931,0,0,0,0,0,0,0,-0.478199,-10.1892,-0.306028,22.3127,1.86525,1.32131,-0.329397,-0.504413,-1.05104,0.176556,3.79318,1.14639,-0.350304,-0.363316
1922464,0.99,-1.57035,-0.522836,-0.000203755,-2.09713,-0.00149614,1.5713,0.785934,-1.5708,-0.523599,-3.97414e-08,-2.0944,-1.06498e-07,1.5708,0.785398,0.000942893,0.000424907,0.000795348,-0.000276472,9.78318e-05,0.000152277,0.00168796,0,0,0,0,0,0,0,-0.529774,-10.1892,-0.329831,22.3365,1.85976,1.31491,-0.394399,-0.504465,-1.0502,0.176236,3.79255,1.14635,-0.35039,-0.362947
1922465,0.99,-1.57035,-0.522834,-0.000205426,-2.09713,-0.00149553,1.5713,0.785933,-1.5708,-0.523599,-3.97414e-08,-2.0944,-1.06498e-07,1.5708,0.785398,0.000628595,0.000840084,-2.65796e-05,0.00092931,0.000268672,-0.0003732,0.00160002,0,0,0,0,0,0,0,-0.529774,-10.213,-0.306028,22.2889,1.85426,1.32772,-0.407217,-0.505297,-1.05126,0.174859,3.79282,1.14629,-0.35041,-0.362611
1922466,0.99,-1.57036,-0.522834,-0.000207096,-2.09713,-0.00149553,1.5713,0.785931,-1.5708,-0.523599,-3.97414e-08,-2.0944,-1.06498e-07,1.5708,0.785398,-0.000137748,0.000560056,-0.000574532,0.00061954,0.000179114,0.000225918,0.000354605,0,0,0,0,0,0,0,-0.50597,-10.213,-0.282224,22.2889,1.85426,1.31491,-0.387991,-0.506016,-1.05312,0.173775,3.79318,1.14623,-0.350433,-0.362353
1922467,0.99,-1.57035,-0.52283,-0.000205426,-2.09713,-0.00149797,1.5713,0.785932,-1.5708,-0.523599,-3.97414e-08,-2.0944,-1.06498e-07,1.5708,0.785398,0.00046498,0.00102298,0.000173791,-0.000700597,-0.000694392,0.000150612,0.000711121,0,0,0,0,0,0,0,-0.529774,-10.2408,-0.306028,22.3365,1.87624,1.31491,-0.400808,-0.50603,-1.05581,0.173795,3.79383,1.14621,-0.350425,-0.362221
1922468,0.99,-1.57036,-0.522835,-0.000207096,-2.09713,-0.00149614,1.5713,0.785929,-1.5708,-0.523599,-3.97414e-08,-2.0944,-1.06498e-07,1.5708,0.785398,-0.000246826,-0.000524436,-0.000440951,8.9747e-05,0.000147423,0.000100408,-0.000475355,0,0,0,0,0,0,0,-0.50597,-10.1892,-0.282224,22.3127,1.85976,1.31491,-0.375173,-0.505705,-1.05881,0.174338,3.79497,1.14622,-0.350347,-0.362224
1922469,0.99,-1.57035,-0.522836,-0.000207096,-2.09713,-0.00149736,1.5713,0.785931,-1.5708,-0.523599,-3.97414e-08,-2.0944,-1.06498e-07,1.5708,0.785398,0.000392262,-0.000349624,-0.000293968,5.98313e-05,-0.000308619,6.69387e-05,-0.000554262,0,0,0,0,0,0,0,-0.529774,-10.1892,-0.282224,22.3127,1.87074,1.31491,-0.368765,-0.505124,-1.05991,0.175302,3.79541,1.14626,-0.3503,-0.362353
1922470,0.99,-1.57036,-0.522834,-0.000203755,-2.09713,-0.00149614,1.5713,0.785931,-1.5708,-0.523599,-3.97414e-08,-2.0944,-1.06498e-07,1.5708,0.785398,-0.000944917,0.000323729,0.000917645,-0.000516924,0.000201155,4.46258e-05,0.00010521,0,0,0,0,0,0,0,-0.478199,-10.213,-0.329831,22.3365,1.85976,1.31491,-0.381582,-0.504544,-1.05944,0.17624,3.7952,1.14631,-0.350296,-0.362572
1922471,0.99,-1.57036,-0.522839,-0.000205426,-2.09713,-0.00149675,1.5713,0.785929,-1.5708,-0.523599,-3.97414e-08,-2.0944,-1.06498e-07,1.5708,0.785398,-0.000629945,-0.00154742,5.49517e-05,0.000212196,-6.93471e-05,0.000267109,-0.000167219,0,0,0,0,0,0,0,-0.478199,-10.1377,-0.306028,22.3127,1.86525,1.3085,-0.375173,-0.504098,-1.05802,0.176799,3.79465,1.14636,-0.350316,-0.362844
1922472,0.99,-1.57035,-0.522836,-0.000205426,-2.09713,-0.00149675,1.5713,0.785927,-1.5708,-0.523599,-3.97414e-08,-2.0944,-1.06498e-07,1.5708,0.785398,0.000786462,0.000174814,3.66345e-05,-0.000415348,-4.62314e-05,-5.9286e-05,-0.000823556,0,0,0,0,0,0,0,-0.529774,-10.1892,-0.306028,22.3365,1.86525,1.31491,-0.355947,-0.503761,-1.05508,0.177108,3.79343,1.14641,-0.350396,-0.36315
1922473,0.99,-1.57036,-0.522834,-0.000207096,-2.09713,-0.00149614,1.5713,0.785929,-1.5708,-0.523599,-3.97414e-08,-2.0944,-1.06498e-07,1.5708,0.785398,-3.2504e-05,0.000673354,-0.000532389,-0.000833711,0.00017263,-0.000276883,-0.000786396,0,0,0,0,0,0,0,-0.50597,-10.213,-0.282224,22.3603,1.85976,1.32131,-0.349539,-0.503608,-1.05335,0.177254,3.79291,1.14646,-0.35043,-0.363465
1922474,0.99,-1.57036,-0.522834,-0.000206914,-2.09713,-0.00149736,1.5713,0.785927,-1.5708,-0.523599,-3.97414e-08,-2.0944,-1.06498e-07,1.5708,0.785398,-2.16694e-05,0.000448903,-0.00100454,0.000557817,-0.000291815,5.27703e-05,-0.000524264,0,0,0,0,0,0,0,-0.50597,-10.213,-0.254453,22.3127,1.87074,1.31491,-0.349539,-0.503063,-1.05433,0.178106,3.79366,1.14656,-0.350382,-0.363755
1922475,0.99,-1.57036,-0.522834,-0.000206386,-2.09713,-0.00149675,1.57131,0.785929,-1.5708,-0.523599,-3.97414e-08,-2.0944,-1.06498e-07,1.5708,0.785398,-0.00122087,0.000299269,-2.00793e-05,-0.000184934,8.90742e-06,3.51802e-05,0.000599926,0,0,0,0,0,0,0,-0.454395,-10.213,-0.282224,22.3365,1.86525,1.31491,-0.375173,-0.50174,-1.05617,0.180112,3.79448,1.1467,-0.350361,-0.363994
1922476,0.99,-1.57036,-0.522838,-0.000206859,-2.09713,-0.00149492,1.5713,0.785926,-1.5708,-0.523599,-3.97414e-08,-2.0944,-1.06498e-07,1.5708,0.785398,-0.000257102,-0.000914111,-1.33862e-05,0.000433523,0.00061629,2.34535e-05,-0.00153283,0,0,0,0,0,0,0,-0.478199,-10.1654,-0.282224,22.3127,1.84877,1.31491,-0.322988,-0.500177,-1.05689,0.182338,3.79453,1.14684,-0.35042,-0.364177
1922477,0.99,-1.57036,-0.522836,-0.000203676,-2.09713,-0.00149553,1.5713,0.785926,-1.5708,-0.523599,-3.97414e-08,-2.0944,-1.06498e-07,1.5708,0.785398,0.000478212,-5.25957e-05,0.0011047,0.000289015,0.000207409,1.56357e-05,-0.000275901,0,0,0,0,0,0,0,-0.50597,-10.1892,-0.329831,22.3127,1.85426,1.31491,-0.34313,-0.499501,-1.05552,0.183152,3.79348,1.14691,-0.350574,-0.364298
1922478,0.99,-1.57036,-0.522836,-0.000209019,-2.09713,-0.00149356,1.5713,0.785925,-1.5708,-0.523599,-3.97414e-08,-2.0944,-1.06498e-07,1.5708,0.785398,-0.000330805,-3.50638e-05,-0.00102677,-0.000920947,-0.000268628,1.04238e-05,-0.000421293,0,0,0,0,0,0,0,-0.478199,-10.1892,-0.254453,22.3603,1.86525,1.31491,-0.336721,-0.499723,-1.05376,0.182631,3.79235,1.14691,-0.350732,-0.364333
1922479,0.99,-1.57035,-0.522834,-0.000207087,-2.09713,-0.00149508,1.5713,0.785926,-1.5708,-0.523599,-3.97414e-08,-2.0944,-1.06498e-07,1.5708,0.785398,0.000429076,0.000533436,-3.49003e-05,-0.000613965,2.43651e-05,-0.00023041,0.000193856,0,0,0,0,0,0,0,-0.50597,-10.213,-0.282224,22.3603,1.85976,1.32131,-0.349539,-0.499761,-1.05377,0.182422,3.79248,1.14693,-0.350772,-0.364273
1922480,0.99,-1.57035,-0.522838,-0.000203292,-2.09713,-0.0014964,1.5713,0.785925,-1.5708,-0.523599,-3.97414e-08,-2.0944,-1.06498e-07,1.5708,0.785398,0.000286051,-0.000758,0.000533545,0.000704314,-0.000187207,0.000321111,-0.000108122,0,0,0,0,0,0,0,-0.50597,-10.1654,-0.306028,22.3127,1.86525,1.3085,-0.34313,-0.499928,-1.05441,0.18207,3.79304,1.14694,-0.350779,-0.364126
1922481,0.99,-1.57035,-0.522834,-0.000204715,-2.09713,-0.00149541,1.5713,0.785924,-1.5708,-0.523599,-3.97414e-08,-2.0944,-1.06498e-07,1.5708,0.785398,0.000190701,0.000608291,0.000355697,-8.72693e-05,0.000282096,-0.000260644,-0.000580707,0,0,0,0,0,0,0,-0.50597,-10.213,-0.306028,22.3365,1.85426,1.32131,-0.329397,-0.500789,-1.05415,0.18069,3.7929,1.14689,-0.350866,-0.363907
1922482,0.99,-1.57036,-0.522836,-0.000206859,-2.09713,-0.00149549,1.5713,0.785926,-1.5708,-0.523599,-3.97414e-08,-2.0944,-1.06498e-07,1.5708,0.785398,-0.00107929,-0.000151285,-0.000319681,-5.81795e-05,0.000188064,6.35965e-05,0.000358847,0,0,0,0,0,0,0,-0.454395,-10.1892,-0.282224,22.3365,1.85426,1.31491,-0.349539,-0.501481,-1.05402,0.179482,3.79267,1.14683,-0.350971,-0.363628
1922483,0.99,-1.57036,-0.522836,-0.000208966,-2.09713,-0.00149674,1.5713,0.785929,-1.5708,-0.523599,-3.97414e-08,-2.0944,-1.06498e-07,1.5708,0.785398,0.000486898,-0.000100857,-0.000862734,0.000518026,-0.000281525,4.23977e-05,0.00118867,0,0,0,0,0,0,0,-0.50597,-10.1892,-0.254453,22.3127,1.86525,1.31491,-0.375173,-0.501189,-1.05398,0.179674,3.79243,1.14681,-0.351078,-0.3633
1922484,0.99,-1.57036,-0.522836,-0.000205399,-2.09713,-0.00149675,1.5713,0.78593,-1.5708,-0.523599,-3.97414e-08,-2.0944,-1.06498e-07,1.5708,0.785398,0.000324598,-6.72377e-05,0.00063127,0.00034535,-0.000187683,2.82651e-05,0.0010298,0,0,0,0,0,0,0,-0.50597,-10.1892,-0.306028,22.3127,1.86525,1.31491,-0.381582,-0.50065,-1.0532,0.180299,3.79166,1.14678,-0.351237,-0.362947
1922485,0.99,-1.57036,-0.522836,-0.000205417,-2.09713,-0.00149553,1.5713,0.785929,-1.5708,-0.523599,-3.97414e-08,-2.0944,-1.06498e-07,1.5708,0.785398,0.000216399,-4.48251e-05,0.000420846,-0.00088339,0.000281779,1.88434e-05,0.000449177,0,0,0,0,0,0,0,-0.50597,-10.1892,-0.306028,22.3603,1.85426,1.31491,-0.375173,-0.500886,-1.05246,0.179817,3.79102,1.14671,-0.351379,-0.362613
1922486,0.99,-1.57036,-0.522836,-0.000207093,-2.09713,-0.00149614,1.5713,0.785929,-1.5708,-0.523599,-3.97414e-08,-2.0944,-1.06498e-07,1.5708,0.785398,0.000144266,-2.98834e-05,-0.000276248,-0.000588927,-1.55979e-05,-0.000462156,-0.000649985,0,0,0,0,0,0,0,-0.50597,-10.1892,-0.282224,22.3603,1.85976,1.32772,-0.349539,-0.501555,-1.05263,0.178692,3.79131,1.14665,-0.351412,-0.362338
1922487,0.99,-1.57036,-0.522838,-0.000205425,-2.09713,-0.00149417,1.5713,0.785933,-1.5708,-0.523599,-3.97414e-08,-2.0944,-1.06498e-07,1.5708,0.785398,9.61773e-05,-0.000576734,0.000372647,-0.000392618,-0.0004173,0.000166614,0.00170291,0,0,0,0,0,0,0,-0.50597,-10.1654,-0.306028,22.3603,1.87074,1.31491,-0.407217,-0.502082,-1.05308,0.177794,3.79214,1.1466,-0.351374,-0.362132
1922488,0.99,-1.57035,-0.522834,-0.000207096,-2.09713,-0.00149447,1.5713,0.785931,-1.5708,-0.523599,-3.97414e-08,-2.0944,-1.06498e-07,1.5708,0.785398,0.00062093,0.000729134,-0.000308381,0.000851879,0.000332152,0.000348435,0.000423195,0,0,0,0,0,0,0,-0.529774,-10.213,-0.282224,22.3127,1.85426,1.3085,-0.387991,-0.50255,-1.05317,0.177039,3.79264,1.14656,-0.351372,-0.361993
1922489,0.99,-1.57036,-0.522836,-0.000205426,-2.09713,-0.00149385,1.5713,0.785931,-1.5708,-0.523599,-3.97414e-08,-2.0944,-1.06498e-07,1.5708,0.785398,-0.000142859,-7.07223e-05,0.000351225,1.11071e-05,0.000662244,-5.06892e-06,0.000519489,0,0,0,0,0,0,0,-0.50597,-10.1892,-0.306028,22.3365,1.84236,1.31491,-0.394399,-0.503015,-1.05338,0.176378,3.79271,1.1465,-0.351438,-0.361947
1922490,0.99,-1.57035,-0.522834,-0.000209045,-2.09713,-0.00149541,1.5713,0.785931,-1.5708,-0.523599,-3.97414e-08,-2.0944,-1.06498e-07,1.5708,0.785398,0.000461573,-4.71482e-05,-0.000972276,0.000564217,6.86526e-07,-3.37928e-06,0.000346326,0,0,0,0,0,0,0,-0.529774,-10.1892,-0.254453,22.3127,1.85426,1.31491,-0.394399,-0.503199,-1.05344,0.17622,3.79243,1.14644,-0.351552,-0.362013
1922491,0.99,-1.57036,-0.522835,-0.000203755,-2.09713,-0.0014961,1.5713,0.785926,-1.5708,-0.523599,-3.97414e-08,-2.0944,-1.06498e-07,1.5708,0.785398,-0.000249097,-3.14322e-05,0.00111505,0.000376144,-0.000202993,-0.000476971,-0.00241397,0,0,0,0,0,0,0,-0.50597,-10.1892,-0.329831,22.3127,1.85976,1.32772,-0.322988,-0.503201,-1.05286,0.176395,3.79174,1.14637,-0.351701,-0.362186
1922492,0.99,-1.57035,-0.522836,-0.000205426,-2.09713,-0.00149613,1.5713,0.785936,-1.5708,-0.523599,-3.97414e-08,-2.0944,-1.06498e-07,1.5708,0.785398,0.000390748,-2.09548e-05,0.000186557,0.000807575,-0.000135329,-0.00031798,0.0012729,0,0,0,0,0,0,0,-0.529774,-10.1892,-0.306028,22.2889,1.85976,1.32772,-0.400808,-0.503612,-1.05183,0.175949,3.79073,1.14625,-0.351869,-0.362424
1922493,0.99,-1.57036,-0.522836,-0.000207096,-2.09713,-0.00149614,1.5713,0.78593,-1.5708,-0.523599,-3.97414e-08,-2.0944,-1.06498e-07,1.5708,0.785398,-0.000945927,-1.39698e-05,-0.00043244,-1.84287e-05,-9.0219e-05,2.53719e-05,-0.000100835,0,0,0,0,0,0,0,-0.478199,-10.1892,-0.282224,22.3127,1.85976,1.32131,-0.375173,-0.503952,-1.05072,0.175571,3.78962,1.14613,-0.352022,-0.362682
1922494,0.99,-1.57036,-0.522837,-0.000207096,-2.09714,-0.00149553,1.5713,0.785932,-1.5708,-0.523599,-3.97414e-08,-2.0944,-1.06498e-07,1.5708,0.785398,-0.000630618,-0.000566125,-0.000288294,-0.00112591,0.000143304,0.000491633,-0.000304583,0,0,0,0,0,0,0,-0.478199,-10.1654,-0.282224,22.3603,1.85426,1.3085,-0.368765,-0.503289,-1.05,0.176609,3.78904,1.14608,-0.35208,-0.36296
1922495,0.99,-1.57036,-0.522834,-0.000210715,-2.09713,-0.00149553,1.5713,0.785931,-1.5708,-0.523599,-3.97414e-08,-2.0944,-1.06498e-07,1.5708,0.785398,-0.000420412,0.000736207,-0.00139862,-0.000750606,9.55363e-05,-0.000384322,-0.000677773,0,0,0,0,0,0,0,-0.478199,-10.213,-0.230649,22.3603,1.85426,1.32772,-0.355947,-0.501598,-1.05056,0.179125,3.78972,1.1461,-0.351979,-0.363259
1922496,0.99,-1.57036,-0.522836,-0.000207096,-2.09713,-0.00149234,1.5713,0.785925,-1.5708,-0.523599,-3.97414e-08,-2.0944,-1.06498e-07,1.5708,0.785398,0.000369339,-6.60072e-05,0.000274011,0.00061322,6.36909e-05,0.000455862,-0.00167255,0,0,0,0,0,0,0,-0.50597,-10.1892,-0.282224,22.3127,1.85426,1.3085,-0.322988,-0.49966,-1.05241,0.182079,3.79115,1.14615,-0.351804,-0.363551
1922497,0.99,-1.57035,-0.522834,-0.000207096,-2.09713,-0.0014931,1.5713,0.785926,-1.5708,-0.523599,-3.97414e-08,-2.0944,-1.06498e-07,1.5708,0.785398,0.00145265,0.000512807,0.000182674,0.000408813,-0.000567891,6.65492e-05,-0.000369049,0,0,0,0,0,0,0,-0.557545,-10.213,-0.282224,22.3127,1.87074,1.31491,-0.34313,-0.498951,-1.05406,0.183374,3.79204,1.14611,-0.351707,-0.363791
1922498,0.99,-1.57035,-0.522834,-0.000205426,-2.09713,-0.00149594,1.5713,0.785928,-1.5708,-0.523599,-3.97414e-08,-2.0944,-1.06498e-07,1.5708,0.785398,0.00031882,0.000341871,0.000678595,0.000272542,-0.000378594,-0.000192993,-0.000483392,0,0,0,0,0,0,0,-0.529774,-10.213,-0.306028,22.3127,1.87074,1.32131,-0.336721,-0.499946,-1.05537,0.182318,3.79239,1.14598,-0.351689,-0.363931
1922499,0.99,-1.57036,-0.522836,-0.000205426,-2.09713,-0.00149567,1.5713,0.785926,-1.5708,-0.523599,-3.97414e-08,-2.0944,-1.06498e-07,1.5708,0.785398,-0.000344265,-0.000328898,0.000452397,0.00138812,0.000154505,-0.000128662,-0.000322261,0,0,0,0,0,0,0,-0.50597,-10.1892,-0.306028,22.2611,1.85976,1.32131,-0.336721,-0.501633,-1.05591,0.180256,3.79205,1.14582,-0.351745,-0.363964
1922500,0.99,-1.57035,-0.522836,-0.000205426,-2.09713,-0.00149598,1.5713,0.785927,-1.5708,-0.523599,-3.97414e-08,-2.0944,-1.06498e-07,1.5708,0.785398,0.000327302,-0.000219265,0.000301598,-0.000281012,0.000103003,-8.57746e-05,0.000497236,0,0,0,0,0,0,0,-0.529774,-10.1892,-0.306028,22.3127,1.85976,1.32131,-0.355947,-0.503204,-1.05483,0.178293,3.79071,1.14568,-0.351879,-0.363896
1922501,0.99,-1.57036,-0.522836,-0.000207096,-2.09713,-0.0014967,1.5713,0.785928,-1.5708,-0.523599,-3.97414e-08,-2.0944,-1.06498e-07,1.5708,0.785398,-0.000338611,-0.000146177,-0.000355747,-0.000187341,-0.000134782,0.000180176,-0.000380586,0,0,0,0,0,0,0,-0.50597,-10.1892,-0.282224,22.3127,1.86525,1.31491,-0.336721,-0.504302,-1.05334,0.177018,3.78941,1.14558,-0.351973,-0.363744
1922502,0.99,-1.57036,-0.522836,-0.000205426,-2.09713,-0.00149674,1.5713,0.785926,-1.5708,-0.523599,-3.97414e-08,-2.0944,-1.06498e-07,1.5708,0.785398,-0.00143217,-9.74512e-05,0.000319647,-0.00123852,-8.98544e-05,0.000357476,-1.63651e-05,0,0,0,0,0,0,0,-0.454395,-10.1892,-0.306028,22.3603,1.86525,1.3085,-0.34313,-0.504456,-1.05279,0.177042,3.7891,1.14557,-0.351944,-0.363528
1922503,0.99,-1.57036,-0.522836,-0.000207096,-2.09713,-0.00149736,1.5713,0.78593,-1.5708,-0.523599,-3.97414e-08,-2.0944,-1.06498e-07,1.5708,0.785398,-0.000397965,-6.49674e-05,-0.000343714,0.000287945,-0.000263353,-0.0002364,0.000463808,0,0,0,0,0,0,0,-0.478199,-10.1892,-0.282224,22.3127,1.87074,1.32131,-0.355947,-0.503654,-1.05311,0.178273,3.78957,1.14565,-0.351833,-0.363261
1922504,0.99,-1.57036,-0.522836,-0.000207096,-2.09714,-0.00149675,1.5713,0.785932,-1.5708,-0.523599,-3.97414e-08,-2.0944,-1.06498e-07,1.5708,0.785398,0.000384303,-4.33116e-05,-0.000229142,-0.00157127,2.78815e-05,-0.0001576,0.000546564,0,0,0,0,0,0,0,-0.50597,-10.1892,-0.282224,22.388,1.86525,1.32131,-0.362356,-0.502587,-1.05396,0.179833,3.79048,1.14576,-0.351684,-0.362953
1922505,0.99,-1.57036,-0.522836,-0.000205426,-2.09713,-0.00149614,1.5713,0.78593,-1.5708,-0.523599,-3.97414e-08,-2.0944,-1.06498e-07,1.5708,0.785398,0.000256202,-2.88744e-05,0.00040405,0.00015891,0.000222038,-0.000342426,0.000839094,0,0,0,0,0,0,0,-0.50597,-10.1892,-0.306028,22.3365,1.85976,1.32772,-0.375173,-0.502045,-1.05524,0.180682,3.79179,1.14586,-0.3515,-0.362626
1922506,0.99,-1.57036,-0.522834,-0.000205426,-2.09713,-0.00149553,1.5713,0.785925,-1.57079,-0.523597,-2.53974e-06,-2.0944,-1.63059e-06,1.5708,0.785399,0.000170801,0.000537562,0.000269367,0.00010594,0.000351476,0.00075506,-0.000864758,0.00304939,0.001875,-0.0025,-0.003125,-0.00152409,0.005,0.00102661,-0.50597,-10.213,-0.306028,22.3365,1.85426,1.30117,-0.336721,-0.502279,-1.0566,0.1804,3.79293,1.14593,-0.351353,-0.362313
1922507,0.99,-1.57035,-0.522836,-0.000210715,-2.09713,-0.00149356,1.5713,0.78593,-1.57079,-0.523593,-7.53974e-06,-2.0944,-4.67878e-06,1.57081,0.785401,0.00067068,-0.000198437,-0.00158366,7.06265e-05,-0.000172584,-0.000479971,0.00108501,0.00609879,0.00375,-0.005,-0.00625,-0.00304819,0.01,0.00205323,-0.529774,-10.1892,-0.230649,22.3365,1.86525,1.32772,-0.381582,-0.502557,-1.0577,0.180125,3.7935,1.14598,-0.351292,-0.362033
1922508,0.99,-1.57036,-0.522834,-0.000205426,-2.09713,-0.00149447,1.5713,0.78593,-1.57078,-0.523587,-1.50397e-05,-2.09441,-9.25106e-06,1.57083,0.785404,-0.000109692,-0.000132291,0.000707464,0.00116071,0.000291845,-0.000557339,0.000960697,0.00914818,0.005625,-0.0075,-0.009375,-0.00457228,0.015,0.00307984,-0.50597,-10.1892,-0.306028,22.2889,1.85426,1.33413,-0.387991,-0.502451,-1.0577,0.180546,3.79317,1.14602,-0.351327,-0.361789
1922509,0.99,-1.57035,-0.522835,-0.000205886,-2.09713,-0.00149457,1.5713,0.785931,-1.57077,-0.52358,-2.50397e-05,-2.09443,-1.53474e-05,1.57085,0.785409,0.000483684,0.00200311,0.00102845,-0.00355463,0.000398014,0.000103158,-0.000308971,0.0121976,0.0075,-0.01,-0.0125,-0.00609637,0.02,0.00410645,-0.529774,-10.0107,-0.329831,22.2135,1.84877,1.32131,-0.362356,-0.502908,-1.05907,0.180111,3.79374,1.14604,-0.35127,-0.361591
1922510,0.99,-1.57036,-0.522843,-0.000206209,-2.09712,-0.00149546,1.5713,0.785932,-1.57075,-0.523571,-3.75397e-05,-2.09444,-2.29679e-05,1.57087,0.785414,-0.00264721,-0.00104719,-0.00255495,-0.000572212,0.00111305,-0.000880664,3.13783e-05,0.015247,0.009375,-0.0125,-0.015625,-0.00762046,0.025,0.00513307,-0.402821,-9.48306,-0.456784,21.7176,1.82588,1.34695,-0.368765,-0.502872,-1.06369,0.180253,3.79687,1.14613,-0.350925,-0.361466
1922511,0.99,-1.57035,-0.52284,-0.000212519,-2.09712,-0.00149284,1.5713,0.78593,-1.57073,-0.523559,-5.25397e-05,-2.09446,-3.21125e-05,1.5709,0.78542,-0.00232162,-5.04894e-05,-0.00353047,-0.000467472,0.00199665,-0.00129919,-0.000928517,0.0182964,0.01125,-0.015,-0.01875,-0.00914456,0.03,0.00615968,-0.379017,-8.92368,-0.532163,21.2693,1.79201,1.36618,-0.34313,-0.499183,-1.06678,0.185537,3.79938,1.14634,-0.350515,-0.361431
1922512,0.99,-1.57035,-0.522827,-0.000217669,-2.09712,-0.00149006,1.5713,0.785933,-1.57071,-0.523546,-7.00397e-05,-2.09448,-4.27811e-05,1.57094,0.785427,0.00204774,0.00259573,-0.00372925,0.00575146,0.00238226,-0.00205292,0.000330425,0.0213458,0.013125,-0.0175,-0.021875,-0.0106687,0.035,0.00718629,-0.402821,-8.41983,-0.635312,20.6702,1.76363,1.39822,-0.368765,-0.492492,-1.06582,0.19507,3.79776,1.14651,-0.350333,-0.361459
1922513,0.99,-1.57034,-0.522806,-0.000226701,-2.09713,-0.00149461,1.5713,0.785932,-1.57069,-0.523531,-9.00397e-05,-2.09451,-5.49738e-05,1.57098,0.785435,0.00161838,0.00732189,-0.00515806,0.00377198,0.00118127,-0.00184333,-1.70759e-05,0.0243952,0.015,-0.02,-0.025,-0.0121927,0.04,0.0082129,-0.402821,-8.01517,-0.686887,20.1981,1.77461,1.41104,-0.362356,-0.48561,-1.06547,0.20482,3.79218,1.14644,-0.350337,-0.361499
1922514,0.99,-1.57033,-0.52278,-0.000234151,-2.09713,-0.00149511,1.5713,0.785931,-1.57066,-0.523514,-0.00011254,-2.09454,-6.86907e-05,1.57102,0.785445,0.00387625,0.0126367,-0.00564093,0.00120134,0.000990965,-0.0017036,-0.000248743,0.0274445,0.016875,-0.0225,-0.028125,-0.0137168,0.045,0.00923952,-0.379017,-7.68588,-0.762265,19.7538,1.76912,1.42385,-0.355947,-0.479189,-1.0757,0.21358,3.78777,1.14618,-0.349934,-0.361521
1922515,0.99,-1.57033,-0.522758,-0.00024692,-2.09714,-0.00149425,1.57131,0.785933,-1.57063,-0.523496,-0.00013754,-2.09457,-8.39316e-05,1.57107,0.785455,0.00440377,0.0154369,-0.00775252,0.00151609,0.00106754,-0.0013731,0.000308889,0.0304939,0.01875,-0.025,-0.03125,-0.0152409,0.05,0.0102661,-0.303639,-7.30899,-0.762265,19.3531,1.75813,1.43026,-0.368765,-0.473043,-1.10316,0.22135,3.78879,1.14584,-0.348555,-0.361512
1922516,0.99,-1.57032,-0.522737,-0.000249118,-2.09715,-0.00149621,1.57132,0.785929,-1.57059,-0.523473,-0.000167068,-2.0946,-0.000101613,1.57113,0.785467,0.00491364,0.0180295,-0.00570227,-0.00196182,0.000101345,0.00472732,0.00852713,0.0358261,0.0225,-0.029528,-0.0375,-0.0176816,0.06,0.011887,-0.22826,-6.9559,-0.913022,18.9801,1.77461,1.40463,-0.329397,-0.46736,-1.14548,0.227455,3.79423,1.14543,-0.346162,-0.361476
1922517,0.99,-1.57031,-0.522724,-0.000258923,-2.09716,-0.001497,1.57132,0.785932,-1.57055,-0.523447,-0.000201124,-2.09465,-0.000121736,1.5712,0.78548,0.00578743,0.0174859,-0.00548039,-0.00438445,-0.00382566,0.0075257,0.0077204,0.0411582,0.02625,-0.034056,-0.04375,-0.0201223,0.07,0.013508,-0.176685,-6.49966,-1.01617,18.7342,1.75264,1.42385,-0.362356,-0.463115,-1.19602,0.229727,3.80157,1.14493,-0.342909,-0.361409
1922518,0.99,-1.57031,-0.522703,-0.000270426,-2.09717,-0.00149432,1.57133,0.785931,-1.57051,-0.523417,-0.000239708,-2.0947,-0.000144299,1.57128,0.785495,0.00659178,0.0205392,-0.00851328,-0.00631291,-0.00168808,0.00800301,0.00430007,0.0464904,0.03,-0.038584,-0.05,-0.022563,0.08,0.0151289,-0.125111,-6.19418,-1.11535,18.508,1.71877,1.48794,-0.322988,-0.460039,-1.24812,0.22809,3.80824,1.14436,-0.338933,-0.361294
1922519,0.99,-1.57029,-0.52269,-0.000286387,-2.09718,-0.00149909,1.57133,0.785929,-1.57045,-0.523383,-0.00028282,-2.09475,-0.000169302,1.57137,0.785512,0.00773047,0.0209077,-0.0107718,-0.0108681,-0.00182648,0.00687188,0.00213832,0.0518226,0.03375,-0.043112,-0.05625,-0.0250037,0.09,0.0167498,-0.101307,-5.66653,-1.2185,18.1629,1.72975,1.5978,-0.290945,-0.455922,-1.29873,0.225743,3.81333,1.1438,-0.33417,-0.361128
1922520,0.99,-1.57027,-0.522667,-0.000306516,-2.0972,-0.00150291,1.57133,0.78593,-1.5704,-0.523346,-0.00033046,-2.09482,-0.000196747,1.57147,0.78553,0.011154,0.0241215,-0.0150834,-0.0134437,-0.00491486,0.00468359,0.00200671,0.0571547,0.0375,-0.04764,-0.0625,-0.0274444,0.1,0.0183707,-0.0497324,-4.98416,-1.34546,17.6392,1.69588,1.75253,-0.297354,-0.449157,-1.3474,0.225236,3.8175,1.1433,-0.328342,-0.360877
1922521,0.99,-1.57024,-0.522647,-0.000338603,-2.09722,-0.00150552,1.57134,0.785928,-1.57033,-0.523304,-0.000382628,-2.09489,-0.000226632,1.57158,0.78555,0.0174958,0.0236059,-0.0195954,-0.0167545,-0.00645029,0.010261,0.000883582,0.0624869,0.04125,-0.0521679,-0.06875,-0.029885,0.11,0.0199916,-0.152882,-4.14706,-1.42083,17.0163,1.63912,1.84866,-0.278127,-0.439749,-1.39224,0.227154,3.82003,1.14283,-0.321284,-0.360486
1922522,0.99,-1.57021,-0.52261,-0.000369849,-2.09724,-0.00150674,1.57136,0.785934,-1.57027,-0.523259,-0.000439323,-2.09496,-0.000258957,1.5717,0.785572,0.021172,0.0260927,-0.0248251,-0.0175423,-0.00710011,0.0105836,0.00173188,0.067819,0.045,-0.0566959,-0.075,-0.0323257,0.12,0.0216125,-0.22826,-3.41708,-1.54779,16.2983,1.56587,1.92007,-0.303762,-0.428295,-1.4289,0.231349,3.81789,1.14228,-0.313031,-0.359924
1922523,0.99,-1.57018,-0.522562,-0.000413522,-2.09728,-0.00150614,1.57139,0.785925,-1.57019,-0.523211,-0.000500547,-2.09504,-0.000293724,1.57183,0.785595,0.0245551,0.0343783,-0.0311135,-0.0245306,-0.0034289,0.0115004,-0.00181995,0.0731512,0.04875,-0.0612239,-0.08125,-0.0347664,0.13,0.0232334,-0.204456,-2.81009,-1.57159,15.727,1.50362,1.97134,-0.219534,-0.414057,-1.46091,0.239336,3.81194,1.1416,-0.303258,-0.35919
1922524,0.99,-1.57014,-0.522509,-0.000456975,-2.09732,-0.00151149,1.57142,0.78593,-1.57011,-0.523158,-0.000566299,-2.09513,-0.000330931,1.57197,0.78562,0.0270936,0.0385017,-0.0351563,-0.0300162,-0.00669287,0.0228206,0.00420774,0.0784833,0.0525,-0.0657519,-0.0875,-0.0372071,0.14,0.0248543,-0.176685,-2.25467,-1.62317,15.1517,1.47524,1.99057,-0.225942,-0.395816,-1.49967,0.252957,3.80768,1.1408,-0.291328,-0.35827
1922525,0.99,-1.5701,-0.522456,-0.000507214,-2.09738,-0.00151629,1.57147,0.785929,-1.57003,-0.523102,-0.000636579,-2.09522,-0.000370579,1.57212,0.785647,0.030352,0.0424489,-0.0356322,-0.0379413,-0.00974178,0.0276294,0.00283493,0.0838155,0.05625,-0.0702799,-0.09375,-0.0396478,0.15,0.0264752,-0.0775034,-1.74686,-1.64697,14.7312,1.46425,1.97134,-0.213125,-0.374783,-1.54927,0.269969,3.80757,1.13983,-0.277013,-0.357105
1922526,0.99,-1.57006,-0.522414,-0.00055414,-2.09743,-0.00152653,1.57154,0.785932,-1.56994,-0.52304,-0.000712859,-2.09533,-0.000413245,1.57229,0.785675,0.0343232,0.0430774,-0.0359212,-0.0391427,-0.00821576,0.0422704,0.00179361,0.0908067,0.061875,-0.0762795,-0.103125,-0.042666,0.165,0.0284338,-0.0259286,-1.13986,-1.80169,14.2591,1.48073,1.89443,-0.200308,-0.354778,-1.60292,0.284076,3.8079,1.13841,-0.260725,-0.355636
1922527,0.99,-1.56999,-0.522367,-0.000608591,-2.09748,-0.00154207,1.57162,0.785925,-1.56984,-0.522972,-0.000795138,-2.09544,-0.000458929,1.57247,0.785705,0.0429433,0.0416824,-0.0414063,-0.0443057,-0.00736149,0.0539075,-0.00116534,0.0977978,0.0675,-0.0822791,-0.1125,-0.0456841,0.18,0.0303924,-0.0775034,-0.584442,-1.87707,13.9615,1.50911,1.8038,-0.128897,-0.339117,-1.64637,0.290382,3.80018,1.13623,-0.243451,-0.353851
1922528,0.99,-1.56993,-0.522323,-0.000669905,-2.09755,-0.00155005,1.57171,0.785923,-1.56974,-0.522899,-0.000883417,-2.09556,-0.000507631,1.57266,0.785738,0.0473363,0.0410136,-0.0459682,-0.0540972,-0.00941787,0.0613445,-0.00222557,0.104789,0.073125,-0.0882787,-0.121875,-0.0487023,0.195,0.0323511,-0.0497324,-0.052826,-1.92468,13.8108,1.48622,1.73971,-0.0840357,-0.328077,-1.66848,0.289039,3.77943,1.13324,-0.225866,-0.351737
1922529,0.99,-1.56987,-0.522287,-0.000729601,-2.09762,-0.00156389,1.5718,0.785925,-1.56963,-0.522821,-0.000977695,-2.09569,-0.000559351,1.57287,0.785772,0.0541984,0.0420725,-0.0527283,-0.0636414,-0.011048,0.0718711,-0.00108673,0.11178,0.07875,-0.0942783,-0.13125,-0.0517204,0.21,0.0343097,-0.0497324,0.681122,-2.0794,13.537,1.46425,1.79739,-0.0904444,-0.319587,-1.66895,0.283442,3.74839,1.12974,-0.207938,-0.349226
1922530,0.99,-1.56979,-0.522242,-0.000799422,-2.0977,-0.00157641,1.5719,0.785925,-1.56951,-0.522736,-0.00107797,-2.09583,-0.00061409,1.5731,0.785808,0.0632454,0.0475343,-0.0597995,-0.0711577,-0.0112253,0.0816457,-0.00179156,0.118771,0.084375,-0.100278,-0.140625,-0.0547386,0.225,0.0362683,-0.0775034,1.48648,-2.17859,13.1165,1.41298,1.93289,-0.0584009,-0.311901,-1.6553,0.276623,3.71239,1.12598,-0.18953,-0.346247
1922531,0.99,-1.56969,-0.522186,-0.000878921,-2.09779,-0.00159154,1.57202,0.785927,-1.56938,-0.522646,-0.00118425,-2.09598,-0.000671847,1.57334,0.785847,0.0756464,0.0515718,-0.0660702,-0.0775356,-0.0110808,0.0947097,-0.00110459,0.125763,0.09,-0.106277,-0.15,-0.0577568,0.24,0.0382269,-0.204456,2.32358,-2.23016,12.5928,1.35072,2.06198,-0.0584009,-0.305802,-1.63647,0.268286,3.67521,1.12199,-0.17061,-0.342758
1922532,0.99,-1.5696,-0.522116,-0.000971571,-2.09788,-0.00160734,1.57217,0.785931,-1.56925,-0.522551,-0.00129653,-2.09614,-0.000732622,1.57359,0.785887,0.0821937,0.0597271,-0.0737699,-0.0823475,-0.0155295,0.114296,-0.00043169,0.132754,0.095625,-0.112277,-0.159375,-0.0607749,0.255,0.0401855,-0.22826,3.08133,-2.15478,11.9223,1.28298,2.05557,-0.0648096,-0.302294,-1.61849,0.257543,3.63781,1.11767,-0.15127,-0.338751
1922533,0.99,-1.5695,-0.52203,-0.00105403,-2.09799,-0.00162738,1.57235,0.785927,-1.56911,-0.522449,-0.0014148,-2.09631,-0.000796415,1.57386,0.785929,0.0885431,0.0671347,-0.0738255,-0.0918113,-0.0192433,0.136739,0.000810688,0.139745,0.10125,-0.118277,-0.16875,-0.0637931,0.27,0.0421441,-0.176685,3.66055,-2.30554,11.351,1.22072,1.95211,0.038645,-0.301325,-1.60758,0.244066,3.60133,1.11302,-0.131533,-0.334251
1922534,0.99,-1.56939,-0.521946,-0.00115322,-2.09811,-0.00164998,1.57255,0.785938,-1.56896,-0.522342,-0.00153908,-2.09649,-0.000863226,1.57415,0.785973,0.0954517,0.0721609,-0.0809059,-0.0998172,-0.0214776,0.161262,0.00657468,0.146736,0.106875,-0.124276,-0.178125,-0.0668113,0.285,0.0441027,-0.204456,4.24374,-2.30554,10.9265,1.14198,1.76535,0.0194189,-0.303309,-1.60728,0.226373,3.56704,1.10799,-0.111399,-0.329274
1922535,0.99,-1.56927,-0.521861,-0.00124935,-2.09825,-0.00168346,1.57277,0.78595,-1.56881,-0.52223,-0.00166936,-2.09668,-0.000933056,1.57445,0.786019,0.0995831,0.0742714,-0.083597,-0.11048,-0.0252949,0.182026,0.00702185,0.153727,0.1125,-0.130276,-0.1875,-0.0698294,0.3,0.0460613,-0.204456,4.87454,-2.40869,10.5814,1.1191,1.62985,-0.0318506,-0.307318,-1.61269,0.205179,3.5332,1.10251,-0.0911537,-0.323814
1922536,0.99,-1.56916,-0.521776,-0.00135308,-2.09838,-0.00171723,1.573,0.785954,-1.56865,-0.52211,-0.00180665,-2.09688,-0.00100633,1.57477,0.786067,0.10562,0.0773019,-0.0893413,-0.117801,-0.028672,0.200978,0.00742619,0.161866,0.119954,-0.137296,-0.199509,-0.0732695,0.31999,0.0482125,-0.0775034,5.45773,-2.48407,10.2323,1.1136,1.5209,0.038645,-0.311651,-1.61457,0.182421,3.49622,1.09649,-0.0713097,-0.31791
1922537,0.99,-1.56903,-0.521695,-0.00145722,-2.09854,-0.00176243,1.57326,0.785964,-1.56848,-0.521983,-0.00195097,-2.09709,-0.00108303,1.57511,0.786118,0.113785,0.0787644,-0.098999,-0.127605,-0.0375481,0.218944,0.00478371,0.170004,0.127408,-0.144317,-0.211519,-0.0767097,0.33998,0.0503638,-0.0775034,6.06473,-2.61102,10.0577,1.15846,1.44308,0.0651953,-0.314423,-1.60484,0.160885,3.45279,1.08992,-0.0524114,-0.311649
1922538,1,-1.56888,-0.521615,-0.00157316,-2.0987,-0.00180653,1.57353,0.785969,-1.5683,-0.521848,-0.00210231,-2.09731,-0.00116318,1.57547,0.78617,0.126024,0.0787133,-0.103851,-0.135769,-0.0383552,0.232855,0.00462396,0.178142,0.134862,-0.151337,-0.223528,-0.0801498,0.35997,0.052515,-0.204456,6.71933,-2.7102,9.93473,1.17586,1.4559,0.175059,-0.315283,-1.57627,0.141745,3.40019,1.08279,-0.0348955,-0.305058
1922539,1,-1.56872,-0.521532,-0.00169108,-2.09886,-0.00185951,1.57381,0.785979,-1.56811,-0.521705,-0.00226066,-2.09755,-0.00124677,1.57585,0.786225,0.138238,0.0813019,-0.108741,-0.145163,-0.0441983,0.244996,0.00589544,0.18628,0.142315,-0.158358,-0.235538,-0.0835899,0.37996,0.0546662,-0.327442,7.4017,-2.88873,9.70859,1.20973,1.57858,0.252878,-0.318202,-1.524,0.119828,3.33725,1.07497,-0.0189437,-0.298069
1922540,1,-1.56856,-0.52144,-0.00181921,-2.09904,-0.0019105,1.57411,0.785995,-1.56792,-0.521556,-0.00242604,-2.09779,-0.0013338,1.57625,0.786282,0.146489,0.0859909,-0.111298,-0.157632,-0.0458907,0.261951,0.00883437,0.194418,0.149769,-0.165378,-0.247547,-0.08703,0.39995,0.0568175,-0.430592,8.23483,-2.98791,9.31186,1.17586,1.75894,0.284922,-0.327349,-1.45167,0.0891382,3.26719,1.06646,-0.00424463,-0.290529
1922541,1,-1.56838,-0.521327,-0.00195334,-2.09922,-0.00196657,1.57443,0.786006,-1.56771,-0.521398,-0.00259844,-2.09805,-0.00142427,1.57667,0.786341,0.156476,0.0945468,-0.118516,-0.166863,-0.046344,0.276161,0.00951757,0.202557,0.157223,-0.172399,-0.259557,-0.0904701,0.41994,0.0589687,-0.557545,9.02036,-3.11487,8.78818,1.1136,1.91366,0.349924,-0.3433,-1.3709,0.0486047,3.19658,1.05748,0.00994928,-0.282282
1922542,1,-1.5682,-0.521206,-0.00209708,-2.09942,-0.002026,1.57478,0.786021,-1.5675,-0.521234,-0.00277786,-2.09833,-0.00151818,1.57711,0.786402,0.161154,0.102747,-0.126614,-0.178858,-0.0517201,0.297223,0.0111196,0.210695,0.164677,-0.179419,-0.271566,-0.0939102,0.43993,0.06112,-0.605152,9.72653,-3.14264,8.29227,1.05684,1.92648,0.388376,-0.362491,-1.29435,0.00341473,3.13108,1.04837,0.0244475,-0.273234
1922543,1,-1.56802,-0.521074,-0.00225067,-2.09964,-0.00209213,1.57517,0.786039,-1.56728,-0.521062,-0.0029643,-2.09861,-0.00161554,1.57757,0.786465,0.170204,0.1101,-0.134919,-0.190327,-0.0557195,0.321018,0.00710694,0.218833,0.172131,-0.18644,-0.283575,-0.0973504,0.45992,0.0632712,-0.605152,10.3613,-3.19421,7.77256,0.994585,1.81661,0.434153,-0.379902,-1.2296,-0.039022,3.07357,1.03946,0.0398249,-0.263334
1922544,1,-1.56782,-0.520932,-0.00241479,-2.09987,-0.00215496,1.57559,0.786061,-1.56706,-0.520882,-0.00315776,-2.0989,-0.00171633,1.57805,0.78653,0.177767,0.119435,-0.141234,-0.200544,-0.062631,0.358165,0.0151834,0.226971,0.179585,-0.19346,-0.295585,-0.10079,0.47991,0.0654224,-0.605152,10.8413,-3.24182,7.32425,0.909441,1.62985,0.440561,-0.393572,-1.17841,-0.0756856,3.02351,1.03083,0.056065,-0.252554
1922545,1,-1.56761,-0.520787,-0.00258139,-2.10011,-0.00222642,1.57602,0.786094,-1.56682,-0.520695,-0.00335824,-2.09921,-0.00182056,1.57855,0.786598,0.184632,0.125505,-0.147157,-0.211366,-0.0649978,0.382552,0.0237541,0.23511,0.187038,-0.200481,-0.307594,-0.104231,0.4999,0.0675737,-0.557545,11.3452,-3.24182,6.99894,0.875566,1.46871,0.388376,-0.403998,-1.13847,-0.107399,2.97788,1.02232,0.072617,-0.24091
1922546,1,-1.5674,-0.520643,-0.00275049,-2.10037,-0.00230582,1.57647,0.786121,-1.56658,-0.5205,-0.0035665,-2.09953,-0.00192844,1.57907,0.786668,0.191402,0.131661,-0.152858,-0.223004,-0.0680953,0.4038,0.0261699,0.243969,0.194528,-0.208255,-0.320084,-0.107882,0.51989,0.0698478,-0.529774,11.9006,-3.29339,6.72519,0.875566,1.34695,0.427744,-0.41188,-1.10403,-0.135613,2.93336,1.01367,0.0889589,-0.228497
1922547,1,-1.56717,-0.520505,-0.00292421,-2.10064,-0.00239175,1.57695,0.786147,-1.56633,-0.520298,-0.00378253,-2.09986,-0.00203997,1.57961,0.78674,0.20356,0.135704,-0.162281,-0.244806,-0.0708947,0.425658,0.0272504,0.252828,0.202018,-0.216028,-0.332574,-0.111533,0.53988,0.0721219,-0.529774,12.4838,-3.36877,6.52683,0.892961,1.31491,0.491831,-0.418068,-1.07118,-0.161515,2.89067,1.00476,0.105081,-0.215455
1922548,1,-1.56694,-0.52036,-0.00311236,-2.10092,-0.00248362,1.57744,0.78618,-1.56606,-0.520089,-0.00400633,-2.10021,-0.00215515,1.58017,0.786814,0.212756,0.139611,-0.171082,-0.253051,-0.0732976,0.444065,0.0295492,0.261688,0.209508,-0.223802,-0.345064,-0.115184,0.55987,0.074396,-0.557545,13.0154,-3.42035,6.32846,0.921343,1.35336,0.52479,-0.423105,-1.03612,-0.185256,2.85105,0.995562,0.121035,-0.201887
1922549,1,-1.56668,-0.520209,-0.00330418,-2.1012,-0.00257635,1.57795,0.786212,-1.56579,-0.519872,-0.0042379,-2.10057,-0.00227399,1.58075,0.786891,0.231175,0.149237,-0.17816,-0.263883,-0.079484,0.464494,0.030446,0.270547,0.216998,-0.231576,-0.357554,-0.118835,0.57986,0.0766701,-0.755909,13.4955,-3.5711,6.07853,0.943315,1.50167,0.569651,-0.429122,-0.993986,-0.209123,2.81111,0.985963,0.136364,-0.187815
1922550,1,-1.56641,-0.520045,-0.00350484,-2.10151,-0.00268052,1.57847,0.786257,-1.56551,-0.519647,-0.00447725,-2.10094,-0.00239648,1.58135,0.78697,0.242696,0.155387,-0.18569,-0.278351,-0.084316,0.480086,0.0354296,0.279406,0.224488,-0.23935,-0.370044,-0.122486,0.59985,0.0789442,-0.910633,13.9239,-3.64648,5.95554,0.97719,1.63626,0.511057,-0.440224,-0.946152,-0.23834,2.76988,0.975858,0.150953,-0.173209
1922551,1,-1.56614,-0.519872,-0.00371475,-2.10182,-0.0027811,1.57904,0.786305,-1.56523,-0.519415,-0.00472438,-2.10132,-0.00252261,1.58196,0.787051,0.25246,0.160002,-0.191643,-0.285541,-0.090845,0.500143,0.0376334,0.288265,0.231978,-0.247124,-0.382534,-0.126138,0.61984,0.0812183,-0.986012,14.2016,-3.69806,5.83255,0.97719,1.65548,0.479014,-0.457717,-0.891864,-0.274856,2.72675,0.965344,0.165038,-0.158093
1922552,1,-1.56586,-0.519693,-0.00393784,-2.10215,-0.0028863,1.57963,0.786354,-1.56493,-0.519176,-0.00497927,-2.10171,-0.0026524,1.5826,0.787135,0.260441,0.168729,-0.202666,-0.296164,-0.0957699,0.527908,0.0386612,0.297125,0.239468,-0.254897,-0.395024,-0.129789,0.63983,0.0834924,-1.08519,14.3802,-3.74963,5.6818,0.96071,1.62344,0.459788,-0.47859,-0.826162,-0.314857,2.67761,0.954663,0.178493,-0.142616
1922553,1,-1.56557,-0.519498,-0.00415771,-2.10249,-0.00298663,1.58024,0.786407,-1.56462,-0.518929,-0.00524194,-2.10212,-0.00278584,1.58326,0.78722,0.2654,0.176849,-0.206481,-0.309473,-0.0971288,0.553361,0.0394545,0.305984,0.246958,-0.262671,-0.407514,-0.13344,0.65982,0.0857665,-1.03362,14.4555,-3.84881,5.60642,0.881059,1.58499,0.44697,-0.498815,-0.751681,-0.353146,2.62249,0.94414,0.191357,-0.126985
1922554,1,-1.56528,-0.519297,-0.00439311,-2.10285,-0.00309409,1.58089,0.786463,-1.56431,-0.518675,-0.00551239,-2.10254,-0.00292293,1.58394,0.787308,0.279389,0.185183,-0.214216,-0.321075,-0.100646,0.579243,0.0492048,0.314843,0.254448,-0.270445,-0.420004,-0.137091,0.67981,0.0880406,-1.06139,14.5547,-3.84881,5.50724,0.859087,1.48153,0.434153,-0.51817,-0.674731,-0.389917,2.56494,0.933873,0.203926,-0.11138
1922555,1,-1.56498,-0.519099,-0.00462924,-2.10322,-0.00320553,1.58155,0.786529,-1.56398,-0.518413,-0.00579061,-2.10297,-0.00306368,1.58464,0.787399,0.283786,0.191018,-0.223796,-0.336833,-0.102213,0.608786,0.0589522,0.323703,0.261938,-0.278219,-0.432494,-0.140742,0.6998,0.0903147,-1.00982,14.6579,-3.84881,5.55881,0.81331,1.34054,0.381968,-0.53717,-0.597885,-0.425891,2.5072,0.923798,0.216314,-0.0959553
1922556,1,-1.56466,-0.51889,-0.00488052,-2.10359,-0.00332502,1.58225,0.7866,-1.56365,-0.518143,-0.00607712,-2.10342,-0.00320814,1.58536,0.787491,0.295633,0.197534,-0.230857,-0.349242,-0.109257,0.636664,0.0599307,0.332975,0.269428,-0.286517,-0.444984,-0.14446,0.71979,0.0926466,-1.06139,14.7848,-3.84881,5.50724,0.791338,1.13455,0.349924,-0.554018,-0.520403,-0.458503,2.45005,0.913926,0.228377,-0.0808658
1922557,1,-1.56433,-0.518676,-0.00514112,-2.10399,-0.0034456,1.58295,0.78667,-1.56331,-0.517866,-0.00637194,-2.10388,-0.00335631,1.5861,0.787586,0.304314,0.203966,-0.239279,-0.362927,-0.114299,0.657578,0.0675001,0.342247,0.276918,-0.294815,-0.457474,-0.148177,0.73978,0.0949786,-1.08519,14.8602,-3.84881,5.50724,0.762956,1.08236,0.388376,-0.568814,-0.440681,-0.487926,2.39348,0.904175,0.239792,-0.0662425
1922558,1,-1.56399,-0.518455,-0.00540482,-2.10439,-0.00356485,1.58365,0.786746,-1.56296,-0.517582,-0.00667505,-2.10435,-0.00350821,1.58686,0.787684,0.316323,0.209248,-0.245525,-0.373405,-0.117241,0.669226,0.0699633,0.351519,0.284408,-0.303113,-0.469964,-0.151895,0.75977,0.0973105,-1.23595,15.0348,-3.84881,5.38425,0.71718,1.26913,0.414011,-0.583377,-0.356657,-0.516593,2.33691,0.894333,0.250269,-0.0521663
1922559,1,-1.56364,-0.518222,-0.00567658,-2.10479,-0.00369578,1.58437,0.786822,-1.5626,-0.51729,-0.00698646,-2.10483,-0.00366382,1.58764,0.787783,0.324628,0.219486,-0.251336,-0.381532,-0.126111,0.682313,0.0752625,0.36079,0.291898,-0.311411,-0.482454,-0.155612,0.77976,0.0996425,-1.26372,15.0863,-3.90039,5.18589,0.71718,1.50167,0.459788,-0.59971,-0.267449,-0.547295,2.27924,0.884154,0.259694,-0.038622
1922560,1,-1.56328,-0.517984,-0.00595178,-2.10521,-0.00383718,1.58512,0.786898,-1.56223,-0.516991,-0.00730617,-2.10532,-0.00382315,1.58844,0.787885,0.331484,0.224289,-0.261459,-0.401265,-0.129517,0.705168,0.0787158,0.370062,0.299388,-0.319709,-0.494944,-0.159329,0.79975,0.101974,-1.41448,15.1101,-3.92816,5.0867,0.762956,1.52731,0.531199,-0.617229,-0.17652,-0.579246,2.22208,0.873634,0.268474,-0.0255305
1922561,1,-1.56292,-0.517729,-0.00624064,-2.10564,-0.00398094,1.58591,0.786983,-1.56185,-0.516684,-0.00763418,-2.10583,-0.00398619,1.58926,0.78799,0.340693,0.232274,-0.26786,-0.41298,-0.131122,0.727599,0.0781668,0.379334,0.306878,-0.328007,-0.507434,-0.163047,0.81974,0.104306,-1.3629,15.0625,-3.95196,5.01133,0.784929,1.48153,0.569651,-0.633548,-0.0875257,-0.608953,2.16868,0.862995,0.277347,-0.0127776
1922562,1,-1.56254,-0.517473,-0.00653885,-2.10609,-0.00411885,1.58672,0.78707,-1.56146,-0.516369,-0.00797048,-2.10635,-0.00415296,1.5901,0.788096,0.354014,0.238717,-0.277728,-0.423827,-0.136549,0.761158,0.081237,0.388606,0.314368,-0.336305,-0.519924,-0.166764,0.83973,0.106638,-1.43828,15.011,-4.02734,4.91214,0.796831,1.50167,0.621836,-0.649246,0.000205824,-0.636692,2.11771,0.8523,0.286374,-0.000203068
1922563,1,-1.56215,-0.5172,-0.00684622,-2.10654,-0.00426212,1.58753,0.787161,-1.56106,-0.516047,-0.00831509,-2.10688,-0.00432344,1.59096,0.788205,0.366849,0.250731,-0.284409,-0.429609,-0.139282,0.777485,0.0861908,0.397878,0.321858,-0.344603,-0.532414,-0.170482,0.85972,0.10897,-1.48986,14.9078,-4.00354,4.83677,0.784929,1.52731,0.634653,-0.666997,0.0875845,-0.665474,2.06495,0.841461,0.295069,0.0123678
1922564,1,-1.56177,-0.516912,-0.00716802,-2.10701,-0.00440376,1.58838,0.787268,-1.56065,-0.515718,-0.00866799,-2.10743,-0.00449764,1.59184,0.788317,0.366757,0.262953,-0.293788,-0.439205,-0.141479,0.802161,0.0914557,0.40715,0.329348,-0.352901,-0.544904,-0.174199,0.87971,0.111302,-1.38671,14.7848,-4.02734,4.76139,0.762956,1.44308,0.582468,-0.685909,0.169535,-0.694165,2.0094,0.83055,0.303295,0.0250698
1922565,1,-1.56137,-0.516619,-0.00749678,-2.10748,-0.00454892,1.58926,0.787372,-1.56024,-0.515381,-0.00902919,-2.10799,-0.00467556,1.59274,0.78843,0.377271,0.274751,-0.303325,-0.458971,-0.143326,0.8272,0.094336,0.416422,0.336838,-0.361199,-0.557394,-0.177917,0.8997,0.113634,-1.31133,14.6817,-3.97577,4.6384,0.745561,1.19863,0.550425,-0.701137,0.23512,-0.716749,1.95664,0.819929,0.311596,0.0379401
1922566,1,-1.56097,-0.516316,-0.00782628,-2.10796,-0.00469147,1.59016,0.78748,-1.55981,-0.515037,-0.00939901,-2.10856,-0.00485717,1.59366,0.788546,0.379333,0.282189,-0.309621,-0.465644,-0.14243,0.854322,0.09738,0.42587,0.344328,-0.369829,-0.569884,-0.181613,0.91969,0.115978,-1.18834,14.6063,-3.95196,4.44004,0.666826,1.08236,0.511057,-0.710302,0.279727,-0.730569,1.91112,0.809821,0.320268,0.0509089
1922567,1,-1.56056,-0.516008,-0.00817733,-2.10846,-0.00483536,1.59107,0.78759,-1.55938,-0.514685,-0.00977747,-2.10914,-0.00504248,1.5946,0.788665,0.391618,0.28865,-0.318054,-0.473975,-0.140959,0.867023,0.103431,0.435318,0.351818,-0.37846,-0.582374,-0.185308,0.93968,0.118322,-1.16057,14.5309,-3.87658,4.26548,0.558794,1.19223,0.466196,-0.714542,0.314166,-0.737855,1.86695,0.799975,0.328505,0.0638361
1922568,1,-1.56011,-0.515698,-0.00853205,-2.10896,-0.00499734,1.592,0.787703,-1.55893,-0.514326,-0.0101646,-2.10973,-0.00523148,1.59556,0.788785,0.406981,0.295247,-0.328598,-0.48017,-0.147826,0.886181,0.103093,0.444766,0.359308,-0.38709,-0.594864,-0.189004,0.95967,0.120666,-1.41448,14.5071,-3.77343,4.06711,0.542314,1.19863,0.453379,-0.7173,0.352917,-0.743028,1.81542,0.789879,0.335378,0.0765723
1922569,1,-1.55967,-0.515381,-0.00890411,-2.10949,-0.0051606,1.59296,0.787823,-1.55848,-0.513959,-0.0105603,-2.11034,-0.00542418,1.59654,0.788908,0.416926,0.304665,-0.339233,-0.491473,-0.157567,0.90344,0.112515,0.454214,0.366798,-0.39572,-0.607354,-0.1927,0.97966,0.123009,-1.3391,14.5547,-3.67425,4.01554,0.542314,1.18582,0.427744,-0.721178,0.400901,-0.748543,1.75386,0.779218,0.340685,0.0889878
1922570,1,-1.55924,-0.51506,-0.00927146,-2.11004,-0.00532486,1.59393,0.787945,-1.55801,-0.513585,-0.0109646,-2.11096,-0.00562058,1.59754,0.789034,0.419501,0.307733,-0.343991,-0.508335,-0.162353,0.926341,0.118109,0.463662,0.374288,-0.404351,-0.619844,-0.196395,0.99965,0.125353,-1.18834,14.6579,-3.72583,4.04331,0.581682,1.21145,0.434153,-0.725091,0.456297,-0.752896,1.68547,0.768079,0.344858,0.100964
1922571,1,-1.55878,-0.514722,-0.00965227,-2.11059,-0.00549829,1.59492,0.788066,-1.55754,-0.513203,-0.0113776,-2.11159,-0.00582067,1.59856,0.789161,0.428888,0.313515,-0.356192,-0.520353,-0.166101,0.944199,0.117902,0.47311,0.381778,-0.412981,-0.632334,-0.200091,1.01964,0.127697,-1.13677,14.6063,-3.67425,4.06711,0.627458,1.22427,0.459788,-0.726621,0.519457,-0.753638,1.6138,0.756694,0.348436,0.112406
1922572,1,-1.55832,-0.514366,-0.0100453,-2.11117,-0.00567002,1.59594,0.788192,-1.55706,-0.512814,-0.0117992,-2.11224,-0.00602446,1.5996,0.789291,0.456076,0.326696,-0.365061,-0.533238,-0.168293,0.96221,0.118201,0.482558,0.389268,-0.421612,-0.644824,-0.203787,1.03963,0.130041,-1.21215,14.4793,-3.59887,4.1901,0.661333,1.24349,0.440561,-0.728621,0.586175,-0.754013,1.54227,0.745068,0.351858,0.123315
1922573,1,-1.55784,-0.514005,-0.0104486,-2.11175,-0.00584425,1.59696,0.788308,-1.55657,-0.512417,-0.0122295,-2.1129,-0.00623194,1.60066,0.789424,0.462302,0.341721,-0.378916,-0.549431,-0.173155,0.984809,0.11605,0.492006,0.396758,-0.430242,-0.657314,-0.207483,1.05962,0.132385,-1.23595,14.2254,-3.51953,4.28928,0.661333,1.26913,0.518381,-0.735998,0.639248,-0.759174,1.47923,0.733246,0.35584,0.13377
1922574,1,-1.55735,-0.51363,-0.0108572,-2.11234,-0.0060288,1.59802,0.788441,-1.55606,-0.512013,-0.0126683,-2.11357,-0.00644312,1.60174,0.789558,0.469074,0.354602,-0.38227,-0.567907,-0.177562,1.00155,0.122547,0.501454,0.404248,-0.438872,-0.669804,-0.211178,1.07961,0.134729,-1.23595,13.9993,-3.47192,4.38846,0.677812,1.26272,0.52479,-0.746637,0.660212,-0.766548,1.4349,0.721681,0.361281,0.143845
1922575,1,-1.55688,-0.513243,-0.0112712,-2.11296,-0.00621442,1.59908,0.78857,-1.55555,-0.511601,-0.0131158,-2.11425,-0.00665799,1.60284,0.789695,0.467645,0.368467,-0.390664,-0.58041,-0.182801,1.04601,0.125161,0.510902,0.411738,-0.447503,-0.682294,-0.214874,1.0996,0.137072,-1.06139,13.7454,-3.44415,4.44004,0.62105,1.28836,0.550425,-0.755652,0.641896,-0.771483,1.41318,0.710837,0.368395,0.153623
1922576,1,-1.55638,-0.512862,-0.0116883,-2.11359,-0.00640129,1.60018,0.788704,-1.55503,-0.511182,-0.0135722,-2.11494,-0.00687648,1.60396,0.789835,0.47495,0.372498,-0.398383,-0.598754,-0.186114,1.06215,0.125036,0.52034,0.419228,-0.45631,-0.694784,-0.218495,1.11959,0.139399,-0.986012,13.7454,-3.49572,4.59079,0.547807,1.30117,0.537607,-0.759073,0.592051,-0.770134,1.4095,0.700916,0.376595,0.163178
1922577,1,-1.55586,-0.512469,-0.012122,-2.11424,-0.0065866,1.60131,0.788846,-1.5545,-0.510755,-0.0140373,-2.11565,-0.0070986,1.6051,0.789977,0.489171,0.379478,-0.40561,-0.610986,-0.184788,1.08559,0.130787,0.529778,0.426718,-0.465117,-0.707274,-0.222115,1.13958,0.141726,-1.16057,13.7454,-3.44415,4.6146,0.480058,1.28836,0.466196,-0.758002,0.528468,-0.76423,1.41585,0.691644,0.385383,0.172572
1922578,1,-1.55534,-0.512085,-0.012555,-2.11491,-0.00677437,1.60244,0.788986,-1.55396,-0.510321,-0.0145112,-2.11637,-0.00732434,1.60626,0.790121,0.499155,0.381198,-0.420688,-0.646874,-0.183738,1.10755,0.137148,0.539215,0.434208,-0.473924,-0.719764,-0.225736,1.15957,0.144053,-1.31133,13.9001,-3.44415,4.81296,0.412309,1.28836,0.472605,-0.756089,0.463035,-0.75779,1.43064,0.682633,0.395064,0.181807
1922579,1,-1.5548,-0.511675,-0.0130019,-2.11559,-0.00697238,1.60359,0.789122,-1.55342,-0.509879,-0.0149939,-2.1171,-0.00755369,1.60744,0.790267,0.5087,0.390794,-0.431476,-0.654103,-0.185058,1.1206,0.132433,0.548653,0.441698,-0.482731,-0.732254,-0.229356,1.17956,0.14638,-1.3629,13.9477,-3.44415,4.81296,0.400408,1.32131,0.504648,-0.752115,0.398256,-0.74774,1.45691,0.67379,0.406255,0.190804
1922580,1,-1.55427,-0.511266,-0.0134652,-2.11629,-0.00717874,1.60477,0.789258,-1.55286,-0.50943,-0.0154855,-2.11785,-0.00778667,1.60864,0.790416,0.521639,0.398539,-0.43802,-0.661674,-0.19309,1.13753,0.136159,0.558091,0.449188,-0.491537,-0.744744,-0.232976,1.19955,0.148707,-1.3391,13.9993,-3.51953,4.81296,0.451677,1.33413,0.556833,-0.746608,0.339568,-0.734127,1.48794,0.664761,0.418302,0.199529
1922581,1,-1.55372,-0.510846,-0.01394,-2.11699,-0.00739894,1.60595,0.7894,-1.55229,-0.508973,-0.0159858,-2.1186,-0.00802327,1.60986,0.790567,0.528096,0.403231,-0.445701,-0.671951,-0.198573,1.15169,0.132996,0.567528,0.456678,-0.500344,-0.757234,-0.236597,1.21954,0.151034,-1.41448,13.9755,-3.47192,4.68998,0.50844,1.30117,0.544016,-0.743158,0.296934,-0.722255,1.51195,0.655083,0.429921,0.208044
1922582,1,-1.55316,-0.510411,-0.0144283,-2.11771,-0.00761786,1.60715,0.789537,-1.55171,-0.508509,-0.016495,-2.11937,-0.00826348,1.6111,0.79072,0.536213,0.41417,-0.458284,-0.68401,-0.205807,1.16124,0.132567,0.576966,0.464168,-0.509151,-0.769724,-0.240217,1.23953,0.153361,-1.3629,13.9001,-3.36877,4.6622,0.513933,1.34695,0.588877,-0.740938,0.273539,-0.711491,1.5251,0.644807,0.440747,0.216429
1922583,1,-1.55261,-0.509976,-0.0149226,-2.11843,-0.00783767,1.60835,0.789689,-1.55113,-0.508037,-0.0170129,-2.12016,-0.00850732,1.61235,0.790876,0.541322,0.42137,-0.466483,-0.694585,-0.205207,1.17562,0.140451,0.586404,0.471658,-0.517958,-0.782214,-0.243838,1.25952,0.155688,-1.28753,13.8723,-3.34497,4.46384,0.485552,1.39181,0.544016,-0.736222,0.263886,-0.696796,1.52948,0.634265,0.45101,0.224733
1922584,1,-1.55204,-0.509534,-0.0154218,-2.11917,-0.00806159,1.60961,0.789835,-1.55053,-0.507558,-0.0175397,-2.12095,-0.00875478,1.61363,0.791034,0.546438,0.428241,-0.474784,-0.704099,-0.210453,1.19915,0.14003,0.595842,0.479148,-0.526765,-0.794704,-0.247458,1.27951,0.158015,-1.13677,13.8723,-3.21801,4.36466,0.480058,1.19863,0.563242,-0.727232,0.266231,-0.67618,1.52488,0.623636,0.460631,0.232971
1922585,1,-1.55147,-0.509096,-0.0159224,-2.11993,-0.00828094,1.61091,0.789981,-1.54993,-0.507072,-0.0180753,-2.12176,-0.00900586,1.61493,0.791194,0.558224,0.437159,-0.478808,-0.714732,-0.212702,1.22779,0.143046,0.605279,0.486638,-0.535572,-0.807194,-0.251079,1.2995,0.160342,-1.00982,13.9001,-3.26959,4.31705,0.428789,0.973414,0.582468,-0.716468,0.281984,-0.653805,1.50905,0.612874,0.469117,0.241141
1922586,1,-1.55089,-0.508644,-0.0164323,-2.12068,-0.0085146,1.61219,0.790135,-1.54931,-0.506578,-0.0186197,-2.12258,-0.00926045,1.61625,0.791357,0.568721,0.445278,-0.489124,-0.726736,-0.217983,1.25015,0.149821,0.61456,0.493815,-0.544429,-0.819684,-0.254592,1.31949,0.162635,-0.807484,13.9755,-3.3172,4.24167,0.36104,0.857142,0.531199,-0.708734,0.30827,-0.636442,1.48279,0.601844,0.476037,0.24926
1922587,1,-1.55028,-0.508183,-0.0169789,-2.12146,-0.00875988,1.6135,0.790303,-1.54869,-0.506077,-0.019173,-2.12341,-0.00951855,1.61759,0.791522,0.576478,0.444653,-0.50707,-0.743069,-0.23029,1.26733,0.159732,0.62384,0.500991,-0.553286,-0.832174,-0.258104,1.33948,0.164928,-0.859058,14.0747,-3.21801,4.24167,0.406816,0.754603,0.44697,-0.701932,0.345952,-0.620776,1.44782,0.590641,0.481198,0.257301
1922588,1,-1.54966,-0.507722,-0.017524,-2.12225,-0.00901864,1.61483,0.79048,-1.54805,-0.505569,-0.0197351,-2.12425,-0.00978017,1.61895,0.791689,0.58701,0.449059,-0.517137,-0.758929,-0.23363,1.29712,0.163683,0.633121,0.508168,-0.562144,-0.844664,-0.261617,1.35947,0.167221,-0.986012,14.1263,-3.11487,4.26548,0.519426,0.547694,0.304148,-0.689788,0.401409,-0.597781,1.40483,0.579521,0.484489,0.265135
1922589,1,-1.54905,-0.507251,-0.0180663,-2.12305,-0.00927198,1.61616,0.79065,-1.54741,-0.505053,-0.0203061,-2.12511,-0.0100453,1.62033,0.791858,0.59275,0.455251,-0.523792,-0.7726,-0.237934,1.30559,0.165062,0.642401,0.515344,-0.571001,-0.857154,-0.26513,1.37946,0.169514,-0.807484,14.1501,-3.19421,4.34085,0.565202,0.728053,0.240061,-0.67224,0.474384,-0.56773,1.35622,0.568576,0.485888,0.272561
1922590,1,-1.54843,-0.506758,-0.0186222,-2.12385,-0.00952586,1.61751,0.790814,-1.54676,-0.504531,-0.020886,-2.12598,-0.0103139,1.62173,0.79203,0.60456,0.46661,-0.529216,-0.779043,-0.24238,1.30983,0.166208,0.651681,0.522521,-0.579858,-0.869644,-0.268642,1.39945,0.171807,-0.78368,14.0747,-3.21801,4.11472,0.638445,0.934962,0.259287,-0.654171,0.556479,-0.538138,1.3055,0.557768,0.485616,0.27935
1922591,1,-1.54779,-0.506265,-0.0191783,-2.12466,-0.00978552,1.6189,0.790986,-1.5461,-0.504001,-0.0214747,-2.12686,-0.0105861,1.62315,0.792204,0.613469,0.475526,-0.544744,-0.792443,-0.251728,1.33093,0.173582,0.660962,0.529697,-0.588715,-0.882134,-0.272155,1.41944,0.1741,-0.910633,13.9477,-3.19421,4.16629,0.627458,0.844325,0.265696,-0.638025,0.637914,-0.512451,1.25513,0.547184,0.48407,0.285317
1922592,1,-1.54714,-0.50577,-0.0197461,-2.12551,-0.0100421,1.6203,0.791158,-1.54543,-0.503464,-0.0220723,-2.12776,-0.0108618,1.62459,0.792381,0.61665,0.47974,-0.55094,-0.81267,-0.249536,1.34626,0.174292,0.670242,0.536873,-0.597572,-0.894624,-0.275668,1.43943,0.176393,-0.910633,13.8723,-3.29339,4.36466,0.485552,0.786647,0.304148,-0.621031,0.712712,-0.486691,1.20858,0.537202,0.481933,0.290364
1922593,1,-1.5465,-0.505277,-0.0203309,-2.12638,-0.0102961,1.62172,0.791337,-1.54475,-0.50292,-0.0226787,-2.12866,-0.0111409,1.62605,0.792559,0.627838,0.484937,-0.554911,-0.831543,-0.249323,1.39168,0.178601,0.679523,0.54405,-0.606429,-0.907114,-0.279181,1.45942,0.178686,-0.859058,13.9001,-3.39654,4.6146,0.372942,0.676783,0.316965,-0.603702,0.780775,-0.462193,1.16916,0.527966,0.479702,0.294511
1922594,1,-1.54583,-0.504766,-0.0209212,-2.12725,-0.0105614,1.62316,0.79154,-1.54406,-0.502369,-0.023294,-2.12958,-0.0114236,1.62753,0.79274,0.639905,0.49014,-0.569592,-0.84916,-0.256913,1.40424,0.190594,0.688803,0.551226,-0.615287,-0.919604,-0.282693,1.47941,0.180979,-0.934437,13.8723,-3.29339,4.88834,0.350054,0.728053,0.155832,-0.59001,0.844,-0.444429,1.13791,0.519213,0.477333,0.297877
1922595,1,-1.54516,-0.504241,-0.0215173,-2.12816,-0.010827,1.62461,0.791731,-1.54336,-0.501811,-0.0239181,-2.13052,-0.0117098,1.62903,0.792924,0.645501,0.5027,-0.574062,-0.864267,-0.259675,1.41568,0.192188,0.698083,0.558403,-0.624144,-0.932094,-0.286206,1.4994,0.183272,-0.755909,13.7454,-3.39654,5.23349,0.355547,0.863551,0.135691,-0.579984,0.89863,-0.432792,1.11724,0.510687,0.475082,0.300546
1922596,1,-1.54449,-0.503713,-0.0221156,-2.12905,-0.011114,1.62607,0.791912,-1.54266,-0.501246,-0.0245511,-2.13146,-0.0119994,1.63055,0.793109,0.651016,0.51263,-0.589305,-0.894015,-0.268208,1.42797,0.194876,0.707093,0.564844,-0.632947,-0.944158,-0.289591,1.51835,0.185521,-0.605152,13.5946,-3.44415,5.30887,0.417803,0.934962,0.226328,-0.570219,0.930807,-0.422585,1.11612,0.502448,0.474117,0.302491
1922597,1,-1.54379,-0.503168,-0.0227471,-2.12997,-0.0113971,1.62755,0.79209,-1.54194,-0.500674,-0.0251928,-2.13242,-0.0122924,1.63208,0.793297,0.663533,0.5186,-0.601761,-0.899055,-0.273649,1.43719,0.193236,0.716102,0.571285,-0.64175,-0.956222,-0.292977,1.53731,0.187769,-0.755909,13.4439,-3.19421,5.33664,0.45717,1.08877,0.343516,-0.556337,0.934982,-0.407601,1.1387,0.494656,0.475235,0.303692
1922598,1,-1.54308,-0.502618,-0.0233714,-2.13091,-0.0116621,1.62907,0.792257,-1.54121,-0.500097,-0.0258434,-2.13339,-0.0125888,1.63364,0.793487,0.672969,0.541481,-0.610214,-0.905617,-0.267984,1.45096,0.183147,0.725111,0.577726,-0.650553,-0.968286,-0.296362,1.55626,0.190017,-0.859058,13.19,-3.19421,5.36045,0.366533,1.12814,0.628245,-0.538445,0.915772,-0.387424,1.17661,0.487092,0.477835,0.30431
1922599,1,-1.54237,-0.50206,-0.0239795,-2.13184,-0.0119336,1.63056,0.792436,-1.54048,-0.499513,-0.0265027,-2.13437,-0.0128885,1.63522,0.793679,0.681942,0.548094,-0.608822,-0.910161,-0.269425,1.4682,0.181264,0.73412,0.584168,-0.659356,-0.98035,-0.299748,1.57521,0.192265,-0.859058,12.9876,-3.29339,5.30887,0.316179,1.32131,0.706064,-0.523207,0.875051,-0.371464,1.2201,0.479252,0.480972,0.304769
1922600,1,-1.54165,-0.501489,-0.0246153,-2.13279,-0.0122214,1.63211,0.792625,-1.53974,-0.498922,-0.0271709,-2.13536,-0.0131917,1.63681,0.793874,0.692067,0.548769,-0.615455,-0.917666,-0.274547,1.4831,0.184901,0.74313,0.590609,-0.668159,-0.992414,-0.303133,1.59417,0.194513,-0.755909,12.6861,-3.3172,5.20969,0.350054,1.36618,0.744517,-0.517958,0.831218,-0.370809,1.25649,0.470594,0.483677,0.305633
1922601,1,-1.54094,-0.500919,-0.025272,-2.13375,-0.0125123,1.63366,0.792822,-1.53898,-0.498325,-0.0278478,-2.13636,-0.0134982,1.63842,0.794071,0.697152,0.554502,-0.624164,-0.926477,-0.27629,1.50383,0.187266,0.752139,0.59705,-0.676962,-1.00448,-0.306519,1.61312,0.196761,-0.557545,12.3053,-3.24182,5.0867,0.332659,1.37258,0.647471,-0.522728,0.809767,-0.386021,1.27352,0.460901,0.485269,0.30734
1922602,1,-1.54021,-0.500345,-0.0259233,-2.13471,-0.0128049,1.63525,0.793017,-1.53822,-0.497721,-0.0285336,-2.13738,-0.0138081,1.64005,0.79427,0.707527,0.559571,-0.634642,-0.933282,-0.277049,1.52392,0.19057,0.761148,0.603492,-0.685766,-1.01654,-0.309904,1.63207,0.199009,-0.430592,12.0791,-3.21801,4.93595,0.304277,1.26913,0.537607,-0.531836,0.819115,-0.40912,1.26755,0.450358,0.485707,0.310059
1922603,1,-1.53946,-0.499766,-0.0265988,-2.13569,-0.0130847,1.63686,0.793202,-1.53745,-0.497111,-0.0292282,-2.13841,-0.0141214,1.64171,0.794471,0.738785,0.578568,-0.648468,-0.943817,-0.27898,1.54309,0.191063,0.770157,0.609933,-0.694569,-1.02861,-0.313289,1.65103,0.201257,-0.632923,11.8014,-3.11487,4.93595,0.180681,1.28195,0.544016,-0.545569,0.847773,-0.438727,1.24387,0.439051,0.485444,0.313726
1922604,1,-1.5387,-0.499171,-0.0272763,-2.13668,-0.0133852,1.63847,0.793385,-1.53667,-0.496495,-0.0299316,-2.13945,-0.014438,1.64338,0.794674,0.749507,0.583496,-0.654545,-0.954773,-0.283952,1.57167,0.188569,0.779167,0.616374,-0.703372,-1.04067,-0.316675,1.66998,0.203506,-0.78368,11.4959,-2.88873,5.01133,0.163286,1.19863,0.550425,-0.569986,0.8761,-0.480849,1.21253,0.426902,0.485145,0.318154
1922605,1,-1.53793,-0.498555,-0.0279502,-2.13769,-0.0136867,1.64013,0.793575,-1.53589,-0.495872,-0.0306437,-2.1405,-0.0147581,1.64506,0.79488,0.757578,0.592133,-0.656971,-0.968016,-0.288691,1.58762,0.191417,0.788176,0.622815,-0.712175,-1.05273,-0.32006,1.68893,0.205754,-0.807484,11.119,-3.01568,5.0629,0.157793,1.12173,0.537607,-0.606769,0.898753,-0.538199,1.17845,0.41392,0.485063,0.323139
1922606,1,-1.53717,-0.497948,-0.0286406,-2.13872,-0.014,1.64177,0.793767,-1.53509,-0.495244,-0.0313646,-2.14156,-0.0150814,1.64677,0.795088,0.761328,0.59533,-0.661193,-0.982312,-0.296221,1.60648,0.197268,0.796829,0.628049,-0.720835,-1.06374,-0.323307,1.70548,0.207948,-0.732105,10.8889,-3.03949,5.28507,0.259416,1.22427,0.531199,-0.652553,0.919621,-0.608168,1.14333,0.400272,0.485316,0.328497
1922607,1,-1.53638,-0.497331,-0.0293362,-2.13975,-0.0143134,1.64344,0.793967,-1.53428,-0.494611,-0.0320941,-2.14264,-0.015408,1.64849,0.795298,0.766523,0.60107,-0.671595,-1.0021,-0.300207,1.61993,0.196459,0.805482,0.633282,-0.729496,-1.07475,-0.326554,1.72203,0.210143,-0.807484,10.639,-2.91253,5.50724,0.332659,1.36618,0.453379,-0.700702,0.940529,-0.682855,1.11067,0.386362,0.486296,0.334062
1922608,1,-1.53559,-0.496698,-0.0300391,-2.14082,-0.014621,1.64514,0.794168,-1.53347,-0.493972,-0.0328322,-2.14373,-0.0157378,1.65023,0.795511,0.770986,0.610205,-0.679185,-1.01523,-0.304502,1.64159,0.196807,0.814135,0.638515,-0.738157,-1.08575,-0.329801,1.73857,0.212337,-0.732105,10.4883,-2.98791,5.78098,0.316179,1.4559,0.427744,-0.743632,0.958152,-0.751966,1.08523,0.372749,0.488574,0.339654
1922609,1,-1.53479,-0.496073,-0.0307513,-2.14188,-0.014939,1.64685,0.794351,-1.53265,-0.493329,-0.033579,-2.14482,-0.0160708,1.65199,0.795725,0.776177,0.60733,-0.696321,-1.03517,-0.306434,1.66579,0.197106,0.822788,0.643749,-0.746817,-1.09676,-0.333047,1.75512,0.214531,-0.859058,10.2066,-2.91253,5.97934,0.26491,1.37258,0.550425,-0.774802,0.973187,-0.805956,1.06777,0.359903,0.492339,0.34506
1922610,1,-1.53396,-0.495434,-0.0314902,-2.14297,-0.0152616,1.64859,0.794552,-1.53182,-0.49268,-0.0343345,-2.14593,-0.0164071,1.65376,0.795942,0.782812,0.615028,-0.713094,-1.04825,-0.310418,1.6742,0.19791,0.831441,0.648982,-0.755478,-1.10777,-0.336294,1.77167,0.216726,-1.03362,9.82968,-2.78558,6.25309,0.270403,1.26272,0.569651,-0.787361,0.993146,-0.834272,1.05551,0.34812,0.497506,0.350121
1922611,1,-1.53318,-0.494808,-0.0322294,-2.14408,-0.0155711,1.65037,0.79475,-1.53098,-0.492025,-0.0350986,-2.14705,-0.0167466,1.65555,0.796161,0.779418,0.617714,-0.716376,-1.05754,-0.305553,1.73614,0.198188,0.840093,0.654215,-0.764138,-1.11877,-0.339541,1.78821,0.21892,-0.78368,9.5004,-2.76178,6.5784,0.191667,1.12173,0.666697,-0.778867,1.02239,-0.833143,1.04366,0.337387,0.503265,0.354857
1922612,1,-1.53235,-0.494186,-0.0329638,-2.14517,-0.0159047,1.65213,0.794959,-1.53013,-0.491366,-0.0358714,-2.14818,-0.0170894,1.65735,0.796382,0.784898,0.617264,-0.721441,-1.07312,-0.313888,1.74728,0.20063,0.848746,0.659449,-0.772799,-1.12978,-0.342787,1.80476,0.221114,-0.708302,9.42502,-2.81335,6.77677,0.197161,1.02468,0.647471,-0.754605,1.06766,-0.811047,1.02501,0.327369,0.508097,0.359411
1922613,1,-1.5315,-0.493556,-0.033733,-2.14629,-0.0162367,1.65396,0.795192,-1.52927,-0.490701,-0.0366529,-2.14932,-0.0174355,1.65917,0.796605,0.805139,0.617738,-0.72647,-1.07848,-0.318242,1.7713,0.215408,0.857399,0.664682,-0.781459,-1.14078,-0.346034,1.82131,0.223309,-0.910633,9.34964,-2.58325,6.92752,0.259416,0.599879,0.491831,-0.726705,1.13806,-0.784971,0.994511,0.317434,0.511096,0.364003
1922614,1,-1.53064,-0.492934,-0.0344977,-2.14739,-0.0165682,1.65575,0.795429,-1.5284,-0.490031,-0.037443,-2.15047,-0.0177847,1.66101,0.796831,0.821893,0.619275,-0.749101,-1.10522,-0.323517,1.77687,0.225493,0.866052,0.669915,-0.79012,-1.15179,-0.349281,1.83785,0.225503,-1.13677,9.34964,-2.61102,6.92752,0.253923,0.657557,0.356333,-0.705028,1.2331,-0.76608,0.954873,0.307145,0.512329,0.368725
1922615,1,-1.52978,-0.492284,-0.0352481,-2.14851,-0.0168968,1.65758,0.795653,-1.52753,-0.489356,-0.0382418,-2.15163,-0.0181373,1.66286,0.797058,0.832342,0.627038,-0.748578,-1.11068,-0.322465,1.78661,0.226669,0.874705,0.675149,-0.798781,-1.1628,-0.352528,1.8544,0.227698,-1.21215,9.02036,-2.78558,6.95133,0.231035,0.683192,0.330698,-0.691942,1.33978,-0.755159,0.915834,0.296554,0.512459,0.373409
1922616,1,-1.52891,-0.491621,-0.0360328,-2.14965,-0.017243,1.65944,0.795888,-1.52665,-0.488677,-0.039049,-2.15281,-0.0184929,1.66473,0.797288,0.848217,0.654345,-0.758348,-1.11516,-0.3347,1.80385,0.229887,0.88294,0.678799,-0.807223,-1.17224,-0.355631,1.86786,0.22983,-1.41448,8.59189,-2.78558,6.89975,0.310686,0.631923,0.265696,-0.691376,1.43269,-0.75707,0.885827,0.285668,0.511767,0.377823
1922617,1,-1.52803,-0.490942,-0.0368137,-2.15078,-0.017583,1.6613,0.796126,-1.52575,-0.487995,-0.0398647,-2.15399,-0.0188516,1.66661,0.79752,0.85806,0.658322,-0.760689,-1.1192,-0.329573,1.81737,0.229746,0.891174,0.68245,-0.815666,-1.18169,-0.358735,1.88132,0.231963,-1.46209,8.08408,-2.76178,6.89975,0.287798,0.541285,0.207102,-0.707464,1.49003,-0.777658,0.867265,0.274405,0.509932,0.381775
1922618,1,-1.52715,-0.490256,-0.0376104,-2.15196,-0.0179084,1.66316,0.796362,-1.52485,-0.487309,-0.0406888,-2.15518,-0.0192135,1.66851,0.797754,0.861059,0.664183,-0.767309,-1.13248,-0.327046,1.8234,0.233392,0.899409,0.686101,-0.824109,-1.19114,-0.361838,1.89478,0.234096,-1.23595,7.67941,-2.76178,7.12589,0.146807,0.74087,0.278513,-0.738284,1.51783,-0.81538,0.855326,0.262799,0.506586,0.385042
1922619,1,-1.52627,-0.489578,-0.038444,-2.15314,-0.018261,1.66502,0.796626,-1.52395,-0.486619,-0.0415214,-2.15638,-0.0195784,1.67042,0.79799,0.867886,0.672222,-0.781605,-1.14261,-0.336341,1.83541,0.243844,0.907644,0.689752,-0.832552,-1.20059,-0.364942,1.90823,0.236229,-1.16057,7.27475,-2.40869,7.44724,0.168779,0.979823,0.129282,-0.775196,1.52872,-0.85973,0.846897,0.251108,0.501943,0.387449
1922620,1,-1.52538,-0.488883,-0.0392861,-2.15434,-0.0186188,1.66691,0.796871,-1.52303,-0.485926,-0.0423624,-2.15759,-0.0199465,1.67234,0.798229,0.870365,0.673388,-0.801136,-1.15955,-0.338082,1.85086,0.242054,0.915879,0.693403,-0.840995,-1.21004,-0.368045,1.92169,0.238361,-0.910633,6.59238,-1.90088,8.04233,0.180681,1.16018,0.162241,-0.804543,1.52768,-0.892176,0.843163,0.239781,0.496746,0.38889
1922621,1,-1.5245,-0.488177,-0.0401199,-2.15556,-0.0189714,1.66885,0.797112,-1.52211,-0.485229,-0.0432118,-2.15881,-0.0203176,1.67427,0.798469,0.886333,0.68234,-0.804293,-1.17661,-0.340001,1.86318,0.238689,0.924113,0.697054,-0.849438,-1.21948,-0.371149,1.93515,0.240494,-0.402821,5.8862,-1.77392,8.76438,0.214556,1.17941,0.316965,-0.820813,1.51718,-0.904795,0.847141,0.229035,0.492042,0.389308
1922622,1,-1.52363,-0.487472,-0.0409671,-2.15678,-0.0193235,1.67075,0.797351,-1.52117,-0.484528,-0.0440697,-2.16004,-0.0206919,1.67622,0.798712,0.87679,0.685989,-0.821005,-1.19239,-0.343594,1.87866,0.239485,0.932348,0.700704,-0.85788,-1.22893,-0.374252,1.94861,0.242627,0.148632,5.0015,-1.39306,9.33567,0.208147,1.32131,0.472605,-0.824965,1.4942,-0.899494,0.863866,0.218946,0.488937,0.388802
1922623,1,-1.52271,-0.486755,-0.0418305,-2.158,-0.0196815,1.6727,0.797588,-1.52023,-0.483824,-0.044936,-2.16128,-0.0210692,1.67818,0.798957,0.884307,0.690137,-0.831677,-1.19871,-0.351571,1.8884,0.236073,0.940583,0.704355,-0.866323,-1.23838,-0.377356,1.96207,0.244759,0.200207,4.24374,-1.09155,9.73636,0.186174,1.41104,0.744517,-0.810993,1.46231,-0.870019,0.891533,0.209695,0.48761,0.387669
1922624,1,-1.52181,-0.486039,-0.0427076,-2.15925,-0.0200521,1.6746,0.797845,-1.51929,-0.483116,-0.0458108,-2.16252,-0.0214497,1.68016,0.799204,0.89142,0.703299,-0.842837,-1.20716,-0.355055,1.9331,0.244478,0.948817,0.708006,-0.874766,-1.24783,-0.380459,1.97553,0.246892,0.350963,3.5098,-0.913022,9.98233,0.225542,1.67471,0.789377,-0.777604,1.42564,-0.815722,0.923743,0.201196,0.48733,0.386427
1922625,1,-1.52088,-0.485333,-0.0435816,-2.16046,-0.0204322,1.67654,0.798103,-1.51833,-0.482404,-0.046694,-2.16378,-0.0218332,1.68215,0.799453,0.903987,0.699167,-0.850749,-1.21105,-0.363232,1.9275,0.25314,0.957052,0.711657,-0.883209,-1.25727,-0.383563,1.98898,0.249025,0.378734,3.10513,-0.762265,9.83554,0.304277,1.93289,0.712473,-0.733002,1.38786,-0.747662,0.954074,0.193012,0.487356,0.385713
1922626,1,-1.51993,-0.48462,-0.0444702,-2.16169,-0.0208079,1.67852,0.798361,-1.51736,-0.48169,-0.0475853,-2.16505,-0.0222198,1.68415,0.799704,0.917342,0.699011,-0.854173,-1.21299,-0.371241,1.93795,0.260465,0.964826,0.713606,-0.891374,-1.26494,-0.386519,1.99901,0.251088,0.303356,2.9028,-0.762265,9.63321,0.298784,1.92007,0.666697,-0.687989,1.36722,-0.680554,0.971806,0.184578,0.48732,0.385985
1922627,1,-1.51898,-0.483916,-0.0453455,-2.16294,-0.0211903,1.68049,0.798634,-1.51639,-0.480975,-0.0484849,-2.16632,-0.0226092,1.68616,0.799957,0.927538,0.700333,-0.873079,-1.22577,-0.376606,1.95015,0.265972,0.9726,0.715555,-0.899538,-1.27261,-0.389476,2.00904,0.25315,0.176403,2.77585,-0.889218,9.70859,0.282305,1.82302,0.49824,-0.648515,1.37639,-0.622116,0.970846,0.175669,0.487446,0.387359
1922628,1,-1.51802,-0.483193,-0.046249,-2.16421,-0.0215684,1.68252,0.798891,-1.51541,-0.480257,-0.0493926,-2.1676,-0.0230017,1.68818,0.800212,0.931943,0.701808,-0.881531,-1.23593,-0.37406,1.96657,0.261994,0.980374,0.717504,-0.907703,-1.28028,-0.392432,2.01907,0.255213,0.101024,2.57352,-0.988401,9.83554,0.202654,1.47512,0.440561,-0.610458,1.41017,-0.566008,0.955762,0.16661,0.488494,0.389632
1922629,1,-1.51705,-0.482474,-0.0471631,-2.1655,-0.0219423,1.68452,0.799158,-1.51442,-0.479538,-0.0503085,-2.16889,-0.0233971,1.6902,0.800469,0.941758,0.702956,-0.893526,-1.2402,-0.377431,1.98233,0.262368,0.988148,0.719453,-0.915868,-1.28795,-0.395389,2.0291,0.257276,-0.204456,2.19662,-1.09155,10.1093,0.134905,1.29476,0.343516,-0.570101,1.46305,-0.507147,0.929977,0.157591,0.490512,0.392425
1922630,1,-1.51606,-0.481722,-0.0480779,-2.16678,-0.0223304,1.68653,0.799433,-1.51343,-0.478816,-0.0512325,-2.17018,-0.0237954,1.69224,0.800729,0.951622,0.717552,-0.905228,-1.25776,-0.379252,1.98157,0.265113,0.995922,0.721402,-0.924032,-1.29562,-0.398345,2.03913,0.259339,-0.478199,1.36349,-1.11535,10.5536,0.0671556,1.35977,0.129282,-0.5284,1.52082,-0.44636,0.900672,0.148605,0.49345,0.395359
1922631,1,-1.5151,-0.480983,-0.0489877,-2.16809,-0.0227299,1.68858,0.799707,-1.51242,-0.478093,-0.0521647,-2.17149,-0.0241967,1.69429,0.80099,0.956033,0.721353,-0.906311,-1.26448,-0.383319,1.98814,0.269173,1.0037,0.723351,-0.932197,-1.30329,-0.401302,2.04916,0.261401,-0.252064,0.681122,-1.36926,10.9265,0.174272,1.33413,0.0587866,-0.488975,1.55949,-0.387888,0.881837,0.13962,0.497974,0.398055
1922632,1,-1.51413,-0.480261,-0.0499286,-2.16939,-0.023135,1.69061,0.799978,-1.51141,-0.477368,-0.053105,-2.1728,-0.024601,1.69635,0.801254,0.958193,0.723027,-0.92747,-1.29677,-0.390287,2.00171,0.274633,1.01147,0.7253,-0.940362,-1.31096,-0.404258,2.05918,0.263464,-0.125111,0.0225525,-1.29388,11.2995,0.270403,1.27554,0.0587866,-0.451121,1.56855,-0.331046,0.883467,0.130794,0.504659,0.400047
1922633,1,-1.51314,-0.479547,-0.0508644,-2.17071,-0.0235457,1.69273,0.800245,-1.51039,-0.476641,-0.0540536,-2.17412,-0.0250082,1.69842,0.801519,0.962785,0.716095,-0.932256,-1.2992,-0.393083,2.0291,0.267583,1.01924,0.727249,-0.948526,-1.31863,-0.407215,2.06921,0.265527,-0.0259286,-0.231354,-1.11535,11.6724,0.310686,0.651149,0.162241,-0.408315,1.55803,-0.267799,0.905049,0.122503,0.513107,0.400913
1922634,1,-1.51215,-0.47885,-0.0518208,-2.17204,-0.0239363,1.69483,0.800519,-1.50937,-0.475911,-0.0550103,-2.17544,-0.0254184,1.7005,0.801787,0.968448,0.723811,-0.931866,-1.29969,-0.392693,2.0392,0.26566,1.02702,0.729199,-0.956691,-1.3263,-0.410172,2.07924,0.26759,-0.0259286,-0.330536,-0.889218,11.9223,0.276811,0.509242,0.233652,-0.36312,1.54889,-0.203203,0.931247,0.114586,0.520934,0.400531
1922635,1,-1.51114,-0.478134,-0.0527703,-2.17333,-0.0243386,1.69687,0.800801,-1.50833,-0.47518,-0.0559751,-2.17678,-0.0258315,1.70259,0.802056,0.97747,0.714053,-0.93888,-1.29588,-0.393367,2.04519,0.270503,1.03479,0.731148,-0.964856,-1.33396,-0.413128,2.08927,0.269653,0.0256461,-0.48526,-0.81384,11.7478,0.298784,0.799464,0.233652,-0.324543,1.56077,-0.150671,0.943054,0.106446,0.525114,0.399074
1922636,1,-1.51012,-0.477412,-0.0537335,-2.17463,-0.024741,1.69895,0.801087,-1.50729,-0.474449,-0.0569478,-2.17812,-0.0262474,1.70469,0.802328,0.987385,0.710236,-0.946549,-1.29108,-0.401299,2.03862,0.278379,1.04208,0.731437,-0.972692,-1.33982,-0.415935,2.09587,0.271635,0.176403,-0.659821,-0.710691,11.5256,0.304277,1.03109,0.207102,-0.295811,1.61547,-0.114405,0.924596,0.0976273,0.523606,0.396801
1922637,1,-1.50913,-0.476687,-0.0547069,-2.17596,-0.0251655,1.70104,0.801392,-1.50624,-0.473717,-0.0579283,-2.17946,-0.0266662,1.70679,0.802602,0.991532,0.72093,-0.953118,-1.29658,-0.410242,2.05532,0.291987,1.04937,0.731726,-0.980528,-1.34567,-0.418742,2.10247,0.273617,0.477917,-0.965302,-0.762265,11.4502,0.446184,0.857142,0.0651953,-0.275545,1.71378,-0.091797,0.873608,0.0881272,0.516423,0.393938
1922638,1,-1.5081,-0.47595,-0.0556859,-2.17728,-0.0255766,1.70317,0.801673,-1.50518,-0.472985,-0.0589167,-2.18081,-0.0270877,1.7089,0.802877,0.993298,0.723927,-0.960841,-1.30008,-0.411048,2.07435,0.288784,1.05666,0.732016,-0.988364,-1.35152,-0.421549,2.10907,0.275599,0.505688,-1.26682,-0.559934,11.351,0.446184,0.754603,0.0972387,-0.259526,1.82857,-0.0768769,0.803763,0.078471,0.505175,0.390581
1922639,1,-1.50704,-0.475201,-0.0566663,-2.17863,-0.0259828,1.70528,0.801968,-1.50412,-0.472253,-0.0599129,-2.18217,-0.0275121,1.71101,0.803155,1.03192,0.726036,-0.955037,-1.30829,-0.409162,2.07369,0.294178,1.06394,0.732305,-0.9962,-1.35738,-0.424356,2.11567,0.277581,0.32716,-1.77066,-0.583737,11.6248,0.366533,0.99264,0.103647,-0.255492,1.94092,-0.0792632,0.726897,0.0688352,0.491249,0.386762
1922640,1,-1.50599,-0.474434,-0.0576492,-2.17998,-0.0263898,1.70737,0.802265,-1.50305,-0.47152,-0.0609169,-2.18353,-0.0279392,1.71313,0.803434,1.04614,0.738516,-0.961917,-1.32385,-0.407,2.07067,0.294058,1.07123,0.732595,-1.00404,-1.36323,-0.427163,2.12227,0.279564,0.0256461,-2.78232,-0.532163,12.1961,0.282305,1.22427,0.0459692,-0.28299,2.03315,-0.1228,0.657341,0.0589467,0.476573,0.382609
1922641,1,-1.50493,-0.473665,-0.0586406,-2.18136,-0.026797,1.70949,0.802582,-1.50197,-0.470787,-0.0619288,-2.1849,-0.0283692,1.71526,0.803716,1.04496,0.740932,-0.970722,-1.33323,-0.409608,2.0706,0.295467,1.07852,0.732884,-1.01187,-1.36908,-0.42997,2.12887,0.281546,-0.0497324,-3.84555,-0.710691,12.8427,0.282305,1.41104,-0.0584009,-0.339932,2.0848,-0.203453,0.610943,0.0490415,0.463556,0.378182
1922642,1,-1.50389,-0.47291,-0.0596323,-2.18276,-0.0272135,1.71159,0.802886,-1.50088,-0.470054,-0.0629485,-2.18628,-0.028802,1.7174,0.803999,1.04047,0.743131,-0.967528,-1.35003,-0.410384,2.12586,0.297171,1.08581,0.733173,-1.01971,-1.37494,-0.432777,2.13547,0.283528,0.0256461,-4.78183,-1.06378,13.7354,0.24843,1.53372,-0.0190333,-0.406888,2.0948,-0.296954,0.590635,0.0396804,0.453026,0.373337
1922643,1,-1.50281,-0.472166,-0.0606233,-2.18414,-0.0276334,1.71373,0.803178,-1.49979,-0.469321,-0.0639761,-2.18766,-0.0292376,1.71954,0.804285,1.04737,0.742137,-0.976533,-1.3605,-0.411006,2.12048,0.295431,1.0931,0.733463,-1.02754,-1.38079,-0.435584,2.14208,0.28551,-0.00212494,-5.36105,-1.24231,14.4812,0.236528,1.63626,0.071604,-0.472591,2.07443,-0.390422,0.591867,0.0310961,0.444748,0.367911
1922644,1,-1.50171,-0.471428,-0.0616576,-2.18553,-0.0280449,1.71585,0.803469,-1.49869,-0.468587,-0.0650114,-2.18904,-0.0296759,1.72169,0.804572,1.05924,0.739753,-0.984532,-1.36224,-0.415918,2.10833,0.293474,1.10038,0.733752,-1.03538,-1.38664,-0.438391,2.14868,0.287492,-0.279835,-5.69034,-1.01617,14.9811,0.202654,1.93289,0.252878,-0.533411,2.03851,-0.479269,0.607837,0.0230695,0.438761,0.361921
1922645,1,-1.50063,-0.470696,-0.0626854,-2.18691,-0.0284539,1.71794,0.803749,-1.49758,-0.467853,-0.0660547,-2.19044,-0.0301171,1.72385,0.804862,1.06098,0.739407,-1.02125,-1.39009,-0.411356,2.10524,0.291858,1.10767,0.734042,-1.04322,-1.39249,-0.441198,2.15528,0.289475,-0.402821,-5.94424,-0.861447,15.1517,0.078142,2.24234,0.479014,-0.578957,1.99579,-0.547776,0.636987,0.0155712,0.435973,0.355565
1922646,1,-1.49955,-0.469944,-0.0637337,-2.18829,-0.0288717,1.72007,0.804038,-1.49647,-0.46712,-0.0671053,-2.19183,-0.030561,1.726,0.805153,1.06386,0.742294,-1.02657,-1.38576,-0.411601,2.10294,0.2853,1.11446,0.732909,-1.05068,-1.39671,-0.443852,2.15876,0.291366,-0.176685,-6.37271,-0.559934,15.0525,0.0387743,2.45474,0.628245,-0.594044,1.94407,-0.573618,0.683086,0.00884169,0.437581,0.349213
1922647,1,-1.4985,-0.469206,-0.0647914,-2.18969,-0.0292841,1.72224,0.804324,-1.49535,-0.466388,-0.0681635,-2.19323,-0.0310075,1.72817,0.805446,1.05936,0.740444,-1.03729,-1.38273,-0.413311,2.11931,0.287649,1.12125,0.731776,-1.05815,-1.40092,-0.446506,2.16225,0.293257,0.350963,-6.67422,-0.202878,14.9295,0.0387743,2.26797,0.757334,-0.576968,1.89185,-0.555067,0.734738,0.00248969,0.442709,0.343423
1922648,1,-1.49742,-0.468449,-0.0658386,-2.19109,-0.0297049,1.72439,0.804609,-1.49422,-0.465658,-0.0692291,-2.19464,-0.0314567,1.73033,0.805742,1.05509,0.74374,-1.04733,-1.38485,-0.415423,2.12294,0.280802,1.12803,0.730643,-1.06562,-1.40513,-0.44916,2.16574,0.295148,0.831005,-7.03128,0.0986355,15.2033,-0.0289747,2.0162,0.822336,-0.531337,1.85243,-0.499068,0.775583,-0.00401333,0.44956,0.338751
