shamilmamedov/beam_handling/log/param_estimation_ICRA/ocp_Xup_15cm_0.35s_6.csv
duration, success rate, q[0], q[1], q[2], q[3], q[4], q[5], q[6],q_d[0], q_d[1], q_d[2], q_d[3], q_d[4], q_d[5], q_d[6],dq[0], dq[1], dq[2], dq[3], dq[4], dq[5], dq[6],dq_d[0], dq_d[1], dq_d[2], dq_d[3], dq_d[4], dq_d[5], dq_d[6],tau_J[0], tau_J[1], tau_J[2], tau_J[3], tau_J[4], tau_J[5], tau_J[6],tau_ext_hat_filtered[0], tau_ext_hat_filtered[1], tau_ext_hat_filtered[2], tau_ext_hat_filtered[3], tau_ext_hat_filtered[4], tau_ext_hat_filtered[5], tau_ext_hat_filtered[6]
4372983,0,-1.57028,-0.522776,0.000197024,-2.09586,1.57071,1.57173,0.785028,-1.5708,-0.523599,4.87908e-08,-2.09439,1.5708,1.5708,0.785397,-0.000472342,0.000515248,0.00117762,-0.000810317,-0.00035942,-0.000216686,0.00060455,0,0,0,0,0,0,0,-0.581349,-10.3162,-0.611508,20.9717,0.802324,-0.694677,0.122873,-0.594088,-1.15788,-0.17566,2.40015,0.227005,-0.69829,0.183872
4372984,1,-1.57028,-0.522777,0.0001946,-2.09585,1.57071,1.57173,0.785029,-1.5708,-0.523599,4.87908e-08,-2.09439,1.5708,1.5708,0.785397,0.000241917,-0.000213313,0.000135465,0.000666214,-3.61627e-05,9.29015e-05,0.000165675,0,0,0,0,0,0,0,-0.605152,-10.2924,-0.583737,20.9201,0.796831,-0.701085,0.129282,-0.59467,-1.15804,-0.176481,2.40056,0.227049,-0.698232,0.183755
4372985,1,-1.57028,-0.522777,0.000196572,-2.09586,1.57071,1.57173,0.785025,-1.5708,-0.523599,4.87908e-08,-2.09439,1.5708,1.5708,0.785397,0.000161278,-0.000142209,9.03101e-05,-0.000762283,0.000179342,-0.000175425,-0.00111025,0,0,0,0,0,0,0,-0.605152,-10.2924,-0.583737,20.9717,0.791338,-0.694677,0.162241,-0.595579,-1.15752,-0.177799,2.40056,0.227108,-0.698113,0.18365
4372986,1,-1.57028,-0.522776,0.000195559,-2.09586,1.57071,1.57173,0.785031,-1.5708,-0.523599,4.87908e-08,-2.09439,1.5708,1.5708,0.785397,-0.000449293,0.000462006,-0.000496605,0.000141425,0.000119561,0.000120409,0.00119261,0,0,0,0,0,0,0,-0.581349,-10.3162,-0.559934,20.9439,0.791338,-0.701085,0.110056,-0.596101,-1.15685,-0.178477,2.40052,0.227162,-0.698044,0.183557
4372987,1,-1.57028,-0.522781,0.000197448,-2.09586,1.57071,1.57173,0.785022,-1.5708,-0.523599,4.87908e-08,-2.09439,1.5708,1.5708,0.785397,-0.000856341,-0.00145523,0.000225742,-0.00055533,-0.000123743,-0.000157086,-0.00113771,0,0,0,0,0,0,0,-0.557545,-10.2408,-0.583737,20.9717,0.796831,-0.694677,0.162241,-0.595851,-1.15578,-0.178037,2.40037,0.227192,-0.698075,0.183481
4372988,1,-1.57028,-0.522779,0.000197521,-2.09585,1.57071,1.57173,0.785019,-1.5708,-0.523599,4.87908e-08,-2.09439,1.5708,1.5708,0.785397,0.00119234,-0.000413344,0.000150495,0.00194983,0.000120955,0.000132635,-0.00147055,0,0,0,0,0,0,0,-0.632923,-10.2646,-0.583737,20.8725,0.791338,-0.701085,0.181467,-0.595553,-1.15211,-0.177565,2.39874,0.227173,-0.698073,0.183425
4372989,1,-1.57028,-0.522775,0.000193745,-2.09585,1.57071,1.57173,0.785031,-1.5708,-0.523599,4.87908e-08,-2.09439,1.5708,1.5708,0.785397,-0.00041153,0.000374051,-0.000456482,0.000743074,8.06368e-05,8.84232e-05,0.00213921,0,0,0,0,0,0,0,-0.581349,-10.2924,-0.559934,20.8963,0.791338,-0.701085,0.0972387,-0.595683,-1.14688,-0.177648,2.39569,0.227112,-0.69799,0.183417
4372990,1,-1.57028,-0.522778,0.000196662,-2.09586,1.57071,1.57173,0.785026,-1.5708,-0.523599,4.87908e-08,-2.09439,1.5708,1.5708,0.785397,0.000932073,-0.000957058,0.000902104,-0.000618241,5.37579e-05,-0.00017841,-0.000743999,0,0,0,0,0,0,0,-0.632923,-10.2408,-0.611508,20.9439,0.791338,-0.694677,0.155832,-0.596099,-1.14263,-0.178106,2.39291,0.227064,-0.697879,0.183463
4372991,1,-1.57028,-0.522774,0.000196428,-2.09586,1.57071,1.57173,0.78503,-1.5708,-0.523599,4.87908e-08,-2.09439,1.5708,1.5708,0.785397,-0.000585044,0.000568387,0.000601403,-0.000412161,0.000273198,-0.00011894,0.000724704,0,0,0,0,0,0,0,-0.581349,-10.2924,-0.611508,20.9439,0.784929,-0.694677,0.122873,-0.597088,-1.14023,-0.179515,2.39162,0.227094,-0.697697,0.183525
4372992,1,-1.57028,-0.522776,0.000194861,-2.09586,1.57071,1.57173,0.785031,-1.5708,-0.523599,4.87908e-08,-2.09439,1.5708,1.5708,0.785397,-0.000946841,0.000378925,-0.000805491,-0.000274774,0.000589033,-7.92934e-05,0.000957854,0,0,0,0,0,0,0,-0.557545,-10.2924,-0.559934,20.9439,0.773943,-0.694677,0.110056,-0.597673,-1.14051,-0.180471,2.39206,0.227168,-0.697598,0.18358
4372993,1,-1.57028,-0.522777,0.000195545,-2.09585,1.57071,1.57173,0.785025,-1.5708,-0.523599,4.87908e-08,-2.09439,1.5708,1.5708,0.785397,-0.000631228,0.000252616,-0.000536994,0.000930441,-1.42126e-05,0.000421856,-0.00129421,0,0,0,0,0,0,0,-0.557545,-10.2924,-0.559934,20.8963,0.784929,-0.707494,0.162241,-0.596706,-1.14251,-0.179199,2.39319,0.227188,-0.697742,0.183612
4372994,1,-1.57028,-0.522776,0.000195773,-2.09586,1.57071,1.57173,0.785027,-1.5708,-0.523599,4.87908e-08,-2.09439,1.5708,1.5708,0.785397,0.000135994,0.000725223,-0.000357996,-0.00049333,-9.47504e-06,4.38781e-05,0.000595255,0,0,0,0,0,0,0,-0.581349,-10.3162,-0.559934,20.9439,0.784929,-0.701085,0.122873,-0.594926,-1.14499,-0.17673,2.39426,0.227145,-0.698008,0.183612
4372995,1,-1.57028,-0.522779,0.00019752,-2.09586,1.57071,1.57173,0.785028,-1.5708,-0.523599,4.87908e-08,-2.09439,1.5708,1.5708,0.785397,0.000647474,-0.00127976,0.000318148,-0.000328886,-0.000243676,0.000266611,0.000159478,0,0,0,0,0,0,0,-0.605152,-10.2408,-0.583737,20.9439,0.791338,-0.707494,0.129282,-0.593693,-1.14713,-0.175068,2.39531,0.227092,-0.698185,0.1836
4372996,1,-1.57028,-0.52278,0.000197545,-2.09586,1.57071,1.57173,0.785021,-1.5708,-0.523599,4.87908e-08,-2.09439,1.5708,1.5708,0.785397,0.00043165,-0.000853171,0.000212099,-0.000219258,-0.00016245,-0.000296977,-0.00135174,0,0,0,0,0,0,0,-0.605152,-10.2408,-0.583737,20.9439,0.791338,-0.694677,0.16865,-0.59363,-1.14678,-0.17513,2.39553,0.227036,-0.698159,0.183579
4372997,1,-1.57028,-0.522777,0.000197554,-2.09585,1.57071,1.57173,0.785027,-1.5708,-0.523599,4.87908e-08,-2.09439,1.5708,1.5708,0.785397,0.000287766,0.000637645,0.000141399,0.00152426,-0.0001083,3.93741e-05,0.000319541,0,0,0,0,0,0,0,-0.605152,-10.2924,-0.583737,20.8725,0.791338,-0.701085,0.135691,-0.594339,-1.14457,-0.176318,2.39468,0.22696,-0.698005,0.18356
4372998,1,-1.57028,-0.522777,0.000197557,-2.09586,1.57071,1.57173,0.785027,-1.5708,-0.523599,4.87908e-08,-2.09439,1.5708,1.5708,0.785397,-0.000364968,0.000425097,9.42661e-05,-0.00065426,-0.000275651,-0.00021111,0.000925104,0,0,0,0,0,0,0,-0.581349,-10.2924,-0.583737,20.9439,0.796831,-0.694677,0.116465,-0.595077,-1.14351,-0.177553,2.39394,0.226885,-0.697876,0.183565
4372999,1,-1.57028,-0.522777,0.000195887,-2.09585,1.57071,1.57173,0.785024,-1.5708,-0.523599,4.87908e-08,-2.09439,1.5708,1.5708,0.785397,-0.000243312,0.000283398,-0.000493968,0.000120639,1.96834e-05,0.000333978,-0.00107869,0,0,0,0,0,0,0,-0.581349,-10.2924,-0.559934,20.9201,0.791338,-0.707494,0.162241,-0.595247,-1.14457,-0.177986,2.39423,0.226835,-0.697863,0.183581
4373000,1,-1.57028,-0.522777,0.000193757,-2.09585,1.57071,1.57173,0.785026,-1.5708,-0.523599,4.87908e-08,-2.09439,1.5708,1.5708,0.785397,-0.000162208,0.000188932,-0.000329312,8.04258e-05,-0.000190328,-0.000252066,-0.000244405,0,0,0,0,0,0,0,-0.581349,-10.2924,-0.559934,20.9201,0.796831,-0.694677,0.149424,-0.594698,-1.14652,-0.177347,2.39506,0.226796,-0.697967,0.183594
4373001,1,-1.57028,-0.522779,0.000196848,-2.09585,1.57071,1.57173,0.785025,-1.5708,-0.523599,4.87908e-08,-2.09439,1.5708,1.5708,0.785397,-0.000108139,-0.000523659,0.000337271,0.000610429,0.000313924,6.93151e-05,0.000345689,0,0,0,0,0,0,0,-0.581349,-10.2646,-0.583737,20.8963,0.784929,-0.701085,0.135691,-0.593981,-1.14755,-0.176446,2.39532,0.226747,-0.698085,0.183625
4373002,1,-1.57028,-0.522779,0.000195651,-2.09585,1.57071,1.57173,0.785024,-1.5708,-0.523599,4.87908e-08,-2.09439,1.5708,1.5708,0.785397,0.00048472,-0.000349106,-0.000331965,-0.000149859,-2.80763e-05,4.62101e-05,-0.000752885,0,0,0,0,0,0,0,-0.605152,-10.2646,-0.559934,20.9201,0.791338,-0.701085,0.162241,-0.593621,-1.14681,-0.176062,2.39467,0.226693,-0.698126,0.183686
4373003,1,-1.57028,-0.522776,0.000195348,-2.09586,1.57071,1.57173,0.785028,-1.5708,-0.523599,4.87908e-08,-2.09439,1.5708,1.5708,0.785397,-0.000233666,0.000973688,0.000335502,-0.000656718,-1.87175e-05,3.08067e-05,0.00143086,0,0,0,0,0,0,0,-0.581349,-10.3162,-0.583737,20.9439,0.791338,-0.701085,0.110056,-0.593572,-1.14645,-0.176119,2.39437,0.226671,-0.698122,0.18377
4373004,1,-1.57028,-0.522777,0.00019877,-2.09586,1.57071,1.57173,0.785029,-1.5708,-0.523599,4.87908e-08,-2.09439,1.5708,1.5708,0.785397,-0.000155777,9.23137e-05,0.000873282,-0.00108743,-1.24784e-05,2.05378e-05,0.000479187,0,0,0,0,0,0,0,-0.581349,-10.2924,-0.611508,20.9717,0.791338,-0.701085,0.122873,-0.593852,-1.14863,-0.176757,2.39574,0.22673,-0.698099,0.183865
4373005,1,-1.57028,-0.522779,0.000197131,-2.09586,1.57071,1.57173,0.785023,-1.5708,-0.523599,4.87908e-08,-2.09439,1.5708,1.5708,0.785397,0.000452961,-0.000588071,0.000582188,-0.000724951,-0.00041522,-0.000223667,-0.00185068,0,0,0,0,0,0,0,-0.605152,-10.2646,-0.611508,20.9717,0.802324,-0.694677,0.181467,-0.59472,-1.15152,-0.178414,2.3979,0.226851,-0.697994,0.183942
4373006,1,-1.57028,-0.522779,0.000194635,-2.09586,1.57071,1.57173,0.785028,-1.5708,-0.523599,4.87908e-08,-2.09439,1.5708,1.5708,0.785397,0.000301974,-0.00094886,-0.000261489,0.000166314,0.000130088,-0.000149111,0.00141107,0,0,0,0,0,0,0,-0.605152,-10.2408,-0.583737,20.9439,0.791338,-0.694677,0.110056,-0.59588,-1.1521,-0.180497,2.39907,0.226954,-0.697812,0.184003
4373007,1,-1.57028,-0.522777,0.000194913,-2.09586,1.57071,1.57173,0.785023,-1.5708,-0.523599,4.87908e-08,-2.09439,1.5708,1.5708,0.785397,0.000201316,-7.57611e-05,-0.000731138,-0.000538738,8.67252e-05,0.00037531,-0.00027999,0,0,0,0,0,0,0,-0.605152,-10.2646,-0.559934,20.9717,0.791338,-0.707494,0.143015,-0.596462,-1.15041,-0.181572,2.39895,0.226989,-0.697692,0.184069
4373008,1,-1.57028,-0.522773,0.000193614,-2.09586,1.57071,1.57173,0.785025,-1.5708,-0.523599,4.87908e-08,-2.09439,1.5708,1.5708,0.785397,0.000783824,0.00115592,-0.00113704,0.000290455,-0.000349084,1.28479e-05,-0.000661378,0,0,0,0,0,0,0,-0.632923,-10.3162,-0.532163,20.9439,0.802324,-0.701085,0.155832,-0.59609,-1.14956,-0.180993,2.39898,0.226989,-0.697733,0.184128
4373009,1,-1.57028,-0.522776,0.000195319,-2.09585,1.57071,1.57173,0.785031,-1.5708,-0.523599,4.87908e-08,-2.09439,1.5708,1.5708,0.785397,-0.000683876,0.0002138,0.0004484,0.00130726,-2.92723e-05,-0.000228794,0.0012545,0,0,0,0,0,0,0,-0.581349,-10.2924,-0.583737,20.8963,0.796831,-0.694677,0.110056,-0.595247,-1.15043,-0.179538,2.3993,0.226979,-0.697886,0.184182
4373010,1,-1.57028,-0.522777,0.000191062,-2.09586,1.57071,1.57173,0.785025,-1.5708,-0.523599,4.87908e-08,-2.09439,1.5708,1.5708,0.785397,0.000100894,0.000142534,-0.000907493,-0.000891731,-1.95149e-05,0.000322189,-0.00109645,0,0,0,0,0,0,0,-0.605152,-10.2924,-0.532163,20.9717,0.796831,-0.707494,0.162241,-0.594294,-1.15138,-0.177893,2.39928,0.226966,-0.698071,0.184236
4373011,1,-1.57028,-0.522775,0.000196599,-2.09586,1.57071,1.57173,0.785031,-1.5708,-0.523599,4.87908e-08,-2.09439,1.5708,1.5708,0.785397,0.000716877,9.50224e-05,0.000601431,5.51268e-05,-1.30099e-05,-2.25664e-05,0.00120182,0,0,0,0,0,0,0,-0.632923,-10.2924,-0.583737,20.9439,0.796831,-0.701085,0.110056,-0.593616,-1.15228,-0.176608,2.3995,0.226992,-0.698218,0.184278
4373012,1,-1.57028,-0.522777,0.000197238,-2.09586,1.57071,1.57173,0.785032,-1.5708,-0.523599,4.87908e-08,-2.09439,1.5708,1.5708,0.785397,-0.000171696,6.33483e-05,0.000400954,3.67512e-05,-8.67328e-06,-0.000252403,0.00103857,0,0,0,0,0,0,0,-0.605152,-10.2924,-0.583737,20.9439,0.796831,-0.694677,0.103647,-0.593843,-1.15301,-0.17661,2.39991,0.227073,-0.698237,0.184308
4373013,1,-1.57028,-0.522775,0.000195321,-2.09586,1.57071,1.57173,0.785025,-1.5708,-0.523599,4.87908e-08,-2.09439,1.5708,1.5708,0.785397,-0.00122809,4.22322e-05,0.000267303,2.45008e-05,-0.00865451,6.90901e-05,-0.00171512,0,0,0,0,0,0,0,-0.557545,-10.2924,-0.583737,20.9439,0.784929,-0.701085,0.16865,-0.594429,-1.15329,-0.177267,2.40018,0.227209,-0.698212,0.18431
4373014,1,-1.57028,-0.522775,0.000196812,-2.09586,1.57071,1.57173,0.785027,-1.5708,-0.523599,4.87908e-08,-2.09439,1.5708,1.5708,0.785397,0.000294899,2.81548e-05,0.000178202,1.63339e-05,-0.00652714,-0.000428658,-0.000431335,0,0,0,0,0,0,0,-0.605152,-10.2924,-0.583737,20.9439,0.784929,-0.688268,0.149424,-0.594772,-1.15345,-0.177767,2.40055,0.227417,-0.69824,0.18428
4373015,1,-1.57028,-0.522778,0.000193508,-2.09585,1.57071,1.57173,0.785024,-1.5708,-0.523599,4.87908e-08,-2.09439,1.5708,1.5708,0.785397,-0.000360213,-0.000630844,-0.000438011,0.000567701,0.00410929,0.000188946,-5.01978e-05,0,0,0,0,0,0,0,-0.581349,-10.2646,-0.559934,20.9201,0.791338,-0.701085,0.143015,-0.594949,-1.1527,-0.178018,2.40045,0.227599,-0.698272,0.184248
4373016,1,-1.57028,-0.522783,0.000193146,-2.09586,1.57071,1.57173,0.785026,-1.5708,-0.523599,4.87908e-08,-2.09439,1.5708,1.5708,0.785397,0.00031667,-0.00162699,-0.000941621,-0.000827958,0.00308564,-0.000348754,-0.000270824,0,0,0,0,0,0,0,-0.605152,-10.213,-0.532163,20.9717,0.791338,-0.688268,0.149424,-0.594579,-1.1495,-0.177223,2.39907,0.227611,-0.698309,0.184225
4373017,1,-1.57028,-0.522777,0.000195623,-2.09586,1.57071,1.57173,0.78503,-1.5708,-0.523599,4.87908e-08,-2.09439,1.5708,1.5708,0.785397,0.000211113,0.000771381,2.18665e-05,-0.000551972,0.00231667,0.000242215,0.00104015,0,0,0,0,0,0,0,-0.605152,-10.2924,-0.559934,20.9717,0.791338,-0.701085,0.116465,-0.593833,-1.14555,-0.17564,2.39757,0.227512,-0.698346,0.184216
4373018,1,-1.57028,-0.522777,0.00019747,-2.09585,1.57071,1.57173,0.785028,-1.5708,-0.523599,4.87908e-08,-2.09439,1.5708,1.5708,0.785397,-0.00041607,0.000514254,0.00057139,0.00139526,0.00173913,-7.58821e-05,-1.8641e-05,0,0,0,0,0,0,0,-0.581349,-10.2924,-0.583737,20.8963,0.791338,-0.694677,0.135691,-0.593451,-1.14388,-0.174567,2.39709,0.22742,-0.698337,0.184218
4373019,1,-1.57028,-0.522779,0.000190108,-2.09586,1.57071,1.57173,0.785021,-1.5708,-0.523599,4.87908e-08,-2.09439,1.5708,1.5708,0.785397,0.000929046,-0.000306778,-0.00138231,-0.000183453,0.00130544,0.00042413,-0.00123313,0,0,0,0,0,0,0,-0.632923,-10.2646,-0.508359,20.9439,0.791338,-0.707494,0.16865,-0.593329,-1.14355,-0.173862,2.39673,0.227328,-0.698305,0.184219
4373022,0.97,-1.57028,-0.522777,0.000195111,-2.09585,1.57071,1.57173,0.785025,-1.5708,-0.523599,4.87908e-08,-2.09439,1.5708,1.5708,0.785397,-0.000322784,0.000558717,0.000683427,0.00142016,9.21759e-05,-0.000164437,-0.0012809,0,0,0,0,0,0,0,-0.581349,-10.2924,-0.583737,20.8963,0.802324,-0.694677,0.162241,-0.592619,-1.14375,-0.171271,2.39765,0.227153,-0.698292,0.184244
4373023,0.97,-1.57028,-0.522774,0.000196742,-2.09586,1.57071,1.57173,0.785027,-1.5708,-0.523599,4.87908e-08,-2.09439,1.5708,1.5708,0.785397,0.000991236,0.0014861,0.000455618,-0.000166848,0.000514552,-0.000346984,0.000841488,0,0,0,0,0,0,0,-0.632923,-10.34,-0.583737,20.9439,0.791338,-0.688268,0.116465,-0.593655,-1.14531,-0.172462,2.39836,0.227176,-0.698132,0.184232
4373024,0.97,-1.57028,-0.522777,0.000195616,-2.09586,1.57071,1.57173,0.785028,-1.5708,-0.523599,4.87908e-08,-2.09439,1.5708,1.5708,0.785397,1.12103e-05,-0.000122889,-0.000253066,-0.000111232,0.000377684,0.000243395,0.00103571,0,0,0,0,0,0,0,-0.605152,-10.2924,-0.559934,20.9439,0.791338,-0.701085,0.103647,-0.595122,-1.14858,-0.174258,2.39978,0.22725,-0.697929,0.184206
4373025,0.97,-1.57028,-0.522775,0.000193666,-2.09586,1.57071,1.57173,0.785025,-1.5708,-0.523599,4.87908e-08,-2.09439,1.5708,1.5708,0.785397,0.000657087,-8.19263e-05,-0.000168711,-7.41546e-05,-0.00832616,0.000162264,-0.00100495,0,0,0,0,0,0,0,-0.632923,-10.2924,-0.559934,20.9439,0.773943,-0.701085,0.149424,-0.596338,-1.15144,-0.175619,2.40129,0.227358,-0.697766,0.184155
4373026,0.97,-1.57028,-0.522777,0.000196636,-2.09585,1.57071,1.57173,0.785026,-1.5708,-0.523599,4.87908e-08,-2.09439,1.5708,1.5708,0.785397,-0.000768368,-0.000704231,0.00109395,0.00106419,-0.00670887,0.000108176,0.000313379,0,0,0,0,0,0,0,-0.581349,-10.2646,-0.611508,20.8963,0.784929,-0.701085,0.122873,-0.597409,-1.1519,-0.176855,2.40177,0.227498,-0.697624,0.184078
4373027,0.97,-1.57028,-0.522775,0.00019447,-2.09585,1.57071,1.57173,0.785025,-1.5708,-0.523599,4.87908e-08,-2.09439,1.5708,1.5708,0.785397,-0.000512245,0.000736938,7.96873e-05,0.000152646,-0.00503597,7.21171e-05,-2.84396e-05,0,0,0,0,0,0,0,-0.581349,-10.3162,-0.583737,20.9201,0.784929,-0.701085,0.129282,-0.598387,-1.15076,-0.178176,2.40131,0.227635,-0.697502,0.183986
4373028,0.97,-1.57028,-0.522777,0.000194858,-2.09586,1.57071,1.57173,0.785024,-1.5708,-0.523599,4.87908e-08,-2.09439,1.5708,1.5708,0.785397,-0.000898309,-6.55198e-05,-0.000503687,-0.000455048,-0.00401722,4.80781e-05,-0.00123966,0,0,0,0,0,0,0,-0.557545,-10.2924,-0.559934,20.9439,0.791338,-0.701085,0.162241,-0.598519,-1.15039,-0.178388,2.4012,0.227729,-0.69752,0.183874
4373029,0.97,-1.57028,-0.522774,0.000198704,-2.09585,1.57071,1.57173,0.785029,-1.5708,-0.523599,4.87908e-08,-2.09439,1.5708,1.5708,0.785397,0.000514751,0.00106994,0.00142745,0.000253447,-0.00340196,3.20521e-05,0.00063162,0,0,0,0,0,0,0,-0.605152,-10.34,-0.635312,20.9201,0.802324,-0.701085,0.122873,-0.598242,-1.15171,-0.178071,2.40203,0.2278,-0.697609,0.18375
4373030,0.97,-1.57028,-0.522779,0.000194603,-2.09585,1.57071,1.57173,0.785029,-1.5708,-0.523599,4.87908e-08,-2.09439,1.5708,1.5708,0.785397,0.000343168,-0.00104994,-0.000254795,0.000168965,-0.00209875,-0.000215991,0.000183721,0,0,0,0,0,0,0,-0.605152,-10.2646,-0.583737,20.9201,0.791338,-0.694677,0.129282,-0.598688,-1.15305,-0.178863,2.40278,0.227853,-0.697578,0.183642
4373031,0.97,-1.57028,-0.522777,0.000196391,-2.09586,1.57071,1.57173,0.785021,-1.5708,-0.523599,4.87908e-08,-2.09439,1.5708,1.5708,0.785397,0.000228778,-0.000699961,0.000479751,-0.00109378,-0.00157743,9.3365e-05,-0.00133558,0,0,0,0,0,0,0,-0.605152,-10.2646,-0.611508,20.9717,0.791338,-0.701085,0.16865,-0.599512,-1.15235,-0.180176,2.40264,0.227859,-0.697449,0.183542
4373032,0.97,-1.57028,-0.522775,0.000194389,-2.09586,1.57071,1.57173,0.785028,-1.5708,-0.523599,4.87908e-08,-2.09439,1.5708,1.5708,0.785397,-0.000404293,0.000182973,-0.00032978,-7.95746e-05,-0.000947957,-0.000175116,0.000567675,0,0,0,0,0,0,0,-0.581349,-10.2924,-0.583737,20.9439,0.784929,-0.694677,0.129282,-0.59995,-1.15068,-0.180911,2.40233,0.227829,-0.697348,0.183452
4373033,0.97,-1.57028,-0.522776,0.000194371,-2.09586,1.57071,1.57173,0.785029,-1.5708,-0.523599,4.87908e-08,-2.09439,1.5708,1.5708,0.785397,-0.000826341,-0.000527632,-0.000219853,-5.30498e-05,-0.000732244,-0.000116744,0.000615809,0,0,0,0,0,0,0,-0.557545,-10.2646,-0.583737,20.9439,0.784929,-0.694677,0.122873,-0.599498,-1.14941,-0.18039,2.40217,0.227752,-0.697373,0.18339
4373034,0.97,-1.57028,-0.522776,0.000192695,-2.09585,1.57071,1.57173,0.785026,-1.5708,-0.523599,4.87908e-08,-2.09439,1.5708,1.5708,0.785397,5.91821e-06,0.000297859,-0.000703381,0.000521445,-0.000800725,-7.78292e-05,-0.000810164,0,0,0,0,0,0,0,-0.581349,-10.2924,-0.559934,20.9201,0.791338,-0.694677,0.155832,-0.598107,-1.14811,-0.178524,2.40163,0.227606,-0.697526,0.183349
4373035,0.97,-1.57028,-0.522779,0.000192693,-2.09585,1.57071,1.57173,0.785029,-1.5708,-0.523599,4.87908e-08,-2.09439,1.5708,1.5708,0.785397,-0.000552866,-0.000451041,-0.000468921,0.00034763,-0.000352861,0.000185473,0.000443235,0,0,0,0,0,0,0,-0.557545,-10.2646,-0.559934,20.9201,0.784929,-0.701085,0.129282,-0.596217,-1.14666,-0.175922,2.40064,0.227405,-0.697738,0.183316
4373036,0.97,-1.57028,-0.522777,0.000194362,-2.09585,1.57071,1.57173,0.785027,-1.5708,-0.523599,4.87908e-08,-2.09439,1.5708,1.5708,0.785397,-0.000368578,0.00034892,0.000244198,0.000788565,-0.000514902,0.000361007,-0.000450495,0,0,0,0,0,0,0,-0.557545,-10.2924,-0.583737,20.8963,0.791338,-0.707494,0.149424,-0.59429,-1.14511,-0.173343,2.39926,0.227182,-0.697944,0.183299
4373037,0.97,-1.57028,-0.522777,0.000192692,-2.09586,1.57071,1.57173,0.785024,-1.5708,-0.523599,4.87908e-08,-2.09439,1.5708,1.5708,0.785397,0.000311094,0.000232613,-0.000394013,-0.000587914,-0.000137636,-0.000471405,-0.00030033,0,0,0,0,0,0,0,-0.581349,-10.2924,-0.559934,20.9439,0.784929,-0.688268,0.149424,-0.59283,-1.1444,-0.171573,2.39821,0.226988,-0.698084,0.183297
4373038,0.97,-1.57028,-0.522777,0.000198442,-2.09585,1.57071,1.57173,0.785031,-1.5708,-0.523599,4.87908e-08,-2.09439,1.5708,1.5708,0.785397,0.000207396,0.000155076,0.00094375,0.00016487,-0.000352911,-7.69112e-05,0.0014952,0,0,0,0,0,0,0,-0.581349,-10.2924,-0.611508,20.9201,0.791338,-0.694677,0.103647,-0.592257,-1.14512,-0.171194,2.39811,0.226861,-0.698097,0.183315
4373039,0.97,-1.57028,-0.522776,0.000195072,-2.09585,1.57071,1.57173,0.785025,-1.5708,-0.523599,4.87908e-08,-2.09439,1.5708,1.5708,0.785397,0.00134469,0.000660196,-2.0447e-05,0.000109913,-1.57614e-05,-5.12741e-05,-0.00117334,0,0,0,0,0,0,0,-0.632923,-10.3162,-0.583737,20.9201,0.784929,-0.694677,0.162241,-0.592852,-1.14674,-0.172576,2.39856,0.226796,-0.697936,0.183344
4373040,0.97,-1.57028,-0.522776,0.000194599,-2.09586,1.57071,1.57173,0.785025,-1.5708,-0.523599,4.87908e-08,-2.09439,1.5708,1.5708,0.785397,0.000246846,0.00044013,-1.36313e-05,-0.000483537,-0.000261251,-3.41827e-05,-0.00101958,0,0,0,0,0,0,0,-0.605152,-10.3162,-0.583737,20.9439,0.791338,-0.694677,0.16865,-0.594107,-1.14932,-0.174858,2.3995,0.226772,-0.697683,0.183367
4373041,0.97,-1.57028,-0.522777,0.000196572,-2.09586,1.57071,1.57173,0.785032,-1.5708,-0.523599,4.87908e-08,-2.09439,1.5708,1.5708,0.785397,0.000814178,-0.000913006,-9.08754e-06,-0.000322358,0.000256603,0.00021457,0.00172777,0,0,0,0,0,0,0,-0.632923,-10.2646,-0.583737,20.9439,0.779436,-0.701085,0.103647,-0.59528,-1.15163,-0.176906,2.40053,0.226751,-0.697437,0.183404
4373042,0.97,-1.57028,-0.522777,0.000197229,-2.09585,1.57071,1.57173,0.785027,-1.5708,-0.523599,4.87908e-08,-2.09439,1.5708,1.5708,0.785397,-0.000106829,-0.00060867,-6.05836e-06,0.000341907,0.00016354,0.000143047,-0.000543571,0,0,0,0,0,0,0,-0.605152,-10.2646,-0.583737,20.9201,0.779436,-0.701085,0.149424,-0.596166,-1.15143,-0.178437,2.40049,0.226681,-0.697212,0.183469
4373043,0.97,-1.57028,-0.522773,0.000195778,-2.09585,1.57071,1.57173,0.785028,-1.5708,-0.523599,4.87908e-08,-2.09439,1.5708,1.5708,0.785397,-7.12191e-05,0.000800646,-0.000560851,0.000227938,-0.000337429,9.53646e-05,0.000146246,0,0,0,0,0,0,0,-0.605152,-10.3162,-0.559934,20.9201,0.791338,-0.701085,0.135691,-0.596431,-1.14991,-0.17896,2.39961,0.226552,-0.697085,0.183536
4373044,0.97,-1.57028,-0.522778,0.000195391,-2.09585,1.57071,1.57173,0.785027,-1.5708,-0.523599,4.87908e-08,-2.09439,1.5708,1.5708,0.785397,0.000602135,-0.000672662,0.000182911,0.000708771,-0.000432638,6.35764e-05,0.000572215,0,0,0,0,0,0,0,-0.632923,-10.2646,-0.583737,20.8963,0.796831,-0.701085,0.122873,-0.596222,-1.14878,-0.178674,2.39861,0.22639,-0.697062,0.183596
4373045,0.97,-1.57028,-0.522777,0.000198784,-2.09585,1.57071,1.57173,0.785021,-1.5708,-0.523599,4.87908e-08,-2.09439,1.5708,1.5708,0.785397,-0.000248191,0.000201173,0.000771555,0.000472514,-0.000291602,0.000279743,-0.00107659,0,0,0,0,0,0,0,-0.605152,-10.2924,-0.611508,20.8963,0.796831,-0.707494,0.162241,-0.596353,-1.1472,-0.178829,2.39713,0.226229,-0.697013,0.183649
4373046,0.97,-1.57028,-0.522774,0.000197317,-2.09585,1.57071,1.57173,0.78503,-1.5708,-0.523599,4.87908e-08,-2.09439,1.5708,1.5708,0.785397,-0.000165461,0.000690927,-0.000135244,-0.000241803,6.66705e-06,-5.08635e-05,0.00145242,0,0,0,0,0,0,0,-0.605152,-10.3162,-0.583737,20.9201,0.791338,-0.701085,0.103647,-0.596762,-1.14634,-0.179424,2.39597,0.226113,-0.696959,0.183691
4373047,0.97,-1.57028,-0.522779,0.000197478,-2.09585,1.57071,1.57173,0.785025,-1.5708,-0.523599,4.87908e-08,-2.09439,1.5708,1.5708,0.785397,-0.000110307,-0.000745808,-9.01627e-05,-0.000161202,-0.000200792,-3.3909e-05,1.88411e-05,0,0,0,0,0,0,0,-0.605152,-10.2646,-0.583737,20.9201,0.796831,-0.701085,0.129282,-0.596846,-1.14685,-0.179525,2.3957,0.226043,-0.696991,0.183719
4373048,0.97,-1.57028,-0.522773,0.000195861,-2.09585,1.57071,1.57173,0.78502,-1.5708,-0.523599,4.87908e-08,-2.09439,1.5708,1.5708,0.785397,-0.00063035,0.000709221,-0.00061692,-0.000107468,0.000305608,-0.000259965,-0.00168286,0,0,0,0,0,0,0,-0.581349,-10.3162,-0.559934,20.9201,0.784929,-0.694677,0.175059,-0.596326,-1.14754,-0.178665,2.39573,0.225986,-0.697128,0.183718
4373049,0.97,-1.57028,-0.522779,0.000197549,-2.09586,1.57071,1.57173,0.785027,-1.5708,-0.523599,4.87908e-08,-2.09439,1.5708,1.5708,0.785397,-0.000420233,-0.000733612,0.000145532,-0.000628457,-0.000238076,-0.00017331,0.000336155,0,0,0,0,0,0,0,-0.581349,-10.2646,-0.583737,20.9439,0.796831,-0.694677,0.135691,-0.59528,-1.14842,-0.177015,2.39603,0.225942,-0.697347,0.183695
4373050,0.97,-1.57028,-0.522776,0.000199504,-2.09585,1.57071,1.57173,0.785027,-1.5708,-0.523599,4.87908e-08,-2.09439,1.5708,1.5708,0.785397,-0.000280156,0.000717351,0.000746635,0.00013784,0.000281338,-0.00011554,0.00093618,0,0,0,0,0,0,0,-0.581349,-10.3162,-0.611508,20.9201,0.784929,-0.694677,0.116465,-0.594469,-1.14945,-0.175809,2.39654,0.225931,-0.697523,0.183689
4373051,0.97,-1.57028,-0.522776,0.000197557,-2.09585,1.57071,1.57173,0.785026,-1.5708,-0.523599,4.87908e-08,-2.09439,1.5708,1.5708,0.785397,0.000370042,0.000478234,-0.000151857,9.18936e-05,-0.000457266,0.000160332,-0.000596583,0,0,0,0,0,0,0,-0.605152,-10.3162,-0.583737,20.9201,0.802324,-0.701085,0.149424,-0.594365,-1.15112,-0.175744,2.39724,0.225962,-0.697591,0.183701
4373052,0.97,-1.57028,-0.522777,0.000199506,-2.09586,1.57071,1.57173,0.785027,-1.5708,-0.523599,4.87908e-08,-2.09439,1.5708,1.5708,0.785397,0.000246694,-0.000237989,0.000548376,-0.00170198,-0.000101818,-0.000130471,-0.000160363,0,0,0,0,0,0,0,-0.605152,-10.2924,-0.611508,20.9955,0.796831,-0.694677,0.143015,-0.594792,-1.15365,-0.176484,2.39845,0.226039,-0.697578,0.183707
4373053,0.97,-1.57028,-0.522776,0.000197558,-2.09585,1.57071,1.57173,0.785028,-1.5708,-0.523599,4.87908e-08,-2.09439,1.5708,1.5708,0.785397,-0.000392349,0.000398152,-0.00028403,0.000628588,0.000135254,0.000150378,0.000164359,0,0,0,0,0,0,0,-0.581349,-10.3162,-0.583737,20.9201,0.791338,-0.701085,0.135691,-0.595346,-1.15614,-0.177437,2.39994,0.226146,-0.697532,0.183713
4373054,0.97,-1.57028,-0.522779,0.000195887,-2.09586,1.57071,1.57173,0.785023,-1.5708,-0.523599,4.87908e-08,-2.09439,1.5708,1.5708,0.785397,0.00094486,-0.000940991,-0.000746165,-0.000137754,8.99309e-05,-0.000137107,-0.000636413,0,0,0,0,0,0,0,-0.632923,-10.2646,-0.559934,20.9439,0.791338,-0.694677,0.155832,-0.595522,-1.15709,-0.177764,2.40051,0.226213,-0.697518,0.183729
4373055,0.97,-1.57028,-0.522775,0.000193757,-2.09586,1.57071,1.57173,0.785031,-1.5708,-0.523599,4.87908e-08,-2.09439,1.5708,1.5708,0.785397,0.000629907,2.22867e-05,-0.000497444,-9.18357e-05,0.000297134,-9.14044e-05,0.0015085,0,0,0,0,0,0,0,-0.632923,-10.2924,-0.559934,20.9439,0.784929,-0.694677,0.103647,-0.595463,-1.15596,-0.177519,2.39985,0.226222,-0.697512,0.18376
4373056,0.97,-1.57028,-0.522775,0.000196848,-2.09586,1.57071,1.57173,0.785029,-1.5708,-0.523599,4.87908e-08,-2.09439,1.5708,1.5708,0.785397,-0.0013433,1.48578e-05,0.000225183,-6.12238e-05,-3.94037e-05,-0.000298295,5.62341e-05,0,0,0,0,0,0,0,-0.557545,-10.2924,-0.583737,20.9439,0.791338,-0.688268,0.129282,-0.595256,-1.15446,-0.17697,2.399,0.226212,-0.69752,0.183795
4373057,0.97,-1.57028,-0.522775,0.000191571,-2.09586,1.57071,1.57173,0.785023,-1.5708,-0.523599,4.87908e-08,-2.09439,1.5708,1.5708,0.785397,-0.000338721,0.000566717,-0.0010563,-4.08159e-05,-2.63698e-05,0.000275854,-0.00189529,0,0,0,0,0,0,0,-0.581349,-10.3162,-0.532163,20.9439,0.791338,-0.701085,0.181467,-0.594376,-1.15403,-0.175532,2.39862,0.226196,-0.697633,0.183806
4373058,0.96,-1.57028,-0.522775,0.000192968,-2.09586,1.57071,1.57173,0.78503,-1.5708,-0.523599,4.87908e-08,-2.09439,1.5708,1.5708,0.785397,0.000330998,-0.000179001,-5.45887e-05,-0.000676825,-0.000221106,0.000183903,0.00114397,0,0,0,0,0,0,0,-0.605152,-10.2924,-0.559934,20.9717,0.796831,-0.701085,0.116465,-0.593065,-1.15473,-0.173466,2.39886,0.226185,-0.697813,0.1838
4373059,0.96,-1.57028,-0.52278,0.000192784,-2.09586,1.57071,1.57173,0.785026,-1.5708,-0.523599,4.87908e-08,-2.09439,1.5708,1.5708,0.785397,0.000870279,-0.00132576,-3.63925e-05,-0.000451216,0.0004968,0.000122602,-0.000695415,0,0,0,0,0,0,0,-0.632923,-10.2408,-0.559934,20.9717,0.779436,-0.701085,0.155832,-0.592458,-1.1547,-0.172337,2.39907,0.226193,-0.697871,0.18381
4373060,0.96,-1.57028,-0.522774,0.000196342,-2.09585,1.57071,1.57173,0.785028,-1.5708,-0.523599,4.87908e-08,-2.09439,1.5708,1.5708,0.785397,0.000580186,0.00143621,0.00118216,0.000905615,-0.000109652,-0.000155624,1.1108e-05,0,0,0,0,0,0,0,-0.632923,-10.34,-0.611508,20.9201,0.791338,-0.694677,0.143015,-0.593293,-1.15357,-0.173261,2.39879,0.226228,-0.697707,0.183842
4373061,0.96,-1.57028,-0.522777,0.000196503,-2.09585,1.57071,1.57173,0.785031,-1.5708,-0.523599,4.87908e-08,-2.09439,1.5708,1.5708,0.785397,-0.000819635,-0.000156151,0.000138496,0.000603743,0.000164226,0.000133609,0.00122811,0,0,0,0,0,0,0,-0.581349,-10.2924,-0.583737,20.9201,0.784929,-0.701085,0.110056,-0.594985,-1.15322,-0.175485,2.39838,0.226275,-0.697443,0.183893
4373062,0.96,-1.57028,-0.522776,0.000193405,-2.09586,1.57071,1.57173,0.785025,-1.5708,-0.523599,4.87908e-08,-2.09439,1.5708,1.5708,0.785397,-0.000546423,0.000452712,-0.000464482,-0.000154316,0.00872711,8.90729e-05,-0.0013514,0,0,0,0,0,0,0,-0.581349,-10.3162,-0.559934,20.9439,0.796831,-0.701085,0.16865,-0.595952,-1.15342,-0.17667,2.39789,0.226252,-0.697297,0.183945
4373063,0.96,-1.57028,-0.522777,0.000196731,-2.09586,1.57071,1.57173,0.785027,-1.5708,-0.523599,4.87908e-08,-2.09439,1.5708,1.5708,0.785397,0.00019253,-0.000255004,0.000247158,-0.000102878,0.00677638,5.9382e-05,0.00103185,0,0,0,0,0,0,0,-0.605152,-10.2924,-0.583737,20.9439,0.791338,-0.701085,0.116465,-0.595902,-1.15354,-0.176264,2.39737,0.22612,-0.697282,0.183972
4373064,0.96,-1.57028,-0.522774,0.000193663,-2.09585,1.57071,1.57173,0.785027,-1.5708,-0.523599,4.87908e-08,-2.09439,1.5708,1.5708,0.785397,-0.000428459,0.000943621,-0.00104165,0.000488227,0.00508372,0.000276947,0.000925257,0,0,0,0,0,0,0,-0.581349,-10.34,-0.532163,20.9201,0.791338,-0.707494,0.110056,-0.595383,-1.15394,-0.175057,2.39701,0.225934,-0.697333,0.183986
4373065,0.96,-1.57028,-0.522779,0.000195335,-2.09586,1.57071,1.57173,0.785024,-1.5708,-0.523599,4.87908e-08,-2.09439,1.5708,1.5708,0.785397,0.000271173,-0.00113416,0.00051199,-0.000231327,0.00405111,0.000184631,-0.00131594,0,0,0,0,0,0,0,-0.605152,-10.2646,-0.583737,20.9439,0.784929,-0.707494,0.162241,-0.594625,-1.15408,-0.173456,2.39655,0.225748,-0.697431,0.183981
4373066,0.96,-1.57028,-0.522777,0.000196635,-2.09586,1.57071,1.57173,0.785026,-1.5708,-0.523599,4.87908e-08,-2.09439,1.5708,1.5708,0.785397,-0.000932842,-0.000106491,0.00099094,-0.000154218,0.00278184,0.000123088,0.000580767,0,0,0,0,0,0,0,-0.557545,-10.2924,-0.611508,20.9439,0.791338,-0.707494,0.122873,-0.594384,-1.15287,-0.172782,2.39571,0.225611,-0.697458,0.183951
4373067,0.96,-1.57028,-0.522777,0.00019447,-2.09585,1.57071,1.57173,0.785023,-1.5708,-0.523599,4.87908e-08,-2.09439,1.5708,1.5708,0.785397,0.000491729,-0.000720608,1.1013e-05,0.000454,0.0020934,-0.000155301,-0.00130824,0,0,0,0,0,0,0,-0.605152,-10.2646,-0.583737,20.9201,0.791338,-0.701085,0.16865,-0.594846,-1.15052,-0.173398,2.39458,0.225536,-0.697392,0.183916
4373068,0.96,-1.57028,-0.522773,0.000198478,-2.09585,1.57071,1.57173,0.785022,-1.5708,-0.523599,4.87908e-08,-2.09439,1.5708,1.5708,0.785397,-0.000228993,0.000726021,0.000656956,0.000302667,0.00137128,-0.000578252,-0.000634803,0,0,0,0,0,0,0,-0.581349,-10.3162,-0.611508,20.9201,0.796831,-0.688268,0.162241,-0.595656,-1.14832,-0.174658,2.39345,0.225507,-0.697299,0.183898
4373069,0.96,-1.57028,-0.522778,0.000195084,-2.09586,1.57071,1.57173,0.785028,-1.5708,-0.523599,4.87908e-08,-2.09439,1.5708,1.5708,0.785397,-0.000152662,-0.00127922,-0.000211643,-0.00100465,0.00148934,-0.000148142,0.00174694,0,0,0,0,0,0,0,-0.581349,-10.2408,-0.583737,20.9717,0.784929,-0.694677,0.103647,-0.596472,-1.14696,-0.176029,2.39287,0.225526,-0.697221,0.183919
4373070,0.96,-1.57028,-0.522775,0.000195063,-2.09585,1.57071,1.57173,0.785026,-1.5708,-0.523599,4.87908e-08,-2.09439,1.5708,1.5708,0.785397,0.000455038,0.000910422,-0.000697907,0.00109347,0.00150056,0.000138598,-0.000293437,0,0,0,0,0,0,0,-0.605152,-10.3162,-0.559934,20.8963,0.773943,-0.701085,0.143015,-0.596756,-1.14612,-0.17664,2.39275,0.225559,-0.69722,0.183977
4373071,0.96,-1.57028,-0.522777,0.000199232,-2.09586,1.57071,1.57173,0.785022,-1.5708,-0.523599,4.87908e-08,-2.09439,1.5708,1.5708,0.785397,-0.000253454,-0.000599478,0.000741154,-0.000384642,0.000431682,9.23983e-05,-0.000907702,0,0,0,0,0,0,0,-0.581349,-10.2646,-0.611508,20.9439,0.791338,-0.701085,0.162241,-0.596701,-1.14583,-0.176738,2.39272,0.225584,-0.69727,0.184038
4373072,0.96,-1.57028,-0.522777,0.000193847,-2.09586,1.57071,1.57173,0.785029,-1.5708,-0.523599,4.87908e-08,-2.09439,1.5708,1.5708,0.785397,0.00103746,0.000249962,-0.00136194,-0.000256428,0.000344466,6.15989e-05,0.000852928,0,0,0,0,0,0,0,-0.632923,-10.2924,-0.532163,20.9439,0.791338,-0.701085,0.122873,-0.596657,-1.14618,-0.176849,2.39304,0.225615,-0.697322,0.184099
4373073,0.96,-1.57028,-0.522777,0.000197346,-2.09586,1.57071,1.57173,0.785029,-1.5708,-0.523599,4.87908e-08,-2.09439,1.5708,1.5708,0.785397,-0.000514788,0.000166641,0.000948082,-0.000170952,0.000509511,4.10659e-05,0.000331259,0,0,0,0,0,0,0,-0.581349,-10.2924,-0.611508,20.9439,0.784929,-0.701085,0.129282,-0.596578,-1.14734,-0.176858,2.39397,0.225656,-0.697389,0.184169
4373074,0.96,-1.57028,-0.522777,0.000196838,-2.09585,1.57071,1.57173,0.785021,-1.5708,-0.523599,4.87908e-08,-2.09439,1.5708,1.5708,0.785397,-0.000343192,0.000111094,-1.75594e-05,0.000442844,0.000134197,2.73773e-05,-0.00147458,0,0,0,0,0,0,0,-0.581349,-10.2924,-0.583737,20.9201,0.791338,-0.701085,0.175059,-0.59657,-1.14906,-0.177067,2.39512,0.225706,-0.697455,0.184237
4373075,0.96,-1.57028,-0.522774,0.000197318,-2.09586,1.57071,1.57173,0.785029,-1.5708,-0.523599,4.87908e-08,-2.09439,1.5708,1.5708,0.785397,-0.000228795,0.00118769,-1.17063e-05,-0.000261583,0.000113375,1.82515e-05,0.00118708,0,0,0,0,0,0,0,-0.581349,-10.34,-0.583737,20.9439,0.791338,-0.701085,0.116465,-0.596459,-1.15147,-0.177256,2.39641,0.225759,-0.697547,0.184301
4373076,0.96,-1.57028,-0.522775,0.000191728,-2.09585,1.57071,1.57173,0.785027,-1.5708,-0.523599,4.87908e-08,-2.09439,1.5708,1.5708,0.785397,0.000404282,-0.000321833,-0.00121423,0.000382423,-0.000109934,1.21677e-05,0.00079139,0,0,0,0,0,0,0,-0.605152,-10.2924,-0.532163,20.9201,0.796831,-0.701085,0.116465,-0.595896,-1.15466,-0.176716,2.39796,0.225796,-0.697717,0.184376
4373077,0.96,-1.57028,-0.522779,0.000193202,-2.09585,1.57071,1.57173,0.785024,-1.5708,-0.523599,4.87908e-08,-2.09439,1.5708,1.5708,0.785397,-0.000287291,-0.000864169,-0.000809487,0.000254949,0.000143611,8.11179e-06,-0.00116783,0,0,0,0,0,0,0,-0.581349,-10.2646,-0.532163,20.9201,0.791338,-0.701085,0.162241,-0.594722,-1.15595,-0.175078,2.39849,0.22577,-0.697953,0.18444
4373078,0.96,-1.57028,-0.522777,0.000199261,-2.09585,1.57071,1.57173,0.78503,-1.5708,-0.523599,4.87908e-08,-2.09439,1.5708,1.5708,0.785397,-0.00139795,7.35012e-05,0.00131638,0.000726778,0.000343187,-0.000231951,0.000916869,0,0,0,0,0,0,0,-0.529774,-10.2924,-0.611508,20.8963,0.784929,-0.694677,0.116465,-0.59338,-1.15449,-0.173211,2.39753,0.2257,-0.698174,0.18448
4373079,0.96,-1.57028,-0.522777,0.000197294,-2.09585,1.57071,1.57173,0.785021,-1.5708,-0.523599,4.87908e-08,-2.09439,1.5708,1.5708,0.785397,0.00148088,4.90008e-05,0.000877588,0.000484519,-1.00181e-06,-0.000391993,-0.00155889,0,0,0,0,0,0,0,-0.632923,-10.2924,-0.611508,20.8963,0.791338,-0.688268,0.175059,-0.593212,-1.15239,-0.173315,2.39606,0.225671,-0.6982,0.18451
4373080,0.96,-1.57028,-0.522777,0.00019682,-2.09585,1.57071,1.57173,0.785025,-1.5708,-0.523599,4.87908e-08,-2.09439,1.5708,1.5708,0.785397,-0.00021917,3.26672e-05,-6.45553e-05,-0.0002338,-0.000401895,-2.39697e-05,-0.000327185,0,0,0,0,0,0,0,-0.581349,-10.2924,-0.583737,20.9201,0.802324,-0.694677,0.155832,-0.594421,-1.15104,-0.17552,2.39494,0.225709,-0.698009,0.184541
4373081,0.96,-1.57028,-0.522779,0.000197312,-2.09585,1.57071,1.57173,0.785028,-1.5708,-0.523599,4.87908e-08,-2.09439,1.5708,1.5708,0.785397,0.000410698,-0.000627836,-4.30368e-05,0.000400946,0.000143227,0.000221379,0.00171466,0,0,0,0,0,0,0,-0.605152,-10.2646,-0.583737,20.8963,0.791338,-0.701085,0.103647,-0.595649,-1.15003,-0.177692,2.39415,0.225764,-0.697798,0.184596
4373082,0.96,-1.57028,-0.522775,0.000197476,-2.09586,1.57071,1.57173,0.785024,-1.5708,-0.523599,4.87908e-08,-2.09439,1.5708,1.5708,0.785397,-0.000283013,0.000231057,-2.86912e-05,-0.000846327,9.86763e-05,0.000147586,-0.00102703,0,0,0,0,0,0,0,-0.581349,-10.2924,-0.583737,20.9439,0.791338,-0.701085,0.162241,-0.596269,-1.14916,-0.178934,2.39362,0.225817,-0.697663,0.184674
4373083,0.96,-1.57028,-0.522775,0.00019373,-2.09585,1.57071,1.57173,0.785029,-1.5708,-0.523599,4.87908e-08,-2.09439,1.5708,1.5708,0.785397,-0.000188675,0.000154038,-0.000575939,-7.40594e-06,6.8178e-05,-0.000138968,0.000536013,0,0,0,0,0,0,0,-0.581349,-10.2924,-0.559934,20.9201,0.791338,-0.694677,0.129282,-0.59621,-1.14957,-0.179159,2.39395,0.225887,-0.697635,0.184744
4373084,0.96,-1.57028,-0.522773,0.000195168,-2.09586,1.57071,1.57173,0.785028,-1.5708,-0.523599,4.87908e-08,-2.09439,1.5708,1.5708,0.785397,0.000431028,0.000659504,-0.00038396,-4.93729e-06,0.000284606,0.000382072,0.00106942,0,0,0,0,0,0,0,-0.605152,-10.3162,-0.559934,20.9201,0.784929,-0.707494,0.110056,-0.595537,-1.15147,-0.178411,2.39498,0.225959,-0.697715,0.184806
4373085,0.96,-1.57028,-0.522778,0.000195648,-2.09586,1.57071,1.57173,0.785025,-1.5708,-0.523599,4.87908e-08,-2.09439,1.5708,1.5708,0.785397,0.000936966,-0.00132357,-0.000255973,-0.000560103,-0.000249725,-0.000220003,-0.000982475,0,0,0,0,0,0,0,-0.632923,-10.2408,-0.559934,20.9439,0.796831,-0.694677,0.155832,-0.594974,-1.15312,-0.177667,2.39584,0.226019,-0.697778,0.184851
4373086,0.96,-1.57028,-0.522778,0.000195808,-2.09586,1.57071,1.57173,0.785032,-1.5708,-0.523599,4.87908e-08,-2.09439,1.5708,1.5708,0.785397,-0.000581782,-0.000325567,-0.000170649,-0.000373402,3.79768e-05,9.06903e-05,0.00151516,0,0,0,0,0,0,0,-0.581349,-10.2646,-0.559934,20.9439,0.791338,-0.701085,0.0972387,-0.594739,-1.15286,-0.177281,2.396,0.226063,-0.697776,0.184865
4373087,0.96,-1.57028,-0.522775,0.00019735,-2.09586,1.57071,1.57173,0.785026,-1.5708,-0.523599,4.87908e-08,-2.09439,1.5708,1.5708,0.785397,-0.000944666,0.000432569,0.00109266,-0.000248935,0.000466885,0.000297819,-0.00116004,0,0,0,0,0,0,0,-0.557545,-10.2924,-0.611508,20.9439,0.779436,-0.707494,0.155832,-0.5945,-1.15219,-0.176986,2.39608,0.226109,-0.697779,0.184844
4373088,0.96,-1.57028,-0.522779,0.000196657,-2.09585,1.57071,1.57173,0.785025,-1.5708,-0.523599,4.87908e-08,-2.09439,1.5708,1.5708,0.785397,0.000483846,-0.000361234,0.00072844,0.000947667,0.000311825,-3.88128e-05,-0.00124807,0,0,0,0,0,0,0,-0.605152,-10.2646,-0.611508,20.8963,0.779436,-0.701085,0.16865,-0.59469,-1.15208,-0.177538,2.39615,0.226172,-0.697737,0.18479
4373089,0.96,-1.57028,-0.522777,0.000190858,-2.09586,1.57071,1.57173,0.78503,-1.5708,-0.523599,4.87908e-08,-2.09439,1.5708,1.5708,0.785397,-0.000234248,0.000408791,-0.00137041,-0.00113146,4.85856e-06,-2.58752e-05,0.00110073,0,0,0,0,0,0,0,-0.581349,-10.2924,-0.532163,20.9717,0.784929,-0.701085,0.116465,-0.595049,-1.15206,-0.178333,2.39604,0.226211,-0.697684,0.184731
4373090,0.96,-1.57028,-0.522774,0.000194861,-2.09585,1.57071,1.57173,0.785025,-1.5708,-0.523599,4.87908e-08,-2.09439,1.5708,1.5708,0.785397,0.00105026,0.000829339,-0.000263995,0.000452119,-0.000640701,0.000220109,-0.000961601,0,0,0,0,0,0,0,-0.632923,-10.3162,-0.559934,20.9201,0.802324,-0.707494,0.162241,-0.59477,-1.15354,-0.177967,2.39671,0.226215,-0.697759,0.184694
4373091,0.96,-1.57028,-0.522777,0.000193415,-2.09585,1.57071,1.57173,0.785027,-1.5708,-0.523599,4.87908e-08,-2.09439,1.5708,1.5708,0.785397,0.000700174,-0.000653533,-0.000175997,-0.000255399,0.000624266,-9.06197e-05,0.000816995,0,0,0,0,0,0,0,-0.632923,-10.2646,-0.559934,20.9439,0.773943,-0.701085,0.122873,-0.594566,-1.1557,-0.177473,2.3977,0.226203,-0.697848,0.184677
4373092,0.96,-1.57028,-0.522778,0.000189313,-2.09586,1.57071,1.57173,0.785026,-1.5708,-0.523599,4.87908e-08,-2.09439,1.5708,1.5708,0.785397,-0.000182831,-0.000435689,-0.00132376,-0.00081988,-0.000227903,0.000176946,0.000544663,0,0,0,0,0,0,0,-0.605152,-10.2646,-0.508359,20.9717,0.791338,-0.707494,0.122873,-0.594443,-1.15635,-0.176892,2.39811,0.226158,-0.697927,0.184677
4373093,0.96,-1.57028,-0.522775,0.000194442,-2.09585,1.57071,1.57173,0.785019,-1.5708,-0.523599,4.87908e-08,-2.09439,1.5708,1.5708,0.785397,-0.0006787,0.000359155,0.000880733,0.00177346,-0.0001518,-0.000356754,-0.00180703,0,0,0,0,0,0,0,-0.581349,-10.2924,-0.583737,20.8725,0.791338,-0.694677,0.181467,-0.593846,-1.15566,-0.175528,2.39784,0.226064,-0.698079,0.184678
4373094,0.96,-1.57028,-0.522775,0.0001929,-2.09585,1.57071,1.57173,0.785029,-1.5708,-0.523599,4.87908e-08,-2.09439,1.5708,1.5708,0.785397,0.000104346,0.000239437,-0.00061927,6.86849e-05,-0.000101099,-4.7708e-07,0.00120281,0,0,0,0,0,0,0,-0.605152,-10.2924,-0.532163,20.9201,0.791338,-0.701085,0.116465,-0.593316,-1.15456,-0.174296,2.39683,0.225944,-0.698234,0.184684
4373095,0.96,-1.57028,-0.522776,0.00019703,-2.09586,1.57071,1.57173,0.785031,-1.5708,-0.523599,4.87908e-08,-2.09439,1.5708,1.5708,0.785397,6.95637e-05,0.000159624,0.00144319,-0.00171745,-0.000270774,-3.18053e-07,0.00103923,0,0,0,0,0,0,0,-0.605152,-10.2924,-0.611508,20.9955,0.796831,-0.701085,0.110056,-0.593441,-1.15459,-0.174079,2.39652,0.225881,-0.698308,0.184708
4373096,0.96,-1.57028,-0.522777,0.000196551,-2.09586,1.57071,1.57173,0.785022,-1.5708,-0.523599,4.87908e-08,-2.09439,1.5708,1.5708,0.785397,-0.000510436,-0.000543198,0.000962129,6.14606e-05,2.29913e-05,0.000237147,-0.00123996,0,0,0,0,0,0,0,-0.581349,-10.2646,-0.611508,20.9439,0.791338,-0.707494,0.162241,-0.594548,-1.15568,-0.175471,2.39749,0.225922,-0.698239,0.184726
4373097,0.96,-1.57028,-0.522775,0.000194902,-2.09586,1.57071,1.57173,0.785023,-1.57079,-0.523597,2.54879e-06,-2.09439,1.5708,1.5708,0.785397,-0.000897103,0.000844294,-0.000565007,4.09737e-05,1.53702e-05,-0.00031662,-0.000351921,0.00327601,0.00177767,0.0025,0.00165673,0.00155778,0.005,-0.000206637,-0.557545,-10.3162,-0.559934,20.9439,0.791338,-0.694677,0.149424,-0.595644,-1.15657,-0.177014,2.39849,0.225986,-0.698165,0.184719
4373098,0.96,-1.57028,-0.522777,0.000195559,-2.09586,1.57071,1.57173,0.785028,-1.57079,-0.523593,7.54879e-06,-2.09439,1.5708,1.57081,0.785397,0.000515555,-0.000643563,-0.000376671,-0.000622298,0.000247638,-0.00021108,0.000511371,0.00655202,0.00355534,0.005,0.00331346,0.00311555,0.01,-0.000413274,-0.605152,-10.2646,-0.559934,20.9717,0.784929,-0.694677,0.129282,-0.595716,-1.15738,-0.177013,2.39928,0.226009,-0.698235,0.18471
4373099,0.96,-1.57028,-0.522771,0.000201068,-2.09585,1.57071,1.57173,0.785024,-1.57078,-0.523588,1.50488e-05,-2.09439,1.57081,1.57083,0.785396,0.000343704,0.0013342,0.00151212,0.00079156,0.000165116,0.000333998,-0.00111715,0.00982804,0.00533301,0.0075,0.00497018,0.00467333,0.015,-0.000619911,-0.605152,-10.34,-0.635312,20.9201,0.784929,-0.707494,0.16865,-0.595899,-1.15835,-0.17713,2.40004,0.226029,-0.698278,0.184718
4373100,0.96,-1.57028,-0.522776,0.000193975,-2.09586,1.57071,1.57173,0.78503,-1.57076,-0.523581,2.50488e-05,-2.09438,1.57081,1.57085,0.785395,0.00152255,0.00101812,0.00130566,-2.9105e-05,-0.000534165,-0.000252053,0.00118801,0.013104,0.00711068,0.01,0.00662691,0.00623111,0.02,-0.000826548,-0.529774,-10.213,-0.381406,20.9439,0.802324,-0.694677,0.116465,-0.597678,-1.16056,-0.179684,2.40106,0.22611,-0.698094,0.184748
4373101,0.96,-1.57028,-0.522781,0.00019472,-2.09586,1.57071,1.57173,0.785027,-1.57075,-0.523572,3.75488e-05,-2.09437,1.57082,1.57087,0.785394,0.00122591,0.00144636,0.00453106,-0.000669017,5.08047e-05,-0.000405394,-0.000191334,0.0163801,0.00888834,0.0125,0.00828364,0.00778889,0.025,-0.00103318,-0.252064,-9.9631,0.0232571,20.9717,0.791338,-0.688268,0.143015,-0.601966,-1.16495,-0.18614,2.40312,0.226322,-0.697557,0.184803
4373102,0.96,-1.57029,-0.522782,0.000209664,-2.09586,1.57071,1.57173,0.785021,-1.57073,-0.523561,5.25488e-05,-2.09436,1.57083,1.5709,0.785393,-0.00455595,-0.00115589,0.00811911,-0.000446012,0.000474689,-0.000744981,-0.00131435,0.0196561,0.010666,0.015,0.00994037,0.00934666,0.03,-0.00123982,0.275585,-9.7092,0.404117,20.9717,0.779436,-0.67545,0.175059,-0.608764,-1.16897,-0.19711,2.40558,0.226695,-0.696578,0.184867
4373103,0.96,-1.57029,-0.522781,0.000226087,-2.09586,1.57072,1.57173,0.785025,-1.5707,-0.523549,7.00488e-05,-2.09435,1.57084,1.57094,0.785392,-0.002468,-0.000120342,0.0088931,-0.000854153,0.000926819,-0.000259295,0.000819187,0.0229321,0.0124437,0.0175,0.0115971,0.0109044,0.035,-0.00144646,0.704052,-9.43149,0.884158,20.9955,0.762956,-0.681859,0.129282,-0.616706,-1.16907,-0.211266,2.40704,0.227178,-0.695208,0.184948
4373104,0.96,-1.57029,-0.52277,0.000248941,-2.09585,1.57072,1.57173,0.785027,-1.57068,-0.523535,9.00488e-05,-2.09434,1.57085,1.57098,0.78539,0.000472737,0.00125726,0.0111272,0.00230743,0.00126214,0.000301855,0.0012582,0.0262081,0.0142214,0.02,0.0132538,0.0124622,0.04,-0.0016531,1.08491,-9.30453,1.31262,20.8725,0.745561,-0.694677,0.110056,-0.625573,-1.1657,-0.228157,2.40735,0.227734,-0.693355,0.185065
4373105,0.96,-1.57029,-0.52276,0.000281824,-2.09585,1.57072,1.57174,0.785022,-1.57065,-0.523519,0.000112549,-2.09432,1.57087,1.57102,0.785388,0.000850808,0.00212836,0.0152352,0.00368174,0.00145179,-3.61225e-05,-0.00180606,0.0294841,0.015999,0.0225,0.0149106,0.01402,0.045,-0.00185973,1.56495,-9.17758,1.64191,20.9201,0.729082,-0.688268,0.181467,-0.636554,-1.16028,-0.249432,2.40615,0.228354,-0.690731,0.185204
4373106,0.96,-1.57029,-0.522752,0.000302559,-2.09585,1.57072,1.57174,0.785026,-1.57062,-0.523501,0.000137549,-2.0943,1.57088,1.57107,0.785386,-0.000923219,0.00271708,0.0153904,0.00328273,-8.33007e-05,0.00116271,0.000966102,0.0327601,0.0177767,0.025,0.0165673,0.0155778,0.05,-0.00206637,1.99342,-9.05063,2.09815,20.8963,0.757463,-0.720311,0.122873,-0.648336,-1.1534,-0.273761,2.40362,0.229006,-0.687397,0.185349
4373107,0.96,-1.57028,-0.522744,0.000338084,-2.09585,1.57072,1.57175,0.78503,-1.57058,-0.52348,0.000167549,-2.09428,1.5709,1.57113,0.785384,0.000358418,0.00566344,0.0210392,0.000628818,-0.000665883,0.00152113,0.00111879,0.0384857,0.0208229,0.03,0.0194106,0.018265,0.06,-0.00238563,2.31874,-8.89987,2.32825,20.9717,0.773943,-0.740453,0.110056,-0.658294,-1.14904,-0.298159,2.40307,0.229757,-0.683656,0.185505
4373108,0.96,-1.57027,-0.522739,0.000365647,-2.09584,1.57072,1.57176,0.785027,-1.57053,-0.523456,0.000202549,-2.09426,1.57092,1.5712,0.785381,0.00310518,0.0042057,0.0206438,0.000571888,-0.00108818,0.0002681,-0.000474846,0.0442112,0.023869,0.035,0.0222539,0.0209523,0.07,-0.0027049,2.57264,-8.72531,2.60596,20.9717,0.791338,-0.720311,0.143015,-0.665961,-1.15025,-0.322414,2.40747,0.230748,-0.679512,0.185645
4373109,0.96,-1.57025,-0.52273,0.00039909,-2.09583,1.57072,1.57176,0.785021,-1.57048,-0.523429,0.000242549,-2.09424,1.57094,1.57128,0.785378,0.00660574,0.00427723,0.0251881,0.002259,-0.000725452,0.0031976,-0.001266,0.0499368,0.0269152,0.04,0.0250972,0.0236396,0.08,-0.00302416,2.7472,-8.59836,2.80829,20.8963,0.791338,-0.67545,0.16865,-0.671762,-1.1524,-0.346985,2.41473,0.231966,-0.674806,0.185749
4373110,0.96,-1.57023,-0.522717,0.000429184,-2.09583,1.57072,1.57177,0.785019,-1.57043,-0.523399,0.000287549,-2.09421,1.57097,1.57137,0.785375,0.0110209,0.00666689,0.0266945,0.00518975,-0.000890535,0.00503126,-0.00131872,0.0556623,0.0299614,0.045,0.0279405,0.0263269,0.09,-0.00334342,2.94954,-8.44363,3.21295,20.8725,0.802324,-0.617772,0.181467,-0.676551,-1.15082,-0.372822,2.42129,0.233344,-0.669367,0.185846
4373111,0.96,-1.57022,-0.522708,0.000468257,-2.09582,1.57072,1.57178,0.785019,-1.57037,-0.523366,0.000337549,-2.09418,1.571,1.57147,0.785371,0.0130053,0.00566348,0.0327411,0.00266404,0.00422243,0.00513653,-0.000879145,0.0613879,0.0330075,0.05,0.0307839,0.0290141,0.1,-0.00366269,3.3542,-8.16592,3.693,20.9201,0.796831,-0.520726,0.181467,-0.681463,-1.14554,-0.401409,2.42652,0.234918,-0.662978,0.18599
4373112,0.96,-1.5702,-0.522696,0.00052033,-2.09581,1.57072,1.57178,0.785021,-1.5703,-0.52333,0.000392549,-2.09414,1.57103,1.57158,0.785367,0.0154589,0.00722622,0.0405604,0.00385501,0.00445395,0.00425138,0.000363339,0.0671134,0.0360537,0.055,0.0336272,0.0317014,0.11,-0.00398195,3.85804,-7.84061,4.177,20.9717,0.762956,-0.392553,0.155832,-0.688266,-1.13697,-0.435606,2.43147,0.236811,-0.655201,0.186222
4373113,0.96,-1.57018,-0.522667,0.000568659,-2.0958,1.57073,1.5718,0.785021,-1.57023,-0.523291,0.000452549,-2.09411,1.57107,1.5717,0.785363,0.0176816,0.0157437,0.0399351,0.00926955,0.00891143,0.00534755,4.86706e-06,0.072839,0.0390999,0.06,0.0364705,0.0343887,0.12,-0.00430122,4.36189,-7.68588,4.8078,20.9717,0.734575,-0.301915,0.162241,-0.696652,-1.1299,-0.475048,2.43771,0.239051,-0.645885,0.186554
4373114,0.96,-1.57013,-0.522642,0.000622514,-2.09579,1.57074,1.57182,0.785018,-1.57015,-0.523249,0.000517549,-2.09407,1.5711,1.57183,0.785358,0.0267453,0.0202967,0.0411736,0.0106327,0.0125944,0.012106,-0.000946191,0.0785646,0.042146,0.065,0.0393138,0.0370759,0.13,-0.00462048,4.69117,-7.45975,5.39099,21.0709,0.695207,-0.244237,0.187876,-0.702941,-1.1337,-0.513329,2.44753,0.241478,-0.63544,0.186961
4373115,0.96,-1.57009,-0.522609,0.000680717,-2.09577,1.57076,1.57184,0.785026,-1.57006,-0.523204,0.000587549,-2.09403,1.57114,1.57197,0.785353,0.0325466,0.0223391,0.0465618,0.011274,0.0113314,0.0170313,0.00225142,0.0842901,0.0451922,0.07,0.0421571,0.0397632,0.14,-0.00493974,5.06807,-7.30899,5.92261,21.0709,0.638445,-0.186559,0.110056,-0.706287,-1.15128,-0.548175,2.46242,0.244015,-0.623825,0.187423
4373116,0.96,-1.57003,-0.522583,0.000750203,-2.09576,1.57076,1.57189,0.785029,-1.56997,-0.523156,0.000662549,-2.09398,1.57119,1.57212,0.785348,0.0399823,0.0248877,0.0536607,0.0132359,0.0118245,0.026728,0.00221302,0.0900157,0.0482384,0.075,0.0450005,0.0424505,0.15,-0.00525901,5.32197,-7.07889,6.32727,21.1423,0.661333,-0.166417,0.09083,-0.709468,-1.17764,-0.583631,2.48151,0.246698,-0.610436,0.187926
4373117,0.96,-1.56996,-0.522553,0.000814088,-2.09575,1.57076,1.57194,0.785019,-1.56988,-0.523103,0.000745049,-2.09393,1.57123,1.57229,0.785342,0.0452769,0.0276756,0.0588161,0.0160638,0.00642013,0.040136,-0.00164422,0.0975572,0.0521452,0.0825,0.0486547,0.0461813,0.164879,-0.00563399,5.54811,-6.87656,6.73194,21.2931,0.723589,-0.186559,0.175059,-0.714239,-1.20721,-0.622609,2.50283,0.249525,-0.594949,0.188407
4373118,0.96,-1.5699,-0.522519,0.000881578,-2.09573,1.57077,1.57201,0.785018,-1.56977,-0.523047,0.000835049,-2.09388,1.57128,1.57247,0.785336,0.0510159,0.0303752,0.060277,0.017459,0.00724307,0.0496679,-0.00133351,0.105099,0.056052,0.09,0.0523089,0.049912,0.179759,-0.00600898,5.69886,-6.702,7.08899,21.3446,0.784929,-0.199376,0.181467,-0.718546,-1.23665,-0.661923,2.52502,0.252426,-0.57775,0.188819
4373119,0.96,-1.56982,-0.522486,0.000952593,-2.0957,1.57078,1.57209,0.785013,-1.56966,-0.522987,0.000932549,-2.09382,1.57134,1.57266,0.78533,0.0569214,0.0322879,0.0632761,0.0231445,0.00964659,0.0612859,-0.00282179,0.11264,0.0599588,0.0975,0.0559631,0.0536428,0.194638,-0.00638397,5.80201,-6.52347,7.3667,21.3446,0.802324,-0.205785,0.233652,-0.718494,-1.26233,-0.695037,2.5462,0.25526,-0.559545,0.189199
4373120,0.97,-1.56974,-0.522451,0.00102467,-2.09567,1.57079,1.57218,0.784997,-1.56954,-0.522924,0.00103755,-2.09377,1.57139,1.57287,0.785323,0.0684515,0.0330949,0.0685822,0.0229717,0.0100901,0.0749302,-0.0059502,0.120182,0.0638656,0.105,0.0596173,0.0573736,0.209518,-0.00675895,5.84962,-6.32114,7.77137,21.3684,0.853594,-0.23142,0.343516,-0.713836,-1.27936,-0.720601,2.56397,0.258017,-0.540553,0.189632
4373121,0.98,-1.56965,-0.522409,0.00110498,-2.09564,1.5708,1.57228,0.784993,-1.56941,-0.522856,0.00115005,-2.0937,1.57145,1.57309,0.785316,0.0761246,0.0369615,0.0713129,0.0274065,0.0128189,0.0873269,-0.00491624,0.127723,0.0677724,0.1125,0.0632715,0.0611044,0.224397,-0.00713394,6.05195,-6.1188,8.2276,21.3446,0.841692,-0.199376,0.36915,-0.707181,-1.28635,-0.741463,2.57828,0.260883,-0.520666,0.190256
4373122,0.99,-1.56956,-0.522363,0.00119775,-2.09561,1.57082,1.5724,0.784991,-1.56928,-0.522784,0.00127005,-2.09364,1.57152,1.57333,0.785308,0.0784287,0.0392753,0.0797478,0.0283464,0.0162515,0.0955439,-0.00398957,0.135265,0.0716792,0.12,0.0669257,0.0648351,0.239276,-0.00750893,6.38124,-5.89267,8.68384,21.416,0.791338,-0.121556,0.388376,-0.699164,-1.28567,-0.758193,2.59057,0.264012,-0.500046,0.191249
4373123,0.99,-1.56946,-0.522308,0.00129671,-2.09557,1.57084,1.57254,0.784989,-1.56913,-0.522709,0.00139755,-2.09356,1.57159,1.57359,0.7853,0.0849723,0.0458652,0.0830876,0.033407,0.020933,0.109954,-0.00218499,0.142807,0.075586,0.1275,0.0705799,0.0685659,0.254156,-0.00788392,6.73433,-5.74191,9.26306,21.4438,0.802324,-0.134374,0.375559,-0.68867,-1.28155,-0.769482,2.60263,0.267446,-0.479004,0.192752
4373124,0.99,-1.56935,-0.522248,0.00139624,-2.09553,1.57086,1.57271,0.784996,-1.56898,-0.522629,0.00153255,-2.09349,1.57166,1.57386,0.785292,0.0970176,0.0482378,0.0854905,0.0371288,0.0256514,0.127298,0.00118819,0.150348,0.0794929,0.135,0.0742341,0.0722967,0.269035,-0.0082589,7.03584,-5.61496,9.87403,21.4676,0.779436,-0.192968,0.304148,-0.674798,-1.27729,-0.773479,2.61525,0.27109,-0.457799,0.194819
4373125,0.99,-1.56922,-0.522188,0.00151758,-2.09548,1.57089,1.57289,0.785001,-1.56882,-0.522546,0.00167505,-2.09341,1.57174,1.57414,0.785284,0.106861,0.0505203,0.0955042,0.0389557,0.0290607,0.145634,0.002691,0.15789,0.0833997,0.1425,0.0778883,0.0760275,0.283914,-0.00863389,7.26594,-5.51181,10.2787,21.543,0.757463,-0.282689,0.252878,-0.659511,-1.27127,-0.772229,2.62754,0.274892,-0.436267,0.197403
4373126,0.99,-1.56909,-0.522121,0.0016344,-2.09544,1.57092,1.57311,0.785,-1.56866,-0.522458,0.00182505,-2.09333,1.57182,1.57444,0.785275,0.113567,0.0521717,0.100304,0.0371636,0.0349901,0.170017,0.00131928,0.165431,0.0873065,0.15,0.0815426,0.0797582,0.298794,-0.00900888,7.51588,-5.41263,10.7825,21.6144,0.762956,-0.40537,0.265696,-0.645286,-1.26161,-0.769642,2.6404,0.278959,-0.414235,0.200345
4373127,0.99,-1.56894,-0.522058,0.0017526,-2.09538,1.57096,1.57333,0.785009,-1.56848,-0.522367,0.00198504,-2.09325,1.5719,1.57476,0.785265,0.124899,0.0553003,0.106445,0.0414315,0.0387378,0.192383,0.0039991,0.174021,0.0917472,0.15999,0.0857073,0.0841899,0.31596,-0.00940557,7.61903,-5.26187,11.1872,21.5906,0.796831,-0.520726,0.181467,-0.631326,-1.24868,-0.764878,2.65547,0.283302,-0.392155,0.203449
4373128,0.99,-1.5688,-0.521991,0.00187636,-2.09533,1.571,1.57357,0.78501,-1.5683,-0.52227,0.00215502,-2.09316,1.57199,1.57509,0.785255,0.133041,0.057438,0.112426,0.0409295,0.0371241,0.208294,0.00314078,0.182611,0.0961879,0.16998,0.089872,0.0886217,0.333125,-0.00980226,7.76979,-5.10715,11.5165,21.7176,0.830705,-0.507909,0.16865,-0.616933,-1.23254,-0.756677,2.6728,0.287883,-0.370486,0.206552
4373129,0.99,-1.56864,-0.521926,0.00200976,-2.09527,1.57105,1.57383,0.784999,-1.56811,-0.52217,0.00233499,-2.09306,1.57208,1.57544,0.785245,0.140311,0.0612405,0.118714,0.047995,0.040767,0.220541,-0.0017378,0.1912,0.100629,0.17997,0.0940367,0.0930534,0.350291,-0.010199,7.86897,-4.90482,11.7704,21.666,0.853594,-0.482274,0.272104,-0.601953,-1.21259,-0.744658,2.69134,0.292688,-0.349459,0.209509
4373130,0.99,-1.56847,-0.521848,0.00213422,-2.0952,1.57111,1.57411,0.784998,-1.56791,-0.522065,0.00252495,-2.09296,1.57218,1.57581,0.785235,0.147133,0.0640031,0.128224,0.0557281,0.0428313,0.240323,-0.00139589,0.19979,0.105069,0.18996,0.0982014,0.0974851,0.367457,-0.0105956,7.99592,-4.82944,12.2028,21.6422,0.898454,-0.469457,0.278513,-0.586173,-1.18556,-0.728724,2.70706,0.29761,-0.329152,0.21226
4373131,0.99,-1.56831,-0.521769,0.00227738,-2.09513,1.57117,1.57441,0.784989,-1.5677,-0.521955,0.0027249,-2.09286,1.57228,1.57619,0.785224,0.152368,0.0685398,0.134585,0.0601583,0.0469638,0.258896,-0.00286337,0.20838,0.10951,0.19995,0.102366,0.101917,0.384623,-0.0109923,8.24983,-4.73026,12.6591,21.666,0.881059,-0.431005,0.330698,-0.569263,-1.14912,-0.708814,2.71646,0.30258,-0.309628,0.214866
4373132,0.99,-1.56813,-0.52168,0.0024276,-2.09506,1.57125,1.57472,0.784982,-1.56749,-0.521841,0.00293484,-2.09275,1.57239,1.57659,0.785212,0.156767,0.0729626,0.139972,0.0665605,0.0569323,0.273806,-0.00285835,0.216969,0.113951,0.20994,0.106531,0.106349,0.401788,-0.011389,8.62672,-4.67868,13.1113,21.5668,0.796831,-0.418187,0.356333,-0.548607,-1.10583,-0.681191,2.72012,0.30756,-0.291229,0.217421
4373133,0.99,-1.56794,-0.521592,0.00258006,-2.09498,1.57133,1.57507,0.78499,-1.56726,-0.521723,0.00315477,-2.09264,1.5725,1.57701,0.7852,0.169731,0.0742237,0.143055,0.0680239,0.0625243,0.292833,-0.00235864,0.225559,0.118391,0.21993,0.110696,0.11078,0.418954,-0.0117857,8.92823,-4.55173,13.7461,21.5906,0.751055,-0.507909,0.240061,-0.521852,-1.05757,-0.641745,2.71948,0.31242,-0.274125,0.220018
4373134,0.99,-1.56774,-0.521497,0.00274421,-2.09489,1.57142,1.57543,0.784986,-1.56703,-0.5216,0.00338469,-2.09253,1.57261,1.57745,0.785188,0.176519,0.0829142,0.148982,0.0728641,0.0716498,0.315387,-0.00173169,0.234149,0.122832,0.22992,0.11486,0.115212,0.43612,-0.0121824,9.30909,-4.47635,14.3769,21.5906,0.683306,-0.553685,0.233652,-0.488885,-1.00811,-0.589532,2.71747,0.317086,-0.258253,0.222687
4373135,0.99,-1.56754,-0.521395,0.00292654,-2.09481,1.57152,1.57581,0.784991,-1.56678,-0.521473,0.0036246,-2.09241,1.57273,1.5779,0.785176,0.184149,0.0904519,0.157777,0.0761347,0.0738398,0.338164,0.000480857,0.242738,0.127273,0.23991,0.119025,0.119644,0.453286,-0.0125791,9.68599,-4.45255,14.8331,21.6144,0.627458,-0.636998,0.181467,-0.450245,-0.968007,-0.525645,2.71953,0.321622,-0.243685,0.225336
4373136,0.99,-1.56734,-0.521291,0.00311252,-2.09472,1.57162,1.57622,0.784997,-1.56653,-0.521341,0.0038745,-2.09229,1.57286,1.57837,0.785163,0.187739,0.0940648,0.164286,0.0768294,0.0790062,0.355951,0.00250497,0.251328,0.131713,0.2499,0.12319,0.124075,0.470451,-0.0129758,10.0629,-4.3494,15.2656,21.6898,0.60457,-0.740453,0.116465,-0.405993,-0.944158,-0.45133,2.72974,0.32607,-0.230529,0.227839
4373137,0.99,-1.5671,-0.521181,0.00329731,-2.09462,1.57173,1.57664,0.784989,-1.56627,-0.521205,0.00413439,-2.09216,1.57299,1.57886,0.785149,0.203605,0.0982188,0.169567,0.084323,0.0899858,0.378263,-0.0011422,0.260321,0.136425,0.25989,0.127626,0.128836,0.488345,-0.0133746,10.2414,-4.30179,15.694,21.6422,0.615556,-0.836583,0.187876,-0.356532,-0.93218,-0.367597,2.74669,0.330244,-0.218698,0.230061
4373138,0.98,-1.56687,-0.521069,0.00348604,-2.09452,1.57185,1.57708,0.784983,-1.566,-0.521063,0.00440427,-2.09203,1.57312,1.57937,0.785136,0.212076,0.100423,0.17605,0.0911455,0.0980642,0.398842,-0.0030571,0.269314,0.141138,0.26988,0.132061,0.133597,0.506239,-0.0137733,10.4675,-4.22244,16.1503,21.6144,0.643938,-0.80454,0.24647,-0.303906,-0.921027,-0.276881,2.76364,0.333809,-0.207889,0.231915
4373139,0.98,-1.56663,-0.520949,0.00369372,-2.09441,1.57197,1.57754,0.784974,-1.56572,-0.520918,0.00468414,-2.09189,1.57326,1.57989,0.785121,0.21829,0.106637,0.184218,0.0970434,0.104879,0.431312,-0.0037937,0.278306,0.14585,0.27987,0.136497,0.138358,0.524133,-0.0141721,10.6183,-4.19864,16.4558,21.5906,0.649431,-0.772496,0.291331,-0.248458,-0.903554,-0.179877,2.77559,0.336604,-0.198168,0.233435
4373140,0.98,-1.56639,-0.520829,0.00390485,-2.09429,1.5721,1.57802,0.784959,-1.56544,-0.520767,0.004974,-2.09175,1.5734,1.58043,0.785107,0.227047,0.109994,0.193234,0.105695,0.110006,0.449831,-0.0108799,0.287299,0.150562,0.28986,0.140933,0.143118,0.542026,-0.0145708,10.7691,-4.12326,16.6303,21.5152,0.672319,-0.759679,0.388376,-0.189498,-0.878888,-0.0765104,2.78127,0.338711,-0.189711,0.234765
4373141,0.98,-1.56615,-0.520704,0.00411042,-2.09417,1.57224,1.57854,0.784958,-1.56514,-0.520612,0.00527385,-2.0916,1.57355,1.58099,0.785092,0.229,0.114252,0.196627,0.109367,0.118921,0.463551,-0.0112563,0.296292,0.155274,0.29985,0.145369,0.147879,0.55992,-0.0149696,10.9992,-3.99631,17.0389,21.416,0.688799,-0.75327,0.356333,-0.125865,-0.846322,0.0344356,2.78019,0.340188,-0.182477,0.236106
4373142,0.98,-1.56589,-0.520569,0.00434819,-2.09404,1.57238,1.57906,0.78496,-1.56484,-0.520452,0.00558369,-2.09145,1.5737,1.58157,0.785076,0.23691,0.119658,0.217825,0.113924,0.127796,0.484182,-0.0107115,0.305285,0.159986,0.30984,0.149805,0.15264,0.577814,-0.0153684,11.0983,-3.94473,17.1619,21.3922,0.62105,-0.75327,0.297739,-0.0585212,-0.807967,0.150626,2.7746,0.341258,-0.176022,0.237644
4373143,0.98,-1.56562,-0.520427,0.00458674,-2.09391,1.57254,1.57962,0.78496,-1.56452,-0.520287,0.00590352,-2.0913,1.57386,1.58217,0.785061,0.247133,0.124284,0.222529,0.121439,0.13539,0.50464,-0.00542965,0.314277,0.164698,0.31983,0.154241,0.157401,0.595708,-0.0157671,11.1499,-3.92093,17.392,21.3169,0.536821,-0.778905,0.226328,0.00670523,-0.767193,0.262599,2.76694,0.342297,-0.169353,0.239452
4373144,0.98,-1.56534,-0.520279,0.00483066,-2.09377,1.57269,1.58021,0.784957,-1.5642,-0.520118,0.00623334,-2.09114,1.57402,1.58278,0.785045,0.251773,0.131446,0.228446,0.125441,0.143164,0.532128,-0.00718048,0.32327,0.169411,0.32982,0.158677,0.162162,0.613601,-0.0161659,11.1737,-3.92093,17.6459,21.2693,0.502947,-0.849401,0.175059,0.0701372,-0.726774,0.37143,2.7582,0.343269,-0.162561,0.241444
4373145,0.98,-1.56506,-0.520124,0.00508629,-2.09363,1.57285,1.58081,0.784957,-1.56387,-0.519944,0.00657315,-2.09098,1.57419,1.58341,0.785028,0.261977,0.138395,0.238719,0.128504,0.148837,0.556344,-0.00710934,0.332263,0.174123,0.33981,0.163113,0.166922,0.631495,-0.0165646,11.2253,-3.99631,17.7967,21.2693,0.491045,-0.907079,0.0844213,0.135958,-0.693505,0.484067,2.75214,0.344037,-0.156462,0.243435
4373146,0.98,-1.56478,-0.519967,0.00535147,-2.09348,1.57302,1.58143,0.784953,-1.56352,-0.519765,0.00692295,-2.09081,1.57436,1.58406,0.785011,0.267645,0.144231,0.24636,0.137299,0.15738,0.577166,-0.00511525,0.341256,0.178835,0.3498,0.167548,0.171683,0.649389,-0.0169634,11.3999,-3.99631,17.9236,21.2177,0.485552,-0.952855,0.0651953,0.203835,-0.671229,0.600352,2.75081,0.344582,-0.15119,0.245214
4373147,0.98,-1.56448,-0.519812,0.00562419,-2.09333,1.57321,1.58208,0.784942,-1.56317,-0.519581,0.00728274,-2.09064,1.57454,1.58473,0.784994,0.27533,0.150142,0.25423,0.140607,0.167436,0.596184,-0.00493806,0.350097,0.183607,0.35979,0.172066,0.176543,0.667097,-0.017354,11.3999,-3.94473,18.1022,21.2177,0.485552,-1.04899,0.0844213,0.273585,-0.657498,0.720334,2.75231,0.344745,-0.146772,0.246577
4373148,0.98,-1.56418,-0.519647,0.00590942,-2.09317,1.57338,1.58275,0.784934,-1.56281,-0.519393,0.00765252,-2.09046,1.57472,1.58541,0.784976,0.284065,0.156783,0.263115,0.144991,0.166548,0.619144,-0.00827278,0.358938,0.188378,0.36978,0.176585,0.181403,0.684806,-0.0177447,11.4514,-3.94473,18.2767,21.1423,0.491045,-1.1204,0.0780126,0.345103,-0.651659,0.843985,2.75674,0.344519,-0.143275,0.247393
4373149,0.98,-1.56387,-0.519482,0.00621311,-2.09301,1.57357,1.58342,0.784918,-1.56245,-0.5192,0.00803229,-2.09028,1.5749,1.58611,0.784958,0.293076,0.157367,0.273132,0.148586,0.171434,0.630443,-0.00730737,0.367779,0.19315,0.37977,0.181103,0.186263,0.702514,-0.0181353,11.5506,-3.89713,18.2767,21.1701,0.474565,-1.02976,0.103647,0.415898,-0.65057,0.967729,2.76389,0.344064,-0.140418,0.24765
4373150,0.98,-1.56355,-0.519316,0.00650996,-2.09283,1.57376,1.58412,0.784903,-1.56207,-0.519002,0.00842205,-2.0901,1.57509,1.58684,0.784939,0.29963,0.160295,0.281229,0.158264,0.178173,0.649207,-0.0106716,0.376621,0.197922,0.38976,0.185621,0.191123,0.720223,-0.018526,11.6538,-3.82175,18.4037,21.0431,0.496538,-0.965673,0.116465,0.483947,-0.642707,1.08867,2.76821,0.343306,-0.137788,0.247411
4373151,0.98,-1.56322,-0.519136,0.00682242,-2.09266,1.57395,1.58484,0.784887,-1.56169,-0.518799,0.0088218,-2.0899,1.57529,1.58757,0.78492,0.308883,0.167963,0.287404,0.160442,0.17671,0.673767,-0.0122587,0.385462,0.202693,0.39975,0.190139,0.195983,0.737931,-0.0189166,11.7291,-3.84555,18.5306,21.1185,0.570696,-0.959264,0.103647,0.550457,-0.623623,1.20854,2.76663,0.342146,-0.135459,0.246768
4373152,0.98,-1.5629,-0.518951,0.0071526,-2.09247,1.57415,1.58559,0.784857,-1.56129,-0.518591,0.00923154,-2.08971,1.57549,1.58833,0.784901,0.314381,0.176361,0.299529,0.166599,0.192389,0.710049,-0.0167527,0.394303,0.207465,0.40974,0.194657,0.200843,0.755639,-0.0193073,11.9077,-3.84555,18.4791,21.0947,0.542314,-0.997716,0.181467,0.617526,-0.60374,1.3299,2.764,0.340816,-0.133867,0.24579
4373153,0.98,-1.56254,-0.518756,0.00748265,-2.09229,1.57437,1.58636,0.784841,-1.56089,-0.518379,0.00965127,-2.08951,1.5757,1.5891,0.784881,0.323317,0.184267,0.310137,0.173287,0.196179,0.72699,-0.0181872,0.403145,0.212237,0.41973,0.199175,0.205703,0.773348,-0.0196979,11.7807,-3.92093,18.606,21.0431,0.50844,-1.04899,0.0844213,0.684679,-0.592934,1.45101,2.7646,0.339622,-0.133029,0.244562
4373154,0.98,-1.56219,-0.518552,0.00783379,-2.09209,1.57459,1.58714,0.784809,-1.56048,-0.518162,0.010081,-2.08931,1.57591,1.58989,0.784861,0.334396,0.18865,0.317862,0.177464,0.200585,0.742132,-0.0187282,0.411986,0.217008,0.42972,0.203693,0.210563,0.791056,-0.0200886,11.7529,-4.07169,18.5822,20.9717,0.435198,-1.04258,0.09083,0.749414,-0.591769,1.56793,2.76833,0.33868,-0.132411,0.243186
4373155,0.98,-1.56184,-0.518348,0.00818315,-2.09189,1.57481,1.58794,0.78478,-1.56005,-0.51794,0.0105207,-2.0891,1.57612,1.5907,0.784841,0.338536,0.190936,0.328879,0.183423,0.210149,0.758444,-0.0185565,0.420827,0.22178,0.43971,0.208211,0.215423,0.808765,-0.0204792,11.9077,-4.17484,18.6338,20.9717,0.394914,-1.02335,0.0844213,0.810498,-0.593017,1.67925,2.77238,0.337859,-0.131564,0.241694
4373156,0.98,-1.56147,-0.518139,0.00855565,-2.09169,1.57503,1.58877,0.784751,-1.55963,-0.517714,0.0109704,-2.08889,1.57634,1.59153,0.78482,0.349479,0.194801,0.340101,0.187202,0.21146,0.775033,-0.018923,0.429668,0.226552,0.4497,0.212729,0.220283,0.826473,-0.0208698,12.0068,-4.25021,18.5544,20.9955,0.412309,-1.04258,0.09083,0.867396,-0.588155,1.784,2.77329,0.336944,-0.130206,0.240077
4373157,0.98,-1.5611,-0.517928,0.00893594,-2.09148,1.57526,1.58963,0.784722,-1.55919,-0.517483,0.0114301,-2.08867,1.57657,1.59237,0.784799,0.360758,0.196075,0.355519,0.191074,0.225057,0.810292,-0.0236005,0.437866,0.231211,0.45969,0.217182,0.225097,0.843499,-0.0212491,12.0822,-4.25021,18.5822,20.9717,0.440691,-1.13962,0.09083,0.916969,-0.572803,1.87705,2.76975,0.335939,-0.127848,0.23834
4373158,0.99,-1.5607,-0.517712,0.00932948,-2.09128,1.5755,1.59047,0.784685,-1.55874,-0.517247,0.0118998,-2.08845,1.5768,1.59323,0.784777,0.371405,0.202135,0.368144,0.198836,0.229328,0.825199,-0.0298209,0.446064,0.23587,0.46968,0.221634,0.229911,0.860526,-0.0216284,12.0584,-4.32559,18.5544,21.0193,0.423296,-1.05539,0.162241,0.955486,-0.545654,1.95232,2.76107,0.334958,-0.124066,0.236502
4373159,0.99,-1.56031,-0.517493,0.0097355,-2.09106,1.57575,1.59134,0.784641,-1.55829,-0.517006,0.0123794,-2.08822,1.57703,1.59411,0.784755,0.384987,0.208184,0.378174,0.204927,0.233004,0.831412,-0.0321073,0.454262,0.240529,0.47967,0.226086,0.234726,0.877552,-0.0220077,12.0822,-4.3494,18.606,21.0431,0.394914,-0.959264,0.304148,0.981388,-0.510049,2.00765,2.74756,0.334059,-0.118612,0.234638
4373160,0.99,-1.5599,-0.51727,0.0101449,-2.09083,1.57599,1.59224,0.784615,-1.55782,-0.516761,0.0128691,-2.08799,1.57727,1.595,0.784733,0.39285,0.213727,0.394133,0.213029,0.23554,0.855608,-0.0282153,0.46246,0.245188,0.48966,0.230539,0.23954,0.894578,-0.0223869,12.1814,-4.40097,18.6338,20.9439,0.45717,-1.10666,0.304148,0.994713,-0.470955,2.04333,2.73053,0.333267,-0.111341,0.232921
4373161,0.99,-1.55949,-0.517032,0.0105759,-2.0906,1.57623,1.59316,0.784578,-1.55735,-0.516511,0.0133687,-2.08776,1.57752,1.59592,0.78471,0.396563,0.219193,0.406505,0.214994,0.234771,0.871453,-0.0321701,0.470658,0.249847,0.49965,0.234991,0.244354,0.911604,-0.0227662,12.3361,-4.50412,18.606,20.9955,0.491045,-1.23575,0.356333,0.998274,-0.432235,2.06256,2.71209,0.332659,-0.102644,0.231579
4373162,0.99,-1.55907,-0.516796,0.0110303,-2.09037,1.57648,1.59409,0.784553,-1.55688,-0.516257,0.0138784,-2.08752,1.57777,1.59684,0.784687,0.408163,0.225572,0.417449,0.218675,0.241379,0.8879,-0.026068,0.478856,0.254506,0.50964,0.239443,0.249168,0.928631,-0.0231455,12.3361,-4.5795,18.4791,21.0193,0.469072,-1.21653,0.291331,0.996725,-0.399416,2.07133,2.69656,0.332368,-0.0933514,0.230778
4373163,0.99,-1.55863,-0.516546,0.0114793,-2.09013,1.57675,1.59502,0.78453,-1.55639,-0.515998,0.014398,-2.08727,1.57802,1.59779,0.784663,0.414538,0.230719,0.429745,0.223706,0.246733,0.895231,-0.0217685,0.487054,0.259165,0.51963,0.243896,0.253982,0.945657,-0.0235247,12.2608,-4.80563,18.4791,21.0193,0.440691,-1.18448,0.226328,0.992672,-0.375845,2.07362,2.68657,0.33243,-0.0839711,0.230577
4373164,0.99,-1.55818,-0.516298,0.0119446,-2.08989,1.57702,1.59598,0.784511,-1.55589,-0.515734,0.0149276,-2.08702,1.57828,1.59875,0.784639,0.429232,0.236064,0.441187,0.228483,0.244667,0.911472,-0.0216365,0.495252,0.263824,0.52962,0.248348,0.258796,0.962683,-0.023904,12.1814,-4.85721,18.3521,20.9717,0.435198,-1.24216,0.110056,0.98597,-0.360187,2.06967,2.68131,0.332801,-0.0744949,0.230918
4373165,0.99,-1.55774,-0.51605,0.0124335,-2.08965,1.57729,1.59692,0.78448,-1.55539,-0.515465,0.0154672,-2.08677,1.57854,1.59973,0.784615,0.433189,0.246251,0.456236,0.23418,0.256834,0.921297,-0.021647,0.50345,0.268483,0.53961,0.2528,0.26361,0.979709,-0.0242833,12.2092,-4.93259,18.2291,20.9717,0.400408,-1.18448,0.116465,0.975646,-0.353934,2.05835,2.68082,0.333482,-0.0648271,0.231605
4373166,0.99,-1.55727,-0.515783,0.0129168,-2.0894,1.57756,1.5979,0.784452,-1.55488,-0.515192,0.0160168,-2.08651,1.57881,1.60073,0.78459,0.443367,0.25055,0.465535,0.238119,0.257558,0.938488,-0.021895,0.511648,0.273142,0.5496,0.257253,0.268424,0.996736,-0.0246625,12.106,-5.08334,18.1776,20.9439,0.378435,-1.12681,0.135691,0.962973,-0.360615,2.04141,2.68611,0.334403,-0.0552311,0.232368
4373167,0.99,-1.5568,-0.515521,0.0134222,-2.08914,1.57783,1.5989,0.784427,-1.55436,-0.514915,0.0165764,-2.08625,1.57908,1.60174,0.784565,0.447583,0.255689,0.470021,0.241362,0.263059,0.945643,-0.0213043,0.51882,0.277548,0.55959,0.261525,0.273096,1.0128,-0.0250332,12.0307,-5.05954,18.0506,20.9201,0.355547,-1.04899,0.135691,0.95326,-0.377791,2.02711,2.69626,0.335275,-0.0464181,0.233012
4373168,0.99,-1.55632,-0.515254,0.0139264,-2.08888,1.57812,1.59989,0.784395,-1.55383,-0.514633,0.017146,-2.08599,1.57936,1.60277,0.78454,0.461301,0.258049,0.4841,0.247337,0.267293,0.955857,-0.0269139,0.525991,0.281953,0.56958,0.265797,0.277767,1.02887,-0.025404,11.9315,-5.08334,18.0506,20.8963,0.327165,-0.965673,0.175059,0.949471,-0.397901,2.02078,2.70802,0.335787,-0.0385649,0.233464
4373169,0.99,-1.55583,-0.514979,0.0144556,-2.08862,1.5784,1.60092,0.784371,-1.5533,-0.514346,0.0177256,-2.08572,1.57964,1.60382,0.784514,0.471471,0.259647,0.493301,0.254695,0.269411,0.969402,-0.0258161,0.533162,0.286359,0.57957,0.27007,0.282438,1.04494,-0.0257747,11.9315,-5.10715,17.9752,20.8963,0.310686,-0.972081,0.200693,0.947617,-0.409722,2.01732,2.71532,0.335802,-0.0307759,0.233746
4373170,0.99,-1.55534,-0.514698,0.0149992,-2.08835,1.57868,1.60196,0.784355,-1.55276,-0.514056,0.0183151,-2.08544,1.57993,1.60488,0.784488,0.473654,0.264499,0.504622,0.25336,0.277721,1.01442,-0.0215155,0.540333,0.290764,0.58956,0.274342,0.28711,1.06101,-0.0261454,11.9077,-5.13492,17.8483,20.9717,0.327165,-1.00412,0.135691,0.947343,-0.408399,2.01608,2.716,0.335275,-0.0230228,0.233902
4373171,0.99,-1.55482,-0.514416,0.0155343,-2.08809,1.57897,1.60302,0.78433,-1.55221,-0.51376,0.0189147,-2.08516,1.58022,1.60595,0.784461,0.480939,0.267739,0.518076,0.257323,0.281519,1.02597,-0.0245272,0.547505,0.29517,0.59955,0.278614,0.291781,1.07708,-0.0265161,11.7529,-5.28568,17.7729,21.0709,0.332659,-1.04258,0.110056,0.952385,-0.399772,2.02134,2.71461,0.334314,-0.0161315,0.233935
4373172,0.99,-1.55431,-0.514128,0.0160941,-2.08783,1.57927,1.60411,0.784301,-1.55166,-0.513461,0.0195242,-2.08488,1.58052,1.60705,0.784435,0.497401,0.274659,0.529679,0.25685,0.279396,1.03884,-0.0247057,0.554676,0.299576,0.60954,0.282887,0.296452,1.09315,-0.0268869,11.6538,-5.38882,17.5944,21.1939,0.34456,-1.08103,0.149424,0.959234,-0.391023,2.02778,2.7161,0.333241,-0.00964148,0.233824
4373173,0.99,-1.55379,-0.513836,0.016644,-2.08756,1.57956,1.60519,0.784282,-1.5511,-0.513157,0.0201438,-2.08459,1.58082,1.60816,0.784407,0.506142,0.282856,0.53062,0.258174,0.286239,1.05661,-0.0226727,0.561847,0.303981,0.61953,0.287159,0.301124,1.10922,-0.0272576,11.6022,-5.4642,17.519,21.3684,0.332659,-1.06821,0.135691,0.964706,-0.39225,2.03235,2.72613,0.332301,-0.00313906,0.23354
4373174,0.99,-1.55325,-0.513531,0.0172075,-2.08727,1.57986,1.60629,0.784251,-1.55053,-0.512848,0.0207733,-2.0843,1.58113,1.60928,0.78438,0.515936,0.28747,0.544238,0.265316,0.284658,1.06951,-0.0286109,0.569019,0.308387,0.62952,0.291431,0.305795,1.12529,-0.0276283,11.5506,-5.61496,17.5706,21.2931,0.406816,-1.10026,0.207102,0.971422,-0.408973,2.04012,2.74658,0.331421,0.0028439,0.233089
4373175,0.99,-1.55271,-0.513228,0.0177876,-2.08699,1.58017,1.60741,0.78422,-1.54995,-0.512536,0.0214128,-2.08401,1.58144,1.61042,0.784352,0.523481,0.289933,0.554017,0.266685,0.295191,1.0806,-0.0284261,0.57619,0.312792,0.63951,0.295704,0.310467,1.14136,-0.027999,11.5268,-5.71414,17.6459,21.3684,0.389421,-1.08744,0.272104,0.978944,-0.433834,2.05031,2.77232,0.330495,0.00841973,0.232545
4373176,0.99,-1.55218,-0.512929,0.0183752,-2.0867,1.58048,1.60853,0.784197,-1.54937,-0.512218,0.0220623,-2.08371,1.58175,1.61158,0.784323,0.525462,0.293151,0.559597,0.271027,0.301834,1.08327,-0.030183,0.583361,0.317198,0.6495,0.299976,0.315138,1.15743,-0.0283697,11.7529,-5.74191,17.6697,21.416,0.327165,-0.984899,0.265696,0.988155,-0.457334,2.06387,2.79845,0.329384,0.0136559,0.232033
4373177,0.99,-1.55164,-0.512617,0.0189798,-2.08641,1.58079,1.60968,0.784172,-1.54878,-0.511897,0.0227218,-2.0834,1.58207,1.61275,0.784295,0.534702,0.300495,0.573894,0.276582,0.300097,1.09326,-0.0309679,0.589294,0.321242,0.65949,0.303974,0.319594,1.17234,-0.0287326,11.8045,-5.86887,17.7729,21.4914,0.316179,-1.00412,0.240061,1.00152,-0.476767,2.0841,2.82303,0.327972,0.0183832,0.231704
4373178,0.99,-1.55109,-0.512313,0.0195874,-2.08612,1.58111,1.61085,0.784148,-1.54818,-0.511572,0.0233913,-2.08309,1.5824,1.61394,0.784265,0.540264,0.302876,0.587474,0.283042,0.306203,1.11315,-0.0263005,0.595227,0.325286,0.66948,0.307972,0.32405,1.18724,-0.0290954,11.9077,-5.84109,17.8205,21.5906,0.304277,-1.15244,0.200693,1.0159,-0.492072,2.10551,2.84467,0.326364,0.0231259,0.231654
4373179,0.99,-1.55052,-0.511992,0.0202107,-2.08582,1.58142,1.61204,0.784142,-1.54758,-0.511243,0.0240707,-2.08278,1.58272,1.61514,0.784236,0.540605,0.307002,0.595272,0.286306,0.312923,1.13,-0.0227821,0.60116,0.32933,0.67947,0.311969,0.328506,1.20215,-0.0294583,11.9553,-5.89267,17.8205,21.6898,0.270403,-1.25498,0.0258276,1.03124,-0.500556,2.12698,2.86152,0.324524,0.0277936,0.231856
4373180,0.99,-1.54994,-0.511666,0.0208431,-2.08552,1.58175,1.61326,0.784126,-1.54697,-0.510909,0.0247602,-2.08247,1.58306,1.61636,0.784206,0.55225,0.310068,0.598266,0.286952,0.316159,1.14708,-0.0197538,0.607093,0.333375,0.68946,0.315967,0.332962,1.21706,-0.0298212,11.8283,-5.96805,17.8721,21.7652,0.298784,-1.46738,-0.044668,1.0533,-0.502275,2.15706,2.87485,0.322243,0.0312951,0.232131
4373181,0.99,-1.54936,-0.511334,0.0214729,-2.08521,1.58206,1.6145,0.784108,-1.54636,-0.510572,0.0254596,-2.08215,1.58339,1.61759,0.784176,0.563421,0.318321,0.605774,0.291683,0.31662,1.17382,-0.0179588,0.613026,0.337419,0.69945,0.319965,0.337418,1.23197,-0.030184,11.7529,-6.14658,17.8998,21.7414,0.389421,-1.82169,-0.103262,1.0842,-0.503236,2.20033,2.88894,0.319519,0.0328237,0.232175
4373182,0.99,-1.54877,-0.510997,0.0221222,-2.0849,1.5824,1.61572,0.784105,-1.54574,-0.51023,0.0261691,-2.08182,1.58374,1.61884,0.784145,0.560912,0.322889,0.621684,0.293743,0.314561,1.1823,-0.0130474,0.618959,0.341463,0.70944,0.323963,0.341874,1.24687,-0.0305469,11.7529,-6.29733,17.8721,21.789,0.406816,-1.8281,-0.258901,1.12149,-0.510422,2.25326,2.90739,0.316653,0.0320632,0.231693
4373183,0.99,-1.5482,-0.510664,0.0227849,-2.08459,1.58273,1.61691,0.784086,-1.54512,-0.509885,0.0268885,-2.0815,1.58408,1.6201,0.784115,0.567267,0.333506,0.634196,0.299437,0.323581,1.18633,-0.0114057,0.624892,0.345507,0.71943,0.327961,0.34633,1.26178,-0.0309097,11.7807,-6.42429,17.8483,21.789,0.469072,-1.5452,-0.23876,1.16138,-0.529325,2.30886,2.93244,0.314032,0.0290677,0.230429
4373184,0.99,-1.54762,-0.510317,0.0234461,-2.08427,1.58306,1.61814,0.784063,-1.54449,-0.509535,0.0276179,-2.08116,1.58443,1.62138,0.784083,0.567235,0.334177,0.64268,0.302878,0.323973,1.19166,-0.0126692,0.630825,0.349551,0.72942,0.331959,0.350786,1.27669,-0.0312726,11.9553,-6.55124,17.8205,21.789,0.513933,-1.31357,-0.141714,1.20192,-0.559873,2.36382,2.96327,0.311797,0.0241377,0.228158
4373185,0.99,-1.54704,-0.509971,0.0241356,-2.08395,1.5834,1.61942,0.784042,-1.54385,-0.509182,0.0283573,-2.08083,1.58479,1.62267,0.784052,0.57045,0.335229,0.652314,0.306794,0.328297,1.20586,-0.017907,0.636758,0.353596,0.73941,0.335956,0.355242,1.2916,-0.0316354,12.0822,-6.57504,17.7451,21.7176,0.462663,-1.34562,-0.044668,1.24513,-0.590811,2.4214,2.99433,0.309843,0.0175304,0.224834
4373186,0.99,-1.54643,-0.509621,0.0248208,-2.08362,1.58376,1.62067,0.784028,-1.54321,-0.508824,0.0291067,-2.08049,1.58515,1.62397,0.78402,0.579371,0.342134,0.659556,0.31685,0.338281,1.21405,-0.0192596,0.642691,0.35764,0.7494,0.339954,0.359698,1.30651,-0.0319983,12.0822,-6.702,17.6975,21.6898,0.282305,-1.30076,-0.00621587,1.29231,-0.611629,2.48392,3.01952,0.308024,0.0097524,0.220645
4373187,0.99,-1.54579,-0.509271,0.02552,-2.0833,1.58412,1.62197,0.784009,-1.54256,-0.508463,0.0298661,-2.08014,1.58551,1.62529,0.783987,0.597761,0.341143,0.669114,0.320322,0.344425,1.23308,-0.0207754,0.647321,0.361241,0.75939,0.343599,0.363872,1.32008,-0.0323532,11.7291,-6.7258,17.7729,21.666,0.163286,-1.43534,0.0459692,1.33907,-0.6181,2.54626,3.03489,0.306198,0.0019151,0.215907
4373188,0.99,-1.54516,-0.508915,0.026233,-2.08297,1.58449,1.62328,0.783997,-1.54191,-0.508098,0.0306355,-2.0798,1.58588,1.62663,0.783955,0.614418,0.347409,0.676665,0.322461,0.354211,1.26698,-0.0184355,0.651952,0.364843,0.76938,0.347244,0.368046,1.33366,-0.0327081,11.503,-6.75357,17.8205,21.7652,0.106523,-1.46738,0.00660151,1.37847,-0.609707,2.59999,3.04078,0.30428,-0.0049367,0.210916
4373189,0.99,-1.54454,-0.50856,0.0269649,-2.08264,1.58485,1.62457,0.783999,-1.54125,-0.507729,0.0314149,-2.07945,1.58625,1.62798,0.783922,0.609769,0.347604,0.702059,0.32438,0.354232,1.27685,-0.0124682,0.656582,0.368444,0.77937,0.350889,0.37222,1.34723,-0.033063,11.6538,-6.7258,17.5944,21.7414,0.186174,-1.38407,-0.155447,1.40621,-0.591304,2.63838,3.04182,0.302298,-0.0104307,0.205892
4373190,0.99,-1.54392,-0.508195,0.0277005,-2.0823,1.5852,1.62591,0.783986,-1.54059,-0.507357,0.0322042,-2.07909,1.58663,1.62934,0.783888,0.610791,0.350512,0.709959,0.322463,0.351963,1.28932,-0.00929791,0.661212,0.372046,0.78936,0.354533,0.376394,1.36081,-0.0334179,11.6776,-6.82895,17.6182,21.7176,0.321672,-1.35843,-0.168264,1.42361,-0.566745,2.66069,3.04255,0.300301,-0.0147581,0.200895
4373191,0.99,-1.54326,-0.507827,0.0284404,-2.08195,1.58557,1.62723,0.783954,-1.53992,-0.506982,0.0330036,-2.07873,1.58701,1.63071,0.783854,0.627748,0.357459,0.736298,0.338349,0.360357,1.30129,-0.0168312,0.665842,0.375647,0.79935,0.358178,0.380568,1.37438,-0.0337729,11.4752,-6.97971,17.4674,21.543,0.389421,-1.22294,-0.0382593,1.42966,-0.537475,2.66425,3.04322,0.298409,-0.0175605,0.195836
4373192,0.99,-1.54261,-0.507452,0.0291963,-2.0816,1.58595,1.62858,0.783925,-1.53925,-0.506603,0.0338129,-2.07837,1.58739,1.6321,0.78382,0.627133,0.360343,0.739023,0.34275,0.365515,1.31561,-0.0216747,0.670472,0.379249,0.80934,0.361823,0.384742,1.38796,-0.0341278,11.3999,-7.18204,17.4158,21.4914,0.293291,-1.13962,0.0844213,1.42137,-0.502517,2.64558,3.03886,0.296709,-0.0181835,0.190679
4373193,0.99,-1.54197,-0.507077,0.0299595,-2.08124,1.58633,1.62997,0.783894,-1.53858,-0.50622,0.0346323,-2.07801,1.58778,1.6335,0.783786,0.637099,0.362064,0.743705,0.347036,0.374741,1.33639,-0.0237659,0.675102,0.38285,0.81933,0.365468,0.388916,1.40154,-0.0344827,11.2769,-7.23361,17.3405,21.3922,0.24843,-1.13321,0.175059,1.40813,-0.460162,2.62003,3.02675,0.294906,-0.0177805,0.185544
4373194,0.99,-1.54131,-0.506705,0.0307193,-2.08089,1.58673,1.63135,0.783855,-1.5379,-0.505833,0.0354616,-2.07764,1.58818,1.63492,0.783751,0.639517,0.366556,0.748674,0.351889,0.379782,1.35179,-0.0272223,0.679732,0.386451,0.82932,0.369112,0.39309,1.41511,-0.0348376,11.1499,-7.28122,17.3682,21.3169,0.180681,-1.15244,0.316965,1.40217,-0.41177,2.60719,3.00839,0.292601,-0.0180012,0.180671
4373195,0.99,-1.54067,-0.506329,0.0315025,-2.08053,1.58713,1.63276,0.783836,-1.53721,-0.505443,0.0363009,-2.07726,1.58857,1.63634,0.783716,0.641593,0.368124,0.757271,0.356809,0.384604,1.35836,-0.0204868,0.684362,0.390053,0.83931,0.372757,0.397265,1.42869,-0.0351925,11.2253,-7.28122,17.2651,21.2177,0.0845506,-1.12681,0.213511,1.40838,-0.359395,2.61473,2.98515,0.289568,-0.0194397,0.176375
4373196,0.99,-1.54001,-0.505953,0.0323069,-2.08016,1.58753,1.63416,0.783829,-1.53653,-0.50505,0.0371502,-2.07689,1.58898,1.63779,0.78368,0.645251,0.371407,0.769135,0.352536,0.393259,1.36649,-0.0126015,0.688992,0.393654,0.8493,0.376402,0.401439,1.44226,-0.0355474,11.2491,-7.33279,17.1381,21.2931,0.027788,-1.10666,0.0194189,1.42613,-0.3062,2.6411,2.96057,0.28579,-0.0218632,0.1729
4373197,0.99,-1.53932,-0.505569,0.0331064,-2.07979,1.58793,1.63558,0.783798,-1.53583,-0.504653,0.0380093,-2.07651,1.58938,1.63924,0.783644,0.656952,0.376529,0.775566,0.362872,0.388593,1.37775,-0.0220543,0.692447,0.396752,0.859101,0.37963,0.405253,1.45428,-0.0358959,11.0983,-7.3566,17.1143,21.1185,0.0726488,-1.10026,-0.0190333,1.45022,-0.257008,2.67831,2.93877,0.2814,-0.0244779,0.170225
4373198,0.99,-1.53865,-0.505166,0.0339399,-2.07941,1.58834,1.63702,0.783769,-1.53514,-0.504253,0.0388782,-2.07612,1.58979,1.64071,0.783608,0.667593,0.385801,0.787296,0.362877,0.387725,1.38865,-0.0257161,0.695901,0.399849,0.868902,0.382858,0.409068,1.46629,-0.0362443,11.023,-7.48355,17.0112,21.1423,0.0726488,-1.01694,-0.0382593,1.47432,-0.21845,2.71746,2.92188,0.276599,-0.0264898,0.168097
4373199,0.99,-1.53797,-0.504772,0.0347613,-2.07902,1.58874,1.63846,0.783733,-1.53444,-0.50385,0.0397569,-2.07574,1.5902,1.64219,0.783571,0.668985,0.392254,0.80044,0.369695,0.395793,1.40979,-0.0302471,0.699356,0.402947,0.878703,0.386087,0.412883,1.47831,-0.0365928,11.0468,-7.5867,16.912,20.9955,0.134905,-1.03617,-0.00621587,1.49414,-0.199175,2.75184,2.91306,0.271677,-0.0274863,0.166213
4373200,0.99,-1.53727,-0.504378,0.0355989,-2.07863,1.58916,1.63994,0.783685,-1.53373,-0.503444,0.0406454,-2.07535,1.59062,1.64368,0.783534,0.677985,0.391885,0.811458,0.374494,0.400351,1.42521,-0.041755,0.702811,0.406044,0.888505,0.389315,0.416698,1.49033,-0.0369413,10.7968,-7.63828,16.8604,20.9717,0.168779,-1.13321,0.122873,1.50897,-0.195576,2.77926,2.90984,0.266723,-0.0274442,0.164363
4373201,0.99,-1.53657,-0.503989,0.0364678,-2.07824,1.58959,1.64139,0.783641,-1.53303,-0.503035,0.0415437,-2.07496,1.59104,1.64518,0.783497,0.688385,0.394303,0.825268,0.381843,0.413776,1.42716,-0.0437424,0.706266,0.409141,0.898306,0.392543,0.420513,1.50234,-0.0372897,10.5429,-7.63828,16.6065,20.9439,0.140398,-1.01053,0.213511,1.51613,-0.191209,2.79599,2.9034,0.261678,-0.0258662,0.162524
4373202,0.99,-1.53586,-0.503592,0.0373345,-2.07785,1.59003,1.64287,0.783609,-1.53232,-0.502623,0.0424518,-2.07456,1.59146,1.64669,0.78346,0.692355,0.393507,0.843089,0.388574,0.419828,1.43587,-0.044117,0.70972,0.412239,0.908107,0.395771,0.424328,1.51436,-0.0376382,10.3406,-7.66208,16.4042,21.0193,0.027788,-0.842992,0.149424,1.51027,-0.172044,2.79466,2.88645,0.256574,-0.0218261,0.160853
4373203,0.99,-1.53517,-0.503196,0.0382124,-2.07745,1.59046,1.64438,0.783582,-1.53161,-0.502207,0.0433697,-2.07416,1.59189,1.64822,0.783422,0.681601,0.395173,0.855285,0.38939,0.421099,1.44912,-0.0383117,0.713175,0.415336,0.917908,0.398999,0.428143,1.52637,-0.0379867,10.2414,-7.66208,16.2018,21.0947,0.0103929,-0.817357,0.038645,1.49372,-0.132729,2.77744,2.85731,0.251377,-0.0155845,0.159521
4373204,0.99,-1.53446,-0.5028,0.0390892,-2.07704,1.59089,1.64589,0.783541,-1.53089,-0.501789,0.0442974,-2.07376,1.59232,1.64976,0.783383,0.694324,0.394818,0.866027,0.397458,0.43292,1.46623,-0.0381675,0.71663,0.418433,0.927709,0.402228,0.431957,1.53839,-0.0383351,10.1383,-7.71365,16.0987,21.1423,-0.0179884,-0.894261,0.0322363,1.47435,-0.0740502,2.75487,2.81798,0.245876,-0.00827863,0.158511
4373205,0.99,-1.53376,-0.502391,0.0399979,-2.07664,1.59134,1.64742,0.78351,-1.53017,-0.501367,0.045235,-2.07335,1.59276,1.65131,0.783345,0.698953,0.399988,0.880213,0.400591,0.435276,1.4747,-0.0354388,0.720084,0.421531,0.93751,0.405456,0.435772,1.5504,-0.0386836,10.166,-7.86441,16.0233,21.2177,-0.0518629,-0.913488,-0.044668,1.45249,0.000708117,2.72854,2.77031,0.239958,-2.68309e-05,0.15767
4373206,0.99,-1.53305,-0.501968,0.0409159,-2.07623,1.5918,1.64896,0.783463,-1.52945,-0.500943,0.0461823,-2.07295,1.5932,1.65287,0.783305,0.703162,0.407383,0.890251,0.397657,0.439997,1.52237,-0.0427488,0.723539,0.424628,0.947311,0.408684,0.439587,1.56242,-0.039032,10.0391,-8.03897,16.0987,21.2693,-0.0967238,-1.03617,0.000192821,1.42757,0.0760845,2.698,2.72325,0.233859,0.00882806,0.156805
4373207,0.99,-1.53232,-0.501551,0.0418342,-2.07582,1.59224,1.65052,0.783421,-1.52872,-0.500515,0.0471384,-2.07253,1.59364,1.65444,0.783266,0.706403,0.409877,0.901412,0.402884,0.434722,1.53739,-0.0425204,0.725957,0.427173,0.956173,0.411445,0.442935,1.57272,-0.0393813,9.83674,-8.2175,16.0511,21.2693,-0.0857374,-1.16526,0.0258276,1.40422,0.135196,2.66943,2.68706,0.227796,0.01695,0.155746
4373208,0.99,-1.53161,-0.501124,0.0427632,-2.07542,1.5927,1.6521,0.783377,-1.52799,-0.500086,0.0481035,-2.07212,1.59409,1.65603,0.783226,0.710347,0.414047,0.904394,0.397982,0.443765,1.54169,-0.0383337,0.728375,0.429718,0.965035,0.414206,0.446284,1.58302,-0.0397306,9.93989,-8.39603,16.0233,21.4676,-0.0573561,-1.30076,0.071604,1.38668,0.174603,2.64973,2.6645,0.221646,0.0234525,0.154439
4373209,0.99,-1.53089,-0.500706,0.0436969,-2.07502,1.59315,1.6537,0.78335,-1.52726,-0.499653,0.0490774,-2.0717,1.59454,1.65762,0.783186,0.710377,0.418886,0.93067,0.400672,0.450121,1.555,-0.0386245,0.730794,0.432263,0.973897,0.416966,0.449632,1.59331,-0.0400798,10.0629,-8.49521,15.8964,21.5668,0.0506761,-1.64133,-0.0318506,1.37372,0.19332,2.6374,2.65727,0.215397,0.028476,0.152933
4373210,0.99,-1.53016,-0.500271,0.0446447,-2.0746,1.59361,1.65529,0.783324,-1.52653,-0.499219,0.0500601,-2.07128,1.59499,1.65922,0.783146,0.710869,0.420705,0.933863,0.402519,0.445913,1.56524,-0.0393398,0.733212,0.434808,0.982759,0.419727,0.45298,1.60361,-0.0404291,10.1145,-8.64597,15.7694,21.666,0.0845506,-1.64774,-0.141714,1.36153,0.193672,2.62584,2.66409,0.209267,0.0322917,0.151291
4373211,0.99,-1.52942,-0.499838,0.0455995,-2.07418,1.59408,1.65688,0.783298,-1.52579,-0.498781,0.0510517,-2.07086,1.59545,1.66084,0.783105,0.709813,0.421761,0.937353,0.405115,0.454552,1.56089,-0.0306533,0.73563,0.437353,0.991621,0.422488,0.456328,1.61391,-0.0407784,9.93989,-8.77292,15.6702,21.6898,0.123918,-1.44816,-0.252493,1.35523,0.184979,2.62259,2.67896,0.203093,0.0338453,0.149452
4373212,0.99,-1.52869,-0.499396,0.0465317,-2.07377,1.59453,1.65847,0.783272,-1.52505,-0.498341,0.0520522,-2.07044,1.59591,1.66246,0.783064,0.711395,0.430829,0.93838,0.402965,0.452493,1.57415,-0.0263742,0.738048,0.439898,1.00048,0.425249,0.459676,1.62421,-0.0411276,9.83674,-9.12601,15.694,21.7414,0.214556,-1.40329,-0.303762,1.36422,0.168274,2.64248,2.70066,0.196606,0.0316782,0.147189
4373213,0.99,-1.52797,-0.498949,0.0475048,-2.07334,1.59501,1.66009,0.783236,-1.52431,-0.497899,0.0530616,-2.07001,1.59637,1.6641,0.783022,0.718422,0.43556,0.949071,0.410841,0.460477,1.57805,-0.0317382,0.740466,0.442443,1.00934,0.428009,0.463025,1.63451,-0.0414769,9.88832,-9.45529,15.4917,21.666,0.163286,-1.42252,-0.252493,1.38937,0.136261,2.6874,2.73146,0.18999,0.025755,0.144249
4373214,0.99,-1.52725,-0.498507,0.0484812,-2.07291,1.59549,1.66172,0.783202,-1.52357,-0.497454,0.0540798,-2.06958,1.59684,1.66574,0.782981,0.7188,0.439354,0.959248,0.414152,0.464936,1.58919,-0.0351138,0.742885,0.444988,1.01821,0.43077,0.466373,1.64481,-0.0418262,9.9875,-9.63382,15.3925,21.6422,0.078142,-1.57724,-0.206716,1.42344,0.0913243,2.74687,2.76755,0.183567,0.0173954,0.140508
4373215,0.99,-1.52651,-0.498062,0.0494393,-2.07249,1.59596,1.66334,0.783179,-1.52282,-0.497006,0.0551069,-2.06914,1.59731,1.6674,0.782938,0.720604,0.441931,0.954842,0.411675,0.467865,1.59683,-0.0348857,0.745303,0.447533,1.02707,0.433531,0.469721,1.65511,-0.0421754,9.86055,-9.78458,15.3925,21.7652,-0.0573561,-1.35203,-0.232351,1.46498,0.0393286,2.81845,2.8054,0.177344,0.00701731,0.135996
4373216,0.99,-1.52577,-0.497618,0.0504308,-2.07207,1.59645,1.66498,0.783156,-1.52208,-0.496556,0.0561428,-2.06871,1.59778,1.66906,0.782896,0.723945,0.442028,0.961019,0.407493,0.474113,1.60249,-0.0341089,0.747721,0.450078,1.03593,0.436292,0.473069,1.66541,-0.0425247,9.81294,-9.85995,15.3171,21.9397,-0.181868,-1.10026,-0.271719,1.51877,-0.0183179,2.90921,2.84699,0.171054,-0.00592019,0.13081
4373217,0.99,-1.52505,-0.497174,0.0514261,-2.07165,1.59692,1.6666,0.783124,-1.52133,-0.496104,0.0571862,-2.06827,1.59826,1.67073,0.782853,0.725764,0.445234,0.976558,0.410834,0.480996,1.6076,-0.0326305,0.74926,0.452041,1.04339,0.438537,0.475787,1.67387,-0.0428823,9.93989,-9.91153,15.1386,22.0389,-0.20384,-0.817357,-0.213125,1.58062,-0.07808,3.01253,2.89266,0.16455,-0.0203551,0.125046
4373218,0.99,-1.52432,-0.496719,0.052447,-2.07122,1.5974,1.66829,0.783083,-1.52058,-0.49565,0.058237,-2.06783,1.59873,1.67242,0.78281,0.727527,0.444025,0.991934,0.414156,0.473832,1.62306,-0.0381623,0.750799,0.454003,1.05084,0.440782,0.478505,1.68233,-0.04324,9.93989,-9.9631,15.0355,22.1143,-0.0857374,-0.959264,-0.0968531,1.63925,-0.132097,3.11026,2.93783,0.157881,-0.033953,0.118829
4373219,0.99,-1.52358,-0.496265,0.053474,-2.07079,1.59788,1.66996,0.783049,-1.51982,-0.495194,0.0592953,-2.06738,1.59921,1.67411,0.782766,0.736115,0.448947,0.999379,0.419953,0.478856,1.64016,-0.0398532,0.752338,0.455966,1.05829,0.443028,0.481222,1.69079,-0.0435976,9.83674,-10.0901,14.9601,22.1897,-0.0289747,-1.02976,-0.0382593,1.68768,-0.173299,3.19114,2.97694,0.151106,-0.0451734,0.112377
4373220,0.99,-1.52282,-0.49581,0.0544947,-2.07037,1.59836,1.67166,0.783009,-1.51907,-0.494736,0.060361,-2.06694,1.5997,1.67581,0.782722,0.739711,0.448867,1.00073,0.419989,0.47363,1.65204,-0.0414302,0.753877,0.457928,1.06575,0.445273,0.48394,1.69925,-0.0439552,9.55903,-10.213,14.8331,22.2611,-0.0234816,-1.10666,0.0322363,1.72763,-0.201602,3.25842,3.00863,0.144192,-0.0541515,0.10597
4373221,0.99,-1.52208,-0.495347,0.0555344,-2.06993,1.59887,1.67338,0.782963,-1.51832,-0.494277,0.0614343,-2.06649,1.60019,1.67751,0.782678,0.729553,0.450537,1.0066,0.424256,0.477966,1.65312,-0.0431411,0.755416,0.45989,1.0732,0.447518,0.486658,1.70771,-0.0443129,9.3329,-10.2924,14.6586,22.2889,-0.114119,-1.11399,0.116465,1.76834,-0.218545,3.32617,3.03373,0.136963,-0.0622991,0.0998836
4373222,0.99,-1.52134,-0.494891,0.0565712,-2.0695,1.59937,1.67507,0.782932,-1.51756,-0.493815,0.0625149,-2.06604,1.60067,1.67923,0.782633,0.734587,0.452519,1.02329,0.426675,0.486201,1.66217,-0.0389988,0.756955,0.461853,1.08066,0.449763,0.489376,1.71617,-0.0446705,9.25752,-10.3678,14.3293,22.2611,-0.0683424,-1.06821,0.0587866,1.8138,-0.224517,3.39962,3.05254,0.129353,-0.0702941,0.0943755
4373223,0.99,-1.52061,-0.494424,0.0576239,-2.06905,1.59986,1.67676,0.782899,-1.5168,-0.493351,0.063603,-2.06559,1.60117,1.68096,0.782588,0.733952,0.456758,1.02716,0.431755,0.488164,1.66456,-0.0367971,0.758494,0.463815,1.08811,0.452009,0.492093,1.72463,-0.0450281,9.3567,-10.5701,13.9484,22.2135,-0.0738356,-0.849401,0.0130102,1.85896,-0.222525,3.47131,3.06607,0.121506,-0.0775798,0.0896296
4373224,0.99,-1.51987,-0.493964,0.0586968,-2.06861,1.60037,1.67847,0.78285,-1.51604,-0.492885,0.0646986,-2.06514,1.60166,1.68269,0.782543,0.738982,0.458342,1.03686,0.433461,0.49647,1.7007,-0.0384818,0.760033,0.465777,1.09557,0.454254,0.494811,1.73309,-0.0453858,9.25752,-10.5701,13.4922,22.1143,-0.0912306,-0.611364,0.0523779,1.90228,-0.216843,3.53937,3.07592,0.113515,-0.084163,0.0856568
4373225,0.99,-1.5191,-0.493501,0.0597561,-2.06816,1.60087,1.68018,0.782813,-1.51528,-0.492417,0.0658016,-2.06468,1.60216,1.68443,0.782497,0.745536,0.462195,1.0457,0.438829,0.497085,1.70245,-0.040675,0.761572,0.46774,1.10302,0.456499,0.497529,1.74155,-0.0457434,8.82905,-10.6693,13.2383,21.9635,-0.119612,-0.572911,-0.00621587,1.94274,-0.209821,3.60224,3.08299,0.105508,-0.089902,0.0823649
4373226,0.99,-1.51834,-0.493043,0.0608513,-2.06771,1.60139,1.68193,0.782762,-1.51452,-0.491948,0.0669121,-2.06422,1.60266,1.68618,0.782451,0.764586,0.459477,1.05792,0.440447,0.496809,1.71016,-0.0425968,0.763111,0.469702,1.11048,0.458745,0.500246,1.75001,-0.046101,8.40059,-10.5939,12.8098,21.8405,-0.136091,-0.643407,0.0651953,1.97115,-0.197975,3.64719,3.08581,0.0977533,-0.0930247,0.079682
4373227,0.99,-1.51756,-0.492592,0.0619489,-2.06725,1.60191,1.68367,0.782714,-1.51375,-0.491477,0.0680284,-2.06376,1.60316,1.68794,0.782405,0.769751,0.459353,1.09153,0.4425,0.50753,1.71984,-0.0416302,0.763954,0.471082,1.1163,0.460414,0.50211,1.75651,-0.046461,8.01973,-10.5185,12.2782,21.6144,-0.15898,-0.746862,0.0780126,1.97057,-0.172901,3.64987,3.08173,0.0907382,-0.0906934,0.0775494
4373228,0.99,-1.51677,-0.49212,0.0630753,-2.0668,1.60241,1.68542,0.782687,-1.51299,-0.491004,0.0691505,-2.0633,1.60367,1.6897,0.782358,0.774629,0.462065,1.10474,0.445901,0.500949,1.71538,-0.0335915,0.764797,0.472462,1.12212,0.462084,0.503973,1.76301,-0.046821,7.56746,-10.5701,11.7982,21.5152,-0.0857374,-0.72672,-0.10967,1.929,-0.132297,3.59137,3.07078,0.0849027,-0.0812052,0.0759381
4373229,0.99,-1.51599,-0.491642,0.0642241,-2.06633,1.60293,1.68718,0.782643,-1.51222,-0.49053,0.0702784,-2.06283,1.60417,1.69147,0.782311,0.768305,0.464795,1.11846,0.4489,0.500128,1.71966,-0.0329373,0.76564,0.473842,1.12794,0.463754,0.505837,1.76951,-0.047181,7.26594,-10.6455,11.3657,21.3922,-0.0967238,-0.598546,-0.168264,1.85346,-0.0827852,3.48097,3.05559,0.0801159,-0.0658698,0.0747545
4373230,0.99,-1.51521,-0.491168,0.0653718,-2.06587,1.60343,1.68893,0.782613,-1.51145,-0.490055,0.0714122,-2.06237,1.60468,1.69325,0.782263,0.768406,0.46385,1.12511,0.449617,0.49908,1.72883,-0.0294292,0.766483,0.475222,1.13376,0.465424,0.5077,1.77601,-0.0475409,7.01204,-10.8716,10.8579,21.3446,-0.10771,-0.617772,-0.310171,1.76174,-0.0298641,3.34471,3.03818,0.0758952,-0.0476407,0.0737231
4373231,0.99,-1.51442,-0.490691,0.06652,-2.06542,1.60396,1.69073,0.782576,-1.51069,-0.489578,0.0725518,-2.0619,1.60519,1.69503,0.782215,0.77771,0.470266,1.13042,0.451511,0.499111,1.74129,-0.0298756,0.767326,0.476602,1.13958,0.467093,0.509563,1.78251,-0.0479009,6.8097,-11.0501,10.5564,21.3922,-0.153486,-0.798131,-0.375173,1.6671,0.0214352,3.20321,3.02085,0.0718607,-0.0288004,0.0724733
4373232,0.99,-1.51364,-0.490209,0.0676647,-2.06494,1.60448,1.69254,0.782529,-1.50992,-0.4891,0.0736972,-2.06143,1.6057,1.69682,0.782167,0.784737,0.485358,1.12589,0.458435,0.508007,1.76831,-0.0346645,0.76817,0.477982,1.1454,0.468763,0.511427,1.78901,-0.0482609,6.53199,-11.3517,10.4056,21.3169,-0.147993,-1.35843,-0.31658,1.57872,0.053981,3.07212,3.00977,0.0677251,-0.0112545,0.0706238
4373233,0.99,-1.51286,-0.489726,0.0687946,-2.06447,1.60501,1.69436,0.782485,-1.50915,-0.488621,0.0748484,-2.06096,1.60621,1.69861,0.782118,0.774487,0.48467,1.12374,0.464327,0.512749,1.78269,-0.0418694,0.769013,0.479361,1.15122,0.470433,0.51329,1.79551,-0.0486209,6.48042,-11.5778,10.2271,21.2693,-0.244124,-1.65415,-0.26531,1.51053,0.0547855,2.97302,3.00757,0.062933,0.00209186,0.0679046
4373234,0.99,-1.51211,-0.48926,0.0699319,-2.064,1.60552,1.69612,0.782455,-1.50838,-0.48814,0.0760054,-2.06049,1.60673,1.70041,0.782069,0.766451,0.475863,1.12821,0.46421,0.50395,1.76109,-0.0342545,0.769856,0.480741,1.15704,0.472103,0.515153,1.80201,-0.0489808,6.71052,-11.6056,10.2271,21.3684,-0.272505,-1.21653,-0.31658,1.47364,0.0420517,2.92196,3.00526,0.0568246,0.00891575,0.0643092
4373235,0.99,-1.51136,-0.488792,0.07104,-2.06353,1.60602,1.69787,0.782416,-1.50761,-0.487658,0.0771683,-2.06002,1.60725,1.70222,0.78202,0.771076,0.47356,1.11778,0.463418,0.511256,1.74661,-0.035963,0.770699,0.482121,1.16286,0.473772,0.517017,1.80851,-0.0493408,6.96046,-11.6294,10.5564,21.416,-0.141585,-0.881444,-0.297354,1.46828,0.042949,2.9196,2.99337,0.0490051,0.00917327,0.0599775
4373236,0.99,-1.51063,-0.48831,0.0721932,-2.06306,1.60653,1.69967,0.782369,-1.50684,-0.487175,0.078337,-2.05954,1.60776,1.70404,0.78197,0.757103,0.472604,1.1242,0.465608,0.499274,1.75232,-0.0403129,0.771542,0.483501,1.16868,0.475442,0.51888,1.81501,-0.0497008,7.69441,-11.7325,10.608,21.4914,0.0506761,-0.830175,-0.193899,1.49254,0.0647576,2.96334,2.97116,0.0394515,0.00367675,0.0550272
4373237,0.99,-1.5099,-0.487822,0.0733558,-2.06256,1.60705,1.70148,0.782325,-1.50607,-0.48669,0.0795097,-2.05906,1.60828,1.70586,0.78192,0.753379,0.474837,1.13032,0.47215,0.508826,1.80417,-0.0370968,0.771879,0.484308,1.1727,0.476498,0.519859,1.81943,-0.0500472,8.27363,-11.9071,10.5564,21.3684,0.0671556,-1.07462,-0.128897,1.54525,0.102314,3.04853,2.94075,0.0286963,-0.00701925,0.049597
4373238,1,-1.50912,-0.487333,0.0744773,-2.06209,1.60758,1.70331,0.782283,-1.50529,-0.486205,0.0806864,-2.05859,1.60881,1.70768,0.78187,0.758367,0.482186,1.12641,0.471876,0.509228,1.80803,-0.0430643,0.772216,0.485115,1.17671,0.477555,0.520837,1.82386,-0.0503936,8.12288,-12.0856,10.8579,21.4438,-0.0234816,-1.19089,-0.0904444,1.6229,0.142665,3.1669,2.9069,0.0175352,-0.0223146,0.0438995
4373239,1,-1.50835,-0.486825,0.0756266,-2.06161,1.60811,1.70513,0.782244,-1.50452,-0.485719,0.0818671,-2.05811,1.60933,1.70951,0.781819,0.759295,0.489292,1.13011,0.477641,0.510792,1.79854,-0.0413569,0.772553,0.485922,1.18073,0.478611,0.521815,1.82828,-0.05074,7.81739,-12.3633,11.1118,21.4676,-0.169966,-1.08744,-0.0904444,1.71884,0.167357,3.30805,2.8778,0.00656223,-0.0409327,0.0382032
4373240,1,-1.50762,-0.48633,0.0767967,-2.06114,1.60865,1.70693,0.782215,-1.50375,-0.485233,0.0830518,-2.05763,1.60985,1.71134,0.781768,0.749199,0.489991,1.13708,0.480661,0.522595,1.80646,-0.0360624,0.772889,0.486728,1.18474,0.479667,0.522793,1.8327,-0.0510864,8.14668,-12.5656,10.7587,21.7176,-0.210249,-0.984899,-0.200308,1.82583,0.16986,3.4613,2.85614,-0.00405459,-0.0613867,0.0327433
4373241,1,-1.50688,-0.485832,0.0779765,-2.06067,1.60916,1.70877,0.782175,-1.50297,-0.484745,0.0842406,-2.05715,1.61037,1.71318,0.781717,0.73777,0.490676,1.14864,0.477333,0.515406,1.80345,-0.0347315,0.773226,0.487535,1.18876,0.480723,0.523772,1.83712,-0.0514328,8.37281,-12.768,10.3779,21.8405,-0.102217,-0.972081,-0.252493,1.93973,0.155829,3.61924,2.84078,-0.0143762,-0.0827488,0.0276025
4373242,1,-1.50611,-0.485333,0.079149,-2.0602,1.60968,1.71064,0.782132,-1.5022,-0.484257,0.0854334,-2.05667,1.6109,1.71502,0.781665,0.745419,0.491468,1.14655,0.467331,0.522676,1.81522,-0.0365231,0.773563,0.488342,1.19277,0.481779,0.52475,1.84155,-0.0517792,7.86897,-12.8434,10.0764,22.1619,-0.0344679,-0.991307,-0.232351,2.05723,0.126343,3.77587,2.83644,-0.0242603,-0.104264,0.0226839
4373243,1,-1.50531,-0.484843,0.0803341,-2.05973,1.61022,1.71245,0.782087,-1.50143,-0.483768,0.0866302,-2.05618,1.61142,1.71687,0.781613,0.758581,0.491808,1.15728,0.470564,0.521959,1.8098,-0.0379274,0.7739,0.489149,1.19679,0.482836,0.525728,1.84597,-0.0521256,7.06361,-12.8949,9.4654,22.3365,-0.198347,-0.785314,-0.206716,2.169,0.0821026,3.91917,2.84683,-0.0333581,-0.124414,0.0178445
4373244,1,-1.5045,-0.484346,0.0815325,-2.05925,1.61076,1.71429,0.782031,-1.50065,-0.483278,0.087831,-2.0557,1.61195,1.71872,0.78156,0.777786,0.489669,1.16782,0.467247,0.520231,1.80734,-0.0412609,0.774237,0.489955,1.20081,0.483892,0.526707,1.85039,-0.052472,6.17891,-13.0219,8.98535,22.4872,-0.356734,-0.533544,-0.116079,2.25617,0.0339164,4.02509,2.86695,-0.0412456,-0.140311,0.0130579
