shamilmamedov/beam_handling/log/param_estimation_ICRA/ocp_Xup_25cm_0.44s_4.csv
duration, success rate, q[0], q[1], q[2], q[3], q[4], q[5], q[6],q_d[0], q_d[1], q_d[2], q_d[3], q_d[4], q_d[5], q_d[6],dq[0], dq[1], dq[2], dq[3], dq[4], dq[5], dq[6],dq_d[0], dq_d[1], dq_d[2], dq_d[3], dq_d[4], dq_d[5], dq_d[6],tau_J[0], tau_J[1], tau_J[2], tau_J[3], tau_J[4], tau_J[5], tau_J[6],tau_ext_hat_filtered[0], tau_ext_hat_filtered[1], tau_ext_hat_filtered[2], tau_ext_hat_filtered[3], tau_ext_hat_filtered[4], tau_ext_hat_filtered[5], tau_ext_hat_filtered[6]
4648706,0,-1.57029,-0.522821,0.000216309,-2.09589,1.57076,1.57169,0.784965,-1.5708,-0.523599,5.32764e-08,-2.0944,1.5708,1.5708,0.785397,0.000992843,0.000181604,-0.000754825,-0.000508098,0.000385056,-0.000167793,-5.29202e-06,0,0,0,0,0,0,0,-0.632923,-10.2646,-0.532163,20.9439,0.740068,-0.67545,0.187876,-0.590413,-1.11841,-0.156124,2.37449,0.183063,-0.67338,0.227324
4648707,1,-1.57029,-0.522819,0.000214639,-2.09589,1.57076,1.57169,0.784967,-1.5708,-0.523599,5.32764e-08,-2.0944,1.5708,1.5708,0.785397,-0.00054453,0.000770683,-0.00106003,0.0013317,5.32534e-05,0.000125497,0.00047119,0,0,0,0,0,0,0,-0.581349,-10.2924,-0.508359,20.8725,0.745561,-0.681859,0.175059,-0.590315,-1.11971,-0.15576,2.37518,0.18309,-0.673484,0.227334
4648708,1,-1.57029,-0.522821,0.000214639,-2.09589,1.57075,1.57169,0.784964,-1.5708,-0.523599,5.32764e-08,-2.0944,1.5708,1.5708,0.785397,-0.00036302,-0.000135825,-0.000706686,-0.000225822,3.55023e-05,-0.000153694,-0.000635309,0,0,0,0,0,0,0,-0.581349,-10.2646,-0.508359,20.9201,0.745561,-0.67545,0.200693,-0.589062,-1.12127,-0.153541,2.37555,0.183052,-0.673779,0.227372
4648709,1,-1.57029,-0.522823,0.000216309,-2.09589,1.57076,1.57169,0.784969,-1.5708,-0.523599,5.32764e-08,-2.0944,1.5708,1.5708,0.785397,0.000314798,-0.000647362,8.5688e-05,-0.000150548,0.000227119,-0.000577181,0.00123797,0,0,0,0,0,0,0,-0.605152,-10.2408,-0.532163,20.9201,0.740068,-0.662633,0.155832,-0.587532,-1.12192,-0.150872,2.37552,0.182983,-0.674106,0.227428
4648710,1,-1.57029,-0.522821,0.000216309,-2.09589,1.57075,1.57169,0.784968,-1.5708,-0.523599,5.32764e-08,-2.0944,1.5708,1.5708,0.785397,-0.000346946,0.000125237,5.71253e-05,-0.000657178,-0.000492848,8.99307e-05,0.000587956,0,0,0,0,0,0,0,-0.581349,-10.2646,-0.532163,20.9439,0.757463,-0.67545,0.162241,-0.586723,-1.12177,-0.149279,2.37555,0.18294,-0.674301,0.227493
4648711,1,-1.57029,-0.522823,0.000216309,-2.09589,1.57076,1.57169,0.784963,-1.5708,-0.523599,5.32764e-08,-2.0944,1.5708,1.5708,0.785397,0.000325514,-0.00047332,3.80836e-05,0.000118693,0.000112244,0.000297313,-0.00126954,0,0,0,0,0,0,0,-0.605152,-10.2408,-0.532163,20.9201,0.745561,-0.681859,0.207102,-0.586552,-1.1216,-0.148657,2.37584,0.182932,-0.674385,0.227539
4648712,1,-1.57029,-0.522821,0.000216309,-2.09589,1.57076,1.57169,0.784969,-1.5708,-0.523599,5.32764e-08,-2.0944,1.5708,1.5708,0.785397,0.00021701,0.000241265,2.5389e-05,7.91287e-05,7.48296e-05,-0.000513868,0.00128987,0,0,0,0,0,0,0,-0.605152,-10.2646,-0.532163,20.9201,0.745561,-0.662633,0.149424,-0.586853,-1.1213,-0.148684,2.37604,0.182939,-0.674386,0.227556
4648713,1,-1.57029,-0.522823,0.000216309,-2.09589,1.57076,1.57169,0.784965,-1.5708,-0.523599,5.32764e-08,-2.0944,1.5708,1.5708,0.785397,-0.000412139,-0.000395969,1.6926e-05,5.27524e-05,-0.000153564,0.000132139,-0.000564241,0,0,0,0,0,0,0,-0.581349,-10.2408,-0.532163,20.9201,0.751055,-0.67545,0.187876,-0.58738,-1.12086,-0.148985,2.37603,0.182946,-0.674343,0.227557
4648714,1,-1.57029,-0.522823,0.000216309,-2.09589,1.57075,1.57169,0.784967,-1.5708,-0.523599,5.32764e-08,-2.0944,1.5708,1.5708,0.785397,-0.000831571,-0.000263979,1.1284e-05,3.51682e-05,-0.000102376,0.000562811,9.85574e-05,0,0,0,0,0,0,0,-0.557545,-10.2408,-0.532163,20.9201,0.751055,-0.688268,0.175059,-0.587571,-1.12009,-0.148832,2.37582,0.18294,-0.674335,0.227537
4648715,1,-1.57029,-0.522825,0.000216309,-2.09589,1.57075,1.57169,0.784968,-1.5708,-0.523599,5.32764e-08,-2.0944,1.5708,1.5708,0.785397,2.43115e-06,-0.0008256,7.52268e-06,0.000580257,-6.82507e-05,-9.95109e-05,0.000540423,0,0,0,0,0,0,0,-0.581349,-10.213,-0.532163,20.8963,0.751055,-0.67545,0.162241,-0.587383,-1.11828,-0.148191,2.37503,0.182911,-0.674365,0.227496
4648716,1,-1.57029,-0.522821,0.000218258,-2.09589,1.57076,1.57169,0.784963,-1.5708,-0.523599,5.32764e-08,-2.0944,1.5708,1.5708,0.785397,0.000558433,0.000656026,0.000654629,-0.000169974,0.000361401,-0.0003037,-0.00130123,0,0,0,0,0,0,0,-0.605152,-10.2646,-0.559934,20.9201,0.740068,-0.669042,0.207102,-0.58759,-1.11625,-0.148146,2.37404,0.182895,-0.674333,0.227438
4648717,1,-1.57029,-0.522819,0.000214639,-2.09589,1.57076,1.57169,0.784969,-1.5708,-0.523599,5.32764e-08,-2.0944,1.5708,1.5708,0.785397,-0.000184523,0.00108696,-0.000770007,0.000443496,-0.000165967,0.000272252,0.00126874,0,0,0,0,0,0,0,-0.581349,-10.2924,-0.508359,20.8963,0.751055,-0.681859,0.149424,-0.588221,-1.11657,-0.148687,2.37412,0.18293,-0.674263,0.227367
4648718,1,-1.57029,-0.522819,0.000218258,-2.09589,1.57076,1.57169,0.784968,-1.5708,-0.523599,5.32764e-08,-2.0944,1.5708,1.5708,0.785397,-0.000123016,0.000724643,0.000693088,0.000295664,0.000296256,-5.58579e-05,0.000371111,0,0,0,0,0,0,0,-0.581349,-10.2924,-0.559934,20.8963,0.740068,-0.67545,0.162241,-0.588607,-1.11968,-0.148856,2.37535,0.18299,-0.674265,0.22729
4648719,1,-1.57029,-0.522825,0.000214639,-2.09589,1.57076,1.57169,0.784962,-1.5708,-0.523599,5.32764e-08,-2.0944,1.5708,1.5708,0.785397,0.000474802,-0.00137294,-0.000744367,-0.000916515,0.000197504,-0.000274598,-0.00165146,0,0,0,0,0,0,0,-0.605152,-10.213,-0.508359,20.9439,0.740068,-0.669042,0.213511,-0.588864,-1.12253,-0.148838,2.37658,0.183041,-0.674277,0.227195
4648720,1,-1.57029,-0.522821,0.000219928,-2.09589,1.57076,1.57169,0.784967,-1.5708,-0.523599,5.32764e-08,-2.0944,1.5708,1.5708,0.785397,-0.000240278,0.00029113,0.00126699,-5.41978e-05,-7.17811e-05,-0.000420424,0.000323178,0,0,0,0,0,0,0,-0.581349,-10.2646,-0.583737,20.9201,0.745561,-0.662633,0.175059,-0.589371,-1.12333,-0.149204,2.37729,0.183079,-0.674211,0.227082
4648721,1,-1.57029,-0.522821,0.000219928,-2.09589,1.57075,1.57169,0.784968,-1.5708,-0.523599,5.32764e-08,-2.0944,1.5708,1.5708,0.785397,-0.000716997,0.000194086,0.000844662,0.00052068,0.000155596,0.000194435,0.00069017,0,0,0,0,0,0,0,-0.557545,-10.2646,-0.583737,20.8963,0.740068,-0.67545,0.162241,-0.590292,-1.12345,-0.150374,2.37772,0.183115,-0.674059,0.226987
4648722,1,-1.57029,-0.522817,0.000216309,-2.09589,1.57076,1.57169,0.784964,-1.5708,-0.523599,5.32764e-08,-2.0944,1.5708,1.5708,0.785397,7.88139e-05,0.00133582,-0.000643318,-0.000209692,-0.00030317,0.000366982,-0.000726682,0,0,0,0,0,0,0,-0.581349,-10.3162,-0.532163,20.9201,0.751055,-0.681859,0.194285,-0.591014,-1.12484,-0.151447,2.37846,0.183144,-0.673942,0.226908
4648723,1,-1.57029,-0.522823,0.000219928,-2.0959,1.57075,1.57169,0.784968,-1.5708,-0.523599,5.32764e-08,-2.0944,1.5708,1.5708,0.785397,0.000609355,-0.000872693,0.000777547,-0.00134622,-0.000202113,7.29601e-06,0.00070234,0,0,0,0,0,0,0,-0.605152,-10.2408,-0.583737,20.9717,0.751055,-0.67545,0.162241,-0.591332,-1.12758,-0.151944,2.37999,0.183176,-0.67389,0.22683
4648724,1,-1.57029,-0.522819,0.000216309,-2.09589,1.57075,1.57169,0.784965,-1.5708,-0.523599,5.32764e-08,-2.0944,1.5708,1.5708,0.785397,0.000406236,0.00062463,-0.000688061,0.000308946,-0.000372101,0.000242223,-0.000481209,0,0,0,0,0,0,0,-0.605152,-10.2924,-0.532163,20.9201,0.757463,-0.681859,0.187876,-0.591756,-1.12994,-0.152554,2.38172,0.183215,-0.673815,0.226754
4648725,1,-1.57029,-0.522823,0.000219928,-2.09589,1.57076,1.57169,0.784962,-1.5708,-0.523599,5.32764e-08,-2.0944,1.5708,1.5708,0.785397,-0.000285988,-0.000790006,0.000747719,0.000205964,0.000192742,0.000161482,-0.00127024,0,0,0,0,0,0,0,-0.581349,-10.2408,-0.583737,20.9201,0.745561,-0.681859,0.213511,-0.592076,-1.13071,-0.152983,2.38253,0.183224,-0.673747,0.226682
4648726,1,-1.57029,-0.522823,0.000216309,-2.09589,1.57075,1.57169,0.78497,-1.5708,-0.523599,5.32764e-08,-2.0944,1.5708,1.5708,0.785397,0.000366153,-0.00052667,-0.000707947,0.00125093,-0.000312315,-0.000604422,0.00176412,0,0,0,0,0,0,0,-0.605152,-10.2408,-0.532163,20.8725,0.757463,-0.662633,0.143015,-0.59213,-1.12881,-0.15302,2.38155,0.183171,-0.673704,0.226634
4648727,1,-1.57029,-0.522823,0.000218258,-2.09589,1.57075,1.57169,0.784964,-1.5708,-0.523599,5.32764e-08,-2.0944,1.5708,1.5708,0.785397,-0.00151914,-0.000351114,0.000177649,-0.00083648,-0.00041166,-0.000165589,-0.000722791,0,0,0,0,0,0,0,-0.529774,-10.2408,-0.559934,20.9439,0.762956,-0.669042,0.194285,-0.591625,-1.12504,-0.152268,2.37945,0.183072,-0.673729,0.226618
4648728,1,-1.57029,-0.522821,0.000216309,-2.09589,1.57076,1.57169,0.784965,-1.5708,-0.523599,5.32764e-08,-2.0944,1.5708,1.5708,0.785397,0.000750481,0.000322736,-0.000531181,-8.41715e-07,0.00036982,0.000364325,-0.000244502,0,0,0,0,0,0,0,-0.605152,-10.2646,-0.532163,20.9201,0.745561,-0.681859,0.187876,-0.590492,-1.12234,-0.15068,2.3781,0.183008,-0.67385,0.226604
4648729,1,-1.57029,-0.522821,0.000216309,-2.09589,1.57075,1.57169,0.784967,-1.5708,-0.523599,5.32764e-08,-2.0944,1.5708,1.5708,0.785397,0.000500321,0.000215157,-0.000354121,-0.000557373,0.000246546,-0.000231834,0.000311717,0,0,0,0,0,0,0,-0.605152,-10.2646,-0.532163,20.9439,0.745561,-0.669042,0.175059,-0.589456,-1.12186,-0.149191,2.37808,0.183017,-0.673971,0.226591
4648730,1,-1.57029,-0.522821,0.000219928,-2.09589,1.57076,1.57169,0.784964,-1.5708,-0.523599,5.32764e-08,-2.0944,1.5708,1.5708,0.785397,0.000333547,0.000143438,0.000970345,0.00018523,0.000367815,-0.000154556,-0.000741625,0,0,0,0,0,0,0,-0.605152,-10.2646,-0.583737,20.9201,0.740068,-0.669042,0.200693,-0.589197,-1.12275,-0.148769,2.37879,0.183086,-0.673987,0.226589
4648731,1,-1.57029,-0.522823,0.000219928,-2.09589,1.57075,1.57169,0.784965,-1.5708,-0.523599,5.32764e-08,-2.0944,1.5708,1.5708,0.785397,-0.000334447,-0.000461186,0.000646897,0.000680299,0.00024521,0.00037168,-1.96986e-05,0,0,0,0,0,0,0,-0.581349,-10.2408,-0.583737,20.8963,0.740068,-0.681859,0.187876,-0.58984,-1.12314,-0.149783,2.3791,0.183174,-0.673862,0.226607
4648732,1,-1.57029,-0.522819,0.000214639,-2.09589,1.57075,1.57169,0.784968,-1.5708,-0.523599,5.32764e-08,-2.0944,1.5708,1.5708,0.785397,-0.000779777,0.000898968,-0.00133197,0.000453532,-0.000684237,-0.000226931,0.000936303,0,0,0,0,0,0,0,-0.557545,-10.2924,-0.508359,20.8963,0.762956,-0.669042,0.162241,-0.590124,-1.12282,-0.15036,2.3787,0.183213,-0.673786,0.226652
4648733,1,-1.57029,-0.522823,0.000218258,-2.0959,1.57075,1.57169,0.784964,-1.5708,-0.523599,5.32764e-08,-2.0944,1.5708,1.5708,0.785397,0.000593773,-0.000607114,0.000318444,-0.000811269,-1.53487e-05,8.60716e-05,-0.000799951,0,0,0,0,0,0,0,-0.605152,-10.2408,-0.559934,20.9439,0.751055,-0.67545,0.200693,-0.5894,-1.12308,-0.149411,2.37855,0.183211,-0.673868,0.226714
4648734,1,-1.57029,-0.522823,0.000214639,-2.09589,1.57076,1.57169,0.784965,-1.5708,-0.523599,5.32764e-08,-2.0944,1.5708,1.5708,0.785397,-0.000160963,-0.000404742,-0.00099413,1.5966e-05,0.00080357,0.00029474,-5.8583e-05,0,0,0,0,0,0,0,-0.581349,-10.2408,-0.508359,20.9201,0.729082,-0.681859,0.187876,-0.588499,-1.12315,-0.148117,2.37869,0.183214,-0.673967,0.226776
4648735,1,-1.57029,-0.522821,0.000218258,-2.09589,1.57075,1.57169,0.784968,-1.5708,-0.523599,5.32764e-08,-2.0944,1.5708,1.5708,0.785397,-0.000664121,0.000286984,0.000543673,0.00112427,-0.000515448,0.000196493,0.00091038,0,0,0,0,0,0,0,-0.557545,-10.2646,-0.559934,20.8725,0.757463,-0.681859,0.162241,-0.587557,-1.12226,-0.146742,2.37832,0.183195,-0.674064,0.226848
4648736,1,-1.57029,-0.522823,0.000219928,-2.09589,1.57076,1.57169,0.784965,-1.5708,-0.523599,5.32764e-08,-2.0944,1.5708,1.5708,0.785397,0.000114065,-0.00036549,0.00091926,0.0001927,9.71775e-05,0.000368355,-0.000342515,0,0,0,0,0,0,0,-0.581349,-10.2408,-0.583737,20.8963,0.745561,-0.688268,0.187876,-0.587029,-1.12088,-0.146123,2.37733,0.183164,-0.674112,0.22693
4648737,1,-1.57029,-0.522823,0.000219928,-2.09589,1.57076,1.57169,0.784969,-1.5708,-0.523599,5.32764e-08,-2.0944,1.5708,1.5708,0.785397,-0.000480769,-0.00024366,0.00061284,-0.000428345,6.4785e-05,-0.000229148,0.00119581,0,0,0,0,0,0,0,-0.557545,-10.2408,-0.583737,20.9201,0.745561,-0.67545,0.149424,-0.587417,-1.11942,-0.147069,2.37633,0.183169,-0.674038,0.227003
4648738,1,-1.57029,-0.522821,0.000214639,-2.09589,1.57076,1.57169,0.784968,-1.5708,-0.523599,5.32764e-08,-2.0944,1.5708,1.5708,0.785397,-0.000320513,0.000394372,-0.00135468,-0.000285564,4.319e-05,-0.000152765,0.000322489,0,0,0,0,0,0,0,-0.557545,-10.2646,-0.508359,20.9201,0.745561,-0.67545,0.162241,-0.587589,-1.11889,-0.147782,2.37616,0.183192,-0.674014,0.227047
4648739,1,-1.57029,-0.522821,0.000218258,-2.09589,1.57076,1.57169,0.784962,-1.5708,-0.523599,5.32764e-08,-2.0944,1.5708,1.5708,0.785397,0.000899949,0.000262915,0.000303307,0.000366436,-0.000174657,-0.000339203,-0.00168388,0,0,0,0,0,0,0,-0.605152,-10.2646,-0.559934,20.8963,0.751055,-0.669042,0.213511,-0.587088,-1.11982,-0.147408,2.37676,0.183205,-0.674111,0.227039
4648740,1,-1.57029,-0.522821,0.000218258,-2.09589,1.57075,1.57169,0.784971,-1.5708,-0.523599,5.32764e-08,-2.0944,1.5708,1.5708,0.785397,4.3154e-05,0.000175277,0.000202205,0.000244291,-0.000116438,1.12239e-05,0.00175963,0,0,0,0,0,0,0,-0.581349,-10.2646,-0.559934,20.8963,0.751055,-0.67545,0.135691,-0.586975,-1.12124,-0.147531,2.3774,0.183224,-0.674155,0.226993
4648741,1,-1.57029,-0.522819,0.000218258,-2.09589,1.57075,1.57169,0.784966,-1.5708,-0.523599,5.32764e-08,-2.0944,1.5708,1.5708,0.785397,2.87693e-05,0.000766465,0.000134803,-0.000393951,-0.000314984,7.48259e-06,-0.000522335,0,0,0,0,0,0,0,-0.581349,-10.2924,-0.559934,20.9201,0.757463,-0.67545,0.181467,-0.587344,-1.12315,-0.148409,2.37819,0.183269,-0.674129,0.22693
4648742,1,-1.57029,-0.522823,0.000214639,-2.09589,1.57075,1.57169,0.784964,-1.5708,-0.523599,5.32764e-08,-2.0944,1.5708,1.5708,0.785397,1.91795e-05,-0.000695449,-0.00111656,-0.000262634,-0.00041344,4.98839e-06,-0.000822941,0,0,0,0,0,0,0,-0.581349,-10.2408,-0.508359,20.9201,0.762956,-0.67545,0.194285,-0.587318,-1.1254,-0.148699,2.3793,0.183326,-0.674159,0.226837
4648743,1,-1.57029,-0.522821,0.000219928,-2.09589,1.57075,1.57169,0.784968,-1.5708,-0.523599,5.32764e-08,-2.0944,1.5708,1.5708,0.785397,-0.000544026,9.31791e-05,0.00101887,-0.00017509,0.000165183,0.000240685,0.000638167,0,0,0,0,0,0,0,-0.557545,-10.2646,-0.583737,20.9201,0.751055,-0.681859,0.162241,-0.586808,-1.12656,-0.148269,2.38005,0.183379,-0.67424,0.226722
4648744,1,-1.57029,-0.522821,0.000216309,-2.0959,1.57076,1.57169,0.784962,-1.5708,-0.523599,5.32764e-08,-2.0944,1.5708,1.5708,0.785397,-0.000362684,6.21194e-05,-0.000527182,-0.00132315,0.000517023,-0.000314262,-0.00147343,0,0,0,0,0,0,0,-0.557545,-10.2646,-0.532163,20.9717,0.740068,-0.669042,0.213511,-0.586244,-1.12739,-0.147875,2.38087,0.183465,-0.674317,0.226606
4648745,1,-1.57029,-0.522821,0.000219928,-2.0959,1.57076,1.57169,0.784969,-1.5708,-0.523599,5.32764e-08,-2.0944,1.5708,1.5708,0.785397,0.000315023,4.14129e-05,0.000854972,-0.000882101,0.000141231,2.78513e-05,0.00139131,0,0,0,0,0,0,0,-0.581349,-10.2646,-0.583737,20.9717,0.745561,-0.67545,0.149424,-0.585887,-1.12913,-0.147885,2.38255,0.183604,-0.674361,0.226501
4648746,1,-1.57029,-0.522823,0.000216309,-2.09589,1.57076,1.57169,0.784971,-1.5708,-0.523599,5.32764e-08,-2.0944,1.5708,1.5708,0.785397,-0.000346797,-0.000529203,-0.000636445,0.000618358,-0.000346655,-0.000218791,0.00143616,0,0,0,0,0,0,0,-0.557545,-10.2408,-0.532163,20.9201,0.757463,-0.669042,0.135691,-0.585766,-1.13031,-0.148263,2.384,0.183735,-0.674352,0.226417
4648747,1,-1.57029,-0.522821,0.000218258,-2.09589,1.57076,1.57169,0.784962,-1.5708,-0.523599,5.32764e-08,-2.0944,1.5708,1.5708,0.785397,0.00153204,0.00020401,0.000225317,0.000412239,0.000209706,0.000328857,-0.00192477,0,0,0,0,0,0,0,-0.632923,-10.2646,-0.559934,20.9201,0.745561,-0.681859,0.213511,-0.585826,-1.12961,-0.148814,2.38402,0.183801,-0.674294,0.226327
4648748,1,-1.57029,-0.522819,0.000216309,-2.09589,1.57076,1.57169,0.784968,-1.5708,-0.523599,5.32764e-08,-2.0944,1.5708,1.5708,0.785397,-0.000185066,0.00078562,-0.000499402,0.00138845,-6.36465e-05,-1.8121e-05,0.000615689,0,0,0,0,0,0,0,-0.581349,-10.2924,-0.532163,20.8725,0.751055,-0.67545,0.162241,-0.586128,-1.12837,-0.149535,2.38307,0.183825,-0.674201,0.226206
4648749,1,-1.57029,-0.522819,0.000219928,-2.09589,1.57075,1.57169,0.784965,-1.5708,-0.523599,5.32764e-08,-2.0944,1.5708,1.5708,0.785397,0.000433435,0.000523747,0.000873491,0.000368821,-0.00048324,-1.20807e-05,-0.000538976,0,0,0,0,0,0,0,-0.605152,-10.2924,-0.583737,20.8963,0.762956,-0.67545,0.187876,-0.586571,-1.12798,-0.150391,2.38198,0.183842,-0.674112,0.226081
4648750,1,-1.57029,-0.522821,0.000218258,-2.0959,1.57075,1.57169,0.784966,-1.5708,-0.523599,5.32764e-08,-2.0944,1.5708,1.5708,0.785397,0.000288956,-0.000300449,2.55154e-05,-0.00151736,0.0003221,-8.05377e-06,-0.000121959,0,0,0,0,0,0,0,-0.605152,-10.2646,-0.559934,20.9717,0.745561,-0.67545,0.181467,-0.587287,-1.12854,-0.151676,2.38159,0.183905,-0.674,0.225962
4648751,1,-1.57029,-0.522823,0.000218258,-2.0959,1.57076,1.57169,0.78497,-1.5708,-0.523599,5.32764e-08,-2.0944,1.5708,1.5708,0.785397,0.000192638,-0.000757111,1.70102e-05,-0.00101157,1.12826e-05,-0.000242728,0.00134285,0,0,0,0,0,0,0,-0.605152,-10.2408,-0.559934,20.9717,0.751055,-0.669042,0.143015,-0.588091,-1.12923,-0.153073,2.38225,0.184025,-0.67387,0.225851
4648752,1,-1.57029,-0.522821,0.000216309,-2.09589,1.57076,1.57169,0.784964,-1.5708,-0.523599,5.32764e-08,-2.0944,1.5708,1.5708,0.785397,-0.000985199,5.2071e-05,-0.000638274,0.00108886,-0.000229837,0.000312899,-0.00100364,0,0,0,0,0,0,0,-0.557545,-10.2646,-0.532163,20.8963,0.757463,-0.681859,0.194285,-0.588142,-1.12879,-0.153298,2.38275,0.184116,-0.67384,0.225741
4648753,1,-1.57029,-0.522823,0.000214639,-2.09589,1.57076,1.57169,0.784966,-1.5708,-0.523599,5.32764e-08,-2.0944,1.5708,1.5708,0.785397,0.000456825,-0.000522098,-0.000982328,0.000725905,-0.000153225,0.000208599,-0.000194375,0,0,0,0,0,0,0,-0.605152,-10.2408,-0.508359,20.8963,0.757463,-0.681859,0.181467,-0.587067,-1.12673,-0.15174,2.38187,0.184117,-0.673973,0.225623
4648754,1,-1.57029,-0.522821,0.000216309,-2.09589,1.57075,1.57169,0.784969,-1.5708,-0.523599,5.32764e-08,-2.0944,1.5708,1.5708,0.785397,-0.000252262,0.000208747,-9.80733e-05,0.000483936,-0.00010215,-9.82927e-05,0.000819852,0,0,0,0,0,0,0,-0.581349,-10.2646,-0.532163,20.8963,0.757463,-0.67545,0.155832,-0.585535,-1.12382,-0.149338,2.38005,0.184068,-0.674181,0.225508
4648755,1,-1.57029,-0.522823,0.000218258,-2.09589,1.57075,1.57169,0.784962,-1.5708,-0.523599,5.32764e-08,-2.0944,1.5708,1.5708,0.785397,0.000388637,-0.000417648,0.000584232,-0.000234188,0.00037271,-6.55284e-05,-0.00158966,0,0,0,0,0,0,0,-0.605152,-10.2408,-0.559934,20.9201,0.745561,-0.67545,0.213511,-0.584631,-1.12138,-0.147807,2.37843,0.184062,-0.674311,0.2254
4648756,1,-1.57029,-0.522821,0.000216309,-2.09589,1.57075,1.57169,0.784969,-1.5708,-0.523599,5.32764e-08,-2.0944,1.5708,1.5708,0.785397,-0.000854532,0.00027838,-0.000260126,-0.000156125,4.50225e-05,0.000431032,0.00131381,0,0,0,0,0,0,0,-0.557545,-10.2646,-0.532163,20.9201,0.751055,-0.688268,0.149424,-0.58438,-1.12004,-0.147301,2.37765,0.184128,-0.674362,0.225299
4648757,1,-1.57029,-0.522817,0.000221877,-2.09589,1.57076,1.57169,0.784964,-1.5708,-0.523599,5.32764e-08,-2.0944,1.5708,1.5708,0.785397,-1.28763e-05,0.00139201,0.00168262,-0.000104083,0.000233466,-0.000187363,-0.001023,0,0,0,0,0,0,0,-0.581349,-10.3162,-0.611508,20.9201,0.745561,-0.67545,0.200693,-0.584522,-1.1211,-0.147517,2.37821,0.184264,-0.674391,0.225214
4648758,1,-1.57029,-0.522821,0.000219928,-2.09589,1.57075,1.57169,0.784962,-1.5708,-0.523599,5.32764e-08,-2.0944,1.5708,1.5708,0.785397,-0.000565396,-0.000278417,0.000472134,0.000487423,-4.78068e-05,-0.000124909,-0.00115671,0,0,0,0,0,0,0,-0.557545,-10.2646,-0.583737,20.8963,0.751055,-0.67545,0.213511,-0.585363,-1.12414,-0.148987,2.37968,0.184458,-0.674347,0.225146
4648759,1,-1.57029,-0.522825,0.000218258,-2.09589,1.57075,1.57169,0.784968,-1.5708,-0.523599,5.32764e-08,-2.0944,1.5708,1.5708,0.785397,0.000179881,-0.00139204,-0.000242056,0.000881761,0.000171579,-8.32725e-05,0.00112773,0,0,0,0,0,0,0,-0.581349,-10.213,-0.559934,20.8725,0.745561,-0.67545,0.162241,-0.586313,-1.12485,-0.15071,2.37978,0.184595,-0.67426,0.225117
4648760,1,-1.57029,-0.522819,0.000214639,-2.09589,1.57075,1.57169,0.784964,-1.5708,-0.523599,5.32764e-08,-2.0944,1.5708,1.5708,0.785397,0.000119921,0.000928015,-0.0013678,3.10285e-05,-0.000529874,-5.5515e-05,-0.000672335,0,0,0,0,0,0,0,-0.581349,-10.2924,-0.508359,20.8963,0.762956,-0.67545,0.200693,-0.586365,-1.12284,-0.150979,2.37834,0.184623,-0.674269,0.225142
4648761,1,-1.57029,-0.522821,0.000214639,-2.09589,1.57076,1.57169,0.784968,-1.5708,-0.523599,5.32764e-08,-2.0944,1.5708,1.5708,0.785397,7.99472e-05,-3.09374e-05,-0.000911864,2.06856e-05,8.75603e-05,0.000200349,0.000975931,0,0,0,0,0,0,0,-0.581349,-10.2646,-0.508359,20.8963,0.751055,-0.681859,0.162241,-0.585296,-1.12199,-0.149388,2.37747,0.184612,-0.674455,0.225201
4648762,1,-1.57029,-0.522821,0.000218258,-2.09589,1.57076,1.57169,0.784966,-1.5708,-0.523599,5.32764e-08,-2.0944,1.5708,1.5708,0.785397,5.32981e-05,-2.06249e-05,0.000598516,1.37904e-05,0.000465275,-0.000103793,-6.14565e-05,0,0,0,0,0,0,0,-0.581349,-10.2646,-0.559934,20.8963,0.740068,-0.67545,0.181467,-0.583994,-1.12249,-0.147386,2.37738,0.18462,-0.674686,0.225277
4648763,1,-1.57029,-0.522821,0.000218258,-2.09589,1.57076,1.57169,0.784963,-1.5708,-0.523599,5.32764e-08,-2.0944,1.5708,1.5708,0.785397,0.000592344,-1.37499e-05,0.000399011,9.19362e-06,-9.6718e-05,-6.91953e-05,-0.000990407,0,0,0,0,0,0,0,-0.605152,-10.2646,-0.559934,20.8963,0.751055,-0.67545,0.207102,-0.583699,-1.12294,-0.146948,2.37738,0.184675,-0.674762,0.225356
4648764,1,-1.57029,-0.522821,0.000219928,-2.09589,1.57076,1.57169,0.784966,-1.5708,-0.523599,5.32764e-08,-2.0944,1.5708,1.5708,0.785397,-0.000161916,-9.16663e-06,0.000822819,-0.000550683,-6.44787e-05,-4.61302e-05,0.000289165,0,0,0,0,0,0,0,-0.581349,-10.2646,-0.583737,20.9201,0.751055,-0.67545,0.181467,-0.584496,-1.12355,-0.148232,2.37762,0.184778,-0.674672,0.22544
4648765,1,-1.57029,-0.522821,0.000218258,-2.09589,1.57076,1.57169,0.784966,-1.5708,-0.523599,5.32764e-08,-2.0944,1.5708,1.5708,0.785397,-0.000107944,-6.11109e-06,-8.26579e-06,-0.000367122,-4.29858e-05,-3.07535e-05,0.000192776,0,0,0,0,0,0,0,-0.581349,-10.2646,-0.559934,20.9201,0.751055,-0.67545,0.181467,-0.585587,-1.12459,-0.150055,2.3783,0.184906,-0.67454,0.225545
4648766,1,-1.57029,-0.522823,0.000218258,-2.09589,1.57075,1.57169,0.784967,-1.5708,-0.523599,5.32764e-08,-2.0944,1.5708,1.5708,0.785397,0.00113446,-0.000560886,-5.51053e-06,0.000312064,-2.86572e-05,-2.05023e-05,0.000365877,0,0,0,0,0,0,0,-0.632923,-10.2408,-0.559934,20.8963,0.751055,-0.67545,0.175059,-0.586551,-1.12519,-0.15166,2.37881,0.185014,-0.67442,0.225668
4648767,1,-1.57029,-0.522821,0.000218258,-2.09589,1.57076,1.57169,0.784962,-1.5708,-0.523599,5.32764e-08,-2.0944,1.5708,1.5708,0.785397,0.000106695,0.000182888,-3.67369e-06,0.000208043,0.000184346,-1.36682e-05,-0.00118024,0,0,0,0,0,0,0,-0.605152,-10.2646,-0.559934,20.8963,0.745561,-0.67545,0.213511,-0.587501,-1.12471,-0.153083,2.37854,0.18508,-0.674292,0.225796
4648768,1,-1.57029,-0.522823,0.000219928,-2.09589,1.57076,1.57169,0.784968,-1.5708,-0.523599,5.32764e-08,-2.0944,1.5708,1.5708,0.785397,7.11299e-05,-0.000434887,-0.00567526,-0.000418117,0.000122897,0.000228247,0.00111205,0,0,0,0,0,0,0,-0.605152,-10.2408,-0.583737,20.9201,0.745561,-0.681859,0.162241,-0.586605,-1.12402,-0.151371,2.37799,0.185046,-0.674445,0.225926
4648769,1,-1.57029,-0.522821,0.000219928,-2.09589,1.57076,1.57169,0.784964,-1.5708,-0.523599,5.32764e-08,-2.0944,1.5708,1.5708,0.785397,0.000697034,0.000266888,-0.00430264,0.00148449,8.19314e-05,-8.51944e-05,-0.00044543,0,0,0,0,0,0,0,-0.632923,-10.2646,-0.583737,20.8448,0.745561,-0.67545,0.194285,-0.581861,-1.12331,-0.143216,2.37713,0.184818,-0.675184,0.226059
4648770,1,-1.57029,-0.522819,0.000218258,-2.09589,1.57075,1.57169,0.784967,-1.5708,-0.523599,5.32764e-08,-2.0944,1.5708,1.5708,0.785397,-0.000184925,0.000827539,-0.00381459,-0.000216764,-0.00014883,-0.000294155,0.000415124,0,0,0,0,0,0,0,-0.605152,-10.2924,-0.559934,20.8963,0.751055,-0.669042,0.175059,-0.574798,-1.12321,-0.131122,2.37609,0.184461,-0.676294,0.22619
4648771,1,-1.5703,-0.522819,0.000218258,-2.09589,1.57075,1.57169,0.784964,-1.5708,-0.523599,5.32764e-08,-2.0944,1.5708,1.5708,0.785397,-0.00188652,0.000551693,-0.00283507,-0.000144509,0.000104231,0.000278614,-0.000435328,0,0,0,0,0,0,0,-0.529774,-10.2924,-0.559934,20.8963,0.745561,-0.681859,0.194285,-0.567337,-1.1252,-0.118591,2.37603,0.184121,-0.677494,0.226314
4648772,1,-1.57029,-0.522823,0.000214179,-2.09589,1.57075,1.57169,0.784964,-1.5708,-0.523599,5.32764e-08,-2.0944,1.5708,1.5708,0.785397,0.00115517,-0.000838631,-0.00275867,-0.000653151,-0.000133963,0.000185743,-0.000527577,0,0,0,0,0,0,0,-0.632923,-10.2408,-0.532163,20.9201,0.751055,-0.681859,0.200693,-0.56065,-1.12785,-0.10763,2.3767,0.183854,-0.678582,0.226431
4648773,1,-1.57029,-0.522823,0.000217548,-2.09589,1.57075,1.57169,0.784965,-1.5708,-0.523599,5.32764e-08,-2.0944,1.5708,1.5708,0.785397,0.000770114,-0.000559087,-0.00135376,-0.000435434,-8.93089e-05,-0.00011353,0.000123,0,0,0,0,0,0,0,-0.632923,-10.2408,-0.559934,20.9201,0.751055,-0.67545,0.187876,-0.55654,-1.1287,-0.100756,2.377,0.18368,-0.679259,0.22656
4648774,1,-1.57029,-0.522821,0.000218021,-2.09589,1.57076,1.57169,0.784962,-1.5708,-0.523599,5.32764e-08,-2.0944,1.5708,1.5708,0.785397,-0.00124983,0.000184087,-0.0010257,-0.00029029,-5.95393e-05,0.000399031,-0.00110479,0,0,0,0,0,0,0,-0.557545,-10.2646,-0.559934,20.9201,0.751055,-0.688268,0.219919,-0.555202,-1.12835,-0.0982987,2.37703,0.183613,-0.679514,0.226716
4648775,1,-1.57029,-0.522825,0.000218179,-2.09589,1.57076,1.57169,0.784967,-1.5708,-0.523599,5.32764e-08,-2.0944,1.5708,1.5708,0.785397,0.000930019,-0.0010837,-0.000776195,-0.000193526,0.000163758,0.000266021,0.000924983,0,0,0,0,0,0,0,-0.632923,-10.213,-0.559934,20.9201,0.745561,-0.688268,0.175059,-0.555702,-1.12754,-0.0989549,2.3769,0.183629,-0.679505,0.226907
4648776,1,-1.57029,-0.522821,0.000221851,-2.09589,1.57076,1.57169,0.784964,-1.5708,-0.523599,5.32764e-08,-2.0944,1.5708,1.5708,0.785397,-0.00114323,0.000483958,0.000619667,0.000984606,0.000109172,-0.000297371,-0.000332781,0,0,0,0,0,0,0,-0.557545,-10.2646,-0.611508,20.8725,0.745561,-0.67545,0.200693,-0.557945,-1.12575,-0.102504,2.37611,0.183695,-0.679246,0.227142
4648777,1,-1.57029,-0.522821,0.000218249,-2.09589,1.57076,1.57169,0.784964,-1.5708,-0.523599,5.32764e-08,-2.0944,1.5708,1.5708,0.785397,-0.00076215,0.000322639,-0.000845287,9.95923e-05,-0.000130669,-0.000198247,-0.000221854,0,0,0,0,0,0,0,-0.557545,-10.2646,-0.559934,20.8963,0.751055,-0.67545,0.200693,-0.561161,-1.12433,-0.10783,2.37506,0.183793,-0.678865,0.227406
4648778,1,-1.57029,-0.522821,0.000218255,-2.09589,1.57076,1.57169,0.784968,-1.5708,-0.523599,5.32764e-08,-2.0944,1.5708,1.5708,0.785397,4.87118e-05,0.000215093,-0.000602504,-0.000490417,-8.71129e-05,-0.000132165,0.00127625,0,0,0,0,0,0,0,-0.581349,-10.2646,-0.559934,20.9201,0.751055,-0.67545,0.162241,-0.564229,-1.12454,-0.11314,2.37474,0.18391,-0.678525,0.227687
4648779,1,-1.57029,-0.522819,0.000219928,-2.09589,1.57075,1.57169,0.784964,-1.5708,-0.523599,5.32764e-08,-2.0944,1.5708,1.5708,0.785397,0.000589287,0.000793009,0.000125908,0.000786679,0.000348826,-8.81099e-05,-0.00057332,0,0,0,0,0,0,0,-0.605152,-10.2924,-0.583737,20.8725,0.740068,-0.67545,0.200693,-0.567488,-1.12607,-0.118747,2.37514,0.184054,-0.678159,0.227972
4648780,1,-1.57029,-0.522819,0.000218258,-2.09589,1.57076,1.57169,0.784967,-1.5708,-0.523599,5.32764e-08,-2.0944,1.5708,1.5708,0.785397,0.000392858,0.000528673,-0.000494799,-0.000589171,2.91e-05,-0.000296099,0.000567223,0,0,0,0,0,0,0,-0.605152,-10.2924,-0.559934,20.9201,0.745561,-0.669042,0.175059,-0.571328,-1.12862,-0.125171,2.37596,0.184223,-0.677705,0.228241
4648781,1,-1.57029,-0.522821,0.000216309,-2.09589,1.57075,1.57169,0.784969,-1.5708,-0.523599,5.32764e-08,-2.0944,1.5708,1.5708,0.785397,-0.000851719,-0.000297165,-0.000995924,-0.000392781,0.000222851,3.99597e-05,0.00109023,0,0,0,0,0,0,0,-0.557545,-10.2646,-0.532163,20.9201,0.740068,-0.67545,0.155832,-0.574724,-1.13143,-0.130879,2.37709,0.184376,-0.677299,0.228483
4648782,1,-1.57029,-0.522821,0.000218258,-2.09589,1.57075,1.57169,0.784963,-1.5708,-0.523599,5.32764e-08,-2.0944,1.5708,1.5708,0.785397,-1.10006e-05,-0.00019811,-2.66687e-05,-0.000818666,-0.000258334,-0.000210719,-0.00117205,0,0,0,0,0,0,0,-0.581349,-10.2646,-0.559934,20.9439,0.751055,-0.669042,0.207102,-0.577062,-1.13329,-0.135016,2.37816,0.184481,-0.677011,0.228683
4648783,1,-1.57029,-0.522823,0.000219928,-2.09589,1.57075,1.57169,0.784968,-1.5708,-0.523599,5.32764e-08,-2.0944,1.5708,1.5708,0.785397,-7.33372e-06,-0.000688885,0.000529783,-0.000545777,-0.000172223,0.000334238,0.000880143,0,0,0,0,0,0,0,-0.581349,-10.2408,-0.583737,20.9439,0.751055,-0.681859,0.162241,-0.579313,-1.13372,-0.139083,2.3789,0.184568,-0.676691,0.228834
4648784,1,-1.57029,-0.522821,0.000218258,-2.09589,1.57076,1.57169,0.784963,-1.5708,-0.523599,5.32764e-08,-2.0944,1.5708,1.5708,0.785397,0.000551923,9.7555e-05,-0.000210561,0.0019562,-0.000114815,-0.000251892,-0.00107475,0,0,0,0,0,0,0,-0.605152,-10.2646,-0.559934,20.8448,0.751055,-0.669042,0.207102,-0.582048,-1.13231,-0.143867,2.3785,0.184627,-0.676263,0.228952
4648785,1,-1.57029,-0.522821,0.000219928,-2.09589,1.57076,1.57169,0.784967,-1.5708,-0.523599,5.32764e-08,-2.0944,1.5708,1.5708,0.785397,0.000367949,6.50366e-05,0.000411235,-0.000459106,0.000330358,6.94308e-05,0.000470294,0,0,0,0,0,0,0,-0.605152,-10.2646,-0.583737,20.9201,0.740068,-0.67545,0.175059,-0.584991,-1.12979,-0.148852,2.37689,0.184643,-0.675786,0.229052
4648786,1,-1.57029,-0.522823,0.000221877,-2.09589,1.57075,1.57169,0.784969,-1.5708,-0.523599,5.32764e-08,-2.0944,1.5708,1.5708,0.785397,0.000245299,-0.000513454,0.000919868,-0.000862882,1.67879e-05,0.000521005,0.00126297,0,0,0,0,0,0,0,-0.605152,-10.2408,-0.611508,20.9439,0.745561,-0.688268,0.149424,-0.588139,-1.12789,-0.154105,2.37567,0.18468,-0.675279,0.229138
4648787,1,-1.57029,-0.522819,0.000219928,-2.09589,1.57075,1.57169,0.784964,-1.5708,-0.523599,5.32764e-08,-2.0944,1.5708,1.5708,0.785397,0.000163533,0.000864123,-3.92951e-05,-1.8443e-05,-0.000429618,-0.000127381,-0.000819536,0,0,0,0,0,0,0,-0.605152,-10.2924,-0.583737,20.9201,0.757463,-0.67545,0.194285,-0.591256,-1.12748,-0.159347,2.37566,0.184761,-0.674798,0.229198
4648788,1,-1.57029,-0.522819,0.000218258,-2.09589,1.57075,1.57169,0.784967,-1.5708,-0.523599,5.32764e-08,-2.0944,1.5708,1.5708,0.785397,-0.0010046,0.000576082,-0.000585204,-1.22953e-05,-0.000693313,0.000152438,0.00016572,0,0,0,0,0,0,0,-0.557545,-10.2924,-0.559934,20.9201,0.76845,-0.681859,0.175059,-0.593286,-1.12899,-0.162954,2.37658,0.184835,-0.674516,0.229212
4648789,1,-1.57029,-0.522821,0.000219928,-2.09589,1.57075,1.57169,0.784966,-1.5708,-0.523599,5.32764e-08,-2.0944,1.5708,1.5708,0.785397,0.000443889,-0.000265559,0.00016503,-0.000565009,0.000182051,0.000101625,-0.000126879,0,0,0,0,0,0,0,-0.605152,-10.2646,-0.583737,20.9439,0.751055,-0.681859,0.181467,-0.593989,-1.13136,-0.164554,2.37783,0.184888,-0.674457,0.229193
4648790,1,-1.57029,-0.522823,0.000216309,-2.09589,1.57075,1.57169,0.784963,-1.5708,-0.523599,5.32764e-08,-2.0944,1.5708,1.5708,0.785397,-0.000260886,-0.000733851,-0.00109764,-0.000376673,-0.000115991,6.77503e-05,-0.00103402,0,0,0,0,0,0,0,-0.581349,-10.2408,-0.532163,20.9439,0.757463,-0.681859,0.207102,-0.594042,-1.13241,-0.165096,2.37864,0.184927,-0.674486,0.229155
4648791,1,-1.57029,-0.522823,0.000218258,-2.09589,1.57075,1.57169,0.784969,-1.5708,-0.523599,5.32764e-08,-2.0944,1.5708,1.5708,0.785397,-0.000173924,-0.000489234,-8.30726e-05,-0.000251115,-7.73275e-05,4.51669e-05,0.00120952,0,0,0,0,0,0,0,-0.581349,-10.2408,-0.559934,20.9439,0.757463,-0.681859,0.155832,-0.593549,-1.13145,-0.164706,2.37866,0.184941,-0.674582,0.229115
4648792,1,-1.57029,-0.522821,0.000219928,-2.09589,1.57076,1.57169,0.784965,-1.5708,-0.523599,5.32764e-08,-2.0944,1.5708,1.5708,0.785397,-0.000115949,0.000230656,0.000500736,0.000946214,0.000389258,-0.000207248,-0.000380446,0,0,0,0,0,0,0,-0.581349,-10.2646,-0.583737,20.8963,0.745561,-0.67545,0.187876,-0.593062,-1.12943,-0.164312,2.37799,0.184951,-0.674676,0.229088
4648793,1,-1.57029,-0.522823,0.000216309,-2.09589,1.57075,1.57169,0.784964,-1.5708,-0.523599,5.32764e-08,-2.0944,1.5708,1.5708,0.785397,-7.72995e-05,-0.000403041,-0.000873123,-0.000482815,0.000259505,-0.000138165,-0.000490989,0,0,0,0,0,0,0,-0.581349,-10.2408,-0.532163,20.9439,0.745561,-0.67545,0.194285,-0.592884,-1.12738,-0.164379,2.377,0.184972,-0.674732,0.229061
4648794,1,-1.57029,-0.522823,0.000216309,-2.09589,1.57075,1.57169,0.784967,-1.5708,-0.523599,5.32764e-08,-2.0944,1.5708,1.5708,0.785397,-5.1533e-05,-0.000268694,-0.000582473,0.000234936,-3.04471e-05,-9.21101e-05,0.000384751,0,0,0,0,0,0,0,-0.581349,-10.2408,-0.532163,20.9201,0.751055,-0.67545,0.175059,-0.592378,-1.12546,-0.163866,2.37609,0.184982,-0.674835,0.229032
4648795,1,-1.57029,-0.522821,0.000219928,-2.09589,1.57075,1.57169,0.784964,-1.5708,-0.523599,5.32764e-08,-2.0944,1.5708,1.5708,0.785397,0.000522457,0.000377682,0.000817818,0.00127025,-0.000257657,-0.000298766,-0.000692935,0,0,0,0,0,0,0,-0.605152,-10.2646,-0.583737,20.8725,0.757463,-0.669042,0.200693,-0.592041,-1.12359,-0.163519,2.37507,0.184985,-0.674909,0.229016
4648796,1,-1.57029,-0.522823,0.000218258,-2.09589,1.57076,1.57169,0.784969,-1.5708,-0.523599,5.32764e-08,-2.0944,1.5708,1.5708,0.785397,-0.000208508,-0.000305024,-1.18199e-05,-0.000266792,6.55876e-05,3.81818e-05,0.00143691,0,0,0,0,0,0,0,-0.581349,-10.2408,-0.559934,20.9201,0.751055,-0.67545,0.149424,-0.592554,-1.122,-0.164448,2.37391,0.185011,-0.674853,0.229017
4648797,1,-1.57029,-0.522823,0.000216309,-2.09589,1.57075,1.57169,0.784968,-1.5708,-0.523599,5.32764e-08,-2.0944,1.5708,1.5708,0.785397,0.000417807,-0.000203349,-0.000657659,-0.000734673,-0.000397084,-0.000211904,0.000483225,0,0,0,0,0,0,0,-0.605152,-10.2408,-0.532163,20.9439,0.762956,-0.669042,0.162241,-0.593174,-1.12108,-0.165512,2.37339,0.18507,-0.674772,0.22902
4648798,1,-1.57029,-0.522823,0.000218258,-2.09589,1.57075,1.57169,0.784964,-1.5708,-0.523599,5.32764e-08,-2.0944,1.5708,1.5708,0.785397,0.000278538,-0.000135566,0.000211051,6.70297e-05,0.000379537,-0.00014127,-0.001102,0,0,0,0,0,0,0,-0.605152,-10.2408,-0.559934,20.9201,0.745561,-0.669042,0.200693,-0.593543,-1.12083,-0.166091,2.37369,0.185156,-0.674716,0.228994
4648799,1,-1.57029,-0.522821,0.000218258,-2.09589,1.57076,1.57169,0.784966,-1.5708,-0.523599,5.32764e-08,-2.0944,1.5708,1.5708,0.785397,-0.00037112,0.000466435,0.000140608,0.000601498,0.000456475,-9.41797e-05,-2.25922e-05,0,0,0,0,0,0,0,-0.581349,-10.2646,-0.559934,20.8963,0.740068,-0.669042,0.181467,-0.593972,-1.12102,-0.166699,2.37415,0.185257,-0.674637,0.228932
4648800,1,-1.57029,-0.522821,0.000218258,-2.09589,1.57076,1.57169,0.784967,-1.5708,-0.523599,5.32764e-08,-2.0944,1.5708,1.5708,0.785397,-0.000247413,0.000310956,9.36692e-05,0.000400999,0.000304317,0.000174572,0.000459656,0,0,0,0,0,0,0,-0.581349,-10.2646,-0.559934,20.8963,0.740068,-0.67545,0.16865,-0.594282,-1.12171,-0.167157,2.3745,0.185346,-0.674568,0.228863
4648801,1,-1.57029,-0.522819,0.000216309,-2.09589,1.57075,1.57169,0.784966,-1.5708,-0.523599,5.32764e-08,-2.0944,1.5708,1.5708,0.785397,0.00039187,0.000856918,-0.00058722,0.000824145,-5.72642e-07,0.000116382,-0.00016828,0,0,0,0,0,0,0,-0.605152,-10.2924,-0.532163,20.8725,0.745561,-0.67545,0.181467,-0.594287,-1.12314,-0.167128,2.37486,0.185401,-0.674543,0.228794
4648802,1,-1.57029,-0.522821,0.000218258,-2.09589,1.57075,1.57169,0.784969,-1.5708,-0.523599,5.32764e-08,-2.0944,1.5708,1.5708,0.785397,0.000261246,-7.83351e-05,0.000258095,-0.000564194,-0.000203832,7.75878e-05,0.000837249,0,0,0,0,0,0,0,-0.605152,-10.2646,-0.559934,20.9201,0.751055,-0.67545,0.155832,-0.594242,-1.12517,-0.166912,2.37543,0.185432,-0.674527,0.228719
4648803,1,-1.57029,-0.522823,0.000219928,-2.09589,1.57076,1.57169,0.784965,-1.5708,-0.523599,5.32764e-08,-2.0944,1.5708,1.5708,0.785397,0.000823778,-0.000609035,0.000728846,-0.000932941,0.000271013,5.17252e-05,-0.000628629,0,0,0,0,0,0,0,-0.632923,-10.2408,-0.583737,20.9439,0.740068,-0.67545,0.187876,-0.594832,-1.12685,-0.167579,2.37633,0.185483,-0.674407,0.228626
4648804,1,-1.57029,-0.522821,0.000218258,-2.09589,1.57075,1.57169,0.784964,-1.5708,-0.523599,5.32764e-08,-2.0944,1.5708,1.5708,0.785397,-0.000100428,0.000150788,-7.09367e-05,0.00104847,-2.27753e-05,3.44834e-05,-0.000656445,0,0,0,0,0,0,0,-0.605152,-10.2646,-0.559934,20.8725,0.745561,-0.67545,0.194285,-0.596061,-1.12729,-0.169165,2.37697,0.185535,-0.674177,0.228512
4648805,1,-1.57029,-0.522825,0.000219928,-2.09589,1.57075,1.57169,0.784967,-1.5708,-0.523599,5.32764e-08,-2.0944,1.5708,1.5708,0.785397,-0.000623764,-0.0011059,0.000509504,0.000142171,-0.000455993,-0.00021437,0.000274447,0,0,0,0,0,0,0,-0.581349,-10.213,-0.583737,20.8963,0.757463,-0.669042,0.175059,-0.597044,-1.12586,-0.17038,2.37641,0.185521,-0.673974,0.228397
4648806,1,-1.57029,-0.522821,0.000216309,-2.09589,1.57076,1.57169,0.784964,-1.5708,-0.523599,5.32764e-08,-2.0944,1.5708,1.5708,0.785397,0.000790583,0.000469159,-0.000866769,-0.000462031,-6.66364e-05,9.44456e-05,-0.000766471,0,0,0,0,0,0,0,-0.632923,-10.2646,-0.532163,20.9201,0.751055,-0.67545,0.200693,-0.597433,-1.1235,-0.170688,2.3753,0.185457,-0.673856,0.2283
4648807,1,-1.57029,-0.522823,0.000216309,-2.09589,1.57075,1.57169,0.784967,-1.5708,-0.523599,5.32764e-08,-2.0944,1.5708,1.5708,0.785397,-0.000122559,-0.000244039,-0.000577855,-0.000864833,0.000159026,6.29637e-05,0.000675814,0,0,0,0,0,0,0,-0.605152,-10.2408,-0.532163,20.9439,0.745561,-0.67545,0.16865,-0.597229,-1.12261,-0.169948,2.37521,0.185404,-0.673846,0.22822
4648808,1,-1.57029,-0.522823,0.000219928,-2.09589,1.57076,1.57169,0.784965,-1.5708,-0.523599,5.32764e-08,-2.0944,1.5708,1.5708,0.785397,-8.17057e-05,-0.000162693,0.000821182,0.000537069,0.000106018,4.19758e-05,-0.000261534,0,0,0,0,0,0,0,-0.605152,-10.2408,-0.583737,20.8963,0.745561,-0.67545,0.187876,-0.596814,-1.12276,-0.168801,2.37578,0.185368,-0.673886,0.228164
4648809,1,-1.57029,-0.522817,0.000218258,-2.09589,1.57075,1.57169,0.784964,-1.5708,-0.523599,5.32764e-08,-2.0944,1.5708,1.5708,0.785397,-5.44705e-05,0.00165478,-9.36237e-06,-0.000755578,7.06783e-05,0.000265343,-0.000649074,0,0,0,0,0,0,0,-0.605152,-10.3162,-0.559934,20.9439,0.745561,-0.681859,0.200693,-0.596784,-1.12405,-0.168288,2.37677,0.185364,-0.673894,0.228125
4648810,1,-1.57029,-0.522821,0.000214639,-2.09589,1.57075,1.57169,0.784969,-1.5708,-0.523599,5.32764e-08,-2.0944,1.5708,1.5708,0.785397,-0.00114994,-0.000103242,-0.00121267,5.30933e-05,-0.000156332,-0.000297823,0.0012288,0,0,0,0,0,0,0,-0.557545,-10.2646,-0.508359,20.9201,0.751055,-0.669042,0.155832,-0.596331,-1.1276,-0.167171,2.37875,0.185375,-0.674004,0.228104
4648811,1,-1.5703,-0.522821,0.000216309,-2.09589,1.57076,1.57169,0.784967,-1.5708,-0.523599,5.32764e-08,-2.0944,1.5708,1.5708,0.785397,-0.00141624,-6.8828e-05,-0.000251639,3.53955e-05,-0.000104221,0.000276169,0.000107121,0,0,0,0,0,0,0,-0.529774,-10.2646,-0.532163,20.9201,0.751055,-0.681859,0.175059,-0.594497,-1.13077,-0.16404,2.38045,0.185323,-0.674319,0.228101
4648812,1,-1.57029,-0.522823,0.000219928,-2.0959,1.57076,1.57169,0.784967,-1.5708,-0.523599,5.32764e-08,-2.0944,1.5708,1.5708,0.785397,0.000819079,-0.000602697,0.00103866,-0.00118283,-6.94807e-05,-5.3246e-05,0.000308773,0,0,0,0,0,0,0,-0.605152,-10.2408,-0.583737,20.9717,0.751055,-0.67545,0.16865,-0.592697,-1.13189,-0.1611,2.38129,0.18525,-0.674597,0.228093
4648813,1,-1.57029,-0.522823,0.000216309,-2.0959,1.57076,1.57169,0.784968,-1.5708,-0.523599,5.32764e-08,-2.0944,1.5708,1.5708,0.785397,0.000546052,-0.000401798,-0.000513984,-0.000788553,0.00015713,-3.54973e-05,0.000443208,0,0,0,0,0,0,0,-0.605152,-10.2408,-0.532163,20.9717,0.745561,-0.67545,0.162241,-0.592447,-1.1318,-0.160511,2.38203,0.185237,-0.674619,0.228062
4648814,1,-1.57029,-0.522823,0.000216309,-2.09589,1.57076,1.57169,0.784971,-1.5708,-0.523599,5.32764e-08,-2.0944,1.5708,1.5708,0.785397,-0.000192777,-0.000267865,-0.000342658,0.00179435,0.000104753,0.000213694,0.000295472,0,0,0,0,0,0,0,-0.581349,-10.2408,-0.532163,20.8725,0.745561,-0.681859,0.162241,-0.592807,-1.13027,-0.160725,2.38197,0.185212,-0.674532,0.228
4648815,1,-1.57029,-0.522819,0.000212968,-2.09589,1.57076,1.57169,0.784966,-1.5708,-0.523599,5.32764e-08,-2.0944,1.5708,1.5708,0.785397,0.00107791,0.00102785,-0.00134206,8.26081e-05,-0.000370974,-9.48962e-05,-0.000752455,0,0,0,0,0,0,0,-0.632923,-10.2924,-0.484555,20.9201,0.757463,-0.67545,0.187876,-0.59274,-1.1281,-0.160117,2.38082,0.185117,-0.674517,0.227899
4648816,1,-1.5703,-0.522823,0.000219928,-2.09589,1.57075,1.57169,0.784968,-1.5708,-0.523599,5.32764e-08,-2.0944,1.5708,1.5708,0.785397,-0.00225106,-0.000521193,0.00142534,5.50721e-05,-0.000247316,-0.000537982,0.000447799,0,0,0,0,0,0,0,-0.50597,-10.2408,-0.583737,20.9201,0.757463,-0.662633,0.162241,-0.592397,-1.12697,-0.159086,2.37985,0.18502,-0.674564,0.227762
4648817,1,-1.57029,-0.522823,0.000219928,-2.09589,1.57075,1.57169,0.784964,-1.5708,-0.523599,5.32764e-08,-2.0944,1.5708,1.5708,0.785397,0.000819344,-0.000347462,0.000950226,0.000593527,0.000275932,0.000116063,-0.00112562,0,0,0,0,0,0,0,-0.605152,-10.2408,-0.583737,20.8963,0.745561,-0.67545,0.200693,-0.592571,-1.12561,-0.159135,2.37893,0.184976,-0.67452,0.227605
4648818,1,-1.57029,-0.522819,0.000216309,-2.09589,1.57075,1.57169,0.784965,-1.57079,-0.523597,2.55328e-06,-2.09439,1.5708,1.5708,0.785398,-1.05825e-05,0.000974784,-0.000572942,-0.000161127,-1.94957e-05,7.73755e-05,-0.000275696,0.00312491,0.001875,0.0025,0.00231139,0.00155808,0.005,0.000158622,-0.581349,-10.2924,-0.532163,20.9201,0.751055,-0.67545,0.187876,-0.593467,-1.12418,-0.160425,2.37801,0.184981,-0.67435,0.227445
4648819,1,-1.57029,-0.522819,0.000218258,-2.09589,1.57075,1.57169,0.784969,-1.57079,-0.523593,7.55328e-06,-2.09439,1.5708,1.57081,0.785398,0.000549757,0.000649856,0.000267652,-0.000107418,-1.29972e-05,5.15836e-05,0.00124036,0.00624981,0.00375,0.005,0.00462278,0.00311616,0.01,0.000317245,-0.605152,-10.2924,-0.559934,20.9201,0.751055,-0.67545,0.149424,-0.594314,-1.12515,-0.161569,2.37834,0.185031,-0.674203,0.227301
4648820,1,-1.57029,-0.522819,0.000219928,-2.09589,1.57075,1.57169,0.784964,-1.57078,-0.523587,1.50533e-05,-2.09438,1.57081,1.57083,0.785398,0.00101612,0.000433238,0.000735247,-0.000628424,-0.000246024,3.43891e-05,-0.00107197,0.00937472,0.005625,0.0075,0.00693417,0.00467425,0.015,0.000475867,-0.632923,-10.2924,-0.583737,20.9439,0.757463,-0.67545,0.200693,-0.595424,-1.12817,-0.163057,2.37991,0.185136,-0.674036,0.227176
4648821,1,-1.57029,-0.522817,0.000218331,-2.09589,1.57076,1.57169,0.784969,-1.57076,-0.52358,2.50533e-05,-2.09437,1.57081,1.57085,0.785399,0.00196001,0.00280219,0.00268791,0.0050303,0.000276794,-0.000451792,0.000946868,0.0124996,0.0075,0.01,0.00924556,0.00623233,0.02,0.00063449,-0.557545,-10.2646,-0.409177,20.9717,0.745561,-0.662633,0.155832,-0.598244,-1.13174,-0.167062,2.38101,0.185286,-0.673633,0.227065
4648822,1,-1.57029,-0.52282,0.000217102,-2.0959,1.57076,1.57169,0.784966,-1.57075,-0.523571,3.75533e-05,-2.09436,1.57082,1.57087,0.7854,-0.00189459,2.49501e-06,0.00161409,0.00154172,-1.89214e-05,-6.38356e-05,-0.000318191,0.0156245,0.009375,0.0125,0.011557,0.00779041,0.025,0.000793112,-0.279835,-10.0385,0.0232571,21.0709,0.751055,-0.669042,0.181467,-0.602425,-1.13417,-0.173208,2.37992,0.185407,-0.67303,0.226973
4648823,1,-1.5703,-0.522825,0.000233528,-2.09589,1.57076,1.57169,0.784962,-1.57073,-0.523559,5.25533e-05,-2.09435,1.57083,1.5709,0.785401,-0.00655193,-0.000393387,0.00714733,0.00207262,0.000190836,-0.000517275,-0.00139892,0.0187494,0.01125,0.015,0.0138683,0.00934849,0.03,0.000951734,0.227978,-9.733,0.352542,21.1701,0.745561,-0.656224,0.213511,-0.605828,-1.1331,-0.179023,2.37686,0.18548,-0.672454,0.226888
4648824,1,-1.5703,-0.522823,0.000248777,-2.09589,1.57076,1.57169,0.784967,-1.57071,-0.523546,7.00533e-05,-2.09433,1.57084,1.57094,0.785402,-0.00425742,-0.00157641,0.00819039,0.00561292,0.000534125,-0.000107491,0.000491539,0.0218743,0.013125,0.0175,0.0161797,0.0109066,0.035,0.00111036,0.656444,-9.50687,0.80878,21.1423,0.734575,-0.662633,0.175059,-0.608594,-1.12554,-0.185432,2.37122,0.18553,-0.671747,0.226825
4648825,1,-1.5703,-0.522814,0.000267064,-2.09588,1.57076,1.5717,0.784962,-1.57068,-0.523531,9.00533e-05,-2.09431,1.57085,1.57098,0.785403,-0.000266231,-0.000549504,0.00877677,0.00646531,0.000356083,-0.00030902,-0.00109646,0.0249993,0.015,0.02,0.0184911,0.0124647,0.04,0.00126898,1.00953,-9.35611,1.28882,21.1939,0.734575,-0.656224,0.213511,-0.612659,-1.10963,-0.195008,2.36143,0.185544,-0.670484,0.226823
4648826,1,-1.5703,-0.522803,0.000298529,-2.09588,1.57076,1.5717,0.784962,-1.57066,-0.523514,0.000112553,-2.09429,1.57087,1.57102,0.785405,-0.00394254,0.00199156,0.0184996,0.00275418,0.00976135,-0.00115545,-0.000730974,0.0281242,0.016875,0.0225,0.0208025,0.0140227,0.045,0.0014276,1.51338,-9.28073,1.54273,21.2931,0.729082,-0.63059,0.213511,-0.619866,-1.091,-0.21064,2.35112,0.185685,-0.668283,0.226884
4648827,1,-1.57029,-0.522788,0.000320648,-2.09587,1.57076,1.5717,0.784967,-1.57062,-0.523496,0.000137553,-2.09427,1.57088,1.57107,0.785406,-0.00158399,0.00109348,0.0157222,0.00510941,0.00647047,0.000416495,0.0011742,0.0312491,0.01875,0.025,0.0231139,0.0155808,0.05,0.00158622,1.81489,-9.22916,1.94739,21.3169,0.751055,-0.662633,0.16865,-0.629994,-1.07611,-0.233013,2.34496,0.186129,-0.665055,0.227005
4648828,1,-1.57029,-0.522782,0.000348007,-2.09587,1.57076,1.57171,0.784963,-1.57059,-0.523473,0.000167553,-2.09424,1.5709,1.57113,0.785408,0.00258403,0.00421635,0.0187269,0.0053256,0.00404847,0.0012271,-0.000641356,0.0371244,0.0225,0.03,0.0272503,0.0182639,0.06,0.00174772,2.14418,-9.0784,2.25287,21.3922,0.773943,-0.688268,0.207102,-0.640529,-1.06538,-0.258405,2.34318,0.186828,-0.661061,0.22719
4648829,1,-1.57028,-0.522777,0.000378691,-2.09586,1.57076,1.57172,0.784967,-1.57054,-0.523447,0.000202553,-2.09421,1.57092,1.5712,0.78541,0.00336065,0.00542337,0.0193103,0.00376793,0.00333933,0.00490526,0.000759224,0.0429997,0.02625,0.035,0.0313867,0.020947,0.07,0.00190922,2.44569,-8.87607,2.50281,21.416,0.76845,-0.669042,0.175059,-0.649819,-1.06089,-0.284055,2.34671,0.187826,-0.656547,0.22742
4648830,1,-1.57027,-0.522767,0.000412065,-2.09585,1.57076,1.57172,0.784973,-1.5705,-0.523417,0.000242553,-2.09417,1.57095,1.57128,0.785412,0.00591289,0.00514097,0.0244037,0.00435745,0.00170618,0.00742136,0.00267629,0.048875,0.03,0.04,0.0355231,0.0236301,0.08,0.00207072,2.64802,-8.74911,2.68134,21.4914,0.791338,-0.643407,0.116465,-0.65717,-1.06331,-0.309341,2.35652,0.189223,-0.651631,0.227674
4648831,1,-1.57025,-0.522756,0.000441118,-2.09584,1.57076,1.57173,0.784964,-1.57044,-0.523383,0.000287553,-2.09413,1.57097,1.57137,0.785414,0.0101251,0.00940556,0.0293795,0.0066399,0.00202747,0.00886263,-0.00109802,0.0547503,0.03375,0.045,0.0396595,0.0263131,0.09,0.00223222,2.87416,-8.54678,3.0622,21.4914,0.773943,-0.604955,0.194285,-0.664117,-1.07035,-0.337055,2.37118,0.191082,-0.646041,0.227913
4648832,1,-1.57023,-0.522742,0.000479748,-2.09583,1.57076,1.57174,0.784966,-1.57038,-0.523346,0.000337553,-2.09409,1.571,1.57147,0.785416,0.0121001,0.0108882,0.033256,0.00974676,0.00133251,0.00768351,-0.000257298,0.0606256,0.0375,0.05,0.0437959,0.0289962,0.1,0.00239372,3.27882,-8.26907,3.56604,21.5668,0.779436,-0.5015,0.181467,-0.672841,-1.0816,-0.370563,2.38908,0.193431,-0.639383,0.228098
4648833,1,-1.57022,-0.522725,0.00052889,-2.09581,1.57076,1.57174,0.784962,-1.57031,-0.523304,0.000392553,-2.09404,1.57103,1.57158,0.785419,0.0130307,0.016499,0.0385656,0.0133631,0.00163693,0.00587398,-0.00135833,0.0665009,0.04125,0.055,0.0479323,0.0316793,0.11,0.00255522,3.85804,-7.91599,4.09766,21.5906,0.762956,-0.366002,0.213511,-0.68302,-1.09727,-0.409346,2.40884,0.196184,-0.631554,0.228249
4648834,1,-1.57018,-0.522701,0.000575406,-2.09579,1.57077,1.57176,0.784967,-1.57024,-0.523259,0.000452553,-2.09399,1.57107,1.5717,0.785422,0.0227468,0.0193519,0.0374102,0.016042,0.00119497,0.00707142,0.000755962,0.0723762,0.045,0.06,0.0520686,0.0343624,0.12,0.00271672,4.21113,-7.6105,4.75623,21.6144,0.762956,-0.289098,0.16865,-0.693364,-1.11849,-0.450901,2.43026,0.199229,-0.622507,0.228413
4648835,1,-1.57015,-0.522666,0.000633108,-2.09576,1.57078,1.57178,0.784964,-1.57016,-0.523211,0.000517553,-2.09393,1.5711,1.57183,0.785425,0.0267605,0.023867,0.042906,0.0173257,0.00277327,0.0178572,-0.00068282,0.0782515,0.04875,0.065,0.056205,0.0370454,0.13,0.00287822,4.71498,-7.40817,5.31562,21.666,0.711687,-0.225011,0.200693,-0.702907,-1.14623,-0.492769,2.45412,0.202507,-0.612154,0.228604
4648836,1,-1.5701,-0.522627,0.000696297,-2.09574,1.57079,1.57181,0.784969,-1.57008,-0.523158,0.000587553,-2.09387,1.57114,1.57197,0.785428,0.0360747,0.0272503,0.0474514,0.0197239,0.00295833,0.0208658,0.0012063,0.0841268,0.0525,0.07,0.0603414,0.0397285,0.14,0.00303972,5.06807,-7.20584,5.84723,21.789,0.683306,-0.1536,0.155832,-0.7122,-1.18052,-0.535414,2.48146,0.206052,-0.60023,0.228815
4648837,1,-1.57005,-0.522584,0.000758536,-2.09571,1.5708,1.57185,0.784962,-1.56999,-0.523102,0.000662553,-2.09381,1.57119,1.57212,0.785431,0.0412111,0.0308032,0.047527,0.021525,0.00672221,0.0299602,-0.00133203,0.0900021,0.05625,0.075,0.0644778,0.0424116,0.15,0.00320122,5.37355,-7.05508,6.37885,21.789,0.683306,-0.140783,0.213511,-0.721048,-1.22,-0.57828,2.51236,0.209791,-0.586562,0.229028
4648838,1,-1.56998,-0.522546,0.000825106,-2.09568,1.5708,1.57191,0.784963,-1.56989,-0.52304,0.000745053,-2.09374,1.57123,1.57229,0.785434,0.0502238,0.0316308,0.053209,0.0244313,0.00707395,0.044497,-0.000650662,0.0984682,0.061875,0.0825,0.0701084,0.0461276,0.165,0.00319486,5.57588,-6.82895,6.78351,21.9873,0.751055,-0.212194,0.207102,-0.727381,-1.2601,-0.617838,2.54507,0.213512,-0.571333,0.229229
4648839,1,-1.56991,-0.522506,0.000895439,-2.09565,1.5708,1.57199,0.784962,-1.56978,-0.522972,0.000835053,-2.09366,1.57128,1.57247,0.785437,0.056201,0.0322488,0.0565992,0.0264996,0.00332211,0.0540047,-0.000908492,0.106934,0.0675,0.09,0.075739,0.0498435,0.18,0.0031885,5.80201,-6.59885,7.1128,22.0627,0.807817,-0.257054,0.219919,-0.730812,-1.29338,-0.653364,2.57652,0.217131,-0.554635,0.229448
4648840,1,-1.56984,-0.522463,0.000970553,-2.09561,1.57081,1.57207,0.784945,-1.56967,-0.522899,0.000932553,-2.09358,1.57134,1.57266,0.78544,0.0628422,0.0363592,0.0610485,0.0309551,0.00105067,0.0659904,-0.00613273,0.1154,0.073125,0.0975,0.0813696,0.0535594,0.195,0.00318214,5.92897,-6.39651,7.3667,22.1381,0.853594,-0.308324,0.36915,-0.731302,-1.31557,-0.684742,2.6049,0.220725,-0.536668,0.229735
4648841,1,-1.56975,-0.522418,0.00103982,-2.09556,1.57081,1.57217,0.784942,-1.56954,-0.522821,0.00103755,-2.0935,1.57139,1.57287,0.785444,0.0723451,0.0408719,0.0686937,0.038819,0.00452841,0.0776031,-0.00503793,0.123867,0.07875,0.105,0.0870002,0.0572754,0.21,0.00317578,5.97657,-6.1188,7.82294,22.1381,0.887468,-0.314733,0.394785,-0.729787,-1.32775,-0.713224,2.6295,0.224442,-0.517645,0.230193
4648842,1,-1.56966,-0.522366,0.00112494,-2.09551,1.57082,1.57227,0.784939,-1.56941,-0.522736,0.00115005,-2.0934,1.57145,1.5731,0.785447,0.0811512,0.0458501,0.074509,0.0418818,0.00370816,0.0877714,-0.0128084,0.132333,0.084375,0.1125,0.0926308,0.0609913,0.225,0.00316942,6.17891,-5.76572,8.27521,22.1381,0.887468,-0.244237,0.394785,-0.729515,-1.33293,-0.7432,2.6503,0.228489,-0.497473,0.231011
4648843,1,-1.56957,-0.522302,0.00122199,-2.09546,1.57084,1.57239,0.784935,-1.56927,-0.522646,0.00127005,-2.0933,1.57152,1.57334,0.78545,0.0870152,0.0503197,0.0821833,0.0428281,0.00865304,0.100203,-0.0102759,0.140799,0.09,0.12,0.0982614,0.0647073,0.24,0.00316307,6.58357,-5.43643,8.78302,22.1897,0.86458,-0.147191,0.42042,-0.732061,-1.33629,-0.776516,2.67069,0.233118,-0.476218,0.232337
4648844,1,-1.56947,-0.522234,0.00131634,-2.09539,1.57085,1.57254,0.784945,-1.56912,-0.522551,0.00139755,-2.0932,1.57159,1.57359,0.785453,0.0875171,0.0570145,0.0884598,0.0503924,0.0110127,0.114124,-0.0050676,0.149265,0.095625,0.1275,0.103892,0.0684232,0.255,0.00315671,7.03584,-5.10715,9.4654,22.0905,0.870073,-0.172826,0.356333,-0.734934,-1.34251,-0.809669,2.69396,0.23839,-0.454383,0.234216
4648845,1,-1.56936,-0.522152,0.00142148,-2.09532,1.57088,1.57271,0.784946,-1.56896,-0.522449,0.00153255,-2.09309,1.57166,1.57386,0.785456,0.0988545,0.0642535,0.0914199,0.054572,0.0140589,0.131374,-0.00382136,0.157731,0.10125,0.135,0.109523,0.0721392,0.27,0.00315035,7.4405,-4.88101,10.1002,22.0389,0.841692,-0.257054,0.356333,-0.733959,-1.35438,-0.836499,2.72058,0.244133,-0.432624,0.236617
4648846,1,-1.56923,-0.522069,0.00154421,-2.09525,1.57091,1.5729,0.784953,-1.5688,-0.522342,0.00167505,-2.09298,1.57173,1.57415,0.785459,0.107011,0.0690771,0.0984596,0.059048,0.0215498,0.153408,-0.000709655,0.166197,0.106875,0.1425,0.115153,0.0758551,0.285,0.00314399,7.71821,-4.62711,10.5802,22.0627,0.796831,-0.340367,0.297739,-0.727821,-1.37321,-0.854231,2.75064,0.250218,-0.411237,0.239434
4648847,1,-1.56909,-0.52198,0.00166131,-2.09518,1.57094,1.57311,0.784964,-1.56862,-0.52223,0.00182505,-2.09285,1.57181,1.57445,0.785463,0.118296,0.0727395,0.102076,0.0625885,0.0258095,0.171662,0.00310938,0.174663,0.1125,0.15,0.120784,0.0795711,0.3,0.00313763,7.92054,-4.37717,11.1118,22.0905,0.784929,-0.475866,0.194285,-0.717368,-1.39563,-0.863361,2.78311,0.256526,-0.390247,0.242517
4648848,1,-1.56893,-0.521891,0.00178135,-2.09509,1.57097,1.57335,0.784963,-1.56844,-0.522111,0.00198504,-2.09273,1.5719,1.57477,0.785466,0.127742,0.0759505,0.108801,0.0683454,0.0319128,0.194805,0.00141133,0.184781,0.119422,0.15999,0.127407,0.083858,0.319215,0.00304453,8.0713,-4.14706,11.5919,22.1143,0.825212,-0.624181,0.207102,-0.703251,-1.41469,-0.864333,2.81518,0.262857,-0.369746,0.24567
4648849,1,-1.56878,-0.521802,0.00191083,-2.09501,1.57101,1.57359,0.784963,-1.56824,-0.521984,0.00215502,-2.09259,1.57199,1.5751,0.785469,0.135456,0.0803202,0.115671,0.072811,0.0362512,0.211278,-0.000182612,0.194899,0.126343,0.16998,0.13403,0.0881448,0.33843,0.00295142,8.29744,-3.86935,11.8735,22.1381,0.870073,-0.636998,0.233652,-0.686121,-1.42487,-0.857914,2.84424,0.269074,-0.34992,0.248678
4648850,1,-1.56862,-0.521704,0.00204336,-2.09491,1.57106,1.57385,0.784957,-1.56804,-0.521851,0.00233499,-2.09245,1.57208,1.57546,0.785471,0.14445,0.0858294,0.116183,0.0797595,0.0436813,0.226577,-0.00141365,0.205016,0.133265,0.17997,0.140653,0.0924317,0.357646,0.00285832,8.40059,-3.69479,12.1512,22.1381,0.926836,-0.57932,0.265696,-0.664807,-1.4249,-0.842126,2.86934,0.275087,-0.331224,0.251412
4648851,1,-1.56844,-0.521603,0.00217131,-2.09481,1.5711,1.57413,0.784947,-1.56782,-0.521711,0.00252495,-2.09231,1.57218,1.57584,0.785474,0.152282,0.0943177,0.123005,0.0887427,0.045773,0.239378,-0.00437821,0.215134,0.140187,0.18996,0.147276,0.0967186,0.376861,0.00276521,8.57515,-3.46469,12.6591,22.1143,0.966203,-0.539952,0.356333,-0.637199,-1.41745,-0.813388,2.89049,0.280845,-0.314112,0.253859
4648852,1,-1.56826,-0.521491,0.00231147,-2.0947,1.57116,1.57443,0.784937,-1.5676,-0.521564,0.0027249,-2.09215,1.57228,1.57623,0.785477,0.164313,0.10094,0.12936,0.0948454,0.0539491,0.256281,-0.00609751,0.225251,0.147108,0.19995,0.153899,0.101005,0.396076,0.0026721,8.80128,-3.21475,13.1391,22.1143,0.955217,-0.443822,0.440561,-0.604797,-1.40699,-0.773836,2.90851,0.286519,-0.298367,0.256117
4648853,1,-1.56807,-0.521379,0.00246207,-2.09458,1.57124,1.57476,0.784932,-1.56736,-0.52141,0.00293484,-2.09199,1.57238,1.57665,0.785479,0.169803,0.105774,0.135895,0.103475,0.058831,0.276713,-0.00482143,0.235369,0.15403,0.20994,0.160522,0.105292,0.415291,0.002579,9.15437,-2.83389,13.6707,22.0627,0.847185,-0.418187,0.459788,-0.569975,-1.39421,-0.727161,2.92358,0.292306,-0.283515,0.258372
4648854,1,-1.56787,-0.521249,0.00261104,-2.09445,1.57131,1.57511,0.784924,-1.56712,-0.521249,0.00315477,-2.09182,1.57249,1.57708,0.785482,0.177819,0.114063,0.141025,0.111207,0.0636132,0.299826,-0.00541768,0.245487,0.160952,0.21993,0.167145,0.109579,0.434506,0.00248589,9.5868,-2.63156,14.3531,21.9635,0.819719,-0.495092,0.518381,-0.531537,-1.37738,-0.672038,2.93486,0.29817,-0.269548,0.260833
4648855,1,-1.56766,-0.521111,0.00277745,-2.09432,1.5714,1.57548,0.78493,-1.56686,-0.521081,0.00338469,-2.09165,1.5726,1.57754,0.785484,0.185122,0.12356,0.145299,0.117832,0.0732048,0.321061,-0.00170395,0.255604,0.167873,0.22992,0.173768,0.113866,0.453721,0.00239279,9.9637,-2.45303,15.0117,21.9635,0.757463,-0.539952,0.466196,-0.486799,-1.36065,-0.604852,2.94439,0.303984,-0.256764,0.263659
4648856,1,-1.56744,-0.520967,0.00296378,-2.09418,1.57149,1.57588,0.784945,-1.5666,-0.520906,0.0036246,-2.09147,1.57272,1.57801,0.785487,0.195321,0.127134,0.155169,0.12331,0.081461,0.342559,0.00386377,0.265722,0.174795,0.23991,0.180391,0.118153,0.472937,0.00229968,10.3168,-2.25467,15.4917,21.9397,0.666826,-0.604955,0.330698,-0.435732,-1.34719,-0.52578,2.95467,0.309651,-0.245097,0.26693
4648857,1,-1.5672,-0.520819,0.00314934,-2.09404,1.57159,1.5763,0.784951,-1.56632,-0.520724,0.0038745,-2.09128,1.57285,1.5785,0.785489,0.209254,0.132877,0.162554,0.128021,0.0896197,0.368172,0.00473195,0.27584,0.181717,0.2499,0.187015,0.12244,0.492152,0.00220658,10.6699,-2.05234,15.8964,21.8882,0.638445,-0.688268,0.272104,-0.382417,-1.33275,-0.441038,2.96541,0.315114,-0.233867,0.270579
4648858,1,-1.56695,-0.520661,0.00333035,-2.09388,1.57169,1.57674,0.784949,-1.56603,-0.520535,0.00413439,-2.09109,1.57297,1.57902,0.785491,0.224625,0.140398,0.169022,0.137323,0.0948604,0.394616,0.0014826,0.286829,0.189207,0.25989,0.194241,0.126972,0.512142,0.00207259,10.8206,-1.87381,16.428,21.8405,0.643938,-0.836583,0.316965,-0.33108,-1.31428,-0.35662,2.97579,0.320303,-0.222524,0.274385
4648859,1,-1.56669,-0.520501,0.00352554,-2.09372,1.57181,1.57721,0.784954,-1.56574,-0.520338,0.00440427,-2.09089,1.5731,1.57955,0.785493,0.235704,0.145999,0.180654,0.150655,0.099837,0.412879,0.0021673,0.297819,0.196697,0.26988,0.201468,0.131505,0.532132,0.00193861,10.9992,-1.67148,16.8088,21.7652,0.627458,-0.855809,0.284922,-0.284366,-1.28875,-0.276325,2.98241,0.325061,-0.210825,0.278146
4648860,1,-1.56643,-0.520335,0.00372934,-2.09354,1.57194,1.57769,0.784943,-1.56543,-0.520134,0.00468414,-2.09068,1.57324,1.5801,0.785495,0.249784,0.149984,0.182603,0.156504,0.103569,0.436759,-0.00215534,0.308809,0.204187,0.27987,0.208695,0.136037,0.552122,0.00180463,11.2253,-1.46915,17.1143,21.6422,0.610063,-0.855809,0.381968,-0.242489,-1.24989,-0.200486,2.98051,0.329191,-0.198836,0.281764
4648861,1,-1.56616,-0.520159,0.00393471,-2.09335,1.57206,1.5782,0.784933,-1.56511,-0.519922,0.004974,-2.09046,1.57338,1.58067,0.785496,0.257317,0.157943,0.192193,0.166926,0.108429,0.458783,-0.00384883,0.319799,0.211677,0.28986,0.215922,0.140569,0.572112,0.00167065,11.376,-1.34219,17.4436,21.5152,0.666826,-0.830175,0.44697,-0.20198,-1.19634,-0.123949,2.96975,0.332575,-0.187164,0.285211
4648862,1,-1.56588,-0.519983,0.00414272,-2.09317,1.57219,1.57873,0.784929,-1.56478,-0.519703,0.00527385,-2.09024,1.57353,1.58126,0.785498,0.265075,0.165156,0.198119,0.175643,0.113258,0.477621,-0.00351865,0.330788,0.219167,0.29985,0.223149,0.145102,0.592102,0.00153667,11.5506,-1.13986,17.8721,21.4914,0.688799,-0.772496,0.472605,-0.158865,-1.13271,-0.0416084,2.9524,0.335229,-0.176425,0.288566
4648863,1,-1.5656,-0.519796,0.00438425,-2.09297,1.57233,1.57927,0.784925,-1.56443,-0.519477,0.00558369,-2.09001,1.57368,1.58188,0.785499,0.272335,0.170142,0.207623,0.181442,0.1249,0.497349,-0.00353506,0.341778,0.226657,0.30984,0.230376,0.149634,0.612092,0.00140268,11.8045,-0.937531,18.0506,21.4914,0.632951,-0.694677,0.504648,-0.110724,-1.06272,0.0491821,2.93067,0.337263,-0.166835,0.291973
4648864,1,-1.5653,-0.5196,0.00462036,-2.09275,1.57248,1.57986,0.784932,-1.56408,-0.519243,0.00590352,-2.08977,1.57383,1.58251,0.7855,0.275611,0.180942,0.219035,0.190343,0.132439,0.520151,1.50087e-05,0.352768,0.234147,0.31983,0.237603,0.154166,0.632082,0.0012687,12.0068,-0.885956,18.3521,21.4438,0.599077,-0.720311,0.440561,-0.0566852,-0.990596,0.148657,2.90771,0.338868,-0.158308,0.29555
4648865,1,-1.56498,-0.51939,0.00485576,-2.09254,1.57263,1.58048,0.784934,-1.56372,-0.519001,0.00623334,-2.08953,1.57399,1.58316,0.785502,0.287643,0.189541,0.222041,0.197046,0.136976,0.54583,0.000754586,0.363758,0.241637,0.32982,0.24483,0.158699,0.652072,0.00113472,11.9553,-0.862152,18.7092,21.3922,0.599077,-0.842992,0.42042,0.00415759,-0.92421,0.257437,2.88761,0.340203,-0.150879,0.299347
4648866,1,-1.56467,-0.519174,0.0051231,-2.09231,1.57279,1.58111,0.78494,-1.56334,-0.518752,0.00657315,-2.08927,1.57415,1.58383,0.785503,0.294562,0.198374,0.231455,0.204916,0.148444,0.570946,0.00240088,0.374747,0.249127,0.33981,0.252056,0.163231,0.672062,0.00100074,12.106,-0.810577,18.8084,21.3446,0.50844,-0.881444,0.36915,0.0727232,-0.868907,0.377434,2.87299,0.341295,-0.144737,0.303317
4648867,1,-1.56434,-0.518953,0.0053716,-2.09208,1.57296,1.58178,0.784944,-1.56296,-0.518495,0.00692295,-2.08902,1.57432,1.58452,0.785503,0.303505,0.204271,0.237522,0.211504,0.149497,0.59533,0.00302395,0.385737,0.256617,0.3498,0.259283,0.167763,0.692052,0.000866757,12.2092,-0.735199,19.09,21.416,0.480058,-0.97849,0.330698,0.14851,-0.823469,0.508486,2.86359,0.342105,-0.139927,0.307351
4648868,1,-1.56399,-0.51872,0.00564497,-2.09183,1.57313,1.58247,0.78495,-1.56256,-0.518231,0.00728274,-2.08875,1.57449,1.58524,0.785504,0.316838,0.213083,0.244605,0.221225,0.157027,0.627864,0.00371079,0.39694,0.264107,0.35979,0.266821,0.172336,0.712042,0.000711843,12.1814,-0.735199,19.2924,21.2931,0.502947,-1.17167,0.284922,0.229895,-0.7838,0.648677,2.85743,0.342552,-0.136407,0.311318
4648869,1,-1.56364,-0.518486,0.0059331,-2.09157,1.57331,1.58317,0.784952,-1.56215,-0.517959,0.00765252,-2.08847,1.57467,1.58597,0.785505,0.324106,0.224437,0.259714,0.229551,0.161622,0.648693,0.00318549,0.408144,0.271597,0.36978,0.27436,0.176909,0.732032,0.000556929,12.2608,-0.711395,19.4669,21.2455,0.462663,-1.13962,0.265696,0.312738,-0.750216,0.792103,2.85389,0.342695,-0.133898,0.315077
4648870,1,-1.56329,-0.518241,0.00622775,-2.09131,1.5735,1.58388,0.784945,-1.56173,-0.51768,0.00803229,-2.08819,1.57485,1.58672,0.785505,0.335262,0.231004,0.27344,0.239271,0.169176,0.665048,-1.29008e-05,0.419347,0.279087,0.37977,0.281898,0.181482,0.752022,0.000402014,12.4591,-0.683624,19.5185,21.1939,0.428789,-0.997716,0.323374,0.390354,-0.724012,0.928289,2.85286,0.342757,-0.131632,0.318514
4648871,1,-1.56293,-0.517987,0.00651879,-2.09104,1.57367,1.58462,0.784945,-1.5613,-0.517394,0.00842205,-2.0879,1.57504,1.58749,0.785505,0.343788,0.237331,0.280195,0.248536,0.17105,0.685,-8.85056e-06,0.430551,0.286577,0.38976,0.289436,0.186055,0.772012,0.0002471,12.5623,-0.735199,19.824,21.1423,0.502947,-0.919896,0.323374,0.459494,-0.699027,1.05226,2.85109,0.34271,-0.128994,0.321584
4648872,1,-1.56255,-0.517733,0.00682645,-2.09076,1.57386,1.5854,0.784936,-1.56086,-0.5171,0.0088218,-2.08761,1.57523,1.58828,0.785506,0.347941,0.244265,0.286469,0.255365,0.174008,0.71362,-0.00312566,0.441754,0.294067,0.39975,0.296974,0.190628,0.792002,9.21859e-05,12.713,-0.735199,19.8994,21.1423,0.542314,-0.984899,0.407602,0.525242,-0.66914,1.17166,2.84585,0.342313,-0.126455,0.324314
4648873,1,-1.56218,-0.517457,0.00715745,-2.09046,1.57407,1.58618,0.784929,-1.56041,-0.516798,0.00923154,-2.0873,1.57542,1.5891,0.785505,0.356026,0.255606,0.297338,0.267858,0.184666,0.757141,-0.00449141,0.452958,0.301557,0.40974,0.304512,0.195201,0.811992,-6.27283e-05,12.8876,-0.885956,19.7962,21.0947,0.485552,-0.97849,0.472605,0.594661,-0.636037,1.29649,2.83766,0.341499,-0.125009,0.326778
4648874,1,-1.56177,-0.517178,0.00748979,-2.09017,1.57427,1.587,0.784933,-1.55994,-0.516489,0.00965127,-2.08699,1.57562,1.58993,0.785505,0.371805,0.263209,0.309989,0.271927,0.194986,0.77703,-0.00157023,0.464161,0.309047,0.41973,0.31205,0.199774,0.831982,-0.000217643,12.7368,-0.989105,19.9985,21.1423,0.485552,-1.01053,0.434153,0.666536,-0.605164,1.42445,2.82869,0.340502,-0.124547,0.329116
4648875,1,-1.56136,-0.516888,0.00782603,-2.08986,1.57449,1.58784,0.78493,-1.55947,-0.516173,0.010081,-2.08667,1.57583,1.59078,0.785505,0.381179,0.274265,0.317209,0.282349,0.198274,0.797034,-0.00199633,0.475364,0.316537,0.42972,0.319589,0.204346,0.851972,-0.000372557,12.7884,-1.19144,20.1017,21.1423,0.474565,-1.04899,0.459788,0.735237,-0.581045,1.54749,2.82191,0.339588,-0.124085,0.331494
4648876,1,-1.56095,-0.516587,0.00818869,-2.08955,1.5747,1.58869,0.78494,-1.55898,-0.515849,0.0105207,-2.08634,1.57603,1.59165,0.785504,0.387224,0.280459,0.334436,0.28948,0.207031,0.818732,0.00202599,0.486568,0.324027,0.43971,0.327127,0.208919,0.871962,-0.000527471,13.0423,-1.34219,20.0263,21.1423,0.428789,-1.02976,0.36915,0.79863,-0.564117,1.6624,2.81795,0.338829,-0.123103,0.334014
4648877,1,-1.56052,-0.516284,0.0085431,-2.08923,1.57492,1.58959,0.784943,-1.55848,-0.515517,0.0109704,-2.08601,1.57625,1.59254,0.785504,0.400035,0.289595,0.341406,0.301947,0.205919,0.839767,0.00230005,0.497771,0.331517,0.4497,0.334665,0.213492,0.891952,-0.000682385,13.1653,-1.52072,20.0739,21.1939,0.45717,-1.17807,0.343516,0.856111,-0.549986,1.7677,2.81419,0.338172,-0.121396,0.336695
4648878,1,-1.56007,-0.515975,0.00891354,-2.0889,1.57515,1.59049,0.784944,-1.55797,-0.515178,0.0114301,-2.08567,1.57647,1.59346,0.785503,0.428307,0.293131,0.350008,0.310077,0.211912,0.862362,0.00200805,0.508618,0.339007,0.45969,0.342303,0.21797,0.911942,-0.000859229,13.1177,-1.56833,20.2286,21.1185,0.435198,-1.20371,0.330698,0.904557,-0.531475,1.85991,2.80649,0.337523,-0.118461,0.339471
4648879,1,-1.55962,-0.515649,0.00930529,-2.08856,1.57538,1.5914,0.784941,-1.55746,-0.514832,0.0118998,-2.08532,1.57669,1.59439,0.785502,0.435953,0.301663,0.3653,0.318229,0.223234,0.873498,0.00015188,0.519464,0.346497,0.46968,0.349942,0.222448,0.931932,-0.00103607,13.1931,-1.5961,20.2524,21.0709,0.355547,-1.08744,0.362742,0.938881,-0.503329,1.93285,2.79267,0.336888,-0.113552,0.342232
4648880,1,-1.55914,-0.515317,0.00970385,-2.08821,1.57563,1.59236,0.784944,-1.55693,-0.514478,0.0123794,-2.08496,1.57692,1.59534,0.785501,0.448375,0.30999,0.379492,0.325653,0.228303,0.897614,0.00105067,0.530311,0.353987,0.47967,0.35758,0.226926,0.951922,-0.00121292,13.2407,-1.69528,20.3278,20.9717,0.350054,-1.17807,0.337107,0.957956,-0.468452,1.98378,2.77512,0.336359,-0.106496,0.344892
4648881,1,-1.55867,-0.514979,0.0101118,-2.08787,1.57586,1.59333,0.784937,-1.55638,-0.514116,0.0128691,-2.08459,1.57715,1.59631,0.785499,0.455288,0.316877,0.383983,0.332337,0.234334,0.918844,-0.00167316,0.541158,0.361477,0.48966,0.365218,0.231404,0.971912,-0.00138976,13.2684,-1.72305,20.3794,21.0709,0.383928,-1.30076,0.401194,0.967981,-0.432715,2.02045,2.75732,0.335838,-0.098258,0.347403
4648882,1,-1.55818,-0.51464,0.0105503,-2.0875,1.57611,1.59431,0.78493,-1.55583,-0.513747,0.0133688,-2.08422,1.57738,1.5973,0.785498,0.46288,0.323979,0.406771,0.340533,0.233335,0.937379,-0.00328559,0.552004,0.368967,0.49965,0.372856,0.235882,0.991902,-0.0015666,13.443,-1.79843,20.2762,21.0709,0.355547,-1.26139,0.459788,0.975031,-0.397687,2.05082,2.74056,0.335221,-0.0898419,0.349772
4648883,1,-1.55768,-0.514285,0.0109907,-2.08715,1.57636,1.59531,0.784943,-1.55527,-0.513371,0.0138784,-2.08384,1.57762,1.59832,0.785496,0.479421,0.333262,0.417144,0.344075,0.235416,0.95629,-0.00734788,0.562851,0.376457,0.50964,0.380495,0.240359,1.01189,-0.00174345,13.4708,-1.89761,20.1771,21.1701,0.372942,-1.21653,0.343516,0.977172,-0.365864,2.07093,2.72693,0.334768,-0.0811031,0.352094
4648884,1,-1.55716,-0.513915,0.0114458,-2.08677,1.57661,1.59631,0.784937,-1.5547,-0.512987,0.014398,-2.08345,1.57787,1.59935,0.785494,0.49169,0.343116,0.425164,0.349755,0.246959,0.965992,-0.00663668,0.573697,0.383947,0.51963,0.388133,0.244837,1.03188,-0.00192029,13.3438,-2.00076,20.1533,21.2455,0.389421,-1.19089,0.36915,0.972841,-0.344365,2.07893,2.72102,0.334665,-0.0718423,0.354436
4648885,1,-1.55662,-0.513541,0.011902,-2.08639,1.57687,1.59734,0.784937,-1.55411,-0.512595,0.0149276,-2.08306,1.57812,1.6004,0.785492,0.501984,0.35229,0.434879,0.359267,0.248871,0.981423,-0.00572803,0.584544,0.391437,0.52962,0.395771,0.249315,1.05187,-0.00209714,13.2407,-2.17532,20.0263,21.2693,0.440691,-1.14603,0.388376,0.966152,-0.337299,2.082,2.72442,0.334721,-0.0625239,0.356748
4648886,1,-1.5561,-0.513151,0.0123917,-2.086,1.57713,1.59838,0.784941,-1.55352,-0.512196,0.0154673,-2.08265,1.57837,1.60147,0.78549,0.510291,0.359572,0.445158,0.367793,0.255927,1.00656,-0.00331287,0.59539,0.398927,0.53961,0.40341,0.253793,1.07186,-0.00227398,13.2684,-2.40543,19.8478,21.3684,0.440691,-1.17167,0.362742,0.961598,-0.341014,2.08689,2.73357,0.334707,-0.0537132,0.358988
4648887,1,-1.55554,-0.512759,0.0128825,-2.0856,1.5774,1.59944,0.784938,-1.55291,-0.51179,0.0160169,-2.08224,1.57863,1.60256,0.785487,0.523853,0.378528,0.46017,0.371376,0.259612,1.02842,-0.00230394,0.606237,0.406417,0.5496,0.411048,0.258271,1.09185,-0.00245082,13.1415,-2.63156,19.7962,21.4676,0.394914,-1.15244,0.356333,0.960136,-0.360046,2.09454,2.74993,0.334789,-0.0456853,0.36114
4648888,1,-1.55497,-0.512353,0.01338,-2.0852,1.57766,1.60054,0.784939,-1.55229,-0.511376,0.0165764,-2.08182,1.57889,1.60367,0.785484,0.534861,0.391014,0.469778,0.376671,0.266873,1.04415,-0.00226021,0.616215,0.413907,0.55959,0.418646,0.262554,1.11106,-0.00267178,13.0899,-2.81009,19.697,21.5906,0.350054,-1.15244,0.36915,0.959371,-0.41121,2.10109,2.78236,0.335415,-0.0382914,0.363166
4648889,1,-1.55441,-0.511942,0.0138933,-2.0848,1.57794,1.60162,0.784946,-1.55167,-0.510955,0.017146,-2.0814,1.57916,1.6048,0.785482,0.547517,0.395049,0.483158,0.382727,0.27278,1.05784,0.000238818,0.626194,0.421397,0.56958,0.426245,0.266836,1.13026,-0.00289274,13.1177,-2.90927,19.7208,21.7176,0.293291,-1.03617,0.316965,0.957355,-0.493838,2.10401,2.83142,0.336609,-0.0311412,0.365048
4648890,1,-1.55382,-0.51154,0.0144101,-2.08439,1.57822,1.60275,0.784947,-1.55103,-0.510526,0.0177256,-2.08096,1.57943,1.60595,0.785478,0.555433,0.39803,0.493404,0.395963,0.271751,1.07306,0.000493565,0.636173,0.428887,0.57957,0.433843,0.271119,1.14947,-0.0031137,13.1653,-2.8577,19.7208,21.8167,0.24843,-1.00412,0.304148,0.953569,-0.581987,2.10301,2.88411,0.337856,-0.0237402,0.366803
4648891,1,-1.55324,-0.511129,0.0149382,-2.08396,1.57849,1.60389,0.784946,-1.55038,-0.510089,0.0183152,-2.08052,1.57971,1.60712,0.785475,0.577355,0.399287,0.497958,0.404359,0.272975,1.12129,-0.000250948,0.646151,0.436377,0.58956,0.441441,0.275402,1.16868,-0.00333466,13.2684,-2.75851,19.7208,21.8167,0.282305,-1.04258,0.316965,0.949674,-0.647885,2.10145,2.92539,0.338528,-0.0160994,0.368419
4648892,1,-1.55263,-0.510699,0.0154662,-2.08353,1.57875,1.60506,0.784955,-1.54973,-0.509645,0.0189147,-2.08007,1.57999,1.60831,0.785472,0.585142,0.405722,0.511618,0.406462,0.272531,1.14083,0.00260205,0.65613,0.443867,0.59955,0.449039,0.279685,1.18788,-0.00355562,13.3438,-2.73471,19.7446,21.8405,0.36104,-1.1204,0.240061,0.947416,-0.681733,2.10274,2.95127,0.338411,-0.00858001,0.369845
4648893,1,-1.55201,-0.510269,0.0160167,-2.0831,1.57903,1.60625,0.784945,-1.54906,-0.509194,0.0195242,-2.07962,1.58027,1.60952,0.785468,0.595013,0.410783,0.521063,0.413967,0.277868,1.15504,-0.000460744,0.666108,0.451357,0.60954,0.456638,0.283967,1.20709,-0.00377658,13.2684,-2.70694,19.6693,21.7652,0.406816,-1.17807,0.297739,0.947338,-0.690006,2.1069,2.96738,0.337724,-0.00125493,0.371026
4648894,1,-1.55139,-0.509817,0.016565,-2.08266,1.57932,1.60743,0.784938,-1.54839,-0.508735,0.0201438,-2.07915,1.58056,1.61074,0.785464,0.598951,0.418775,0.522082,0.419222,0.284066,1.16765,-0.00228436,0.676087,0.458847,0.61953,0.464236,0.28825,1.2263,-0.00399754,13.1653,-2.88547,19.697,21.7652,0.406816,-1.15885,0.349924,0.954328,-0.681173,2.12043,2.97836,0.336515,0.00528289,0.37191
4648895,1,-1.55075,-0.509366,0.0171165,-2.0822,1.57961,1.60865,0.784945,-1.5477,-0.508269,0.0207733,-2.07868,1.58085,1.61199,0.78546,0.603464,0.428239,0.534329,0.439646,0.285831,1.18016,-9.81505e-05,0.686065,0.466337,0.62952,0.471834,0.292533,1.2455,-0.0042185,13.2169,-3.06003,19.7962,21.666,0.36104,-1.13962,0.310557,0.975178,-0.660317,2.15332,2.98354,0.334595,0.0100265,0.372537
4648896,1,-1.55011,-0.508907,0.0176942,-2.08175,1.5799,1.60991,0.784945,-1.547,-0.507795,0.0214128,-2.0782,1.58115,1.61325,0.785455,0.611088,0.437057,0.538472,0.445153,0.282859,1.20739,-0.000327774,0.696044,0.473827,0.63951,0.479432,0.296815,1.26471,-0.00443946,13.4192,-3.06003,19.7724,21.543,0.417803,-1.30716,0.316965,1.01152,-0.631044,2.20779,2.9804,0.33193,0.0125733,0.373016
4648897,1,-1.54947,-0.508439,0.018285,-2.08128,1.58019,1.61117,0.784945,-1.5463,-0.507314,0.0220623,-2.07771,1.58145,1.61454,0.78545,0.623636,0.445052,0.559288,0.450942,0.284783,1.22612,-0.000474612,0.706022,0.481317,0.6495,0.487031,0.301098,1.28392,-0.00466042,13.5184,-3.1116,19.7962,21.4676,0.366533,-1.42252,0.323374,1.05771,-0.60075,2.27519,2.97297,0.328982,0.0134459,0.3734
4648898,1,-1.54881,-0.507982,0.0188799,-2.08081,1.58051,1.61246,0.78495,-1.54558,-0.506825,0.0227218,-2.07722,1.58175,1.61584,0.785445,0.633589,0.44788,0.574875,0.460381,0.292296,1.23994,0.00133105,0.714656,0.488807,0.65949,0.494514,0.305152,1.30173,-0.00497442,13.5184,-3.01242,19.8716,21.3446,0.259416,-1.48752,0.278513,1.10162,-0.570837,2.33687,2.96452,0.326367,0.014222,0.373716
4648899,1,-1.54814,-0.507507,0.0194902,-2.08032,1.58081,1.61376,0.78496,-1.54486,-0.506329,0.0233913,-2.07672,1.58206,1.61716,0.78544,0.640675,0.456423,0.581719,0.467107,0.301733,1.26352,0.00423376,0.723289,0.496297,0.66948,0.501997,0.309206,1.31955,-0.00528842,13.443,-2.96085,19.947,21.1939,0.140398,-1.69993,0.187876,1.13799,-0.535665,2.38484,2.95293,0.3241,0.0155433,0.373967
4648900,1,-1.54747,-0.50703,0.0200997,-2.07982,1.5811,1.61509,0.784964,-1.54413,-0.505825,0.0240707,-2.07621,1.58238,1.6185,0.785435,0.645232,0.461349,0.591621,0.478235,0.298241,1.28641,0.0040014,0.731922,0.503787,0.67947,0.50948,0.31326,1.33737,-0.00560241,13.6215,-2.93704,19.9232,20.9439,0.220049,-1.94437,0.155832,1.17314,-0.494175,2.42885,2.93714,0.321711,0.0161425,0.374068
4648901,1,-1.54677,-0.506546,0.0207322,-2.07931,1.5814,1.61642,0.784968,-1.54339,-0.505314,0.0247602,-2.07569,1.58269,1.61985,0.785429,0.660143,0.464333,0.597468,0.490273,0.296191,1.29454,0.00411973,0.740555,0.511277,0.68946,0.516963,0.317314,1.35518,-0.00591641,13.6453,-2.8577,19.8994,20.7972,0.293291,-1.8281,0.116465,1.21148,-0.441027,2.47641,2.91315,0.31874,0.0149776,0.373901
4648902,1,-1.54607,-0.506046,0.0213652,-2.07879,1.58171,1.61772,0.784976,-1.54264,-0.504795,0.0254597,-2.07517,1.58301,1.62122,0.785422,0.673499,0.475195,0.599424,0.4982,0.299146,1.2952,0.00535299,0.749188,0.518767,0.69945,0.524447,0.321367,1.373,-0.00623041,13.5462,-2.88547,19.947,20.6464,0.389421,-1.53879,0.0459692,1.25268,-0.373131,2.52904,2.8783,0.314995,0.0119512,0.37336
4648903,1,-1.54536,-0.50554,0.0219958,-2.07827,1.58202,1.61908,0.784968,-1.54188,-0.504269,0.0261691,-2.07463,1.58334,1.62262,0.785416,0.680468,0.486553,0.614414,0.507026,0.302644,1.31125,0.000717019,0.757821,0.526257,0.70944,0.53193,0.325421,1.39081,-0.0065444,13.6215,-2.90927,20.0263,20.4242,0.435198,-1.45456,0.122873,1.29558,-0.303403,2.58594,2.83882,0.310761,0.00735251,0.372317
4648904,1,-1.54465,-0.505023,0.0226529,-2.07773,1.58235,1.62045,0.78496,-1.54111,-0.503735,0.0268885,-2.07409,1.58367,1.62402,0.785409,0.691896,0.493977,0.623542,0.51324,0.30938,1.33121,-0.00193199,0.766454,0.533747,0.71943,0.539413,0.329475,1.40863,-0.0068584,13.6453,-2.96085,19.9985,20.325,0.383928,-1.51316,0.187876,1.33788,-0.244973,2.64271,2.8018,0.306625,0.00181551,0.370681
4648905,1,-1.54392,-0.504511,0.0233166,-2.07718,1.58268,1.62185,0.784953,-1.54034,-0.503194,0.0276179,-2.07355,1.584,1.62545,0.785402,0.699185,0.50026,0.641836,0.523658,0.321497,1.35476,-0.00271402,0.775087,0.541237,0.72942,0.546896,0.333529,1.42644,-0.0071724,13.5977,-2.98465,19.9985,20.2735,0.259416,-1.66056,0.226328,1.37646,-0.197461,2.69357,2.76766,0.302981,-0.00385925,0.368505
4648906,1,-1.54316,-0.503981,0.0239911,-2.07664,1.58303,1.62327,0.784955,-1.53956,-0.502645,0.0283574,-2.07299,1.58434,1.62689,0.785394,0.711169,0.51058,0.654938,0.527416,0.325782,1.36513,-0.000861318,0.78372,0.548727,0.73941,0.554379,0.337583,1.44426,-0.0074864,13.2684,-2.98465,19.9747,20.3965,0.118425,-1.6807,0.200693,1.40742,-0.158265,2.73187,2.73578,0.3,-0.00889259,0.365957
4648907,1,-1.54242,-0.503448,0.0246867,-2.07609,1.58337,1.62466,0.78496,-1.53876,-0.502089,0.0291068,-2.07243,1.58468,1.62836,0.785387,0.716836,0.51309,0.661276,0.528956,0.329075,1.37649,0.000374169,0.792353,0.556217,0.7494,0.561862,0.341637,1.46208,-0.00780039,13.1931,-2.93704,19.8478,20.6702,-0.0234816,-1.49393,0.175059,1.43071,-0.128701,2.75774,2.70935,0.297594,-0.0132139,0.363207
4648908,1,-1.54168,-0.502926,0.0253832,-2.07553,1.5837,1.6261,0.784966,-1.53796,-0.501525,0.0298661,-2.07186,1.58503,1.62984,0.785378,0.717338,0.517012,0.675713,0.546516,0.328347,1.38803,0.00194408,0.799187,0.563692,0.75939,0.569215,0.34543,1.47824,-0.00829532,13.3438,-2.81009,19.7724,20.7218,0.0387743,-1.35843,0.129282,1.45205,-0.0990851,2.78013,2.68478,0.295127,-0.0174889,0.360362
4648909,1,-1.54092,-0.502365,0.0260877,-2.07497,1.58404,1.62756,0.784959,-1.53716,-0.500954,0.0306355,-2.07128,1.58538,1.63133,0.785369,0.739829,0.532512,0.682599,0.547555,0.329775,1.40577,-0.0013494,0.806021,0.571168,0.76938,0.576568,0.349223,1.4944,-0.00879024,13.3954,-2.93704,19.8478,20.8963,0.186174,-1.26139,0.200693,1.47292,-0.0645993,2.80192,2.65813,0.292105,-0.0217216,0.357465
4648910,1,-1.54014,-0.501798,0.0268073,-2.07439,1.58439,1.62903,0.784937,-1.53635,-0.500375,0.0314149,-2.0707,1.58573,1.63284,0.78536,0.747581,0.544629,0.705464,0.554864,0.330712,1.43328,-0.00832599,0.812855,0.578644,0.77937,0.58392,0.353017,1.51057,-0.00928516,13.3438,-3.0878,19.947,20.9439,0.236528,-1.26139,0.401194,1.48707,-0.0435914,2.81439,2.63893,0.28897,-0.0249583,0.35451
4648911,1,-1.53934,-0.50123,0.0275312,-2.07382,1.58475,1.63052,0.784921,-1.53553,-0.499789,0.0322043,-2.07011,1.58609,1.63437,0.78535,0.758499,0.55237,0.713094,0.559747,0.344188,1.43758,-0.00962,0.819689,0.586119,0.78936,0.591273,0.35681,1.52673,-0.00978008,13.1653,-3.31393,19.9747,20.9955,0.174272,-1.13962,0.511057,1.49013,-0.047664,2.81059,2.63438,0.286284,-0.0263812,0.351619
4648912,1,-1.53855,-0.500644,0.0282617,-2.07324,1.58511,1.63203,0.784906,-1.5347,-0.499195,0.0330036,-2.06951,1.58645,1.63591,0.78534,0.771279,0.560907,0.716137,0.565982,0.349762,1.46477,-0.0100079,0.826523,0.593595,0.79935,0.598626,0.360603,1.5429,-0.010275,12.9392,-3.46469,20.0263,21.1423,0.129411,-1.22294,0.608103,1.48691,-0.0714004,2.79849,2.64224,0.283908,-0.0263313,0.349091
4648913,1,-1.53775,-0.500072,0.0290015,-2.07266,1.58547,1.63357,0.78491,-1.53387,-0.498594,0.0338129,-2.06891,1.58681,1.63747,0.785329,0.776433,0.565243,0.725522,0.582382,0.350057,1.48714,-0.00743881,0.833357,0.601071,0.80934,0.605978,0.364396,1.55906,-0.0107699,12.9907,-3.46469,19.9232,21.3922,0.174272,-1.31357,0.49824,1.48608,-0.101704,2.79262,2.65444,0.281313,-0.0259404,0.347289
4648914,1,-1.53696,-0.499485,0.0297622,-2.07208,1.58584,1.63513,0.784911,-1.53303,-0.497986,0.0346323,-2.06829,1.58718,1.63904,0.785318,0.779452,0.573451,0.728803,0.577167,0.35284,1.50342,-0.00322609,0.840191,0.608546,0.81933,0.613331,0.36819,1.57523,-0.0112649,13.1653,-3.54007,19.697,21.5906,0.157793,-1.35843,0.440561,1.49514,-0.128412,2.80418,2.66544,0.278146,-0.0263971,0.346449
4648915,1,-1.53616,-0.498873,0.0305149,-2.07149,1.58621,1.63664,0.784929,-1.53218,-0.49737,0.0354616,-2.06767,1.58755,1.64064,0.785306,0.787354,0.580955,0.731533,0.579905,0.355612,1.50531,0.0042608,0.847025,0.616022,0.82932,0.620684,0.371983,1.59139,-0.0117598,13.0899,-3.69479,19.7962,21.7414,0.123918,-1.10666,0.259287,1.52012,-0.157413,2.84155,2.68231,0.274447,-0.0286854,0.346521
4648916,1,-1.53532,-0.498267,0.0312641,-2.07089,1.58659,1.6382,0.784927,-1.53132,-0.496746,0.0363009,-2.06704,1.58793,1.64224,0.785294,0.798355,0.586432,0.733835,0.580861,0.366227,1.51897,0.0019017,0.853859,0.623498,0.83931,0.628036,0.375776,1.60756,-0.0122547,12.713,-3.82175,19.9232,21.8405,0.0845506,-0.984899,0.278513,1.56233,-0.194436,2.90679,2.71133,0.270279,-0.0329042,0.347229
4648917,1,-1.53451,-0.497648,0.0320541,-2.07028,1.58697,1.63979,0.784926,-1.53046,-0.496115,0.0371502,-2.06641,1.58831,1.64387,0.785281,0.80637,0.597478,0.738882,0.589912,0.375994,1.54075,-8.90571e-05,0.860692,0.630973,0.8493,0.635389,0.37957,1.62372,-0.0127496,12.6614,-3.92093,19.7962,21.8405,0.078142,-1.08744,0.310557,1.6193,-0.238156,2.99691,2.75104,0.265565,-0.0385288,0.348214
4648918,1,-1.53368,-0.497024,0.0328624,-2.06966,1.58735,1.64141,0.784927,-1.5296,-0.495477,0.0380095,-2.06577,1.58869,1.6455,0.785268,0.814086,0.616492,0.759862,0.598421,0.375033,1.56139,-0.00018692,0.865507,0.638195,0.85929,0.642455,0.383075,1.63802,-0.0133713,12.6614,-4.04788,19.6693,21.789,0.10103,-1.19089,0.310557,1.68378,-0.296368,3.10068,2.80147,0.260557,-0.0446171,0.349227
4648919,0.99,-1.53282,-0.496386,0.0336691,-2.06904,1.58774,1.64304,0.784926,-1.52873,-0.494832,0.0388788,-2.06512,1.58908,1.64716,0.785254,0.824909,0.619736,0.771744,0.605221,0.380766,1.58111,0.000254443,0.870322,0.645416,0.86928,0.64952,0.38658,1.65233,-0.0139931,12.4869,-4.19864,19.6216,21.8167,0.0845506,-1.17167,0.297739,1.74363,-0.374876,3.19863,2.86233,0.255797,-0.0496934,0.350188
4648920,0.99,-1.53197,-0.49575,0.034498,-2.0684,1.58814,1.64464,0.78493,-1.52785,-0.494179,0.039758,-2.06446,1.58947,1.64882,0.785239,0.83773,0.625238,0.780812,0.612868,0.37918,1.58703,0.00199675,0.875136,0.652638,0.87927,0.656586,0.390085,1.66663,-0.0146148,12.233,-4.09946,19.3677,21.6898,-0.0234816,-0.92722,0.24647,1.79087,-0.458911,3.27904,2.92591,0.251414,-0.0526848,0.351078
4648921,0.99,-1.53108,-0.495119,0.0353415,-2.06778,1.58854,1.64628,0.78494,-1.52697,-0.493519,0.0406473,-2.0638,1.58986,1.6505,0.785224,0.848729,0.621964,0.800192,0.618499,0.380781,1.59446,0.00561764,0.879951,0.659859,0.88926,0.663651,0.39359,1.68093,-0.0152365,11.8045,-4.04788,18.9115,21.7414,-0.102217,-0.817357,0.129282,1.82042,-0.52393,3.33535,2.98106,0.247223,-0.0525783,0.351878
4648922,0.99,-1.53019,-0.494471,0.0362086,-2.06713,1.58893,1.64794,0.784945,-1.52609,-0.492852,0.0415466,-2.06312,1.59026,1.6522,0.785208,0.863643,0.62769,0.812471,0.624911,0.386179,1.62362,0.00584096,0.884766,0.667081,0.89925,0.670717,0.397095,1.69523,-0.0158582,11.1499,-4.02011,18.4553,21.5668,-0.0289747,-0.984899,0.071604,1.82674,-0.5531,3.3597,3.02065,0.243105,-0.0482846,0.352482
4648923,0.99,-1.52929,-0.493823,0.037091,-2.06647,1.58933,1.64966,0.784945,-1.5252,-0.492178,0.0424558,-2.06245,1.59066,1.65391,0.785192,0.871043,0.631277,0.834053,0.636077,0.386728,1.649,0.00291427,0.88958,0.674302,0.90924,0.677782,0.4006,1.70953,-0.01648,10.7691,-3.86935,17.9236,21.3922,0.027788,-1.35203,0.0972387,1.80793,-0.543974,3.34917,3.04286,0.239006,-0.0397052,0.352689
4648924,0.99,-1.52839,-0.493186,0.0379817,-2.06581,1.58974,1.65138,0.784949,-1.5243,-0.491496,0.043375,-2.06176,1.59106,1.65563,0.785175,0.875776,0.636531,0.85174,0.645265,0.393427,1.6583,0.00310694,0.894395,0.681524,0.91923,0.684848,0.404105,1.72384,-0.0171017,10.416,-3.66702,17.4436,21.1701,0.0222948,-1.44816,0.0651953,1.76489,-0.500048,3.30433,3.04719,0.234949,-0.0275098,0.352338
4648925,0.99,-1.52748,-0.492524,0.0388696,-2.06513,1.59015,1.65308,0.784941,-1.5234,-0.490808,0.0443042,-2.06107,1.59147,1.65737,0.785157,0.881486,0.644864,0.863792,0.653982,0.399118,1.67665,0.000155398,0.89921,0.688745,0.92922,0.691913,0.40761,1.73814,-0.0177234,9.9875,-3.56784,17.392,20.9201,0.0158861,-1.56443,0.116465,1.70239,-0.428807,3.23165,3.03569,0.23091,-0.0130904,0.351362
4648926,0.99,-1.52658,-0.491858,0.0397703,-2.06444,1.59057,1.65481,0.784945,-1.5225,-0.490112,0.0452435,-2.06037,1.59188,1.65912,0.785139,0.884261,0.64621,0.876989,0.676439,0.398517,1.68461,0.00175234,0.904024,0.695967,0.93921,0.698979,0.411115,1.75244,-0.0183451,9.9637,-3.61942,17.2889,20.6702,0.00489977,-1.49393,0.071604,1.62852,-0.333044,3.14361,3.0068,0.226598,0.00169875,0.349784
4648927,0.99,-1.52571,-0.491168,0.0407036,-2.06375,1.59099,1.6565,0.784944,-1.52159,-0.489408,0.0461927,-2.05967,1.5923,1.66089,0.78512,0.898131,0.65997,0.889572,0.679516,0.404404,1.6886,0.000921292,0.908839,0.703188,0.9492,0.706044,0.41462,1.76674,-0.0189669,10.4913,-3.84555,17.1897,20.4996,-0.0454542,-1.21653,0.0780126,1.54719,-0.214233,3.04731,2.95837,0.221806,0.0159012,0.347691
4648928,0.99,-1.52482,-0.490472,0.0416154,-2.06304,1.5914,1.65826,0.784946,-1.52068,-0.488698,0.0471518,-2.05895,1.59271,1.66267,0.7851,0.896261,0.667699,0.915218,0.686315,0.403932,1.70692,0.00131909,0.911526,0.709977,0.95919,0.712687,0.417796,1.77908,-0.0196779,10.896,-3.9725,17.3405,20.3965,0.0332811,-1.23575,0.0587866,1.45678,-0.092014,2.9399,2.90205,0.216947,0.0297059,0.345129
4648929,0.99,-1.52392,-0.489787,0.0425289,-2.06232,1.59183,1.66003,0.784944,-1.51977,-0.487982,0.048121,-2.05823,1.59313,1.66446,0.78508,0.893258,0.673638,0.906391,0.697493,0.410672,1.71988,0.000399288,0.914214,0.716766,0.96918,0.71933,0.420971,1.79141,-0.0203889,11.2769,-4.09946,17.7213,20.2259,0.027788,-1.30076,0.071604,1.36633,0.0198227,2.83225,2.84688,0.212093,0.0421375,0.342116
4648930,0.99,-1.52303,-0.489085,0.0434613,-2.06161,1.59226,1.6618,0.784937,-1.51885,-0.487258,0.0491002,-2.05751,1.59356,1.66626,0.785058,0.889773,0.68093,0.906991,0.702047,0.421217,1.73175,-0.001162,0.916901,0.723554,0.97917,0.725972,0.424146,1.80375,-0.0210999,11.5784,-4.14706,17.9475,20.2735,-0.0967238,-1.49393,0.110056,1.29993,0.121796,2.75883,2.79244,0.206455,0.0502204,0.338659
4648931,0.99,-1.52212,-0.488376,0.044381,-2.06089,1.59272,1.66359,0.784942,-1.51793,-0.486528,0.0500894,-2.05677,1.59399,1.66808,0.785037,0.890206,0.689719,0.903259,0.707377,0.435031,1.74083,0.00135853,0.919589,0.730343,0.98916,0.732615,0.427322,1.81608,-0.021811,11.7053,-4.40097,18.1498,20.448,-0.260603,-1.51957,0.0523779,1.27522,0.209607,2.74558,2.74179,0.199431,0.0517407,0.334787
4648932,0.99,-1.52121,-0.487657,0.0453169,-2.06018,1.59315,1.66542,0.784939,-1.51701,-0.485791,0.0510885,-2.05604,1.59442,1.66991,0.785014,0.890789,0.698721,0.901909,0.711461,0.432649,1.76149,-0.00384975,0.922276,0.737132,0.99915,0.739258,0.430497,1.82842,-0.022522,11.7529,-4.50412,18.3283,20.6226,-0.226729,-1.59006,0.0523779,1.29691,0.275658,2.79928,2.70036,0.190845,0.0460283,0.330561
4648933,0.99,-1.52033,-0.486922,0.0462657,-2.05944,1.59358,1.66721,0.784937,-1.51608,-0.485047,0.0520976,-2.05529,1.59485,1.67175,0.784991,0.885209,0.704568,0.913753,0.709357,0.435023,1.77131,-0.00320166,0.924964,0.743921,1.00914,0.745901,0.433673,1.84075,-0.023233,12.0584,-4.70645,18.3283,20.8725,-0.164473,-1.41611,0.0587866,1.36109,0.315025,2.91316,2.67343,0.180887,0.0335188,0.326031
4648934,0.99,-1.51945,-0.48618,0.0472273,-2.05872,1.59403,1.66904,0.784926,-1.51515,-0.484296,0.0531168,-2.05454,1.59529,1.6736,0.784967,0.871979,0.718617,0.928893,0.71266,0.439824,1.77564,-0.00856808,0.927651,0.750709,1.01913,0.752543,0.436848,1.85309,-0.0239441,12.5107,-5.05954,18.1498,21.1185,-0.0738356,-1.22294,0.0972387,1.45733,0.322143,3.069,2.66717,0.170183,0.0158226,0.321242
4648935,0.99,-1.51853,-0.485417,0.0481867,-2.05797,1.59447,1.67086,0.784919,-1.51422,-0.483539,0.0541459,-2.05378,1.59573,1.67547,0.784942,0.887718,0.730563,0.940612,0.72223,0.44729,1.79479,-0.00680313,0.930339,0.757498,1.02912,0.759186,0.440023,1.86542,-0.0246551,12.2608,-5.41263,18.2767,21.3169,-0.000593394,-1.06821,0.110056,1.57119,0.291428,3.24342,2.68401,0.159444,-0.00458388,0.316279
4648936,0.99,-1.5176,-0.484666,0.0491566,-2.05722,1.59493,1.67274,0.784888,-1.51329,-0.482774,0.055185,-2.05301,1.59617,1.67735,0.784917,0.899446,0.756306,0.949082,0.725627,0.451849,1.81567,-0.0162336,0.933026,0.764287,1.03911,0.765829,0.443199,1.87776,-0.0253661,11.9315,-5.69034,18.1022,21.543,-0.0802443,-1.07462,0.284922,1.68582,0.212615,3.4128,2.72594,0.14943,-0.0249292,0.31125
4648937,0.99,-1.51668,-0.4839,0.0501625,-2.05648,1.5954,1.67463,0.784874,-1.51236,-0.482003,0.0562341,-2.05224,1.59662,1.67924,0.784891,0.904278,0.756756,0.963023,0.73148,0.451861,1.83296,-0.0164908,0.935713,0.771076,1.0491,0.772472,0.446374,1.89009,-0.0260771,11.7529,-5.78952,17.8205,21.6422,-0.210249,-1.15885,0.291331,1.79,0.0818334,3.56258,2.79388,0.1407,-0.0433287,0.306333
4648938,0.99,-1.51577,-0.483125,0.0511875,-2.05572,1.59584,1.67649,0.784868,-1.51142,-0.481226,0.0572932,-2.05146,1.59707,1.68114,0.784864,0.913386,0.75644,0.982216,0.736017,0.44861,1.84617,-0.013356,0.936262,0.777298,1.05909,0.778578,0.449153,1.90044,-0.0268549,11.503,-5.86887,17.4912,21.6422,-0.25511,-1.1204,0.194285,1.87558,-0.0695177,3.6821,2.8742,0.133248,-0.0582616,0.301812
4648939,0.99,-1.51485,-0.482358,0.0522123,-2.05496,1.5963,1.67839,0.784851,-1.51048,-0.480442,0.0583623,-2.05068,1.59752,1.68305,0.784836,0.909115,0.756128,0.999264,0.742936,0.456871,1.84879,-0.0128066,0.93681,0.78352,1.06908,0.784684,0.451932,1.9108,-0.0276327,11.4752,-5.89267,17.2413,21.5668,-0.226729,-1.04258,0.143015,1.936,-0.199521,3.76235,2.94813,0.12668,-0.0684496,0.297885
4648940,0.99,-1.51395,-0.481582,0.0532636,-2.05417,1.59676,1.68025,0.784845,-1.50955,-0.479653,0.0594413,-2.04989,1.59797,1.68497,0.784808,0.906593,0.757515,1.01508,0.749276,0.460509,1.89127,-0.0130494,0.937359,0.789742,1.07907,0.79079,0.454712,1.92115,-0.0284106,11.503,-5.91647,16.912,21.2931,-0.226729,-0.830175,-0.0318506,1.97473,-0.286773,3.80784,3.00516,0.120459,-0.0743649,0.294503
4648941,0.99,-1.51301,-0.480793,0.0543108,-2.05337,1.59722,1.68216,0.784827,-1.50861,-0.478857,0.0605304,-2.04909,1.59843,1.6869,0.784779,0.909056,0.764327,1.03221,0.758304,0.4629,1.89918,-0.0127138,0.937907,0.795964,1.08906,0.796896,0.457491,1.93151,-0.0291884,11.2253,-5.96805,16.8604,21.0709,-0.232222,-0.649816,-0.0968531,1.9986,-0.328737,3.82779,3.04241,0.114267,-0.0771588,0.291433
4648942,0.99,-1.51207,-0.480022,0.0553526,-2.05258,1.5977,1.6841,0.784784,-1.50767,-0.478054,0.0616295,-2.04829,1.59889,1.68884,0.784749,0.909871,0.767743,1.03579,0.767465,0.464646,1.90481,-0.0246121,0.938456,0.802187,1.09905,0.803002,0.46027,1.94186,-0.0299662,10.8444,-5.94424,16.8088,20.7456,-0.237715,-0.746862,0.038645,2.01255,-0.332616,3.83017,3.06077,0.107904,-0.0772975,0.28835
4648943,0.99,-1.51114,-0.47923,0.0564336,-2.05175,1.59816,1.68605,0.784749,-1.50673,-0.477246,0.0627385,-2.04748,1.59935,1.69079,0.784718,0.912733,0.769677,1.05706,0.780308,0.467012,1.92098,-0.0265827,0.939004,0.808409,1.10904,0.809108,0.463049,1.95221,-0.030744,10.6461,-5.94424,16.5073,20.3489,-0.25511,-1.01053,0.129282,2.01997,-0.300017,3.82186,3.05809,0.101113,-0.0748787,0.285036
4648944,0.99,-1.51021,-0.478455,0.0575024,-2.05093,1.59864,1.68801,0.784725,-1.50579,-0.476431,0.0638575,-2.04666,1.59982,1.69276,0.784687,0.915442,0.772716,1.05446,0.802918,0.470662,1.92473,-0.0267836,0.939553,0.814631,1.11903,0.815214,0.465828,1.96257,-0.0315218,10.4675,-5.81729,16.178,20.1505,-0.333845,-1.17807,0.071604,2.02259,-0.223751,3.80775,3.02622,0.0935633,-0.0702427,0.281534
4648945,0.99,-1.50928,-0.47766,0.0585938,-2.05011,1.59914,1.68997,0.7847,-1.50485,-0.475611,0.0649865,-2.04584,1.60029,1.69473,0.784654,0.940398,0.7797,1.06237,0.804643,0.47694,1.94225,-0.0222551,0.940101,0.820853,1.12902,0.82132,0.468608,1.97292,-0.0322996,10.2136,-5.74191,15.9757,20.0235,-0.379622,-1.24857,0.000192821,2.0215,-0.105651,3.79288,2.96282,0.08496,-0.0641421,0.27798
4648946,0.99,-1.50834,-0.476863,0.0596949,-2.0493,1.59961,1.69196,0.784676,-1.50391,-0.474783,0.0661256,-2.04501,1.60076,1.69671,0.784621,0.938187,0.778347,1.10376,0.804379,0.475116,1.94927,-0.0247074,0.94065,0.827075,1.13901,0.827427,0.471387,1.98327,-0.0330774,9.9875,-5.63876,15.694,20.0751,-0.374129,-1.43534,-0.0510767,2.00411,0.0385447,3.75955,2.88061,0.0759748,-0.0555803,0.274391
4648947,0.99,-1.50739,-0.47606,0.06082,-2.04848,1.60009,1.69401,0.784665,-1.50297,-0.47395,0.0672746,-2.04418,1.60123,1.69871,0.784587,0.9387,0.787593,1.10353,0.810457,0.476901,1.96934,-0.0175939,0.941198,0.833297,1.149,0.833533,0.474166,1.99363,-0.0338552,9.76136,-5.71414,15.3925,20.1981,-0.221235,-1.97001,-0.213125,1.9608,0.193232,3.69059,2.79412,0.0674432,-0.0439372,0.270673
4648948,0.99,-1.50645,-0.475235,0.0619617,-2.04764,1.60057,1.69598,0.784636,-1.50203,-0.473111,0.0684331,-2.04334,1.60171,1.70071,0.784553,0.942448,0.797261,1.11189,0.81177,0.474707,1.97441,-0.0233536,0.939915,0.838854,1.15855,0.839012,0.476441,2.00185,-0.0346894,9.45985,-5.86887,15.1148,20.2735,-0.192854,-1.92515,-0.213125,1.90524,0.338774,3.6047,2.71469,0.059282,-0.0321181,0.266621
4648949,0.99,-1.50548,-0.474389,0.0631078,-2.04679,1.60105,1.69797,0.784591,-1.50109,-0.472267,0.0696012,-2.0425,1.60219,1.70272,0.784517,0.943496,0.813335,1.13013,0.817301,0.476121,1.96744,-0.0340253,0.938632,0.844411,1.1681,0.844492,0.478716,2.01007,-0.0355237,9.03138,-6.34891,14.8609,20.3489,-0.114119,-1.6807,-0.0382593,1.84784,0.450604,3.51717,2.65431,0.0515603,-0.0225206,0.262002
4648950,0.99,-1.50452,-0.473536,0.0642847,-2.04596,1.60154,1.69996,0.784558,-1.50015,-0.471417,0.0707788,-2.04165,1.60267,1.70474,0.784481,0.941598,0.819842,1.13126,0.816788,0.478416,1.96425,-0.0328532,0.937349,0.849968,1.17764,0.849972,0.480991,2.0183,-0.0363579,8.82905,-6.75357,14.5316,20.4996,-0.0628493,-1.36484,0.038645,1.79069,0.513774,3.43081,2.62058,0.0445653,-0.0157166,0.256756
4648951,0.99,-1.50359,-0.472679,0.0654938,-2.04511,1.60203,1.70194,0.78452,-1.49922,-0.470561,0.071966,-2.04079,1.60315,1.70676,0.784444,0.934052,0.827448,1.15359,0.823859,0.479721,1.97333,-0.0367227,0.936066,0.855525,1.18719,0.855451,0.483265,2.02652,-0.0371922,8.95601,-7.03128,14.0754,20.6702,-0.130598,-1.20371,0.129282,1.73885,0.531899,3.35281,2.61193,0.0382891,-0.01208,0.251073
4648952,0.99,-1.50264,-0.471844,0.0666678,-2.04428,1.60253,1.70396,0.784491,-1.49828,-0.4697,0.0731628,-2.03993,1.60364,1.7088,0.784406,0.937279,0.830237,1.15595,0.824523,0.487056,1.97473,-0.0356221,0.934783,0.861082,1.19674,0.860931,0.48554,2.03474,-0.0380264,8.92823,-7.15427,13.8969,21.0193,-0.147993,-1.03617,0.110056,1.69404,0.520508,3.28523,2.62064,0.0326626,-0.0111398,0.245273
4648953,0.99,-1.50168,-0.470991,0.0678403,-2.04343,1.60303,1.70593,0.784462,-1.49735,-0.468834,0.0743691,-2.03906,1.60413,1.71084,0.784367,0.948501,0.834609,1.15334,0.829233,0.501247,1.97386,-0.0342196,0.9335,0.866638,1.20629,0.866411,0.487815,2.04296,-0.0388607,8.57515,-7.18204,14,21.3169,-0.328352,-0.67545,0.071604,1.65789,0.495527,3.23192,2.63893,0.0272973,-0.0121872,0.239634
4648954,0.99,-1.50074,-0.470151,0.0690142,-2.04256,1.60353,1.70794,0.78445,-1.49642,-0.467962,0.0755849,-2.03819,1.60462,1.71289,0.784327,0.945966,0.852964,1.15736,0.838314,0.502857,1.98124,-0.0283292,0.932216,0.872195,1.21583,0.87189,0.49009,2.05119,-0.0396949,8.55134,-7.18204,13.8969,21.3684,-0.464766,-0.5015,-0.116079,1.6348,0.458509,3.20132,2.66446,0.021629,-0.014955,0.234293
4648955,0.99,-1.4998,-0.469292,0.0702001,-2.04171,1.60403,1.70999,0.784428,-1.49549,-0.467084,0.0768103,-2.03731,1.60511,1.71495,0.784286,0.937233,0.850293,1.15427,0.845868,0.49447,1.99098,-0.0273967,0.930933,0.877752,1.22538,0.87737,0.492365,2.05941,-0.0405291,8.7021,-7.18204,14.0754,21.3922,-0.475752,-0.533544,-0.219534,1.6325,0.40712,3.2044,2.69561,0.0150995,-0.0198109,0.22921
4648956,0.99,-1.49889,-0.468412,0.0714214,-2.04084,1.60452,1.71206,0.784379,-1.49456,-0.4662,0.0780452,-2.03643,1.6056,1.71702,0.784245,0.92525,0.856054,1.17207,0.852665,0.493209,2.01918,-0.0356619,0.92965,0.883309,1.23493,0.88285,0.49464,2.06763,-0.0413634,8.87666,-7.40817,14.0238,21.2693,-0.486738,-0.894261,-0.0840357,1.65705,0.356612,3.24799,2.7245,0.00726098,-0.0271206,0.224161
4648957,0.99,-1.49796,-0.467546,0.072613,-2.03997,1.60502,1.71412,0.784351,-1.49363,-0.465312,0.0792897,-2.03554,1.6061,1.7191,0.784203,0.914,0.858033,1.17794,0.859561,0.495262,2.02762,-0.0342874,0.928367,0.888866,1.24448,0.888329,0.496915,2.07586,-0.0421976,9.03138,-7.51132,14.1508,21.1423,-0.464766,-0.984899,-0.135305,1.70637,0.320839,3.32637,2.74523,-0.00190527,-0.0365541,0.218924
4648958,0.99,-1.49704,-0.466681,0.0738326,-2.03908,1.60553,1.71612,0.784314,-1.4927,-0.464418,0.0805428,-2.03465,1.6066,1.72118,0.78416,0.931233,0.855137,1.18098,0.86632,0.494111,2.06284,-0.0370492,0.925652,0.893692,1.25309,0.893102,0.498509,2.08187,-0.0430842,9.03138,-7.38437,14.2539,20.9201,-0.475752,-0.75327,-0.0968531,1.77311,0.310077,3.4287,2.75332,-0.0122724,-0.0474673,0.21344
4648959,0.99,-1.49611,-0.465797,0.0750701,-2.03818,1.60602,1.71816,0.784265,-1.49178,-0.463519,0.0818045,-2.03375,1.6071,1.72327,0.784116,0.928539,0.860329,1.2079,0.873612,0.500967,2.05513,-0.0375678,0.922937,0.898518,1.26171,0.897875,0.500103,2.08788,-0.0439708,9.13057,-7.3566,14.2261,20.7456,-0.436384,-0.533544,0.038645,1.84019,0.334475,3.53205,2.7443,-0.0234089,-0.0577411,0.207748
4648960,0.99,-1.4952,-0.464911,0.0763128,-2.0373,1.60653,1.72024,0.784232,-1.49086,-0.462616,0.0830748,-2.03285,1.6076,1.72536,0.784071,0.923985,0.872538,1.22134,0.878301,0.498958,2.05846,-0.036844,0.920221,0.903345,1.27033,0.902648,0.501697,2.09389,-0.0448574,9.3567,-7.51132,14.0754,20.571,-0.35124,-0.488683,0.0322363,1.89069,0.382261,3.61087,2.72406,-0.0345595,-0.0646781,0.201974
4648961,0.99,-1.49429,-0.464007,0.0775907,-2.03638,1.60704,1.72231,0.784184,-1.48994,-0.461708,0.0843538,-2.03194,1.6081,1.72746,0.784025,0.919048,0.881368,1.2311,0.885689,0.499233,2.05964,-0.0407066,0.917506,0.908171,1.27895,0.907421,0.503291,2.0999,-0.045744,9.40828,-7.73746,13.6191,20.2735,-0.40251,-0.611364,0.135691,1.92455,0.428165,3.66288,2.70424,-0.0452953,-0.0677955,0.196322
4648962,0.99,-1.49334,-0.463112,0.0788711,-2.03547,1.60756,1.72441,0.784141,-1.48903,-0.460795,0.0856413,-2.03103,1.60861,1.72956,0.783979,0.931405,0.890597,1.25254,0.910952,0.503973,2.06393,-0.0453479,0.914791,0.912997,1.28756,0.912194,0.504885,2.10591,-0.0466306,8.82905,-8.01517,13.1629,20.1743,-0.464766,-0.688268,0.155832,1.94237,0.465614,3.68874,2.68372,-0.0555018,-0.0669553,0.191026
4648963,0.99,-1.49236,-0.462194,0.0801369,-2.03457,1.60807,1.72653,0.784092,-1.48811,-0.459877,0.0869375,-2.03011,1.60911,1.73168,0.783931,0.945125,0.895091,1.26062,0.910609,0.504757,2.07824,-0.0451946,0.912076,0.917823,1.29618,0.916967,0.506479,2.11192,-0.0475172,7.94435,-8.34445,12.8336,20.0751,-0.464766,-0.823766,0.213511,1.93468,0.503567,3.67635,2.65394,-0.065038,-0.0609795,0.186313
4648964,0.99,-1.49143,-0.461284,0.0814354,-2.03366,1.60857,1.72863,0.784053,-1.4872,-0.458954,0.0882423,-2.02919,1.60962,1.73379,0.783883,0.939065,0.896205,1.28322,0.904388,0.507758,2.08496,-0.0452925,0.90936,0.92265,1.3048,0.92174,0.508073,2.11793,-0.0484038,7.38893,-8.44363,12.3774,20.2973,-0.385115,-0.933629,0.149424,1.89792,0.542261,3.62147,2.61981,-0.0736887,-0.0499638,0.182308
4648965,0.99,-1.49051,-0.460376,0.0827286,-2.03277,1.60909,1.73076,0.784011,-1.4863,-0.458027,0.0895557,-2.02826,1.61013,1.73592,0.783833,0.924895,0.898696,1.29271,0.90201,0.5051,2.09413,-0.0414814,0.906645,0.927476,1.31341,0.926512,0.509666,2.12394,-0.0492904,7.21437,-8.62216,11.8973,20.6702,-0.317366,-1.09385,0.0972387,1.84179,0.575764,3.53696,2.59304,-0.0814032,-0.0360465,0.179021
4648966,0.99,-1.48961,-0.459433,0.0840292,-2.03185,1.60958,1.73292,0.783964,-1.48539,-0.457095,0.0908777,-2.02733,1.61064,1.73805,0.783783,0.91864,0.908902,1.2817,0.90061,0.501772,2.11961,-0.0398826,0.90393,0.932302,1.32203,0.931285,0.51126,2.12995,-0.050177,7.03584,-9.00302,11.6712,20.9955,-0.192854,-1.63492,0.0651953,1.78995,0.593819,3.45664,2.58193,-0.0886333,-0.0235093,0.176335
4648967,0.99,-1.48868,-0.458505,0.0853344,-2.03093,1.61011,1.73503,0.783934,-1.48449,-0.456157,0.0922084,-2.0264,1.61116,1.74018,0.783732,0.914874,0.91707,1.29891,0.902271,0.502176,2.11145,-0.0376464,0.901215,0.937128,1.33065,0.936058,0.512854,2.13596,-0.0510636,6.8097,-9.28073,11.4411,21.2693,-0.266096,-1.37766,-0.10967,1.76076,0.582119,3.40812,2.59274,-0.0957399,-0.0159636,0.174056
