shamilmamedov/beam_handling/log/param_estimation_ICRA/ocp_transX_15cm_0.40s_1.csv
duration, success rate, q[0], q[1], q[2], q[3], q[4], q[5], q[6],q_d[0], q_d[1], q_d[2], q_d[3], q_d[4], q_d[5], q_d[6],dq[0], dq[1], dq[2], dq[3], dq[4], dq[5], dq[6],dq_d[0], dq_d[1], dq_d[2], dq_d[3], dq_d[4], dq_d[5], dq_d[6],tau_J[0], tau_J[1], tau_J[2], tau_J[3], tau_J[4], tau_J[5], tau_J[6],tau_ext_hat_filtered[0], tau_ext_hat_filtered[1], tau_ext_hat_filtered[2], tau_ext_hat_filtered[3], tau_ext_hat_filtered[4], tau_ext_hat_filtered[5], tau_ext_hat_filtered[6]
3014272,0,-1.57041,-0.522862,0.000380033,-2.09648,-0.00101296,1.57085,0.78575,-1.5708,-0.523598,3.7457e-07,-2.0944,-1.03745e-06,1.5708,0.785399,-0.000995085,1.02662e-07,0.000406374,-0.000882382,-0.000105436,4.56028e-06,0.00136182,0,0,0,0,0,0,0,-0.402821,-10.1377,-0.940793,21.4914,1.50911,1.70126,-0.232351,-0.419756,-1.0056,-0.456685,2.93782,0.794343,0.0299094,-0.20351
3014273,0,-1.57041,-0.52286,0.000381154,-2.09648,-0.00101251,1.57085,0.785744,-1.5708,-0.523598,3.7457e-07,-2.0944,-1.03745e-06,1.5708,0.785399,-1.37762e-05,0.000649682,0.000827728,-3.1443e-05,-0.000273741,3.04019e-06,-0.00122835,0,0,0,0,0,0,0,-0.430592,-10.1654,-0.964597,21.4676,1.5146,1.70126,-0.174673,-0.420264,-1.00673,-0.45715,2.93891,0.794279,0.0300826,-0.203377
3014274,1,-1.57041,-0.52286,0.000377351,-2.09648,-0.00101094,1.57085,0.785742,-1.5708,-0.523598,3.7457e-07,-2.0944,-1.03745e-06,1.5708,0.785399,0.000547628,0.000433122,-0.000654607,0.00053585,0.000224407,2.02679e-06,-0.000344181,0,0,0,0,0,0,0,-0.454395,-10.1654,-0.913022,21.4438,1.50362,1.70126,-0.18749,-0.420762,-1.00884,-0.457649,2.94033,0.794233,0.0302774,-0.203261
3014275,1,-1.57041,-0.522862,0.000379421,-2.09648,-0.00101401,1.57085,0.785746,-1.5708,-0.523598,3.7457e-07,-2.0944,-1.03745e-06,1.5708,0.785399,-0.000191727,-0.000360866,-0.000436405,0.000357233,0.000149605,1.35119e-06,0.00143206,0,0,0,0,0,0,0,-0.430592,-10.1377,-0.913022,21.4438,1.50362,1.70126,-0.232351,-0.420911,-1.01038,-0.457487,2.94103,0.794195,0.0303946,-0.20315
3014276,1,-1.57041,-0.52286,0.00037844,-2.09648,-0.00101245,1.57085,0.785742,-1.5708,-0.523598,3.7457e-07,-2.0944,-1.03745e-06,1.5708,0.785399,0.000428994,0.000409036,-0.000847748,-0.000875468,-0.000103714,9.00796e-07,-0.000232089,0,0,0,0,0,0,0,-0.454395,-10.1654,-0.889218,21.4914,1.50911,1.70126,-0.200308,-0.420426,-1.01107,-0.45623,2.94123,0.794183,0.030478,-0.203041
3014277,1,-1.57041,-0.522864,0.000381829,-2.09648,-0.00101299,1.57085,0.785742,-1.5708,-0.523598,3.7457e-07,-2.0944,-1.03745e-06,1.5708,0.785399,-0.000270816,-0.000933735,0.00119807,0.000529978,0.000575117,6.00531e-07,-0.00110416,0,0,0,0,0,0,0,-0.430592,-10.1139,-0.964597,21.4438,1.49172,1.70126,-0.174673,-0.42003,-1.01121,-0.455028,2.94134,0.79417,0.0305718,-0.202956
3014278,1,-1.57041,-0.522862,0.000375906,-2.09648,-0.00101316,1.57085,0.785748,-1.5708,-0.523598,3.7457e-07,-2.0944,-1.03745e-06,1.5708,0.785399,0.00158269,-6.5678e-05,-0.000964523,-0.000203493,-0.000464299,4.00354e-07,0.000925405,0,0,0,0,0,0,0,-0.50597,-10.1377,-0.889218,21.4676,1.5146,1.70126,-0.219534,-0.420428,-1.00995,-0.454904,2.94076,0.794105,0.0306132,-0.202884
3014279,1,-1.57041,-0.52286,0.000379314,-2.09648,-0.00101496,1.57085,0.785741,-1.5708,-0.523598,3.7457e-07,-2.0944,-1.03745e-06,1.5708,0.785399,-0.00135772,0.000605829,0.000563411,0.00042115,-0.000106082,2.66903e-07,-0.000807217,0,0,0,0,0,0,0,-0.402821,-10.1654,-0.940793,21.4438,1.50911,1.70126,-0.181082,-0.421078,-1.00864,-0.455019,2.93998,0.794016,0.0306257,-0.202808
3014280,1,-1.57041,-0.522864,0.000379244,-2.09648,-0.00101576,1.57085,0.785744,-1.5708,-0.523598,3.7457e-07,-2.0944,-1.03745e-06,1.5708,0.785399,-0.000255534,-0.00080254,0.000375607,0.000280767,-7.07214e-05,1.77935e-07,-0.000300786,0,0,0,0,0,0,0,-0.430592,-10.1139,-0.940793,21.4438,1.50911,1.70126,-0.18749,-0.4214,-1.00789,-0.45473,2.93926,0.793947,0.0306265,-0.20273
3014281,1,-1.57041,-0.522864,0.000379402,-2.09648,-0.00101664,1.57085,0.785745,-1.5708,-0.523598,3.7457e-07,-2.0944,-1.03745e-06,1.5708,0.785399,-0.000170356,-0.000535027,-0.000399209,-0.000369634,-0.000250598,0.000237478,0.000986271,0,0,0,0,0,0,0,-0.430592,-10.1139,-0.913022,21.4676,1.5146,1.69485,-0.219534,-0.421512,-1.00619,-0.454243,2.93806,0.793889,0.030591,-0.202641
3014282,1,-1.57041,-0.522862,0.000377974,-2.09648,-0.00101612,1.57085,0.785742,-1.5708,-0.523598,3.7457e-07,-2.0944,-1.03745e-06,1.5708,0.785399,-0.000113571,0.000200127,-0.00026614,0.000310389,3.63851e-05,0.000158318,-0.001004,0,0,0,0,0,0,0,-0.430592,-10.1377,-0.913022,21.4438,1.50911,1.69485,-0.174673,-0.421364,-1.0042,-0.453335,2.93684,0.793855,0.0305578,-0.202539
3014283,1,-1.57041,-0.522862,0.000381577,-2.09648,-0.00101737,1.57085,0.785747,-1.5708,-0.523598,3.7457e-07,-2.0944,-1.03745e-06,1.5708,0.785399,-0.000725328,0.000133418,0.000472188,0.000206926,-0.000382644,-0.000369172,0.000754821,0,0,0,0,0,0,0,-0.402821,-10.1377,-0.940793,21.4438,1.5201,1.70767,-0.213125,-0.42106,-1.00326,-0.452212,2.93602,0.793848,0.0305402,-0.202433
3014284,1,-1.57042,-0.522862,0.000382128,-2.09648,-0.00101616,1.57085,0.785746,-1.5708,-0.523598,3.7457e-07,-2.0944,-1.03745e-06,1.5708,0.785399,-0.00104036,8.89455e-05,0.000314792,-0.000418861,0.000151805,-0.000246115,0.000977932,0,0,0,0,0,0,0,-0.379017,-10.1377,-0.940793,21.4676,1.50911,1.70767,-0.225942,-0.42075,-1.00343,-0.451266,2.93571,0.793865,0.0305566,-0.202319
3014285,1,-1.57042,-0.522862,0.000381852,-2.09648,-0.00101616,1.57085,0.785742,-1.5708,-0.523598,3.7457e-07,-2.0944,-1.03745e-06,1.5708,0.785399,-0.000693576,5.9297e-05,0.000766673,0.000277571,0.000101203,0.000310641,-0.00124692,0,0,0,0,0,0,0,-0.379017,-10.1377,-0.964597,21.4438,1.50911,1.69485,-0.174673,-0.420477,-1.00427,-0.450651,2.93582,0.793905,0.0306147,-0.202218
3014286,1,-1.57041,-0.522862,0.000378044,-2.09648,-0.00101297,1.57085,0.785744,-1.5708,-0.523598,3.7457e-07,-2.0944,-1.03745e-06,1.5708,0.785399,9.4428e-05,3.95313e-05,-0.00125212,-0.000928576,6.74688e-05,-3.02647e-05,0.000592876,0,0,0,0,0,0,0,-0.402821,-10.1377,-0.889218,21.4914,1.50911,1.70126,-0.213125,-0.420108,-1.00544,-0.450057,2.9362,0.793966,0.0307037,-0.202143
3014287,1,-1.57041,-0.522865,0.000381697,-2.09648,-0.00101632,1.57085,0.785746,-1.5708,-0.523598,3.7457e-07,-2.0944,-1.03745e-06,1.5708,0.785399,6.2952e-05,-0.00108727,0.00092849,-6.2239e-05,-0.000361922,-0.000257535,0.00134469,0,0,0,0,0,0,0,-0.402821,-10.0901,-0.964597,21.4676,1.5201,1.70767,-0.23876,-0.419698,-1.00611,-0.449436,2.93659,0.794032,0.0308108,-0.202082
3014288,1,-1.57041,-0.522864,0.000379481,-2.09648,-0.00101459,1.57085,0.78574,-1.5708,-0.523598,3.7457e-07,-2.0944,-1.03745e-06,1.5708,0.785399,0.000691582,-0.000168034,6.21811e-05,0.000515319,0.000572521,6.56687e-05,-0.00100241,0,0,0,0,0,0,0,-0.430592,-10.1139,-0.940793,21.4438,1.49812,1.70126,-0.18749,-0.419987,-1.00504,-0.449893,2.93618,0.794049,0.0308569,-0.202044
3014289,1,-1.57042,-0.52286,0.00037568,-2.09648,-0.00101482,1.57085,0.785743,-1.5708,-0.523598,3.7457e-07,-2.0944,-1.03745e-06,1.5708,0.785399,-0.00130218,0.0010944,-0.00116497,0.000343546,0.000381681,0.000518497,-0.000668276,0,0,0,0,0,0,0,-0.355213,-10.1654,-0.889218,21.4438,1.49812,1.68844,-0.18749,-0.420233,-1.00393,-0.450358,2.93533,0.794055,0.0308395,-0.202053
3014290,1,-1.57041,-0.522858,0.00037729,-2.09648,-0.00101612,1.57085,0.785748,-1.5708,-0.523598,3.7457e-07,-2.0944,-1.03745e-06,1.5708,0.785399,0.000895116,0.00128641,-0.000219836,0.000878645,-0.000152447,-0.000129053,0.000741277,0,0,0,0,0,0,0,-0.430592,-10.1892,-0.913022,21.416,1.50911,1.70126,-0.219534,-0.419458,-1.00536,-0.449369,2.93514,0.794103,0.0308305,-0.202086
3014291,1,-1.57041,-0.522862,0.000375599,-2.09649,-0.00101234,1.57085,0.785747,-1.5708,-0.523598,3.7457e-07,-2.0944,-1.03745e-06,1.5708,0.785399,-5.28701e-05,-0.000348817,-0.000703369,-0.0023839,0.000101819,0.000151323,1.9467e-05,0,0,0,0,0,0,0,-0.402821,-10.1377,-0.889218,21.543,1.50362,1.69485,-0.206716,-0.418508,-1.00889,-0.448097,2.9361,0.794159,0.0309087,-0.202116
3014292,1,-1.57042,-0.522858,0.000377263,-2.09648,-0.00101509,1.57085,0.785745,-1.5708,-0.523598,3.7457e-07,-2.0944,-1.03745e-06,1.5708,0.785399,-0.000592059,0.000973881,8.78991e-05,0.000173971,-0.000135571,-0.000373836,0.000250337,0,0,0,0,0,0,0,-0.379017,-10.1892,-0.913022,21.4676,1.50911,1.70767,-0.213125,-0.417676,-1.01316,-0.44703,2.9382,0.794221,0.0311168,-0.202153
3014293,1,-1.57041,-0.522865,0.00037559,-2.09648,-0.00101581,1.57085,0.785747,-1.5708,-0.523598,3.7457e-07,-2.0944,-1.03745e-06,1.5708,0.785399,0.000162106,-0.0016708,-0.000498213,-0.000997643,-9.03808e-05,0.000225494,0.00040425,0,0,0,0,0,0,0,-0.402821,-10.0901,-0.889218,21.5152,1.50911,1.69485,-0.219534,-0.416802,-1.01612,-0.446001,2.94006,0.79427,0.0313214,-0.202208
3014294,1,-1.57042,-0.522864,0.00037772,-2.09648,-0.00101665,1.57085,0.785745,-1.5708,-0.523598,3.7457e-07,-2.0944,-1.03745e-06,1.5708,0.785399,-0.000448741,-0.000557052,-0.000332142,0.000448528,-0.000263704,-8.70295e-05,-0.000917295,0,0,0,0,0,0,0,-0.379017,-10.1139,-0.889218,21.4676,1.5146,1.70126,-0.18749,-0.41596,-1.01547,-0.445052,2.94022,0.794279,0.0313847,-0.202292
3014295,1,-1.57042,-0.52286,0.00037797,-2.09648,-0.00101551,1.57085,0.78575,-1.5708,-0.523598,3.7457e-07,-2.0944,-1.03745e-06,1.5708,0.785399,-0.000299161,0.000835058,0.000335384,0.000299019,0.000231098,0.000179339,0.00104998,0,0,0,0,0,0,0,-0.379017,-10.1654,-0.913022,21.4676,1.50362,1.69485,-0.232351,-0.415189,-1.01305,-0.44425,2.93923,0.794257,0.0313242,-0.202399
3014296,1,-1.57042,-0.522864,0.000375826,-2.09648,-0.00101234,1.57084,0.785749,-1.5708,-0.523598,3.7457e-07,-2.0944,-1.03745e-06,1.5708,0.785399,-0.000199441,-0.000649721,-0.000333223,0.000756158,0.000154065,-0.000117799,0.00046263,0,0,0,0,0,0,0,-0.379017,-10.1139,-0.889218,21.4438,1.50362,1.70126,-0.225942,-0.414635,-1.0111,-0.443831,2.93794,0.79421,0.031188,-0.202516
3014297,1,-1.57041,-0.52286,0.000379287,-2.09648,-0.0010119,1.57085,0.785743,-1.5708,-0.523598,3.7457e-07,-2.0944,-1.03745e-06,1.5708,0.785399,0.000423852,0.000773279,0.000984278,-5.27067e-05,-0.00010074,-0.000315892,-0.00182781,0,0,0,0,0,0,0,-0.402821,-10.1654,-0.940793,21.4676,1.50911,1.70767,-0.168264,-0.414587,-1.00943,-0.444183,2.93655,0.794129,0.0310197,-0.202657
3014298,1,-1.57041,-0.522862,0.000379235,-2.09648,-0.00101154,1.57085,0.785747,-1.5708,-0.523598,3.7457e-07,-2.0944,-1.03745e-06,1.5708,0.785399,0.000932182,-0.000134095,0.000656185,-0.00114876,-6.71602e-05,0.000501482,0.00139241,0,0,0,0,0,0,0,-0.430592,-10.1377,-0.940793,21.5152,1.50911,1.68844,-0.23876,-0.415651,-1.00907,-0.446165,2.93608,0.794009,0.0309377,-0.20281
3014299,1,-1.57042,-0.522864,0.000375598,-2.09648,-0.00101082,1.57085,0.78575,-1.5708,-0.523598,3.7457e-07,-2.0944,-1.03745e-06,1.5708,0.785399,-0.000584971,-0.000646208,-0.000768969,-0.000765841,0.000158677,9.69625e-05,0.00119954,0,0,0,0,0,0,0,-0.379017,-10.1139,-0.889218,21.5152,1.50362,1.69485,-0.246084,-0.417047,-1.00961,-0.448609,2.9367,0.793897,0.0309739,-0.202958
3014300,1,-1.57041,-0.522864,0.000375592,-2.09648,-0.00101139,1.57085,0.785743,-1.5708,-0.523598,3.7457e-07,-2.0944,-1.03745e-06,1.5708,0.785399,0.00137326,-0.000430806,-0.000512646,0.00115988,-9.76658e-05,-0.000410076,-0.00184516,0,0,0,0,0,0,0,-0.454395,-10.1139,-0.889218,21.4438,1.50911,1.70767,-0.174673,-0.417582,-1.00885,-0.449673,2.93684,0.793817,0.0309745,-0.203136
3014301,1,-1.57041,-0.522862,0.00037726,-2.09648,-0.00101335,1.57085,0.785746,-1.5708,-0.523598,3.7457e-07,-2.0944,-1.03745e-06,1.5708,0.785399,0.000358693,0.000269608,0.000215048,-0.000897186,0.000341791,-3.60252e-05,-0.000280674,0,0,0,0,0,0,0,-0.430592,-10.1377,-0.913022,21.5152,1.49812,1.70126,-0.200308,-0.417866,-1.00717,-0.450157,2.93627,0.79373,0.0308953,-0.203353
3014302,1,-1.57042,-0.52286,0.000375589,-2.09648,-0.00101563,1.57085,0.785746,-1.5708,-0.523598,3.7457e-07,-2.0944,-1.03745e-06,1.5708,0.785399,-0.00152411,0.000829353,-0.000413447,-0.000598124,-0.000179041,-2.40168e-05,-0.000424475,0,0,0,0,0,0,0,-0.355213,-10.1654,-0.889218,21.5152,1.50911,1.70126,-0.193899,-0.41785,-1.00731,-0.450161,2.93668,0.793674,0.0308941,-0.203567
3014303,1,-1.57041,-0.522858,0.00037939,-2.09648,-0.00101537,1.57085,0.785747,-1.5708,-0.523598,3.7457e-07,-2.0944,-1.03745e-06,1.5708,0.785399,0.00130398,0.00110971,0.000281181,0.000714875,8.40901e-05,-1.60112e-05,0.000191735,0,0,0,0,0,0,0,-0.454395,-10.1892,-0.913022,21.4676,1.50362,1.70126,-0.206716,-0.417246,-1.01008,-0.449358,2.93836,0.793664,0.0309843,-0.203745
3014304,0.99,-1.57041,-0.522864,0.000379919,-2.09648,-0.00101549,1.57085,0.785748,-1.5708,-0.523598,3.7457e-07,-2.0944,-1.03745e-06,1.5708,0.785399,0.000312506,-0.00102343,0.000837068,-8.02288e-05,5.606e-05,-1.06741e-05,0.000365182,0,0,0,0,0,0,0,-0.430592,-10.1139,-0.940793,21.4914,1.50362,1.70126,-0.213125,-0.417343,-1.01265,-0.449491,2.93963,0.793602,0.0310185,-0.203879
3014305,0.99,-1.57041,-0.522862,0.000379445,-2.09648,-0.00101614,1.57085,0.785745,-1.5708,-0.523598,3.7457e-07,-2.0944,-1.03745e-06,1.5708,0.785399,-0.000441277,-0.000125474,0.000558045,-5.34859e-05,-0.000166077,-7.11609e-06,0.000243455,0,0,0,0,0,0,0,-0.402821,-10.1377,-0.940793,21.4914,1.50911,1.70126,-0.213125,-0.418293,-1.01269,-0.45085,2.93971,0.793474,0.0309631,-0.203983
3014306,0.99,-1.57041,-0.522862,0.000377338,-2.09648,-0.00101616,1.57084,0.785742,-1.5708,-0.523598,3.7457e-07,-2.0944,-1.03745e-06,1.5708,0.785399,-0.000294184,-8.36492e-05,-0.000277584,-0.000592469,-0.000110718,-4.74406e-06,-0.00126185,0,0,0,0,0,0,0,-0.402821,-10.1377,-0.913022,21.5152,1.50911,1.70126,-0.174673,-0.418884,-1.01156,-0.451767,2.93947,0.793363,0.0309047,-0.204078
3014307,0.99,-1.57041,-0.522862,0.000379416,-2.09648,-0.00101296,1.57085,0.785747,-1.5708,-0.523598,3.7457e-07,-2.0944,-1.03745e-06,1.5708,0.785399,0.000453491,-5.57661e-05,-0.000185056,0.000718644,-7.38121e-05,-0.000240522,0.00058292,0,0,0,0,0,0,0,-0.430592,-10.1377,-0.913022,21.4676,1.50911,1.70767,-0.213125,-0.418766,-1.01054,-0.451616,2.93935,0.793292,0.0308655,-0.204163
3014308,0.99,-1.57041,-0.522864,0.000383728,-2.09648,-0.00101068,1.57085,0.785745,-1.5708,-0.523598,3.7457e-07,-2.0944,-1.03745e-06,1.5708,0.785399,0.000302327,-0.000593989,0.00108306,-7.77157e-05,0.000357693,0.00031437,-0.000560822,0,0,0,0,0,0,0,-0.430592,-10.1139,-0.964597,21.4914,1.49812,1.69485,-0.18749,-0.418773,-1.00888,-0.451569,2.93878,0.79321,0.0307859,-0.204217
3014309,0.99,-1.57042,-0.522862,0.000381829,-2.09648,-0.00101535,1.57085,0.785742,-1.5708,-0.523598,3.7457e-07,-2.0944,-1.03745e-06,1.5708,0.785399,-0.00100487,0.000160819,0.000722037,0.00106181,-0.00037189,0.00020958,-0.000136523,0,0,0,0,0,0,0,-0.379017,-10.1377,-0.964597,21.4438,1.5146,1.69485,-0.193899,-0.419293,-1.00645,-0.452361,2.93761,0.793096,0.0306472,-0.204238
3014310,0.99,-1.57041,-0.522858,0.000379707,-2.09648,-0.00101508,1.57085,0.785746,-1.5708,-0.523598,3.7457e-07,-2.0944,-1.03745e-06,1.5708,0.785399,0.00165013,0.00131364,-0.000725068,-0.000405748,0.000158975,-9.76389e-05,0.00133314,0,0,0,0,0,0,0,-0.478199,-10.1892,-0.913022,21.4914,1.50362,1.70126,-0.232351,-0.419756,-1.00535,-0.453124,2.93688,0.792994,0.030526,-0.204223
3014311,0.99,-1.57041,-0.522862,0.000383825,-2.09648,-0.00101281,1.57085,0.785746,-1.5708,-0.523598,3.7457e-07,-2.0944,-1.03745e-06,1.5708,0.785399,0.000543277,-0.000330667,0.000723047,-0.000270499,-9.74674e-05,-0.000302452,-6.06767e-05,0,0,0,0,0,0,0,-0.454395,-10.1377,-0.964597,21.4914,1.50911,1.70767,-0.206716,-0.420309,-1.00669,-0.453831,2.93748,0.792913,0.0305175,-0.204185
3014312,0.99,-1.57041,-0.52286,0.000381861,-2.09648,-0.00101504,1.57085,0.785746,-1.5708,-0.523598,3.7457e-07,-2.0944,-1.03745e-06,1.5708,0.785399,-0.000194627,0.000429169,0.000482031,0.000933291,-6.49783e-05,3.57246e-05,-0.00027781,0,0,0,0,0,0,0,-0.430592,-10.1654,-0.964597,21.4438,1.50911,1.70126,-0.200308,-0.421196,-1.00828,-0.454948,2.93834,0.792831,0.0305485,-0.204156
3014313,0.99,-1.57041,-0.52286,0.000379717,-2.09648,-0.00101579,1.57085,0.785746,-1.5708,-0.523598,3.7457e-07,-2.0944,-1.03745e-06,1.5708,0.785399,-0.000129751,0.000286113,-0.000885072,0.000622194,-4.33188e-05,-0.000213543,0.000764229,0,0,0,0,0,0,0,-0.430592,-10.1654,-0.913022,21.4438,1.50911,1.70767,-0.225942,-0.421563,-1.00901,-0.455353,2.93846,0.79277,0.0305166,-0.204152
3014314,0.99,-1.57041,-0.52286,0.000380209,-2.09648,-0.00101482,1.57085,0.785743,-1.5708,-0.523598,3.7457e-07,-2.0944,-1.03745e-06,1.5708,0.785399,-8.6501e-05,0.000190742,-0.000590048,-0.000698828,0.000378022,9.49972e-05,3.47681e-05,0,0,0,0,0,0,0,-0.430592,-10.1654,-0.913022,21.4914,1.49812,1.70126,-0.213125,-0.42077,-1.00981,-0.454009,2.93848,0.792774,0.030494,-0.204175
3014315,0.99,-1.57041,-0.522865,0.000380192,-2.09648,-0.00101551,1.57085,0.785744,-1.5708,-0.523598,3.7457e-07,-2.0944,-1.03745e-06,1.5708,0.785399,-5.76673e-05,-0.00163608,0.000256249,-0.0010227,4.8564e-05,6.33315e-05,-0.000688898,0,0,0,0,0,0,0,-0.430592,-10.0901,-0.940793,21.5152,1.50362,1.70126,-0.193899,-0.4195,-1.01004,-0.451918,2.93879,0.792822,0.0305564,-0.204233
3014316,0.99,-1.57042,-0.52286,0.000379718,-2.09648,-0.00101493,1.57084,0.785747,-1.5708,-0.523598,3.7457e-07,-2.0944,-1.03745e-06,1.5708,0.785399,-0.00124487,0.00067252,-0.000478781,0.000431826,0.000235827,-0.000195138,1.54525e-05,0,0,0,0,0,0,0,-0.379017,-10.1654,-0.913022,21.4676,1.49812,1.70767,-0.206716,-0.418187,-1.00903,-0.449834,2.93898,0.792874,0.0306541,-0.204318
3014317,0.99,-1.57041,-0.52286,0.000378079,-2.09648,-0.00101357,1.57085,0.785743,-1.5708,-0.523598,3.7457e-07,-2.0944,-1.03745e-06,1.5708,0.785399,-0.000273102,0.000448347,-0.000319188,0.000287884,-0.000453134,0.000107267,-0.00117649,0,0,0,0,0,0,0,-0.402821,-10.1654,-0.913022,21.4676,1.5146,1.70126,-0.174673,-0.416471,-1.00855,-0.447264,2.93915,0.792933,0.0307363,-0.204409
3014318,0.99,-1.57041,-0.522862,0.000375862,-2.09648,-0.00101632,1.57085,0.785748,-1.5708,-0.523598,3.7457e-07,-2.0944,-1.03745e-06,1.5708,0.785399,0.00102436,-0.000350716,-0.000769604,-0.000364889,-0.00050554,-0.000165848,0.000639825,0,0,0,0,0,0,0,-0.454395,-10.1377,-0.889218,21.4914,1.5201,1.70767,-0.213125,-0.414839,-1.00905,-0.444756,2.93948,0.792977,0.0308133,-0.204477
3014319,0.99,-1.57041,-0.522862,0.000377351,-2.09648,-0.00101642,1.57085,0.785748,-1.5708,-0.523598,3.7457e-07,-2.0944,-1.03745e-06,1.5708,0.785399,0.000126093,-0.000233811,4.37428e-05,0.000870364,-0.000133576,0.000601512,0.00042655,0,0,0,0,0,0,0,-0.430592,-10.1377,-0.913022,21.4438,1.5146,1.68844,-0.213125,-0.414002,-1.00884,-0.443219,2.93938,0.792978,0.0308535,-0.204509
3014320,0.99,-1.57042,-0.522864,0.000380909,-2.09648,-0.00101665,1.57085,0.785743,-1.5708,-0.523598,3.7457e-07,-2.0944,-1.03745e-06,1.5708,0.785399,-0.00112236,-0.000712686,0.00123559,-0.000533381,-8.90507e-05,-0.000311069,-0.00137715,0,0,0,0,0,0,0,-0.379017,-10.1139,-0.964597,21.4914,1.5146,1.70767,-0.168264,-0.413968,-1.00732,-0.442892,2.93857,0.792951,0.0308306,-0.204515
3014321,0.99,-1.57041,-0.522864,0.000379218,-2.09648,-0.00101551,1.57085,0.785749,-1.5708,-0.523598,3.7457e-07,-2.0944,-1.03745e-06,1.5708,0.785399,0.001015,8.16881e-05,0.000266913,0.00140765,0.000347534,0.000267339,0.000980774,0,0,0,0,0,0,0,-0.454395,-10.1377,-0.940793,21.416,1.50362,1.69485,-0.219534,-0.414734,-1.00501,-0.443917,2.93731,0.792902,0.0307616,-0.2045
3014322,0.99,-1.57041,-0.522861,0.000377263,-2.09648,-0.00101615,1.57085,0.785749,-1.5708,-0.523598,3.7457e-07,-2.0944,-1.03745e-06,1.5708,0.785399,-0.000529762,0.000704073,-0.000471672,-0.000267992,2.82388e-05,-0.000296492,0.000891208,0,0,0,0,0,0,0,-0.402821,-10.1654,-0.913022,21.4676,1.50911,1.70767,-0.225942,-0.415799,-1.00347,-0.445375,2.93615,0.792853,0.0306818,-0.204455
3014323,0.99,-1.57041,-0.522862,0.000379391,-2.09648,-0.00101235,1.57085,0.785742,-1.5708,-0.523598,3.7457e-07,-2.0944,-1.03745e-06,1.5708,0.785399,0.000296439,-0.000180232,-0.000314448,0.00037815,0.000222276,0.000514415,-0.00177945,0,0,0,0,0,0,0,-0.430592,-10.1377,-0.913022,21.4438,1.50362,1.68844,-0.161856,-0.416292,-1.00361,-0.445919,2.9357,0.792851,0.0306538,-0.204408
3014324,0.99,-1.57041,-0.52286,0.000382049,-2.09648,-0.00101251,1.57084,0.785742,-1.5708,-0.523598,3.7457e-07,-2.0944,-1.03745e-06,1.5708,0.785399,-0.000451988,0.000529459,0.000439982,0.0002521,-0.000258717,-0.000131774,-0.000236865,0,0,0,0,0,0,0,-0.402821,-10.1654,-0.940793,21.4438,1.5146,1.70126,-0.18749,-0.416393,-1.00452,-0.445895,2.93565,0.792882,0.0306609,-0.204366
3014325,0.99,-1.57041,-0.52286,0.000381826,-2.09648,-0.00101535,1.57085,0.785747,-1.5708,-0.523598,3.7457e-07,-2.0944,-1.03745e-06,1.5708,0.785399,0.000905101,0.000352973,0.000850133,0.000817681,-0.000172478,0.000149509,0.000791526,0,0,0,0,0,0,0,-0.454395,-10.1654,-0.964597,21.416,1.5146,1.69485,-0.213125,-0.416996,-1.00575,-0.44666,2.93562,0.79289,0.0306534,-0.204293
3014326,0.99,-1.57041,-0.522862,0.000377575,-2.09648,-0.00101691,1.57085,0.785743,-1.5708,-0.523598,3.7457e-07,-2.0944,-1.03745e-06,1.5708,0.785399,-0.000603025,-0.000414299,-0.00063967,-0.00121812,-0.000318436,-0.000137686,5.29662e-05,0,0,0,0,0,0,0,-0.402821,-10.1377,-0.913022,21.4914,1.5201,1.70126,-0.200308,-0.417965,-1.00714,-0.447993,2.93576,0.792891,0.0306637,-0.20418
3014327,0.99,-1.57041,-0.522864,0.000377825,-2.09648,-0.00101661,1.57085,0.785745,-1.5708,-0.523598,3.7457e-07,-2.0944,-1.03745e-06,1.5708,0.785399,0.000247597,-0.000833011,-0.000983259,-0.000812078,-8.83999e-06,0.000145568,-0.000202048,0,0,0,0,0,0,0,-0.430592,-10.1139,-0.889218,21.4914,1.5146,1.69485,-0.193899,-0.418103,-1.00797,-0.448076,2.93628,0.792962,0.0307487,-0.204059
3014328,0.99,-1.57041,-0.52286,0.000378005,-2.09648,-0.00101413,1.57085,0.785747,-1.5708,-0.523598,3.7457e-07,-2.0944,-1.03745e-06,1.5708,0.785399,-0.000484549,0.000651085,-9.8694e-05,0.000572238,-0.000209344,-0.000377672,0.000577378,0,0,0,0,0,0,0,-0.402821,-10.1654,-0.913022,21.4438,1.5201,1.70767,-0.213125,-0.417304,-1.00832,-0.44673,2.93687,0.793103,0.0308597,-0.203942
3014329,0.99,-1.57041,-0.522864,0.000381127,-2.09648,-0.00101569,1.57085,0.785742,-1.5708,-0.523598,3.7457e-07,-2.0944,-1.03745e-06,1.5708,0.785399,0.000326581,-0.000772369,0.00114063,-0.000732132,6.3888e-05,-1.44226e-05,-0.000327158,0,0,0,0,0,0,0,-0.430592,-10.1139,-0.964597,21.4914,1.5146,1.70126,-0.193899,-0.416827,-1.00859,-0.445893,2.93725,0.793241,0.0309345,-0.203825
3014330,0.99,-1.57042,-0.522862,0.000383092,-2.09648,-0.00101261,1.57085,0.78575,-1.5708,-0.523598,3.7457e-07,-2.0944,-1.03745e-06,1.5708,0.785399,-0.000988705,4.18992e-05,0.00076042,0.000625536,0.000246042,-9.61509e-06,0.00144341,0,0,0,0,0,0,0,-0.379017,-10.1377,-0.964597,21.4438,1.50911,1.70126,-0.23876,-0.4173,-1.0083,-0.446624,2.93724,0.793343,0.0309681,-0.203712
3014331,0.99,-1.57042,-0.522864,0.000381617,-2.09648,-0.00101498,1.57085,0.785745,-1.5708,-0.523598,3.7457e-07,-2.0944,-1.03745e-06,1.5708,0.785399,-0.000659137,-0.000528879,0.000506947,0.00106664,0.000164028,0.000468308,-0.000699241,0,0,0,0,0,0,0,-0.379017,-10.1139,-0.964597,21.416,1.50911,1.68844,-0.193899,-0.417973,-1.00683,-0.447899,2.93626,0.793424,0.0308957,-0.203625
3014332,0.99,-1.57041,-0.522864,0.000377966,-2.09648,-0.00101577,1.57084,0.785743,-1.5708,-0.523598,3.7457e-07,-2.0944,-1.03745e-06,1.5708,0.785399,0.000117387,-0.000352586,-0.00142527,-0.00160896,0.000109352,7.48463e-05,-0.00117824,0,0,0,0,0,0,0,-0.402821,-10.1139,-0.889218,21.5152,1.50911,1.69485,-0.174673,-0.417912,-1.00484,-0.448218,2.93482,0.793531,0.0307743,-0.203582
3014333,0.99,-1.57042,-0.522858,0.00038,-2.09648,-0.00101161,1.57085,0.785747,-1.5708,-0.523598,3.7457e-07,-2.0944,-1.03745e-06,1.5708,0.785399,-0.00103537,0.00152818,0.000256244,0.000597797,0.000479803,4.98975e-05,0.0015881,0,0,0,0,0,0,0,-0.355213,-10.1892,-0.940793,21.4438,1.49812,1.69485,-0.23876,-0.416883,-1.00484,-0.447125,2.93465,0.793699,0.0307615,-0.203564
3014334,0.99,-1.57041,-0.522862,0.000382813,-2.09648,-0.00101566,1.57085,0.785741,-1.5708,-0.523598,3.7457e-07,-2.0944,-1.03745e-06,1.5708,0.785399,0.00162981,-0.000187639,0.00128445,-0.00015828,-0.000290483,-0.000204094,-0.00084014,0,0,0,0,0,0,0,-0.454395,-10.1377,-0.988401,21.4676,1.5146,1.70126,-0.18749,-0.41627,-1.00725,-0.446719,2.93562,0.793843,0.0308141,-0.203539
3014335,0.99,-1.57041,-0.522862,0.000379296,-2.09648,-0.00101579,1.57085,0.785742,-1.5708,-0.523598,3.7457e-07,-2.0944,-1.03745e-06,1.5708,0.785399,0.00108654,-0.000125093,-0.000257322,0.00110091,9.79504e-06,0.000101296,-0.00103481,0,0,0,0,0,0,0,-0.454395,-10.1377,-0.940793,21.416,1.50911,1.69485,-0.174673,-0.41734,-1.00906,-0.448743,2.93603,0.793866,0.030791,-0.203515
3014336,0.99,-1.57041,-0.522864,0.000381368,-2.09649,-0.00101604,1.57085,0.78575,-1.5708,-0.523598,3.7457e-07,-2.0944,-1.03745e-06,1.5708,0.785399,0.000167546,-0.000640207,-0.000171548,-0.00223573,6.53003e-06,-0.000407187,0.00144636,0,0,0,0,0,0,0,-0.430592,-10.1139,-0.940793,21.543,1.50911,1.70767,-0.232351,-0.418895,-1.00938,-0.451345,2.93591,0.793844,0.0307391,-0.203486
3014337,0.99,-1.57041,-0.522864,0.000377979,-2.09648,-0.00101551,1.57085,0.785742,-1.5708,-0.523598,3.7457e-07,-2.0944,-1.03745e-06,1.5708,0.785399,-0.000537916,-0.000426805,-0.000763979,-0.00084087,0.000207804,0.00020326,-0.000697275,0,0,0,0,0,0,0,-0.402821,-10.1139,-0.913022,21.5152,1.50362,1.69485,-0.18749,-0.419405,-1.00959,-0.4524,2.93659,0.793885,0.0308063,-0.203447
3014338,0.99,-1.57041,-0.52286,0.000375829,-2.09648,-0.00101173,1.57085,0.785746,-1.5708,-0.523598,3.7457e-07,-2.0944,-1.03745e-06,1.5708,0.785399,-0.000358611,0.000921889,-0.00106613,-3.76838e-06,0.000341986,-0.000101852,0.00143402,0,0,0,0,0,0,0,-0.402821,-10.1654,-0.889218,21.4914,1.49812,1.70126,-0.23876,-0.418433,-1.01057,-0.451298,2.93799,0.794001,0.0309475,-0.203416
3014339,0.99,-1.57041,-0.52286,0.000379288,-2.09649,-0.00101509,1.57085,0.785748,-1.5708,-0.523598,3.7457e-07,-2.0944,-1.03745e-06,1.5708,0.785399,-0.000239074,0.000614593,0.000495672,-0.00120894,-0.00017891,-6.79016e-05,0.000481296,0,0,0,0,0,0,0,-0.402821,-10.1654,-0.940793,21.543,1.50911,1.70126,-0.225942,-0.416732,-1.01323,-0.449129,2.93997,0.794138,0.0311037,-0.203404
3014340,0.99,-1.57041,-0.522864,0.000379417,-2.09648,-0.00101581,1.57085,0.785742,-1.5708,-0.523598,3.7457e-07,-2.0944,-1.03745e-06,1.5708,0.785399,-0.000159383,-0.000796697,-0.000319166,0.000400467,-0.000119273,-4.52677e-05,-0.00205273,0,0,0,0,0,0,0,-0.402821,-10.1139,-0.913022,21.4914,1.50911,1.70126,-0.161856,-0.415401,-1.0161,-0.44754,2.94198,0.794234,0.0312414,-0.203431
3014341,0.99,-1.57041,-0.522862,0.000377979,-2.09648,-0.00101482,1.57085,0.785747,-1.5708,-0.523598,3.7457e-07,-2.0944,-1.03745e-06,1.5708,0.785399,-0.000106255,2.56804e-05,-0.000212777,0.000266978,0.000327385,-3.01785e-05,0.00147982,0,0,0,0,0,0,0,-0.402821,-10.1377,-0.913022,21.4914,1.49812,1.70126,-0.23876,-0.41445,-1.01655,-0.446507,2.94257,0.794266,0.0312417,-0.203495
3014342,0.99,-1.57041,-0.522862,0.000381579,-2.09648,-0.00101232,1.57085,0.785746,-1.5708,-0.523598,3.7457e-07,-2.0944,-1.03745e-06,1.5708,0.785399,-7.08367e-05,1.71203e-05,0.000507762,0.000177985,1.48064e-05,0.00021724,-0.000200245,0,0,0,0,0,0,0,-0.402821,-10.1377,-0.940793,21.4914,1.50362,1.69485,-0.206716,-0.413842,-1.01535,-0.445956,2.94201,0.794237,0.0311221,-0.203567
3014343,0.99,-1.57041,-0.522864,0.000379998,-2.09648,-0.00101569,1.57085,0.785742,-1.5708,-0.523598,3.7457e-07,-2.0944,-1.03745e-06,1.5708,0.785399,0.000602389,-0.000545398,0.000338508,0.000675469,-0.00039703,0.000144827,-0.00179501,0,0,0,0,0,0,0,-0.430592,-10.1139,-0.940793,21.4676,1.5146,1.69485,-0.161856,-0.414009,-1.01342,-0.446536,2.94091,0.794143,0.0309365,-0.203646
3014344,0.99,-1.57041,-0.52286,0.000375852,-2.09648,-0.0010158,1.57085,0.785747,-1.5708,-0.523598,3.7457e-07,-2.0944,-1.03745e-06,1.5708,0.785399,0.000401593,0.000842827,-0.000980754,0.00100712,-6.12362e-05,-0.000378167,0.00046484,0,0,0,0,0,0,0,-0.430592,-10.1654,-0.889218,21.4438,1.50911,1.70767,-0.206716,-0.414585,-1.01101,-0.447604,2.93928,0.794007,0.0306867,-0.203723
3014345,0.99,-1.57041,-0.522864,0.000379296,-2.09648,-0.00101543,1.57085,0.785749,-1.5708,-0.523598,3.7457e-07,-2.0944,-1.03745e-06,1.5708,0.785399,0.000824541,-0.000644541,0.00055259,-0.000442208,0.000162626,-0.000252111,0.000784611,0,0,0,0,0,0,0,-0.454395,-10.1139,-0.940793,21.4914,1.50362,1.70767,-0.219534,-0.415163,-1.00916,-0.448479,2.93784,0.793871,0.0304521,-0.203762
3014346,0.99,-1.57041,-0.522862,0.000377289,-2.09648,-0.00101612,1.57085,0.785747,-1.5708,-0.523598,3.7457e-07,-2.0944,-1.03745e-06,1.5708,0.785399,-0.000656732,0.000127118,-0.000281221,-0.000294805,-9.50329e-05,-0.000168074,4.83561e-05,0,0,0,0,0,0,0,-0.402821,-10.1377,-0.913022,21.4914,1.50911,1.70767,-0.206716,-0.415808,-1.00791,-0.449365,2.93713,0.793753,0.0303229,-0.20377
3014347,0.98,-1.57041,-0.52286,0.0003794,-2.09648,-0.00101676,1.57085,0.785746,-1.5708,-0.523598,3.7457e-07,-2.0944,-1.03745e-06,1.5708,0.785399,0.00132542,0.000734359,-0.00018748,-0.000753349,-0.000266806,-0.000112049,-0.000205122,0,0,0,0,0,0,0,-0.478199,-10.1654,-0.913022,21.5152,1.5146,1.70767,-0.200308,-0.416331,-1.00808,-0.450007,2.93762,0.793678,0.0303433,-0.203775
3014348,0.98,-1.57041,-0.522862,0.000379922,-2.09648,-0.00101616,1.57085,0.785745,-1.5708,-0.523598,3.7457e-07,-2.0944,-1.03745e-06,1.5708,0.785399,-0.000879627,-0.000160041,0.000524627,5.45795e-05,2.558e-05,0.000637377,-0.000611466,0,0,0,0,0,0,0,-0.402821,-10.1377,-0.940793,21.4914,1.50911,1.68844,-0.18749,-0.416855,-1.00981,-0.450549,2.9391,0.793636,0.0304689,-0.203783
3014349,0.98,-1.57041,-0.522862,0.000377497,-2.09648,-0.00101555,1.57085,0.785744,-1.5708,-0.523598,3.7457e-07,-2.0944,-1.03745e-06,1.5708,0.785399,0.000620008,-0.000106694,-0.000299863,0.000593198,0.000220504,-4.97997e-05,0.000304433,0,0,0,0,0,0,0,-0.454395,-10.1377,-0.913022,21.4676,1.50362,1.70126,-0.206716,-0.417373,-1.01087,-0.45105,2.94009,0.793601,0.0305525,-0.203787
3014350,0.98,-1.57041,-0.522864,0.000377339,-2.09648,-0.00101616,1.57085,0.785746,-1.5708,-0.523598,3.7457e-07,-2.0944,-1.03745e-06,1.5708,0.785399,0.000413339,-0.000627941,-0.000199908,-0.000161346,-5.6448e-05,-0.000270559,0.00138975,0,0,0,0,0,0,0,-0.454395,-10.1139,-0.913022,21.4914,1.50911,1.70767,-0.23876,-0.41779,-1.01016,-0.451283,2.94,0.793558,0.0305405,-0.203778
3014351,0.98,-1.57041,-0.522864,0.000379235,-2.09648,-0.00101555,1.57085,0.785745,-1.5708,-0.523598,3.7457e-07,-2.0944,-1.03745e-06,1.5708,0.785399,-0.000281253,-0.000418628,0.000516342,0.000449248,0.000165819,5.69864e-05,-0.000497654,0,0,0,0,0,0,0,-0.430592,-10.1139,-0.940793,21.4676,1.50362,1.70126,-0.200308,-0.41828,-1.00806,-0.451494,2.93923,0.793502,0.030481,-0.203775
3014352,0.98,-1.57041,-0.52286,0.000379217,-2.09648,-0.00101555,1.57085,0.785744,-1.5708,-0.523598,3.7457e-07,-2.0944,-1.03745e-06,1.5708,0.785399,-0.000187502,0.000927341,0.000344228,0.00085631,0.000110546,3.7991e-05,-0.00104385,0,0,0,0,0,0,0,-0.430592,-10.1654,-0.940793,21.4438,1.50362,1.70126,-0.181082,-0.418855,-1.00595,-0.451845,2.93825,0.793441,0.0303976,-0.2038
3014353,0.98,-1.57041,-0.522866,0.000377262,-2.09648,-0.00101236,1.57085,0.785747,-1.5708,-0.523598,3.7457e-07,-2.0944,-1.03745e-06,1.5708,0.785399,-0.000125001,-0.000588199,-0.000420129,1.40616e-05,7.36971e-05,2.53273e-05,0.00120297,0,0,0,0,0,0,0,-0.430592,-10.1139,-0.913022,21.4676,1.50362,1.70126,-0.232351,-0.419245,-1.00484,-0.45194,2.93746,0.793389,0.0303173,-0.203843
3014354,0.98,-1.57041,-0.522865,0.000379209,-2.09648,-0.00101571,1.57085,0.785742,-1.5708,-0.523598,3.7457e-07,-2.0944,-1.03745e-06,1.5708,0.785399,0.000473478,0.00016468,0.000369528,-0.00110425,-0.00035777,0.000254244,-0.00133425,0,0,0,0,0,0,0,-0.454395,-10.1377,-0.940793,21.5152,1.5146,1.69485,-0.174673,-0.419461,-1.00442,-0.451721,2.93729,0.793355,0.030312,-0.203885
3014355,0.98,-1.57041,-0.522863,0.00037939,-2.09648,-0.0010152,1.57085,0.785744,-1.5708,-0.523598,3.7457e-07,-2.0944,-1.03745e-06,1.5708,0.785399,-0.000890774,0.000109786,-0.000403262,-0.000179354,0.000168388,-0.000542581,-0.000652139,0,0,0,0,0,0,0,-0.402821,-10.1377,-0.913022,21.4914,1.50362,1.71408,-0.181082,-0.419583,-1.00507,-0.45134,2.93819,0.793352,0.0304296,-0.203922
3014356,0.98,-1.57041,-0.522864,0.000381589,-2.09648,-0.00101285,1.57085,0.785748,-1.5708,-0.523598,3.7457e-07,-2.0944,-1.03745e-06,1.5708,0.785399,5.57646e-05,-0.000483621,0.000937585,-0.000676382,-9.11919e-05,0.000112997,0.000989394,0,0,0,0,0,0,0,-0.430592,-10.1139,-0.964597,21.5152,1.50911,1.70126,-0.219534,-0.419565,-1.00622,-0.45083,2.93962,0.793369,0.0306085,-0.203933
3014357,0.98,-1.57041,-0.522862,0.000379445,-2.09648,-0.00101567,1.57085,0.785745,-1.5708,-0.523598,3.7457e-07,-2.0944,-1.03745e-06,1.5708,0.785399,3.71764e-05,0.000234398,6.82445e-05,0.00121951,-0.000264245,0.00031269,-0.000527199,0,0,0,0,0,0,0,-0.430592,-10.1377,-0.940793,21.4438,1.5146,1.69485,-0.18749,-0.419878,-1.00654,-0.450893,2.94048,0.793358,0.0307307,-0.203905
3014358,0.98,-1.57041,-0.522862,0.000379469,-2.09647,-0.00101579,1.57085,0.785749,-1.5708,-0.523598,3.7457e-07,-2.0944,-1.03745e-06,1.5708,0.785399,2.47843e-05,0.000156265,-0.000604118,0.00201944,2.72871e-05,-0.000266258,0.000835329,0,0,0,0,0,0,0,-0.430592,-10.1377,-0.913022,21.3922,1.50911,1.70767,-0.219534,-0.420256,-1.00562,-0.451033,2.93986,0.793309,0.0306784,-0.203855
3014359,0.98,-1.57041,-0.52286,0.000378456,-2.09648,-0.00101543,1.57084,0.785747,-1.5708,-0.523598,3.7457e-07,-2.0944,-1.03745e-06,1.5708,0.785399,0.000573335,0.000753791,-0.000959557,-0.000416947,0.000221642,5.98539e-05,8.21681e-05,0,0,0,0,0,0,0,-0.454395,-10.1654,-0.889218,21.4676,1.50362,1.70126,-0.206716,-0.420059,-1.00465,-0.450195,2.93846,0.793271,0.0305269,-0.203801
3014360,0.98,-1.57041,-0.52286,0.000381834,-2.09648,-0.00101551,1.57085,0.785742,-1.5708,-0.523598,3.7457e-07,-2.0944,-1.03745e-06,1.5708,0.785399,-0.000174589,0.000502527,0.00112353,0.000278847,0.000147761,3.99026e-05,-0.00160673,0,0,0,0,0,0,0,-0.430592,-10.1654,-0.964597,21.4438,1.50362,1.70126,-0.161856,-0.419869,-1.00545,-0.449282,2.93804,0.793261,0.0304783,-0.203752
3014361,0.98,-1.57041,-0.522858,0.000381197,-2.09648,-0.00101295,1.57085,0.785751,-1.5708,-0.523598,3.7457e-07,-2.0944,-1.03745e-06,1.5708,0.785399,-0.000766006,0.00089183,0.000749022,0.000185898,-0.000104943,0.000263961,0.00177715,0,0,0,0,0,0,0,-0.402821,-10.1892,-0.964597,21.4438,1.50911,1.69485,-0.23876,-0.420332,-1.0079,-0.44949,2.93868,0.79325,0.0305399,-0.203695
3014364,0.95,-1.57041,-0.522862,0.000377968,-2.09648,-0.00101285,1.57085,0.785748,-1.5708,-0.523598,3.7457e-07,-2.0944,-1.03745e-06,1.5708,0.785399,-0.000587862,3.73966e-05,-0.00141757,-0.000130523,5.93282e-05,-0.000554747,0.000895788,0,0,0,0,0,0,0,-0.402821,-10.1377,-0.889218,21.4676,1.50911,1.70767,-0.213125,-0.42196,-1.0076,-0.451306,2.9384,0.793192,0.0306701,-0.203489
3014365,0.94,-1.57041,-0.522864,0.000380183,-2.09648,-0.00101308,1.57085,0.785746,-1.5708,-0.523598,3.7457e-07,-2.0944,-1.03745e-06,1.5708,0.785399,-0.000391908,-0.000531881,-0.000388234,0.00111941,-0.000367349,0.000342246,-0.000114885,0,0,0,0,0,0,0,-0.402821,-10.1139,-0.913022,21.416,1.5201,1.68844,-0.193899,-0.420987,-1.00588,-0.449737,2.93781,0.79325,0.0306724,-0.203398
3014366,0.94,-1.57041,-0.522862,0.000378234,-2.09648,-0.00101214,1.57085,0.785749,-1.5708,-0.523598,3.7457e-07,-2.0944,-1.03745e-06,1.5708,0.785399,-0.000261272,0.000202225,-0.000258823,-0.00101696,-4.14487e-05,-9.19511e-06,0.000872846,0,0,0,0,0,0,0,-0.402821,-10.1377,-0.913022,21.4914,1.5146,1.69485,-0.219534,-0.419438,-1.00415,-0.447357,2.93685,0.793337,0.0306056,-0.203288
3014367,0.94,-1.57041,-0.52286,0.000379715,-2.09648,-0.00101462,1.57084,0.785751,-1.5708,-0.523598,3.7457e-07,-2.0944,-1.03745e-06,1.5708,0.785399,0.000475433,0.00078443,-0.000172549,-0.000677976,0.000175818,-0.000480848,0.00129397,0,0,0,0,0,0,0,-0.430592,-10.1654,-0.913022,21.4914,1.50911,1.70767,-0.23876,-0.418311,-1.00447,-0.445621,2.93711,0.793441,0.0306285,-0.203173
3014368,0.94,-1.57042,-0.522864,0.000378078,-2.09648,-0.00101367,1.57085,0.785744,-1.5708,-0.523598,3.7457e-07,-2.0944,-1.03745e-06,1.5708,0.785399,-0.00144628,-0.000683472,-0.000115032,0.00066164,-0.000289689,0.000154153,-0.00151094,0,0,0,0,0,0,0,-0.355213,-10.1139,-0.913022,21.4438,1.5201,1.69485,-0.174673,-0.417512,-1.00629,-0.444421,2.93821,0.79356,0.0307137,-0.203088
3014369,0.94,-1.57041,-0.522862,0.000377992,-2.09648,-0.00101432,1.57085,0.785749,-1.5708,-0.523598,3.7457e-07,-2.0944,-1.03745e-06,1.5708,0.785399,0.000799049,0.000101164,-0.0006335,-0.000672531,0.000417226,-0.000371949,0.000891578,0,0,0,0,0,0,0,-0.430592,-10.1377,-0.889218,21.4914,1.50362,1.70767,-0.225942,-0.416651,-1.00708,-0.443218,2.93864,0.79368,0.0307316,-0.203053
3014370,0.94,-1.57041,-0.522862,0.000380009,-2.09648,-0.00101377,1.57085,0.785745,-1.5708,-0.523598,3.7457e-07,-2.0944,-1.03745e-06,1.5708,0.785399,-0.000116914,6.74425e-05,0.000784092,-0.000448354,-0.000332201,-1.06074e-05,0.000119668,0,0,0,0,0,0,0,-0.402821,-10.1377,-0.940793,21.4914,1.5201,1.70126,-0.213125,-0.416285,-1.00764,-0.442736,2.93904,0.793784,0.0307548,-0.203046
3014371,0.94,-1.57041,-0.52286,0.000377527,-2.09648,-0.00101496,1.57085,0.785742,-1.5708,-0.523598,3.7457e-07,-2.0944,-1.03745e-06,1.5708,0.785399,-7.79429e-05,0.000694576,-0.000126886,0.000814721,0.000185434,-0.000481789,-0.00134438,0,0,0,0,0,0,0,-0.402821,-10.1654,-0.913022,21.4438,1.50911,1.71408,-0.174673,-0.416681,-1.00889,-0.443404,2.93974,0.793858,0.0308006,-0.203063
3014372,0.94,-1.57041,-0.522862,0.000379479,-2.09648,-0.00101576,1.57085,0.785745,-1.5708,-0.523598,3.7457e-07,-2.0944,-1.03745e-06,1.5708,0.785399,-5.19619e-05,-0.000186564,-8.45904e-05,-1.36644e-05,0.000123622,0.000390884,-0.000184173,0,0,0,0,0,0,0,-0.402821,-10.1377,-0.913022,21.4676,1.50911,1.69485,-0.193899,-0.417169,-1.01009,-0.444261,2.94001,0.79392,0.0308,-0.203099
3014373,0.94,-1.57041,-0.522862,0.000383749,-2.09648,-0.00101481,1.57085,0.785748,-1.5708,-0.523598,3.7457e-07,-2.0944,-1.03745e-06,1.5708,0.785399,-3.46413e-05,-0.000124376,0.00115003,0.000547702,0.000489316,-0.000214129,0.000826654,0,0,0,0,0,0,0,-0.402821,-10.1377,-0.964597,21.4438,1.49812,1.70767,-0.219534,-0.417799,-1.0103,-0.445386,2.93958,0.793958,0.0307467,-0.203121
3014374,0.94,-1.57041,-0.522862,0.000380347,-2.09648,-0.00101353,1.57085,0.785746,-1.5708,-0.523598,3.7457e-07,-2.0944,-1.03745e-06,1.5708,0.785399,-2.30942e-05,-8.29171e-05,-0.000439738,-0.000191677,-0.000284141,-0.000142752,-0.000160974,0,0,0,0,0,0,0,-0.402821,-10.1377,-0.913022,21.4676,1.5146,1.70767,-0.200308,-0.418709,-1.00956,-0.447021,2.93869,0.793962,0.0306754,-0.203121
3014375,0.94,-1.57042,-0.522862,0.000378289,-2.09648,-0.00101447,1.57085,0.785749,-1.5708,-0.523598,3.7457e-07,-2.0944,-1.03745e-06,1.5708,0.785399,-0.000572208,-5.52781e-05,-0.000293158,-0.000127785,0.000217474,0.000142191,0.000604761,0,0,0,0,0,0,0,-0.379017,-10.1377,-0.913022,21.4676,1.50362,1.70126,-0.219534,-0.419055,-1.00877,-0.447883,2.93793,0.79398,0.0306437,-0.203121
3014376,0.94,-1.57041,-0.522858,0.000377603,-2.09648,-0.0010158,1.57085,0.785747,-1.5708,-0.523598,3.7457e-07,-2.0944,-1.03745e-06,1.5708,0.785399,0.000824954,0.00116957,-0.000195439,-0.00119881,-5.8468e-05,-0.000142565,-7.15442e-05,0,0,0,0,0,0,0,-0.430592,-10.1892,-0.913022,21.5152,1.50911,1.70767,-0.206716,-0.418761,-1.00956,-0.447798,2.93825,0.794035,0.0307317,-0.203133
3014377,0.94,-1.57041,-0.52286,0.000377374,-2.09648,-0.00101285,1.57085,0.785747,-1.5708,-0.523598,3.7457e-07,-2.0944,-1.03745e-06,1.5708,0.785399,-9.96447e-05,0.000222904,-0.000130293,-0.000242397,-3.89787e-05,-0.000332402,-4.76961e-05,0,0,0,0,0,0,0,-0.402821,-10.1654,-0.913022,21.4914,1.50911,1.71408,-0.206716,-0.418512,-1.01268,-0.447718,2.94003,0.794101,0.0309648,-0.203159
3014378,0.94,-1.57041,-0.52286,0.000379246,-2.09648,-0.00101567,1.57085,0.785751,-1.5708,-0.523598,3.7457e-07,-2.0944,-1.03745e-06,1.5708,0.785399,0.000583184,0.000148603,0.000562752,0.000395214,-0.000229436,0.000490475,0.001155,0,0,0,0,0,0,0,-0.430592,-10.1654,-0.940793,21.4676,1.5146,1.69485,-0.23876,-0.4186,-1.01584,-0.448099,2.94179,0.794138,0.0312004,-0.203203
3014379,0.94,-1.57041,-0.522862,0.000380891,-2.09648,-0.00101579,1.57085,0.785746,-1.5708,-0.523598,3.7457e-07,-2.0944,-1.03745e-06,1.5708,0.785399,0.000388789,-0.000550546,0.00093198,0.000263476,5.0493e-05,8.96245e-05,-0.000891514,0,0,0,0,0,0,0,-0.430592,-10.1377,-0.964597,21.4676,1.50911,1.70126,-0.193899,-0.419433,-1.01679,-0.44959,2.94214,0.794106,0.0313045,-0.203273
3014380,0.94,-1.57041,-0.522864,0.000377264,-2.09648,-0.00101665,1.57085,0.785742,-1.5708,-0.523598,3.7457e-07,-2.0944,-1.03745e-06,1.5708,0.785399,0.000259193,-0.00036703,-0.000585106,-0.000381161,-0.000169789,-0.000177609,-0.000831702,0,0,0,0,0,0,0,-0.430592,-10.1377,-0.913022,21.4914,1.5146,1.70767,-0.18749,-0.42065,-1.01558,-0.451635,2.94136,0.79404,0.0313159,-0.20338
3014381,0.94,-1.57041,-0.522863,0.00037921,-2.09648,-0.00101551,1.57085,0.785751,-1.5708,-0.523598,3.7457e-07,-2.0944,-1.03745e-06,1.5708,0.785399,-0.000476819,-0.000244687,0.000259543,-0.00081092,0.000293709,0.000118953,0.00185303,0,0,0,0,0,0,0,-0.402821,-10.1377,-0.940793,21.5152,1.50362,1.70126,-0.252493,-0.421232,-1.01375,-0.452724,2.94058,0.794012,0.031347,-0.203504
3014382,0.94,-1.57041,-0.52286,0.000375771,-2.09648,-0.00101234,1.57085,0.785742,-1.5708,-0.523598,3.7457e-07,-2.0944,-1.03745e-06,1.5708,0.785399,-0.000317879,0.000486489,-0.00168301,0.000573011,0.000195806,0.000316661,-0.000934786,0,0,0,0,0,0,0,-0.402821,-10.1654,-0.861447,21.4676,1.50362,1.69485,-0.193899,-0.420597,-1.01262,-0.452008,2.94026,0.794054,0.0314157,-0.203639
3014383,0.94,-1.57041,-0.522862,0.000376299,-2.09648,-0.00101129,1.57085,0.78574,-1.5708,-0.523598,3.7457e-07,-2.0944,-1.03745e-06,1.5708,0.785399,0.000437695,-0.000325288,-0.000472393,-0.000174805,0.000130537,-2.62517e-05,-0.00109791,0,0,0,0,0,0,0,-0.430592,-10.1377,-0.889218,21.4914,1.50362,1.70126,-0.181082,-0.418892,-1.01204,-0.449587,2.93995,0.794138,0.0314564,-0.203802
3014384,0.94,-1.57041,-0.52286,0.000377956,-2.09648,-0.00101154,1.57085,0.785746,-1.5708,-0.523598,3.7457e-07,-2.0944,-1.03745e-06,1.5708,0.785399,-0.000357818,0.000432755,-0.000314929,-0.000116536,-0.000116426,0.000219858,0.000454856,0,0,0,0,0,0,0,-0.402821,-10.1654,-0.889218,21.4914,1.50911,1.69485,-0.213125,-0.417083,-1.01174,-0.446867,2.93967,0.794214,0.0314755,-0.203968
3014385,0.94,-1.57041,-0.52286,0.000378049,-2.09648,-0.00101401,1.57085,0.785744,-1.5708,-0.523598,3.7457e-07,-2.0944,-1.03745e-06,1.5708,0.785399,0.000411069,0.000288504,0.000346859,0.000479121,0.000125833,-9.07871e-05,-0.000883557,0,0,0,0,0,0,0,-0.430592,-10.1654,-0.913022,21.4676,1.50362,1.70126,-0.181082,-0.415931,-1.01203,-0.445059,2.93967,0.79425,0.0314897,-0.204101
3014386,0.94,-1.57041,-0.522864,0.000379653,-2.09648,-0.00101443,1.57085,0.785747,-1.57079,-0.523597,2.87457e-06,-2.09439,1.05588e-06,1.5708,0.785404,-0.000375568,-0.00101409,0.00023124,0.000319414,0.000287339,-0.000535243,0.000360397,0.000414271,0.000828479,0.0025,0.000882579,0.00209334,0.000160351,0.004901,-0.402821,-10.1139,-0.913022,21.4676,1.49812,1.71408,-0.206716,-0.415601,-1.01167,-0.444446,2.93923,0.794223,0.0314463,-0.204193
3014387,0.94,-1.57041,-0.522864,0.000383347,-2.09648,-0.0010128,1.57085,0.785745,-1.57079,-0.523596,7.87457e-06,-2.09439,5.24256e-06,1.5708,0.785414,0.000956047,-0.00067606,0.0019174,-0.000343869,-0.000215341,0.000355248,0.000714983,0.000828541,0.00165696,0.005,0.00176516,0.00418668,0.000320702,0.009802,-0.454395,-10.1139,-0.988401,21.4914,1.50911,1.69485,-0.219534,-0.416472,-1.0093,-0.445631,2.93796,0.794111,0.0313426,-0.204239
3014388,0.94,-1.57041,-0.522862,0.000383275,-2.09648,-0.00101443,1.57085,0.78574,-1.57079,-0.523593,1.53746e-05,-2.09439,1.15226e-05,1.5708,0.785429,0.000637365,0.000106105,0.000721453,0.000884378,5.98896e-05,-5.26663e-07,-0.00189693,0.00124281,0.00248544,0.0075,0.00264774,0.00628001,0.000481054,0.014703,-0.454395,-10.1377,-0.964597,21.4438,1.50362,1.70126,-0.155447,-0.418878,-1.00611,-0.449088,2.93645,0.79391,0.031223,-0.20425
3014389,0.94,-1.57041,-0.522863,0.000381291,-2.09648,-0.00101453,1.57085,0.785749,-1.57079,-0.52359,2.53746e-05,-2.09439,1.98959e-05,1.5708,0.785448,0.00179754,-0.00104289,0.000557249,-0.000524039,-0.000807784,0.000237008,0.00134633,0.00165708,0.00331392,0.01,0.00353032,0.00837335,0.000641405,0.019604,-0.379017,-10.0901,-0.837644,21.4914,1.52651,1.69485,-0.225942,-0.422166,-1.00311,-0.453709,2.93501,0.793664,0.0311015,-0.204231
3014390,0.94,-1.57041,-0.522864,0.000379666,-2.09648,-0.00101611,1.57085,0.785744,-1.57079,-0.523586,3.78746e-05,-2.09438,3.03626e-05,1.5708,0.785473,0.00163078,0.000800831,-0.000940928,-0.00155579,-0.00240349,-7.93537e-05,-0.0017134,0.00207135,0.0041424,0.0125,0.00441289,0.0104667,0.000801756,0.024505,-0.252064,-10.0107,-0.508359,21.543,1.57686,1.70126,-0.155447,-0.425272,-1.00155,-0.457766,2.93472,0.793466,0.0310872,-0.204172
3014391,0.94,-1.57042,-0.522862,0.000395604,-2.09648,-0.00101534,1.57085,0.785746,-1.57079,-0.523581,5.28746e-05,-2.09438,4.29226e-05,1.5708,0.785502,-0.00252437,0.00142127,0.00506759,-0.000387576,-0.00285694,-0.00052762,0.00136798,0.00248562,0.00497088,0.015,0.00529547,0.01256,0.000962107,0.029406,0.0494498,-9.88773,-0.329831,21.5152,1.61073,1.71408,-0.0968531,-0.427906,-1.00394,-0.461242,2.93698,0.793406,0.0312854,-0.204063
3014392,0.94,-1.57042,-0.522863,0.0004095,-2.09648,-0.00101063,1.57085,0.78575,-1.57078,-0.523575,7.03746e-05,-2.09437,5.7576e-05,1.5708,0.785537,-0.00320398,-0.00152224,0.00671549,-0.00146481,-0.00190462,-0.000351747,0.00559049,0.00289989,0.00579936,0.0175,0.00617805,0.0146534,0.00112246,0.034307,0.275585,-9.76077,-0.0283176,21.5668,1.61073,1.71408,-0.0840357,-0.430956,-1.00808,-0.466376,2.94062,0.793486,0.0315888,-0.20385
3014393,0.94,-1.57042,-0.522856,0.000423826,-2.09648,-0.00100521,1.57085,0.785752,-1.57078,-0.523568,9.03746e-05,-2.09436,7.43227e-05,1.5708,0.785576,-0.00375799,0.00220296,0.00681777,0.00206213,0.00259709,2.861e-06,0.00817448,0.00331417,0.00662783,0.02,0.00706063,0.0167467,0.00128281,0.039208,0.505688,-9.733,0.328738,21.5668,1.63362,1.70767,-0.0584009,-0.434497,-1.01036,-0.473555,2.94348,0.793682,0.0318113,-0.203436
3014394,0.94,-1.57042,-0.52285,0.000453889,-2.09647,-0.000999976,1.57084,0.785758,-1.57078,-0.523561,0.000112875,-2.09436,9.31628e-05,1.5708,0.78562,-0.00287326,0.000927256,0.0128795,0.00218479,0.00192082,-0.000710169,0.0115381,0.00372844,0.00745631,0.0225,0.00794321,0.01884,0.00144316,0.044109,0.680248,-9.68539,0.451724,21.543,1.63912,1.72689,-0.0712183,-0.438899,-1.01118,-0.483091,2.9448,0.793942,0.0318337,-0.202734
3014395,0.94,-1.57043,-0.522845,0.000472586,-2.09647,-0.000997984,1.57084,0.785765,-1.57077,-0.523553,0.000137875,-2.09435,0.000114096,1.57081,0.785669,-0.00212712,0.000397738,0.0134937,0.00164644,0.000524044,-0.000710805,0.00947824,0.00414271,0.00828479,0.025,0.00882579,0.0209334,0.00160351,0.04901,0.858776,-9.65762,0.733401,21.543,1.6675,1.7333,-0.0904444,-0.445901,-1.00973,-0.497451,2.94451,0.794202,0.0316678,-0.201674
3014396,0.94,-1.57043,-0.522841,0.000500854,-2.09647,-0.000994862,1.57084,0.785777,-1.57077,-0.523543,0.000167875,-2.09434,0.000138275,1.57081,0.785725,-0.00151451,0.00175189,0.0193166,-0.000430371,0.00361963,-0.000236511,0.013026,0.00485977,0.00971881,0.03,0.0103534,0.0241791,0.00185213,0.0566089,1.03334,-9.55844,0.907962,21.6144,1.71236,1.72689,-0.122488,-0.456248,-1.00645,-0.517678,2.94425,0.794489,0.0315358,-0.200247
3014397,0.94,-1.57044,-0.522836,0.000529069,-2.09646,-0.00099344,1.57084,0.785786,-1.57076,-0.523532,0.000202875,-2.09432,0.0001657,1.57081,0.78579,-0.000436501,0.0033275,0.0212486,0.00548881,0.00147942,7.96848e-05,0.00968106,0.00557683,0.0111528,0.035,0.0118811,0.0274248,0.00210076,0.0642078,1.18409,-9.48306,1.06269,21.6422,1.75264,1.72048,-0.122488,-0.470106,-1.00378,-0.543995,2.94496,0.79483,0.0314983,-0.198509
3014398,0.94,-1.57043,-0.522832,0.000559211,-2.09646,-0.000990677,1.57084,0.785804,-1.57076,-0.523519,0.000242875,-2.09431,0.00019637,1.57081,0.785861,0.00129174,0.00462598,0.0255408,0.00578019,-0.000459947,5.31232e-05,0.00791392,0.0062939,0.0125869,0.04,0.0134088,0.0306704,0.00234938,0.0718067,1.28724,-9.40768,1.21344,21.7176,1.803,1.72048,-0.141714,-0.487197,-1.00162,-0.575888,2.94493,0.795254,0.0312978,-0.196545
3014399,0.94,-1.57043,-0.522828,0.000587384,-2.09646,-0.000985874,1.57084,0.785818,-1.57075,-0.523505,0.000287875,-2.0943,0.000230287,1.57081,0.785941,0.00519346,0.00550869,0.0259495,0.00616951,0.00325823,-0.000439302,0.0140178,0.00701096,0.0140209,0.045,0.0149364,0.0339161,0.002598,0.0794056,1.41023,-9.32834,1.49115,21.789,1.84236,1.7333,-0.10967,-0.506936,-1.00022,-0.612097,2.94419,0.795854,0.0309112,-0.194445
3014400,0.94,-1.57043,-0.522819,0.000623235,-2.09645,-0.000977703,1.57084,0.785836,-1.57074,-0.52349,0.000337875,-2.09428,0.000267448,1.57082,0.786028,0.00655607,0.00345014,0.0277031,0.00700304,0.00597852,-0.000530227,0.0175879,0.00772802,0.0154549,0.05,0.0164641,0.0371618,0.00284662,0.0870045,1.58876,-9.28073,1.84424,21.8405,1.88265,1.73971,-0.044668,-0.528143,-0.998079,-0.650268,2.94322,0.796734,0.0304508,-0.192296
3014401,0.94,-1.57044,-0.522808,0.00066785,-2.09644,-0.000965078,1.57085,0.785869,-1.57073,-0.523473,0.000392875,-2.09426,0.000307856,1.57082,0.786122,0.00266872,0.00870349,0.0342836,0.00804537,0.00799178,-0.000590844,0.0222957,0.00844509,0.0168889,0.055,0.0179917,0.0404075,0.00309524,0.0946035,1.99342,-9.22916,2.2251,21.8644,1.92201,1.74612,-0.0318506,-0.548948,-0.99466,-0.687836,2.94231,0.798029,0.0299709,-0.190114
3014402,0.94,-1.57043,-0.522798,0.000718627,-2.09643,-0.000952224,1.57084,0.785899,-1.57072,-0.523455,0.000452875,-2.09424,0.000351509,1.57082,0.786225,-0.00061401,0.00912623,0.0362478,0.00900437,0.00921546,-0.000868614,0.0213751,0.00916215,0.0183229,0.06,0.0195194,0.0436532,0.00334386,0.102202,2.29493,-9.17758,2.62976,21.8882,1.97237,1.75894,0.09083,-0.56677,-0.994608,-0.722102,2.94367,0.799958,0.0296301,-0.187831
3014403,0.94,-1.57043,-0.522785,0.000768577,-2.09642,-0.000931418,1.57084,0.78594,-1.57071,-0.523435,0.000517875,-2.09422,0.000398408,1.57083,0.786334,0.000147181,0.0101127,0.038752,0.00959703,0.0162933,-0.00105379,0.0280123,0.00987921,0.0197569,0.065,0.0210471,0.0468989,0.00359249,0.109801,2.59645,-9.15378,3.11377,21.9159,1.98427,1.77175,0.162241,-0.578809,-0.998932,-0.749446,2.94791,0.802694,0.0295012,-0.185341
3014404,0.95,-1.57044,-0.522778,0.000827165,-2.09641,-0.000907452,1.57084,0.785998,-1.5707,-0.523414,0.000587875,-2.0942,0.000448552,1.57083,0.786452,-0.000208759,0.00837374,0.0444154,0.010096,0.0174432,-0.00141461,0.0403974,0.0105963,0.021191,0.07,0.0225747,0.0501445,0.00384111,0.1174,2.94954,-9.02682,3.46686,21.9397,1.97878,1.79098,0.162241,-0.585095,-1.00316,-0.769667,2.95339,0.806193,0.0295246,-0.182473
3014405,0.95,-1.57044,-0.522762,0.000887881,-2.09639,-0.00088045,1.57084,0.786058,-1.57069,-0.523391,0.000662875,-2.09417,0.000501943,1.57084,0.786577,-0.00369513,0.0101422,0.0478709,0.0113537,0.0215817,-0.00141779,0.042199,0.0113133,0.022625,0.075,0.0241024,0.0533902,0.00408973,0.124999,3.17567,-9.02682,3.84772,21.9159,2.00716,1.8038,0.233652,-0.586463,-1.00361,-0.784086,2.95867,0.810353,0.0296374,-0.17905
3014406,0.95,-1.57043,-0.522752,0.000951446,-2.09638,-0.000852402,1.57084,0.78613,-1.57068,-0.523366,0.000744819,-2.09415,0.000559157,1.57084,0.786711,-0.000547968,0.00962431,0.0541618,0.0107571,0.0241856,-0.00118255,0.0540048,0.012244,0.0244863,0.0819442,0.0260852,0.0572147,0.00438268,0.133953,3.27882,-8.95145,4.177,21.9635,2.04653,1.81021,0.272104,-0.583443,-1.00002,-0.793625,2.96379,0.815088,0.029876,-0.174951
3014407,0.95,-1.57043,-0.522737,0.00102348,-2.09636,-0.000819792,1.57084,0.786209,-1.57067,-0.52334,0.000833707,-2.09412,0.000620196,1.57084,0.786854,-0.000163173,0.0131803,0.0599929,0.0123749,0.026531,-0.00102573,0.0638162,0.0131747,0.0263475,0.0888884,0.028068,0.0610391,0.00467564,0.142907,3.45338,-8.89987,4.35157,21.9159,2.0804,1.81661,0.278513,-0.578771,-0.99488,-0.801868,2.96997,0.820234,0.0303511,-0.170074
3014408,0.95,-1.57042,-0.522718,0.00109508,-2.09635,-0.000783279,1.57083,0.7863,-1.57065,-0.523312,0.00092954,-2.09409,0.00068506,1.57085,0.787006,0.0029986,0.0170125,0.0627861,0.0106585,0.0328017,-0.00115854,0.0718299,0.0141055,0.0282088,0.0958327,0.0300508,0.0648635,0.00496859,0.151861,3.50496,-8.89987,4.58167,21.9873,2.11977,1.82943,0.278513,-0.574382,-0.994421,-0.810871,2.98003,0.825724,0.0312793,-0.164355
3014409,0.95,-1.57041,-0.522699,0.00116709,-2.09633,-0.000742109,1.57084,0.786401,-1.57064,-0.523282,0.00103232,-2.09406,0.000753748,1.57085,0.787166,0.00631018,0.0193307,0.0625408,0.0124993,0.0386398,-0.000772357,0.0837257,0.0150362,0.0300701,0.102777,0.0320336,0.0686879,0.00526154,0.160815,3.50496,-8.87607,4.88318,21.9397,2.13075,1.82943,0.240061,-0.569192,-1.00433,-0.817875,2.99643,0.831632,0.0328668,-0.157822
3014410,0.95,-1.57041,-0.52268,0.00125128,-2.09631,-0.00069602,1.57084,0.786518,-1.57062,-0.52325,0.00114204,-2.09402,0.00082626,1.57086,0.787336,0.00738046,0.016355,0.06567,0.0142102,0.0433013,-0.000989623,0.0972859,0.0159669,0.0319313,0.109721,0.0340164,0.0725123,0.0055545,0.169768,3.68348,-8.80069,5.18866,21.9873,2.13075,1.84225,0.200693,-0.561213,-1.01973,-0.818827,3.0162,0.83799,0.0348843,-0.150599
3014411,0.95,-1.5704,-0.522653,0.00134415,-2.09629,-0.000639867,1.57084,0.786639,-1.5706,-0.523216,0.0012587,-2.09399,0.000902597,1.57087,0.787515,0.00359558,0.0195194,0.0767945,0.0164171,0.0523367,-0.00018503,0.104766,0.0168976,0.0337926,0.116665,0.0359993,0.0763368,0.00584745,0.178722,3.93342,-8.80069,5.49018,22.0151,2.10878,1.82943,0.226328,-0.550652,-1.0317,-0.814235,3.0343,0.844684,0.036911,-0.142866
3014412,0.95,-1.57039,-0.522632,0.00143278,-2.09627,-0.000584876,1.57084,0.786783,-1.57059,-0.52318,0.00138231,-2.09395,0.000982758,1.57087,0.787703,0.00774392,0.0226928,0.0796635,0.0181932,0.0540842,-0.000360713,0.113898,0.0178283,0.0356539,0.12361,0.0379821,0.0801612,0.0061404,0.187676,4.03657,-8.69754,5.92261,22.0389,2.09139,1.83584,0.162241,-0.539699,-1.04049,-0.808095,3.05019,0.851556,0.0388451,-0.134783
3014413,0.95,-1.57038,-0.522605,0.00153519,-2.09625,-0.000525645,1.57084,0.786928,-1.57057,-0.523143,0.00151287,-2.09391,0.00106674,1.57088,0.787899,0.00556073,0.0235792,0.0863872,0.0219415,0.0545571,-0.000477834,0.122966,0.018759,0.0375152,0.130554,0.0399649,0.0839856,0.00643336,0.19663,4.21113,-8.67374,6.30347,22.0905,2.09139,1.84225,0.162241,-0.528901,-1.04891,-0.801159,3.06462,0.858528,0.0406607,-0.126488
3014414,0.95,-1.57038,-0.522579,0.00164675,-2.09622,-0.000458007,1.57083,0.78708,-1.57055,-0.523104,0.00165036,-2.09387,0.00115455,1.57089,0.788105,0.00187649,0.0265866,0.0919998,0.0266349,0.060786,-0.000793274,0.13156,0.0196897,0.0393764,0.137498,0.0419477,0.08781,0.00672631,0.205584,4.48884,-8.59836,6.63275,22.0627,2.06301,1.85507,0.233652,-0.516359,-1.05521,-0.790725,3.07588,0.865575,0.0421471,-0.118145
3014415,0.95,-1.57036,-0.522549,0.00175995,-2.09619,-0.000389897,1.57083,0.787248,-1.57053,-0.523062,0.00179481,-2.09382,0.00124619,1.57089,0.788319,0.00597715,0.029347,0.0974744,0.0266018,0.068621,-0.00103748,0.144437,0.0206204,0.0412377,0.144442,0.0439305,0.0916344,0.00701926,0.214538,4.6158,-8.54678,6.93427,22.0627,2.07491,1.8688,0.272104,-0.501046,-1.06,-0.7753,3.08406,0.87261,0.0432993,-0.109863
3014416,0.95,-1.57035,-0.522518,0.00187918,-2.09616,-0.000321215,1.57083,0.78743,-1.57051,-0.523019,0.00194751,-2.09378,0.00134188,1.5709,0.788543,0.0100343,0.0281005,0.10383,0.0254315,0.0684065,-0.000929009,0.154972,0.0216935,0.0433837,0.152706,0.0462166,0.0956879,0.00732976,0.224028,4.69117,-8.49521,7.23975,22.0905,2.12526,1.87521,0.291331,-0.485393,-1.0648,-0.757625,3.09186,0.879457,0.0444535,-0.101619
3014417,0.95,-1.57034,-0.522492,0.0020033,-2.09613,-0.000247214,1.57083,0.787613,-1.57048,-0.522973,0.00210848,-2.09373,0.00144162,1.57091,0.788777,0.00905159,0.0287928,0.109232,0.0273322,0.0686251,-0.000856698,0.15927,0.0227665,0.0455296,0.160971,0.0485027,0.0997414,0.00764026,0.233518,4.79036,-8.36826,7.41431,22.1381,2.17104,1.88162,0.407602,-0.471221,-1.06688,-0.739827,3.10014,0.886064,0.0458084,-0.0933294
3014418,0.95,-1.57033,-0.522455,0.00212468,-2.0961,-0.000169677,1.57083,0.787818,-1.57046,-0.522926,0.00227772,-2.09368,0.00154541,1.57092,0.78902,0.00941768,0.0324437,0.111075,0.0315418,0.0740651,-0.00152057,0.175326,0.0238396,0.0476756,0.169235,0.0507888,0.103795,0.00795077,0.243008,4.84193,-8.36826,7.66822,22.2135,2.19942,1.90725,0.42042,-0.455937,-1.06474,-0.718058,3.10786,0.892598,0.0472695,-0.0848983
3014419,0.95,-1.57031,-0.52242,0.00225173,-2.09606,-9.22151e-05,1.57083,0.788038,-1.57043,-0.522876,0.00245522,-2.09363,0.00165326,1.57092,0.789272,0.0128204,0.0304393,0.117024,0.0340618,0.0780716,-0.00125107,0.188262,0.0249126,0.0498216,0.177499,0.0530749,0.107848,0.00826127,0.252499,4.89351,-8.32065,7.94593,22.1897,2.23329,1.91366,0.414011,-0.437214,-1.05742,-0.688593,3.11316,0.899177,0.0486289,-0.0762081
3014420,0.95,-1.5703,-0.52238,0.00238882,-2.09602,-6.25097e-06,1.57083,0.788254,-1.57041,-0.522824,0.00264098,-2.09357,0.00176516,1.57093,0.789534,0.0121752,0.0334075,0.123564,0.0377097,0.0817816,-0.00107141,0.195878,0.0259857,0.0519675,0.185763,0.055361,0.111902,0.00857177,0.261989,5.06807,-8.32065,8.17603,22.2135,2.24977,1.92007,0.472605,-0.416235,-1.04205,-0.652947,3.11415,0.905776,0.0497193,-0.0671607
3014421,0.95,-1.57029,-0.522337,0.00253351,-2.09598,8.37342e-05,1.57083,0.788496,-1.57038,-0.52277,0.00283501,-2.09351,0.00188112,1.57094,0.789806,0.0113666,0.0356603,0.131966,0.0408395,0.0851832,-0.000714271,0.204449,0.0270588,0.0541135,0.194027,0.0576471,0.115955,0.00888227,0.271479,5.2704,-8.32065,8.48151,22.2135,2.24977,1.92007,0.427744,-0.394455,-1.02023,-0.613732,3.11127,0.912424,0.050551,-0.0576999
3014422,0.95,-1.57027,-0.522294,0.00267898,-2.09593,0.000184605,1.57083,0.788741,-1.57035,-0.522714,0.0030373,-2.09345,0.00200113,1.57095,0.790087,0.0158939,0.0360645,0.132559,0.040008,0.088913,-0.00071354,0.214391,0.0281318,0.0562595,0.202292,0.0599332,0.120009,0.00919277,0.280969,5.39735,-8.26907,8.80683,22.2135,2.2159,1.92648,0.434153,-0.371746,-0.995887,-0.57095,3.10687,0.919227,0.051335,-0.047813
3014423,0.95,-1.57026,-0.522253,0.00283657,-2.09588,0.000284085,1.57083,0.788993,-1.57032,-0.522655,0.00324786,-2.09339,0.00212519,1.57096,0.790377,0.0175304,0.0381356,0.137855,0.0419876,0.0900426,-0.00118777,0.227111,0.0292049,0.0584054,0.210556,0.0622193,0.124062,0.00950327,0.29046,5.59968,-8.14212,9.06073,22.1143,2.2159,1.9457,0.427744,-0.347078,-0.971187,-0.522488,3.10341,0.926277,0.052353,-0.0375597
3014424,0.95,-1.57025,-0.522208,0.00299717,-2.09584,0.000390749,1.57083,0.789263,-1.57029,-0.522595,0.00346668,-2.09333,0.00225331,1.57097,0.790677,0.0152733,0.0375879,0.148402,0.0420035,0.0951857,-0.000791847,0.237356,0.030278,0.0605514,0.21882,0.0645054,0.128116,0.00981377,0.29995,5.80201,-8.06674,9.36621,22.1897,2.2159,1.9457,0.388376,-0.320682,-0.946488,-0.469035,3.10189,0.933524,0.053743,-0.0270282
3014425,0.95,-1.57023,-0.52216,0.00316452,-2.09578,0.000499849,1.57083,0.78954,-1.57026,-0.522532,0.00369376,-2.09326,0.00238548,1.57098,0.790987,0.0163751,0.0405681,0.154683,0.0448918,0.093826,-0.00100262,0.250177,0.031351,0.0626974,0.227084,0.0667915,0.132169,0.0101243,0.30944,5.9012,-7.99136,9.66773,22.1619,2.24428,1.95852,0.337107,-0.293881,-0.921187,-0.4138,3.10212,0.940835,0.055495,-0.0163142
3014426,0.95,-1.57022,-0.522112,0.00334906,-2.09573,0.000616551,1.57083,0.78982,-1.57023,-0.522467,0.00392993,-2.09319,0.00252171,1.57099,0.791306,0.0146987,0.0432169,0.162428,0.0484692,0.0984288,-0.000905769,0.262376,0.0325095,0.0650141,0.236169,0.0692594,0.136239,0.010436,0.318968,6.10353,-7.93979,9.84626,22.1897,2.24977,1.96493,0.349924,-0.26661,-0.896571,-0.357352,3.10371,0.948149,0.0575109,-0.0055596
3014427,0.95,-1.5702,-0.522062,0.00353367,-2.09567,0.00073366,1.57083,0.790121,-1.5702,-0.5224,0.00417518,-2.09312,0.00266202,1.571,0.791634,0.0162602,0.045421,0.171037,0.055665,0.100443,-0.00107856,0.273544,0.0336679,0.0673307,0.245254,0.0717274,0.140308,0.0107477,0.328495,6.17891,-7.88821,9.97321,22.1619,2.29555,1.97775,0.304148,-0.238779,-0.872496,-0.299773,3.10452,0.955381,0.0594964,0.00507844
3014428,0.95,-1.57017,-0.522004,0.00371653,-2.09562,0.000858889,1.57083,0.790428,-1.57016,-0.52233,0.00442952,-2.09304,0.0028064,1.57101,0.791972,0.0180167,0.0488568,0.17285,0.0587755,0.106747,-0.000719043,0.285614,0.0348263,0.0696474,0.25434,0.0741954,0.144378,0.0110594,0.338023,6.23048,-7.91599,10.1993,22.2135,2.34041,1.97775,0.291331,-0.210137,-0.847536,-0.240461,3.10208,0.962464,0.0611662,0.0154673
3014429,0.95,-1.57016,-0.521947,0.00391874,-2.09555,0.000987402,1.57083,0.790742,-1.57013,-0.522258,0.00469295,-2.09297,0.00295485,1.57102,0.79232,0.0173666,0.0541172,0.184534,0.0600758,0.111882,-0.000479362,0.291976,0.0359848,0.0719641,0.263425,0.0766634,0.148447,0.0113712,0.34755,6.35743,-7.91599,10.3263,22.2135,2.37978,1.97775,0.343516,-0.180006,-0.825882,-0.178137,3.09857,0.969499,0.0627096,0.0254981
3014430,0.95,-1.57015,-0.521885,0.00412405,-2.09549,0.00112057,1.57083,0.791073,-1.57009,-0.522184,0.00496546,-2.09289,0.00310736,1.57104,0.792677,0.0159764,0.0579282,0.189649,0.0634724,0.117022,-8.22156e-05,0.305294,0.0371432,0.0742808,0.27251,0.0791313,0.152517,0.0116829,0.357078,6.53199,-7.91599,10.5286,22.2373,2.38527,1.97134,0.304148,-0.148583,-0.813966,-0.113518,3.09827,0.976648,0.064517,0.0351232
3014431,0.95,-1.57014,-0.521818,0.00433809,-2.09542,0.00125088,1.57083,0.791413,-1.57005,-0.522107,0.00524705,-2.09281,0.00326395,1.57105,0.793043,0.0131303,0.0610187,0.194115,0.0670462,0.11942,-0.000529528,0.314785,0.0383016,0.0765975,0.281595,0.0815993,0.156586,0.0119946,0.366605,6.7859,-7.93979,10.7072,22.2135,2.41915,1.98416,0.272104,-0.113551,-0.812585,-0.0436753,3.10195,0.984125,0.0666511,0.0443345
3014432,0.95,-1.57012,-0.521761,0.00455668,-2.09534,0.00139008,1.57084,0.791749,-1.57001,-0.522028,0.00553773,-2.09272,0.00342461,1.57106,0.79342,0.013152,0.0607761,0.204273,0.0682495,0.12817,0.000121699,0.321817,0.0394601,0.0789142,0.29068,0.0840673,0.160656,0.0123063,0.376133,6.96046,-7.84061,11.0364,22.1143,2.40267,1.97134,0.356333,-0.0729247,-0.816752,0.033916,3.10771,0.992052,0.0689914,0.0531064
3014433,0.95,-1.57011,-0.521687,0.00480092,-2.09527,0.00153748,1.57084,0.792101,-1.56997,-0.521947,0.0058375,-2.09264,0.00358933,1.57107,0.793805,0.0125711,0.0612233,0.212341,0.0656393,0.130078,-0.000156226,0.331323,0.0406185,0.0812309,0.299765,0.0865353,0.164725,0.0126181,0.385661,7.16279,-7.91599,11.1634,22.1619,2.37978,1.97775,0.349924,-0.0290811,-0.820795,0.115247,3.11493,1.00034,0.0716181,0.0614529
3014434,0.95,-1.57009,-0.521625,0.00504413,-2.0952,0.00168799,1.57084,0.792459,-1.56993,-0.521863,0.00614635,-2.09255,0.00375813,1.57108,0.7942,0.0126128,0.0607055,0.223619,0.0718124,0.136466,-0.00105358,0.33666,0.0417769,0.0835476,0.30885,0.0890032,0.168795,0.0129298,0.395188,7.34132,-7.81284,11.3895,22.1381,2.3514,2.00338,0.394785,0.0148704,-0.819723,0.195355,3.12267,1.00882,0.0745442,0.069466
3014435,0.95,-1.57008,-0.521556,0.00529118,-2.09511,0.00183429,1.57085,0.792839,-1.56988,-0.521778,0.00646428,-2.09246,0.00393099,1.5711,0.794605,0.0132788,0.0624438,0.227439,0.0724945,0.138375,-0.000702388,0.349821,0.0429354,0.0858643,0.317936,0.0914712,0.172864,0.0132415,0.404716,7.49208,-7.78903,11.6196,22.0151,2.39717,2.00338,0.42042,0.058081,-0.8093,0.272954,3.12795,1.01729,0.0774897,0.07725
3014436,0.95,-1.57007,-0.52148,0.00555795,-2.09503,0.00199219,1.57085,0.793227,-1.56984,-0.521689,0.00679173,-2.09236,0.00410781,1.57111,0.795019,0.0149534,0.0683151,0.235245,0.0758839,0.145478,-0.00118034,0.364506,0.0441336,0.0882607,0.327443,0.094024,0.17682,0.0135445,0.413977,7.59126,-7.81284,11.7704,22.0151,2.40816,2.02261,0.349924,0.10192,-0.79347,0.35052,3.13145,1.02571,0.0804502,0.0849005
3014437,0.95,-1.57005,-0.521404,0.00583065,-2.09495,0.00215138,1.57085,0.793618,-1.5698,-0.521599,0.00712868,-2.09227,0.00428859,1.57113,0.795442,0.0149117,0.0714558,0.249655,0.0788161,0.153411,-0.00078689,0.371157,0.0453319,0.090657,0.33695,0.0965769,0.180775,0.0138475,0.423238,7.74202,-7.78903,11.8735,22.0151,2.45943,2.02261,0.362742,0.145054,-0.780647,0.426184,3.13623,1.03399,0.0836181,0.0924941
3014438,0.95,-1.57004,-0.521327,0.00611042,-2.09486,0.00231576,1.57086,0.794029,-1.56975,-0.521506,0.00747513,-2.09217,0.00447332,1.57114,0.795875,0.0164328,0.0742952,0.25926,0.0809918,0.152254,0.000662197,0.384138,0.0465301,0.0930533,0.346457,0.0991297,0.184731,0.0141505,0.432498,7.81739,-7.78903,11.9489,22.0151,2.4814,1.99057,0.316965,0.183688,-0.773523,0.493859,3.14293,1.042,0.0870009,0.100046
3014439,0.95,-1.57002,-0.521246,0.00640216,-2.09477,0.00247945,1.57086,0.79444,-1.5697,-0.52141,0.0078311,-2.09206,0.004662,1.57115,0.796317,0.013781,0.0794839,0.275978,0.0839156,0.155647,0.00162826,0.394755,0.0477284,0.0954497,0.355964,0.101683,0.188686,0.0144535,0.441759,7.92054,-7.78903,12.1512,21.9635,2.51528,1.95852,0.24647,0.215838,-0.772792,0.54992,3.15188,1.04973,0.090565,0.107526
3014440,0.95,-1.57002,-0.521157,0.00671229,-2.09468,0.00264519,1.57087,0.794862,-1.56965,-0.521312,0.00819657,-2.09196,0.00485465,1.57117,0.796768,0.00933479,0.081587,0.292424,0.0853144,0.158785,0.00132287,0.403417,0.0489267,0.097846,0.365472,0.104235,0.192642,0.0147565,0.45102,8.12288,-7.84061,12.0997,22.0627,2.53267,1.95211,0.272104,0.240446,-0.779586,0.591601,3.16384,1.05726,0.0943011,0.114857
3014441,0.95,-1.57,-0.521072,0.00702138,-2.09459,0.00281176,1.57087,0.795302,-1.5696,-0.521212,0.00857155,-2.09185,0.00505124,1.57118,0.797228,0.00914203,0.0846055,0.297736,0.0935602,0.159981,0.00529935,0.416264,0.0501249,0.100242,0.374979,0.106788,0.196597,0.0150595,0.460281,8.19825,-7.81284,12.2782,22.0151,2.57204,1.95852,0.265696,0.259673,-0.79038,0.621525,3.17645,1.06472,0.0979037,0.121904
3014442,0.95,-1.56998,-0.520982,0.00734867,-2.09448,0.00298825,1.57087,0.795754,-1.56955,-0.521109,0.00895603,-2.09174,0.0052518,1.5712,0.797697,0.0123227,0.0836741,0.303275,0.0954205,0.162022,0.002734,0.428938,0.0513232,0.102639,0.384486,0.109341,0.200553,0.0153625,0.469542,8.24983,-7.78903,12.3298,22.0151,2.58943,1.99057,0.252878,0.279187,-0.797348,0.64931,3.1847,1.0723,0.100863,0.128554
3014443,0.95,-1.56997,-0.520888,0.00767721,-2.09438,0.00317048,1.57087,0.796211,-1.5695,-0.521004,0.00935003,-2.09163,0.0054563,1.57122,0.798176,0.0131386,0.0833788,0.30908,0.101589,0.169297,0.00116416,0.438892,0.0525215,0.105035,0.393993,0.111894,0.204509,0.0156655,0.478803,8.37281,-7.78903,12.3774,21.9397,2.57753,2.0162,0.272104,0.303004,-0.792364,0.682638,3.18483,1.08015,0.102973,0.134747
3014444,0.95,-1.56995,-0.520798,0.00802922,-2.09427,0.00335862,1.57087,0.796676,-1.56944,-0.520897,0.00975353,-2.09152,0.00566477,1.57123,0.798664,0.0159842,0.0849786,0.315742,0.104357,0.174124,0.000994301,0.446314,0.0537197,0.107431,0.4035,0.114447,0.208464,0.0159685,0.488064,8.40059,-7.73746,12.429,21.9397,2.57753,2.0162,0.291331,0.332375,-0.771579,0.724353,3.17551,1.08827,0.104289,0.140468
3014445,0.95,-1.56992,-0.520696,0.00838277,-2.09416,0.0035516,1.57087,0.797159,-1.56939,-0.520787,0.0101665,-2.0914,0.00587719,1.57125,0.799162,0.0193512,0.0864364,0.328048,0.108085,0.178705,0.000114436,0.451628,0.054918,0.109828,0.413008,0.116999,0.21242,0.0162715,0.497324,8.37281,-7.81284,12.4805,21.8644,2.55556,2.03543,0.304148,0.365054,-0.73756,0.771401,3.15844,1.09654,0.105049,0.145782
3014446,0.95,-1.5699,-0.5206,0.00874832,-2.09405,0.00374747,1.57087,0.797653,-1.56933,-0.520675,0.0105892,-2.09128,0.00609337,1.57126,0.799668,0.0203541,0.0865801,0.338716,0.108859,0.186374,-3.83347e-05,0.465325,0.0561197,0.112231,0.422618,0.11956,0.216182,0.0165597,0.506133,8.40059,-7.71365,12.429,21.8405,2.54366,2.04183,0.330698,0.396484,-0.694194,0.816778,3.1367,1.10478,0.105599,0.150793
3014447,0.96,-1.56987,-0.520501,0.00911824,-2.09394,0.003944,1.57088,0.798166,-1.56928,-0.52056,0.0110214,-2.09116,0.00631331,1.57128,0.800183,0.0247804,0.0909953,0.352271,0.112798,0.186031,0.000541212,0.482314,0.0573214,0.114634,0.432229,0.12212,0.219945,0.0168479,0.514942,8.40059,-7.63828,12.429,21.8405,2.56655,2.02902,0.284922,0.422973,-0.645953,0.854652,3.11331,1.11278,0.106238,0.155607
3014448,0.96,-1.56984,-0.520398,0.00949934,-2.09382,0.00414519,1.57089,0.798688,-1.56922,-0.520443,0.0114632,-2.09103,0.00653702,1.5713,0.800706,0.0299087,0.092067,0.361587,0.116336,0.191708,0.000904564,0.494421,0.0585231,0.117037,0.44184,0.12468,0.223707,0.0171361,0.523751,8.32521,-7.6105,12.429,21.8167,2.56105,2.0162,0.272104,0.441769,-0.597522,0.881051,3.09029,1.1204,0.107076,0.160305
3014449,0.96,-1.56981,-0.520288,0.00989862,-2.09371,0.00435148,1.57089,0.799194,-1.56916,-0.520324,0.0119147,-2.09091,0.00676449,1.57132,0.801239,0.028121,0.0971356,0.369061,0.114356,0.198442,-5.72561e-05,0.49984,0.0597248,0.119441,0.45145,0.12724,0.227469,0.0174243,0.53256,8.34901,-7.6105,12.4052,21.8644,2.60042,2.03543,0.356333,0.454361,-0.553762,0.898409,3.07027,1.12773,0.108315,0.164886
3014450,0.96,-1.56978,-0.520178,0.0103145,-2.09359,0.0045681,1.57089,0.799738,-1.5691,-0.520202,0.0123757,-2.09078,0.00699572,1.57133,0.80178,0.0304856,0.102911,0.389573,0.115642,0.20533,0.00142481,0.508972,0.0609265,0.121844,0.461061,0.1298,0.231232,0.0177125,0.541369,8.34901,-7.55893,12.4052,21.9159,2.60591,1.99697,0.284922,0.462534,-0.523669,0.908778,3.05894,1.13495,0.110455,0.169368
3014451,0.96,-1.56974,-0.52006,0.0107316,-2.09346,0.00478752,1.5709,0.800289,-1.56903,-0.520078,0.0128464,-2.09064,0.00723072,1.57135,0.802331,0.0321734,0.106089,0.396947,0.119747,0.20604,0.000979,0.516305,0.0621282,0.124247,0.470671,0.13236,0.234994,0.0180007,0.550177,8.34901,-7.6105,12.3536,21.8405,2.60591,1.99697,0.213511,0.464373,-0.511927,0.908666,3.05855,1.14206,0.113596,0.173822
3014452,0.96,-1.56971,-0.519948,0.0111698,-2.09333,0.0050095,1.5709,0.800841,-1.56897,-0.519951,0.0133267,-2.09051,0.00746947,1.57137,0.80289,0.0329007,0.107284,0.416191,0.121969,0.211627,-0.000274921,0.527588,0.0633299,0.12665,0.480282,0.134921,0.238757,0.0182889,0.558986,8.37281,-7.6105,12.3536,21.8167,2.58943,2.02261,0.240061,0.459262,-0.512699,0.897032,3.06526,1.14899,0.117318,0.178218
3014453,0.96,-1.56967,-0.519828,0.0116099,-2.0932,0.00523247,1.5709,0.801414,-1.56891,-0.519822,0.0138166,-2.09037,0.00771199,1.57139,0.803457,0.0329498,0.112833,0.418319,0.124941,0.215063,-0.000404256,0.538331,0.0645316,0.129054,0.489893,0.137481,0.242519,0.0185772,0.567795,8.42439,-7.66208,12.3536,21.8405,2.59493,2.02902,0.200693,0.449928,-0.520437,0.877936,3.07581,1.15581,0.121325,0.182436
3014454,0.96,-1.56963,-0.519712,0.0120751,-2.09307,0.00545978,1.57091,0.801975,-1.56884,-0.51969,0.0143161,-2.09023,0.00795828,1.57141,0.804034,0.0374163,0.114492,0.424447,0.128363,0.217108,0.00393197,0.542627,0.0657333,0.131457,0.499503,0.140041,0.246282,0.0188654,0.576604,8.42439,-7.6105,12.2782,21.8405,2.60042,2.04183,0.226328,0.442907,-0.533823,0.861898,3.08869,1.16276,0.125449,0.186361
3014455,0.96,-1.56959,-0.519596,0.0125342,-2.09293,0.00569681,1.57092,0.802566,-1.56877,-0.519557,0.0148252,-2.09009,0.00820832,1.57143,0.804619,0.0375793,0.115852,0.438123,0.130755,0.226843,0.00721309,0.55346,0.066935,0.13386,0.509114,0.142601,0.250044,0.0191536,0.585413,8.42439,-7.55893,12.3536,21.8405,2.61781,2.05557,0.187876,0.441141,-0.548476,0.854005,3.10112,1.16993,0.129406,0.189932
3014456,0.96,-1.56955,-0.519475,0.0130069,-2.09279,0.00594204,1.57092,0.803157,-1.56871,-0.51942,0.0153438,-2.08994,0.00846189,1.57145,0.805213,0.0391741,0.11739,0.443414,0.134959,0.226507,0.00478694,0.577359,0.0681111,0.136212,0.518574,0.145107,0.253565,0.0194233,0.593656,8.47596,-7.53513,12.3774,21.8644,2.62331,2.07479,0.16865,0.443469,-0.558418,0.852317,3.11026,1.17716,0.133001,0.19312
3014457,0.96,-1.5695,-0.519348,0.0134931,-2.09265,0.00618833,1.57092,0.803753,-1.56864,-0.519282,0.0158718,-2.0898,0.00871897,1.57146,0.805815,0.0407185,0.12259,0.454324,0.135728,0.235363,0.00275957,0.581078,0.0692872,0.138564,0.528033,0.147612,0.257087,0.019693,0.6019,8.52357,-7.55893,12.3774,21.8644,2.63979,2.10043,0.226328,0.450417,-0.563995,0.857528,3.11674,1.18448,0.136411,0.1959
3014458,0.96,-1.56946,-0.519218,0.0139718,-2.09251,0.00643022,1.57093,0.804362,-1.56857,-0.519141,0.0164093,-2.08965,0.00897958,1.57148,0.806425,0.0420645,0.123913,0.466277,0.135996,0.237992,0.00693424,0.584301,0.0704633,0.140916,0.537493,0.150118,0.260608,0.0199627,0.610144,8.55134,-7.5867,12.4805,21.8644,2.64528,2.10043,0.291331,0.460625,-0.5701,0.867442,3.12408,1.19191,0.140053,0.198301
3014459,0.96,-1.56941,-0.519087,0.0144757,-2.09237,0.00668287,1.57094,0.804978,-1.56849,-0.518998,0.0169562,-2.08949,0.00924371,1.57151,0.807043,0.0436563,0.125275,0.472821,0.138367,0.240221,0.00483151,0.593274,0.0716394,0.143268,0.546953,0.152624,0.264129,0.0202325,0.618388,8.57515,-7.63828,12.5559,21.8882,2.62331,2.11325,0.304148,0.472549,-0.576932,0.879534,3.13343,1.19945,0.144093,0.200441
3014460,0.96,-1.56936,-0.518959,0.014987,-2.09222,0.00694961,1.57094,0.805618,-1.56842,-0.518852,0.0175127,-2.08934,0.00951136,1.57153,0.80767,0.0389145,0.124399,0.487461,0.142127,0.247872,0.00254676,0.606996,0.0728155,0.14562,0.556412,0.155129,0.26765,0.0205022,0.626632,8.7021,-7.6105,12.6075,21.8644,2.58394,2.14529,0.226328,0.487085,-0.578597,0.894801,3.14189,1.20711,0.148359,0.202459
3014461,0.96,-1.56932,-0.518824,0.0154959,-2.09207,0.00720716,1.57096,0.806253,-1.56835,-0.518704,0.0180785,-2.08918,0.00978253,1.57155,0.808305,0.0392858,0.127451,0.492913,0.141277,0.251934,0.0084426,0.612312,0.0739916,0.147972,0.565872,0.157635,0.271171,0.0207719,0.634876,8.82905,-7.6105,12.6591,21.8644,2.57753,2.10043,0.252878,0.505771,-0.571775,0.914918,3.14756,1.21485,0.152721,0.204428
3014462,0.97,-1.56927,-0.518687,0.0160194,-2.09192,0.00746661,1.57097,0.806892,-1.56827,-0.518554,0.0186539,-2.08902,0.0100572,1.57157,0.808948,0.0423728,0.1323,0.49625,0.143207,0.253943,0.0106291,0.621795,0.0751677,0.150324,0.575331,0.16014,0.274692,0.0210416,0.64312,8.82905,-7.5867,12.7344,21.8882,2.59493,2.11325,0.187876,0.531354,-0.562333,0.944389,3.1532,1.22278,0.157312,0.206335
3014463,0.98,-1.56921,-0.518547,0.0165535,-2.09176,0.00772885,1.57098,0.807544,-1.5682,-0.518401,0.0192387,-2.08886,0.0103354,1.57159,0.809599,0.04627,0.133956,0.509105,0.144284,0.261893,0.0118662,0.625789,0.0763438,0.152676,0.584791,0.162646,0.278213,0.0213113,0.651363,8.75367,-7.5867,12.7344,21.9159,2.57204,2.13888,0.187876,0.563475,-0.556818,0.983725,3.16165,1.23088,0.162256,0.208153
3014464,0.99,-1.56916,-0.518403,0.0170798,-2.0916,0.00799762,1.571,0.80818,-1.56812,-0.518246,0.0198329,-2.08869,0.0106172,1.57161,0.810259,0.0499372,0.135475,0.508682,0.14787,0.266226,0.0124864,0.627041,0.0775199,0.155028,0.594251,0.165152,0.281735,0.0215811,0.659607,8.77748,-7.6105,12.782,21.8405,2.60042,2.17092,0.265696,0.599305,-0.553793,1.02958,3.17178,1.23894,0.167438,0.209834
3014465,1,-1.56911,-0.518258,0.0176245,-2.09145,0.00828005,1.57102,0.808855,-1.56804,-0.518089,0.0204366,-2.08853,0.0109024,1.57163,0.810927,0.0539109,0.137403,0.527624,0.149831,0.269257,0.0123307,0.635122,0.078696,0.15738,0.60371,0.167657,0.285256,0.0218508,0.667851,8.75367,-7.66208,12.909,21.9159,2.6288,2.22219,0.129282,0.636081,-0.549179,1.07837,3.18112,1.24676,0.172686,0.211372
3014466,1,-1.56906,-0.518106,0.0181757,-2.09128,0.00855543,1.57104,0.809529,-1.56796,-0.517929,0.0210494,-2.08836,0.0111909,1.57165,0.811602,0.0507275,0.139166,0.532235,0.15707,0.273204,0.0190445,0.646426,0.0798233,0.159635,0.612816,0.170059,0.288506,0.0220998,0.675461,8.85286,-7.73746,12.9368,21.8882,2.61781,2.22219,0.122873,0.670669,-0.53964,1.12496,3.18693,1.2542,0.17774,0.212781
3014467,1,-1.56901,-0.517955,0.0187478,-2.09112,0.00883795,1.57108,0.810205,-1.56788,-0.517767,0.0216714,-2.08818,0.0114827,1.57168,0.812285,0.0514169,0.140034,0.53626,0.156269,0.270329,0.024238,0.655783,0.0809507,0.161889,0.621922,0.172461,0.291757,0.0223488,0.683071,8.95601,-7.78903,12.9368,21.9873,2.62331,2.20938,0.0844213,0.706682,-0.522932,1.17414,3.18701,1.26146,0.182333,0.213954
3014468,1,-1.56895,-0.517801,0.0193249,-2.09095,0.00911962,1.57112,0.810893,-1.5678,-0.517603,0.0223024,-2.08801,0.0117777,1.5717,0.812976,0.0514341,0.144695,0.551666,0.161107,0.274207,0.0253261,0.660215,0.082078,0.164144,0.631027,0.174862,0.295007,0.0225978,0.690681,8.95601,-7.86441,13.1391,21.9873,2.60591,2.14529,0.0844213,0.747325,-0.501616,1.2303,3.18299,1.2688,0.186594,0.214769
3014469,1,-1.56889,-0.517646,0.0199061,-2.09078,0.009411,1.57116,0.811579,-1.56771,-0.517437,0.0229425,-2.08783,0.012076,1.57172,0.813674,0.053559,0.145987,0.555971,0.164255,0.281181,0.0357719,0.666979,0.0832053,0.166398,0.640133,0.177264,0.298258,0.0228467,0.698292,8.97981,-7.86441,13.1907,22.0151,2.60591,2.06838,0.0258276,0.789812,-0.479301,1.28899,3.17666,1.27612,0.190601,0.215178
3014470,1,-1.56884,-0.517491,0.0204993,-2.09062,0.00970232,1.57119,0.812277,-1.56763,-0.517268,0.0235918,-2.08765,0.0123775,1.57175,0.81438,0.0504484,0.148645,0.572416,0.166606,0.277633,0.0356513,0.677828,0.0843326,0.168653,0.649239,0.179666,0.301508,0.0230957,0.705902,9.07899,-7.91599,13.1629,22.0389,2.58394,2.07479,0.0651953,0.832434,-0.456377,1.34751,3.1681,1.28332,0.194186,0.215133
3014471,1,-1.56878,-0.517326,0.0210895,-2.09044,0.00998218,1.57123,0.812991,-1.56754,-0.517097,0.0242501,-2.08747,0.0126822,1.57177,0.815094,0.0549841,0.155616,0.570417,0.164401,0.27723,0.0368752,0.685741,0.0854599,0.170907,0.658344,0.182067,0.304759,0.0233447,0.713512,9.03138,-8.03897,13.2383,22.0905,2.6288,2.04916,0.00660151,0.876126,-0.438865,1.40723,3.16184,1.2905,0.197662,0.214614
3014472,1,-1.56871,-0.517161,0.0217013,-2.09027,0.0102715,1.57126,0.813692,-1.56746,-0.516924,0.0249175,-2.08729,0.0129902,1.57179,0.815815,0.055684,0.15571,0.576587,0.168331,0.276837,0.0370264,0.688207,0.0865873,0.173162,0.66745,0.184469,0.308009,0.0235937,0.721122,8.95601,-8.09055,13.2383,22.0627,2.66268,2.04183,0.0194189,0.92461,-0.43374,1.47456,3.16281,1.29795,0.201467,0.213622
3014473,1,-1.56865,-0.516997,0.0223164,-2.09009,0.0105719,1.57129,0.814402,-1.56737,-0.516748,0.0255941,-2.0871,0.0133015,1.57182,0.816544,0.0578009,0.155323,0.595944,0.168982,0.294756,0.0317852,0.694923,0.0877146,0.175416,0.676556,0.186871,0.31126,0.0238427,0.728732,8.92823,-8.11832,13.2383,22.1143,2.67916,2.05557,0.0780126,0.975617,-0.434971,1.5466,3.16866,1.30548,0.205507,0.212169
3014474,1,-1.56857,-0.516826,0.0229371,-2.08991,0.0108746,1.57132,0.815109,-1.56728,-0.516571,0.0262798,-2.08691,0.013616,1.57184,0.81728,0.0604177,0.161825,0.598166,0.176876,0.292145,0.0294586,0.715954,0.0888419,0.177671,0.685661,0.189272,0.31451,0.0240917,0.736342,8.85286,-8.16592,13.2661,21.9873,2.67366,2.02902,0.181467,1.02257,-0.435772,1.61345,3.17543,1.31268,0.20953,0.210315
3014475,1,-1.56851,-0.516658,0.0235717,-2.08973,0.0111791,1.57134,0.815841,-1.56719,-0.516391,0.0269745,-2.08672,0.0139338,1.57186,0.818024,0.0638663,0.166329,0.608161,0.17549,0.295473,0.0242562,0.721351,0.0899692,0.179925,0.694767,0.191674,0.31776,0.0243407,0.743952,8.85286,-8.2175,13.3137,22.0389,2.65169,2.09402,0.175059,1.06534,-0.440685,1.67549,3.18404,1.31958,0.213573,0.208221
3014476,1,-1.56845,-0.516489,0.02422,-2.08953,0.0114861,1.57136,0.816585,-1.5671,-0.516209,0.0276779,-2.08652,0.0142545,1.57189,0.818775,0.062483,0.166066,0.627242,0.181763,0.298754,0.0260515,0.726672,0.0910293,0.182045,0.703357,0.193932,0.320722,0.0245676,0.750887,9.00361,-8.2175,13.2383,21.8882,2.60591,2.13888,0.135691,1.10258,-0.451601,1.73061,3.19534,1.32622,0.217711,0.206129
3014477,1,-1.56838,-0.51631,0.0248887,-2.08935,0.0118041,1.57138,0.817312,-1.56701,-0.516025,0.0283898,-2.08633,0.0145782,1.57191,0.819533,0.0647237,0.167695,0.637089,0.185914,0.299871,0.0237079,0.726519,0.0920894,0.184165,0.711947,0.196191,0.323684,0.0247944,0.757821,9.05519,-8.29288,13.1391,21.8644,2.57753,2.15811,0.207102,1.13019,-0.460251,1.77178,3.20492,1.33235,0.221623,0.204216
3014478,1,-1.5683,-0.516129,0.0255586,-2.08915,0.0121231,1.57141,0.81806,-1.56692,-0.515838,0.0291104,-2.08613,0.0149048,1.57194,0.820297,0.0729418,0.17168,0.6533,0.184355,0.305022,0.0267946,0.728421,0.0931495,0.186285,0.720537,0.198449,0.326646,0.0250213,0.764756,8.82905,-8.34445,13.1113,21.8167,2.57753,2.17733,0.194285,1.14564,-0.463875,1.79499,3.21138,1.33777,0.225293,0.202574
3014479,1,-1.56822,-0.515946,0.026232,-2.08895,0.0124378,1.57143,0.818805,-1.56682,-0.51565,0.0298395,-2.08593,0.0152344,1.57196,0.821069,0.0757768,0.170377,0.654754,0.189593,0.304248,0.0255741,0.727885,0.0942095,0.188405,0.729127,0.200708,0.329608,0.0252482,0.77169,8.7259,-8.36826,13.0637,21.7652,2.57204,2.16452,0.252878,1.14918,-0.464506,1.80139,3.2166,1.34247,0.229015,0.201274
3014480,1,-1.56814,-0.515761,0.0269186,-2.08876,0.0127579,1.57145,0.819551,-1.56673,-0.515459,0.0305772,-2.08573,0.015567,1.57199,0.821848,0.0757412,0.176271,0.653591,0.191821,0.306964,0.029581,0.736791,0.0952696,0.190525,0.737717,0.202966,0.33257,0.0254751,0.778625,8.7021,-8.41983,12.9606,21.789,2.58943,2.13888,0.304148,1.15067,-0.461702,1.80662,3.2195,1.34686,0.232729,0.200315
3014481,1,-1.56807,-0.515578,0.0276211,-2.08856,0.0130794,1.57147,0.820333,-1.56663,-0.515267,0.0313235,-2.08552,0.0159025,1.57202,0.822633,0.0746393,0.177483,0.671711,0.193987,0.309305,0.0272224,0.750464,0.0963297,0.192645,0.746307,0.205225,0.335532,0.025702,0.785559,8.7021,-8.44363,12.8852,21.789,2.61781,2.13247,0.155832,1.15861,-0.458813,1.8231,3.22083,1.35132,0.236444,0.199713
3014482,1,-1.56799,-0.515387,0.0283269,-2.08836,0.0134075,1.5715,0.821101,-1.56653,-0.515072,0.0320784,-2.08531,0.016241,1.57204,0.823426,0.0759815,0.181696,0.673329,0.193089,0.316716,0.0269747,0.754135,0.0973898,0.194765,0.754897,0.207483,0.338494,0.0259289,0.792494,8.65052,-8.47141,12.7582,21.7652,2.62331,2.0812,0.0844213,1.17219,-0.460146,1.84849,3.22368,1.35588,0.240442,0.199488
3014483,1,-1.56791,-0.515196,0.0290511,-2.08816,0.0137478,1.57152,0.821887,-1.56643,-0.514875,0.0328419,-2.0851,0.0165825,1.57207,0.824225,0.0747331,0.18834,0.698264,0.196945,0.323789,0.0259239,0.768014,0.0984499,0.196885,0.763487,0.209742,0.341456,0.0261557,0.799428,8.6783,-8.47141,12.5797,21.8167,2.58943,2.04916,0.09083,1.18746,-0.470916,1.87594,3.2314,1.36043,0.244989,0.19951
3014484,1,-1.56782,-0.515005,0.029763,-2.08796,0.0140798,1.57154,0.822685,-1.56633,-0.514676,0.033614,-2.08489,0.0169269,1.57209,0.825032,0.0810088,0.185414,0.6964,0.19693,0.327676,0.0246634,0.774275,0.0995099,0.199005,0.772077,0.212,0.344418,0.0263826,0.806363,8.55134,-8.44363,12.5559,21.8405,2.59493,2.02902,0.071604,1.19998,-0.49101,1.89839,3.24403,1.36478,0.249997,0.199575
3014485,1,-1.56773,-0.514803,0.0304876,-2.08775,0.0144214,1.57156,0.82348,-1.56623,-0.514475,0.0343947,-2.08468,0.0172743,1.57212,0.825845,0.0806647,0.189643,0.697929,0.198947,0.330137,0.0231744,0.773829,0.10057,0.201125,0.780667,0.214258,0.347379,0.0266095,0.813297,8.47596,-8.52298,12.5559,21.9397,2.58943,2.02261,0.0780126,1.21353,-0.513161,1.92251,3.25848,1.36907,0.255157,0.199495
3014486,1,-1.56765,-0.514604,0.0312371,-2.08754,0.014755,1.57157,0.824291,-1.56613,-0.514272,0.0351833,-2.08446,0.0176243,1.57215,0.826664,0.0805491,0.191717,0.71526,0.206537,0.327545,0.0232705,0.785607,0.101548,0.203081,0.788613,0.216342,0.350042,0.0268135,0.819531,8.55134,-8.57059,12.4528,21.9159,2.59493,2.11325,0.0844213,1.23258,-0.533484,1.95536,3.27198,1.37349,0.260079,0.199166
3014487,1,-1.56757,-0.514403,0.0319798,-2.08733,0.0150971,1.57158,0.825093,-1.56603,-0.514067,0.0359798,-2.08424,0.017977,1.57217,0.82749,0.0809858,0.192214,0.720333,0.204715,0.334559,0.0192457,0.79196,0.102526,0.205037,0.796558,0.218426,0.352704,0.0270174,0.825764,8.60292,-8.59836,12.3774,21.9397,2.61781,2.19656,0.194285,1.254,-0.549457,1.99147,3.28246,1.37789,0.264487,0.198576
3014488,1,-1.56747,-0.514204,0.0327338,-2.08712,0.0154403,1.57159,0.825918,-1.56593,-0.51386,0.0367843,-2.08402,0.0183324,1.5722,0.828322,0.0869272,0.196386,0.736827,0.206689,0.334252,0.016867,0.79725,0.103505,0.206994,0.804504,0.22051,0.355367,0.0272213,0.831997,8.55134,-8.62216,12.4528,21.9635,2.66268,2.26797,0.187876,1.27349,-0.561754,2.02411,3.29175,1.38211,0.268745,0.197808
3014489,1,-1.5674,-0.514003,0.0335009,-2.0869,0.0157991,1.57161,0.826752,-1.56582,-0.513651,0.0375968,-2.0838,0.0186904,1.57223,0.82916,0.0824293,0.198909,0.739614,0.207569,0.339087,0.0171099,0.80973,0.104483,0.20895,0.81245,0.222594,0.358029,0.0274253,0.838231,8.75367,-8.62216,12.3536,21.9873,2.57753,2.2872,0.213511,1.28955,-0.575066,2.05089,3.30319,1.38619,0.273372,0.197015
3014490,1,-1.56731,-0.513797,0.0343041,-2.08668,0.0161577,1.57163,0.827599,-1.56572,-0.51344,0.0384172,-2.08357,0.0190511,1.57226,0.830005,0.0848575,0.201086,0.743767,0.208556,0.340206,0.019751,0.828924,0.105461,0.210906,0.820396,0.224678,0.360692,0.0276292,0.844464,8.7259,-8.62216,12.0481,22.0151,2.52718,2.23593,0.194285,1.30778,-0.591546,2.07992,3.31754,1.39044,0.278547,0.196286
3014491,1,-1.56721,-0.513585,0.0350934,-2.08647,0.016515,1.57166,0.828444,-1.56561,-0.513227,0.0392455,-2.08335,0.0194145,1.57228,0.830856,0.0939826,0.204813,0.758343,0.21028,0.351814,0.0226183,0.827592,0.106439,0.212862,0.828341,0.226762,0.363354,0.0278332,0.850698,8.49977,-8.69754,11.9211,22.1381,2.52718,2.1517,0.071604,1.32886,-0.611142,2.11256,3.33443,1.39478,0.284254,0.195678
3014492,1,-1.5671,-0.513368,0.0358922,-2.08625,0.016872,1.57168,0.829285,-1.5655,-0.513012,0.0400818,-2.08312,0.0197805,1.57231,0.831712,0.0941594,0.207798,0.763532,0.209898,0.352694,0.0236043,0.8523,0.107417,0.214818,0.836287,0.228846,0.366017,0.0280371,0.856931,8.27363,-8.82449,11.5919,22.1897,2.54366,2.09402,0.0322363,1.34656,-0.63475,2.13982,3.35428,1.39877,0.290436,0.195197
3014493,1,-1.567,-0.51315,0.0367169,-2.08602,0.0172249,1.5717,0.830131,-1.56539,-0.512796,0.040926,-2.08289,0.0201492,1.57234,0.832576,0.0965478,0.213032,0.769326,0.213321,0.351828,0.0218256,0.848988,0.108395,0.216774,0.844233,0.23093,0.368679,0.0282411,0.863164,8.0713,-8.97525,11.2665,22.2373,2.60042,2.10043,0.071604,1.36186,-0.664789,2.16298,3.3782,1.40245,0.296993,0.194696
3014494,1,-1.56688,-0.512931,0.037549,-2.08579,0.0175699,1.57171,0.830998,-1.56528,-0.512577,0.0417782,-2.08265,0.0205205,1.57237,0.833445,0.101937,0.21415,0.789691,0.217503,0.349925,0.0182767,0.847677,0.109373,0.218731,0.852178,0.233014,0.371341,0.028445,0.869398,7.81739,-9.1022,11.1118,22.1897,2.70204,2.17092,-0.0318506,1.37372,-0.700138,2.18024,3.40489,1.40583,0.303623,0.194061
3014495,1,-1.56677,-0.512709,0.0383753,-2.08557,0.0179461,1.57172,0.831851,-1.56517,-0.512356,0.0426383,-2.08242,0.0208945,1.5724,0.834321,0.103399,0.21788,0.794428,0.223383,0.357341,0.0177517,0.857004,0.110352,0.220687,0.860124,0.235098,0.374004,0.028649,0.875631,7.69441,-9.20535,10.8579,22.2373,2.68556,2.19015,-0.0254419,1.37623,-0.734804,2.18279,3.43011,1.40874,0.309881,0.193243
3014496,1,-1.56667,-0.512502,0.0392243,-2.08534,0.0183271,1.57174,0.832726,-1.56506,-0.512134,0.0435057,-2.08218,0.0212709,1.57243,0.835202,0.0999503,0.216484,0.816839,0.224259,0.364932,0.0186138,0.856223,0.111236,0.222456,0.867324,0.236982,0.37636,0.0288295,0.881148,7.74202,-9.12601,10.7072,22.2373,2.62331,2.17733,-0.0968531,1.36819,-0.762848,2.16852,3.45031,1.4112,0.315505,0.192126
3014497,1,-1.56657,-0.512285,0.0400808,-2.08511,0.0187143,1.57177,0.833604,-1.56495,-0.51191,0.0443802,-2.08194,0.0216496,1.57246,0.836088,0.101459,0.217166,0.821571,0.224749,0.36851,0.0205917,0.857549,0.112121,0.224225,0.874523,0.238867,0.378717,0.02901,0.886665,7.66664,-9.12601,10.5286,22.2373,2.47591,2.12606,-0.135305,1.35086,-0.780078,2.13849,3.46471,1.41337,0.320557,0.190587
3014498,1,-1.56646,-0.512061,0.0409458,-2.08488,0.0191061,1.57179,0.834469,-1.56484,-0.511684,0.0452619,-2.0817,0.0220306,1.57248,0.836981,0.102463,0.224752,0.820321,0.224757,0.377364,0.0218739,0.862289,0.113005,0.225994,0.881723,0.240751,0.381073,0.0291905,0.892182,7.71821,-9.17758,10.6834,22.2611,2.39168,2.07479,-0.0712183,1.33141,-0.791732,2.10377,3.47715,1.41558,0.325392,0.188492
3014499,1,-1.56637,-0.511841,0.0418257,-2.08464,0.0194892,1.57181,0.835352,-1.56472,-0.511456,0.0461508,-2.08146,0.0224141,1.57251,0.837878,0.0966186,0.226753,0.837217,0.227011,0.377595,0.0189636,0.864501,0.11389,0.227763,0.888922,0.242636,0.383429,0.029371,0.897699,7.92054,-9.15378,10.6834,22.1897,2.3633,2.12606,-0.0190333,1.31811,-0.808937,2.07694,3.49303,1.41804,0.330371,0.185761
3014500,1,-1.56628,-0.511607,0.0426995,-2.0844,0.0198677,1.57182,0.836219,-1.56461,-0.511226,0.047047,-2.08122,0.0227999,1.57254,0.838782,0.0949191,0.23139,0.838906,0.235542,0.375941,0.0206467,0.866551,0.114775,0.229532,0.896122,0.244521,0.385786,0.0295515,0.903215,8.0475,-9.28073,10.608,22.0905,2.39717,2.20938,0.0780126,1.31335,-0.832925,2.06066,3.51148,1.42059,0.335269,0.182479
3014501,1,-1.56617,-0.511372,0.0435606,-2.08416,0.0202466,1.57184,0.837115,-1.56449,-0.510995,0.0479503,-2.08097,0.023188,1.57257,0.83969,0.0971188,0.232226,0.853106,0.233617,0.375748,0.0175533,0.871072,0.115659,0.231301,0.903321,0.246405,0.388142,0.029732,0.908732,7.99592,-9.43149,10.7825,22.0627,2.52168,2.2872,0.110056,1.31674,-0.859283,2.05413,3.529,1.42299,0.339764,0.178861
3014502,1,-1.56607,-0.51114,0.0444386,-2.08392,0.0206371,1.57186,0.838013,-1.56438,-0.510762,0.0488608,-2.08072,0.0235785,1.5726,0.840605,0.096365,0.232839,0.852503,0.235946,0.379467,0.0222746,0.87079,0.116544,0.23307,0.910521,0.24829,0.390498,0.0299125,0.914249,8.0713,-9.45529,10.7072,21.9873,2.57204,2.30642,0.226328,1.32682,-0.884745,2.05577,3.54514,1.42521,0.34407,0.175171
3014503,1,-1.56597,-0.510904,0.045336,-2.08368,0.0210319,1.57189,0.838908,-1.56426,-0.510527,0.0497785,-2.08047,0.0239714,1.57263,0.841524,0.0958208,0.231043,0.85972,0.235717,0.37849,0.0294673,0.879067,0.117428,0.234839,0.91772,0.250174,0.392855,0.030093,0.919766,8.14668,-9.50687,10.5048,22.0151,2.56655,2.22219,0.24647,1.34521,-0.904028,2.06872,3.55844,1.42749,0.348293,0.171649
3014504,1,-1.56586,-0.510669,0.046224,-2.08344,0.0214203,1.57192,0.839829,-1.56414,-0.51029,0.0507034,-2.08022,0.0243666,1.57266,0.84245,0.102185,0.233028,0.872227,0.236715,0.381483,0.0308014,0.886703,0.118313,0.236609,0.92492,0.252059,0.395211,0.0302735,0.925283,7.94435,-9.55844,10.608,21.9873,2.61141,2.11325,0.181467,1.36945,-0.913258,2.08981,3.56741,1.42991,0.352388,0.16855
3014505,1,-1.56576,-0.510436,0.0471193,-2.0832,0.0218255,1.57195,0.840727,-1.56402,-0.510052,0.0516356,-2.07996,0.0247641,1.57269,0.84338,0.100011,0.231528,0.882015,0.236461,0.386393,0.0299347,0.903695,0.119198,0.238378,0.932119,0.253944,0.397568,0.030454,0.930799,8.01973,-9.50687,10.481,22.0151,2.58943,2.04916,0.213511,1.39202,-0.912499,2.10783,3.57294,1.43228,0.356445,0.166057
3014506,1,-1.56567,-0.510205,0.0480426,-2.08296,0.0222339,1.57197,0.841684,-1.5639,-0.509812,0.052574,-2.07971,0.0251638,1.57272,0.844316,0.0944568,0.235262,0.902571,0.240767,0.391705,0.0292586,0.924746,0.11998,0.239941,0.938492,0.255609,0.399614,0.0306107,0.93559,8.12288,-9.40768,10.2787,21.9873,2.50978,2.10684,-0.0584009,1.40888,-0.90325,2.11582,3.57574,1.43445,0.360394,0.164188
3014507,1,-1.56555,-0.509961,0.0489416,-2.0827,0.0226291,1.57199,0.842632,-1.56378,-0.509571,0.0535189,-2.07945,0.0255654,1.57276,0.845256,0.0996956,0.236047,0.907689,0.24274,0.39753,0.0255767,0.927486,0.120761,0.241505,0.944865,0.257275,0.40166,0.0307675,0.940381,7.97212,-9.43149,10.3779,21.8644,2.50978,2.13247,-0.141714,1.41836,-0.888238,2.11033,3.57605,1.43629,0.364064,0.162795
3014508,1,-1.56544,-0.509717,0.0498578,-2.08246,0.0230445,1.57201,0.843553,-1.56366,-0.509328,0.0544701,-2.07919,0.0259691,1.57279,0.846202,0.107645,0.236908,0.898075,0.248779,0.402039,0.0229033,0.931547,0.121543,0.243068,0.951238,0.258941,0.403706,0.0309242,0.945172,7.76979,-9.48306,10.4294,21.8882,2.48781,2.15811,-0.0318506,1.42495,-0.867895,2.10008,3.57253,1.43786,0.367302,0.161493
3014509,1,-1.56533,-0.509471,0.0508124,-2.0822,0.0234583,1.57203,0.844519,-1.56354,-0.509083,0.0554278,-2.07893,0.0263749,1.57282,0.847151,0.108179,0.238787,0.91961,0.250351,0.41346,0.0249101,0.929194,0.122325,0.244632,0.957611,0.260607,0.405753,0.0310809,0.949963,7.74202,-9.58224,10.1517,21.8405,2.44753,2.20297,-0.0904444,1.43285,-0.841021,2.09386,3.56329,1.43921,0.369987,0.159914
3014510,1,-1.56521,-0.509225,0.0517534,-2.08193,0.0238594,1.57207,0.845485,-1.56341,-0.508837,0.0563917,-2.07867,0.0267827,1.57285,0.848106,0.107897,0.23826,0.915918,0.254321,0.413471,0.0254764,0.931523,0.123107,0.246196,0.963984,0.262272,0.407799,0.0312377,0.954754,7.64283,-9.63382,9.89783,21.666,2.45302,2.1517,-0.0648096,1.44068,-0.807766,2.0897,3.54828,1.44024,0.372141,0.157939
3014511,1,-1.56508,-0.508989,0.0527087,-2.08169,0.0242738,1.57209,0.846445,-1.56329,-0.508589,0.0573621,-2.07841,0.0271925,1.57288,0.849066,0.114843,0.242065,0.916481,0.251745,0.413414,0.0269047,0.943461,0.123889,0.247759,0.970357,0.263938,0.409845,0.0313944,0.959544,7.23817,-9.60605,9.74707,21.7176,2.45943,2.19656,-0.0510767,1.4525,-0.771665,2.09363,3.53002,1.4412,0.374023,0.155519
3014512,1,-1.56496,-0.508743,0.0536804,-2.08142,0.0246749,1.57212,0.847417,-1.56317,-0.50834,0.0583388,-2.07814,0.0276044,1.57291,0.85003,0.114736,0.240396,0.94385,0.251969,0.414195,0.0299506,0.94563,0.124671,0.249323,0.97673,0.265604,0.411892,0.0315512,0.964335,7.13899,-9.60605,9.4654,21.666,2.45302,2.19015,-0.044668,1.46575,-0.737706,2.10166,3.51291,1.44212,0.376071,0.152695
3014513,1,-1.56484,-0.508502,0.0546436,-2.08116,0.0250825,1.57216,0.848382,-1.56304,-0.508089,0.0593219,-2.07787,0.0280183,1.57294,0.850999,0.119233,0.239967,0.944123,0.256082,0.413495,0.0312211,0.953702,0.125453,0.250887,0.983103,0.267269,0.413938,0.0317079,0.969126,7.03584,-9.50687,9.18769,21.666,2.45943,2.0812,-0.0318506,1.47005,-0.702756,2.09752,3.49659,1.44261,0.3783,0.149598
3014514,1,-1.56471,-0.508257,0.0556012,-2.0809,0.0254987,1.57218,0.849359,-1.56291,-0.507836,0.0603114,-2.0776,0.0284343,1.57298,0.851973,0.123241,0.241823,0.945661,0.255627,0.412236,0.0282871,0.951323,0.126235,0.25245,0.989476,0.268935,0.415984,0.0318647,0.973917,6.75813,-9.48306,9.31464,21.6144,2.4988,2.06838,0.0587866,1.46703,-0.66335,2.08414,3.47873,1.44275,0.380492,0.1463
3014515,1,-1.5646,-0.508002,0.0565794,-2.08062,0.0259136,1.57222,0.850333,-1.56279,-0.507582,0.0613073,-2.07733,0.0288524,1.57301,0.852952,0.120259,0.246632,0.942309,0.2598,0.410471,0.0307266,0.950365,0.127016,0.254014,0.995848,0.270601,0.41803,0.0320214,0.978708,6.73433,-9.60605,9.01313,21.5152,2.44203,2.06198,0.175059,1.46733,-0.625614,2.07811,3.46129,1.44313,0.382667,0.142875
3014516,1,-1.56448,-0.507755,0.0575734,-2.08035,0.0263437,1.57224,0.851312,-1.56266,-0.507327,0.0623086,-2.07706,0.0292721,1.57304,0.853935,0.119504,0.251607,0.943143,0.265278,0.418194,0.0301825,0.960643,0.127688,0.255358,1.00133,0.272033,0.419764,0.0321542,0.982767,6.7859,-9.55844,8.80683,21.4438,2.35689,2.11965,0.143015,1.48049,-0.597549,2.09347,3.44587,1.44421,0.384694,0.139484
3014517,1,-1.56433,-0.507506,0.0585646,-2.08008,0.0267606,1.57226,0.852306,-1.56253,-0.50707,0.0633154,-2.07679,0.0296936,1.57307,0.854921,0.126617,0.251398,0.963441,0.265358,0.421266,0.0243149,0.963544,0.12836,0.256702,1.00682,0.273464,0.421498,0.032287,0.986826,6.50819,-9.58224,8.80683,21.3922,2.36879,2.20297,0.038645,1.50269,-0.580231,2.12396,3.43199,1.44569,0.386501,0.136373
3014518,1,-1.5642,-0.507257,0.0595597,-2.0798,0.0271882,1.5723,0.853272,-1.5624,-0.506812,0.0643277,-2.07651,0.0301169,1.5731,0.855912,0.126706,0.250241,0.967871,0.266019,0.426332,0.0281531,0.970106,0.129032,0.258045,1.0123,0.274896,0.423232,0.0324198,0.990885,6.45662,-9.58224,8.65607,21.3446,2.30654,2.19656,0.110056,1.52036,-0.56702,2.14885,3.41869,1.44679,0.388303,0.133696
3014519,1,-1.56407,-0.507013,0.0605863,-2.07953,0.0276161,1.57233,0.854264,-1.56227,-0.506553,0.0653455,-2.07624,0.0305418,1.57314,0.856907,0.125565,0.250639,0.986564,0.266668,0.4269,0.0326918,0.973339,0.129704,0.259389,1.01778,0.276327,0.424965,0.0325527,0.994944,6.45662,-9.45529,8.32679,21.416,2.33492,2.14529,0.110056,1.52725,-0.551015,2.15814,3.40454,1.44719,0.390183,0.131429
3014520,1,-1.56392,-0.506757,0.0615923,-2.07925,0.0280424,1.57236,0.85526,-1.56214,-0.506292,0.0663687,-2.07596,0.0309685,1.57317,0.857906,0.132341,0.249934,0.999371,0.268981,0.426993,0.0306097,0.975625,0.130376,0.260733,1.02327,0.277759,0.426699,0.0326855,0.999003,6.1551,-9.43149,8.04908,21.3922,2.37978,2.10684,0.110056,1.51902,-0.52846,2.14466,3.38835,1.44664,0.392086,0.129563
3014521,1,-1.56377,-0.506495,0.0626274,-2.07897,0.02847,1.57239,0.856246,-1.56201,-0.50603,0.0673975,-2.07568,0.031397,1.5732,0.858909,0.137907,0.25113,1.00053,0.271341,0.426427,0.0312851,0.982464,0.131048,0.262077,1.02875,0.27919,0.428433,0.0328183,1.00306,5.77424,-9.48306,7.66822,21.3684,2.41365,2.13247,0.0844213,1.49376,-0.49754,2.10616,3.36922,1.44509,0.393922,0.128109
3014522,1,-1.56362,-0.506239,0.0636871,-2.07868,0.0289052,1.57241,0.857254,-1.56188,-0.505767,0.0684317,-2.0754,0.0318271,1.57324,0.859916,0.142166,0.251401,1.02551,0.276314,0.43432,0.0294235,0.98224,0.13172,0.263421,1.03423,0.280622,0.430167,0.0329511,1.00712,5.54811,-9.50687,7.16437,21.3446,2.37978,2.2286,0.00660151,1.45173,-0.45774,2.04396,3.34604,1.44258,0.395524,0.127024
3014523,1,-1.56346,-0.50598,0.0647349,-2.07839,0.0293405,1.57244,0.858244,-1.56175,-0.505502,0.0694714,-2.07512,0.032259,1.57327,0.860928,0.147,0.250903,1.02157,0.276855,0.433485,0.0282438,1.00555,0.132392,0.264764,1.03972,0.282054,0.431901,0.0330839,1.01118,5.22279,-9.53067,6.78351,21.3169,2.40267,2.19656,-0.00621587,1.39243,-0.408537,1.95755,3.31802,1.43916,0.396843,0.126201
3014524,1,-1.5633,-0.505723,0.0657841,-2.0781,0.0297784,1.57248,0.859244,-1.56161,-0.505236,0.0705166,-2.07483,0.0326927,1.5733,0.861943,0.148337,0.251677,1.03345,0.280461,0.43419,0.0357624,0.996919,0.133064,0.266108,1.0452,0.283485,0.433634,0.0332167,1.01524,4.99269,-9.58224,6.73194,21.2931,2.39168,2.06198,0.0523779,1.3226,-0.350999,1.85721,3.2855,1.43523,0.397933,0.12544
3014525,1,-1.56315,-0.505467,0.0668376,-2.07782,0.0302225,1.57252,0.860258,-1.56148,-0.504968,0.0715673,-2.07455,0.033128,1.57333,0.862962,0.149733,0.253198,1.05285,0.278961,0.436799,0.0374328,0.996308,0.133736,0.267452,1.05068,0.284917,0.435368,0.0333495,1.0193,4.96888,-9.53067,6.55341,21.416,2.32301,2.02261,-0.0126246,1.24502,-0.289166,1.74641,3.25068,1.4311,0.398861,0.124642
3014526,1,-1.56302,-0.505203,0.0679069,-2.07752,0.0306782,1.57255,0.861264,-1.56135,-0.5047,0.0726226,-2.07426,0.0335648,1.57337,0.863985,0.144403,0.254487,1.04711,0.286336,0.445127,0.0360648,1.00002,0.134293,0.268565,1.05523,0.286102,0.436788,0.0334583,1.02262,5.17122,-9.48306,6.43042,21.3446,2.17653,2.04916,-0.0648096,1.16225,-0.227284,1.62793,3.2155,1.42692,0.399605,0.12377
3014527,1,-1.56287,-0.504943,0.0689658,-2.07723,0.0311314,1.57258,0.862281,-1.56121,-0.50443,0.0736823,-2.07398,0.034003,1.5734,0.865011,0.145034,0.25247,1.0521,0.290009,0.451731,0.0330151,1.00219,0.134849,0.269678,1.05977,0.287288,0.438208,0.033567,1.02595,5.19502,-9.45529,6.58118,21.3446,2.09139,2.13247,-0.0584009,1.0868,-0.163805,1.52037,3.17756,1.42301,0.399815,0.122676
3014528,1,-1.56273,-0.504675,0.0700121,-2.07693,0.0315803,1.5726,0.863297,-1.56108,-0.504159,0.0747466,-2.07369,0.0344426,1.57344,0.86604,0.143999,0.25593,1.04248,0.290935,0.452544,0.0328875,1.00289,0.135406,0.270791,1.06432,0.288473,0.439627,0.0336758,1.02927,5.29817,-9.50687,6.70813,21.2931,2.05751,2.17092,0.0258276,1.0297,-0.0978681,1.44055,3.13581,1.41953,0.39941,0.121198
3014529,1,-1.5626,-0.504418,0.0710866,-2.07664,0.032022,1.57263,0.864286,-1.56094,-0.503887,0.0758155,-2.0734,0.0348837,1.57347,0.867073,0.138905,0.259228,1.0415,0.292409,0.446291,0.0336258,0.990054,0.135962,0.271904,1.06886,0.289659,0.441047,0.0337845,1.0326,5.57588,-9.48306,6.73194,21.3446,2.06301,2.19015,0.304148,0.999682,-0.0381235,1.40127,3.09527,1.41675,0.398895,0.119314
3014530,1,-1.56247,-0.504152,0.0721587,-2.07634,0.0324491,1.57266,0.86531,-1.5608,-0.503614,0.0768889,-2.07311,0.0353262,1.5735,0.868109,0.138469,0.25832,1.04909,0.290539,0.442884,0.0334103,0.996561,0.136519,0.273017,1.07341,0.290844,0.442467,0.0338933,1.03592,5.69886,-9.55844,6.85889,21.3684,2.19301,2.2286,0.330698,0.998106,0.00876254,1.40349,3.06074,1.41475,0.398794,0.117266
