shamilmamedov/beam_handling/log/param_estimation_ICRA/ocp_rotX_30deg_0.43s_2.csv
duration, success rate, q[0], q[1], q[2], q[3], q[4], q[5], q[6],q_d[0], q_d[1], q_d[2], q_d[3], q_d[4], q_d[5], q_d[6],dq[0], dq[1], dq[2], dq[3], dq[4], dq[5], dq[6],dq_d[0], dq_d[1], dq_d[2], dq_d[3], dq_d[4], dq_d[5], dq_d[6],tau_J[0], tau_J[1], tau_J[2], tau_J[3], tau_J[4], tau_J[5], tau_J[6],tau_ext_hat_filtered[0], tau_ext_hat_filtered[1], tau_ext_hat_filtered[2], tau_ext_hat_filtered[3], tau_ext_hat_filtered[4], tau_ext_hat_filtered[5], tau_ext_hat_filtered[6]
1003258,0,-1.57038,-0.522869,0.000361281,-2.09648,-0.00137794,1.56967,0.785238,-1.57079,-0.523598,1.33478e-06,-2.0944,-3.00001e-07,1.5708,0.785397,0.000466456,-0.00084601,-0.00112728,0.000384322,-0.000321231,-0.000292806,0.00140981,0,0,0,0,0,0,0,-0.50597,-10.1139,-0.913022,21.3922,1.83138,2.57009,0.110056,-0.482203,-1.0093,-0.480258,2.86011,1.11033,0.895892,0.145383
1003259,1,-1.57038,-0.522868,0.0003649,-2.09648,-0.00137672,1.56967,0.785239,-1.57079,-0.523598,1.33478e-06,-2.0944,-3.00001e-07,1.5708,0.785397,-0.000338643,-7.19494e-06,0.000454907,0.000813027,0.000192747,4.21553e-05,0.000227794,0,0,0,0,0,0,0,-0.478199,-10.1377,-0.964597,21.3684,1.82039,2.56369,0.129282,-0.481806,-1.00954,-0.479239,2.86028,1.11036,0.895906,0.145322
1003260,1,-1.57038,-0.52287,0.000363229,-2.09648,-0.00137794,1.56968,0.785237,-1.57079,-0.523598,1.33478e-06,-2.0944,-3.00001e-07,1.5708,0.785397,0.000423851,-0.000561609,-0.00025354,-1.47941e-05,-0.000278403,-0.000209255,-0.000594123,0,0,0,0,0,0,0,-0.50597,-10.1139,-0.940793,21.3922,1.83138,2.57009,0.149424,-0.481637,-1.00774,-0.478538,2.8592,1.11035,0.895805,0.145237
1003261,1,-1.57038,-0.522868,0.00036657,-2.09648,-0.00137855,1.56968,0.785236,-1.57079,-0.523598,1.33478e-06,-2.0944,-3.00001e-07,1.5708,0.785397,-0.000923858,0.000182406,0.000944597,-0.000566675,-0.000389052,0.000335214,-0.0008708,0,0,0,0,0,0,0,-0.454395,-10.1377,-0.988401,21.416,1.83687,2.55728,0.162241,-0.481852,-1.00584,-0.478485,2.85825,1.11033,0.895722,0.145123
1003262,1,-1.57038,-0.522868,0.00036657,-2.09647,-0.00137611,1.56968,0.785236,-1.57079,-0.523598,1.33478e-06,-2.0944,-3.00001e-07,1.5708,0.785397,-5.90931e-05,0.000121604,0.000629731,0.00129265,0.000554434,0.000223476,-0.000580533,0,0,0,0,0,0,0,-0.478199,-10.1377,-0.988401,21.3446,1.8149,2.55728,0.162241,-0.482405,-1.00467,-0.479113,2.8577,1.11032,0.895669,0.145007
1003263,1,-1.57038,-0.522872,0.000363229,-2.09648,-0.00137672,1.56967,0.785232,-1.57079,-0.523598,1.33478e-06,-2.0944,-3.00001e-07,1.5708,0.785397,-0.000596207,-0.00103255,-0.000693803,-0.000808667,0.000166172,-0.000325734,-0.00086174,0,0,0,0,0,0,0,-0.454395,-10.0901,-0.940793,21.416,1.82039,2.57009,0.175059,-0.48286,-1.00324,-0.479738,2.8569,1.11031,0.895584,0.144918
1003264,1,-1.57038,-0.522868,0.000363229,-2.09647,-0.00138114,1.56968,0.785237,-1.57079,-0.523598,1.33478e-06,-2.0944,-3.00001e-07,1.5708,0.785397,0.00015934,0.000425254,-0.000462535,0.00178094,-0.00029612,0.000257562,0.000374942,0,0,0,0,0,0,0,-0.478199,-10.1377,-0.940793,21.3169,1.83138,2.55728,0.149424,-0.482567,-1.00102,-0.479275,2.85562,1.11032,0.895458,0.14488
1003265,1,-1.57038,-0.522865,0.000363229,-2.09648,-0.00138159,1.56967,0.785239,-1.57079,-0.523598,1.33478e-06,-2.0944,-3.00001e-07,1.5708,0.785397,0.000106227,0.00148993,-0.000308357,-0.00113276,6.03739e-06,-6.56509e-05,0.000758588,0,0,0,0,0,0,0,-0.478199,-10.1892,-0.940793,21.416,1.82588,2.56369,0.135691,-0.481842,-1.00058,-0.478128,2.855,1.11036,0.895368,0.144908
1003266,1,-1.57038,-0.52287,0.0003649,-2.09647,-0.00137814,1.56967,0.785238,-1.57079,-0.523598,1.33478e-06,-2.0944,-3.00001e-07,1.5708,0.785397,0.000720431,-0.000769952,0.000351241,0.00156488,0.000207475,0.000193592,0.0012178,0,0,0,0,0,0,0,-0.50597,-10.1139,-0.964597,21.3169,1.82039,2.55728,0.116465,-0.481534,-1.00231,-0.477543,2.85535,1.11038,0.895345,0.144987
1003267,1,-1.57038,-0.522866,0.000363229,-2.09648,-0.0013778,1.56967,0.785239,-1.57079,-0.523598,1.33478e-06,-2.0944,-3.00001e-07,1.5708,0.785397,-0.000726138,4.35106e-05,-0.000322651,-0.000719986,-6.51336e-05,0.000129061,0.00033715,0,0,0,0,0,0,0,-0.454395,-10.1377,-0.940793,21.3922,1.82588,2.55728,0.129282,-0.481663,-1.00307,-0.47761,2.85525,1.11037,0.895289,0.145068
1003268,1,-1.57039,-0.522868,0.000363229,-2.09648,-0.00137688,1.56968,0.785235,-1.57079,-0.523598,1.33478e-06,-2.0944,-3.00001e-07,1.5708,0.785397,-0.0010409,2.90071e-05,-0.000215101,-0.000479991,0.000160028,-0.000151318,-0.00147065,0,0,0,0,0,0,0,-0.430592,-10.1377,-0.940793,21.3922,1.82039,2.56369,0.175059,-0.481278,-1.00333,-0.477062,2.8552,1.1104,0.895258,0.145106
1003269,1,-1.57038,-0.522866,0.000361281,-2.09648,-0.00137738,1.56968,0.785236,-1.57079,-0.523598,1.33478e-06,-2.0944,-3.00001e-07,1.5708,0.785397,0.000419688,0.000668952,-0.000793015,0.000236818,-9.67651e-05,-0.000338238,-0.000743077,0,0,0,0,0,0,0,-0.478199,-10.1654,-0.913022,21.3684,1.82588,2.57009,0.16865,-0.48017,-1.00475,-0.475558,2.856,1.11047,0.895316,0.145105
1003270,1,-1.57039,-0.52287,0.0003649,-2.09648,-0.00137796,1.56967,0.785232,-1.57079,-0.523598,1.33478e-06,-2.0944,-3.00001e-07,1.5708,0.785397,-0.000833832,-0.000760458,0.000677749,-0.000398933,-0.000267961,-0.000225492,-0.000732744,0,0,0,0,0,0,0,-0.430592,-10.1139,-0.964597,21.3922,1.83138,2.57009,0.175059,-0.479116,-1.00626,-0.474164,2.85683,1.11053,0.895382,0.145115
1003271,1,-1.57038,-0.52287,0.0003649,-2.09648,-0.00137734,1.56968,0.78523,-1.57079,-0.523598,1.33478e-06,-2.0944,-3.00001e-07,1.5708,0.785397,0.000557736,-0.000506972,0.000451833,-0.000265955,2.48101e-05,0.00032439,-0.000725855,0,0,0,0,0,0,0,-0.478199,-10.1139,-0.964597,21.3922,1.82588,2.55728,0.181467,-0.478808,-1.00635,-0.473974,2.8571,1.11055,0.89542,0.145177
1003272,1,-1.57038,-0.522872,0.00036657,-2.09648,-0.00137672,1.56967,0.785236,-1.57079,-0.523598,1.33478e-06,-2.0944,-3.00001e-07,1.5708,0.785397,0.00102144,-0.000894793,0.000858034,0.000379508,0.000219991,-2.10989e-05,0.00168624,0,0,0,0,0,0,0,-0.50597,-10.0901,-0.988401,21.3684,1.82039,2.56369,0.122873,-0.47976,-1.00451,-0.475671,2.85649,1.11049,0.895396,0.145316
1003273,1,-1.57038,-0.522868,0.0003649,-2.09648,-0.00137794,1.56968,0.785235,-1.57079,-0.523598,1.33478e-06,-2.0944,-3.00001e-07,1.5708,0.785397,3.13449e-05,0.000517095,1.52107e-05,-0.000860618,-0.000260241,-1.4066e-05,0.000649439,0,0,0,0,0,0,0,-0.478199,-10.1377,-0.964597,21.416,1.83138,2.56369,0.135691,-0.48155,-1.0023,-0.478549,2.85566,1.11039,0.895349,0.14552
1003274,1,-1.57038,-0.522868,0.000361281,-2.09647,-0.00137733,1.56967,0.785238,-1.57079,-0.523598,1.33478e-06,-2.0944,-3.00001e-07,1.5708,0.785397,-0.000535915,0.00034473,-0.00119629,0.00109669,2.99568e-05,-9.37731e-06,0.00043296,0,0,0,0,0,0,0,-0.454395,-10.1377,-0.913022,21.3446,1.82588,2.56369,0.135691,-0.482496,-1.00171,-0.480169,2.85546,1.11033,0.895336,0.145731
1003275,1,-1.57038,-0.522866,0.000361281,-2.09648,-0.00137611,1.56968,0.785242,-1.57079,-0.523598,1.33478e-06,-2.0944,-3.00001e-07,1.5708,0.785397,-0.000357277,0.000879434,-0.000797524,-0.000382497,0.000426872,-0.00024361,0.00123808,0,0,0,0,0,0,0,-0.454395,-10.1654,-0.913022,21.3922,1.8149,2.57009,0.110056,-0.481652,-1.00292,-0.479135,2.85571,1.11037,0.895336,0.145902
1003276,1,-1.57038,-0.522866,0.000363229,-2.09648,-0.00137733,1.56967,0.785234,-1.57079,-0.523598,1.33478e-06,-2.0944,-3.00001e-07,1.5708,0.785397,0.000968241,0.000586289,0.000117932,-0.00081181,-0.00012232,-0.000162407,-0.000632678,0,0,0,0,0,0,0,-0.50597,-10.1654,-0.940793,21.416,1.82588,2.57009,0.149424,-0.480253,-1.00595,-0.477211,2.85685,1.11044,0.895414,0.146014
1003277,1,-1.57038,-0.522868,0.0003649,-2.09648,-0.00137733,1.56968,0.785235,-1.57079,-0.523598,1.33478e-06,-2.0944,-3.00001e-07,1.5708,0.785397,-0.000560931,-0.000258754,0.000635433,-0.00119082,-8.15464e-05,0.000129088,-0.00113386,0,0,0,0,0,0,0,-0.454395,-10.1377,-0.964597,21.4438,1.82588,2.56369,0.16865,-0.479698,-1.00996,-0.476494,2.85903,1.1105,0.895615,0.14606
1003278,1,-1.57038,-0.52287,0.000361281,-2.09648,-0.00137672,1.56967,0.785236,-1.57079,-0.523598,1.33478e-06,-2.0944,-3.00001e-07,1.5708,0.785397,0.000832471,-0.000729315,-0.000782804,-0.00079388,0.000149086,8.60584e-05,-0.000518549,0,0,0,0,0,0,0,-0.50597,-10.1139,-0.913022,21.4438,1.82039,2.56369,0.162241,-0.479733,-1.01265,-0.476644,2.86111,1.11052,0.895846,0.146064
1003279,1,-1.57038,-0.522868,0.0003649,-2.09648,-0.00137733,1.56967,0.785236,-1.57079,-0.523598,1.33478e-06,-2.0944,-3.00001e-07,1.5708,0.785397,-0.000651445,7.0602e-05,0.000684557,0.000677172,-0.00010406,-0.000179987,-0.000583059,0,0,0,0,0,0,0,-0.454395,-10.1377,-0.964597,21.3922,1.82588,2.57009,0.16865,-0.479806,-1.01308,-0.476801,2.86211,1.11053,0.895989,0.146067
1003280,1,-1.57038,-0.522866,0.000361281,-2.09648,-0.00137794,1.56968,0.785236,-1.57079,-0.523598,1.33478e-06,-2.0944,-3.00001e-07,1.5708,0.785397,0.000122516,0.000696682,-0.000750055,-0.000105364,-0.000272824,-0.000119991,-0.000151347,0,0,0,0,0,0,0,-0.478199,-10.1654,-0.913022,21.416,1.83138,2.57009,0.162241,-0.479714,-1.01271,-0.476701,2.86224,1.11051,0.896023,0.146101
1003281,1,-1.57038,-0.522866,0.0003649,-2.09648,-0.00137672,1.56967,0.785236,-1.57079,-0.523598,1.33478e-06,-2.0944,-3.00001e-07,1.5708,0.785397,8.1677e-05,0.000464455,0.000706389,0.000486569,0.000225019,0.000157365,0.000882446,0,0,0,0,0,0,0,-0.478199,-10.1654,-0.964597,21.3922,1.82039,2.56369,0.135691,-0.479532,-1.01313,-0.476445,2.86232,1.11049,0.896018,0.146184
1003282,1,-1.57038,-0.522868,0.000363229,-2.09648,-0.00137794,1.56968,0.785236,-1.57079,-0.523598,1.33478e-06,-2.0944,-3.00001e-07,1.5708,0.785397,0.000704065,-0.000339978,-8.58857e-05,0.000881192,-0.000256889,0.00010491,0.00106302,0,0,0,0,0,0,0,-0.50597,-10.1377,-0.940793,21.3684,1.83138,2.56369,0.122873,-0.4798,-1.01322,-0.476773,2.86188,1.11044,0.895949,0.146305
1003283,1,-1.57038,-0.522868,0.000363229,-2.09648,-0.00137672,1.56968,0.785236,-1.57079,-0.523598,1.33478e-06,-2.0944,-3.00001e-07,1.5708,0.785397,-0.000180237,-0.000226652,-5.72571e-05,-0.00173259,0.000235642,0.000544658,-0.000274667,0,0,0,0,0,0,0,-0.478199,-10.1377,-0.940793,21.4676,1.82039,2.55087,0.149424,-0.480363,-1.01221,-0.477451,2.86103,1.11036,0.895852,0.146425
1003284,1,-1.57038,-0.522865,0.000363229,-2.09648,-0.00137611,1.56968,0.785234,-1.57079,-0.523598,1.33478e-06,-2.0944,-3.00001e-07,1.5708,0.785397,-0.00067697,0.00105532,-3.81714e-05,0.000608179,0.000360545,-0.000348972,-0.00113255,0,0,0,0,0,0,0,-0.454395,-10.1892,-0.940793,21.3922,1.8149,2.57009,0.175059,-0.480497,-1.01204,-0.477496,2.86106,1.11034,0.895848,0.146512
1003285,1,-1.57038,-0.522868,0.0003649,-2.09648,-0.00137733,1.56967,0.785241,-1.57079,-0.523598,1.33478e-06,-2.0944,-3.00001e-07,1.5708,0.785397,0.000755112,-0.000502876,0.000531364,0.000962264,-0.000166538,-0.000707366,0.00117775,0,0,0,0,0,0,0,-0.50597,-10.1377,-0.964597,21.3684,1.82588,2.58291,0.122873,-0.480454,-1.01244,-0.47731,2.86125,1.11033,0.89584,0.14658
1003286,1,-1.57038,-0.522866,0.00036657,-2.09648,-0.00137916,1.56967,0.785233,-1.57079,-0.523598,1.33478e-06,-2.0944,-3.00001e-07,1.5708,0.785397,-0.000146205,0.000314363,0.000911055,-0.00112173,-0.000721377,0.0002405,-0.000672896,0,0,0,0,0,0,0,-0.478199,-10.1654,-0.988401,21.4438,1.84236,2.56369,0.162241,-0.481055,-1.01208,-0.47808,2.86091,1.11026,0.895784,0.146651
1003287,0.99,-1.57038,-0.522866,0.000363229,-2.09648,-0.00137733,1.56968,0.785234,-1.57079,-0.523598,1.33478e-06,-2.0944,-3.00001e-07,1.5708,0.785397,-0.000654282,0.000209575,-0.000506254,0.000458607,0.000129434,0.000635051,2.61203e-05,0,0,0,0,0,0,0,-0.454395,-10.1654,-0.940793,21.3922,1.82588,2.55087,0.149424,-0.481742,-1.01203,-0.479051,2.86098,1.11021,0.895784,0.146718
1003288,0.99,-1.57039,-0.522868,0.0003649,-2.09648,-0.00137672,1.56968,0.785235,-1.57079,-0.523598,1.33478e-06,-2.0944,-3.00001e-07,1.5708,0.785397,-0.000436188,-0.000509897,0.000219309,-0.000900688,0.00028974,0.000186008,-0.000457304,0,0,0,0,0,0,0,-0.454395,-10.1377,-0.964597,21.4438,1.82039,2.55728,0.162241,-0.481566,-1.01217,-0.478857,2.86129,1.11022,0.895811,0.146773
1003289,0.99,-1.57039,-0.522868,0.0003649,-2.09648,-0.00137855,1.56968,0.78524,-1.57079,-0.523598,1.33478e-06,-2.0944,-3.00001e-07,1.5708,0.785397,-0.000290792,-0.000339931,0.000146206,4.91554e-05,-0.000417192,-0.000350712,0.00115319,0,0,0,0,0,0,0,-0.454395,-10.1377,-0.964597,21.416,1.83687,2.57009,0.122873,-0.48091,-1.01149,-0.478062,2.8614,1.11027,0.895824,0.146833
1003290,0.99,-1.57038,-0.52287,0.000368519,-2.09648,-0.00137672,1.56968,0.78524,-1.57079,-0.523598,1.33478e-06,-2.0944,-3.00001e-07,1.5708,0.785397,-0.000193861,-0.000783433,0.0013039,3.27703e-05,0.000332224,0.00024091,0.000531436,0,0,0,0,0,0,0,-0.454395,-10.1139,-1.01617,21.416,1.82039,2.55728,0.129282,-0.480614,-1.00961,-0.477945,2.86106,1.11029,0.89579,0.146896
1003291,0.99,-1.57038,-0.52287,0.0003649,-2.09648,-0.00137672,1.56968,0.785239,-1.57079,-0.523598,1.33478e-06,-2.0944,-3.00001e-07,1.5708,0.785397,0.000427571,-0.000522289,-0.000337161,0.00113547,0.000221482,-0.000314111,0.00106637,0,0,0,0,0,0,0,-0.478199,-10.1139,-0.964597,21.3684,1.82039,2.57009,0.110056,-0.480887,-1.00619,-0.478787,2.8597,1.11026,0.895648,0.146934
1003292,0.99,-1.57038,-0.522868,0.000363229,-2.09647,-0.00137611,1.56967,0.785238,-1.57079,-0.523598,1.33478e-06,-2.0944,-3.00001e-07,1.5708,0.785397,-0.000271765,0.00020862,-0.000781586,0.00131379,0.000351106,-0.000209408,-0.000238524,0,0,0,0,0,0,0,-0.454395,-10.1377,-0.940793,21.3446,1.8149,2.57009,0.135691,-0.480853,-1.00202,-0.479164,2.85738,1.11022,0.895391,0.146911
1003293,0.99,-1.57038,-0.52287,0.000363229,-2.09648,-0.00137794,1.56968,0.785236,-1.57079,-0.523598,1.33478e-06,-2.0944,-3.00001e-07,1.5708,0.785397,0.000375636,-0.000417732,-0.000521057,-0.000237762,-0.000376281,9.77539e-05,-0.00114236,0,0,0,0,0,0,0,-0.478199,-10.1139,-0.940793,21.3922,1.83138,2.56369,0.162241,-0.479959,-0.998607,-0.478212,2.85504,1.11021,0.895122,0.146811
1003294,0.99,-1.57038,-0.522868,0.00036657,-2.09648,-0.00137672,1.56967,0.785231,-1.57079,-0.523598,1.33478e-06,-2.0944,-3.00001e-07,1.5708,0.785397,-0.000306388,0.000278324,0.000766252,0.000398304,0.000156047,6.51692e-05,-0.00147365,0,0,0,0,0,0,0,-0.454395,-10.1377,-0.988401,21.3684,1.82039,2.56369,0.181467,-0.478989,-0.996692,-0.477178,2.85364,1.1102,0.894954,0.146662
1003295,0.99,-1.57038,-0.522868,0.000363229,-2.09648,-0.00137733,1.56967,0.785235,-1.57079,-0.523598,1.33478e-06,-2.0944,-3.00001e-07,1.5708,0.785397,0.000352553,0.000185549,-0.000602789,0.000265536,-9.94193e-05,0.000280805,0.000712987,0,0,0,0,0,0,0,-0.478199,-10.1377,-0.940793,21.3684,1.82588,2.55728,0.135691,-0.478417,-0.996348,-0.476809,2.85316,1.1102,0.89488,0.146524
1003296,0.99,-1.57038,-0.522866,0.0003649,-2.09648,-0.00137733,1.56968,0.785239,-1.57079,-0.523598,1.33478e-06,-2.0944,-3.00001e-07,1.5708,0.785397,0.00144146,0.000773313,0.000154953,0.000177024,-6.62795e-05,0.000187203,0.000950043,0,0,0,0,0,0,0,-0.529774,-10.1654,-0.964597,21.3684,1.82588,2.55728,0.122873,-0.478279,-0.997622,-0.476996,2.85344,1.11018,0.894867,0.146432
1003297,0.99,-1.57038,-0.522868,0.0003649,-2.09648,-0.00137733,1.56967,0.785238,-1.57079,-0.523598,1.33478e-06,-2.0944,-3.00001e-07,1.5708,0.785397,-0.000245451,-0.000134072,0.000103302,-0.00164522,-4.41863e-05,-0.000112557,-0.000112623,0,0,0,0,0,0,0,-0.478199,-10.1377,-0.964597,21.4438,1.82588,2.56369,0.143015,-0.478688,-1.00053,-0.477845,2.85488,1.11016,0.894965,0.14637
1003298,0.99,-1.57038,-0.52287,0.000363229,-2.09648,-0.00137611,1.56968,0.785237,-1.57079,-0.523598,1.33478e-06,-2.0944,-3.00001e-07,1.5708,0.785397,0.00104279,-0.000646193,-0.000487944,0.000109611,0.000377443,-7.50378e-05,0.000670903,0,0,0,0,0,0,0,-0.529774,-10.1139,-0.940793,21.3922,1.8149,2.56369,0.122873,-0.47922,-1.00351,-0.478788,2.85696,1.11016,0.895152,0.146301
1003299,0.99,-1.57038,-0.522868,0.0003649,-2.09648,-0.00137794,1.56968,0.785237,-1.57079,-0.523598,1.33478e-06,-2.0944,-3.00001e-07,1.5708,0.785397,0.000138382,-0.000430795,0.000231516,7.30742e-05,-0.000358723,0.000424693,-0.000298717,0,0,0,0,0,0,0,-0.50597,-10.1139,-0.964597,21.3922,1.83138,2.55087,0.143015,-0.479686,-1.0045,-0.479497,2.85816,1.11015,0.895271,0.146206
1003300,0.99,-1.57038,-0.522868,0.00036657,-2.09648,-0.00137672,1.56967,0.785237,-1.57079,-0.523598,1.33478e-06,-2.0944,-3.00001e-07,1.5708,0.785397,9.22547e-05,0.000269615,0.000711156,-0.00115771,0.000167753,-0.000191589,-0.000673862,0,0,0,0,0,0,0,-0.50597,-10.1377,-0.988401,21.4438,1.82039,2.56369,0.155832,-0.480365,-1.00461,-0.480445,2.85886,1.11012,0.89533,0.146085
1003301,0.99,-1.57038,-0.522868,0.0003649,-2.09648,-0.00137611,1.56967,0.785232,-1.57079,-0.523598,1.33478e-06,-2.0944,-3.00001e-07,1.5708,0.785397,-0.00058811,0.000179743,-8.2708e-05,-0.000771807,0.000315286,-0.000127726,-0.00116132,0,0,0,0,0,0,0,-0.478199,-10.1377,-0.964597,21.4438,1.8149,2.56369,0.175059,-0.481026,-1.00604,-0.481402,2.86048,1.11011,0.895458,0.145951
1003302,0.99,-1.57038,-0.52287,0.0003649,-2.09648,-0.00137733,1.56967,0.785235,-1.57079,-0.523598,1.33478e-06,-2.0944,-3.00001e-07,1.5708,0.785397,-0.000948885,-0.000436983,-5.51387e-05,0.000691888,-0.000196711,-8.51509e-05,-0.000299494,0,0,0,0,0,0,0,-0.454395,-10.1139,-0.964597,21.3922,1.82588,2.56369,0.162241,-0.480954,-1.00772,-0.481349,2.86218,1.11014,0.895574,0.145836
1003303,0.99,-1.57039,-0.522868,0.0003649,-2.09648,-0.00137611,1.56967,0.785239,-1.57079,-0.523598,1.33478e-06,-2.0944,-3.00001e-07,1.5708,0.785397,-0.0011894,0.00026549,-3.67591e-05,-9.55531e-05,0.000275761,0.000180592,0.00173312,0,0,0,0,0,0,0,-0.430592,-10.1377,-0.964597,21.416,1.8149,2.55728,0.110056,-0.479894,-1.00813,-0.479966,2.86281,1.11018,0.895564,0.145767
1003304,0.99,-1.57038,-0.522868,0.0003649,-2.09648,-0.00137733,1.56967,0.785233,-1.57079,-0.523598,1.33478e-06,-2.0944,-3.00001e-07,1.5708,0.785397,-0.000236123,0.000176993,-2.45061e-05,-6.37021e-05,-0.000223061,-0.000116964,-0.000302651,0,0,0,0,0,0,0,-0.454395,-10.1377,-0.964597,21.416,1.82588,2.56369,0.149424,-0.478363,-1.00834,-0.478018,2.86307,1.11021,0.895494,0.145739
1003305,0.99,-1.57038,-0.522865,0.00035961,-2.09648,-0.00137992,1.56968,0.785239,-1.57079,-0.523598,1.33478e-06,-2.0944,-3.00001e-07,1.5708,0.785397,-0.000157415,0.00132442,-0.00177958,0.000514344,5.47434e-05,-7.79763e-05,0.000544218,0,0,0,0,0,0,0,-0.454395,-10.1892,-0.889218,21.3922,1.82039,2.56369,0.129282,-0.476539,-1.00974,-0.475611,2.86372,1.11025,0.895435,0.145715
1003306,0.99,-1.57038,-0.522866,0.000361281,-2.09648,-0.0013784,1.56968,0.785242,-1.57079,-0.523598,1.33478e-06,-2.0944,-3.00001e-07,1.5708,0.785397,0.00110148,0.000326136,-0.000629572,0.000342896,-0.000166955,-0.000289343,0.00131225,0,0,0,0,0,0,0,-0.50597,-10.1654,-0.913022,21.3922,1.82588,2.57009,0.103647,-0.474523,-1.0123,-0.472693,2.86463,1.11028,0.895375,0.145675
1003307,0.99,-1.57038,-0.522868,0.000361281,-2.09647,-0.00137646,1.56968,0.785233,-1.57079,-0.523598,1.33478e-06,-2.0944,-3.00001e-07,1.5708,0.785397,8.47079e-05,-0.00043219,-0.000419714,0.00134222,0.000295598,4.44635e-05,-0.00129531,0,0,0,0,0,0,0,-0.478199,-10.1377,-0.913022,21.3446,1.8149,2.56369,0.162241,-0.473121,-1.01374,-0.470438,2.86467,1.11025,0.895243,0.1456
1003308,0.99,-1.57038,-0.522865,0.0003649,-2.09648,-0.00137684,1.56968,0.785237,-1.57079,-0.523598,1.33478e-06,-2.0944,-3.00001e-07,1.5708,0.785397,-0.00050034,0.000918299,0.000926616,0.000338002,-6.38534e-06,2.96423e-05,-0.00038882,0,0,0,0,0,0,0,-0.454395,-10.1892,-0.964597,21.3684,1.82039,2.56369,0.149424,-0.472691,-1.01333,-0.469596,2.86356,1.11016,0.895026,0.145478
1003309,0.99,-1.57038,-0.522868,0.000363229,-2.09648,-0.00137676,1.56968,0.785238,-1.57079,-0.523598,1.33478e-06,-2.0944,-3.00001e-07,1.5708,0.785397,0.000223252,-0.00115104,6.09323e-05,-0.000888289,-4.25689e-06,0.000494479,-2.18545e-05,0,0,0,0,0,0,0,-0.478199,-10.1139,-0.940793,21.416,1.82039,2.55087,0.143015,-0.473067,-1.01255,-0.470073,2.86253,1.11003,0.89485,0.145341
1003310,0.99,-1.57038,-0.522869,0.000363229,-2.09648,-0.00137734,1.56968,0.785235,-1.57079,-0.523598,1.33478e-06,-2.0944,-3.00001e-07,1.5708,0.785397,0.000798448,-0.000767359,4.06215e-05,-3.53808e-05,-0.000206288,9.2294e-05,-0.00120136,0,0,0,0,0,0,0,-0.50597,-10.1139,-0.940793,21.3922,1.82588,2.55728,0.175059,-0.474077,-1.01066,-0.471483,2.86164,1.10988,0.894743,0.145214
1003311,0.99,-1.57039,-0.522866,0.000363229,-2.09648,-0.00137992,1.56967,0.785235,-1.57079,-0.523598,1.33478e-06,-2.0944,-3.00001e-07,1.5708,0.785397,-0.00123094,0.000694853,2.7081e-05,-0.00123001,6.59249e-05,-0.000413189,0.000148526,0,0,0,0,0,0,0,-0.430592,-10.1654,-0.940793,21.4438,1.82039,2.57009,0.149424,-0.475079,-1.00866,-0.472843,2.86123,1.10975,0.894706,0.145113
1003312,0.99,-1.57038,-0.522872,0.000363229,-2.09648,-0.0013784,1.56968,0.785237,-1.57079,-0.523598,1.33478e-06,-2.0944,-3.00001e-07,1.5708,0.785397,0.000292998,-0.0013,1.8054e-05,-0.000170395,-0.000159501,-3.81001e-05,0.000336376,0,0,0,0,0,0,0,-0.478199,-10.0901,-0.940793,21.416,1.82588,2.56369,0.143015,-0.475534,-1.0079,-0.473476,2.86176,1.10967,0.894759,0.145058
1003313,0.99,-1.57038,-0.522868,0.0003649,-2.09648,-0.0013783,1.56968,0.785242,-1.57079,-0.523598,1.33478e-06,-2.0944,-3.00001e-07,1.5708,0.785397,0.000844945,0.000246956,0.000568848,0.00100003,-0.000309784,-2.54001e-05,0.00144495,0,0,0,0,0,0,0,-0.50597,-10.1377,-0.964597,21.3684,1.83138,2.56369,0.110056,-0.476137,-1.00644,-0.474309,2.86178,1.10957,0.894759,0.145047
1003314,0.99,-1.57038,-0.52287,0.0003649,-2.09648,-0.00137684,1.56968,0.785239,-1.57079,-0.523598,1.33478e-06,-2.0944,-3.00001e-07,1.5708,0.785397,-0.000643128,-0.000392175,0.000379232,-0.00109655,0.000200378,-0.000254292,0.000963303,0,0,0,0,0,0,0,-0.454395,-10.1139,-0.964597,21.4438,1.82039,2.57009,0.110056,-0.477281,-1.00457,-0.475892,2.86127,1.10944,0.894691,0.145048
1003315,0.99,-1.57038,-0.522866,0.000368519,-2.09648,-0.00137676,1.56968,0.785234,-1.57079,-0.523598,1.33478e-06,-2.0944,-3.00001e-07,1.5708,0.785397,0.000777673,0.000944976,0.00145925,-8.14213e-05,0.000133585,0.00030519,-0.0017653,0,0,0,0,0,0,0,-0.50597,-10.1654,-1.01617,21.416,1.82039,2.55728,0.175059,-0.478775,-1.00443,-0.478071,2.86168,1.10932,0.894702,0.145014
1003316,0.99,-1.57038,-0.522872,0.000363229,-2.09648,-0.00138115,1.56967,0.785238,-1.57079,-0.523598,1.33478e-06,-2.0944,-3.00001e-07,1.5708,0.785397,0.000518449,-0.00113325,-0.000790406,0.000502531,-0.000317844,-0.000271258,9.93069e-06,0,0,0,0,0,0,0,-0.50597,-10.0901,-0.940793,21.3922,1.83138,2.57009,0.143015,-0.480535,-1.00504,-0.480642,2.86242,1.10921,0.894735,0.144933
1003317,0.99,-1.57038,-0.522866,0.0003649,-2.09648,-0.00137779,1.56968,0.785233,-1.57079,-0.523598,1.33478e-06,-2.0944,-3.00001e-07,1.5708,0.785397,-0.000860793,0.00100774,2.98744e-05,-0.000871405,0.000195005,5.65202e-05,-0.000705456,0,0,0,0,0,0,0,-0.454395,-10.1654,-0.964597,21.4438,1.82039,2.56369,0.162241,-0.481502,-1.00529,-0.481982,2.86283,1.10914,0.894738,0.144837
1003318,0.99,-1.57038,-0.52287,0.0003649,-2.09648,-0.0013783,1.56968,0.785232,-1.57079,-0.523598,1.33478e-06,-2.0944,-3.00001e-07,1.5708,0.785397,0.00183899,-0.000534602,1.99162e-05,0.000625489,-0.000276898,3.76801e-05,-0.00141974,0,0,0,0,0,0,0,-0.557545,-10.1139,-0.964597,21.3922,1.83138,2.56369,0.187876,-0.481735,-1.00602,-0.482189,2.86349,1.10911,0.894766,0.144756
1003319,0.99,-1.57038,-0.522868,0.000363229,-2.09648,-0.00137745,1.56968,0.785234,-1.57079,-0.523598,1.33478e-06,-2.0944,-3.00001e-07,1.5708,0.785397,-0.00118686,0.00020041,-0.000543534,0.000416993,1.8852e-05,2.51201e-05,0.000240301,0,0,0,0,0,0,0,-0.454395,-10.1377,-0.940793,21.3922,1.82588,2.56369,0.155832,-0.481863,-1.00634,-0.482137,2.86372,1.1091,0.894748,0.144723
1003320,0.98,-1.57038,-0.522868,0.000368519,-2.09648,-0.00138057,1.56968,0.78524,-1.57079,-0.523598,1.33478e-06,-2.0944,-3.00001e-07,1.5708,0.785397,0.000415186,0.000133607,0.00140088,-0.000928431,1.2568e-05,-0.000220612,0.0013809,0,0,0,0,0,0,0,-0.50597,-10.1377,-1.01617,21.4438,1.82588,2.57009,0.122873,-0.481783,-1.00639,-0.481817,2.86377,1.1091,0.894715,0.144764
1003321,0.98,-1.57038,-0.52287,0.0003649,-2.09648,-0.0013778,1.56967,0.78524,-1.57079,-0.523598,1.33478e-06,-2.0944,-3.00001e-07,1.5708,0.785397,-0.000372822,-0.000467741,-0.000272505,0.000587472,0.000211829,-0.000147075,0.000683244,0,0,0,0,0,0,0,-0.478199,-10.1139,-0.964597,21.3922,1.82039,2.57009,0.129282,-0.481935,-1.0067,-0.481965,2.86421,1.10912,0.894734,0.144863
1003322,0.98,-1.57038,-0.522868,0.000363229,-2.09648,-0.00137708,1.56967,0.785237,-1.57079,-0.523598,1.33478e-06,-2.0944,-3.00001e-07,1.5708,0.785397,-0.00080536,-0.000311827,-0.000738482,0.00094846,0.000141219,-9.80499e-05,0.000455496,0,0,0,0,0,0,0,-0.454395,-10.1139,-0.940793,21.3684,1.82039,2.57009,0.129282,-0.481605,-1.00567,-0.481453,2.86381,1.10914,0.89469,0.144958
1003323,0.98,-1.57038,-0.522866,0.000363229,-2.09648,-0.00137806,1.56968,0.78524,-1.57079,-0.523598,1.33478e-06,-2.0944,-3.00001e-07,1.5708,0.785397,-0.000536907,0.000998541,-0.000492321,-0.000481317,-0.000312755,0.000171992,0.000541023,0,0,0,0,0,0,0,-0.454395,-10.1654,-0.940793,21.416,1.83138,2.56369,0.122873,-0.480044,-1.00447,-0.479173,2.86302,1.10921,0.894615,0.145009
1003324,0.98,-1.57038,-0.522868,0.0003649,-2.09648,-0.00137676,1.56968,0.785234,-1.57079,-0.523598,1.33478e-06,-2.0944,-3.00001e-07,1.5708,0.785397,0.000198874,-0.000540732,0.000228598,0.000792746,0.000198398,0.000114662,-0.000622662,0,0,0,0,0,0,0,-0.478199,-10.1139,-0.964597,21.3684,1.82039,2.56369,0.149424,-0.478279,-1.00456,-0.476628,2.86285,1.1093,0.894601,0.145009
1003325,0.98,-1.57038,-0.522867,0.00036657,-2.09648,-0.00138115,1.56968,0.785233,-1.57079,-0.523598,1.33478e-06,-2.0944,-3.00001e-07,1.5708,0.785397,-0.000424229,0.000196324,0.00070921,-2.83148e-05,-0.000274636,0.0003138,-0.000415108,0,0,0,0,0,0,0,-0.454395,-10.1377,-0.988401,21.3922,1.83138,2.55728,0.149424,-0.477369,-1.00445,-0.475409,2.86258,1.10935,0.894589,0.144961
1003326,0.98,-1.57038,-0.522868,0.000368519,-2.09648,-0.00137901,1.56968,0.785233,-1.57079,-0.523598,1.33478e-06,-2.0944,-3.00001e-07,1.5708,0.785397,0.000923606,0.000130883,0.00112242,-1.88765e-05,-0.000183091,-2.81589e-05,-0.000276739,0,0,0,0,0,0,0,-0.50597,-10.1377,-1.01617,21.3922,1.83138,2.56369,0.149424,-0.47775,-1.00422,-0.476202,2.86237,1.10934,0.894585,0.144893
1003327,0.98,-1.57038,-0.522866,0.0003649,-2.09648,-0.00137769,1.56967,0.785232,-1.57079,-0.523598,1.33478e-06,-2.0944,-3.00001e-07,1.5708,0.785397,-3.38761e-05,0.000736869,-0.000458145,-0.000569396,8.13902e-05,-1.87726e-05,-0.00065921,0,0,0,0,0,0,0,-0.478199,-10.1654,-0.964597,21.416,1.82588,2.56369,0.162241,-0.47898,-1.0053,-0.478281,2.86303,1.10933,0.894662,0.144828
1003328,0.98,-1.57038,-0.522868,0.00036536,-2.09648,-0.00137684,1.56968,0.785238,-1.57079,-0.523598,1.33478e-06,-2.0944,-3.00001e-07,1.5708,0.785397,-2.25841e-05,-0.000158368,-0.000862242,0.000177214,0.000257711,-0.000249874,0.000543871,0,0,0,0,0,0,0,-0.478199,-10.1377,-0.940793,21.3922,1.82039,2.57009,0.135691,-0.479601,-1.00738,-0.479418,2.86433,1.10936,0.8948,0.144776
1003329,0.98,-1.57038,-0.52287,0.00036728,-2.09648,-0.00138057,1.56967,0.785236,-1.57079,-0.523598,1.33478e-06,-2.0944,-3.00001e-07,1.5708,0.785397,-1.5056e-05,-0.000662391,0.000538796,0.000674955,-3.16434e-05,7.07763e-05,0.00036258,0,0,0,0,0,0,0,-0.478199,-10.1139,-0.988401,21.3684,1.82588,2.56369,0.135691,-0.479373,-1.00816,-0.47929,2.86486,1.10942,0.894877,0.14474
1003330,0.98,-1.57038,-0.522866,0.000363466,-2.09648,-0.00137719,1.56968,0.785238,-1.57079,-0.523598,1.33478e-06,-2.0944,-3.00001e-07,1.5708,0.785397,-1.00374e-05,0.000764832,-0.000754427,-0.00131327,0.000385805,0.000284543,0.00119116,0,0,0,0,0,0,0,-0.478199,-10.1654,-0.940793,21.4438,1.8149,2.55728,0.110056,-0.47901,-1.00786,-0.478989,2.86483,1.10947,0.894912,0.144712
1003331,0.98,-1.57038,-0.522868,0.000368598,-2.09648,-0.00137708,1.56968,0.785234,-1.57079,-0.523598,1.33478e-06,-2.0944,-3.00001e-07,1.5708,0.785397,-6.69158e-06,-0.000139726,0.00126029,0.000887726,5.37531e-05,0.000189695,-0.00137603,0,0,0,0,0,0,0,-0.478199,-10.1377,-1.01617,21.3684,1.82039,2.55728,0.16865,-0.47883,-1.00846,-0.479003,2.86536,1.10952,0.894991,0.144668
1003332,0.98,-1.57038,-0.522866,0.000370676,-2.09648,-0.00137806,1.56967,0.785235,-1.57079,-0.523598,1.33478e-06,-2.0944,-3.00001e-07,1.5708,0.785397,0.000645152,0.000556463,0.000840191,-0.000521807,-0.000371066,-0.000110895,-0.000917357,0,0,0,0,0,0,0,-0.50597,-10.1654,-1.01617,21.416,1.83138,2.56369,0.16865,-0.479553,-1.00942,-0.480432,2.86596,1.10952,0.895054,0.144602
1003333,0.98,-1.57038,-0.522868,0.000365619,-2.09648,-0.00137737,1.56967,0.785237,-1.57079,-0.523598,1.33478e-06,-2.0944,-3.00001e-07,1.5708,0.785397,-0.000776324,-0.000278638,-0.000646298,-0.000347871,-4.39266e-05,0.000163429,-0.000136853,0,0,0,0,0,0,0,-0.454395,-10.1377,-0.964597,21.416,1.82588,2.55728,0.155832,-0.48061,-1.01043,-0.482425,2.86662,1.10949,0.895107,0.144545
1003334,0.97,-1.57038,-0.522868,0.00036681,-2.09648,-0.00137734,1.56968,0.785236,-1.57079,-0.523598,1.33478e-06,-2.0944,-3.00001e-07,1.5708,0.785397,3.92628e-05,-0.000742571,0.000125946,0.000324898,-2.92844e-05,-0.000128406,-0.000328594,0,0,0,0,0,0,0,-0.478199,-10.1139,-0.988401,21.3922,1.82588,2.56369,0.162241,-0.480746,-1.01049,-0.483111,2.86692,1.10951,0.895131,0.144523
1003335,0.96,-1.57038,-0.522864,0.00036498,-2.09648,-0.00138114,1.56968,0.785236,-1.57079,-0.523598,1.33478e-06,-2.0944,-3.00001e-07,1.5708,0.785397,2.61752e-05,0.00126819,-0.000472848,0.000216599,-0.000222973,-8.56043e-05,-0.000219063,0,0,0,0,0,0,0,-0.478199,-10.1892,-0.964597,21.3922,1.83138,2.56369,0.162241,-0.480248,-1.00976,-0.482871,2.86663,1.10954,0.895087,0.144547
1003336,0.96,-1.57038,-0.522868,0.000368546,-2.09648,-0.0013784,1.56967,0.785238,-1.57079,-0.523598,1.33478e-06,-2.0944,-3.00001e-07,1.5708,0.785397,1.74501e-05,-0.000360965,0.000891194,-0.00106203,5.48016e-05,-5.70695e-05,0.00131202,0,0,0,0,0,0,0,-0.478199,-10.1377,-1.01617,21.4438,1.82588,2.56369,0.122873,-0.479852,-1.01035,-0.482787,2.86694,1.10957,0.895078,0.144627
1003337,0.96,-1.57039,-0.52287,0.000364909,-2.09648,-0.00137769,1.56968,0.78524,-1.57079,-0.523598,1.33478e-06,-2.0944,-3.00001e-07,1.5708,0.785397,-0.000545179,-0.000797456,-0.000612297,0.00105522,3.65344e-05,0.000199313,0.00087468,0,0,0,0,0,0,0,-0.454395,-10.1139,-0.964597,21.3684,1.82588,2.55728,0.122873,-0.479585,-1.01055,-0.482969,2.86719,1.10961,0.895068,0.14474
1003338,0.96,-1.57038,-0.522868,0.000366573,-2.09648,-0.00137684,1.56967,0.78524,-1.57079,-0.523598,1.33478e-06,-2.0944,-3.00001e-07,1.5708,0.785397,0.00019336,2.51749e-05,0.000148614,0.000146668,0.000227807,-0.000104484,0.000345761,0,0,0,0,0,0,0,-0.478199,-10.1377,-0.988401,21.3922,1.82039,2.56369,0.129282,-0.479072,-1.0086,-0.482842,2.86616,1.10964,0.894942,0.144839
1003339,0.96,-1.57038,-0.522868,0.000364901,-2.09648,-0.00137615,1.56968,0.785238,-1.57079,-0.523598,1.33478e-06,-2.0944,-3.00001e-07,1.5708,0.785397,-0.000427906,1.67833e-05,-0.000457736,-0.000459033,0.000355322,0.000167703,-0.000515478,0,0,0,0,0,0,0,-0.454395,-10.1377,-0.964597,21.416,1.8149,2.55728,0.149424,-0.478345,-1.0066,-0.482409,2.86499,1.10967,0.894795,0.144888
1003340,0.96,-1.57038,-0.522868,0.0003649,-2.09648,-0.00137734,1.56968,0.785238,-1.57079,-0.523598,1.33478e-06,-2.0944,-3.00001e-07,1.5708,0.785397,0.000921155,1.11888e-05,-0.000305157,0.00025079,-0.00017002,-0.000125557,-0.000106293,0,0,0,0,0,0,0,-0.50597,-10.1377,-0.964597,21.3922,1.82588,2.56369,0.143015,-0.477643,-1.00577,-0.481968,2.86454,1.10971,0.89471,0.144889
1003341,0.96,-1.57038,-0.522866,0.000363229,-2.09648,-0.00137733,1.56968,0.785235,-1.57079,-0.523598,1.33478e-06,-2.0944,-3.00001e-07,1.5708,0.785397,0.000614103,0.000657073,-0.00076025,-0.000389619,-0.000113347,-8.37046e-05,-0.00125766,0,0,0,0,0,0,0,-0.50597,-10.1654,-0.940793,21.416,1.82588,2.56369,0.175059,-0.477185,-1.00606,-0.481706,2.86469,1.10974,0.894672,0.144862
1003342,0.96,-1.57038,-0.522866,0.0003649,-2.09648,-0.00138053,1.56968,0.785235,-1.57079,-0.523598,1.33478e-06,-2.0944,-3.00001e-07,1.5708,0.785397,-0.000240211,0.000438049,4.99786e-05,-0.000259746,-7.55644e-05,-5.58031e-05,-0.000838438,0,0,0,0,0,0,0,-0.478199,-10.1654,-0.964597,21.416,1.82588,2.56369,0.175059,-0.476899,-1.00792,-0.481541,2.86566,1.10977,0.894699,0.144837
1003343,0.96,-1.57038,-0.522868,0.000363229,-2.09648,-0.00138159,1.56967,0.785236,-1.57079,-0.523598,1.33478e-06,-2.0944,-3.00001e-07,1.5708,0.785397,0.000489473,-0.000357581,-0.000523493,-0.000173164,-5.03763e-05,-0.000274561,-8.42406e-05,0,0,0,0,0,0,0,-0.50597,-10.1377,-0.940793,21.416,1.82588,2.57009,0.162241,-0.476638,-1.01019,-0.481345,2.86695,1.1098,0.89476,0.144851
1003344,0.96,-1.57038,-0.522868,0.000363229,-2.09648,-0.00137936,1.56967,0.785235,-1.57079,-0.523598,1.33478e-06,-2.0944,-3.00001e-07,1.5708,0.785397,0.000326315,-0.000238388,-0.000348995,0.000441369,-0.000237035,5.43183e-05,-0.000530878,0,0,0,0,0,0,0,-0.50597,-10.1377,-0.940793,21.3922,1.83138,2.56369,0.175059,-0.476499,-1.01098,-0.481197,2.8675,1.10982,0.89477,0.144928
1003345,0.96,-1.57038,-0.522868,0.0003649,-2.09648,-0.00137841,1.56967,0.785235,-1.57079,-0.523598,1.33478e-06,-2.0944,-3.00001e-07,1.5708,0.785397,-0.000988882,-0.000158925,0.000324148,0.000294246,-0.000158023,-0.000438506,0.000595517,0,0,0,0,0,0,0,-0.454395,-10.1377,-0.964597,21.3922,1.83138,2.5765,0.149424,-0.476387,-1.01018,-0.481006,2.86708,1.10982,0.894703,0.145072
1003346,0.96,-1.57038,-0.522865,0.000363229,-2.09647,-0.00137627,1.56968,0.785239,-1.57079,-0.523598,1.33478e-06,-2.0944,-3.00001e-07,1.5708,0.785397,-0.000102443,0.00110048,-0.000340713,0.00130979,0.000505003,0.000182381,0.001143,0,0,0,0,0,0,0,-0.478199,-10.1892,-0.940793,21.3446,1.8149,2.56369,0.129282,-0.476116,-1.00929,-0.480623,2.8662,1.10983,0.89459,0.145276
1003347,0.96,-1.57039,-0.522868,0.000363229,-2.09648,-0.00137738,1.56968,0.785241,-1.57079,-0.523598,1.33478e-06,-2.0944,-3.00001e-07,1.5708,0.785397,-0.00118192,-0.000472775,-0.000227142,0.00031638,-7.02325e-05,-0.000115772,0.00123672,0,0,0,0,0,0,0,-0.430592,-10.1377,-0.940793,21.3684,1.82588,2.57009,0.116465,-0.475477,-1.0089,-0.479726,2.86509,1.10985,0.894456,0.145503
1003348,0.96,-1.57038,-0.522868,0.00036657,-2.09648,-0.00137993,1.56967,0.785236,-1.57079,-0.523598,1.33478e-06,-2.0944,-3.00001e-07,1.5708,0.785397,0.000325678,-0.000315184,0.000962196,0.00021092,0.000156629,0.000397537,0.0001124,0,0,0,0,0,0,0,-0.478199,-10.1377,-0.988401,21.3684,1.82039,2.55728,0.135691,-0.474929,-1.00789,-0.479017,2.86368,1.10987,0.894325,0.145703
1003349,0.96,-1.57038,-0.522868,0.000363229,-2.09648,-0.00137779,1.56968,0.78524,-1.57079,-0.523598,1.33478e-06,-2.0944,-3.00001e-07,1.5708,0.785397,0.000217119,-0.000210122,-0.00047216,0.000140613,0.000104419,2.76655e-05,0.00078701,0,0,0,0,0,0,0,-0.478199,-10.1377,-0.940793,21.3684,1.82039,2.56369,0.116465,-0.47516,-1.00614,-0.479459,2.86218,1.10984,0.894227,0.145841
1003350,0.96,-1.57038,-0.52287,0.000361281,-2.09648,-0.00138149,1.56967,0.785239,-1.57079,-0.523598,1.33478e-06,-2.0944,-3.00001e-07,1.5708,0.785397,0.000794359,-0.000696894,-0.000964387,-0.00046307,-0.000337288,1.84437e-05,-0.000187403,0,0,0,0,0,0,0,-0.50597,-10.1139,-0.913022,21.3922,1.83138,2.56369,0.135691,-0.475615,-1.00432,-0.480057,2.86096,1.10981,0.894183,0.145901
1003351,0.96,-1.57038,-0.52287,0.000363229,-2.09648,-0.0013779,1.56968,0.785238,-1.57079,-0.523598,1.33478e-06,-2.0944,-3.00001e-07,1.5708,0.785397,-0.000676853,-0.000464596,6.68911e-06,-0.000308713,0.000182042,-0.000225063,-0.000396203,0,0,0,0,0,0,0,-0.454395,-10.1139,-0.940793,21.3922,1.82039,2.57009,0.143015,-0.475677,-1.0025,-0.479915,2.86012,1.1098,0.894207,0.145877
1003352,0.96,-1.57039,-0.522868,0.00036657,-2.09648,-0.00137711,1.56968,0.785238,-1.57079,-0.523598,1.33478e-06,-2.0944,-3.00001e-07,1.5708,0.785397,-0.00100805,0.000247081,0.00111808,-0.000762621,0.000121361,0.000324676,-0.000264135,0,0,0,0,0,0,0,-0.430592,-10.1377,-0.988401,21.416,1.82039,2.55728,0.143015,-0.475629,-1.00154,-0.479735,2.86002,1.10981,0.894312,0.14579
1003353,0.96,-1.57039,-0.522868,0.0003649,-2.09648,-0.00137685,1.56968,0.785241,-1.57079,-0.523598,1.33478e-06,-2.0944,-3.00001e-07,1.5708,0.785397,-0.000672031,0.000164721,0.000188577,-0.000508414,8.09077e-05,-2.09084e-05,0.000807254,0,0,0,0,0,0,0,-0.430592,-10.1377,-0.964597,21.416,1.82039,2.56369,0.116465,-0.475708,-1.00241,-0.480033,2.86099,1.10984,0.894501,0.145667
1003354,0.96,-1.57038,-0.522868,0.00036657,-2.09648,-0.00137737,1.56967,0.785241,-1.57079,-0.523598,1.33478e-06,-2.0944,-3.00001e-07,1.5708,0.785397,0.000665603,0.000109814,0.00068253,-0.000338943,-0.000149512,-1.39389e-05,0.000538169,0,0,0,0,0,0,0,-0.478199,-10.1377,-0.988401,21.416,1.82588,2.56369,0.116465,-0.476092,-1.00452,-0.480932,2.8626,1.10985,0.894724,0.14552
1003355,0.96,-1.57038,-0.522868,0.00036657,-2.09648,-0.00137796,1.56967,0.785238,-1.57079,-0.523598,1.33478e-06,-2.0944,-3.00001e-07,1.5708,0.785397,-0.000113077,7.32093e-05,0.00045502,0.00033085,-0.000303125,-0.000246652,-0.000861924,0,0,0,0,0,0,0,-0.454395,-10.1377,-0.988401,21.3922,1.83138,2.57009,0.149424,-0.477021,-1.00659,-0.482661,2.86401,1.10981,0.894902,0.145335
1003356,0.96,-1.57038,-0.522868,0.000363229,-2.09648,-0.00137733,1.56968,0.785237,-1.57079,-0.523598,1.33478e-06,-2.0944,-3.00001e-07,1.5708,0.785397,0.000481428,4.88062e-05,-0.000810277,0.000220567,1.36703e-06,7.29246e-05,-0.000811975,0,0,0,0,0,0,0,-0.478199,-10.1377,-0.940793,21.3922,1.82588,2.56369,0.155832,-0.4779,-1.00794,-0.484307,2.86472,1.10975,0.894993,0.145105
1003357,0.96,-1.57038,-0.522866,0.00036657,-2.09648,-0.00137733,1.56967,0.785239,-1.57079,-0.523598,1.33478e-06,-2.0944,-3.00001e-07,1.5708,0.785397,0.000970565,3.25375e-05,0.000573439,-0.000409767,9.11351e-07,-0.000188743,0.000204669,0,0,0,0,0,0,0,-0.50597,-10.1377,-0.988401,21.416,1.82588,2.57009,0.135691,-0.478502,-1.00879,-0.485455,2.865,1.1097,0.895039,0.144861
1003358,0.96,-1.57038,-0.522868,0.000363229,-2.09648,-0.00137794,1.56968,0.785234,-1.57079,-0.523598,1.33478e-06,-2.0944,-3.00001e-07,1.5708,0.785397,-2.56995e-06,2.16917e-05,-0.000731331,0.000840446,-0.000202843,0.000111531,-0.00179633,0,0,0,0,0,0,0,-0.478199,-10.1377,-0.940793,21.3684,1.83138,2.56369,0.187876,-0.479104,-1.00927,-0.486505,2.86505,1.10965,0.895064,0.144635
1003359,0.96,-1.57039,-0.52287,0.0003649,-2.09648,-0.00138053,1.56967,0.785237,-1.57079,-0.523598,1.33478e-06,-2.0944,-3.00001e-07,1.5708,0.785397,-0.00111534,-0.000542351,6.92578e-05,-0.00120294,6.82219e-05,-0.000637723,-1.07613e-05,0,0,0,0,0,0,0,-0.430592,-10.1139,-0.964597,21.4438,1.82588,2.58291,0.155832,-0.478976,-1.00915,-0.486529,2.86483,1.10965,0.895079,0.144447
1003360,0.96,-1.57038,-0.522868,0.0003649,-2.09648,-0.0013784,1.56967,0.785241,-1.57079,-0.523598,1.33478e-06,-2.0944,-3.00001e-07,1.5708,0.785397,0.000370066,0.000195245,4.61719e-05,-0.000152347,4.54813e-05,0.000524287,0.00145089,0,0,0,0,0,0,0,-0.478199,-10.1377,-0.964597,21.416,1.82588,2.55728,0.116465,-0.478131,-1.00897,-0.485636,2.86496,1.10971,0.895154,0.144328
1003361,0.96,-1.57038,-0.522868,0.000363229,-2.09648,-0.00138027,1.56968,0.785238,-1.57079,-0.523598,1.33478e-06,-2.0944,-3.00001e-07,1.5708,0.785397,0.000246711,0.000130163,-0.000526031,-0.000101564,0.000233771,-0.000125193,0.0007299,0,0,0,0,0,0,0,-0.478199,-10.1377,-0.940793,21.416,1.82039,2.57009,0.122873,-0.477359,-1.00931,-0.484848,2.86549,1.10977,0.895272,0.144271
1003362,0.96,-1.57038,-0.522868,0.0003649,-2.09648,-0.00138171,1.56967,0.785238,-1.57079,-0.523598,1.33478e-06,-2.0944,-3.00001e-07,1.5708,0.785397,0.000164474,-0.000470037,0.000206125,0.000489102,-4.76029e-05,-8.34621e-05,1.18819e-05,0,0,0,0,0,0,0,-0.478199,-10.1139,-0.964597,21.3922,1.82588,2.57009,0.135691,-0.47681,-1.00934,-0.484287,2.86567,1.10981,0.895348,0.144225
1003363,0.96,-1.57038,-0.522867,0.0003649,-2.09648,-0.00137879,1.56968,0.785239,-1.57079,-0.523598,1.33478e-06,-2.0944,-3.00001e-07,1.5708,0.785397,0.000759262,-0.000313358,0.000137417,-0.000230744,-3.17353e-05,0.000181718,7.92124e-06,0,0,0,0,0,0,0,-0.50597,-10.1139,-0.964597,21.416,1.82588,2.56369,0.135691,-0.47673,-1.00819,-0.484342,2.86516,1.10982,0.895361,0.144157
1003364,0.96,-1.57038,-0.522867,0.000361281,-2.09648,-0.00137843,1.56968,0.785237,-1.57079,-0.523598,1.33478e-06,-2.0944,-3.00001e-07,1.5708,0.785397,-0.00070025,-0.000208905,-0.00111481,-0.000153829,-0.000224607,0.000121145,-0.000740704,0,0,0,0,0,0,0,-0.454395,-10.1139,-0.913022,21.416,1.83138,2.56369,0.155832,-0.476663,-1.00655,-0.484332,2.86448,1.10982,0.895365,0.14406
1003365,0.96,-1.57038,-0.522867,0.000363229,-2.09648,-0.00137749,1.56967,0.785234,-1.57079,-0.523598,1.33478e-06,-2.0944,-3.00001e-07,1.5708,0.785397,-0.000466834,0.000417542,-9.3596e-05,0.000454259,5.37123e-05,-0.000393955,-0.00144324,0,0,0,0,0,0,0,-0.454395,-10.1377,-0.940793,21.3922,1.82588,2.5765,0.181467,-0.475703,-1.0055,-0.482981,2.86411,1.10988,0.89539,0.143945
1003366,0.96,-1.57039,-0.52287,0.00036657,-2.09648,-0.00137738,1.56968,0.785236,-1.57079,-0.523598,1.33478e-06,-2.0944,-3.00001e-07,1.5708,0.785397,-0.000311222,-0.000278451,0.00105123,0.000302839,3.58082e-05,0.000212082,-0.000250082,0,0,0,0,0,0,0,-0.454395,-10.1139,-0.988401,21.3922,1.82588,2.56369,0.162241,-0.474654,-1.00495,-0.481578,2.8638,1.10995,0.895407,0.143853
1003367,0.96,-1.57038,-0.522866,0.00037019,-2.09648,-0.00137674,1.56967,0.785239,-1.57079,-0.523598,1.33478e-06,-2.0944,-3.00001e-07,1.5708,0.785397,0.00034933,0.00102079,0.00190724,0.000758705,0.000227323,0.000141388,0.000545355,0,0,0,0,0,0,0,-0.478199,-10.1654,-1.03998,21.3684,1.82039,2.56369,0.143015,-0.475031,-1.00477,-0.482427,2.86345,1.10995,0.895403,0.143834
1003368,0.96,-1.57038,-0.522868,0.00036657,-2.09648,-0.00137795,1.56968,0.785237,-1.57079,-0.523598,1.33478e-06,-2.0944,-3.00001e-07,1.5708,0.785397,0.000232887,3.09141e-05,6.50699e-05,0.000505803,-0.000255353,9.42585e-05,-0.000111148,0,0,0,0,0,0,0,-0.478199,-10.1377,-0.988401,21.3684,1.83138,2.56369,0.155832,-0.476726,-1.00531,-0.485317,2.86321,1.10989,0.895387,0.14389
1003369,0.96,-1.57038,-0.522868,0.0003649,-2.09648,-0.00138053,1.56968,0.785239,-1.57079,-0.523598,1.33478e-06,-2.0944,-3.00001e-07,1.5708,0.785397,0.000804871,2.06094e-05,-0.000513432,-0.00021961,3.32154e-05,-0.00017452,0.000671887,0,0,0,0,0,0,0,-0.50597,-10.1377,-0.964597,21.3922,1.82588,2.57009,0.135691,-0.478297,-1.00598,-0.487954,2.86304,1.10982,0.895384,0.143989
1003370,0.96,-1.57038,-0.522866,0.000363229,-2.09648,-0.00138098,1.56968,0.785242,-1.57079,-0.523597,1.3346e-06,-2.09439,-2.99338e-07,1.57079,0.785397,0.000536581,1.37396e-05,-0.0008991,-0.000146407,0.000225594,0.000358371,0.00139736,-2.10606e-07,0.001875,-1.71207e-07,0.00278203,6.62573e-07,-0.005,3.16085e-07,-0.50597,-10.1377,-0.940793,21.3922,1.82039,2.55728,0.110056,-0.478941,-1.00649,-0.489019,2.8631,1.10981,0.895428,0.144104
1003371,0.96,-1.57038,-0.522871,0.000363229,-2.09648,-0.00137875,1.56968,0.785239,-1.57079,-0.523593,1.33426e-06,-2.09439,-2.98013e-07,1.57078,0.785397,-0.000291893,-0.00110446,-0.0005994,0.000459208,-5.30544e-05,1.55522e-06,-1.78622e-05,-4.21212e-07,0.00375,-3.42414e-07,0.00556405,1.32515e-06,-0.01,6.3217e-07,-0.478199,-10.0901,-0.940793,21.3684,1.82588,2.56369,0.135691,-0.478601,-1.006,-0.488462,2.86285,1.10985,0.895468,0.144198
1003372,0.96,-1.57038,-0.522868,0.000363229,-2.09648,-0.0013778,1.56967,0.785236,-1.57079,-0.523587,1.33375e-06,-2.09438,-2.96025e-07,1.57077,0.785397,-0.000194595,0.000377314,-0.0003996,0.000306138,-3.53696e-05,1.03681e-06,-0.00123261,-6.31817e-07,0.005625,-5.13621e-07,0.00834608,1.98772e-06,-0.015,9.48255e-07,-0.478199,-10.1377,-0.940793,21.3684,1.82588,2.56369,0.16865,-0.477475,-1.00407,-0.486705,2.86182,1.10991,0.895444,0.144235
1003373,0.96,-1.57038,-0.522871,0.0003649,-2.09648,-0.00137871,1.56967,0.785232,-1.57079,-0.52358,1.33306e-06,-2.09437,-2.93375e-07,1.57075,0.785397,-0.000686542,0.00104079,0.000290412,-0.00035272,-0.000430481,0.000475409,-0.000821741,-8.42423e-07,0.0075,-6.84827e-07,0.0111281,2.65029e-06,-0.02,1.26434e-06,-0.454395,-10.0385,-0.964597,21.3922,1.83687,2.55087,0.16865,-0.47612,-1.00345,-0.484662,2.86133,1.11,0.895449,0.144233
1003374,0.96,-1.57038,-0.522873,0.000362769,-2.09648,-0.0013786,1.56968,0.785235,-1.57079,-0.52357,1.33221e-06,-2.09435,-2.90062e-07,1.57072,0.785397,9.91173e-05,-0.00063672,0.000193608,-0.00109407,-0.000286987,0.00292789,-0.000547827,-1.05303e-06,0.009375,-8.56034e-07,0.0139101,3.31286e-06,-0.025,1.58042e-06,-0.478199,-9.83615,-0.964597,21.5668,1.83687,2.48037,0.16865,-0.475108,-1.00501,-0.483212,2.86214,1.11011,0.895528,0.144241
1003375,0.96,-1.57038,-0.522869,0.00036373,-2.09648,-0.0013805,1.56968,0.785237,-1.57079,-0.523559,1.33118e-06,-2.09434,-2.86087e-07,1.57069,0.785397,6.60782e-05,0.0026448,0.000685884,-4.57706e-05,-0.000835585,-0.000202492,0.000346859,-1.26363e-06,0.01125,-1.02724e-06,0.0166922,3.97544e-06,-0.03,1.89651e-06,-0.478199,-9.68539,-0.988401,21.6898,1.85426,2.40896,0.149424,-0.474847,-1.00818,-0.482912,2.86413,1.11023,0.89562,0.144299
1003376,0.96,-1.57038,-0.522866,0.000363493,-2.09647,-0.00137856,1.56968,0.785241,-1.57079,-0.523546,1.32998e-06,-2.09432,-2.81449e-07,1.57066,0.785397,0.00125048,0.00155759,0.000457256,0.00307455,8.72035e-05,0.00065186,0.00121458,-1.47424e-06,0.013125,-1.19845e-06,0.0194742,4.63801e-06,-0.035,2.21259e-06,-0.529774,-9.50687,-0.988401,21.7176,1.83687,2.37692,0.122873,-0.475604,-1.01297,-0.484039,2.86673,1.11033,0.895519,0.144417
1003377,0.96,-1.57038,-0.522853,0.000363874,-2.09646,-0.00138236,1.56967,0.785242,-1.5708,-0.523531,1.32861e-06,-2.0943,-2.76148e-07,1.57062,0.785397,0.00027684,0.00649128,-0.000251975,0.00406482,-0.000145315,-0.00361663,0.00128444,-1.68485e-06,0.015,-1.36965e-06,0.0222562,5.30058e-06,-0.04,2.52868e-06,-0.50597,-9.43149,-0.964597,21.789,1.84236,2.35128,0.110056,-0.476981,-1.01952,-0.485885,2.86931,1.1104,0.894958,0.144567
1003378,0.96,-1.57038,-0.522838,0.000362887,-2.09645,-0.00138094,1.56966,0.78524,-1.5708,-0.523514,1.32707e-06,-2.09427,-2.70185e-07,1.57057,0.785397,0.00018456,0.00808386,-0.000724795,0.0074207,-0.000334236,-0.00743795,0.00109365,-1.89545e-06,0.016875,-1.54086e-06,0.0250382,5.96315e-06,-0.045,2.84476e-06,-0.50597,-9.40768,-0.940793,21.8882,1.84877,2.34487,0.103647,-0.477801,-1.03087,-0.486682,2.87316,1.11048,0.89391,0.144698
1003379,0.96,-1.57038,-0.522826,0.000366456,-2.09644,-0.00138023,1.56966,0.785235,-1.5708,-0.523495,1.32536e-06,-2.09424,-2.63559e-07,1.57052,0.785397,-0.000526573,0.00850119,0.000630427,0.00755158,-0.000222824,-0.010027,-0.0016784,-2.10606e-06,0.01875,-1.71207e-06,0.0278203,6.62573e-06,-0.05,3.16085e-06,-0.478199,-9.35611,-0.988401,21.9635,1.84877,2.33206,0.16865,-0.477734,-1.04704,-0.486059,2.87876,1.11061,0.892374,0.144761
1003380,0.96,-1.57038,-0.522816,0.000364402,-2.09643,-0.00138125,1.56965,0.785235,-1.5708,-0.523473,1.32335e-06,-2.09421,-2.55903e-07,1.57046,0.785397,-0.000351049,0.00700545,0.000420285,0.00740679,0.000495711,-0.0105094,-0.00111893,-2.47193e-06,0.0224584,-2.0095e-06,0.0326533,7.65621e-06,-0.06,3.65245e-06,-0.478199,-9.22916,-0.988401,22.0389,1.83138,2.28079,0.16865,-0.477483,-1.06315,-0.485226,2.8852,1.11074,0.890311,0.144749
1003381,0.96,-1.57038,-0.522808,0.000363717,-2.09642,-0.00138098,1.56964,0.785235,-1.5708,-0.523447,1.32104e-06,-2.09417,-2.47216e-07,1.57039,0.785397,-0.000234033,0.0053714,0.00028019,0.00919197,-0.000313786,-0.0106865,-0.000983313,-2.83781e-06,0.0261668,-2.30692e-06,0.0374864,8.68669e-06,-0.07,4.14405e-06,-0.478199,-9.0784,-0.988401,22.1619,1.84877,2.22219,0.175059,-0.47736,-1.07299,-0.484699,2.8908,1.11086,0.887598,0.144707
1003382,0.96,-1.57038,-0.5228,0.000363949,-2.0964,-0.00138024,1.56963,0.785234,-1.5708,-0.523417,1.31844e-06,-2.09413,-2.37499e-07,1.57031,0.785397,-0.000156022,0.00733609,-0.000370019,0.00951505,-0.000209191,-0.00625069,-0.00113026,-3.20368e-06,0.0298752,-2.60435e-06,0.0423194,9.71718e-06,-0.08,4.63565e-06,-0.478199,-8.92368,-0.964597,22.2135,1.84877,2.16452,0.187876,-0.477118,-1.07363,-0.484048,2.89433,1.11095,0.884015,0.144687
1003383,0.96,-1.57038,-0.522787,0.000366253,-2.09639,-0.00138,1.56962,0.785239,-1.5708,-0.523383,1.31554e-06,-2.09408,-2.26752e-07,1.57022,0.785397,-0.000660826,0.0115684,0.000310133,0.00912338,-0.00013946,-0.0113162,0.00117927,-3.56955e-06,0.0335836,-2.90178e-06,0.0471525,1.07477e-05,-0.09,5.12725e-06,-0.454395,-8.74911,-0.988401,22.2889,1.84877,2.0812,0.135691,-0.476513,-1.07144,-0.482914,2.89897,1.11109,0.879672,0.144737
1003384,0.96,-1.57038,-0.522772,0.000364334,-2.09637,-0.00138175,1.5696,0.785241,-1.5708,-0.523346,1.31234e-06,-2.09403,-2.14973e-07,1.57012,0.785397,0.000116261,0.0124584,0.000206755,0.0125175,-0.000703325,-0.0100067,0.0012609,-3.93543e-06,0.037292,-3.19921e-06,0.0519856,1.17781e-05,-0.1,5.61884e-06,-0.478199,-8.47141,-0.988401,22.3365,1.86525,1.98416,0.122873,-0.475796,-1.07335,-0.481707,2.90804,1.11131,0.874741,0.144878
1003385,0.96,-1.57039,-0.522749,0.000363694,-2.09634,-0.00138365,1.56958,0.785237,-1.5708,-0.523305,1.30884e-06,-2.09397,-2.02165e-07,1.57001,0.785397,-0.000479305,0.0139999,0.000137837,0.0141279,-0.00111314,-0.0179727,0.000603241,-4.3013e-06,0.0410004,-3.49664e-06,0.0568186,1.28086e-05,-0.11,6.11044e-06,-0.454395,-8.2175,-0.988401,22.4118,1.88265,1.8688,0.129282,-0.475197,-1.07816,-0.480752,2.92047,1.11157,0.86903,0.145068
1003386,0.96,-1.57038,-0.522721,0.00036543,-2.09631,-0.00138486,1.56954,0.785236,-1.5708,-0.52326,1.30505e-06,-2.09391,-1.88326e-07,1.56989,0.785397,0.0014437,0.0183643,0.000741505,0.0215365,-0.001149,-0.0258114,0.00063952,-4.66717e-06,0.0447088,-3.79407e-06,0.0616517,1.38391e-05,-0.12,6.60204e-06,-0.529774,-7.96359,-1.01617,22.3603,1.89363,1.79739,0.122873,-0.475059,-1.08352,-0.480463,2.9342,1.1118,0.862267,0.145255
1003387,0.97,-1.57038,-0.522684,0.000365359,-2.09627,-0.00138867,1.56949,0.785237,-1.5708,-0.523212,1.30096e-06,-2.09385,-1.73456e-07,1.56976,0.785397,0.000405655,0.0229449,0.000494337,0.0295788,-0.000969448,-0.0319277,0.000663705,-5.03305e-06,0.0484171,-4.09149e-06,0.0664847,1.48696e-05,-0.13,7.09364e-06,-0.50597,-7.76126,-1.01617,22.3365,1.89913,1.7333,0.116465,-0.475831,-1.0893,-0.481362,2.94691,1.11192,0.854055,0.145413
1003388,0.97,-1.57038,-0.522639,0.000361716,-2.09623,-0.00138973,1.56944,0.785239,-1.5708,-0.52316,1.29657e-06,-2.09377,-1.57556e-07,1.56962,0.785397,-0.000935988,0.0281888,-0.000876868,0.0322185,-0.000646299,-0.0427193,-3.22476e-05,-5.39892e-06,0.0521255,-4.38892e-06,0.0713178,1.59001e-05,-0.14,7.58524e-06,-0.454395,-7.63828,-0.964597,22.3127,1.89913,1.71408,0.129282,-0.476265,-1.09749,-0.481632,2.95808,1.11199,0.844196,0.145517
1003389,0.97,-1.57038,-0.522595,0.000365327,-2.09618,-0.0013875,1.56937,0.785239,-1.5708,-0.523104,1.29188e-06,-2.0937,-1.40626e-07,1.56947,0.785397,0.000582433,0.0337796,0.000621847,0.0366398,-0.000634316,-0.051575,-0.000258857,-5.7648e-06,0.0558339,-4.68635e-06,0.0761509,1.69306e-05,-0.15,8.07684e-06,-0.50597,-7.45975,-1.01617,22.3127,1.90462,1.72048,0.135691,-0.475463,-1.11288,-0.480031,2.97108,1.11214,0.833032,0.145564
1003390,0.97,-1.57039,-0.522549,0.000363376,-2.09613,-0.00138472,1.56929,0.785241,-1.5708,-0.523043,1.28681e-06,-2.09362,-1.22476e-07,1.56931,0.785397,-0.000818137,0.0354196,-0.000235049,0.0413528,0.000187474,-0.0630607,0.000539505,-6.24168e-06,0.0608613,-5.07402e-06,0.0824503,1.81493e-05,-0.165,8.65826e-06,-0.454395,-7.30899,-0.988401,22.2611,1.88814,1.7333,0.116465,-0.474215,-1.13586,-0.477741,2.9874,1.11237,0.820863,0.14557
1003391,0.97,-1.57038,-0.522508,0.000365324,-2.09608,-0.00138624,1.5692,0.785242,-1.5708,-0.522977,1.28134e-06,-2.09353,-1.03108e-07,1.56913,0.785397,0.000661001,0.0379191,0.000492915,0.0447746,-0.000485369,-0.0760399,0.000597029,-6.71856e-06,0.0658888,-5.46169e-06,0.0887498,1.93681e-05,-0.18,9.23969e-06,-0.50597,-7.07889,-1.01617,22.3365,1.90462,1.74612,0.110056,-0.47293,-1.16054,-0.47539,3.00521,1.11264,0.807821,0.145544
1003392,0.97,-1.57039,-0.522464,0.000366994,-2.09602,-0.00138613,1.56909,0.785244,-1.5708,-0.522906,1.2755e-06,-2.09343,-8.25212e-08,1.56893,0.785397,-0.000208946,0.03987,0.000885422,0.0488261,-0.000323579,-0.0865634,0.000872737,-7.19545e-06,0.0709162,-5.84937e-06,0.0950493,2.05869e-05,-0.195,9.82111e-06,-0.478199,-6.85275,-1.03998,22.3365,1.90462,1.77816,0.0972387,-0.472089,-1.18168,-0.473714,3.02315,1.1129,0.79412,0.145478
1003393,0.97,-1.57038,-0.522419,0.000363374,-2.09595,-0.0013861,1.56897,0.785244,-1.5708,-0.52283,1.26926e-06,-2.09333,-6.07155e-08,1.56872,0.785397,0.00106713,0.043537,-0.000616145,0.0566114,-0.00021572,-0.0979652,0.000581825,-7.67233e-06,0.0759436,-6.23704e-06,0.101349,2.18057e-05,-0.21,1.04025e-05,-0.529774,-6.57504,-0.988401,22.2889,1.90462,1.77816,0.0972387,-0.471727,-1.19618,-0.472714,3.03963,1.11313,0.779845,0.14535
1003394,0.97,-1.57039,-0.522364,0.000366994,-2.09587,-0.00138928,1.56883,0.785246,-1.5708,-0.522749,1.26263e-06,-2.09322,-3.76911e-08,1.5685,0.785397,-0.000495007,0.0468563,0.000795663,0.0613344,-0.000143813,-0.110351,0.00133732,-8.14922e-06,0.080971,-6.62471e-06,0.107648,2.30244e-05,-0.225,1.0984e-05,-0.478199,-6.32114,-1.03998,22.2889,1.90462,1.75894,0.071604,-0.471293,-1.20268,-0.471519,3.05299,1.11331,0.765016,0.145135
1003395,0.97,-1.57038,-0.522302,0.000366534,-2.0958,-0.00138908,1.56868,0.785242,-1.5708,-0.522663,1.25562e-06,-2.09311,-1.34479e-08,1.56826,0.785397,0.000876421,0.0526514,-0.00206316,0.068082,-0.000740135,-0.12384,-0.000532608,-8.6261e-06,0.0859984,-7.01238e-06,0.113948,2.42432e-05,-0.24,1.15654e-05,-0.529774,-6.0712,-1.06378,22.2889,1.92201,1.72689,0.110056,-0.47024,-1.20341,-0.469292,3.06389,1.11347,0.749846,0.144813
1003396,0.97,-1.57039,-0.522229,0.000362483,-2.0957,-0.00139156,1.56851,0.785239,-1.5708,-0.522572,1.24822e-06,-2.09299,1.2014e-08,1.568,0.785397,-0.000622145,0.0625064,-0.00275159,0.0765689,-0.000493424,-0.142447,-0.00130451,-9.10299e-06,0.0910258,-7.40005e-06,0.120247,2.5462e-05,-0.255,1.21468e-05,-0.478199,-5.91647,-1.01617,22.1381,1.92201,1.67471,0.135691,-0.46733,-1.20541,-0.464063,3.07498,1.11372,0.73465,0.144384
1003397,0.97,-1.57038,-0.522148,0.000363916,-2.0956,-0.0013892,1.56832,0.785239,-1.5708,-0.522476,1.24043e-06,-2.09286,3.86948e-08,1.56773,0.785397,0.000791662,0.0709003,-0.00147449,0.0840079,-0.000328949,-0.152638,-0.000869672,-9.57987e-06,0.0960532,-7.78772e-06,0.126547,2.66807e-05,-0.27,1.27282e-05,-0.529774,-5.81729,-1.03998,22.0627,1.92201,1.63626,0.135691,-0.462564,-1.21756,-0.455836,3.08919,1.11408,0.719633,0.1439
1003398,0.97,-1.57038,-0.522069,0.000362167,-2.0955,-0.00139343,1.56812,0.785239,-1.5708,-0.522375,1.23226e-06,-2.09273,6.65943e-08,1.56745,0.785397,0.000527775,0.0747605,-0.00168748,0.0888054,-0.000829651,-0.165646,-0.000579781,-1.00568e-05,0.101081,-8.1754e-06,0.132846,2.78995e-05,-0.285,1.33097e-05,-0.529774,-5.61496,-1.01617,22.0151,1.93849,1.61062,0.135691,-0.457681,-1.24184,-0.447301,3.10732,1.11451,0.704782,0.143435
1003399,0.97,-1.57038,-0.52198,0.000360192,-2.09539,-0.00138982,1.5679,0.78524,-1.5708,-0.522269,1.22369e-06,-2.09259,9.57126e-08,1.56715,0.785397,-0.000204962,0.075636,-0.00188536,0.0954431,-0.0001462,-0.181195,-0.000149162,-1.05336e-05,0.106108,-8.56307e-06,0.139146,2.91183e-05,-0.3,1.38911e-05,-0.50597,-5.4642,-0.988401,21.9635,1.92751,1.61062,0.129282,-0.453269,-1.26947,-0.439417,3.1265,1.11498,0.689915,0.143025
1003400,0.97,-1.57038,-0.521888,0.000361672,-2.09528,-0.00138967,1.56766,0.785242,-1.5708,-0.522157,1.21468e-06,-2.09244,1.26128e-07,1.56683,0.785397,-0.000136641,0.082835,-0.000133545,0.102225,0.000750244,-0.202263,0.000612636,-1.10861e-05,0.112043,-9.01221e-06,0.146444,3.04159e-05,-0.318709,1.45101e-05,-0.50597,-5.33725,-1.03998,21.9873,1.90462,1.61062,0.110056,-0.449398,-1.29181,-0.43243,3.14367,1.11544,0.674938,0.142681
1003401,0.97,-1.57039,-0.521802,0.000360959,-2.09515,-0.00139047,1.5674,0.785243,-1.5708,-0.522039,1.20522e-06,-2.09229,1.57842e-07,1.56649,0.785397,-0.000740708,0.082981,-0.000151331,0.111541,0.000500163,-0.21705,0.000645783,-1.16387e-05,0.117978,-9.46136e-06,0.153742,3.17134e-05,-0.337417,1.51291e-05,-0.478199,-5.10715,-1.03998,21.9635,1.90462,1.5978,0.103647,-0.44674,-1.30479,-0.42746,3.15679,1.11578,0.659787,0.142397
1003402,0.97,-1.57038,-0.521705,0.000366471,-2.09502,-0.00138632,1.56713,0.785242,-1.5708,-0.521915,1.19531e-06,-2.09213,1.90853e-07,1.56613,0.785397,0.000155808,0.0861461,0.00105881,0.118922,0.000740343,-0.237085,0.000193163,-1.21912e-05,0.123913,-9.9105e-06,0.161041,3.3011e-05,-0.356126,1.57481e-05,-0.50597,-5.00797,-1.09155,21.9397,1.89363,1.61062,0.110056,-0.445691,-1.30188,-0.42514,3.1623,1.11589,0.644221,0.142141
1003403,0.97,-1.57039,-0.521606,0.000363022,-2.09489,-0.00138341,1.56684,0.785242,-1.5708,-0.521785,1.18495e-06,-2.09196,2.25161e-07,1.56576,0.785397,-0.000545741,0.092901,2.12175e-05,0.125114,0.00113782,-0.253594,0.00107821,-1.27437e-05,0.129848,-1.03596e-05,0.168339,3.43086e-05,-0.374835,1.63671e-05,-0.478199,-4.82944,-1.06378,21.8882,1.87624,1.62344,0.0844213,-0.446064,-1.28311,-0.425158,3.16048,1.11576,0.628314,0.141885
1003404,0.97,-1.57038,-0.521494,0.000364471,-2.09474,-0.00138695,1.56652,0.785244,-1.5708,-0.521649,1.17414e-06,-2.09179,2.60768e-07,1.56537,0.785397,0.00204902,0.0992178,0.000637476,0.132074,-0.000529972,-0.273844,0.000718807,-1.32962e-05,0.135783,-1.08088e-05,0.175638,3.56062e-05,-0.393543,1.69862e-05,-0.581349,-4.70645,-1.09155,21.8405,1.91103,1.5914,0.0844213,-0.447502,-1.25798,-0.426818,3.15635,1.11544,0.612524,0.141617
1003405,0.97,-1.57038,-0.521381,0.000364305,-2.09458,-0.00138746,1.5662,0.785246,-1.5708,-0.521508,1.16288e-06,-2.0916,2.97671e-07,1.56495,0.785397,0.000809204,0.101777,0.000405272,0.138929,-0.000556765,-0.292671,0.000953923,-1.38487e-05,0.141719,-1.12579e-05,0.182936,3.69037e-05,-0.412252,1.76052e-05,-0.557545,-4.50412,-1.09155,21.7414,1.91652,1.52731,0.071604,-0.45007,-1.23112,-0.430027,3.15245,1.11499,0.597122,0.141316
1003406,0.97,-1.57038,-0.521256,0.000369539,-2.09442,-0.00139118,1.56584,0.785248,-1.5708,-0.52136,1.15118e-06,-2.09141,3.35873e-07,1.56452,0.785397,-0.000110145,0.111847,0.00201863,0.146108,-0.00162579,-0.307628,0.00111067,-1.44012e-05,0.147654,-1.17071e-05,0.190234,3.82013e-05,-0.430961,1.82242e-05,-0.529774,-4.40097,-1.16693,21.6898,1.9504,1.48794,0.0587866,-0.453349,-1.20432,-0.434314,3.14954,1.11448,0.58213,0.140955
1003407,0.97,-1.57038,-0.521123,0.00036952,-2.09424,-0.00139498,1.56546,0.785243,-1.5708,-0.521206,1.13902e-06,-2.09121,3.75372e-07,1.56407,0.785397,0.001133,0.113887,0.00133467,0.155488,-0.00128731,-0.334387,-0.000921068,-1.49537e-05,0.153589,-1.21562e-05,0.197533,3.94989e-05,-0.449669,1.88432e-05,-0.581349,-4.30179,-1.16693,21.5906,1.95589,1.46871,0.103647,-0.456971,-1.17992,-0.439309,3.14804,1.11397,0.567471,0.140509
1003408,0.97,-1.57038,-0.520985,0.000365895,-2.09406,-0.00139604,1.56506,0.785242,-1.5708,-0.521047,1.12642e-06,-2.09101,4.16168e-07,1.5636,0.785397,0.000755331,0.119474,-0.000324963,0.166822,-0.000858206,-0.35035,-0.000851404,-1.55062e-05,0.159524,-1.26054e-05,0.204831,4.07965e-05,-0.468378,1.94622e-05,-0.581349,-4.25021,-1.11535,21.4438,1.95589,1.47512,0.110056,-0.460399,-1.15313,-0.444027,3.14444,1.11346,0.552788,0.139965
1003409,0.97,-1.57038,-0.520844,0.000365893,-2.09387,-0.00139517,1.56464,0.785244,-1.5708,-0.520881,1.11336e-06,-2.0908,4.58262e-07,1.56312,0.785397,-0.000702872,0.125144,-0.000222879,0.17382,-0.000165236,-0.370597,-9.28851e-05,-1.60587e-05,0.165459,-1.30545e-05,0.21213,4.2094e-05,-0.487086,2.00812e-05,-0.529774,-4.12326,-1.11535,21.3446,1.9449,1.47512,0.0972387,-0.46221,-1.1201,-0.44625,3.13568,1.11301,0.537739,0.139346
1003410,0.97,-1.57038,-0.5207,0.000364222,-2.09367,-0.00138955,1.56421,0.785247,-1.5708,-0.520709,1.09982e-06,-2.09058,5.01666e-07,1.56261,0.785397,0.000737845,0.127748,-0.000710076,0.183192,0.000737553,-0.391362,0.00112487,-1.66585e-05,0.171973,-1.35421e-05,0.220053,4.34037e-05,-0.507076,2.0706e-05,-0.581349,-3.94473,-1.09155,21.2931,1.92201,1.47512,0.0651953,-0.462081,-1.08089,-0.445545,3.12189,1.11265,0.522338,0.138693
1003411,0.97,-1.57038,-0.52055,0.000364222,-2.09347,-0.00138476,1.56375,0.785248,-1.5708,-0.520531,1.08579e-06,-2.09035,5.46379e-07,1.56208,0.785397,-0.00071453,0.134575,-0.000476892,0.190075,0.00174631,-0.411647,0.000987273,-1.72583e-05,0.178487,-1.40298e-05,0.227977,4.47133e-05,-0.527066,2.13308e-05,-0.529774,-3.82175,-1.09155,21.3169,1.88814,1.47512,0.0587866,-0.46076,-1.03519,-0.442988,3.1036,1.11235,0.506737,0.138013
1003412,0.97,-1.57038,-0.520398,0.000365892,-2.09326,-0.00137933,1.56327,0.785246,-1.5708,-0.520346,1.07127e-06,-2.09011,5.92402e-07,1.56154,0.785397,0.000173261,0.140386,0.000236252,0.196753,0.00285963,-0.431529,-5.38947e-05,-1.78582e-05,0.185,-1.45174e-05,0.2359,4.60229e-05,-0.547056,2.19556e-05,-0.557545,-3.59164,-1.11535,21.2693,1.84236,1.48794,0.0780126,-0.458977,-0.987273,-0.439713,3.08374,1.11207,0.491248,0.137288
1003413,0.97,-1.57038,-0.520234,0.000363761,-2.09304,-0.00138054,1.56277,0.785244,-1.5708,-0.520154,1.05627e-06,-2.08987,6.39735e-07,1.56097,0.785397,0.000115507,0.144624,0.000155528,0.208916,0.00146561,-0.452786,-0.000510648,-1.8458e-05,0.191514,-1.5005e-05,0.243824,4.73326e-05,-0.567046,2.25803e-05,-0.557545,-3.49246,-1.11535,21.1939,1.85426,1.52731,0.09083,-0.457572,-0.939087,-0.436992,3.06337,1.11171,0.475987,0.136507
1003414,0.97,-1.57038,-0.520061,0.000363511,-2.09281,-0.00138111,1.56224,0.785242,-1.5708,-0.519956,1.04077e-06,-2.08962,6.88377e-07,1.56038,0.785397,0.00119063,0.15222,-0.000454607,0.212221,0.000773623,-0.47095,-0.00105251,-1.90578e-05,0.198028,-1.54926e-05,0.251747,4.86422e-05,-0.587036,2.32051e-05,-0.605152,-3.44089,-1.09155,21.2177,1.85976,1.53372,0.110056,-0.456847,-0.890292,-0.435157,3.04221,1.11117,0.460955,0.135686
1003415,0.97,-1.57038,-0.519886,0.000361854,-2.09257,-0.00138547,1.5617,0.785242,-1.5708,-0.519752,1.02479e-06,-2.08936,7.38329e-07,1.55977,0.785397,-0.000319871,0.159036,-0.000304181,0.222773,-0.000942313,-0.494393,-0.000701672,-1.96577e-05,0.204542,-1.59802e-05,0.259671,4.99519e-05,-0.607026,2.38299e-05,-0.557545,-3.31393,-1.09155,21.1939,1.89913,1.53372,0.110056,-0.456305,-0.845548,-0.433429,3.02322,1.11052,0.446485,0.134872
1003416,0.97,-1.57038,-0.519697,0.000364921,-2.09232,-0.00139436,1.56113,0.785238,-1.5708,-0.519541,1.00833e-06,-2.08909,7.8959e-07,1.55915,0.785397,-0.00141967,0.168632,0.00100281,0.231595,-0.00252708,-0.516741,-0.000705141,-2.02575e-05,0.211056,-1.64678e-05,0.267594,5.12615e-05,-0.627016,2.44547e-05,-0.50597,-3.23856,-1.14312,21.1185,1.9504,1.52731,0.116465,-0.455389,-0.809382,-0.431224,3.00829,1.10981,0.432788,0.134117
1003417,0.97,-1.57038,-0.519508,0.000361299,-2.09206,-0.00139543,1.56053,0.785244,-1.5708,-0.519323,9.91371e-07,-2.08882,8.42161e-07,1.5585,0.785397,-0.000389637,0.175729,-0.00118813,0.234658,-0.00168472,-0.543881,0.000716701,-2.08573e-05,0.21757,-1.69554e-05,0.275518,5.25711e-05,-0.647006,2.50794e-05,-0.529774,-3.16318,-1.06378,21.1701,1.9504,1.54013,0.0844213,-0.453752,-0.786063,-0.428183,2.99982,1.10918,0.420154,0.13346
1003418,0.97,-1.57038,-0.519309,0.000365386,-2.0918,-0.00139385,1.55993,0.785245,-1.5708,-0.519099,9.73928e-07,-2.08853,8.96042e-07,1.55783,0.785397,0.000389856,0.184702,0.00106349,0.241839,-0.000478887,-0.566996,0.000477801,-2.14571e-05,0.224084,-1.74431e-05,0.283441,5.38808e-05,-0.666996,2.57042e-05,-0.557545,-3.13541,-1.14312,21.1701,1.933,1.50808,0.0844213,-0.451912,-0.779622,-0.4249,3.00168,1.10876,0.409069,0.132914
1003419,0.97,-1.57038,-0.519116,0.000364892,-2.09153,-0.00139214,1.5593,0.785245,-1.5708,-0.518869,9.55997e-07,-2.08824,9.51232e-07,1.55715,0.785398,0.00137353,0.188392,0.00070864,0.249527,0.000291094,-0.583515,0.000318534,-2.2057e-05,0.230598,-1.79307e-05,0.291365,5.51904e-05,-0.686986,2.6329e-05,-0.605152,-2.96085,-1.14312,21.2177,1.91652,1.48794,0.0844213,-0.45144,-0.78669,-0.423551,3.0126,1.10851,0.399397,0.132452
1003420,0.98,-1.57038,-0.518907,0.000366398,-2.09125,-0.00138963,1.55864,0.785244,-1.5708,-0.518631,9.37559e-07,-2.08794,1.0077e-06,1.55644,0.785398,-0.000197939,0.192411,0.00102898,0.257574,0.00104177,-0.614244,-2.50031e-05,-2.26815e-05,0.237427,-1.84384e-05,0.299614,5.64714e-05,-0.706976,2.69401e-05,-0.557545,-2.83389,-1.16693,21.1701,1.89363,1.53372,0.09083,-0.452612,-0.796175,-0.424577,3.02663,1.10833,0.390544,0.132027
1003421,0.98,-1.57038,-0.51869,0.000366343,-2.09095,-0.00138452,1.55798,0.785246,-1.5708,-0.518387,9.18613e-07,-2.08763,1.06546e-06,1.55571,0.785398,-0.000131959,0.196525,0.000685786,0.270951,0.00133878,-0.630189,0.000695408,-2.3306e-05,0.244257,-1.89461e-05,0.307864,5.77525e-05,-0.726966,2.75512e-05,-0.557545,-2.75851,-1.16693,21.0709,1.87624,1.53372,0.071604,-0.454207,-0.796239,-0.426318,3.03689,1.10811,0.381873,0.131597
1003422,0.98,-1.57038,-0.518464,0.000366324,-2.09066,-0.00138223,1.55727,0.785243,-1.5708,-0.518136,8.99159e-07,-2.08732,1.12449e-06,1.55497,0.785398,0.00102565,0.205889,0.000457042,0.279931,0.00129942,-0.644423,-0.000723189,-2.39306e-05,0.251087,-1.94538e-05,0.316114,5.90335e-05,-0.746956,2.81623e-05,-0.605152,-2.81009,-1.16693,21.1185,1.86525,1.61062,0.103647,-0.455716,-0.782704,-0.427993,3.03882,1.10773,0.372756,0.13114
1003423,0.98,-1.57038,-0.518234,0.000366318,-2.09036,-0.00138381,1.55656,0.785241,-1.5708,-0.517878,8.79198e-07,-2.08699,1.1848e-06,1.5542,0.785398,0.00133338,0.213558,0.000304584,0.287623,0.000222019,-0.66754,-0.000956844,-2.45551e-05,0.257916,-1.99615e-05,0.324364,6.03145e-05,-0.766946,2.87735e-05,-0.632923,-2.78232,-1.16693,21.1701,1.88265,1.63626,0.116465,-0.457379,-0.762225,-0.429755,3.0346,1.10719,0.363205,0.130659
1003424,0.98,-1.57038,-0.517998,0.000366316,-2.09005,-0.00138431,1.55582,0.785244,-1.5708,-0.517613,8.58728e-07,-2.08666,1.2464e-06,1.55341,0.785398,0.000888921,0.224543,0.000202973,0.290466,-5.54381e-05,-0.686224,0.00031154,-2.51796e-05,0.264746,-2.04692e-05,0.332614,6.15956e-05,-0.786936,2.93846e-05,-0.632923,-2.75851,-1.16693,21.2177,1.88814,1.70767,0.09083,-0.459095,-0.746949,-0.43141,3.03191,1.10663,0.354013,0.130197
1003425,0.98,-1.57038,-0.517755,0.000369935,-2.08972,-0.00138294,1.55506,0.785244,-1.5708,-0.517342,8.37752e-07,-2.08632,1.30928e-06,1.5526,0.785398,-5.7e-05,0.231051,0.00134168,0.299775,0.000403851,-0.711228,0.000207693,-2.58042e-05,0.271576,-2.09769e-05,0.340864,6.28766e-05,-0.806926,2.99957e-05,-0.605152,-2.73471,-1.2185,21.2177,1.87624,1.67471,0.09083,-0.460594,-0.7451,-0.432724,3.03684,1.10617,0.345938,0.129793
1003426,0.98,-1.57038,-0.517497,0.000362696,-2.0894,-0.00138425,1.55429,0.785244,-1.5708,-0.517063,8.16267e-07,-2.08597,1.37343e-06,1.55178,0.785398,-0.00115162,0.240389,-0.00151845,0.304107,-0.000171576,-0.72978,-9.88968e-05,-2.64287e-05,0.278406,-2.14846e-05,0.349113,6.41576e-05,-0.826916,3.06068e-05,-0.557545,-2.78232,-1.11535,21.3446,1.88814,1.64266,0.0972387,-0.460918,-0.757113,-0.432452,3.05034,1.10589,0.339236,0.129439
1003427,0.98,-1.57038,-0.517236,0.000364645,-2.08906,-0.00138806,1.5535,0.785243,-1.5708,-0.516778,7.94275e-07,-2.08561,1.43887e-06,1.55093,0.785398,-0.000210937,0.247109,-0.000362719,0.314866,-0.000317834,-0.741292,-0.00030329,-2.70532e-05,0.285235,-2.19923e-05,0.357363,6.54387e-05,-0.846906,3.1218e-05,-0.581349,-2.81009,-1.14312,21.2693,1.89363,1.55935,0.103647,-0.459097,-0.779904,-0.429134,3.07044,1.10581,0.333662,0.129109
1003428,0.98,-1.57038,-0.516965,0.000364645,-2.08872,-0.00138714,1.55269,0.785244,-1.5708,-0.516486,7.71775e-07,-2.08525,1.50559e-06,1.55006,0.785398,0.000416187,0.25512,-0.000241839,0.324023,-0.000618791,-0.762719,0.000272524,-2.76778e-05,0.292065,-2.25e-05,0.365613,6.67197e-05,-0.866896,3.18291e-05,-0.605152,-2.8577,-1.14312,21.2931,1.90462,1.5209,0.09083,-0.45639,-0.807857,-0.424485,3.09282,1.1058,0.328564,0.128797
1003429,0.98,-1.57038,-0.516689,0.000364645,-2.08836,-0.00138582,1.55185,0.785241,-1.5708,-0.516187,7.48767e-07,-2.08487,1.57359e-06,1.54918,0.785398,0.000927072,0.258977,-0.000161246,0.329198,-0.000209077,-0.78403,-0.000767753,-2.83023e-05,0.298895,-2.30077e-05,0.373863,6.80007e-05,-0.886886,3.24402e-05,-0.632923,-2.93704,-1.14312,21.2455,1.89913,1.48794,0.116465,-0.454435,-0.834835,-0.420805,3.11425,1.10575,0.323538,0.128509
1003430,0.98,-1.57038,-0.516403,0.000362696,-2.08801,-0.00138691,1.55099,0.78524,-1.5708,-0.515881,7.25246e-07,-2.08449,1.64282e-06,1.54827,0.785398,0.000618048,0.266423,-0.000757126,0.333843,-0.000580194,-0.805277,-0.000986553,-2.89334e-05,0.30583,-2.35207e-05,0.3822,6.92284e-05,-0.906552,3.30259e-05,-0.632923,-2.93704,-1.11535,21.2931,1.91103,1.49526,0.129282,-0.45334,-0.858458,-0.418202,3.13559,1.10568,0.318692,0.128248
1003431,0.98,-1.57038,-0.51611,0.000367986,-2.08764,-0.00138683,1.5501,0.785244,-1.5708,-0.515568,7.01213e-07,-2.0841,1.71328e-06,1.54734,0.785398,-0.000237582,0.272631,0.00125848,0.345454,-0.000386796,-0.829241,0.000529093,-2.95646e-05,0.312766,-2.40338e-05,0.390538,7.0456e-05,-0.926218,3.36115e-05,-0.605152,-2.98465,-1.19073,21.2693,1.91103,1.58499,0.0972387,-0.452926,-0.878473,-0.416521,3.15727,1.10564,0.314031,0.128037
1003432,0.98,-1.57038,-0.515816,0.000367986,-2.08726,-0.00138365,1.54918,0.785244,-1.5708,-0.515249,6.76666e-07,-2.0837,1.78496e-06,1.5464,0.785398,-0.000158388,0.279662,0.000838976,0.353537,0.000793297,-0.854641,0.000352728,-3.01958e-05,0.319701,-2.45469e-05,0.398875,7.16836e-05,-0.945883,3.41972e-05,-0.605152,-2.98465,-1.19073,21.2693,1.88265,1.6683,0.0972387,-0.453401,-0.893403,-0.416246,3.17709,1.10554,0.309342,0.127894
1003433,0.98,-1.57038,-0.515507,0.000367986,-2.08688,-0.00138486,1.54827,0.785246,-1.5708,-0.514922,6.51606e-07,-2.08329,1.85787e-06,1.54543,0.785398,0.000544022,0.285478,0.000559311,0.362006,0.000121964,-0.892449,0.000947229,-3.08269e-05,0.326637,-2.506e-05,0.407212,7.29113e-05,-0.965549,3.47828e-05,-0.632923,-2.98465,-1.19073,21.3169,1.89363,1.62985,0.0780126,-0.454661,-0.902475,-0.417199,3.1942,1.10534,0.304808,0.127803
1003434,0.99,-1.57037,-0.515183,0.000367986,-2.08649,-0.00138232,1.54733,0.785244,-1.5708,-0.514588,6.26033e-07,-2.08288,1.93201e-06,1.54445,0.785398,0.000919493,0.296976,0.000372869,0.369417,0.00092902,-0.908436,0.000156768,-3.14581e-05,0.333572,-2.55731e-05,0.41555,7.41389e-05,-0.985215,3.53685e-05,-0.656727,-3.03622,-1.19073,21.4438,1.87074,1.5914,0.09083,-0.456409,-0.910098,-0.418769,3.21108,1.10505,0.300893,0.127741
1003435,1,-1.57037,-0.514859,0.000366315,-2.08609,-0.00138293,1.54635,0.785241,-1.5708,-0.514248,5.99946e-07,-2.08245,2.00738e-06,1.54344,0.785398,0.00116981,0.305007,-0.000308236,0.37434,0.000415896,-0.925118,-0.000844924,-3.20892e-05,0.340508,-2.60862e-05,0.423887,7.53665e-05,-1.00488,3.59541e-05,-0.680531,-3.06003,-1.16693,21.5668,1.87624,1.67471,0.116465,-0.458359,-0.924579,-0.420413,3.23164,1.10477,0.297748,0.127681
1003436,1,-1.57037,-0.514525,0.000367986,-2.08569,-0.00138293,1.54536,0.785244,-1.5708,-0.513901,5.73347e-07,-2.08202,2.08397e-06,1.54242,0.785398,0.000779872,0.312842,0.000351319,0.386487,0.000277264,-0.942355,0.000148794,-3.27204e-05,0.347443,-2.65992e-05,0.432225,7.65942e-05,-1.02455,3.65398e-05,-0.680531,-3.18698,-1.19073,21.6422,1.87624,1.64266,0.0972387,-0.460218,-0.948119,-0.421683,3.25631,1.10456,0.295102,0.127611
1003437,1,-1.57038,-0.51419,0.000364645,-2.08527,-0.00139055,1.54437,0.785242,-1.5708,-0.513546,5.46235e-07,-2.08158,2.16179e-06,1.54137,0.785398,-0.000593709,0.320769,-0.000879413,0.390955,-0.00235829,-0.958918,-0.000375522,-3.33515e-05,0.354379,-2.71123e-05,0.440562,7.78218e-05,-1.04421,3.71254e-05,-0.632923,-3.26236,-1.14312,21.789,1.9449,1.50808,0.110056,-0.461362,-0.977134,-0.421781,3.28263,1.1044,0.292593,0.127537
1003438,1,-1.57037,-0.513838,0.000364645,-2.08485,-0.00138923,1.54334,0.785242,-1.5708,-0.513185,5.18609e-07,-2.08113,2.24084e-06,1.54031,0.785398,0.000161006,0.326486,-0.000586277,0.399042,-0.00113138,-0.982965,-0.000250348,-3.39827e-05,0.361314,-2.76254e-05,0.448899,7.90494e-05,-1.06388,3.77111e-05,-0.656727,-3.31393,-1.14312,21.8644,1.933,1.46871,0.110056,-0.461129,-1.00928,-0.419831,3.3103,1.10436,0.290163,0.127465
1003439,1,-1.57038,-0.51348,0.000364645,-2.08442,-0.00139182,1.5423,0.785249,-1.5708,-0.512817,4.90471e-07,-2.08068,2.32112e-06,1.53923,0.785398,-0.00109909,0.33381,-0.000390853,0.409682,-0.000550805,-1.00936,0.00196933,-3.46139e-05,0.36825,-2.81385e-05,0.457237,8.02771e-05,-1.08354,3.82967e-05,-0.605152,-3.36551,-1.14312,21.8882,1.92751,1.43026,0.0523779,-0.459882,-1.04067,-0.416377,3.33818,1.10445,0.287687,0.1274
1003440,1,-1.57038,-0.513123,0.000364645,-2.08398,-0.00139543,1.54123,0.785252,-1.5708,-0.512441,4.61826e-07,-2.08021,2.40256e-06,1.53812,0.785398,-8.31119e-05,0.342092,-0.000260569,0.418362,-0.00121491,-1.02837,0.00253359,-3.52372e-05,0.375123,-2.86452e-05,0.465471,8.14362e-05,-1.10222,3.88497e-05,-0.632923,-3.38931,-1.14312,21.8167,1.9504,1.41104,0.0194189,-0.458307,-1.06863,-0.412446,3.36429,1.10458,0.28485,0.127326
1003441,1,-1.57038,-0.512749,0.000362696,-2.08354,-0.00139385,1.54013,0.78525,-1.5708,-0.512059,4.32674e-07,-2.07974,2.48515e-06,1.537,0.785398,-0.000705022,0.3501,-0.000823327,0.430392,-0.000165683,-1.04837,0.000976984,-3.58605e-05,0.381996,-2.9152e-05,0.473705,8.25954e-05,-1.1209,3.94027e-05,-0.605152,-3.51627,-1.11535,21.8405,1.933,1.50808,0.038645,-0.456702,-1.09354,-0.40843,3.38762,1.10473,0.281318,0.127174
1003442,1,-1.57038,-0.512376,0.000361026,-2.08308,-0.00139712,1.53901,0.785251,-1.5708,-0.511671,4.03015e-07,-2.07925,2.56891e-06,1.53586,0.785398,-0.00102683,0.368278,-0.0011057,0.43859,-0.00116162,-1.05929,0.000888682,-3.64839e-05,0.38887,-2.96587e-05,0.481939,8.37545e-05,-1.13958,3.99557e-05,-0.581349,-3.56784,-1.09155,21.7414,1.96138,1.51449,0.0322363,-0.454672,-1.12331,-0.403716,3.41036,1.10498,0.276998,0.126871
1003443,1,-1.57038,-0.511988,0.000361026,-2.08261,-0.00139274,1.53787,0.78525,-1.5708,-0.511275,3.7285e-07,-2.07876,2.65382e-06,1.53471,0.785398,-0.000684551,0.375012,-0.000737132,0.447972,-0.00036751,-1.07671,0.000355095,-3.71072e-05,0.395743,-3.01654e-05,0.490173,8.49136e-05,-1.15825,4.05086e-05,-0.581349,-3.64322,-1.09155,21.6144,1.9504,1.50808,0.038645,-0.452013,-1.16935,-0.398036,3.43709,1.10546,0.27215,0.126396
1003444,1,-1.57038,-0.511587,0.000364645,-2.08214,-0.00138599,1.53672,0.785246,-1.5708,-0.510872,3.42178e-07,-2.07827,2.73989e-06,1.53353,0.785398,-0.000456367,0.384022,0.000715004,0.458076,0.00165387,-1.09357,-0.00122133,-3.77306e-05,0.402616,-3.06721e-05,0.498407,8.60728e-05,-1.17693,4.10616e-05,-0.581349,-3.77017,-1.14312,21.4914,1.89913,1.58499,0.0780126,-0.449834,-1.22911,-0.393076,3.4669,1.1061,0.266862,0.125751
1003445,1,-1.57038,-0.511193,0.000358895,-2.08165,-0.0013831,1.53554,0.785246,-1.5708,-0.510463,3.10999e-07,-2.07776,2.82713e-06,1.53233,0.785398,0.000252567,0.388767,-0.000729757,0.470551,0.00195029,-1.11362,-0.000576862,-3.83539e-05,0.40949,-3.11789e-05,0.506641,8.72319e-05,-1.19561,4.16146e-05,-0.605152,-3.79398,-1.09155,21.2693,1.87624,1.68203,0.071604,-0.448992,-1.29034,-0.390086,3.4938,1.10672,0.260945,0.124959
1003446,1,-1.57039,-0.510793,0.000356236,-2.08115,-0.00138492,1.53439,0.785249,-1.5708,-0.510046,2.79313e-07,-2.07724,2.91552e-06,1.53112,0.785398,-0.00280129,0.393369,-0.00113612,0.479888,0.000655932,-1.12357,0.000327502,-3.89772e-05,0.416363,-3.16856e-05,0.514875,8.83911e-05,-1.21429,4.21676e-05,-0.478199,-3.7424,-1.06378,21.0709,1.89363,1.44949,0.0523779,-0.448142,-1.34062,-0.387157,3.51147,1.1072,0.254195,0.124058
1003447,1,-1.57039,-0.510382,0.000354329,-2.08065,-0.00138549,1.53321,0.785257,-1.5708,-0.509623,2.47121e-07,-2.07672,3.00507e-06,1.52989,0.785399,-0.00186752,0.399157,-0.00131422,0.485296,0.000233837,-1.14074,0.00191376,-3.96006e-05,0.423236,-3.21923e-05,0.52311,8.95502e-05,-1.23296,4.27205e-05,-0.478199,-3.7424,-1.03998,20.9201,1.89913,1.18582,0.00660151,-0.445607,-1.3737,-0.38209,3.51794,1.10756,0.246689,0.123073
1003448,1,-1.57039,-0.509968,0.00035425,-2.08013,-0.00138547,1.53198,0.785256,-1.5708,-0.509193,2.14422e-07,-2.07619,3.09578e-06,1.52863,0.785399,-0.00300825,0.4041,-0.00087615,0.494375,0.000155891,-1.16215,0.00175055,-4.02239e-05,0.43011,-3.26991e-05,0.531344,9.07093e-05,-1.25164,4.32735e-05,-0.402821,-3.64322,-1.03998,20.6702,1.89913,1.16018,-0.00621587,-0.441592,-1.39083,-0.375359,3.51579,1.10785,0.238659,0.122003
1003449,1,-1.57039,-0.509536,0.000352553,-2.0796,-0.00138547,1.53075,0.785264,-1.5708,-0.508756,1.81216e-07,-2.07565,3.18764e-06,1.52736,0.785399,-0.000799076,0.41257,-0.00114091,0.510629,0.000103928,-1.19014,0.00282855,-4.08473e-05,0.436983,-3.32058e-05,0.539578,9.18685e-05,-1.27032,4.38265e-05,-0.454395,-3.77017,-1.01617,20.4242,1.89913,1.33413,-0.0510767,-0.437185,-1.39302,-0.368508,3.50501,1.10796,0.229878,0.120813
1003450,1,-1.57039,-0.509102,0.000348925,-2.07905,-0.00139178,1.52949,0.785265,-1.5708,-0.508312,1.47519e-07,-2.0751,3.28059e-06,1.52608,0.785399,-0.000532718,0.421769,-0.00196703,0.521797,-0.00203304,-1.20301,0.00215697,-4.14513e-05,0.44366,-3.36968e-05,0.547556,9.29499e-05,-1.2876,4.43424e-05,-0.454395,-3.86935,-0.964597,20.2259,1.95589,1.35336,-0.0584009,-0.433148,-1.38296,-0.362378,3.4839,1.10778,0.219934,0.119448
1003451,1,-1.57039,-0.508669,0.000347252,-2.07849,-0.00139751,1.52822,0.785257,-1.5708,-0.507862,1.13331e-07,-2.07455,3.37463e-06,1.52477,0.785399,-0.00156157,0.427485,-0.00501985,0.529649,-0.00220307,-1.24614,-0.00144424,-4.20553e-05,0.450337,-3.41878e-05,0.555535,9.40314e-05,-1.30489,4.48583e-05,-0.402821,-3.79398,-0.940793,20.0513,1.97878,1.43667,0.0194189,-0.42829,-1.36652,-0.354986,3.45474,1.10743,0.209179,0.117849
1003452,1,-1.57039,-0.508229,0.00035041,-2.07793,-0.00139288,1.52693,0.78525,-1.5708,-0.507405,7.86524e-08,-2.07398,3.46974e-06,1.52345,0.785399,-0.00104105,0.431508,-0.00184597,0.542324,0.000430159,-1.2595,-0.00337032,-4.26593e-05,0.457014,-3.46788e-05,0.563513,9.51128e-05,-1.32218,4.53742e-05,-0.402821,-3.69479,-1.01617,19.9997,1.92751,1.56576,0.0844213,-0.421793,-1.34399,-0.345177,3.41932,1.10707,0.19828,0.116009
1003453,1,-1.57039,-0.507798,0.000347751,-2.07737,-0.00138693,1.52562,0.785252,-1.5708,-0.506941,4.34826e-08,-2.07341,3.56593e-06,1.52211,0.785399,-4.44176e-05,0.431107,-0.00207724,0.546681,0.00238909,-1.26784,-0.00153481,-4.32632e-05,0.463691,-3.51698e-05,0.571492,9.61943e-05,-1.33946,4.58901e-05,-0.430592,-3.56784,-0.988401,20.1267,1.87074,1.67471,0.0651953,-0.415915,-1.30718,-0.336461,3.37462,1.10662,0.18723,0.114021
1003454,1,-1.57039,-0.507354,0.000345843,-2.0768,-0.0013751,1.52431,0.78526,-1.5708,-0.506471,7.8218e-09,-2.07283,3.66321e-06,1.52075,0.785399,-2.96117e-05,0.43499,-0.00208937,0.555352,0.00450885,-1.27971,0.00162165,-4.38672e-05,0.470369,-3.56608e-05,0.57947,9.72757e-05,-1.35675,4.64061e-05,-0.430592,-3.38931,-0.964597,20.2497,1.79201,1.77816,-0.00621587,-0.412158,-1.24941,-0.331127,3.31882,1.10601,0.175986,0.112009
1003455,1,-1.5704,-0.506896,0.000348924,-2.07622,-0.00137469,1.52298,0.785258,-1.5708,-0.505994,-2.833e-08,-2.07225,3.76157e-06,1.51938,0.785399,-0.000669355,0.441628,0.000259521,0.559855,0.00280245,-1.29096,0.000606384,-4.44712e-05,0.477046,-3.61518e-05,0.587449,9.83572e-05,-1.37404,4.6922e-05,-0.402821,-3.44089,-1.03998,20.448,1.7975,1.73971,0.00660151,-0.410456,-1.17495,-0.329191,3.25555,1.10521,0.165039,0.110036
1003456,1,-1.5704,-0.506437,0.000344568,-2.07563,-0.00137237,1.52162,0.785254,-1.5708,-0.50551,-6.49728e-08,-2.07165,3.861e-06,1.51799,0.785399,-0.00155986,0.446172,-0.00111651,0.566778,0.0014614,-1.30344,-0.00105381,-4.50752e-05,0.483723,-3.66428e-05,0.595428,9.94386e-05,-1.39133,4.74379e-05,-0.355213,-3.36551,-0.988401,20.6464,1.80849,1.73971,0.0459692,-0.410246,-1.09374,-0.330084,3.19093,1.10426,0.155025,0.10809
1003457,1,-1.57041,-0.505966,0.000342192,-2.07505,-0.00137496,1.52027,0.785249,-1.5708,-0.50502,-1.02107e-07,-2.07105,3.96152e-06,1.51658,0.785399,-0.00168952,0.453879,-0.000806668,0.572581,-0.000280345,-1.31673,-0.00236405,-4.56792e-05,0.4904,-3.71338e-05,0.603406,0.00010052,-1.40861,4.79538e-05,-0.327442,-3.33774,-0.988401,20.8448,1.84236,1.76535,0.09083,-0.409961,-1.01337,-0.33161,3.12964,1.10323,0.146334,0.106165
1003458,1,-1.5704,-0.505486,0.000339729,-2.07446,-0.00137772,1.51889,0.78524,-1.5708,-0.504523,-1.39731e-07,-2.07044,4.06313e-06,1.51515,0.785399,0.0012865,0.468232,-0.00114133,0.573126,-0.00123806,-1.33353,-0.00445825,-4.62832e-05,0.497077,-3.76248e-05,0.611385,0.000101602,-1.4259,4.84697e-05,-0.430592,-3.38931,-0.964597,21.1423,1.87074,1.75253,0.16865,-0.409367,-0.948018,-0.333203,3.07991,1.10227,0.139565,0.104337
1003459,1,-1.5704,-0.505008,0.000333716,-2.07388,-0.00138272,1.5175,0.785241,-1.5708,-0.504019,-1.77847e-07,-2.06982,4.16581e-06,1.51371,0.785399,-0.000435742,0.471418,-0.00200237,0.587316,-0.00146963,-1.3499,-0.00273481,-4.68872e-05,0.503754,-3.81158e-05,0.619363,0.000102683,-1.44319,4.89856e-05,-0.50597,-3.29013,-0.913022,21.4438,1.88814,1.77175,0.162241,-0.408839,-0.907934,-0.335052,3.04717,1.10147,0.13505,0.102741
1003460,1,-1.5704,-0.504526,0.000334866,-2.07328,-0.00138815,1.51606,0.785237,-1.5708,-0.503509,-2.16431e-07,-2.06919,4.26949e-06,1.51225,0.785399,-0.000545215,0.4738,-0.000711596,0.590187,-0.0108044,-1.37332,-0.00229792,-4.74627e-05,0.510128,-3.85836e-05,0.626965,0.000103681,-1.45884,4.94618e-05,-0.50597,-3.29013,-0.940793,21.6898,1.89913,1.86148,0.175059,-0.407714,-0.881192,-0.336095,3.02522,1.1008,0.132225,0.101493
1003461,1,-1.5704,-0.504036,0.00033414,-2.07267,-0.0013921,1.51462,0.785242,-1.5708,-0.502992,-2.55482e-07,-2.06855,4.37417e-06,1.51078,0.785399,-0.00120413,0.478386,6.26946e-05,0.592595,-0.00883546,-1.38788,-0.000582513,-4.80381e-05,0.516502,-3.90514e-05,0.634566,0.000104679,-1.47449,4.9938e-05,-0.478199,-3.16318,-0.964597,21.9159,1.92201,1.8688,0.149424,-0.406221,-0.855381,-0.336717,3.01035,1.1003,0.13089,0.10067
1003462,1,-1.57039,-0.503546,0.000338631,-2.07207,-0.00139003,1.51317,0.785244,-1.5708,-0.502469,-2.95001e-07,-2.06791,4.47985e-06,1.50929,0.785399,0.000260391,0.476923,-0.00136268,0.594171,-0.0056312,-1.40637,0.000120285,-4.86136e-05,0.522876,-3.95192e-05,0.642168,0.000105677,-1.49014,5.04141e-05,-0.529774,-2.98465,-1.03998,22.1619,1.89913,1.9393,0.135691,-0.405068,-0.825706,-0.337734,3.00364,1.10002,0.131273,0.100276
1003463,1,-1.57039,-0.503055,0.000336234,-2.07145,-0.00138957,1.51171,0.785239,-1.5708,-0.50194,-3.34988e-07,-2.06726,4.58652e-06,1.50778,0.785399,0.0030358,0.479066,-0.00118229,0.596558,-0.00399214,-1.4164,-0.00161523,-4.9189e-05,0.52925,-3.9987e-05,0.649769,0.000106676,-1.5058,5.08903e-05,-0.656727,-2.88547,-1.03998,22.3365,1.89363,1.84225,0.181467,-0.405065,-0.785048,-0.339824,3.00349,1.09988,0.133277,0.100243
1003464,1,-1.57038,-0.50254,0.000339055,-2.07083,-0.00138765,1.51023,0.785238,-1.5708,-0.501405,-3.75443e-07,-2.06661,4.6942e-06,1.50626,0.785399,0.0031497,0.48624,-0.00294004,0.606602,-0.00339942,-1.43488,-0.00155154,-4.97644e-05,0.535624,-4.04548e-05,0.65737,0.000107674,-1.52145,5.13665e-05,-0.708302,-2.93704,-1.09155,22.4634,1.90462,1.95852,0.194285,-0.406805,-0.731986,-0.34339,3.00799,1.09982,0.136521,0.100513
1003465,1,-1.57038,-0.502008,0.000336658,-2.0702,-0.00138792,1.50872,0.785239,-1.5708,-0.500863,-4.16366e-07,-2.06594,4.80287e-06,1.50472,0.785399,0.00259616,0.495289,-0.0023768,0.61514,-0.00295541,-1.45647,-0.000559641,-5.03399e-05,0.541998,-4.09226e-05,0.664972,0.000108672,-1.5371,5.18427e-05,-0.732105,-3.1116,-1.09155,22.388,1.91652,1.91366,0.181467,-0.409383,-0.673924,-0.346992,3.01669,1.0998,0.140611,0.101076
1003466,1,-1.57039,-0.501474,0.000337529,-2.06956,-0.00139134,1.50719,0.785235,-1.5708,-0.500314,-4.57756e-07,-2.06527,4.91254e-06,1.50317,0.785399,-7.77976e-05,0.510029,-0.0013403,0.620701,-0.00341112,-1.47023,-0.000610453,-5.09153e-05,0.548372,-4.13904e-05,0.672573,0.00010967,-1.55276,5.23189e-05,-0.656727,-3.38931,-1.11535,22.4356,1.9504,1.92648,0.187876,-0.41168,-0.626066,-0.349369,3.03362,1.09993,0.145595,0.101946
1003467,1,-1.57038,-0.500926,0.000335592,-2.06892,-0.00139065,1.50568,0.785235,-1.5708,-0.49976,-4.99614e-07,-2.06459,5.02321e-06,1.5016,0.785399,0.000470946,0.519469,-0.00168478,0.627791,-0.00115915,-1.49118,6.77491e-05,-5.14908e-05,0.554746,-4.18582e-05,0.680175,0.000110668,-1.56841,5.2795e-05,-0.680531,-3.66702,-1.09155,22.3603,1.91652,1.83584,0.175059,-0.413214,-0.604248,-0.35027,3.06473,1.10037,0.151752,0.103114
1003468,1,-1.57038,-0.500386,0.000337174,-2.06826,-0.00138849,1.50414,0.78524,-1.5708,-0.499198,-5.4194e-07,-2.0639,5.13487e-06,1.50002,0.7854,0.000288463,0.52633,-0.000742203,0.63578,-0.000877527,-1.49467,0.00174059,-5.20662e-05,0.56112,-4.2326e-05,0.687776,0.000111666,-1.58406,5.32712e-05,-0.680531,-3.77017,-1.11535,22.3365,1.91652,1.62344,0.129282,-0.414368,-0.60947,-0.350359,3.10905,1.10112,0.158795,0.104534
1003469,1,-1.57038,-0.499833,0.000337605,-2.06759,-0.00139035,1.50259,0.78525,-1.5708,-0.498631,-5.84734e-07,-2.0632,5.24754e-06,1.49842,0.7854,0.00258603,0.532607,-0.00118348,0.645686,-0.000460138,-1.53501,0.00329662,-5.26417e-05,0.567494,-4.27938e-05,0.695378,0.000112664,-1.59972,5.37474e-05,-0.78368,-3.89713,-1.09155,22.1381,1.91103,1.32772,0.071604,-0.41636,-0.630734,-0.35126,3.15998,1.10198,0.166032,0.106126
1003470,1,-1.57038,-0.49927,0.000336174,-2.06691,-0.00139239,1.50103,0.785259,-1.5708,-0.498057,-6.27967e-07,-2.0625,5.36111e-06,1.4968,0.7854,0.00226649,0.542469,-0.000887892,0.658059,-0.000772587,-1.54333,0.0048426,-5.31812e-05,0.57348,-4.32324e-05,0.702505,0.000113576,-1.61359,5.41822e-05,-0.807484,-3.99631,-1.09155,21.8405,1.92201,1.19863,0.000192821,-0.419974,-0.65906,-0.353849,3.21166,1.10273,0.172724,0.107769
1003471,1,-1.57038,-0.498713,0.000339317,-2.06622,-0.00139073,1.49943,0.785258,-1.5708,-0.497478,-6.71638e-07,-2.06179,5.4756e-06,1.49518,0.7854,0.00150024,0.545717,0.000540321,0.668627,8.50066e-05,-1.55722,0.00275369,-5.37208e-05,0.579466,-4.3671e-05,0.709632,0.000114487,-1.62747,5.4617e-05,-0.807484,-4.04788,-1.14312,21.543,1.90462,1.16018,0.0130102,-0.425211,-0.687063,-0.358108,3.25797,1.10328,0.177681,0.109279
1003472,1,-1.57037,-0.498135,0.000337669,-2.06552,-0.00139398,1.49782,0.785264,-1.5708,-0.496892,-7.15747e-07,-2.06108,5.591e-06,1.49353,0.7854,0.000992089,0.552232,-0.000901844,0.675232,-0.00102764,-1.57574,0.00397202,-5.42604e-05,0.585451,-4.41096e-05,0.71676,0.000115399,-1.64135,5.50518e-05,-0.807484,-4.17484,-1.09155,21.2177,1.933,1.19223,-0.044668,-0.431324,-0.707311,-0.36314,3.29448,1.10363,0.179994,0.110472
1003473,1,-1.57037,-0.497563,0.000337866,-2.0648,-0.0013934,1.49617,0.785269,-1.5708,-0.496301,-7.60295e-07,-2.06035,5.70731e-06,1.49188,0.7854,0.00186177,0.571427,-8.61422e-05,0.687829,-0.000506501,-1.59028,0.00902565,-5.47999e-05,0.591437,-4.45483e-05,0.723887,0.00011631,-1.65522,5.54866e-05,-0.859058,-4.22244,-1.11535,20.7972,1.92751,1.42385,-0.0904444,-0.437408,-0.727433,-0.367603,3.3246,1.10393,0.179771,0.111236
1003474,1,-1.57037,-0.49696,0.000337835,-2.06405,-0.0013928,1.49454,0.78527,-1.5708,-0.495704,-8.05282e-07,-2.05962,5.82453e-06,1.49021,0.7854,0.000587025,0.579539,-0.000645533,0.703,-0.000152862,-1.59756,0.00569521,-5.53395e-05,0.597422,-4.49869e-05,0.731015,0.000117222,-1.6691,5.59215e-05,-0.831288,-4.50412,-1.09155,20.3965,1.92201,1.23068,-0.0712183,-0.443148,-0.761454,-0.370935,3.35188,1.10425,0.177208,0.111488
1003475,1,-1.57037,-0.496365,0.000333092,-2.06333,-0.00139158,1.49293,0.78528,-1.5708,-0.4951,-8.50708e-07,-2.05888,5.94266e-06,1.48853,0.7854,-0.000725678,0.580881,-0.00221706,0.714728,0.00029101,-1.59376,0.00697166,-5.58791e-05,0.603408,-4.54255e-05,0.738142,0.000118133,-1.68298,5.63563e-05,-0.78368,-4.62711,-1.01617,20.2497,1.91103,0.986232,-0.149038,-0.44742,-0.800757,-0.37156,3.36887,1.10459,0.171813,0.111124
1003476,1,-1.57038,-0.495775,0.000334485,-2.06258,-0.00138019,1.49125,0.78528,-1.5708,-0.494491,-8.96572e-07,-2.05814,6.06171e-06,1.48683,0.7854,0.00146773,0.586068,-0.000382021,0.721368,0.00398126,-1.61318,0.00486725,-5.64186e-05,0.609394,-4.58641e-05,0.74527,0.000119045,-1.69685,5.67911e-05,-0.732105,-4.62711,-1.06378,20.1267,1.80849,1.12173,-0.149038,-0.450185,-0.827497,-0.369463,3.36772,1.10485,0.163232,0.11008
1003477,1,-1.57038,-0.495167,0.000330494,-2.06184,-0.00138212,1.48957,0.785278,-1.5708,-0.493875,-9.42875e-07,-2.05738,6.18166e-06,1.48512,0.7854,-0.000523288,0.591732,-0.00138151,0.741634,0.00200205,-1.63753,0.0024261,-5.69582e-05,0.615379,-4.63028e-05,0.752397,0.000119956,-1.71073,5.72259e-05,-0.656727,-4.73026,-1.01617,20.0513,1.82588,1.32772,-0.122488,-0.452964,-0.834709,-0.366913,3.34698,1.10481,0.151758,0.108338
1003478,1,-1.57039,-0.494564,0.000327119,-2.06108,-0.00138208,1.48785,0.785276,-1.5708,-0.493254,-9.89616e-07,-2.05663,6.30253e-06,1.4834,0.7854,-0.00312243,0.598669,-0.00269414,0.740674,0.000277639,-1.65721,0.00126614,-5.74977e-05,0.621365,-4.67414e-05,0.759525,0.000120868,-1.72461,5.76607e-05,-0.529774,-4.78183,-0.940793,20.0513,1.85426,1.57217,-0.10967,-0.454305,-0.82502,-0.362247,3.30983,1.10449,0.138281,0.10593
1003479,1,-1.5704,-0.493956,0.000325626,-2.06032,-0.00138661,1.48613,0.78527,-1.5708,-0.492627,-1.0368e-06,-2.05586,6.42431e-06,1.48166,0.7854,-0.00546102,0.600587,-0.00180352,0.740763,-0.0016843,-1.67219,-0.00218289,-5.80373e-05,0.62735,-4.718e-05,0.766652,0.000121779,-1.73848,5.80955e-05,-0.379017,-4.67868,-0.940793,20.2735,1.90462,1.63626,-0.0254419,-0.451756,-0.808626,-0.352663,3.26739,1.1042,0.124626,0.102957
1003480,1,-1.5704,-0.493346,0.000314271,-2.05956,-0.00138381,1.48441,0.785261,-1.5708,-0.491994,-1.08438e-06,-2.05509,6.54691e-06,1.47991,0.7854,-0.00232395,0.596503,-0.0048272,0.749289,-0.00031238,-1.69345,-0.00474275,-5.85352e-05,0.63288,-4.75847e-05,0.773228,0.000122602,-1.7505,5.8488e-05,-0.430592,-4.52792,-0.786069,20.6226,1.88265,1.8038,0.0651953,-0.445535,-0.783626,-0.338804,3.22473,1.1041,0.112174,0.0995718
1003481,1,-1.5704,-0.492744,0.000310304,-2.0588,-0.00137993,1.48267,0.785249,-1.5708,-0.491355,-1.13237e-06,-2.05431,6.67034e-06,1.47814,0.7854,-0.00035295,0.599617,-0.00692705,0.750546,0.00104387,-1.70087,-0.00622932,-5.9033e-05,0.638409,-4.79894e-05,0.779805,0.000123424,-1.76252,5.88805e-05,-0.478199,-4.30179,-0.762265,21.0431,1.84877,1.95211,0.149424,-0.437048,-0.738312,-0.322179,3.17803,1.10406,0.101228,0.0959918
1003482,1,-1.5704,-0.492112,0.00030759,-2.05803,-0.00137226,1.48091,0.785245,-1.5708,-0.490712,-1.18076e-06,-2.05352,6.79458e-06,1.47637,0.7854,-0.00128688,0.606839,-0.0055331,0.750539,0.00323718,-1.75441,-0.0131643,-5.95309e-05,0.643939,-4.83942e-05,0.786381,0.000124247,-1.77454,5.92729e-05,-0.430592,-4.27402,-0.734494,21.543,1.78011,2.19656,0.143015,-0.427696,-0.679895,-0.304374,3.13351,1.1041,0.0928679,0.0925325
1003483,1,-1.57041,-0.49147,0.000301863,-2.05728,-0.00137357,1.47914,0.785242,-1.5708,-0.490062,-1.22956e-06,-2.05273,6.91965e-06,1.47458,0.7854,-0.00322424,0.616941,-0.00500146,0.754125,0.00171591,-1.75501,-0.010233,-6.00287e-05,0.649468,-4.87989e-05,0.792958,0.00012507,-1.78656,5.96654e-05,-0.327442,-4.42477,-0.686887,21.9397,1.79201,2.24874,0.162241,-0.418352,-0.62957,-0.286964,3.10416,1.10427,0.0886544,0.0895075
1003484,1,-1.57042,-0.490822,0.000298937,-2.05651,-0.00137414,1.47734,0.785237,-1.5708,-0.489407,-1.27877e-06,-2.05193,7.04555e-06,1.47278,0.7854,-0.00564107,0.626302,-0.00348362,0.753621,-0.000111722,-1.76962,-0.00880464,-6.05266e-05,0.654997,-4.92036e-05,0.799534,0.000125892,-1.79858,6.00579e-05,-0.176685,-4.67868,-0.686887,22.2611,1.82588,2.27438,0.200693,-0.408787,-0.603965,-0.270226,3.09768,1.10466,0.0890344,0.0870893
1003485,1,-1.57042,-0.490168,0.000291752,-2.05575,-0.0013749,1.47557,0.785239,-1.5708,-0.488747,-1.32838e-06,-2.05112,7.17226e-06,1.47097,0.7854,-0.00308492,0.633197,-0.00623071,0.75353,0.00852228,-1.76773,-0.00652601,-6.10244e-05,0.660527,-4.96083e-05,0.80611,0.000126715,-1.8106,6.04503e-05,-0.204456,-4.88101,-0.659116,22.4872,1.84236,2.20297,0.207102,-0.398631,-0.610421,-0.253808,3.11688,1.10532,0.0937487,0.0853395
1003486,1,-1.57042,-0.489525,0.000289825,-2.05497,-0.00137332,1.47378,0.785236,-1.5708,-0.48808,-1.37839e-06,-2.05031,7.2998e-06,1.46915,0.785401,-0.000273745,0.637057,-0.00697987,0.759248,0.00685516,-1.76859,-0.0061229,-6.15222e-05,0.666056,-5.0013e-05,0.812687,0.000127538,-1.82262,6.08428e-05,-0.279835,-4.95639,-0.686887,22.6102,1.83138,2.04183,0.24647,-0.388499,-0.643126,-0.23804,3.15762,1.10615,0.101928,0.0842709
1003487,1,-1.57042,-0.488869,0.000284272,-2.05417,-0.00138139,1.47196,0.785234,-1.5708,-0.487409,-1.42881e-06,-2.04949,7.42816e-06,1.46732,0.785401,-0.00221465,0.638615,-0.0051737,0.767032,0.00348364,-1.77758,-0.00526699,-6.20201e-05,0.671585,-5.04177e-05,0.819263,0.000128361,-1.83464,6.12353e-05,-0.327442,-4.98416,-0.686887,22.5626,1.87624,1.89443,0.272104,-0.379463,-0.6843,-0.224196,3.20821,1.10691,0.111986,0.083875
1003488,1,-1.57042,-0.488209,0.00029041,-2.05337,-0.00138241,1.47015,0.785235,-1.5708,-0.486732,-1.47963e-06,-2.04866,7.55734e-06,1.46547,0.785401,-0.00284239,0.642998,-0.00289545,0.779452,0.00275372,-1.79316,-0.00226389,-6.25179e-05,0.677115,-5.08224e-05,0.82584,0.000129183,-1.84666,6.16277e-05,-0.279835,-5.03177,-0.861447,22.3603,1.87624,1.81021,0.233652,-0.372301,-0.715682,-0.213819,3.25625,1.10741,0.122355,0.0841519
1003489,1,-1.57042,-0.487553,0.000287731,-2.05256,-0.00138849,1.46831,0.78524,-1.5708,-0.486049,-1.53086e-06,-2.04783,7.68735e-06,1.46361,0.785401,0.000235876,0.64785,-0.00441753,0.787805,0.00131157,-1.79867,-0.00438573,-6.30158e-05,0.682644,-5.12272e-05,0.832416,0.000130006,-1.85868,6.20202e-05,-0.379017,-4.98416,-0.913022,22.0905,1.89913,1.75894,0.181467,-0.367668,-0.728686,-0.207905,3.2942,1.10748,0.131851,0.0850788
1003490,1,-1.57041,-0.486874,0.000288609,-2.05173,-0.00138845,1.46649,0.78524,-1.5708,-0.485361,-1.58245e-06,-2.04699,7.81809e-06,1.46174,0.785401,0.00122174,0.650135,-0.00120955,0.80155,0.00152388,-1.80733,-0.00317559,-6.34673e-05,0.687663,-5.15942e-05,0.83838,0.000130739,-1.86881,6.23697e-05,-0.430592,-5.05954,-1.01617,21.6898,1.88814,1.66189,0.175059,-0.366699,-0.719982,-0.207732,3.31766,1.10704,0.139563,0.0865527
1003491,1,-1.57041,-0.486184,0.000287699,-2.05089,-0.00139261,1.46465,0.785239,-1.5708,-0.484669,-1.63441e-06,-2.04615,7.94956e-06,1.45986,0.785401,0.00423452,0.679059,-0.000200773,0.810806,-5.67429e-05,-1.80449,-0.00272127,-6.39188e-05,0.692683,-5.19612e-05,0.844344,0.000131471,-1.87893,6.27192e-05,-0.581349,-5.33725,-1.06378,21.3169,1.92201,1.4559,0.181467,-0.371077,-0.705143,-0.215541,3.33069,1.10614,0.145136,0.0884369
1003492,1,-1.57039,-0.485475,0.000288231,-2.05004,-0.00140027,1.4628,0.785251,-1.5708,-0.483971,-1.68674e-06,-2.0453,8.08176e-06,1.45797,0.785401,0.00682646,0.685667,0.00013474,0.817468,-0.00241059,-1.81628,0.0019797,-6.43703e-05,0.697702,-5.23283e-05,0.850308,0.000132204,-1.88906,6.30688e-05,-0.755909,-5.63876,-1.09155,21.0431,1.98976,1.173,0.071604,-0.381521,-0.717089,-0.232058,3.34683,1.10505,0.148997,0.0906317
1003493,1,-1.5704,-0.484772,0.000293048,-2.04919,-0.0013997,1.46094,0.785264,-1.5708,-0.483268,-1.73943e-06,-2.04444,8.2147e-06,1.45608,0.785401,0.00272786,0.68765,0.0015673,0.824799,-0.00130126,-1.82719,0.00541982,-6.48218e-05,0.702721,-5.26953e-05,0.856273,0.000132937,-1.89919,6.34183e-05,-0.680531,-5.84109,-1.16693,20.7972,1.98427,1.08236,-0.044668,-0.39632,-0.75823,-0.254688,3.36881,1.10405,0.151257,0.0929818
1003494,1,-1.57041,-0.484074,0.000292891,-2.04833,-0.00139778,1.45905,0.785282,-1.5708,-0.482561,-1.7925e-06,-2.04358,8.34837e-06,1.45417,0.785401,1.04225e-05,0.693026,0.000830537,0.832597,-0.000146488,-1.83408,0.00827344,-6.52733e-05,0.707741,-5.30623e-05,0.862237,0.000133669,-1.90931,6.37678e-05,-0.605152,-5.91647,-1.16693,20.6464,1.96687,1.0375,-0.174673,-0.411498,-0.806959,-0.278116,3.38845,1.10334,0.151343,0.095196
1003495,1,-1.5704,-0.483365,0.00029135,-2.04748,-0.00139657,1.45716,0.785287,-1.5708,-0.481848,-1.84593e-06,-2.04271,8.48277e-06,1.45225,0.785401,-2.67339e-05,0.696201,-0.000813479,0.840322,0.000366812,-1.84777,0.00587427,-6.57248e-05,0.71276,-5.34294e-05,0.868201,0.000134402,-1.91944,6.41173e-05,-0.605152,-5.99185,-1.11535,20.6464,1.95589,1.26913,-0.18749,-0.423346,-0.850567,-0.297219,3.4004,1.10312,0.148816,0.0969102
1003496,1,-1.5704,-0.482657,0.000290554,-2.0466,-0.0013984,1.4553,0.785285,-1.5708,-0.48113,-1.89972e-06,-2.04184,8.61791e-06,1.45032,0.785401,0.00060653,0.696726,-0.0018693,0.85062,-0.000322633,-1.84638,0.00240497,-6.61763e-05,0.717779,-5.37964e-05,0.874165,0.000135134,-1.92957,6.44668e-05,-0.632923,-6.095,-1.06378,20.5988,1.97237,0.86996,-0.149038,-0.430742,-0.878678,-0.310095,3.39971,1.10336,0.143427,0.0977962
1003497,1,-1.5704,-0.481941,0.000288154,-2.04573,-0.0013984,1.45341,0.785282,-1.5708,-0.480407,-1.95389e-06,-2.04096,8.75377e-06,1.44838,0.785401,0.000385407,0.699929,-0.00245025,0.847511,-0.000182705,-1.84915,0.000554681,-6.66278e-05,0.722798,-5.41634e-05,0.880129,0.000135867,-1.93969,6.48164e-05,-0.632923,-6.17038,-1.01617,20.8448,1.97237,0.638331,-0.122488,-0.434346,-0.885451,-0.317384,3.38503,1.10401,0.135256,0.0976855
1003498,1,-1.5704,-0.481217,0.000290138,-2.04485,-0.00138334,1.45149,0.785287,-1.5708,-0.479679,-2.00842e-06,-2.04007,8.89037e-06,1.44643,0.785401,0.00079954,0.706816,-0.0011445,0.858952,0.00492093,-1.87269,0.00177888,-6.70793e-05,0.727818,-5.45305e-05,0.886093,0.0001366,-1.94982,6.51659e-05,-0.656727,-6.24576,-1.03998,20.8725,1.83687,0.954188,-0.161856,-0.43575,-0.877594,-0.321232,3.36246,1.10503,0.124827,0.0966133
1003499,1,-1.5704,-0.480497,0.000293862,-2.04394,-0.00138212,1.44952,0.785291,-1.5708,-0.478947,-2.06331e-06,-2.03918,9.0277e-06,1.44447,0.785401,0.000522369,0.714176,0.000392566,0.868757,0.00370574,-1.89313,0.00257335,-6.75308e-05,0.732837,-5.48975e-05,0.892057,0.000137332,-1.95995,6.55154e-05,-0.656727,-6.32114,-1.09155,20.7972,1.82588,1.46871,-0.200308,-0.437211,-0.864129,-0.324836,3.33643,1.10617,0.112552,0.0947119
1003500,1,-1.57041,-0.479771,0.000293897,-2.04304,-0.00138076,1.44755,0.785286,-1.5708,-0.478209,-2.11854e-06,-2.03828,9.16568e-06,1.4425,0.785401,-0.0019798,0.715221,0.000223565,0.87965,0.0018738,-1.9643,2.65083e-05,-6.79323e-05,0.737304,-5.52239e-05,0.897361,0.000137974,-1.96818,6.58216e-05,-0.557545,-6.34891,-1.09155,20.7694,1.84236,1.99697,-0.155447,-0.439325,-0.846379,-0.329213,3.30746,1.10708,0.099472,0.0920948
1003501,1,-1.57041,-0.47903,0.000291959,-2.04215,-0.00138346,1.44557,0.785273,-1.5708,-0.477468,-2.17409e-06,-2.03738,9.30429e-06,1.44052,0.785402,-0.00197547,0.71987,-0.00052918,0.882278,4.83543e-06,-1.97265,-0.00553006,-6.83338e-05,0.74177,-5.55503e-05,0.902664,0.000138616,-1.97641,6.61278e-05,-0.529774,-6.39651,-1.06378,20.9201,1.87624,2.30001,-0.00621587,-0.440568,-0.822148,-0.332433,3.27703,1.10766,0.087552,0.0888558
1003502,1,-1.57041,-0.478311,0.000290293,-2.04124,-0.00137873,1.4436,0.785244,-1.5708,-0.476721,-2.22997e-06,-2.03647,9.44355e-06,1.43854,0.785402,-0.00187829,0.718872,-0.000931055,0.882661,0.00146897,-1.96195,-0.0125862,-6.87353e-05,0.746237,-5.58767e-05,0.907968,0.000139258,-1.98464,6.6434e-05,-0.50597,-6.24576,-1.03998,20.9717,1.83687,2.2936,0.233652,-0.440136,-0.791261,-0.333443,3.24714,1.10807,0.0780886,0.0851574
1003503,1,-1.57041,-0.477577,0.000286675,-2.04036,-0.00136614,1.44164,0.785231,-1.5708,-0.475971,-2.28617e-06,-2.03556,9.58345e-06,1.43655,0.785402,-0.000698753,0.716833,-0.00184322,0.884299,0.00620697,-1.96173,-0.0206515,-6.91367e-05,0.750704,-5.6203e-05,0.913272,0.0001399,-1.99288,6.67402e-05,-0.529774,-6.0712,-0.988401,21.1939,1.69588,2.19656,0.310557,-0.438664,-0.749489,-0.333078,3.21677,1.10841,0.0713583,0.0813434
1003504,1,-1.57041,-0.476863,0.000281385,-2.03945,-0.00135705,1.43964,0.785226,-1.5708,-0.475215,-2.3427e-06,-2.03464,9.72399e-06,1.43454,0.785402,-0.000468365,0.712114,-0.00300412,0.886279,0.00644808,-1.96577,-0.0147972,-6.95382e-05,0.75517,-5.65294e-05,0.918575,0.000140542,-2.00111,6.70464e-05,-0.529774,-5.84109,-0.913022,21.2455,1.63362,2.16452,0.316965,-0.436743,-0.686974,-0.331995,3.18218,1.10858,0.0672788,0.0778991
1003505,1,-1.57042,-0.476114,0.000281386,-2.03852,-0.00135948,1.43763,0.785227,-1.5708,-0.474456,-2.39955e-06,-2.03371,9.86518e-06,1.43253,0.785402,-0.00384061,0.719288,-0.0020118,0.900028,0.0032508,-1.97597,-0.0132221,-6.99397e-05,0.759637,-5.68558e-05,0.923879,0.000141184,-2.00934,6.73526e-05,-0.379017,-5.91647,-0.913022,21.1939,1.662,2.10684,0.265696,-0.433785,-0.599777,-0.329418,3.14017,1.10834,0.0654193,0.0752362
