shamilmamedov/beam_handling/log/param_estimation_ICRA/ocp_Z_15cm_0.42s_1.csv
duration, success rate, q[0], q[1], q[2], q[3], q[4], q[5], q[6],q_d[0], q_d[1], q_d[2], q_d[3], q_d[4], q_d[5], q_d[6],dq[0], dq[1], dq[2], dq[3], dq[4], dq[5], dq[6],dq_d[0], dq_d[1], dq_d[2], dq_d[3], dq_d[4], dq_d[5], dq_d[6],tau_J[0], tau_J[1], tau_J[2], tau_J[3], tau_J[4], tau_J[5], tau_J[6],tau_ext_hat_filtered[0], tau_ext_hat_filtered[1], tau_ext_hat_filtered[2], tau_ext_hat_filtered[3], tau_ext_hat_filtered[4], tau_ext_hat_filtered[5], tau_ext_hat_filtered[6]
387179,0,-1.57042,-0.522959,0.000303333,-2.09665,-0.00122162,1.57105,0.785733,-1.5708,-0.523598,1.19189e-06,-2.0944,-1.27796e-06,1.5708,0.785399,-0.000263667,-0.00053816,0.00060365,0.000253466,-0.000370789,7.0742e-05,0.00148983,0,0,0,0,0,0,0,-0.454395,-10.0385,-0.861447,21.7176,1.71877,1.5209,-0.252493,-0.464995,-0.937657,-0.356752,3.2018,0.997941,-0.149049,-0.211869
387180,1,-1.57042,-0.522957,0.000303333,-2.09665,-0.00122162,1.57105,0.785728,-1.5708,-0.523598,1.19189e-06,-2.0944,-1.27796e-06,1.5708,0.785399,-0.00073259,0.000847653,0.000402433,0.000168978,-0.000247192,-0.000190198,-0.000702198,0,0,0,0,0,0,0,-0.430592,-10.0901,-0.861447,21.7176,1.71877,1.52731,-0.206716,-0.465582,-0.936752,-0.357677,3.20127,0.997881,-0.149077,-0.211908
387181,1,-1.57042,-0.522961,0.000303333,-2.09665,-0.0012203,1.57105,0.785731,-1.5708,-0.523598,1.19189e-06,-2.0944,-1.27796e-06,1.5708,0.785399,0.00127484,-0.000641324,0.000268289,0.000112652,0.000276015,0.000347919,0.000481304,0,0,0,0,0,0,0,-0.50597,-10.0385,-0.861447,21.7176,1.70687,1.51449,-0.232351,-0.466193,-0.936802,-0.358706,3.20106,0.997826,-0.149079,-0.211982
387182,1,-1.57042,-0.522956,0.000299992,-2.09666,-0.00122162,1.57105,0.78573,-1.5708,-0.523598,1.19189e-06,-2.0944,-1.27796e-06,1.5708,0.785399,-0.000356529,0.00133569,-0.000934765,-0.00224495,-0.0002568,-0.000242772,8.35103e-05,0,0,0,0,0,0,0,-0.454395,-10.1139,-0.81384,21.8167,1.71877,1.52731,-0.225942,-0.46674,-0.938479,-0.359557,3.20198,0.997804,-0.148964,-0.21209
387183,1,-1.57042,-0.522958,0.000298043,-2.09665,-0.00122162,1.57105,0.785725,-1.5708,-0.523598,1.19189e-06,-2.0944,-1.27796e-06,1.5708,0.785399,-0.000794498,0.000333647,-0.00127279,0.000823417,-0.0001712,0.00031287,-0.00160584,0,0,0,0,0,0,0,-0.430592,-10.0901,-0.786069,21.7176,1.71877,1.51449,-0.181082,-0.466023,-0.942627,-0.358491,3.20448,0.997881,-0.148697,-0.212235
387184,1,-1.57042,-0.522956,0.000301662,-2.09665,-0.00122223,1.57105,0.78573,-1.5708,-0.523598,1.19189e-06,-2.0944,-1.27796e-06,1.5708,0.785399,2.71466e-05,0.000222431,0.000357899,0.00175537,-0.000317584,-0.000266138,0.000590953,0,0,0,0,0,0,0,-0.454395,-10.0901,-0.837644,21.666,1.72426,1.52731,-0.225942,-0.464189,-0.946263,-0.355819,3.2061,0.998001,-0.14854,-0.212401
387185,1,-1.57042,-0.522955,0.000301662,-2.09666,-0.00122162,1.57105,0.785732,-1.5708,-0.523598,1.19189e-06,-2.0944,-1.27796e-06,1.5708,0.785399,0.00122452,0.000148288,0.000238599,-0.00235623,-8.27198e-06,-0.000414784,0.000868687,0,0,0,0,0,0,0,-0.50597,-10.0901,-0.837644,21.8167,1.71877,1.53372,-0.23876,-0.463178,-0.948118,-0.354348,3.20646,0.998066,-0.148506,-0.212546
387186,1,-1.57042,-0.522957,0.000301662,-2.09666,-0.0012203,1.57105,0.78573,-1.5708,-0.523598,1.19189e-06,-2.0944,-1.27796e-06,1.5708,0.785399,0.000166735,9.88584e-05,0.000159066,-0.000364393,0.000435295,-3.91638e-05,0.000104407,0,0,0,0,0,0,0,-0.478199,-10.0901,-0.837644,21.7652,1.70687,1.52731,-0.225942,-0.463566,-0.950331,-0.354856,3.20774,0.998107,-0.148344,-0.212673
387187,1,-1.57042,-0.522955,0.000301662,-2.09666,-0.0012203,1.57105,0.785727,-1.5708,-0.523598,1.19189e-06,-2.0944,-1.27796e-06,1.5708,0.785399,-0.000445655,6.59056e-05,0.000106044,-0.000242929,0.000290197,-2.61092e-05,-0.000879831,0,0,0,0,0,0,0,-0.454395,-10.0901,-0.837644,21.7652,1.70687,1.52731,-0.200308,-0.464304,-0.952442,-0.355869,3.20938,0.998156,-0.148115,-0.212817
387188,1,-1.57042,-0.522955,0.000299992,-2.09666,-0.00122162,1.57105,0.785729,-1.5708,-0.523598,1.19189e-06,-2.0944,-1.27796e-06,1.5708,0.785399,0.000259709,4.3937e-05,-0.000486116,0.000394859,-0.000247345,-0.000254765,0.000125523,0,0,0,0,0,0,0,-0.478199,-10.0901,-0.81384,21.7414,1.71877,1.53372,-0.219534,-0.464619,-0.953352,-0.356292,3.21014,0.998209,-0.147964,-0.212982
387189,1,-1.57042,-0.522959,0.000299992,-2.09665,-0.00122223,1.57105,0.785725,-1.5708,-0.523598,1.19189e-06,-2.0944,-1.27796e-06,1.5708,0.785399,0.000173139,-0.000620323,-0.000324077,0.000820052,-0.000368347,0.000304874,-0.00134047,0,0,0,0,0,0,0,-0.478199,-10.0623,-0.81384,21.7176,1.72426,1.5209,-0.181082,-0.464537,-0.952419,-0.356055,3.20955,0.998246,-0.147938,-0.213144
387190,1,-1.57042,-0.522954,0.000299992,-2.09665,-0.00122162,1.57105,0.785727,-1.5708,-0.523598,1.19189e-06,-2.0944,-1.27796e-06,1.5708,0.785399,0.000115426,0.000792878,-0.000216051,0.00119632,-4.21143e-05,-3.41093e-05,-0.000181571,0,0,0,0,0,0,0,-0.478199,-10.1139,-0.81384,21.6898,1.71877,1.52731,-0.200308,-0.464315,-0.949984,-0.355498,3.20763,0.998264,-0.148044,-0.213281
387191,1,-1.57042,-0.522959,0.000301662,-2.09666,-0.00122223,1.57105,0.78573,-1.5708,-0.523598,1.19189e-06,-2.0944,-1.27796e-06,1.5708,0.785399,7.69507e-05,-0.000677841,0.000412778,-0.000965695,-0.000231527,-2.27395e-05,0.000828388,0,0,0,0,0,0,0,-0.478199,-10.0623,-0.837644,21.7652,1.72426,1.52731,-0.225942,-0.464278,-0.94773,-0.355156,3.20563,0.998283,-0.148156,-0.213363
387192,1,-1.57043,-0.522959,0.000303333,-2.09666,-0.00122091,1.57105,0.785726,-1.5708,-0.523598,1.19189e-06,-2.0944,-1.27796e-06,1.5708,0.785399,-0.00106232,-0.00100871,0.000831997,-0.000643796,0.000286458,-1.51597e-05,-0.000871895,0,0,0,0,0,0,0,-0.430592,-10.0385,-0.861447,21.7652,1.71236,1.52731,-0.18749,-0.464588,-0.945515,-0.355425,3.20432,0.998324,-0.148161,-0.213388
387193,1,-1.57042,-0.522957,0.000301662,-2.09665,-0.00122162,1.57105,0.785731,-1.5708,-0.523598,1.19189e-06,-2.0944,-1.27796e-06,1.5708,0.785399,0.000405408,-0.000115659,-2.14726e-06,0.000684426,-4.63867e-05,0.000227252,0.00108025,0,0,0,0,0,0,0,-0.478199,-10.0623,-0.837644,21.7176,1.71877,1.5209,-0.232351,-0.465064,-0.94259,-0.356089,3.20314,0.99838,-0.148118,-0.213377
387194,1,-1.57043,-0.522955,0.000299992,-2.09666,-0.00122162,1.57105,0.785733,-1.5708,-0.523598,1.19189e-06,-2.0944,-1.27796e-06,1.5708,0.785399,-0.00028654,0.000572508,-0.000558243,-0.000100528,-3.09245e-05,-8.58573e-05,0.00146615,0,0,0,0,0,0,0,-0.454395,-10.0901,-0.81384,21.7414,1.71877,1.52731,-0.252493,-0.465312,-0.940365,-0.356404,3.20209,0.99845,-0.148084,-0.21334
387195,1,-1.57043,-0.522957,0.000301662,-2.09666,-0.00122091,1.57105,0.785726,-1.5708,-0.523598,1.19189e-06,-2.0944,-1.27796e-06,1.5708,0.785399,-0.000191027,-0.000267942,0.00018465,-6.70185e-05,0.000216743,0.00041748,-0.00143006,0,0,0,0,0,0,0,-0.454395,-10.0623,-0.837644,21.7414,1.71236,1.51449,-0.18749,-0.465106,-0.939826,-0.356006,3.2017,0.998552,-0.148015,-0.213314
387196,1,-1.57042,-0.522951,0.000305282,-2.09666,-0.00122091,1.57105,0.785731,-1.5708,-0.523598,1.19189e-06,-2.0944,-1.27796e-06,1.5708,0.785399,0.000429461,0.00158461,0.00132953,-4.4679e-05,0.000144495,4.09609e-05,0.000708137,0,0,0,0,0,0,0,-0.478199,-10.1377,-0.889218,21.7414,1.71236,1.5209,-0.232351,-0.465267,-0.941105,-0.356205,3.2022,0.998654,-0.14789,-0.21332
387197,1,-1.57042,-0.522959,0.000301662,-2.09666,-0.00122091,1.57105,0.78573,-1.5708,-0.523598,1.19189e-06,-2.0944,-1.27796e-06,1.5708,0.785399,-0.000827317,-0.000706831,-0.000320075,-0.000586598,9.63301e-05,0.000502025,0.000234732,0,0,0,0,0,0,0,-0.430592,-10.0623,-0.837644,21.7652,1.71236,1.50808,-0.225942,-0.466009,-0.94388,-0.357377,3.2035,0.998736,-0.147721,-0.213343
387198,1,-1.57042,-0.522955,0.000298043,-2.09665,-0.00122091,1.57105,0.785726,-1.5708,-0.523598,1.19189e-06,-2.0944,-1.27796e-06,1.5708,0.785399,5.26755e-06,0.000178393,-0.00141981,-0.000391065,6.422e-05,9.73245e-05,-0.00126767,0,0,0,0,0,0,0,-0.454395,-10.0901,-0.786069,21.7652,1.71236,1.51449,-0.18749,-0.465867,-0.94625,-0.357308,3.20484,0.998852,-0.147558,-0.213394
387199,1,-1.57043,-0.522955,0.000301662,-2.09665,-0.0012203,1.57105,0.785728,-1.5708,-0.523598,1.19189e-06,-2.0944,-1.27796e-06,1.5708,0.785399,-0.0005533,0.000118929,0.000259886,0.000852914,0.000246264,-0.000409835,-0.000133033,0,0,0,0,0,0,0,-0.430592,-10.0901,-0.837644,21.7176,1.70687,1.52731,-0.206716,-0.464588,-0.947506,-0.355557,3.2056,0.998995,-0.147468,-0.213468
387200,1,-1.57042,-0.522955,0.000299992,-2.09666,-0.00122223,1.57105,0.785732,-1.5708,-0.523598,1.19189e-06,-2.0944,-1.27796e-06,1.5708,0.785399,0.000744757,7.92858e-05,-0.000383554,-0.00110183,-0.000480084,-3.58643e-05,0.00109811,0,0,0,0,0,0,0,-0.478199,-10.0901,-0.81384,21.789,1.72426,1.5209,-0.23876,-0.463412,-0.948383,-0.353964,3.20605,0.999101,-0.147436,-0.213526
387201,1,-1.57042,-0.522959,0.000301662,-2.09665,-0.00122223,1.57105,0.785727,-1.5708,-0.523598,1.19189e-06,-2.0944,-1.27796e-06,1.5708,0.785399,-6.03072e-05,-0.000596757,0.000301109,0.000935885,-0.000320056,-2.39096e-05,-0.000929442,0,0,0,0,0,0,0,-0.454395,-10.0623,-0.837644,21.7176,1.72426,1.5209,-0.193899,-0.462927,-0.948578,-0.353372,3.20627,0.999155,-0.147435,-0.213562
387202,1,-1.57042,-0.522957,0.000299992,-2.09666,-0.0012203,1.57105,0.785728,-1.5708,-0.523598,1.19189e-06,-2.0944,-1.27796e-06,1.5708,0.785399,0.000516607,0.000251776,-0.000356073,-0.000489701,0.000430889,-1.59397e-05,-0.00014491,0,0,0,0,0,0,0,-0.478199,-10.0901,-0.81384,21.7652,1.70687,1.5209,-0.206716,-0.462942,-0.947751,-0.353481,3.20593,0.999174,-0.147493,-0.213593
387203,1,-1.57042,-0.522954,0.000301662,-2.09665,-0.00122091,1.57105,0.78573,-1.5708,-0.523598,1.19189e-06,-2.0944,-1.27796e-06,1.5708,0.785399,0.000344405,0.000724663,0.00031943,0.00199358,8.3809e-05,-0.000247985,0.00061547,0,0,0,0,0,0,0,-0.478199,-10.1139,-0.837644,21.666,1.71236,1.52731,-0.225942,-0.463292,-0.947006,-0.35402,3.20525,0.999168,-0.147608,-0.213611
387204,1,-1.57042,-0.522953,0.000301662,-2.09665,-0.00122091,1.57105,0.785724,-1.5708,-0.523598,1.19189e-06,-2.0944,-1.27796e-06,1.5708,0.785399,-0.000884021,0.000483108,0.000212953,0.000122629,5.58727e-05,-0.000165324,-0.00148856,0,0,0,0,0,0,0,-0.430592,-10.1139,-0.837644,21.7176,1.71236,1.52731,-0.174673,-0.463739,-0.94702,-0.354711,3.20436,0.999145,-0.147768,-0.213611
387205,1,-1.57042,-0.522958,0.000303333,-2.09666,-0.0012203,1.57105,0.78573,-1.5708,-0.523598,1.19189e-06,-2.0944,-1.27796e-06,1.5708,0.785399,-3.25352e-05,-0.00144117,0.000698781,-0.00158868,0.000240699,0.000364502,0.000906499,0,0,0,0,0,0,0,-0.454395,-10.0385,-0.861447,21.789,1.70687,1.51449,-0.225942,-0.464077,-0.946995,-0.355401,3.20372,0.999134,-0.147874,-0.213593
387206,1,-1.57042,-0.522957,0.000299992,-2.09665,-0.00122091,1.57105,0.785727,-1.5708,-0.523598,1.19189e-06,-2.0944,-1.27796e-06,1.5708,0.785399,0.00118474,0.000245649,-0.00064777,0.000611314,-4.29845e-05,5.64249e-06,-0.000582462,0,0,0,0,0,0,0,-0.50597,-10.0901,-0.81384,21.7176,1.71236,1.5209,-0.193899,-0.464578,-0.946145,-0.356351,3.20346,0.999122,-0.147885,-0.213545
387207,1,-1.57042,-0.522955,0.000303333,-2.09666,-0.00122223,1.57105,0.785729,-1.5708,-0.523598,1.19189e-06,-2.0944,-1.27796e-06,1.5708,0.785399,0.00014021,0.000163766,0.000681777,-0.000706081,-0.000469466,0.000241121,0.000561128,0,0,0,0,0,0,0,-0.478199,-10.0901,-0.861447,21.7652,1.72426,1.51449,-0.219534,-0.465383,-0.945483,-0.357589,3.20345,0.999088,-0.14787,-0.213467
387208,1,-1.57042,-0.522955,0.000299992,-2.09665,-0.00122091,1.57105,0.785732,-1.5708,-0.523598,1.19189e-06,-2.0944,-1.27796e-06,1.5708,0.785399,-0.000463339,0.000109177,-0.000659106,8.6091e-05,0.000127832,-0.000313971,0.00135743,0,0,0,0,0,0,0,-0.454395,-10.0901,-0.81384,21.7414,1.71236,1.52731,-0.246084,-0.465965,-0.945985,-0.35845,3.20395,0.999068,-0.147826,-0.213371
387209,1,-1.57042,-0.522959,0.000301662,-2.09665,-0.00122091,1.57105,0.785729,-1.5708,-0.523598,1.19189e-06,-2.0944,-1.27796e-06,1.5708,0.785399,-0.000308892,-0.000576829,0.000117408,0.00126382,8.52215e-05,2.80451e-05,-0.00031575,0,0,0,0,0,0,0,-0.454395,-10.0623,-0.837644,21.6898,1.71236,1.5209,-0.213125,-0.46577,-0.946016,-0.358213,3.20395,0.999075,-0.14784,-0.21329
387210,1,-1.57042,-0.522955,0.000303333,-2.09666,-0.0012203,1.57105,0.785727,-1.5708,-0.523598,1.19189e-06,-2.0944,-1.27796e-06,1.5708,0.785399,0.000350884,0.000265061,0.000635084,-0.000363879,0.000260265,0.000256056,-0.000922577,0,0,0,0,0,0,0,-0.478199,-10.0901,-0.861447,21.7414,1.70687,1.51449,-0.193899,-0.465455,-0.944855,-0.35783,3.20297,0.99907,-0.147953,-0.213252
387211,1,-1.57042,-0.522955,0.000303333,-2.09665,-0.00121968,1.57105,0.785732,-1.5708,-0.523598,1.19189e-06,-2.0944,-1.27796e-06,1.5708,0.785399,-0.000879701,0.000176707,0.000423389,0.000314226,0.00037696,0.000170704,0.00104646,0,0,0,0,0,0,0,-0.430592,-10.0901,-0.861447,21.7176,1.70137,1.51449,-0.23876,-0.465592,-0.944225,-0.35819,3.20222,0.999046,-0.148053,-0.213241
387212,1,-1.57042,-0.522955,0.000301662,-2.09665,-0.00122162,1.57105,0.785729,-1.5708,-0.523598,1.19189e-06,-2.0944,-1.27796e-06,1.5708,0.785399,0.000527156,0.000117805,-0.000274552,-0.000347328,-0.000392953,-0.000123556,-0.000251795,0,0,0,0,0,0,0,-0.478199,-10.0901,-0.837644,21.7414,1.71877,1.5209,-0.213125,-0.465689,-0.944719,-0.358574,3.20213,0.999024,-0.148097,-0.213242
387213,1,-1.57042,-0.522955,0.000299992,-2.09665,-0.00122223,1.57105,0.785724,-1.5708,-0.523598,1.19189e-06,-2.0944,-1.27796e-06,1.5708,0.785399,0.000351438,7.85367e-05,-0.000739847,0.00032526,-0.000465419,-0.00031973,-0.00182938,0,0,0,0,0,0,0,-0.478199,-10.0901,-0.81384,21.7176,1.72426,1.52731,-0.168264,-0.465475,-0.94567,-0.358422,3.20235,0.99901,-0.148115,-0.213262
387214,1,-1.57043,-0.522955,0.000303333,-2.09666,-0.00122091,1.57105,0.785729,-1.5708,-0.523598,1.19189e-06,-2.0944,-1.27796e-06,1.5708,0.785399,-0.000879332,5.23578e-05,0.000620393,-0.000896784,0.00013053,-0.000213153,0.000441929,0,0,0,0,0,0,0,-0.430592,-10.0901,-0.861447,21.7652,1.71236,1.52731,-0.213125,-0.464992,-0.9469,-0.357826,3.20287,0.999015,-0.148093,-0.213283
387215,1,-1.57042,-0.522953,0.000299992,-2.09666,-0.00122091,1.57105,0.785727,-1.5708,-0.523598,1.19189e-06,-2.0944,-1.27796e-06,1.5708,0.785399,0.000527402,0.000591717,-0.000700029,-0.00115467,8.702e-05,-0.000142102,-0.000417458,0,0,0,0,0,0,0,-0.478199,-10.1139,-0.81384,21.789,1.71236,1.52731,-0.193899,-0.464383,-0.949194,-0.357115,3.20431,0.999056,-0.147963,-0.213265
387216,1,-1.57042,-0.522957,0.000301662,-2.09666,-0.0012203,1.57105,0.785731,-1.5708,-0.523598,1.19189e-06,-2.0944,-1.27796e-06,1.5708,0.785399,0.00100121,-0.000811948,9.01261e-05,0.000343845,0.000261464,0.000142624,0.00114585,0,0,0,0,0,0,0,-0.50597,-10.0623,-0.837644,21.7414,1.70687,1.5209,-0.232351,-0.464078,-0.951726,-0.356758,3.20613,0.999096,-0.147778,-0.2132
387217,1,-1.57042,-0.522955,0.000303333,-2.09666,-0.00122091,1.57105,0.785731,-1.5708,-0.523598,1.19189e-06,-2.0944,-1.27796e-06,1.5708,0.785399,-0.00109576,0.000665127,0.000616896,-0.000884394,-2.91413e-05,9.50828e-05,0.000763899,0,0,0,0,0,0,0,-0.430592,-10.1139,-0.861447,21.789,1.71236,1.5209,-0.232351,-0.464257,-0.953125,-0.357044,3.2073,0.999095,-0.147649,-0.213106
387218,1,-1.57042,-0.522956,0.000301662,-2.09666,-0.00122091,1.57105,0.785729,-1.5708,-0.523598,1.19189e-06,-2.0944,-1.27796e-06,1.5708,0.785399,0.00103273,0.000443418,-0.000145548,-3.27839e-05,-1.94275e-05,-0.000411329,-0.000202811,0,0,0,0,0,0,0,-0.50597,-10.1139,-0.837644,21.7652,1.71236,1.53372,-0.213125,-0.464636,-0.954852,-0.357691,3.20855,0.99908,-0.147525,-0.213019
387219,1,-1.57042,-0.522956,0.000301662,-2.09665,-0.00122162,1.57105,0.785723,-1.5708,-0.523598,1.19189e-06,-2.0944,-1.27796e-06,1.5708,0.785399,3.88735e-05,-0.0002612,-9.7032e-05,0.00174138,-0.000250311,-0.00027422,-0.00203408,0,0,0,0,0,0,0,-0.478199,-10.0901,-0.837644,21.6898,1.71877,1.53372,-0.161856,-0.465105,-0.956218,-0.358401,3.20919,0.999039,-0.147472,-0.212964
387220,1,-1.57042,-0.522957,0.000301662,-2.09665,-0.00122162,1.57105,0.78573,-1.5708,-0.523598,1.19189e-06,-2.0944,-1.27796e-06,1.5708,0.785399,2.59157e-05,-0.000174133,-6.4688e-05,-4.55046e-05,-0.000166874,0.000291905,0.00101754,0,0,0,0,0,0,0,-0.478199,-10.0901,-0.837644,21.7414,1.71877,1.5209,-0.225942,-0.465473,-0.955328,-0.358861,3.20809,0.998968,-0.147581,-0.212922
387221,1,-1.57042,-0.522955,0.000299992,-2.09666,-0.0012203,1.57105,0.785727,-1.5708,-0.523598,1.19189e-06,-2.0944,-1.27796e-06,1.5708,0.785399,0.00066689,-0.000116089,-0.000599937,-3.03364e-05,0.00032956,-4.27557e-05,-0.000508437,0,0,0,0,0,0,0,-0.50597,-10.0901,-0.81384,21.7414,1.70687,1.52731,-0.193899,-0.465593,-0.953483,-0.358872,3.20647,0.998909,-0.14771,-0.212854
387222,1,-1.57043,-0.522955,0.000299992,-2.09665,-0.00122223,1.57105,0.785727,-1.5708,-0.523598,1.19189e-06,-2.0944,-1.27796e-06,1.5708,0.785399,-0.000761832,-7.73925e-05,-0.000399958,0.000536588,-0.000424553,0.000208855,-0.000338958,0,0,0,0,0,0,0,-0.454395,-10.0901,-0.81384,21.7176,1.72426,1.5209,-0.193899,-0.465336,-0.951829,-0.358213,3.20513,0.998886,-0.147789,-0.21276
387223,1,-1.57042,-0.522953,0.000299992,-2.09665,-0.00122091,1.57105,0.785732,-1.5708,-0.523598,1.19189e-06,-2.0944,-1.27796e-06,1.5708,0.785399,-0.000507888,0.000505217,-0.000266639,0.000357725,0.000157774,0.000376596,0.00143554,0,0,0,0,0,0,0,-0.454395,-10.1139,-0.81384,21.7176,1.71236,1.51449,-0.23876,-0.464459,-0.950649,-0.356642,3.20392,0.998907,-0.147855,-0.212643
387224,1,-1.57042,-0.522958,0.000298043,-2.09665,-0.00122091,1.57105,0.785728,-1.5708,-0.523598,1.19189e-06,-2.0944,-1.27796e-06,1.5708,0.785399,0.000867833,-0.00142643,-0.000827373,-0.00087514,0.000105183,0.000251064,-0.000229768,0,0,0,0,0,0,0,-0.50597,-10.0385,-0.786069,21.7652,1.71236,1.51449,-0.206716,-0.463397,-0.949608,-0.354747,3.20293,0.998952,-0.147895,-0.212511
387225,1,-1.57042,-0.522959,0.000303333,-2.09665,-0.00122091,1.57105,0.785724,-1.5708,-0.523598,1.19189e-06,-2.0944,-1.27796e-06,1.5708,0.785399,0.000578556,-0.000394139,0.00121166,-0.000583427,7.01218e-05,-6.99831e-05,-0.00133997,0,0,0,0,0,0,0,-0.50597,-10.0623,-0.861447,21.7652,1.71236,1.5209,-0.174673,-0.463262,-0.947781,-0.354042,3.20221,0.998973,-0.147883,-0.212387
387226,1,-1.57043,-0.522957,0.000299992,-2.09665,-0.00122091,1.57105,0.785728,-1.5708,-0.523598,1.19189e-06,-2.0944,-1.27796e-06,1.5708,0.785399,-0.00137753,0.000386855,-0.000305853,0.000724673,4.67479e-05,-0.000284014,0.000293479,0,0,0,0,0,0,0,-0.430592,-10.0901,-0.81384,21.7176,1.71236,1.52731,-0.206716,-0.463978,-0.946117,-0.354575,3.20182,0.998965,-0.147847,-0.212261
387227,1,-1.57042,-0.522954,0.000301662,-2.09666,-0.00122162,1.57105,0.78573,-1.5708,-0.523598,1.19189e-06,-2.0944,-1.27796e-06,1.5708,0.785399,-0.000361544,0.000814715,0.00035291,-7.36969e-05,-0.000206194,4.80161e-05,0.00090773,0,0,0,0,0,0,0,-0.454395,-10.1139,-0.837644,21.7414,1.71877,1.5209,-0.225942,-0.46429,-0.946269,-0.354659,3.20196,0.998979,-0.147812,-0.212112
387228,1,-1.57042,-0.522957,0.000299992,-2.09665,-0.0012203,1.57105,0.785727,-1.5708,-0.523598,1.19189e-06,-2.0944,-1.27796e-06,1.5708,0.785399,0.000315783,-1.36686e-05,-0.000321539,0.00115729,0.000303347,3.20107e-05,-0.000581642,0,0,0,0,0,0,0,-0.478199,-10.0901,-0.81384,21.6898,1.70687,1.5209,-0.193899,-0.464267,-0.94773,-0.35429,3.2023,0.999002,-0.147799,-0.211947
387229,1,-1.57042,-0.522959,0.000301662,-2.09666,-0.00122162,1.57105,0.785729,-1.5708,-0.523598,1.19189e-06,-2.0944,-1.27796e-06,1.5708,0.785399,0.000210522,-0.00121554,0.000342453,-0.00154852,-0.000238578,2.13405e-05,0.000561675,0,0,0,0,0,0,0,-0.478199,-10.0385,-0.837644,21.789,1.71877,1.5209,-0.219534,-0.464581,-0.948333,-0.354344,3.20225,0.999,-0.147813,-0.211787
387230,1,-1.57042,-0.522959,0.000299992,-2.09666,-0.0012203,1.57105,0.785732,-1.5708,-0.523598,1.19189e-06,-2.0944,-1.27796e-06,1.5708,0.785399,-0.000416464,-0.000253547,-0.00032851,-0.000475535,0.000281757,-0.000223132,0.00108653,0,0,0,0,0,0,0,-0.454395,-10.0623,-0.81384,21.7652,1.70687,1.52731,-0.23876,-0.465043,-0.947727,-0.354598,3.2023,0.998996,-0.147776,-0.211636
387231,1,-1.57042,-0.522955,0.000301662,-2.09666,-0.00122162,1.57105,0.785724,-1.5708,-0.523598,1.19189e-06,-2.0944,-1.27796e-06,1.5708,0.785399,0.000928783,0.000480583,0.000337805,-0.000317023,-0.000252971,8.86043e-05,-0.00164924,0,0,0,0,0,0,0,-0.50597,-10.0901,-0.837644,21.7652,1.71877,1.5209,-0.174673,-0.465551,-0.947699,-0.354911,3.20304,0.999001,-0.147663,-0.211511
387232,1,-1.57042,-0.522955,0.000303333,-2.09665,-0.00122223,1.57105,0.785727,-1.5708,-0.523598,1.19189e-06,-2.0944,-1.27796e-06,1.5708,0.785399,-0.00114405,0.000320388,0.000782015,0.00155189,-0.000372098,-0.000415648,-0.000387415,0,0,0,0,0,0,0,-0.430592,-10.0901,-0.861447,21.6898,1.72426,1.53372,-0.193899,-0.466347,-0.948626,-0.355678,3.20382,0.998987,-0.147584,-0.211414
387233,1,-1.57042,-0.522959,0.000303333,-2.09665,-0.00122091,1.57105,0.78573,-1.5708,-0.523598,1.19189e-06,-2.0944,-1.27796e-06,1.5708,0.785399,-0.000205887,-0.000436022,0.000521344,-0.000728645,0.000192744,0.000197619,0.000928518,0,0,0,0,0,0,0,-0.454395,-10.0623,-0.861447,21.7652,1.71236,1.5209,-0.225942,-0.467181,-0.949242,-0.356705,3.20394,0.998958,-0.147588,-0.211315
387234,1,-1.57042,-0.522957,0.000298043,-2.09665,-0.00122162,1.57105,0.785727,-1.5708,-0.523598,1.19189e-06,-2.0944,-1.27796e-06,1.5708,0.785399,-0.00069407,-0.000290681,-0.00141568,0.00127747,-0.000108863,-0.000105613,-0.000567783,0,0,0,0,0,0,0,-0.430592,-10.0623,-0.786069,21.6898,1.71877,1.52731,-0.193899,-0.467253,-0.948732,-0.356762,3.20337,0.998961,-0.147642,-0.211206
387235,1,-1.57042,-0.522957,0.000299992,-2.09665,-0.0012203,1.57105,0.785732,-1.5708,-0.523598,1.19189e-06,-2.0944,-1.27796e-06,1.5708,0.785399,0.00065091,-0.000193787,-0.00029417,0.000202036,0.000368234,0.00016695,0.00128299,0,0,0,0,0,0,0,-0.478199,-10.0623,-0.81384,21.7176,1.70687,1.5209,-0.23876,-0.46633,-0.947154,-0.355312,3.20209,0.999,-0.147746,-0.211102
387236,1,-1.57042,-0.522953,0.000303333,-2.09666,-0.00122091,1.57105,0.785732,-1.5708,-0.523598,1.19189e-06,-2.0944,-1.27796e-06,1.5708,0.785399,0.00043394,0.00107723,0.000917511,-0.00153575,4.2039e-05,-0.000126059,0.00112659,0,0,0,0,0,0,0,-0.478199,-10.1139,-0.861447,21.789,1.71236,1.52731,-0.246084,-0.465772,-0.946866,-0.354331,3.20161,0.999036,-0.147764,-0.211006
387237,1,-1.57042,-0.52296,0.000303333,-2.09666,-0.00122091,1.57105,0.785727,-1.5708,-0.523598,1.19189e-06,-2.0944,-1.27796e-06,1.5708,0.785399,-0.00082433,-0.00104508,0.000611674,-0.000467018,2.8026e-05,-8.40392e-05,-0.000944358,0,0,0,0,0,0,0,-0.430592,-10.0385,-0.861447,21.7652,1.71236,1.52731,-0.200308,-0.466275,-0.948787,-0.355026,3.20296,0.999058,-0.147589,-0.210944
387238,1,-1.57042,-0.522959,0.000301662,-2.09666,-0.00122091,1.57105,0.785726,-1.5708,-0.523598,1.19189e-06,-2.0944,-1.27796e-06,1.5708,0.785399,7.25838e-06,-0.000139909,-0.000149029,0.000245466,1.8684e-05,0.000418692,-0.00110429,0,0,0,0,0,0,0,-0.454395,-10.0623,-0.837644,21.7414,1.71236,1.51449,-0.18749,-0.466852,-0.949889,-0.35604,3.20422,0.999075,-0.147402,-0.210945
387239,1,-1.57043,-0.522958,0.000305282,-2.09665,-0.00121968,1.57105,0.78573,-1.5708,-0.523598,1.19189e-06,-2.0944,-1.27796e-06,1.5708,0.785399,4.83892e-06,0.000556341,0.00110707,0.000720456,0.000419357,0.000279128,0.00068796,0,0,0,0,0,0,0,-0.454395,-10.0901,-0.889218,21.7176,1.70137,1.51449,-0.225942,-0.46733,-0.949754,-0.357039,3.20446,0.999064,-0.147329,-0.21098
387240,1,-1.57042,-0.522958,0.000301662,-2.09666,-0.00122162,1.57105,0.785729,-1.5708,-0.523598,1.19189e-06,-2.0944,-1.27796e-06,1.5708,0.785399,0.000560038,-0.00027872,-0.000468377,-7.65078e-05,-0.000364689,-5.12737e-05,-1.60776e-05,0,0,0,0,0,0,0,-0.478199,-10.0623,-0.837644,21.7414,1.71877,1.5209,-0.213125,-0.468044,-0.949735,-0.358433,3.20433,0.999012,-0.147331,-0.21101
387241,1,-1.57042,-0.522955,0.000301662,-2.09666,-0.00122091,1.57105,0.785726,-1.5708,-0.523598,1.19189e-06,-2.0944,-1.27796e-06,1.5708,0.785399,0.000373359,0.000463801,-0.000312251,-0.000607817,-5.76681e-06,-3.41825e-05,-0.000960154,0,0,0,0,0,0,0,-0.478199,-10.0901,-0.837644,21.7652,1.71236,1.5209,-0.18749,-0.468546,-0.950168,-0.359465,3.20449,0.998961,-0.147322,-0.21104
387242,1,-1.57042,-0.522957,0.000301662,-2.09665,-0.00122162,1.57105,0.785727,-1.5708,-0.523598,1.19189e-06,-2.0944,-1.27796e-06,1.5708,0.785399,0.000248906,-0.000340413,-0.000208168,0.000151601,-0.000241203,-2.27883e-05,-0.000165385,0,0,0,0,0,0,0,-0.478199,-10.0623,-0.837644,21.7414,1.71877,1.5209,-0.200308,-0.468594,-0.951071,-0.359747,3.20512,0.998935,-0.14727,-0.211067
387243,1,-1.57042,-0.522955,0.000301662,-2.09665,-0.00122162,1.57105,0.785729,-1.5708,-0.523598,1.19189e-06,-2.0944,-1.27796e-06,1.5708,0.785399,-0.000390875,0.000422672,-0.000138778,0.000657879,-0.000160802,-0.000252551,0.00060182,0,0,0,0,0,0,0,-0.454395,-10.0901,-0.837644,21.7176,1.71877,1.52731,-0.219534,-0.468274,-0.951608,-0.359487,3.20547,0.998922,-0.147258,-0.211069
387244,1,-1.57043,-0.522957,0.000301662,-2.09666,-0.00122162,1.57105,0.785726,-1.5708,-0.523598,1.19189e-06,-2.0944,-1.27796e-06,1.5708,0.785399,-0.000817395,-0.000367833,-9.2519e-05,-0.000118226,-0.000107202,-0.000168367,-0.000785581,0,0,0,0,0,0,0,-0.430592,-10.0623,-0.837644,21.7414,1.71877,1.52731,-0.18749,-0.467438,-0.951541,-0.358565,3.20529,0.99893,-0.147302,-0.211044
387245,1,-1.57042,-0.522959,0.000303333,-2.09666,-0.00122091,1.57105,0.785727,-1.5708,-0.523598,1.19189e-06,-2.0944,-1.27796e-06,1.5708,0.785399,0.000568694,-0.000245222,0.000495133,-0.00119244,0.000165891,0.000599832,-0.000286362,0,0,0,0,0,0,0,-0.478199,-10.0623,-0.861447,21.789,1.71236,1.50808,-0.193899,-0.466553,-0.951274,-0.357682,3.20528,0.998963,-0.147313,-0.210997
387246,1,-1.57043,-0.522954,0.000301662,-2.09665,-0.00122162,1.57105,0.785731,-1.5708,-0.523598,1.19189e-06,-2.0944,-1.27796e-06,1.5708,0.785399,-0.000734495,0.00104294,-0.000226724,0.000318663,-0.000126765,-0.000312189,0.00123325,0,0,0,0,0,0,0,-0.430592,-10.1139,-0.837644,21.7414,1.71877,1.52731,-0.232351,-0.466054,-0.951881,-0.357416,3.20606,0.999009,-0.147245,-0.210916
387247,1,-1.57043,-0.522959,0.000299992,-2.09666,-0.00122091,1.57105,0.785725,-1.5708,-0.523598,1.19189e-06,-2.0944,-1.27796e-06,1.5708,0.785399,6.71488e-05,-0.000511129,-0.000707961,0.000212442,0.000152849,-0.000208126,-0.00107671,0,0,0,0,0,0,0,-0.454395,-10.0623,-0.81384,21.7414,1.71236,1.52731,-0.181082,-0.465303,-0.953221,-0.35679,3.20703,0.999072,-0.14718,-0.21081
387248,1,-1.57042,-0.522957,0.000299992,-2.09666,-0.00122162,1.57105,0.78573,-1.5708,-0.523598,1.19189e-06,-2.0944,-1.27796e-06,1.5708,0.785399,0.000601578,-0.000340753,-0.000471974,-0.000415184,-0.00013546,0.000335967,0.000943707,0,0,0,0,0,0,0,-0.478199,-10.0623,-0.81384,21.7652,1.71877,1.51449,-0.225942,-0.46424,-0.953434,-0.355614,3.20731,0.999139,-0.147178,-0.2107
387249,1,-1.57042,-0.522959,0.000301662,-2.09665,-0.00122223,1.57105,0.785732,-1.5708,-0.523598,1.19189e-06,-2.0944,-1.27796e-06,1.5708,0.785399,0.000401052,-0.000227169,0.000242163,0.00148645,-0.000293757,0.000223978,0.00110386,0,0,0,0,0,0,0,-0.478199,-10.0623,-0.837644,21.6898,1.72426,1.51449,-0.23876,-0.463646,-0.951959,-0.354981,3.20663,0.999169,-0.147265,-0.210584
387250,1,-1.57042,-0.522955,0.000303333,-2.09665,-0.00122162,1.57105,0.785727,-1.5708,-0.523598,1.19189e-06,-2.0944,-1.27796e-06,1.5708,0.785399,-0.000846256,0.000498168,0.000718254,0.000341352,7.6126e-06,0.000149319,-0.000925608,0,0,0,0,0,0,0,-0.430592,-10.0901,-0.861447,21.7176,1.71877,1.51449,-0.193899,-0.463692,-0.949805,-0.355299,3.20516,0.99916,-0.147456,-0.210485
387251,1,-1.57042,-0.522957,0.000301662,-2.09665,-0.00122162,1.57105,0.785727,-1.5708,-0.523598,1.19189e-06,-2.0944,-1.27796e-06,1.5708,0.785399,-7.3587e-06,-0.000317502,-7.79761e-05,0.000227568,5.07506e-06,-0.000137813,-0.000617072,0,0,0,0,0,0,0,-0.454395,-10.0623,-0.837644,21.7176,1.71877,1.5209,-0.193899,-0.463908,-0.948157,-0.356008,3.20374,0.999161,-0.147662,-0.210423
387252,1,-1.57042,-0.522959,0.000299992,-2.09666,-0.0012203,1.57105,0.785732,-1.5708,-0.523598,1.19189e-06,-2.0944,-1.27796e-06,1.5708,0.785399,-4.9058e-06,-0.000211668,-0.000608796,-0.0004051,0.000444193,-9.18754e-05,0.0015214,0,0,0,0,0,0,0,-0.454395,-10.0623,-0.81384,21.7414,1.70687,1.5209,-0.246084,-0.463833,-0.946969,-0.356311,3.20282,0.999204,-0.147809,-0.210381
387253,1,-1.57042,-0.522959,0.000301662,-2.09666,-0.0012203,1.57105,0.785729,-1.5708,-0.523598,1.19189e-06,-2.0944,-1.27796e-06,1.5708,0.785399,0.000553541,-0.000697924,0.000150948,-0.000270067,0.000296129,-0.000298609,3.09214e-05,0,0,0,0,0,0,0,-0.478199,-10.0385,-0.837644,21.7414,1.70687,1.52731,-0.219534,-0.463608,-0.945692,-0.356293,3.2023,0.999265,-0.147889,-0.21035
387254,1,-1.57042,-0.522957,0.000299992,-2.09666,-0.00122223,1.57105,0.785728,-1.5708,-0.523598,1.19189e-06,-2.0944,-1.27796e-06,1.5708,0.785399,-0.000187784,0.000741143,-0.00045618,-0.000736856,-0.000446841,-0.000436432,-0.000454104,0,0,0,0,0,0,0,-0.454395,-10.0901,-0.81384,21.7652,1.72426,1.53372,-0.206716,-0.463497,-0.945132,-0.356356,3.20251,0.999329,-0.147879,-0.210351
387255,1,-1.57042,-0.52296,0.000301662,-2.09666,-0.0012203,1.57105,0.785729,-1.5708,-0.523598,1.19189e-06,-2.0944,-1.27796e-06,1.5708,0.785399,-0.00012519,-0.000155518,0.000252692,-0.000491238,0.000346366,0.000183763,0.000171982,0,0,0,0,0,0,0,-0.454395,-10.0623,-0.837644,21.7652,1.70687,1.5209,-0.219534,-0.463317,-0.946286,-0.3563,3.20379,0.999408,-0.14776,-0.210389
387256,1,-1.57042,-0.522956,0.000303333,-2.09666,-0.00122223,1.57105,0.785727,-1.5708,-0.523598,1.19189e-06,-2.0944,-1.27796e-06,1.5708,0.785399,0.00167978,0.000545935,0.000725273,-0.000327492,-0.000413349,-0.000352209,-0.000597422,0,0,0,0,0,0,0,-0.529774,-10.0901,-0.861447,21.7652,1.72426,1.53372,-0.200308,-0.463738,-0.948457,-0.357075,3.20563,0.999463,-0.147584,-0.210445
387257,1,-1.57043,-0.522957,0.000298043,-2.09665,-0.00122162,1.57105,0.785724,-1.5708,-0.523598,1.19189e-06,-2.0944,-1.27796e-06,1.5708,0.785399,-0.0012002,-0.000285657,-0.00127972,0.000338484,-7.21157e-05,2.55297e-06,-0.00158508,0,0,0,0,0,0,0,-0.430592,-10.0623,-0.786069,21.7414,1.71877,1.52731,-0.168264,-0.464558,-0.950389,-0.358314,3.20718,0.999488,-0.147432,-0.210508
387258,1,-1.57043,-0.522959,0.000301662,-2.09665,-0.00122091,1.57105,0.78573,-1.5708,-0.523598,1.19189e-06,-2.0944,-1.27796e-06,1.5708,0.785399,-0.000800132,-0.000190438,0.000353278,0.000782468,0.000189282,0.000239061,0.00107951,0,0,0,0,0,0,0,-0.430592,-10.0623,-0.837644,21.7176,1.71236,1.5209,-0.225942,-0.46423,-0.950802,-0.357879,3.20753,0.999548,-0.147385,-0.210559
387259,1,-1.57042,-0.522958,0.000303333,-2.09666,-0.00122091,1.57105,0.785732,-1.5708,-0.523598,1.19189e-06,-2.0944,-1.27796e-06,1.5708,0.785399,2.33909e-05,0.000522655,0.00079233,-0.00114879,0.000126188,0.000159374,0.00119439,0,0,0,0,0,0,0,-0.454395,-10.0901,-0.861447,21.789,1.71236,1.5209,-0.23876,-0.463465,-0.950474,-0.356945,3.20732,0.999619,-0.147385,-0.210567
387260,1,-1.57043,-0.522956,0.000299992,-2.09666,-0.00122162,1.57105,0.785727,-1.5708,-0.523598,1.19189e-06,-2.0944,-1.27796e-06,1.5708,0.785399,1.55939e-05,0.000905249,-0.000585404,-0.000209048,-0.000153234,-0.00013111,-0.000627891,0,0,0,0,0,0,0,-0.454395,-10.1139,-0.81384,21.7652,1.71877,1.52731,-0.200308,-0.463244,-0.951954,-0.356864,3.20827,0.999683,-0.147279,-0.210551
387261,1,-1.57042,-0.522956,0.000299992,-2.09666,-0.00122091,1.57105,0.785732,-1.5708,-0.523598,1.19189e-06,-2.0944,-1.27796e-06,1.5708,0.785399,1.03959e-05,4.66872e-05,-0.000390269,-0.000139366,0.000135203,0.000149953,0.00127683,0,0,0,0,0,0,0,-0.454395,-10.0901,-0.81384,21.7652,1.71236,1.5209,-0.246084,-0.462903,-0.954824,-0.356533,3.21002,0.99976,-0.147104,-0.21055
387262,1,-1.57042,-0.522957,0.000301662,-2.09666,-0.00122091,1.57105,0.785732,-1.5708,-0.523598,1.19189e-06,-2.0944,-1.27796e-06,1.5708,0.785399,6.93062e-06,3.11248e-05,0.000296633,0.000463902,9.01354e-05,-0.000137391,0.00057995,0,0,0,0,0,0,0,-0.454395,-10.0901,-0.837644,21.7414,1.71236,1.52731,-0.23876,-0.462425,-0.956725,-0.355941,3.21113,0.999822,-0.146992,-0.210581
387263,1,-1.57042,-0.522957,0.000303333,-2.09666,-0.00122162,1.57105,0.785726,-1.5708,-0.523598,1.19189e-06,-2.0944,-1.27796e-06,1.5708,0.785399,0.000561432,-0.000628864,0.000754567,0.000309268,-0.000177269,0.000145765,-0.00151224,0,0,0,0,0,0,0,-0.478199,-10.0623,-0.861447,21.7414,1.71877,1.5209,-0.18749,-0.462592,-0.956425,-0.356304,3.21097,0.999822,-0.146993,-0.21066
387264,1,-1.57042,-0.522955,0.000299992,-2.09666,-0.0012203,1.57105,0.785729,-1.5708,-0.523598,1.19189e-06,-2.0944,-1.27796e-06,1.5708,0.785399,-0.000182524,0.000230371,-0.000610579,-0.000907445,0.00032263,0.000334536,-5.87228e-05,0,0,0,0,0,0,0,-0.454395,-10.0901,-0.81384,21.789,1.70687,1.51449,-0.213125,-0.463254,-0.954862,-0.357393,3.21027,0.999788,-0.147036,-0.210788
387265,1,-1.57042,-0.52296,0.000301662,-2.09665,-0.00122162,1.57105,0.785731,-1.5708,-0.523598,1.19189e-06,-2.0944,-1.27796e-06,1.5708,0.785399,0.00108474,-0.00105285,0.000149759,0.00106547,-0.000225723,0.000223024,0.000672928,0,0,0,0,0,0,0,-0.50597,-10.0385,-0.837644,21.7176,1.71877,1.51449,-0.232351,-0.463803,-0.952735,-0.358235,3.20944,0.999754,-0.147089,-0.21093
387266,1,-1.57042,-0.522957,0.000298043,-2.09666,-0.00122091,1.57105,0.785731,-1.5708,-0.523598,1.19189e-06,-2.0944,-1.27796e-06,1.5708,0.785399,-0.000483263,-0.000145085,-0.00110659,-0.000403309,8.68772e-05,-0.000563394,0.000448619,0,0,0,0,0,0,0,-0.454395,-10.0623,-0.786069,21.7652,1.71236,1.53372,-0.232351,-0.46401,-0.949451,-0.358435,3.20798,0.999716,-0.14721,-0.211076
387267,1,-1.57042,-0.522952,0.000299992,-2.09666,-0.00122223,1.57105,0.785728,-1.5708,-0.523598,1.19189e-06,-2.0944,-1.27796e-06,1.5708,0.785399,0.000234636,0.00166651,-8.81104e-05,0.000287939,-0.000382891,9.91217e-05,-0.000650357,0,0,0,0,0,0,0,-0.478199,-10.1377,-0.81384,21.7414,1.72426,1.5209,-0.206716,-0.463553,-0.947624,-0.357561,3.20715,0.999716,-0.147294,-0.211239
387268,1,-1.57042,-0.522955,0.000299992,-2.09665,-0.00122162,1.57105,0.785732,-1.5708,-0.523598,1.19189e-06,-2.0944,-1.27796e-06,1.5708,0.785399,-0.000400388,-2.61412e-06,-5.87403e-05,0.000748771,-5.18103e-05,0.00030344,0.00102449,0,0,0,0,0,0,0,-0.454395,-10.0901,-0.81384,21.7176,1.71877,1.51449,-0.246084,-0.46281,-0.948741,-0.356228,3.20752,0.999754,-0.147306,-0.211423
387269,1,-1.57042,-0.522953,0.000301662,-2.09666,-0.00122223,1.57105,0.785729,-1.5708,-0.523598,1.19189e-06,-2.0944,-1.27796e-06,1.5708,0.785399,-0.000266925,0.000555069,0.000517652,-0.000614443,-0.000237991,-3.50656e-05,-0.00030035,0,0,0,0,0,0,0,-0.454395,-10.1139,-0.837644,21.7652,1.72426,1.5209,-0.219534,-0.462336,-0.950602,-0.355331,3.20811,0.999796,-0.147318,-0.211625
387270,1,-1.57042,-0.522955,0.000299992,-2.09666,-0.00122091,1.57105,0.785727,-1.5708,-0.523598,1.19189e-06,-2.0944,-1.27796e-06,1.5708,0.785399,0.000378862,0.000370046,-0.000211711,-0.000409629,0.000282149,0.000213982,-0.00091231,0,0,0,0,0,0,0,-0.478199,-10.1139,-0.81384,21.7652,1.71236,1.51449,-0.200308,-0.462245,-0.952888,-0.355024,3.20921,0.999852,-0.147273,-0.211849
387271,1,-1.57042,-0.522954,0.000299992,-2.09665,-0.00122091,1.57105,0.785731,-1.5708,-0.523598,1.19189e-06,-2.0944,-1.27796e-06,1.5708,0.785399,0.000252575,0.000246697,-0.000141141,0.000840538,0.000188099,-9.47043e-05,0.000578588,0,0,0,0,0,0,0,-0.478199,-10.1139,-0.81384,21.7176,1.71236,1.5209,-0.232351,-0.462451,-0.955241,-0.355056,3.21044,0.99991,-0.147216,-0.212087
387272,1,-1.57042,-0.522955,0.000299992,-2.09665,-0.00122162,1.57105,0.785727,-1.5708,-0.523598,1.19189e-06,-2.0944,-1.27796e-06,1.5708,0.785399,0.000168383,-0.000392347,-9.40937e-05,0.00176678,-0.000111959,0.000411582,-0.000801069,0,0,0,0,0,0,0,-0.478199,-10.0901,-0.81384,21.666,1.71877,1.50808,-0.200308,-0.462746,-0.955538,-0.355087,3.21012,0.999935,-0.147321,-0.212321
387273,1,-1.57042,-0.522955,0.000299992,-2.09665,-0.00122091,1.57105,0.785726,-1.5708,-0.523598,1.19189e-06,-2.0944,-1.27796e-06,1.5708,0.785399,0.000112255,-0.000261565,-6.27291e-05,-2.85695e-05,0.000162719,-0.00020033,-0.00100876,0,0,0,0,0,0,0,-0.478199,-10.0901,-0.81384,21.7176,1.71236,1.5209,-0.18749,-0.46307,-0.953352,-0.355081,3.20807,0.999925,-0.147595,-0.212544
387274,1,-1.57042,-0.522955,0.000301662,-2.09666,-0.00122162,1.57105,0.78573,-1.5708,-0.523598,1.19189e-06,-2.0944,-1.27796e-06,1.5708,0.785399,7.48369e-05,-0.000174376,0.000514993,-0.000575858,-0.000128879,-0.000133553,0.000751644,0,0,0,0,0,0,0,-0.478199,-10.0901,-0.837644,21.7414,1.71877,1.5209,-0.225942,-0.463556,-0.950804,-0.355284,3.20614,0.999915,-0.147835,-0.212731
387275,1,-1.57042,-0.522957,0.000301662,-2.09666,-0.0012203,1.57105,0.785727,-1.5708,-0.523598,1.19189e-06,-2.0944,-1.27796e-06,1.5708,0.785399,4.98913e-05,-0.000116251,0.000343328,-0.00149753,0.00035489,-8.90356e-05,-0.000685699,0,0,0,0,0,0,0,-0.478199,-10.0901,-0.837644,21.789,1.70687,1.5209,-0.193899,-0.464366,-0.949753,-0.355991,3.20576,0.999928,-0.147896,-0.21286
387276,1,-1.57042,-0.522955,0.000305282,-2.09665,-0.00122162,1.57105,0.785724,-1.5708,-0.523598,1.19189e-06,-2.0944,-1.27796e-06,1.5708,0.785399,0.000682874,-7.75006e-05,0.00143531,0.000672083,-0.000204216,-0.000296716,-0.00116921,0,0,0,0,0,0,0,-0.50597,-10.0901,-0.889218,21.7176,1.71877,1.52731,-0.174673,-0.465818,-0.949857,-0.357673,3.20644,0.999932,-0.147842,-0.212936
387277,1,-1.57042,-0.522955,0.000303151,-2.09666,-0.00121968,1.57105,0.785729,-1.5708,-0.523598,1.19189e-06,-2.0944,-1.27796e-06,1.5708,0.785399,-0.000194364,0.000505145,0.000956874,-0.000108757,0.000508116,-0.000197811,0.000644681,0,0,0,0,0,0,0,-0.478199,-10.1139,-0.889218,21.7414,1.70137,1.52731,-0.213125,-0.468055,-0.950286,-0.360571,3.20704,0.999885,-0.147806,-0.212948
387278,1,-1.57042,-0.522959,0.000295662,-2.09665,-0.00122162,1.57105,0.785732,-1.5708,-0.523598,1.19189e-06,-2.0944,-1.27796e-06,1.5708,0.785399,-0.000129576,-0.00142647,-0.00233175,-7.25044e-05,-0.000305516,0.000105485,0.00165049,0,0,0,0,0,0,0,-0.478199,-10.0385,-0.762265,21.7414,1.71877,1.5209,-0.246084,-0.469481,-0.950166,-0.362276,3.20708,0.999849,-0.147819,-0.212894
387279,1,-1.57042,-0.522961,0.000301426,-2.09666,-0.00121968,1.57105,0.785726,-1.5708,-0.523598,1.19189e-06,-2.0944,-1.27796e-06,1.5708,0.785399,0.000563229,-0.000950983,0.000208739,-0.000605148,0.000440583,-0.000404394,-0.00106981,0,0,0,0,0,0,0,-0.50597,-10.0385,-0.837644,21.7652,1.70137,1.53372,-0.18749,-0.469131,-0.948101,-0.361218,3.20629,0.999868,-0.147867,-0.212818
387280,1,-1.57042,-0.522954,0.000301583,-2.09665,-0.00122091,1.57105,0.785727,-1.5708,-0.523598,1.19189e-06,-2.0944,-1.27796e-06,1.5708,0.785399,-0.000830939,0.00112925,0.00013916,0.000710192,-0.000113179,0.000442481,-0.000475849,0,0,0,0,0,0,0,-0.454395,-10.1139,-0.837644,21.7176,1.71236,1.51449,-0.193899,-0.468352,-0.945803,-0.359463,3.20536,0.999889,-0.147911,-0.212747
387281,1,-1.57042,-0.522961,0.000299966,-2.09665,-0.00122091,1.57105,0.78573,-1.5708,-0.523598,1.19189e-06,-2.0944,-1.27796e-06,1.5708,0.785399,0.00120928,-0.00101041,-0.000464039,0.000473461,-7.54529e-05,0.000294987,0.000869562,0,0,0,0,0,0,0,-0.529774,-10.0385,-0.81384,21.7176,1.71236,1.51449,-0.225942,-0.46789,-0.944753,-0.358178,3.20459,0.999879,-0.147972,-0.212664
387282,0.99,-1.57042,-0.522956,0.000298034,-2.09665,-0.00122091,1.57105,0.785731,-1.5708,-0.523598,1.19189e-06,-2.0944,-1.27796e-06,1.5708,0.785399,-0.000957052,0.00108963,-0.000958973,-0.000241171,-5.03019e-05,-4.07009e-05,0.000817067,0,0,0,0,0,0,0,-0.454395,-10.1139,-0.786069,21.7414,1.71236,1.5209,-0.232351,-0.467285,-0.944363,-0.356573,3.20387,0.999858,-0.14805,-0.212564
387283,0.98,-1.57042,-0.522958,0.000301659,-2.09665,-0.00122091,1.57105,0.785727,-1.5708,-0.523598,1.19189e-06,-2.0944,-1.27796e-06,1.5708,0.785399,-8.12227e-05,0.000169611,0.00056711,-0.000160781,-3.35346e-05,0.000210225,-0.000642083,0,0,0,0,0,0,0,-0.478199,-10.0901,-0.837644,21.7414,1.71236,1.51449,-0.200308,-0.466338,-0.945756,-0.354445,3.2041,0.999863,-0.148054,-0.212473
387285,0.96,-1.57042,-0.522957,0.000299992,-2.09666,-0.00122091,1.57105,0.785728,-1.5708,-0.523598,1.19189e-06,-2.0944,-1.27796e-06,1.5708,0.785399,-0.000252637,7.53827e-05,-0.000304763,-0.00062827,6.42154e-05,-0.000302165,-0.000522729,0,0,0,0,0,0,0,-0.478199,-10.0901,-0.81384,21.7652,1.71236,1.52731,-0.206716,-0.466523,-0.950734,-0.35332,3.20621,0.999809,-0.147929,-0.212364
387286,0.96,-1.57042,-0.522955,0.000299992,-2.09665,-0.0012203,1.57105,0.785728,-1.5708,-0.523598,1.19189e-06,-2.0944,-1.27796e-06,1.5708,0.785399,0.000481189,5.02551e-05,-0.000203175,0.000137965,0.000246261,3.59157e-05,-0.000348486,0,0,0,0,0,0,0,-0.50597,-10.0901,-0.81384,21.7414,1.70687,1.5209,-0.206716,-0.467044,-0.952836,-0.353301,3.20736,0.999771,-0.147846,-0.212358
387287,0.96,-1.57042,-0.522959,0.000301662,-2.09665,-0.0012203,1.57105,0.785732,-1.5708,-0.523598,1.19189e-06,-2.0944,-1.27796e-06,1.5708,0.785399,-0.000885633,-0.000616111,0.000421362,0.0012984,0.000164174,0.000261303,0.000954471,0,0,0,0,0,0,0,-0.454395,-10.0623,-0.837644,21.6898,1.70687,1.51449,-0.23876,-0.46745,-0.953363,-0.353096,3.20747,0.99972,-0.147861,-0.212379
387288,0.96,-1.57042,-0.522957,0.000301662,-2.09665,-0.0012203,1.57105,0.785729,-1.5708,-0.523598,1.19189e-06,-2.0944,-1.27796e-06,1.5708,0.785399,0.000616003,-0.00041074,0.000280908,-0.000340824,0.000109449,-0.000537875,-7.57631e-05,0,0,0,0,0,0,0,-0.50597,-10.0623,-0.837644,21.7414,1.70687,1.53372,-0.219534,-0.46802,-0.951644,-0.353194,3.20614,0.999625,-0.148008,-0.212418
387289,0.96,-1.57042,-0.522957,0.000301662,-2.09666,-0.0012203,1.57105,0.785725,-1.5708,-0.523598,1.19189e-06,-2.0944,-1.27796e-06,1.5708,0.785399,-0.000795756,0.000375787,0.000187272,-0.000227216,7.29662e-05,-0.000121224,-0.00147466,0,0,0,0,0,0,0,-0.454395,-10.0901,-0.837644,21.7414,1.70687,1.52731,-0.181082,-0.468779,-0.949861,-0.353633,3.20494,0.999515,-0.148123,-0.212485
387290,0.96,-1.57043,-0.522957,0.000303333,-2.09666,-0.00122162,1.57105,0.785727,-1.5708,-0.523598,1.19189e-06,-2.0944,-1.27796e-06,1.5708,0.785399,-0.000530504,-0.000399089,0.00068166,-0.000708289,-0.000392165,-8.08163e-05,-0.00050839,0,0,0,0,0,0,0,-0.454395,-10.0623,-0.861447,21.7652,1.71877,1.52731,-0.193899,-0.469403,-0.949527,-0.354016,3.20484,0.999428,-0.148113,-0.212563
387291,0.96,-1.57042,-0.522959,0.000303333,-2.09665,-0.0012203,1.57105,0.785731,-1.5708,-0.523598,1.19189e-06,-2.0944,-1.27796e-06,1.5708,0.785399,0.000203143,-0.00026606,0.00045444,0.00129104,0.000179366,0.00042084,0.00108523,0,0,0,0,0,0,0,-0.478199,-10.0623,-0.861447,21.6898,1.70687,1.51449,-0.232351,-0.47005,-0.949137,-0.354614,3.20475,0.999332,-0.148089,-0.212611
387292,0.96,-1.57042,-0.52296,0.000302122,-2.09666,-0.00122091,1.57105,0.785728,-1.5708,-0.523597,1.19194e-06,-2.0944,-1.27803e-06,1.5708,0.785399,0.000135428,-0.000177373,-0.000810664,-0.000345729,-8.38733e-05,0.00028056,-0.000225951,1.18455e-07,0.00155352,4.60725e-08,-0.003125,-7.70999e-08,0.005,1.18982e-07,-0.478199,-10.0623,-0.81384,21.7414,1.71236,1.51449,-0.206716,-0.470694,-0.947787,-0.355235,3.20386,0.999213,-0.148144,-0.212623
387293,0.96,-1.57042,-0.522961,0.000302373,-2.09666,-0.00121968,1.57105,0.785726,-1.5708,-0.523594,1.19203e-06,-2.0944,-1.27819e-06,1.57081,0.785399,9.02856e-05,-0.000675061,1.63693e-05,-0.000230486,0.000350986,-0.000287678,-0.000862711,2.3691e-07,0.00310704,9.2145e-08,-0.00625,-1.542e-07,0.01,2.37964e-07,-0.478199,-10.0385,-0.837644,21.7414,1.70137,1.52731,-0.18749,-0.470892,-0.946239,-0.355154,3.2029,0.99911,-0.148201,-0.212622
387294,0.96,-1.57042,-0.522956,0.000301899,-2.09666,-0.00122091,1.57105,0.785732,-1.5708,-0.523589,1.19217e-06,-2.09441,-1.27842e-06,1.57083,0.785399,0.000709804,0.000756385,1.09129e-05,-0.000153657,-0.000172911,0.000282933,0.00132373,3.55365e-07,0.00466055,1.38218e-07,-0.009375,-2.313e-07,0.015,3.56946e-07,-0.50597,-10.0901,-0.837644,21.7414,1.71236,1.51449,-0.23876,-0.471058,-0.94549,-0.354995,3.20259,0.999017,-0.148194,-0.212604
387295,0.96,-1.57043,-0.522957,0.000303412,-2.09666,-0.00122091,1.57105,0.785727,-1.5708,-0.523583,1.19235e-06,-2.09443,-1.27873e-06,1.57085,0.785399,-0.00193965,-0.000528619,0.000564087,-0.00407865,-0.000115274,-0.000998173,-0.000541666,4.73819e-07,0.00621407,1.8429e-07,-0.0125,-3.084e-07,0.02,4.75928e-07,-0.402821,-9.91153,-0.861447,21.6422,1.71236,1.54653,-0.200308,-0.47125,-0.947204,-0.35501,3.20427,0.998959,-0.14799,-0.212563
387296,0.96,-1.57042,-0.522963,0.000300018,-2.09665,-0.00122288,1.57105,0.785727,-1.5708,-0.523575,1.19258e-06,-2.09444,-1.27911e-06,1.57087,0.785399,-8.66732e-05,0.000983137,-0.000737566,-0.00321538,0.000330052,-0.000665449,-0.000361111,5.92274e-07,0.00776759,2.30363e-07,-0.015625,-3.855e-07,0.025,5.9491e-07,-0.454395,-9.43149,-0.81384,21.2455,1.70137,1.54653,-0.200308,-0.470743,-0.952627,-0.354291,3.20936,0.999011,-0.147407,-0.212517
387297,0.96,-1.57042,-0.522962,0.000303342,-2.09665,-0.00122018,1.57105,0.78573,-1.5708,-0.523566,1.19286e-06,-2.09446,-1.27958e-06,1.5709,0.785399,-0.000614594,0.00206973,0.000621913,-0.00278334,0.00147465,0.00761743,0.000708695,7.10729e-07,0.00932111,2.76435e-07,-0.01875,-4.626e-07,0.03,7.13892e-07,-0.430592,-8.89987,-0.861447,20.821,1.6675,1.58499,-0.225942,-0.469779,-0.961802,-0.353085,3.21686,0.999139,-0.146588,-0.212469
387298,0.96,-1.57042,-0.522953,0.000296376,-2.09666,-0.00122054,1.57105,0.785727,-1.5708,-0.523555,1.19318e-06,-2.09448,-1.28012e-06,1.57094,0.785399,0.000703895,0.00461976,-0.00190544,-0.00114989,0.000983097,0.00586872,-0.000714331,8.29184e-07,0.0108746,3.22508e-07,-0.021875,-5.397e-07,0.035,8.32874e-07,-0.478199,-8.41983,-0.762265,20.325,1.6675,1.58499,-0.193899,-0.468741,-0.974509,-0.351751,3.22456,0.999264,-0.145802,-0.212416
387299,0.96,-1.57042,-0.522936,0.000298044,-2.09666,-0.00121943,1.57105,0.785725,-1.5708,-0.523542,1.19355e-06,-2.09451,-1.28073e-06,1.57098,0.785399,0.000469263,0.00505418,-0.000713482,6.55604e-05,0.0010623,0.00379323,-0.000950939,9.47639e-07,0.0124281,3.6858e-07,-0.025,-6.168e-07,0.04,9.51857e-07,-0.478199,-7.99136,-0.786069,19.8014,1.65651,1.60421,-0.181082,-0.467399,-0.989574,-0.349744,3.23058,0.999322,-0.145071,-0.212359
387300,0.96,-1.57043,-0.522918,0.000301663,-2.09667,-0.00121876,1.57106,0.78573,-1.5708,-0.523529,1.19397e-06,-2.09454,-1.28143e-06,1.57102,0.785399,-0.000800782,0.00717469,0.000730771,-0.00234481,0.000945558,0.00249872,0.00102755,1.06609e-06,0.0139817,4.14653e-07,-0.028125,-6.939e-07,0.045,1.07084e-06,-0.430592,-7.63828,-0.837644,19.4046,1.6501,1.61703,-0.225942,-0.46621,-1.00576,-0.347849,3.23427,0.999258,-0.144175,-0.212273
387301,0.96,-1.57043,-0.522892,0.000296373,-2.09668,-0.00121812,1.57107,0.785727,-1.5708,-0.523513,1.19443e-06,-2.09457,-1.2822e-06,1.57107,0.785399,2.29574e-05,0.0116406,-0.00127606,-0.00554185,-0.000217338,0.00740279,-0.0002644,1.18455e-06,0.0155352,4.60725e-07,-0.03125,-7.70999e-07,0.05,1.18982e-06,-0.454395,-7.40817,-0.762265,19.0555,1.67299,1.5978,-0.200308,-0.465248,-1.02683,-0.3464,3.23835,0.999138,-0.142685,-0.212135
387302,0.96,-1.57043,-0.522877,0.000301662,-2.09669,-0.00121523,1.57108,0.785726,-1.5708,-0.523495,1.19496e-06,-2.0946,-1.28306e-06,1.57113,0.785399,-0.000541507,0.0118456,0.000912533,-0.00488957,0.000465459,0.00628832,-0.000650985,1.39022e-06,0.0176023,5.36882e-07,-0.0375,-8.60127e-07,0.0584956,1.40124e-06,-0.430592,-7.05508,-0.837644,18.7342,1.65651,1.57858,-0.18749,-0.464223,-1.05579,-0.344943,3.24441,0.999046,-0.140381,-0.211958
387303,0.96,-1.57043,-0.522865,0.000299992,-2.09671,-0.00121488,1.57108,0.785733,-1.5708,-0.523476,1.19558e-06,-2.09465,-1.28401e-06,1.5712,0.785399,-0.00101062,0.0113197,5.15435e-05,-0.0110057,0.000310306,0.00841685,0.00197351,1.59589e-06,0.0196694,6.13039e-07,-0.04375,-9.49254e-07,0.0669912,1.61265e-06,-0.402821,-6.67422,-0.81384,18.5596,1.65651,1.60421,-0.252493,-0.463424,-1.08793,-0.344004,3.25039,0.998969,-0.13735,-0.211749
387304,0.96,-1.57042,-0.522854,0.000299992,-2.09673,-0.00121537,1.57109,0.785727,-1.5708,-0.523454,1.19627e-06,-2.0947,-1.28505e-06,1.57127,0.785399,0.00053268,0.0117335,3.43623e-05,-0.0147389,3.42034e-06,0.00865141,-0.000617108,1.80156e-06,0.0217365,6.89195e-07,-0.05,-1.03838e-06,0.0754868,1.82407e-06,-0.454395,-6.32114,-0.81384,18.3612,1.662,1.6683,-0.200308,-0.462899,-1.11863,-0.343686,3.25563,0.998931,-0.133527,-0.211526
387305,0.96,-1.57042,-0.52284,0.000303333,-2.09675,-0.00121792,1.5711,0.785724,-1.5708,-0.52343,1.19703e-06,-2.09475,-1.28617e-06,1.57136,0.785399,0.000911932,0.0146036,0.00113653,-0.0192184,0.000205731,0.00770074,-0.00136084,2.00723e-06,0.0238035,7.65352e-07,-0.05625,-1.12751e-06,0.0839824,2.03548e-06,-0.478199,-5.94424,-0.861447,18.1113,1.65651,1.77175,-0.174673,-0.463241,-1.14839,-0.344701,3.26156,0.998953,-0.128703,-0.211312
387306,0.96,-1.57042,-0.522829,0.000305282,-2.09677,-0.00121642,1.5711,0.785729,-1.5708,-0.523404,1.19787e-06,-2.09482,-1.28739e-06,1.57145,0.785399,5.11427e-05,0.0137582,0.0014073,-0.0224381,0.000984864,0.00722426,0.000754285,2.2129e-06,0.0258706,8.41509e-07,-0.0625,-1.21664e-06,0.0924781,2.2469e-06,-0.454395,-5.43643,-0.889218,17.7146,1.63362,1.87521,-0.219534,-0.465022,-1.17786,-0.347917,3.26867,0.99902,-0.122723,-0.21109
387307,0.96,-1.57042,-0.522808,0.000305282,-2.0968,-0.00121621,1.57111,0.785732,-1.5708,-0.523376,1.19879e-06,-2.09489,-1.2887e-06,1.57155,0.785399,0.00124052,0.0172238,0.000938201,-0.0269536,0.00191119,0.00714396,0.00121493,2.41858e-06,0.0279377,9.17665e-07,-0.06875,-1.30576e-06,0.100974,2.45831e-06,-0.50597,-4.95639,-0.889218,17.2663,1.59975,1.97134,-0.23876,-0.467771,-1.20603,-0.352693,3.27628,0.999123,-0.115473,-0.210837
387308,0.96,-1.57042,-0.522782,0.000301662,-2.09684,-0.0012123,1.57113,0.785727,-1.5708,-0.523346,1.19979e-06,-2.09496,-1.29009e-06,1.57166,0.785399,0.0001774,0.0209835,-0.000580958,-0.0292122,0.00296955,0.0134419,-0.000614198,2.62425e-06,0.0300048,9.93822e-07,-0.075,-1.39489e-06,0.109469,2.66973e-06,-0.478199,-4.52792,-0.837644,16.7704,1.55397,2.02902,-0.200308,-0.470355,-1.23506,-0.357218,3.28437,0.999279,-0.106825,-0.210581
387309,0.96,-1.57042,-0.522754,0.000299992,-2.09688,-0.00120574,1.57116,0.785727,-1.5708,-0.523314,1.20086e-06,-2.09504,-1.29157e-06,1.57178,0.785399,0.00132469,0.0250924,-0.000944118,-0.0341753,0.00323431,0.0198813,-0.000409465,2.82992e-06,0.0320719,1.06998e-06,-0.08125,-1.48402e-06,0.117965,2.88114e-06,-0.529774,-4.14706,-0.81384,16.2705,1.5201,2.03543,-0.200308,-0.471628,-1.26878,-0.35962,3.29316,0.999492,-0.0967296,-0.210358
387310,0.96,-1.57042,-0.522728,0.000299992,-2.09693,-0.00120297,1.57121,0.785731,-1.5708,-0.52328,1.202e-06,-2.09513,-1.29315e-06,1.5719,0.785399,-0.000323297,0.027525,-0.000629412,-0.0380204,0.00276656,0.0269946,0.000913818,3.03559e-06,0.034139,1.14614e-06,-0.0875,-1.57314e-06,0.12646,3.09256e-06,-0.478199,-3.7424,-0.81384,15.8976,1.50362,1.97775,-0.232351,-0.471443,-1.3081,-0.359653,3.30209,0.9997,-0.085211,-0.210158
387311,0.96,-1.57043,-0.522702,0.000299992,-2.09699,-0.00119814,1.57127,0.785724,-1.5708,-0.523244,1.20322e-06,-2.09522,-1.29481e-06,1.57204,0.785399,-0.000772343,0.0299735,-0.000419608,-0.0427168,0.00228518,0.0389107,-0.00152702,3.24126e-06,0.0362061,1.22229e-06,-0.09375,-1.66227e-06,0.134956,3.30397e-06,-0.454395,-3.36551,-0.81384,15.6,1.49172,1.86148,-0.174673,-0.469995,-1.35043,-0.357795,3.3093,0.999815,-0.072487,-0.209977
387312,0.96,-1.57042,-0.522675,0.000298043,-2.09705,-0.00119891,1.57135,0.785723,-1.5708,-0.523206,1.20454e-06,-2.09533,-1.29651e-06,1.57218,0.785399,4.19164e-05,0.029148,-0.000929352,-0.0491214,0.00549556,0.0514206,-0.00149273,3.50912e-06,0.0377552,1.31447e-06,-0.103125,-1.69881e-06,0.14588,3.61328e-06,-0.478199,-3.01242,-0.786069,15.3025,1.50911,1.75894,-0.161856,-0.467653,-1.39018,-0.354678,3.31201,0.999742,-0.0590198,-0.209819
387313,0.96,-1.57042,-0.522654,0.000301662,-2.09712,-0.00119913,1.57142,0.785727,-1.5708,-0.523167,1.20594e-06,-2.09544,-1.29824e-06,1.57234,0.785399,0.000677557,0.023959,0.000586858,-0.0571824,0.00384495,0.0621176,0.000429,3.77699e-06,0.0393043,1.40665e-06,-0.1125,-1.73535e-06,0.156804,3.92258e-06,-0.50597,-2.60776,-0.837644,15.1517,1.5146,1.7333,-0.200308,-0.465709,-1.41733,-0.352106,3.30676,0.999366,-0.0453671,-0.209651
387314,0.96,-1.57042,-0.522633,0.000303333,-2.0972,-0.00119961,1.57151,0.785722,-1.5708,-0.523126,1.20744e-06,-2.09556,-1.30002e-06,1.57251,0.785399,0.000451705,0.0246497,0.00094805,-0.0642539,0.00264837,0.0692391,-0.00137551,4.04485e-06,0.0408535,1.49883e-06,-0.121875,-1.77188e-06,0.167728,4.23188e-06,-0.50597,-2.25467,-0.861447,15.0525,1.5201,1.74612,-0.155447,-0.465457,-1.42342,-0.352029,3.29149,0.998648,-0.0319325,-0.209435
387315,0.96,-1.57042,-0.52261,0.000299992,-2.09727,-0.00120276,1.5716,0.785725,-1.5708,-0.523084,1.20903e-06,-2.09569,-1.30182e-06,1.57269,0.785399,0.000857949,0.024966,-0.00048159,-0.066914,-0.00731533,0.0774979,3.24274e-05,4.31271e-06,0.0424026,1.59101e-06,-0.13125,-1.80842e-06,0.178653,4.54118e-06,-0.529774,-1.89761,-0.81384,14.8542,1.5201,1.81021,-0.181082,-0.466459,-1.40873,-0.353839,3.26655,0.997695,-0.0189467,-0.209148
387316,0.96,-1.57041,-0.52258,0.000306952,-2.09736,-0.00120259,1.57171,0.785728,-1.5708,-0.52304,1.21072e-06,-2.09583,-1.30367e-06,1.57288,0.785399,0.0023352,0.0268902,0.00814946,-0.0729656,-0.00972039,0.0835594,0.000971054,4.58058e-06,0.0439517,1.68319e-06,-0.140625,-1.84496e-06,0.189577,4.85048e-06,-0.605152,-1.6199,-0.913022,14.5804,1.50911,1.88803,-0.206716,-0.470067,-1.37734,-0.359662,3.23289,0.996525,-0.00655944,-0.208749
387317,0.95,-1.57041,-0.522553,0.000306952,-2.09745,-0.00120359,1.57182,0.785726,-1.5708,-0.522994,1.21249e-06,-2.09598,-1.30555e-06,1.57308,0.785399,0.00220642,0.0276828,0.00594551,-0.0794878,-0.0064784,0.0936686,-6.47075e-05,4.84844e-06,0.0455008,1.77537e-06,-0.15,-1.8815e-06,0.200501,5.15978e-06,-0.632923,-1.31839,-0.913022,14.2353,1.48622,1.9457,-0.18749,-0.479368,-1.33423,-0.374225,3.19282,0.99504,0.00539776,-0.208228
387318,0.95,-1.5704,-0.522522,0.000307412,-2.09756,-0.00119721,1.57195,0.78572,-1.5708,-0.522947,1.21436e-06,-2.09614,-1.30747e-06,1.57329,0.785399,0.00323418,0.0255767,0.00379127,-0.0900705,-0.00349526,0.107871,-0.00197592,5.1163e-06,0.04705,1.86755e-06,-0.159375,-1.91804e-06,0.211425,5.46908e-06,-0.708302,-1.04068,-0.889218,13.9853,1.44686,1.95852,-0.135305,-0.49252,-1.28234,-0.394381,3.14874,0.993332,0.0172822,-0.207652
387319,0.95,-1.5704,-0.522493,0.000304503,-2.09768,-0.0011908,1.57211,0.785726,-1.5708,-0.522899,1.21632e-06,-2.09631,-1.30942e-06,1.57351,0.785399,0.00215612,0.0271126,0.00160939,-0.096105,-0.00195826,0.122195,0.000615501,5.38416e-06,0.0485991,1.95973e-06,-0.16875,-1.95457e-06,0.222349,5.77838e-06,-0.708302,-0.76297,-0.837644,13.66,1.42397,1.8688,-0.18749,-0.505052,-1.2222,-0.412864,3.10159,0.991591,0.0293086,-0.207064
387320,0.95,-1.5704,-0.522463,0.00030641,-2.09781,-0.00118574,1.57228,0.785728,-1.5708,-0.522848,1.21837e-06,-2.09649,-1.31141e-06,1.57374,0.785399,0.00143741,0.0293328,0.00184596,-0.105972,-0.000407738,0.137561,0.00112241,5.65203e-06,0.0501482,2.05191e-06,-0.178125,-1.99111e-06,0.233273,6.08768e-06,-0.708302,-0.532867,-0.861447,13.4378,1.39009,1.76535,-0.206716,-0.514577,-1.15762,-0.425963,3.05273,0.989903,0.0415608,-0.206458
387321,0.95,-1.5704,-0.522435,0.000310108,-2.09794,-0.00118212,1.57247,0.785725,-1.5708,-0.522797,1.22052e-06,-2.09668,-1.31344e-06,1.57399,0.785399,0.000958276,0.0265465,0.00259924,-0.112074,-0.000539459,0.15432,-0.000201162,5.91989e-06,0.0516973,2.14408e-06,-0.1875,-2.02765e-06,0.244197,6.39698e-06,-0.708302,-0.255158,-0.913022,13.1641,1.39009,1.64907,-0.181082,-0.521202,-1.09033,-0.434,3.00236,0.988216,0.0538668,-0.205851
387322,0.95,-1.5704,-0.522407,0.000310135,-2.0981,-0.00117908,1.57266,0.785723,-1.5708,-0.522744,1.22276e-06,-2.09688,-1.31546e-06,1.57425,0.785399,0.000638851,0.0257071,0.00185445,-0.129182,4.99871e-05,0.16819,-0.000846185,6.2299e-06,0.0525803,2.2452e-06,-0.19912,-2.0171e-06,0.256415,6.7686e-06,-0.708302,-0.0290222,-0.913022,13.0649,1.37361,1.61703,-0.161856,-0.525987,-1.01794,-0.438771,2.95039,0.986467,0.0660317,-0.205279
387323,0.95,-1.5704,-0.522377,0.000308473,-2.09825,-0.00117735,1.57287,0.785728,-1.5708,-0.522691,1.22511e-06,-2.09709,-1.31747e-06,1.57451,0.785399,0.000982712,0.0287009,0.000770712,-0.132543,0.00032359,0.176858,0.00109739,6.53992e-06,0.0534633,2.34631e-06,-0.210739,-2.00656e-06,0.268633,7.14021e-06,-0.732105,0.173309,-0.889218,12.9181,1.36171,1.62985,-0.206716,-0.529115,-0.942893,-0.440588,2.89933,0.984674,0.0781112,-0.204733
387324,0.95,-1.5704,-0.522347,0.000310146,-2.09842,-0.00117976,1.57309,0.785722,-1.5708,-0.522636,1.22756e-06,-2.09731,-1.31946e-06,1.57479,0.785399,0.00121195,0.028122,0.00113904,-0.145271,-0.000744892,0.194349,-0.00116728,6.84993e-06,0.0543463,2.44742e-06,-0.222359,-1.99601e-06,0.28085,7.51183e-06,-0.755909,0.351837,-0.913022,12.815,1.3846,1.61062,-0.155447,-0.530866,-0.868814,-0.439785,2.85005,0.982805,0.0899667,-0.204193
387325,0.95,-1.57039,-0.522314,0.000308477,-2.09859,-0.00118352,1.57333,0.78572,-1.5708,-0.522581,1.2301e-06,-2.09754,-1.32145e-06,1.57509,0.785399,0.00257121,0.0287988,0.000253857,-0.151827,-0.000784726,0.203804,-0.00152417,7.15994e-06,0.0552293,2.54854e-06,-0.233978,-1.98546e-06,0.293068,7.88345e-06,-0.831288,0.47879,-0.889218,12.5928,1.39009,1.67471,-0.135305,-0.532244,-0.795362,-0.437751,2.80156,0.980799,0.101371,-0.203654
387326,0.95,-1.5704,-0.522283,0.000312096,-2.09877,-0.00118081,1.57356,0.785721,-1.5708,-0.522525,1.23275e-06,-2.09779,-1.32342e-06,1.57539,0.785399,0.000600514,0.0284838,0.00141415,-0.163692,0.00066795,0.214806,0.000204589,7.46995e-06,0.0561123,2.64965e-06,-0.245598,-1.97491e-06,0.305286,8.25506e-06,-0.78368,0.629547,-0.940793,12.4421,1.35622,1.77816,-0.168264,-0.533923,-0.721438,-0.435512,2.75344,0.978652,0.112335,-0.203084
387327,0.95,-1.57039,-0.522251,0.000306528,-2.09897,-0.00118248,1.57382,0.785712,-1.5708,-0.522468,1.2355e-06,-2.09805,-1.32539e-06,1.57571,0.785399,0.00216358,0.0288691,-0.000884412,-0.17902,-4.31423e-05,0.230321,-0.00227111,7.77997e-06,0.0569953,2.75076e-06,-0.257218,-1.96437e-06,0.317503,8.62668e-06,-0.859058,0.7565,-0.861447,12.2953,1.36812,1.82943,-0.103262,-0.535696,-0.648877,-0.432882,2.70781,0.976459,0.123264,-0.202442
387328,0.95,-1.57039,-0.52222,0.000308477,-2.09917,-0.0011826,1.57411,0.785717,-1.5708,-0.52241,1.23836e-06,-2.09831,-1.32734e-06,1.57604,0.785399,0.000792773,0.0285276,8.16531e-05,-0.188838,-6.44863e-05,0.240255,0.000181351,8.08998e-06,0.0578783,2.85188e-06,-0.268837,-1.95382e-06,0.329721,8.99829e-06,-0.831288,0.907257,-0.889218,12.0691,1.36812,1.79098,-0.149038,-0.537188,-0.580301,-0.429301,2.66745,0.974333,0.134684,-0.201705
387329,0.95,-1.57039,-0.522187,0.000308659,-2.0994,-0.00118009,1.5744,0.785716,-1.5708,-0.522351,1.24131e-06,-2.09859,-1.32928e-06,1.57638,0.785399,0.000528515,0.0287956,-0.000578943,-0.203077,0.000777926,0.258443,-0.000150367,8.39999e-06,0.0587613,2.95299e-06,-0.280457,-1.94327e-06,0.341938,9.36991e-06,-0.831288,1.03421,-0.861447,11.9699,1.34523,1.71408,-0.141714,-0.538355,-0.515573,-0.424795,2.63211,0.972301,0.146765,-0.200849
387330,0.95,-1.57039,-0.522152,0.000311318,-2.09963,-0.00117691,1.57472,0.785711,-1.5708,-0.522292,1.24436e-06,-2.09889,-1.33122e-06,1.57674,0.785399,-0.00076128,0.0295918,0.000275828,-0.216038,0.000498522,0.278239,-0.000812321,8.71001e-06,0.0596443,3.0541e-06,-0.292076,-1.93273e-06,0.354156,9.74153e-06,-0.78368,1.13339,-0.889218,11.8232,1.34523,1.57858,-0.122488,-0.539236,-0.455349,-0.419652,2.60161,0.970392,0.159445,-0.19988
387331,0.95,-1.5704,-0.522116,0.000311555,-2.09988,-0.00117392,1.57505,0.785719,-1.5708,-0.522231,1.24752e-06,-2.09919,-1.33314e-06,1.5771,0.785399,-0.00115713,0.0306557,0.000193018,-0.224574,0.000961537,0.299906,0.00139123,9.02002e-06,0.0605273,3.15521e-06,-0.303696,-1.92218e-06,0.366374,1.01131e-05,-0.755909,1.20877,-0.889218,11.6486,1.32784,1.47512,-0.174673,-0.539937,-0.399889,-0.414246,2.57461,0.968595,0.172288,-0.198819
387332,0.95,-1.5704,-0.522078,0.000313304,-2.10014,-0.00117234,1.57539,0.785719,-1.5708,-0.52217,1.25078e-06,-2.09951,-1.33502e-06,1.57748,0.785399,-0.000771423,0.0350271,0.00069234,-0.234258,0.00103662,0.310843,0.000690129,9.35614e-06,0.0608632,3.26104e-06,-0.316186,-1.88514e-06,0.379007,1.05104e-05,-0.755909,1.26035,-0.913022,11.4978,1.31685,1.43026,-0.168264,-0.540856,-0.349407,-0.409257,2.5485,0.966803,0.184651,-0.197687
387333,0.95,-1.5704,-0.522042,0.00031166,-2.1004,-0.001171,1.57574,0.785715,-1.5708,-0.522109,1.25415e-06,-2.09984,-1.33687e-06,1.57787,0.785399,-0.00107109,0.034451,-9.01151e-05,-0.246153,0.0010895,0.322635,-0.000760617,9.69227e-06,0.0611992,3.36687e-06,-0.328676,-1.84811e-06,0.39164,1.09077e-05,-0.732105,1.33572,-0.889218,11.3749,1.30586,1.41104,-0.135305,-0.54226,-0.30549,-0.40506,2.52291,0.964941,0.196284,-0.196523
387334,0.95,-1.5704,-0.522002,0.000311669,-2.10068,-0.00117158,1.57609,0.78572,-1.5708,-0.522048,1.25762e-06,-2.10018,-1.33868e-06,1.57828,0.785399,-0.000714063,0.0381757,-5.6224e-05,-0.253977,0.000516528,0.333892,0.000950984,1.00284e-05,0.0615351,3.4727e-06,-0.341166,-1.81107e-06,0.404273,1.1305e-05,-0.732105,1.36349,-0.889218,11.2519,1.31136,1.46231,-0.174673,-0.543932,-0.267474,-0.401332,2.4975,0.962968,0.207107,-0.195356
387335,0.95,-1.5704,-0.521963,0.000309723,-2.10097,-0.00117156,1.57646,0.785717,-1.5708,-0.521986,1.2612e-06,-2.10053,-1.34046e-06,1.57869,0.785399,-0.000476042,0.0384321,-0.000684207,-0.264356,0.000339583,0.345223,-0.000315446,1.03645e-05,0.061871,3.57853e-06,-0.353656,-1.77404e-06,0.416906,1.17023e-05,-0.732105,1.36349,-0.861447,11.1527,1.31136,1.54653,-0.149038,-0.545724,-0.233587,-0.397828,2.47083,0.960833,0.216983,-0.194191
387336,0.95,-1.57039,-0.521927,0.000311673,-2.10128,-0.00117414,1.57685,0.785715,-1.5708,-0.521923,1.26488e-06,-2.1009,-1.34219e-06,1.57912,0.785399,0.00144588,0.036756,0.000195643,-0.279295,0.000426263,0.360956,0.00026442,1.07006e-05,0.062207,3.68436e-06,-0.366146,-1.737e-06,0.42954,1.20996e-05,-0.807484,1.43887,-0.889218,11.0773,1.30586,1.60421,-0.161856,-0.548341,-0.2008,-0.395498,2.4423,0.95851,0.226024,-0.193041
387337,0.95,-1.5704,-0.521886,0.000313343,-2.1016,-0.00117069,1.57726,0.785719,-1.5708,-0.521861,1.26867e-06,-2.10127,-1.34389e-06,1.57957,0.785399,-0.000242508,0.0380052,0.000688866,-0.293747,0.000722302,0.376106,0.000888357,1.10368e-05,0.0625429,3.79019e-06,-0.378636,-1.69997e-06,0.442173,1.24969e-05,-0.755909,1.4111,-0.913022,11.0257,1.29396,1.56576,-0.181082,-0.552652,-0.167441,-0.39567,2.41363,0.956048,0.23468,-0.191913
387338,0.95,-1.5704,-0.52185,0.000311673,-2.10193,-0.00117059,1.57768,0.785719,-1.5708,-0.521798,1.27257e-06,-2.10167,-1.34556e-06,1.58002,0.785399,-0.00192491,0.0374044,-9.63489e-05,-0.308102,0.000276073,0.390676,0.00130431,1.13729e-05,0.0628788,3.89602e-06,-0.391126,-1.66293e-06,0.454806,1.28942e-05,-0.680531,1.43887,-0.889218,10.9781,1.29946,1.54653,-0.200308,-0.5576,-0.135274,-0.397116,2.38739,0.953587,0.24342,-0.190826
387339,0.95,-1.5704,-0.521813,0.000308054,-2.10228,-0.00117035,1.57812,0.785714,-1.5708,-0.521735,1.27657e-06,-2.10207,-1.34718e-06,1.58049,0.785399,-0.00184009,0.0370323,-0.00126974,-0.317487,0.00018254,0.40695,-0.00153795,1.1709e-05,0.0632148,4.00184e-06,-0.403616,-1.6259e-06,0.467439,1.32915e-05,-0.656727,1.46268,-0.837644,10.9265,1.29946,1.5209,-0.135305,-0.561146,-0.103036,-0.39706,2.36271,0.951219,0.25225,-0.18983
387340,0.95,-1.5704,-0.521769,0.000306383,-2.10264,-0.00116905,1.57857,0.785718,-1.5708,-0.521671,1.28068e-06,-2.10249,-1.34877e-06,1.58097,0.785399,-0.00298996,0.0391586,-0.00140262,-0.334572,0.000527462,0.426263,-4.19589e-05,1.20452e-05,0.0635507,4.10767e-06,-0.416106,-1.58886e-06,0.480072,1.36888e-05,-0.581349,1.3873,-0.81384,11.0019,1.28847,1.43026,-0.161856,-0.562421,-0.0700042,-0.394232,2.33831,0.948967,0.260984,-0.188944
387341,0.95,-1.57041,-0.521723,0.000306383,-2.10301,-0.00117096,1.57905,0.785718,-1.5708,-0.521607,1.28489e-06,-2.10291,-1.35032e-06,1.58146,0.785399,-0.00199331,0.0399872,-0.000934567,-0.343963,-0.000293467,0.440417,0.00115882,1.23813e-05,0.0638866,4.2135e-06,-0.428596,-1.55183e-06,0.492705,1.40861e-05,-0.581349,1.33572,-0.81384,10.9265,1.30586,1.34054,-0.193899,-0.561975,-0.0396051,-0.389469,2.31555,0.946832,0.269594,-0.188126
387342,0.95,-1.57041,-0.521674,0.000304435,-2.1034,-0.00117095,1.57953,0.785716,-1.57079,-0.521544,1.28921e-06,-2.10336,-1.35182e-06,1.58197,0.785399,-0.0025353,0.0448182,-0.00127227,-0.353852,-0.000196281,0.452637,-0.000651606,1.27307e-05,0.0637499,4.32054e-06,-0.441086,-1.49971e-06,0.505231,1.44878e-05,-0.529774,1.23654,-0.786069,10.9027,1.30586,1.34054,-0.155447,-0.560867,-0.0144402,-0.384318,2.29431,0.944736,0.277858,-0.187353
387343,0.95,-1.57041,-0.52163,0.000302764,-2.10379,-0.00117217,1.58002,0.785719,-1.57079,-0.52148,1.29364e-06,-2.10381,-1.35327e-06,1.58248,0.785399,-0.00104058,0.0465426,-0.0014047,-0.363263,-0.000538233,0.464146,0.00122711,1.30801e-05,0.0636132,4.42758e-06,-0.453576,-1.44759e-06,0.517757,1.48895e-05,-0.557545,1.20877,-0.762265,10.7798,1.31685,1.37899,-0.200308,-0.559687,0.00368544,-0.379521,2.27351,0.9426,0.285471,-0.186625
387344,0.95,-1.57041,-0.521583,0.000302764,-2.10421,-0.00117095,1.58052,0.785719,-1.57079,-0.521417,1.29817e-06,-2.10428,-1.35467e-06,1.58301,0.785399,-0.000693723,0.0445543,-0.000936253,-0.376879,4.77212e-05,0.477289,0.00105543,1.34295e-05,0.0634765,4.53462e-06,-0.466066,-1.39547e-06,0.530284,1.52911e-05,-0.557545,1.18497,-0.762265,10.8512,1.30586,1.44949,-0.206716,-0.559159,0.0173804,-0.376003,2.25189,0.940373,0.292312,-0.185945
387345,0.95,-1.57041,-0.52154,0.000302764,-2.10463,-0.00116901,1.58104,0.785716,-1.57079,-0.521353,1.30282e-06,-2.10475,-1.35601e-06,1.58356,0.785399,0.000651142,0.0426875,-0.000624006,-0.387278,0.000675806,0.489527,-0.00119525,1.37789e-05,0.0633398,4.64166e-06,-0.478556,-1.34335e-06,0.54281,1.56928e-05,-0.605152,1.18497,-0.762265,10.7282,1.28847,1.4559,-0.155447,-0.560247,0.0346669,-0.375076,2.22691,0.937999,0.298352,-0.185341
387346,0.95,-1.57041,-0.521496,0.000300815,-2.10507,-0.00116521,1.58159,0.785716,-1.57079,-0.52129,1.30756e-06,-2.10524,-1.3573e-06,1.58411,0.785399,-0.000122717,0.0425516,-0.0010655,-0.400311,0.00519849,0.505295,-0.00103419,1.41284e-05,0.0632031,4.74871e-06,-0.491046,-1.29123e-06,0.555336,1.60944e-05,-0.581349,1.13339,-0.734494,10.752,1.28298,1.41104,-0.149038,-0.563038,0.0608995,-0.376791,2.19687,0.935449,0.303649,-0.184835
387347,0.95,-1.57041,-0.521449,0.000304435,-2.10552,-0.00116536,1.58215,0.785725,-1.57079,-0.521227,1.31242e-06,-2.10575,-1.35854e-06,1.58468,0.785399,-0.000638624,0.0440885,0.000496187,-0.414499,0.00343733,0.525195,0.00215885,1.44778e-05,0.0630664,4.85575e-06,-0.503536,-1.23912e-06,0.567862,1.64961e-05,-0.557545,1.00644,-0.786069,10.8036,1.29396,1.28195,-0.225942,-0.566868,0.0935749,-0.380264,2.16351,0.93278,0.308412,-0.184392
387348,0.95,-1.57041,-0.521407,0.000300815,-2.10597,-0.00116257,1.58272,0.785725,-1.57079,-0.521164,1.31738e-06,-2.10626,-1.35973e-06,1.58526,0.785399,-0.000425749,0.0438737,-0.000875566,-0.430977,0.00338929,0.530042,0.00120187,1.48272e-05,0.0629297,4.96279e-06,-0.516026,-1.187e-06,0.580388,1.68978e-05,-0.557545,0.931061,-0.734494,10.8274,1.27199,1.25631,-0.219534,-0.571071,0.125818,-0.384674,2.13173,0.930134,0.313064,-0.183985
387349,0.95,-1.57041,-0.521355,0.000300815,-2.10644,-0.00116169,1.58328,0.785718,-1.57079,-0.521101,1.32245e-06,-2.10679,-1.36086e-06,1.58585,0.785399,-0.000933447,0.0459589,-0.000583659,-0.443627,0.00165867,0.542272,-0.000385547,1.51766e-05,0.062793,5.06983e-06,-0.528516,-1.13488e-06,0.592914,1.72994e-05,-0.529774,0.7565,-0.734494,10.752,1.29396,1.30117,-0.18749,-0.57479,0.152286,-0.388751,2.10573,0.927636,0.317986,-0.183647
387350,0.95,-1.57041,-0.521305,0.000302764,-2.10692,-0.00116439,1.58387,0.785718,-1.57079,-0.521039,1.32763e-06,-2.10733,-1.36194e-06,1.58646,0.785399,-0.00117911,0.0469284,0.000260546,-0.448197,0.00106204,0.550866,0.000217686,1.5526e-05,0.0626563,5.17687e-06,-0.541006,-1.08276e-06,0.60544,1.77011e-05,-0.50597,0.601776,-0.762265,10.629,1.29946,1.34695,-0.200308,-0.577695,0.173169,-0.392012,2.08366,0.925239,0.32289,-0.183403
387351,0.95,-1.57041,-0.521254,0.000300815,-2.1074,-0.00116641,1.58447,0.785721,-1.57079,-0.520976,1.33291e-06,-2.10789,-1.36298e-06,1.58708,0.785399,-0.00143569,0.0474591,-0.000475887,-0.457918,0.000387001,0.560264,0.000145124,1.58754e-05,0.0625195,5.28391e-06,-0.553496,-1.03064e-06,0.617966,1.81027e-05,-0.478199,0.451019,-0.734494,10.5536,1.31136,1.3085,-0.200308,-0.579895,0.193765,-0.394649,2.05904,0.922789,0.327094,-0.183245
387352,0.95,-1.57041,-0.521207,0.000295344,-2.10789,-0.00116604,1.58509,0.785718,-1.57079,-0.520914,1.3383e-06,-2.10845,-1.36394e-06,1.58771,0.785399,-0.000307511,0.0454119,-0.00143086,-0.467872,0.000551288,0.575557,-0.0013274,1.62279e-05,0.0619437,5.3892e-06,-0.565986,-9.68507e-07,0.630087,1.84974e-05,-0.50597,0.399445,-0.686887,10.3791,1.30586,1.19223,-0.161856,-0.581096,0.219422,-0.39609,2.02756,0.920235,0.330261,-0.18317
387353,0.95,-1.57042,-0.521161,0.000298435,-2.1084,-0.00116042,1.58572,0.785722,-1.57079,-0.520853,1.3438e-06,-2.10903,-1.36485e-06,1.58835,0.7854,-0.000854621,0.04662,-0.000397079,-0.478229,0.00233378,0.586637,0.000301859,1.65803e-05,0.0613678,5.49449e-06,-0.578476,-9.06371e-07,0.642207,1.88921e-05,-0.478199,0.375641,-0.710691,10.2799,1.25459,1.173,-0.193899,-0.581486,0.252504,-0.396456,1.98814,0.917588,0.332292,-0.183162
387354,0.95,-1.57042,-0.521118,0.000298448,-2.10892,-0.00115607,1.58635,0.785726,-1.57079,-0.520792,1.3494e-06,-2.10962,-1.36569e-06,1.589,0.7854,-0.000569747,0.0427175,0.000292105,-0.488076,0.00306445,0.597304,0.00162539,1.69328e-05,0.0607919,5.59977e-06,-0.590966,-8.44235e-07,0.654328,1.92868e-05,-0.478199,0.427216,-0.734494,10.1569,1.21523,1.26913,-0.232351,-0.581948,0.294316,-0.397107,1.94051,0.914796,0.333116,-0.183187
387355,0.95,-1.57041,-0.521071,0.000298356,-2.10945,-0.00115288,1.58699,0.78572,-1.57079,-0.520732,1.3551e-06,-2.11023,-1.36648e-06,1.58967,0.7854,0.000826594,0.0456473,-0.000362066,-0.499743,0.00208086,0.610571,0.000134159,1.72852e-05,0.0602161,5.70506e-06,-0.603456,-7.82099e-07,0.666449,1.96814e-05,-0.529774,0.375641,-0.710691,10.0339,1.21523,1.34695,-0.206716,-0.583175,0.344533,-0.399043,1.88542,0.911789,0.332822,-0.183249
387356,0.95,-1.57041,-0.521029,0.000298882,-2.11,-0.00115436,1.58766,0.785721,-1.57079,-0.520672,1.36091e-06,-2.11084,-1.3672e-06,1.59035,0.7854,-5.7494e-06,0.040852,-0.000241371,-0.516095,0.000567957,0.627581,0.000801516,1.76377e-05,0.0596402,5.81035e-06,-0.615946,-7.19964e-07,0.67857,2.00761e-05,-0.50597,0.351837,-0.710691,9.98233,1.23812,1.31491,-0.225942,-0.585015,0.399344,-0.401933,1.82634,0.908605,0.331858,-0.183376
387357,0.95,-1.57041,-0.52098,0.000295438,-2.11057,-0.00115142,1.58833,0.785719,-1.57079,-0.520613,1.36683e-06,-2.11147,-1.36785e-06,1.59104,0.7854,0.000552979,0.0434012,-0.00136733,-0.531265,0.000196506,0.64259,-0.00112717,1.79901e-05,0.0590643,5.91564e-06,-0.628436,-6.57828e-07,0.690691,2.04708e-05,-0.529774,0.197113,-0.659116,10.1093,1.24361,1.26913,-0.181082,-0.586631,0.454129,-0.404546,1.768,0.905397,0.330867,-0.183586
387358,0.95,-1.57041,-0.520933,0.000295315,-2.11114,-0.00115085,1.58904,0.785715,-1.57079,-0.520555,1.37285e-06,-2.11211,-1.36845e-06,1.59174,0.7854,0.00101827,0.0451044,-0.000261938,-0.558679,-5.64571e-05,0.664972,-0.00220951,1.83426e-05,0.0584884,6.02093e-06,-0.640926,-5.95692e-07,0.702812,2.08654e-05,-0.557545,0.0463562,-0.686887,10.2323,1.2491,1.16018,-0.141714,-0.587843,0.497152,-0.406576,1.71955,0.902416,0.330784,-0.183855
387359,0.95,-1.57042,-0.52089,0.000294806,-2.11174,-0.00114791,1.58975,0.785719,-1.57079,-0.520497,1.37898e-06,-2.11276,-1.36898e-06,1.59246,0.7854,-0.00117719,0.0443966,-0.000824237,-0.569165,0.000822064,0.675777,0.000697134,1.8695e-05,0.0579126,6.12621e-06,-0.653416,-5.33557e-07,0.714932,2.12601e-05,-0.478199,-0.0290222,-0.659116,10.4544,1.22621,1.19863,-0.200308,-0.588706,0.518171,-0.40817,1.68862,0.899858,0.332252,-0.184116
387360,0.95,-1.57041,-0.520845,0.000295104,-2.11235,-0.00114778,1.59045,0.785714,-1.57079,-0.520439,1.38521e-06,-2.11343,-1.36945e-06,1.59318,0.7854,0.000421629,0.0445331,0.000100125,-0.576404,0.000557037,0.681503,-0.000959398,1.90475e-05,0.0573367,6.2315e-06,-0.665906,-4.71421e-07,0.727053,2.16548e-05,-0.529774,-0.128204,-0.686887,10.6528,1.22621,1.32131,-0.161856,-0.589009,0.523996,-0.409085,1.66936,0.89757,0.334627,-0.184318
387361,0.95,-1.57041,-0.520803,0.000292605,-2.11296,-0.00114906,1.59118,0.785715,-1.57079,-0.520383,1.39154e-06,-2.11411,-1.36986e-06,1.59392,0.7854,0.000281086,0.0435076,-0.000582862,-0.595351,-6.27062e-05,0.686298,-0.000164881,1.93999e-05,0.0567608,6.33679e-06,-0.678396,-4.09285e-07,0.739174,2.20495e-05,-0.529774,-0.179779,-0.659116,10.7798,1.23812,1.3854,-0.174673,-0.58929,0.523959,-0.40994,1.6544,0.895295,0.337304,-0.184447
387362,0.95,-1.57041,-0.520753,0.000296041,-2.1136,-0.00114772,1.59192,0.785719,-1.57079,-0.520327,1.39798e-06,-2.1148,-1.3702e-06,1.59467,0.7854,-0.000369421,0.0475547,0.000817852,-0.608149,0.000404064,0.701317,0.00131423,1.97472e-05,0.05574,6.43775e-06,-0.690886,-3.37126e-07,0.750741,2.24329e-05,-0.50597,-0.306732,-0.710691,10.9027,1.22621,1.32131,-0.213125,-0.589894,0.516423,-0.411197,1.64544,0.893026,0.340634,-0.184491
387363,0.95,-1.57041,-0.520707,0.00029069,-2.11427,-0.00114395,1.59268,0.785718,-1.57079,-0.520272,1.40452e-06,-2.1155,-1.37047e-06,1.59544,0.7854,0.00207377,0.0491914,-0.001218,-0.625918,0.00152778,0.719582,-0.000547998,2.00945e-05,0.0547192,6.53871e-06,-0.703376,-2.64966e-07,0.762309,2.28164e-05,-0.605152,-0.382111,-0.635312,11.2003,1.19234,1.3085,-0.174673,-0.590826,0.495151,-0.412776,1.64593,0.890843,0.344889,-0.18446
387364,0.95,-1.5704,-0.520665,0.00029067,-2.11494,-0.00114456,1.59345,0.78572,-1.57079,-0.520218,1.41116e-06,-2.11622,-1.37066e-06,1.59621,0.7854,0.00203213,0.0458114,-0.000812001,-0.63947,0.000817917,0.731735,-0.000127973,2.04418e-05,0.0536984,6.63967e-06,-0.715866,-1.92806e-07,0.773876,2.31999e-05,-0.632923,-0.382111,-0.635312,11.2519,1.19783,1.35336,-0.181082,-0.592216,0.46153,-0.414515,1.65531,0.888743,0.349881,-0.184395
387365,0.95,-1.57041,-0.520624,0.000290663,-2.11563,-0.00114076,1.59422,0.785724,-1.57079,-0.520166,1.4179e-06,-2.11695,-1.37078e-06,1.597,0.7854,0.000148325,0.0440139,-0.000541333,-0.656083,0.00535847,0.739582,0.00133884,2.07891e-05,0.0526776,6.74063e-06,-0.728356,-1.20646e-07,0.785444,2.35834e-05,-0.581349,-0.405914,-0.635312,11.3749,1.19234,1.42385,-0.219534,-0.593769,0.425115,-0.415951,1.66983,0.886636,0.355324,-0.184319
387366,0.95,-1.57041,-0.520583,0.000292331,-2.11633,-0.00114162,1.59501,0.785722,-1.57079,-0.520114,1.42474e-06,-2.11769,-1.37083e-06,1.59779,0.7854,9.88834e-05,0.0446134,0.000195923,-0.670578,0.00331362,0.751691,0.000180482,2.11364e-05,0.0516568,6.84159e-06,-0.740846,-4.84866e-08,0.797011,2.39668e-05,-0.581349,-0.509064,-0.659116,11.4502,1.20973,1.39822,-0.200308,-0.595093,0.390851,-0.416795,1.68772,0.884465,0.361206,-0.184253
387367,0.95,-1.57041,-0.520545,0.00029233,-2.11704,-0.00114446,1.59582,0.785714,-1.57079,-0.520063,1.43168e-06,-2.11844,-1.3708e-06,1.5986,0.7854,6.59223e-05,0.0416442,0.000130616,-0.68494,0.00249825,0.764284,-0.00154119,2.14837e-05,0.050636,6.94255e-06,-0.753336,2.36732e-08,0.808579,2.43503e-05,-0.581349,-0.608246,-0.659116,11.474,1.20973,1.34054,-0.155447,-0.5963,0.359726,-0.41735,1.70825,0.882232,0.367505,-0.184221
387368,0.95,-1.57041,-0.520499,0.00029233,-2.11777,-0.00114028,1.5966,0.785719,-1.57079,-0.520014,1.43873e-06,-2.11921,-1.37071e-06,1.59942,0.7854,4.39482e-05,0.0418075,8.70775e-05,-0.695206,0.00252664,0.768169,-7.80251e-05,2.1831e-05,0.0496152,7.04351e-06,-0.765826,9.58329e-08,0.820146,2.47338e-05,-0.581349,-0.810577,-0.659116,11.3749,1.19234,1.42385,-0.181082,-0.597532,0.335157,-0.417796,1.72839,0.879901,0.373919,-0.184217
387369,0.95,-1.57041,-0.520466,0.000290659,-2.1185,-0.00113892,1.59742,0.785712,-1.57079,-0.519965,1.44587e-06,-2.11999,-1.37054e-06,1.60025,0.7854,2.92988e-05,0.0381543,-0.00049876,-0.704396,0.00205054,0.78076,-0.00174744,2.21782e-05,0.0485944,7.14447e-06,-0.778316,1.67993e-07,0.831714,2.51173e-05,-0.581349,-0.862152,-0.635312,11.3749,1.18685,1.46871,-0.135305,-0.598529,0.322042,-0.417672,1.74324,0.87738,0.379957,-0.184209
387370,0.95,-1.57041,-0.52043,0.000290659,-2.11925,-0.00113487,1.59824,0.785714,-1.57079,-0.519918,1.45312e-06,-2.12078,-1.3703e-06,1.6011,0.7854,1.95325e-05,0.0391829,-0.000332507,-0.707706,0.00169247,0.792991,-0.000181614,2.25255e-05,0.0475736,7.24543e-06,-0.790806,2.40152e-07,0.843281,2.55008e-05,-0.581349,-0.937531,-0.635312,11.2241,1.18135,1.46871,-0.161856,-0.599066,0.325939,-0.416571,1.7461,0.87453,0.384897,-0.184172
387371,0.95,-1.57041,-0.5204,0.00029233,-2.11999,-0.00113239,1.59908,0.78572,-1.57079,-0.519871,1.46046e-06,-2.12158,-1.36999e-06,1.60195,0.7854,-0.00054379,0.0352028,0.000335141,-0.717215,0.00166062,0.800721,0.00201515,2.28728e-05,0.0465527,7.34639e-06,-0.803296,3.12312e-07,0.854849,2.58842e-05,-0.557545,-0.937531,-0.659116,11.1249,1.16945,1.49526,-0.219534,-0.599323,0.350322,-0.414784,1.73185,0.871227,0.388213,-0.18408
387372,0.95,-1.57041,-0.52037,0.000290659,-2.12077,-0.00112383,1.59994,0.785713,-1.57079,-0.519826,1.4679e-06,-2.1224,-1.36959e-06,1.60282,0.7854,-0.000362527,0.0349346,-0.000333385,-0.729905,0.00283722,0.820934,-0.000792794,2.32084e-05,0.0450417,7.44071e-06,-0.815786,3.99577e-07,0.865828,2.62584e-05,-0.557545,-0.913727,-0.635312,11.1249,1.12459,1.42385,-0.161856,-0.599482,0.393727,-0.412697,1.70137,0.867491,0.390051,-0.183953
387373,0.95,-1.57041,-0.520342,0.00028537,-2.12156,-0.00111694,1.6008,0.785711,-1.57079,-0.519782,1.47544e-06,-2.12322,-1.3691e-06,1.60369,0.7854,-0.000891299,0.0342649,-0.00198549,-0.740494,0.00384182,0.829158,-0.00127451,2.3544e-05,0.0435306,7.53502e-06,-0.828276,4.86841e-07,0.876807,2.66325e-05,-0.529774,-0.862152,-0.559934,11.1527,1.07332,1.3854,-0.141714,-0.598841,0.449271,-0.409285,1.66001,0.863469,0.390926,-0.183837
387374,0.95,-1.57041,-0.520307,0.000290659,-2.12235,-0.00111528,1.60169,0.785722,-1.57079,-0.51974,1.48307e-06,-2.12406,-1.36853e-06,1.60458,0.7854,0.000612227,0.0369061,0.000439575,-0.755589,0.00195555,0.840236,0.00179518,2.38795e-05,0.0420196,7.62934e-06,-0.840766,5.74106e-07,0.887786,2.70067e-05,-0.581349,-0.937531,-0.635312,11.2241,1.09072,1.28836,-0.213125,-0.597529,0.50638,-0.404687,1.61498,0.859241,0.391486,-0.183711
387375,0.95,-1.57041,-0.52027,0.00028704,-2.12317,-0.00111842,1.60257,0.785718,-1.57079,-0.5197,1.49079e-06,-2.12492,-1.36787e-06,1.60548,0.7854,0.000408151,0.0373275,-0.000913376,-0.768957,-0.00117657,0.857755,-0.000702085,2.42151e-05,0.0405085,7.72366e-06,-0.853256,6.61371e-07,0.898765,2.73808e-05,-0.581349,-1.08829,-0.583737,11.3272,1.15846,1.24349,-0.161856,-0.596902,0.554511,-0.400897,1.57371,0.854848,0.392276,-0.183534
387376,0.95,-1.57041,-0.520236,0.00028491,-2.12399,-0.00111813,1.60346,0.785716,-1.57079,-0.519661,1.49861e-06,-2.12578,-1.36712e-06,1.60639,0.7854,-0.000284711,0.0348873,-0.000608917,-0.799486,-0.00222073,0.864278,-0.000230698,2.45507e-05,0.0389974,7.81798e-06,-0.865746,7.48635e-07,0.909744,2.7755e-05,-0.557545,-1.26682,-0.583737,11.4978,1.19783,1.24349,-0.168264,-0.596759,0.585634,-0.397733,1.54487,0.850543,0.393998,-0.183318
387377,0.95,-1.57041,-0.520199,0.000284199,-2.12483,-0.00111653,1.60437,0.78572,-1.57079,-0.519623,1.50652e-06,-2.12666,-1.36628e-06,1.60731,0.7854,-0.000189807,0.0365694,-0.000405945,-0.806794,-0.00251536,0.875891,0.00174507,2.48862e-05,0.0374864,7.91229e-06,-0.878236,8.359e-07,0.920722,2.81291e-05,-0.557545,-1.46915,-0.583737,11.6486,1.22621,1.32772,-0.219534,-0.596435,0.595973,-0.394378,1.53483,0.846608,0.397273,-0.183064
387378,0.95,-1.57041,-0.520169,0.000280343,-2.12569,-0.00111058,1.60527,0.785716,-1.57079,-0.519587,1.51453e-06,-2.12755,-1.36536e-06,1.60824,0.7854,-0.000126538,0.0339072,-0.00147706,-0.817691,-0.000206634,0.88683,-2.34126e-05,2.52218e-05,0.0359753,8.00661e-06,-0.890726,9.23165e-07,0.931701,2.85033e-05,-0.557545,-1.64767,-0.532163,11.8708,1.18685,1.36618,-0.18749,-0.595882,0.592031,-0.390698,1.53773,0.843008,0.401431,-0.182795
387379,0.95,-1.57041,-0.52015,0.000276924,-2.12656,-0.0011037,1.60619,0.785722,-1.57079,-0.519553,1.52263e-06,-2.12846,-1.36435e-06,1.60919,0.7854,-8.43588e-05,0.0277074,-0.00209833,-0.831589,0.000922565,0.89777,0.000696468,2.55574e-05,0.0344643,8.10093e-06,-0.903216,1.01043e-06,0.94268,2.88775e-05,-0.557545,-1.64767,-0.484555,12.1961,1.15846,1.40463,-0.206716,-0.594719,0.58832,-0.385932,1.54262,0.83959,0.405425,-0.182581
387380,0.95,-1.57041,-0.520125,0.000278568,-2.12746,-0.00109987,1.6071,0.785728,-1.57079,-0.51952,1.53083e-06,-2.12937,-1.36325e-06,1.61014,0.7854,-0.00126267,0.0281627,-0.000842073,-0.847342,0.000418463,0.900334,0.00215973,2.58929e-05,0.0329532,8.19525e-06,-0.915706,1.09769e-06,0.953659,2.92516e-05,-0.50597,-1.72305,-0.508359,12.569,1.16396,1.40463,-0.252493,-0.592923,0.592302,-0.380073,1.5464,0.83629,0.409193,-0.182452
387381,0.95,-1.57042,-0.520105,0.00027494,-2.12837,-0.00109402,1.60803,0.785721,-1.57079,-0.519489,1.53912e-06,-2.1303,-1.36207e-06,1.6111,0.7854,-0.00149139,0.0247436,-0.00176781,-0.867395,0.00174219,0.907677,-0.000967676,2.62285e-05,0.0314421,8.28956e-06,-0.928196,1.18496e-06,0.964638,2.96258e-05,-0.478199,-1.77066,-0.456784,12.9657,1.12459,1.48153,-0.18749,-0.590671,0.599347,-0.373588,1.55398,0.833151,0.413429,-0.182424
387382,0.96,-1.57041,-0.520074,0.000273266,-2.12929,-0.00108779,1.60897,0.785724,-1.57079,-0.519459,1.54749e-06,-2.13124,-1.36078e-06,1.61208,0.7854,0.000212165,0.0285606,-0.00173535,-0.884905,0.00664731,0.90966,0.000304319,2.65471e-05,0.0294706,8.37575e-06,-0.940656,1.28796e-06,0.974981,2.99896e-05,-0.529774,-1.94919,-0.432981,13.1641,1.1017,1.65548,-0.213125,-0.58827,0.59954,-0.366858,1.5731,0.830229,0.419009,-0.182506
387383,0.97,-1.57042,-0.520045,0.000269646,-2.13024,-0.00108652,1.60991,0.785717,-1.57079,-0.519432,1.55595e-06,-2.13219,-1.35939e-06,1.61306,0.7854,-0.00106498,0.0312017,-0.00236333,-0.89976,0.00376947,0.924891,-0.00217071,2.68657e-05,0.027499,8.46193e-06,-0.953117,1.39096e-06,0.985323,3.03534e-05,-0.478199,-2.12772,-0.381406,13.3149,1.13008,1.61703,-0.149038,-0.586002,0.582135,-0.36008,1.60923,0.827512,0.426444,-0.182666
387384,0.98,-1.57042,-0.520016,0.000256936,-2.13118,-0.00108819,1.61087,0.785717,-1.57079,-0.519406,1.5645e-06,-2.13316,-1.35789e-06,1.61406,0.7854,-0.00303004,0.0298799,-0.00510203,-0.915019,0.00175363,0.928145,-0.00144714,2.71843e-05,0.0255274,8.54811e-06,-0.965577,1.49396e-06,0.995665,3.07172e-05,-0.379017,-2.30228,-0.230649,13.3902,1.15846,1.61703,-0.149038,-0.582099,0.544089,-0.350732,1.66203,0.825031,0.435673,-0.182857
387385,0.99,-1.57043,-0.519986,0.000259385,-2.13214,-0.0010839,1.61185,0.785721,-1.57079,-0.519383,1.57314e-06,-2.13414,-1.3563e-06,1.61507,0.7854,-0.00257684,0.029441,-0.00163811,-0.926077,0.0015914,0.933156,0.00164619,2.75029e-05,0.0235559,8.63429e-06,-0.978038,1.59696e-06,1.00601,3.10811e-05,-0.355213,-2.50461,-0.306028,13.3625,1.15297,1.5914,-0.219534,-0.575551,0.492782,-0.337558,1.72601,0.822737,0.446253,-0.183014
387386,0.99,-1.57043,-0.519964,0.000260108,-2.1331,-0.00108262,1.61284,0.785715,-1.57079,-0.519361,1.58186e-06,-2.13513,-1.3546e-06,1.61608,0.7854,-0.00171789,0.0278129,-0.000535264,-0.930305,0.000173919,0.950975,-0.000801413,2.78215e-05,0.0215843,8.72047e-06,-0.990498,1.69996e-06,1.01635,3.14449e-05,-0.355213,-2.65536,-0.329831,13.0649,1.18135,1.41745,-0.168264,-0.569213,0.440413,-0.324844,1.79117,0.820346,0.457121,-0.1831
387387,0.99,-1.57043,-0.519944,0.000258122,-2.13406,-0.001078,1.61386,0.785722,-1.57079,-0.519341,1.59066e-06,-2.13613,-1.35279e-06,1.61711,0.7854,-0.00179487,0.0260615,-0.000913654,-0.943353,0.00129022,0.968498,0.00112724,2.81401e-05,0.0196128,8.80666e-06,-1.00296,1.80297e-06,1.02669,3.18087e-05,-0.327442,-2.78232,-0.306028,12.7436,1.15297,1.09518,-0.213125,-0.56515,0.398201,-0.315598,1.84717,0.817636,0.466891,-0.183151
387388,0.99,-1.57043,-0.519935,0.000259506,-2.13503,-0.00106922,1.61487,0.785727,-1.57079,-0.519324,1.59956e-06,-2.13715,-1.35089e-06,1.61815,0.7854,-0.000546969,0.0193219,0.000597323,-0.944305,0.0026479,0.986508,0.00197219,2.84588e-05,0.0176412,8.89284e-06,-1.01542,1.90597e-06,1.03703,3.21726e-05,-0.355213,-2.81009,-0.357602,12.2437,1.10719,0.908412,-0.246084,-0.563401,0.37679,-0.309817,1.8855,0.81451,0.474241,-0.183216
387389,0.99,-1.57043,-0.519928,0.0002583,-2.136,-0.00106103,1.61586,0.785731,-1.57079,-0.519308,1.60853e-06,-2.13817,-1.34888e-06,1.61919,0.7854,-0.00101426,0.0163781,0.000955027,-0.94986,0.00308913,0.987702,0.00250159,2.87774e-05,0.0156696,8.97902e-06,-1.02788,2.00897e-06,1.04738,3.25364e-05,-0.327442,-2.78232,-0.381406,11.847,1.07332,1.05032,-0.278127,-0.564168,0.388075,-0.307811,1.89712,0.81077,0.477817,-0.183358
387390,0.99,-1.57043,-0.519916,0.000253722,-2.13698,-0.00106267,1.61688,0.785738,-1.57079,-0.519294,1.6176e-06,-2.13921,-1.34677e-06,1.62025,0.7854,-0.00123299,0.0119132,-0.000569741,-0.954549,9.03223e-06,0.990769,0.00383787,2.9096e-05,0.0136981,9.0652e-06,-1.04034,2.11197e-06,1.05772,3.29002e-05,-0.303639,-2.78232,-0.329831,11.3987,1.13008,1.16659,-0.336721,-0.566239,0.435787,-0.307893,1.87847,0.806314,0.477139,-0.183658
387391,0.99,-1.57043,-0.519906,0.000255352,-2.13799,-0.00105924,1.61791,0.785738,-1.57079,-0.519283,1.62675e-06,-2.14027,-1.34455e-06,1.62132,0.785401,-0.000265178,0.00933766,0.000269787,-0.96368,-0.000395835,1.00737,0.00279594,2.94146e-05,0.0117265,9.15139e-06,-1.0528,2.21497e-06,1.06806,3.3264e-05,-0.327442,-2.81009,-0.357602,11.2757,1.14198,1.17941,-0.34313,-0.568048,0.515015,-0.30782,1.8324,0.801245,0.472665,-0.18421
387392,0.99,-1.57042,-0.519887,0.000260535,-2.13901,-0.00105568,1.61899,0.785735,-1.57079,-0.519273,1.63598e-06,-2.14133,-1.34223e-06,1.6224,0.785401,0.00102964,0.0139857,0.0019431,-0.979987,-0.000641577,1.02465,-0.000306181,2.9712e-05,0.00947334,9.2291e-06,-1.06484,2.32335e-06,1.07762,3.36075e-05,-0.379017,-2.98465,-0.432981,11.3749,1.15297,0.99264,-0.284536,-0.57045,0.609689,-0.308816,1.76885,0.795823,0.465544,-0.185093
387393,0.99,-1.57043,-0.519866,0.00025688,-2.14003,-0.00104971,1.62004,0.785733,-1.57079,-0.519266,1.64529e-06,-2.14241,-1.3398e-06,1.62348,0.785401,0.000129615,0.0147361,8.89712e-05,-0.990854,0.00105226,1.03606,-0.000204121,3.00095e-05,0.00722019,9.30681e-06,-1.07688,2.43174e-06,1.08718,3.3951e-05,-0.355213,-3.18698,-0.381406,11.351,1.1136,1.01187,-0.284536,-0.57396,0.696565,-0.31163,1.70238,0.790421,0.457268,-0.186317
387394,0.99,-1.57043,-0.519845,0.000256868,-2.14108,-0.00103653,1.6211,0.785738,-1.57079,-0.519261,1.65467e-06,-2.1435,-1.33726e-06,1.62458,0.785401,8.641e-05,0.0176776,5.93141e-05,-1.03294,0.00387142,1.04097,0.0017967,3.0307e-05,0.00496704,9.38453e-06,-1.08892,2.54012e-06,1.09674,3.42945e-05,-0.355213,-3.36551,-0.381406,11.5732,1.02846,1.12173,-0.336721,-0.576907,0.752916,-0.313898,1.65165,0.785527,0.449873,-0.187813
387395,0.99,-1.57044,-0.519828,0.000255194,-2.14214,-0.00103266,1.62221,0.785741,-1.57079,-0.519258,1.66413e-06,-2.1446,-1.33461e-06,1.62569,0.785401,-0.00235525,0.0165145,-0.000517269,-1.03958,0.00595858,1.05798,0.00214724,3.06045e-05,0.00271389,9.46224e-06,-1.10096,2.6485e-06,1.1063,3.46381e-05,-0.252064,-3.54007,-0.357602,11.597,1.06233,1.02468,-0.362356,-0.577688,0.763897,-0.313516,1.63227,0.781482,0.445213,-0.18952
387396,0.99,-1.57044,-0.519812,0.000255193,-2.14324,-0.00102814,1.62329,0.785751,-1.57079,-0.519258,1.67367e-06,-2.14571,-1.33185e-06,1.6268,0.785401,-0.00389021,0.0162272,-0.000344846,-1.04874,0.00856196,1.07338,0.00478842,3.09019e-05,0.000460737,9.53996e-06,-1.11301,2.75689e-06,1.11586,3.49816e-05,-0.152882,-3.7424,-0.357602,11.847,1.07332,0.973414,-0.452993,-0.5752,0.740086,-0.309182,1.63611,0.778042,0.4425,-0.191471
387397,0.99,-1.57045,-0.519807,0.000253243,-2.14431,-0.0010212,1.62441,0.785747,-1.57079,-0.51926,1.68329e-06,-2.14684,-1.32898e-06,1.62793,0.785401,-0.00324309,0.0141513,-0.000879511,-1.06194,0.00699753,1.08265,0.00102214,3.11994e-05,-0.00179241,9.61767e-06,-1.12505,2.86527e-06,1.12542,3.53251e-05,-0.125111,-3.86935,-0.329831,11.8985,1.05684,0.908412,-0.394399,-0.569348,0.700879,-0.300893,1.64702,0.774799,0.44,-0.193757
387398,0.99,-1.57045,-0.519807,0.000244153,-2.14541,-0.00101752,1.62551,0.78574,-1.57079,-0.519264,1.69299e-06,-2.14797,-1.32601e-06,1.62906,0.785401,-0.00151245,0.00833047,-0.00290639,-1.06594,0.00476751,1.10412,-0.00220079,3.14969e-05,-0.00404557,9.69539e-06,-1.13709,2.97365e-06,1.13498,3.56686e-05,-0.152882,-3.94473,-0.230649,11.9223,1.06783,0.967006,-0.31658,-0.561061,0.662013,-0.289753,1.65449,0.771515,0.436564,-0.196451
387399,0.99,-1.57044,-0.519814,0.000246602,-2.14652,-0.00100451,1.62661,0.785739,-1.57079,-0.51927,1.70276e-06,-2.14912,-1.32293e-06,1.63021,0.785401,0.00131175,0.00352868,-0.000174356,-1.07371,0.0052219,1.09678,-0.00170455,3.17943e-05,-0.00629872,9.7731e-06,-1.14913,3.08204e-06,1.14454,3.60121e-05,-0.252064,-3.99631,-0.306028,11.9461,1.02297,1.23068,-0.310171,-0.552578,0.641093,-0.278529,1.64741,0.767878,0.431122,-0.199513
387400,0.99,-1.57044,-0.519826,0.000245655,-2.14762,-0.000999248,1.62773,0.785738,-1.57079,-0.519278,1.71261e-06,-2.15028,-1.31974e-06,1.63136,0.785401,0.000874502,-0.00113292,-0.000116237,-1.08408,0.00817367,1.09313,-0.00161108,3.20918e-05,-0.00855187,9.85082e-06,-1.16117,3.19042e-06,1.1541,3.63556e-05,-0.252064,-3.99631,-0.306028,11.9461,1.02846,1.41104,-0.297354,-0.54678,0.646416,-0.271132,1.62219,0.763623,0.423839,-0.202781
387401,0.99,-1.57045,-0.519832,0.000241538,-2.14875,-0.000991552,1.62887,0.785737,-1.57079,-0.519289,1.72254e-06,-2.15146,-1.31644e-06,1.63253,0.785401,-0.00118024,-0.00143654,-0.000634304,-1.09222,0.00689584,1.10988,-0.0109202,3.23893e-05,-0.010805,9.92853e-06,-1.17321,3.2988e-06,1.16366,3.66991e-05,-0.176685,-4.12326,-0.282224,11.8985,1.00557,1.39822,-0.284536,-0.543187,0.674285,-0.267004,1.58222,0.758777,0.415673,-0.206104
387402,0.99,-1.57044,-0.519836,0.000241933,-2.14989,-0.000979068,1.63002,0.785735,-1.57079,-0.519302,1.73254e-06,-2.15264,-1.31303e-06,1.6337,0.785401,-0.00013721,-0.00174042,-0.00244114,-1.10971,0.00650455,1.11848,-0.00877317,3.26623e-05,-0.0131922,9.99754e-06,-1.18453,3.40613e-06,1.17235,3.70161e-05,-0.204456,-4.25021,-0.329831,12.1445,0.966203,1.42385,-0.26531,-0.539078,0.71288,-0.262344,1.5344,0.753619,0.407563,-0.209375
387403,0.99,-1.57044,-0.51984,0.000240769,-2.15105,-0.000972517,1.6312,0.785729,-1.57079,-0.519318,1.7426e-06,-2.15384,-1.30952e-06,1.63488,0.785401,0.00167176,-0.00208681,-0.00123881,-1.12039,0.00832593,1.13318,-0.00836727,3.29353e-05,-0.0155794,1.00666e-05,-1.19585,3.51346e-06,1.18104,3.73331e-05,-0.279835,-4.37717,-0.357602,12.2199,0.989092,1.40463,-0.213125,-0.534152,0.748878,-0.256523,1.48744,0.748344,0.400454,-0.212506
387404,0.99,-1.57044,-0.519846,0.000239732,-2.15224,-0.000964925,1.63237,0.785729,-1.57079,-0.519336,1.75274e-06,-2.15505,-1.3059e-06,1.63607,0.785401,0.00111451,-0.00300666,-0.00416462,-1.14271,0.005568,1.1445,-0.00601747,3.32083e-05,-0.0179665,1.01356e-05,-1.20717,3.62079e-06,1.18973,3.765e-05,-0.279835,-4.47635,-0.357602,12.6444,1.00557,1.32772,-0.213125,-0.52905,0.773174,-0.250266,1.44858,0.743062,0.395067,-0.215407
387405,0.99,-1.57044,-0.519848,0.000244676,-2.15343,-0.000964895,1.63357,0.785734,-1.57079,-0.519356,1.76294e-06,-2.15626,-1.30217e-06,1.63727,0.785401,0.000743006,-0.00181517,-0.0014219,-1.15939,0.00208048,1.15539,-0.00264569,3.34813e-05,-0.0203537,1.02046e-05,-1.21848,3.72812e-06,1.19842,3.7967e-05,-0.279835,-4.65488,-0.432981,13.0649,1.06233,1.26272,-0.258901,-0.523376,0.777325,-0.243142,1.42565,0.738004,0.392081,-0.217982
387406,0.99,-1.57044,-0.519854,0.000235651,-2.15466,-0.000967725,1.63475,0.785729,-1.57079,-0.519379,1.77322e-06,-2.15749,-1.29834e-06,1.63847,0.785401,-0.000154276,-0.00360403,-0.00735358,-1.17021,-0.000972584,1.16363,-0.00346895,3.37543e-05,-0.0227409,1.02736e-05,-1.2298,3.83545e-06,1.2071,3.8284e-05,-0.252064,-4.85721,-0.306028,13.537,1.13558,1.26272,-0.219534,-0.515926,0.758987,-0.233599,1.42105,0.733353,0.391485,-0.220196
387407,0.99,-1.57044,-0.519867,0.000240903,-2.15589,-0.000954622,1.63593,0.785728,-1.57079,-0.519404,1.78356e-06,-2.15873,-1.29439e-06,1.63969,0.785401,0.000546763,-0.00375113,-0.00362985,-1.19122,0.00232911,1.16573,-0.00297268,3.40273e-05,-0.0251281,1.03426e-05,-1.24112,3.94278e-06,1.21579,3.8601e-05,-0.279835,-4.98416,-0.381406,14.0845,1.06233,1.49526,-0.206716,-0.505849,0.721876,-0.220365,1.43283,0.729192,0.392838,-0.222082
387408,0.99,-1.57043,-0.51988,0.000238759,-2.15714,-0.000949161,1.63712,0.785731,-1.57079,-0.519432,1.79397e-06,-2.15999,-1.29034e-06,1.64091,0.785401,0.00268456,-0.00390095,-0.00278792,-1.20347,0.00195481,1.16906,-0.00117134,3.43004e-05,-0.0275153,1.04116e-05,-1.25244,4.05011e-06,1.22448,3.8918e-05,-0.379017,-5.10715,-0.381406,14.4336,1.05684,1.70126,-0.232351,-0.496118,0.667041,-0.207656,1.46202,0.725482,0.396206,-0.223635
387409,0.99,-1.57043,-0.519898,0.000238045,-2.1584,-0.000948112,1.63832,0.785731,-1.57079,-0.519462,1.80445e-06,-2.16125,-1.28619e-06,1.64215,0.785401,0.00234652,-0.0102145,-0.00213463,-1.21249,0.00019756,1.18145,-0.000885139,3.45734e-05,-0.0299024,1.04806e-05,-1.26375,4.15744e-06,1.23317,3.9235e-05,-0.402821,-5.2341,-0.381406,14.5804,1.09072,1.76535,-0.232351,-0.489906,0.602927,-0.199936,1.50361,0.721989,0.401202,-0.224861
387410,0.99,-1.57043,-0.51992,0.000239296,-2.15963,-0.00093202,1.63953,0.78573,-1.57079,-0.519494,1.815e-06,-2.16253,-1.28192e-06,1.64339,0.785401,0.00221396,-0.0135825,-0.000423671,-1.21406,0.00862374,1.18379,7.77091e-05,3.48464e-05,-0.0322896,1.05496e-05,-1.27507,4.26477e-06,1.24186,3.95519e-05,-0.430592,-5.28568,-0.432981,14.4336,0.989092,1.9393,-0.252493,-0.487472,0.548736,-0.197478,1.54356,0.718371,0.406628,-0.225834
387411,0.99,-1.57043,-0.519946,0.000237017,-2.16088,-0.000917764,1.64074,0.785733,-1.57079,-0.519529,1.82562e-06,-2.16381,-1.27755e-06,1.64464,0.785401,0.000826359,-0.0158274,-0.00164413,-1.21429,0.00937114,1.18923,0.000467886,3.51194e-05,-0.0346768,1.06186e-05,-1.28639,4.3721e-06,1.25054,3.98689e-05,-0.402821,-5.33725,-0.381406,14.0329,0.903948,2.10684,-0.26531,-0.487762,0.519438,-0.198715,1.56835,0.71428,0.411382,-0.226649
387412,0.99,-1.57043,-0.519972,0.000242754,-2.16215,-0.000899703,1.64198,0.785728,-1.57079,-0.519566,1.8363e-06,-2.16511,-1.27307e-06,1.6459,0.785401,0.00120052,-0.0173247,0.000550705,-1.22348,0.0145282,1.19652,-0.00190219,3.53653e-05,-0.0370744,1.06788e-05,-1.29675,4.47425e-06,1.2583,4.01554e-05,-0.430592,-5.38882,-0.456784,13.6878,0.81331,2.05557,-0.206716,-0.489467,0.517395,-0.201708,1.57289,0.7095,0.415259,-0.227388
387413,0.99,-1.57043,-0.520005,0.000240772,-2.16342,-0.000890606,1.64326,0.785728,-1.57079,-0.519605,1.84704e-06,-2.16642,-1.2685e-06,1.64716,0.785401,0.00135716,-0.0197204,0.000279804,-1.236,0.0182794,1.22285,-0.00130111,3.56112e-05,-0.039472,1.07389e-05,-1.30711,4.5764e-06,1.26606,4.04419e-05,-0.454395,-5.38882,-0.456784,13.4378,0.841692,1.67471,-0.206716,-0.492675,0.535109,-0.206557,1.56153,0.703969,0.418904,-0.228083
387414,0.99,-1.57043,-0.520031,0.000242242,-2.16473,-0.000890201,1.64454,0.78573,-1.57079,-0.519647,1.85784e-06,-2.16773,-1.26382e-06,1.64844,0.785401,0.000904772,-0.0216515,0.000121036,-1.24118,0.0100628,1.24296,-0.000180069,3.58571e-05,-0.0418696,1.07991e-05,-1.31747,4.67854e-06,1.27382,4.07284e-05,-0.454395,-5.51181,-0.456784,13.5608,0.932329,1.26913,-0.225942,-0.497035,0.56555,-0.212754,1.53866,0.697743,0.422462,-0.228717
387415,0.99,-1.57043,-0.520059,0.000238931,-2.16601,-0.000891609,1.64581,0.785727,-1.57079,-0.519691,1.8687e-06,-2.16906,-1.25904e-06,1.64972,0.785401,-0.000603244,-0.0231114,-0.000525246,-1.25986,0.00845094,1.24872,-0.00132539,3.6103e-05,-0.0442672,1.08592e-05,-1.32782,4.78069e-06,1.28158,4.10149e-05,-0.402821,-5.63876,-0.432981,13.5608,1.03395,1.13455,-0.193899,-0.500765,0.602526,-0.217871,1.50855,0.691071,0.425665,-0.229255
387416,0.99,-1.57043,-0.520085,0.000242186,-2.16735,-0.000888841,1.64705,0.785727,-1.57079,-0.519738,1.87962e-06,-2.1704,-1.25416e-06,1.65101,0.785401,0.000804263,-0.0217961,0.000169804,-1.2777,0.00891761,1.27275,0.000289284,3.6349e-05,-0.0466648,1.09194e-05,-1.33818,4.88284e-06,1.28934,4.13014e-05,-0.454395,-5.86887,-0.456784,13.8623,1.09621,1.2499,-0.225942,-0.503131,0.63285,-0.220978,1.4823,0.684413,0.428817,-0.229672
387417,1,-1.57042,-0.520111,0.000242532,-2.16869,-0.00088679,1.64831,0.78573,-1.57079,-0.519787,1.8906e-06,-2.17175,-1.24917e-06,1.65231,0.785401,0.00974162,-0.0239266,0.000735184,-1.29347,0.00566985,1.27274,0.000419779,3.65949e-05,-0.0490624,1.09795e-05,-1.34854,4.98499e-06,1.2971,4.1588e-05,-0.581349,-6.1188,-0.484555,13.8861,1.13558,1.41745,-0.232351,-0.507383,0.644754,-0.226119,1.47008,0.67811,0.432295,-0.229933
387418,1,-1.57041,-0.520142,0.000244128,-2.17003,-0.000884607,1.6496,0.785726,-1.57079,-0.519839,1.90163e-06,-2.17311,-1.24408e-06,1.65361,0.785402,0.0087773,-0.0261915,0.000469398,-1.30984,0.00361587,1.27739,-0.00115213,3.68408e-05,-0.05146,1.10397e-05,-1.3589,5.08714e-06,1.30486,4.18745e-05,-0.656727,-6.34891,-0.484555,14.0329,1.16396,1.4559,-0.193899,-0.517215,0.636643,-0.237726,1.47496,0.672321,0.436413,-0.23003
387419,1,-1.57041,-0.520188,0.00024995,-2.17137,-0.000871536,1.65087,0.785734,-1.57079,-0.519892,1.91273e-06,-2.17448,-1.23889e-06,1.65492,0.785402,0.00568446,-0.0321286,0.00206063,-1.31466,0.00683977,1.28212,0.00163354,3.70867e-05,-0.0538576,1.10998e-05,-1.36926,5.18929e-06,1.31262,4.2161e-05,-0.632923,-6.39651,-0.559934,14.0091,1.06233,1.50808,-0.258901,-0.531039,0.617445,-0.253837,1.49165,0.667151,0.441028,-0.230001
387420,1,-1.57041,-0.52024,0.000250127,-2.17272,-0.000851471,1.65217,0.785732,-1.57079,-0.519949,1.92389e-06,-2.17586,-1.2336e-06,1.65624,0.785402,0.00408194,-0.0417865,0.00136209,-1.319,0.0150514,1.27947,0.00033864,3.73326e-05,-0.0562552,1.116e-05,-1.37962,5.29144e-06,1.32037,4.24475e-05,-0.632923,-6.34891,-0.559934,13.9615,0.915849,1.55294,-0.23876,-0.545097,0.607629,-0.269941,1.50531,0.662428,0.445061,-0.229925
387421,1,-1.57041,-0.520296,0.000248238,-2.17409,-0.000835009,1.65352,0.785735,-1.57079,-0.520007,1.93511e-06,-2.17725,-1.22821e-06,1.65757,0.785402,0.00229091,-0.0455824,0.000249705,-1.33041,0.0147903,1.29519,0.00144316,3.75785e-05,-0.0586528,1.12202e-05,-1.38998,5.39358e-06,1.32813,4.2734e-05,-0.605152,-6.29733,-0.532163,13.9853,0.807817,1.28836,-0.271719,-0.556667,0.623179,-0.282511,1.50436,0.657826,0.447674,-0.229898
387422,1,-1.57041,-0.520351,0.000254007,-2.17547,-0.000822146,1.65484,0.785756,-1.57079,-0.520068,1.94639e-06,-2.17865,-1.22272e-06,1.65891,0.785402,0.00169169,-0.0475671,0.00136634,-1.34426,0.0120879,1.30203,0.00791086,3.77953e-05,-0.060955,1.12714e-05,-1.3992,5.4877e-06,1.33492,4.29873e-05,-0.605152,-6.27353,-0.583737,14.0845,0.762956,1.12173,-0.459402,-0.564524,0.65953,-0.289961,1.4912,0.653179,0.449048,-0.229974
387423,1,-1.57041,-0.520399,0.000251105,-2.17684,-0.000813697,1.65616,0.785761,-1.57079,-0.520131,1.95771e-06,-2.18005,-1.21714e-06,1.66025,0.785402,-0.000512129,-0.0492703,-0.000300452,-1.35728,0.00722858,1.30102,0.0153849,3.8012e-05,-0.0632572,1.13226e-05,-1.40842,5.58182e-06,1.34172,4.32406e-05,-0.529774,-6.37271,-0.532163,14.0329,0.796831,1.16659,-0.478628,-0.568525,0.702111,-0.29227,1.47521,0.648392,0.449802,-0.230251
387424,1,-1.57041,-0.520441,0.000248003,-2.17824,-0.00081829,1.65749,0.785752,-1.57079,-0.520197,1.96908e-06,-2.18147,-1.21146e-06,1.6616,0.785402,0.000400681,-0.0474137,-0.00131761,-1.36245,0.000119067,1.31628,0.0123347,3.82287e-05,-0.0655594,1.13738e-05,-1.41765,5.67593e-06,1.34851,4.3494e-05,-0.557545,-6.59885,-0.484555,14.0329,0.932329,1.12814,-0.387991,-0.568214,0.740081,-0.288775,1.46163,0.643382,0.45004,-0.230938
387425,1,-1.57042,-0.520485,0.000251423,-2.17965,-0.000821635,1.65885,0.785754,-1.57079,-0.520265,1.98051e-06,-2.1829,-1.20569e-06,1.66295,0.785402,-0.000313129,-0.0496734,0.000232449,-1.40722,-0.00408987,1.33007,0.00872265,3.84455e-05,-0.0678616,1.1425e-05,-1.42687,5.77005e-06,1.3553,4.37473e-05,-0.529774,-6.82895,-0.532163,14.4336,1.05135,1.01187,-0.375173,-0.564639,0.758808,-0.280894,1.46114,0.638401,0.450509,-0.232153
