shamilmamedov/beam_handling/log/param_estimation_ICRA/ocp_Xup_35cm_0.57s_6.csv
duration, success rate, q[0], q[1], q[2], q[3], q[4], q[5], q[6],q_d[0], q_d[1], q_d[2], q_d[3], q_d[4], q_d[5], q_d[6],dq[0], dq[1], dq[2], dq[3], dq[4], dq[5], dq[6],dq_d[0], dq_d[1], dq_d[2], dq_d[3], dq_d[4], dq_d[5], dq_d[6],tau_J[0], tau_J[1], tau_J[2], tau_J[3], tau_J[4], tau_J[5], tau_J[6],tau_ext_hat_filtered[0], tau_ext_hat_filtered[1], tau_ext_hat_filtered[2], tau_ext_hat_filtered[3], tau_ext_hat_filtered[4], tau_ext_hat_filtered[5], tau_ext_hat_filtered[6]
5398767,0,-1.57032,-0.522924,0.000166701,-2.09582,1.57077,1.5717,0.785061,-1.5708,-0.523599,7.91955e-08,-2.0944,1.5708,1.5708,0.785397,-0.000585288,0.00103501,-7.5707e-05,-0.000720597,-0.000155557,0.000129358,0.00170337,0,0,0,0,0,0,0,-0.50597,-10.1139,-0.508359,20.8963,0.751055,-0.688268,0.071604,-0.527211,-0.956473,-0.110022,2.33181,0.188648,-0.683498,0.154104
5398768,1,-1.57032,-0.522924,0.000164571,-2.09582,1.57077,1.5717,0.785059,-1.5708,-0.523599,7.91955e-08,-2.0944,1.5708,1.5708,0.785397,0.00016662,0.00069001,-5.04714e-05,7.64137e-05,-0.00911615,0.000323597,-0.000288576,0,0,0,0,0,0,0,-0.529774,-10.1139,-0.508359,20.8725,0.740068,-0.694677,0.110056,-0.526804,-0.959788,-0.109663,2.33389,0.188648,-0.68364,0.154181
5398769,1,-1.57032,-0.522924,0.000164321,-2.09582,1.57077,1.5717,0.785061,-1.5708,-0.523599,7.91955e-08,-2.0944,1.5708,1.5708,0.785397,0.00011108,0.000460006,-0.00059046,5.09425e-05,-0.00686199,-2.16274e-05,0.000282334,0,0,0,0,0,0,0,-0.529774,-10.1139,-0.484555,20.8725,0.740068,-0.688268,0.0972387,-0.526487,-0.964463,-0.109493,2.3366,0.188726,-0.683818,0.154253
5398770,1,-1.57032,-0.522926,0.000164335,-2.09582,1.57077,1.5717,0.785061,-1.5708,-0.523599,7.91955e-08,-2.0944,1.5708,1.5708,0.785397,7.40532e-05,-0.000250141,0.000163172,3.39617e-05,-0.00536652,-0.000251777,0.000188223,0,0,0,0,0,0,0,-0.529774,-10.0901,-0.508359,20.8725,0.745561,-0.681859,0.0972387,-0.526341,-0.968135,-0.109533,2.33872,0.188809,-0.683981,0.154302
5398771,1,-1.57032,-0.522924,0.000165913,-2.09582,1.57077,1.5717,0.785061,-1.5708,-0.523599,7.91955e-08,-2.0944,1.5708,1.5708,0.785397,-0.000507443,0.000390051,0.000108782,2.26411e-05,-0.00422244,0.000306866,0.000125482,0,0,0,0,0,0,0,-0.50597,-10.1139,-0.508359,20.8725,0.751055,-0.694677,0.0972387,-0.526383,-0.970148,-0.10983,2.33995,0.188839,-0.684095,0.15432
5398772,1,-1.57032,-0.522924,0.000164308,-2.09582,1.57077,1.5717,0.785059,-1.5708,-0.523599,7.91955e-08,-2.0944,1.5708,1.5708,0.785397,0.00086813,0.000260034,7.2521e-05,-0.000541718,-0.0033833,-0.00027014,-0.000865781,0,0,0,0,0,0,0,-0.557545,-10.1139,-0.508359,20.8963,0.757463,-0.681859,0.122873,-0.526694,-0.971616,-0.110499,2.3409,0.18883,-0.684153,0.154298
5398773,1,-1.57032,-0.522926,0.000165444,-2.09582,1.57077,1.5717,0.785061,-1.5708,-0.523599,7.91955e-08,-2.0944,1.5708,1.5708,0.785397,-0.000627672,-0.000383456,0.000605159,0.000195667,-0.00250377,0.000294624,0.000372248,0,0,0,0,0,0,0,-0.50597,-10.0901,-0.532163,20.8725,0.757463,-0.694677,0.0972387,-0.527378,-0.97257,-0.111662,2.34163,0.188795,-0.684137,0.154247
5398774,1,-1.57032,-0.522926,0.000165726,-2.09582,1.57077,1.5717,0.785062,-1.5708,-0.523599,7.91955e-08,-2.0944,1.5708,1.5708,0.785397,0.000787978,-0.000255637,-0.000153372,-0.000426367,-0.001618,-0.000515661,0.000485524,0,0,0,0,0,0,0,-0.557545,-10.0901,-0.508359,20.8963,0.751055,-0.67545,0.09083,-0.528254,-0.972007,-0.113062,2.3416,0.188719,-0.684061,0.154185
5398775,1,-1.57032,-0.522928,0.000165916,-2.09582,1.57077,1.5717,0.785059,-1.5708,-0.523599,7.91955e-08,-2.0944,1.5708,1.5708,0.785397,-0.000681107,-0.000820039,0.000454564,0.000922181,-0.00101485,0.000368303,-0.000863112,0,0,0,0,0,0,0,-0.50597,-10.0623,-0.532163,20.8448,0.745561,-0.694677,0.122873,-0.529036,-0.969547,-0.114255,2.3405,0.188592,-0.683965,0.154111
5398776,1,-1.57032,-0.52293,0.000164213,-2.09582,1.57077,1.5717,0.785063,-1.5708,-0.523599,7.91955e-08,-2.0944,1.5708,1.5708,0.785397,0.000752354,-0.0011035,-0.000810581,-3.48267e-05,-0.000984743,-0.000229182,0.000848746,0,0,0,0,0,0,0,-0.557545,-10.0385,-0.484555,20.8725,0.751055,-0.681859,0.0844213,-0.529453,-0.964762,-0.114813,2.33802,0.188393,-0.683887,0.154024
5398777,1,-1.57032,-0.522924,0.000162628,-2.09582,1.57077,1.5717,0.785053,-1.5708,-0.523599,7.91955e-08,-2.0944,1.5708,1.5708,0.785397,-0.000148044,0.00102757,-0.000540388,-0.00058003,-0.000328138,8.45706e-05,-0.00160431,0,0,0,0,0,0,0,-0.529774,-10.1139,-0.484555,20.8963,0.740068,-0.688268,0.143015,-0.529272,-0.960178,-0.114321,2.33566,0.188165,-0.683894,0.153929
5398778,1,-1.57032,-0.522926,0.000165901,-2.09582,1.57077,1.5717,0.785062,-1.5708,-0.523599,7.91955e-08,-2.0944,1.5708,1.5708,0.785397,0.000550918,0.000128234,0.000196554,0.000170125,-0.000684568,5.63804e-05,0.0011006,0,0,0,0,0,0,0,-0.557545,-10.0901,-0.508359,20.8725,0.751055,-0.688268,0.0844213,-0.528843,-0.958896,-0.113326,2.33505,0.18798,-0.683975,0.153834
5398779,1,-1.57032,-0.522924,0.000166435,-2.09582,1.57077,1.5717,0.78506,-1.5708,-0.523599,7.91955e-08,-2.0944,1.5708,1.5708,0.785397,0.000367278,0.000642301,0.000131036,0.000763031,-0.000297109,-0.000199772,2.16565e-05,0,0,0,0,0,0,0,-0.557545,-10.1139,-0.508359,20.8448,0.745561,-0.681859,0.103647,-0.528875,-0.959634,-0.112951,2.33524,0.187828,-0.68402,0.153758
5398780,1,-1.57032,-0.522926,0.000168283,-2.09582,1.57077,1.5717,0.785056,-1.5708,-0.523599,7.91955e-08,-2.0944,1.5708,1.5708,0.785397,-0.000961574,-0.000128611,0.000644169,0.000508687,-0.000672018,0.000104178,-0.00144362,0,0,0,0,0,0,0,-0.50597,-10.0901,-0.532163,20.8448,0.757463,-0.688268,0.143015,-0.5293,-0.960337,-0.113179,2.33505,0.187677,-0.684015,0.153697
5398781,1,-1.57032,-0.522926,0.000164542,-2.09582,1.57077,1.5717,0.78506,-1.5708,-0.523599,7.91955e-08,-2.0944,1.5708,1.5708,0.785397,-0.000641049,-8.57409e-05,-0.000127366,0.000339125,-3.20542e-05,-0.000167907,0.000258287,0,0,0,0,0,0,0,-0.50597,-10.0901,-0.508359,20.8448,0.745561,-0.681859,0.110056,-0.529418,-0.960242,-0.113101,2.33432,0.187511,-0.684045,0.153651
5398782,1,-1.57032,-0.522928,0.000165522,-2.09582,1.57077,1.5717,0.785063,-1.5708,-0.523599,7.91955e-08,-2.0944,1.5708,1.5708,0.785397,-0.000427366,-0.000706775,0.000471901,0.000226083,-0.000243459,0.000125421,0.00112163,0,0,0,0,0,0,0,-0.50597,-10.0623,-0.532163,20.8448,0.751055,-0.688268,0.0844213,-0.529112,-0.958931,-0.112535,2.33308,0.187332,-0.684114,0.153644
5398783,1,-1.57032,-0.522924,0.000165752,-2.09582,1.57077,1.5717,0.785059,-1.5708,-0.523599,7.91955e-08,-2.0944,1.5708,1.5708,0.785397,0.000921515,0.000735243,-0.000242211,0.000150722,-0.000176285,-0.000153745,-0.000676402,0,0,0,0,0,0,0,-0.557545,-10.1139,-0.508359,20.8448,0.751055,-0.681859,0.122873,-0.528947,-0.957384,-0.112207,2.33185,0.187169,-0.684147,0.153666
5398784,1,-1.57032,-0.522926,0.000165925,-2.09582,1.57077,1.5717,0.785059,-1.5708,-0.523599,7.91955e-08,-2.0944,1.5708,1.5708,0.785397,-3.52705e-05,-6.665e-05,0.000395338,-0.00110594,-0.000365367,-0.000102497,-0.000450935,0,0,0,0,0,0,0,-0.529774,-10.0901,-0.532163,20.8963,0.757463,-0.681859,0.122873,-0.529243,-0.957501,-0.112521,2.33172,0.187072,-0.684119,0.153689
5398785,1,-1.57032,-0.522924,0.000165886,-2.09582,1.57077,1.5717,0.78506,-1.5708,-0.523599,7.91955e-08,-2.0944,1.5708,1.5708,0.785397,0.00118291,0.000512379,-0.000293253,-0.000180484,-1.40821e-05,-6.83311e-05,0.000174095,0,0,0,0,0,0,0,-0.581349,-10.1139,-0.508359,20.8725,0.751055,-0.681859,0.110056,-0.529896,-0.95945,-0.113312,2.3329,0.187051,-0.684048,0.153721
5398786,1,-1.57032,-0.522928,0.000162629,-2.09582,1.57077,1.5717,0.785061,-1.5708,-0.523599,7.91955e-08,-2.0944,1.5708,1.5708,0.785397,-0.000417818,-0.00086484,-0.000752314,-0.000120323,-0.000252644,-0.000282913,0.000590781,0,0,0,0,0,0,0,-0.529774,-10.0623,-0.484555,20.8725,0.757463,-0.67545,0.0972387,-0.530373,-0.961245,-0.113721,2.33414,0.187037,-0.683992,0.153775
5398787,1,-1.57032,-0.522924,0.000165901,-2.09582,1.57077,1.5717,0.785056,-1.5708,-0.523599,7.91955e-08,-2.0944,1.5708,1.5708,0.785397,-0.000835357,0.000629866,5.52692e-05,-8.02153e-05,0.000267957,0.000523468,-0.00130157,0,0,0,0,0,0,0,-0.50597,-10.1139,-0.508359,20.8725,0.745561,-0.694677,0.143015,-0.529979,-0.961928,-0.112801,2.33472,0.186987,-0.684048,0.153843
5398788,1,-1.57032,-0.522926,0.000162634,-2.09581,1.57077,1.5717,0.78506,-1.5708,-0.523599,7.91955e-08,-2.0944,1.5708,1.5708,0.785397,0.000649521,-0.000136901,-0.000519966,0.00115295,-0.000468939,-0.000125739,0.000352992,0,0,0,0,0,0,0,-0.557545,-10.0901,-0.484555,20.821,0.762956,-0.681859,0.110056,-0.529067,-0.962148,-0.111149,2.33472,0.186918,-0.684175,0.153923
5398789,1,-1.57032,-0.522924,0.000165903,-2.09581,1.57077,1.5717,0.785062,-1.5708,-0.523599,7.91955e-08,-2.0944,1.5708,1.5708,0.785397,-0.0002166,0.000465544,0.000210168,0.000768633,0.000329146,0.000153533,0.000947405,0,0,0,0,0,0,0,-0.529774,-10.1139,-0.508359,20.821,0.745561,-0.688268,0.09083,-0.528431,-0.961793,-0.109846,2.33386,0.186837,-0.684263,0.154033
5398790,1,-1.57032,-0.522923,0.000165975,-2.09582,1.57077,1.5717,0.785057,-1.5708,-0.523599,7.91955e-08,-2.0944,1.5708,1.5708,0.785397,-0.0001444,0.000867175,0.000696924,-0.00125082,-0.000223245,0.000339714,-0.00102991,0,0,0,0,0,0,0,-0.529774,-10.1377,-0.532163,20.8963,0.757463,-0.694677,0.135691,-0.528343,-0.962375,-0.109397,2.33336,0.186806,-0.684287,0.15416
5398791,1,-1.57032,-0.522924,0.000167573,-2.09582,1.57077,1.5717,0.785063,-1.5708,-0.523599,7.91955e-08,-2.0944,1.5708,1.5708,0.785397,0.000553347,2.13046e-05,0.000464616,-0.000277065,8.71295e-05,0.000226476,0.00121227,0,0,0,0,0,0,0,-0.557545,-10.1139,-0.532163,20.8725,0.751055,-0.694677,0.0844213,-0.528962,-0.965118,-0.110128,2.33445,0.186881,-0.684237,0.154282
5398792,1,-1.57032,-0.522924,0.000167924,-2.09582,1.57077,1.5717,0.78506,-1.5708,-0.523599,7.91955e-08,-2.0944,1.5708,1.5708,0.785397,0.000368898,1.42031e-05,0.000959358,-0.000741522,5.70367e-05,-0.000323734,-0.000141259,0,0,0,0,0,0,0,-0.557545,-10.1139,-0.559934,20.8963,0.751055,-0.681859,0.110056,-0.530403,-0.968035,-0.112125,2.33606,0.187016,-0.68408,0.154399
5398793,1,-1.57032,-0.52293,0.000165903,-2.09582,1.57077,1.5717,0.785059,-1.5708,-0.523599,7.91955e-08,-2.0944,1.5708,1.5708,0.785397,0.000245932,-0.00175377,-0.000566854,0.000712078,0.000240688,-0.000215823,-0.000568891,0,0,0,0,0,0,0,-0.557545,-10.0385,-0.508359,20.8448,0.745561,-0.681859,0.122873,-0.532109,-0.968228,-0.11447,2.33641,0.187116,-0.683865,0.154501
5398794,1,-1.57032,-0.522923,0.000162635,-2.09582,1.57077,1.5717,0.785062,-1.5708,-0.523599,7.91955e-08,-2.0944,1.5708,1.5708,0.785397,-0.000485659,0.00115087,-0.000934715,-0.00184533,-0.000280941,-0.000381241,0.000807534,0,0,0,0,0,0,0,-0.529774,-10.1377,-0.484555,20.9439,0.757463,-0.67545,0.09083,-0.532807,-0.966465,-0.115194,2.33586,0.187137,-0.683784,0.154585
5398795,1,-1.57032,-0.52293,0.000165443,-2.09582,1.57077,1.5717,0.785059,-1.5708,-0.523599,7.91955e-08,-2.0944,1.5708,1.5708,0.785397,-0.000323773,-0.0015528,0.000490481,-0.000116597,0.000253072,-1.68015e-05,-0.000648438,0,0,0,0,0,0,0,-0.529774,-10.0385,-0.532163,20.8963,0.745561,-0.681859,0.122873,-0.532355,-0.965504,-0.114171,2.33601,0.187135,-0.683877,0.154654
5398796,1,-1.57032,-0.522926,0.000159976,-2.09582,1.57077,1.5717,0.785062,-1.5708,-0.523599,7.91955e-08,-2.0944,1.5708,1.5708,0.785397,-0.000215849,0.000171224,-0.00143625,-0.000634543,-3.50677e-05,-1.1201e-05,0.000754502,0,0,0,0,0,0,0,-0.529774,-10.0901,-0.456784,20.9201,0.751055,-0.681859,0.09083,-0.531388,-0.964283,-0.112399,2.3362,0.187112,-0.684031,0.154708
5398797,1,-1.57032,-0.522926,0.000167337,-2.09583,1.57077,1.5717,0.78506,-1.5708,-0.523599,7.91955e-08,-2.0944,1.5708,1.5708,0.785397,-0.000143899,0.000114149,0.000805737,-0.000979841,-2.36275e-05,-7.46732e-06,-0.000209075,0,0,0,0,0,0,0,-0.529774,-10.0901,-0.532163,20.9439,0.751055,-0.681859,0.110056,-0.530237,-0.963408,-0.11034,2.33659,0.187078,-0.684204,0.154749
5398798,1,-1.57032,-0.522928,0.000160607,-2.09582,1.57077,1.5717,0.785059,-1.5708,-0.523599,7.91955e-08,-2.0944,1.5708,1.5708,0.785397,0.000553681,-0.000573514,-0.00122608,0.000460397,-1.59385e-05,0.000232381,-0.000614101,0,0,0,0,0,0,0,-0.557545,-10.0623,-0.456784,20.8963,0.751055,-0.688268,0.122873,-0.529421,-0.96341,-0.108748,2.33738,0.18706,-0.684327,0.154771
5398799,1,-1.57032,-0.52293,0.000165877,-2.09582,1.57077,1.5717,0.785059,-1.5708,-0.523599,7.91955e-08,-2.0944,1.5708,1.5708,0.785397,0.000369121,-0.000939155,0.00038904,0.000306931,-0.000655026,-0.000319797,-0.000172042,0,0,0,0,0,0,0,-0.557545,-10.0385,-0.508359,20.8963,0.76845,-0.67545,0.116465,-0.529116,-0.961597,-0.107782,2.33699,0.187006,-0.684351,0.154788
5398800,1,-1.57032,-0.522924,0.000165967,-2.09582,1.57077,1.5717,0.785058,-1.5708,-0.523599,7.91955e-08,-2.0944,1.5708,1.5708,0.785397,-0.000403533,0.00113713,0.000816172,0.00141105,-2.98879e-05,-0.000213198,-0.000589413,0,0,0,0,0,0,0,-0.529774,-10.1139,-0.532163,20.8448,0.757463,-0.67545,0.129282,-0.529537,-0.958599,-0.107864,2.3355,0.18694,-0.684255,0.154822
5398801,1,-1.57033,-0.522928,0.0001659,-2.09582,1.57077,1.5717,0.785063,-1.5708,-0.523599,7.91955e-08,-2.0944,1.5708,1.5708,0.785397,-0.00147545,-0.000448336,-1.26975e-05,0.000291084,0.000217355,0.000332586,0.00126857,0,0,0,0,0,0,0,-0.478199,-10.0623,-0.508359,20.8725,0.751055,-0.688268,0.0844213,-0.530163,-0.956557,-0.108444,2.334,0.186905,-0.684135,0.154883
5398802,1,-1.57033,-0.522924,0.000166435,-2.09582,1.57077,1.5717,0.785059,-1.5708,-0.523599,7.91955e-08,-2.0944,1.5708,1.5708,0.785397,-0.000983632,0.000907535,-8.46502e-06,-0.000362756,-9.25148e-05,0.000221724,-0.000341081,0,0,0,0,0,0,0,-0.478199,-10.1139,-0.508359,20.8963,0.757463,-0.688268,0.116465,-0.529901,-0.956046,-0.107954,2.33329,0.186895,-0.684151,0.15496
5398803,1,-1.57032,-0.522926,0.000164482,-2.09581,1.57077,1.5717,0.785062,-1.5708,-0.523599,7.91955e-08,-2.0944,1.5708,1.5708,0.785397,-6.14118e-06,4.82115e-05,-5.64335e-06,0.0015214,0.000175638,-8.95431e-05,0.000722049,0,0,0,0,0,0,0,-0.50597,-10.0901,-0.508359,20.821,0.751055,-0.681859,0.09083,-0.529072,-0.956824,-0.10679,2.33335,0.18691,-0.684249,0.15503
5398804,1,-1.57032,-0.522926,0.000163831,-2.09582,1.57077,1.5717,0.785055,-1.5708,-0.523599,7.91955e-08,-2.0944,1.5708,1.5708,0.785397,-4.09412e-06,3.2141e-05,-3.76223e-06,-0.000192159,-0.000323751,-5.96954e-05,-0.000705429,0,0,0,0,0,0,0,-0.50597,-10.0901,-0.508359,20.8725,0.762956,-0.681859,0.122873,-0.528508,-0.95745,-0.106071,2.33321,0.186935,-0.684291,0.155085
5398805,1,-1.57032,-0.522924,0.000165285,-2.09582,1.57077,1.5717,0.785056,-1.5708,-0.523599,7.91955e-08,-2.0944,1.5708,1.5708,0.785397,-2.72941e-06,0.000578239,0.000554304,-0.000684918,0.000224951,0.000197562,-0.000945004,0,0,0,0,0,0,0,-0.50597,-10.1139,-0.532163,20.8963,0.751055,-0.688268,0.135691,-0.528465,-0.95839,-0.106216,2.33353,0.187009,-0.684241,0.155121
5398806,0.99,-1.57033,-0.522928,0.000163542,-2.09582,1.57077,1.5717,0.785064,-1.5708,-0.523599,7.91955e-08,-2.0944,1.5708,1.5708,0.785397,-0.000651433,-0.000820933,-0.000187276,-0.000456612,-8.74105e-05,0.000131708,0.00174359,0,0,0,0,0,0,0,-0.478199,-10.0623,-0.508359,20.8963,0.757463,-0.688268,0.071604,-0.528614,-0.960062,-0.106822,2.33482,0.187144,-0.684152,0.155156
5398807,0.99,-1.57032,-0.522928,0.000163518,-2.09582,1.57077,1.5717,0.785056,-1.5708,-0.523599,7.91955e-08,-2.0944,1.5708,1.5708,0.785397,0.00142175,-0.000547289,-0.000124851,0.000252404,0.000179071,-0.000149554,-0.00148247,0,0,0,0,0,0,0,-0.557545,-10.0623,-0.508359,20.8725,0.751055,-0.681859,0.143015,-0.528756,-0.960203,-0.107489,2.33565,0.187269,-0.684037,0.155202
5398808,0.99,-1.57032,-0.522926,0.000165181,-2.09582,1.57077,1.5717,0.785062,-1.5708,-0.523599,7.91955e-08,-2.0944,1.5708,1.5708,0.785397,0.00029822,0.000284755,0.000473578,-0.000388543,-0.000117989,-9.97024e-05,0.00094447,0,0,0,0,0,0,0,-0.529774,-10.0901,-0.532163,20.8963,0.757463,-0.681859,0.09083,-0.529402,-0.959077,-0.108838,2.33584,0.187384,-0.683831,0.155249
5398809,0.99,-1.57032,-0.522926,0.000170928,-2.09582,1.57077,1.5717,0.785056,-1.5708,-0.523599,7.91955e-08,-2.0944,1.5708,1.5708,0.785397,-0.000357999,0.000189837,0.00152214,-0.000259028,-0.000485568,-6.64683e-05,-0.00130313,0,0,0,0,0,0,0,-0.50597,-10.0901,-0.583737,20.8963,0.76845,-0.681859,0.143015,-0.530741,-0.958927,-0.111333,2.3365,0.187544,-0.683538,0.155299
5398810,0.99,-1.57032,-0.522928,0.000166347,-2.09582,1.57077,1.5717,0.78506,-1.5708,-0.523599,7.91955e-08,-2.0944,1.5708,1.5708,0.785397,0.000318146,-0.000523056,-0.000748475,-0.000172686,0.000523993,0.000193047,0.000351947,0,0,0,0,0,0,0,-0.529774,-10.0623,-0.508359,20.8963,0.745561,-0.688268,0.110056,-0.532072,-0.959373,-0.114014,2.3375,0.18773,-0.683257,0.15536
5398811,0.99,-1.57033,-0.522928,0.000168254,-2.09582,1.57077,1.5717,0.785063,-1.5708,-0.523599,7.91955e-08,-2.0944,1.5708,1.5708,0.785397,-0.000994328,-0.000348704,5.78288e-05,-0.000115124,-0.000294936,0.000128698,0.00118407,0,0,0,0,0,0,0,-0.478199,-10.0623,-0.532163,20.8963,0.762956,-0.688268,0.0844213,-0.532364,-0.958922,-0.115196,2.33803,0.187866,-0.683124,0.155442
5398812,0.99,-1.57032,-0.522926,0.000166662,-2.09582,1.57077,1.5717,0.78506,-1.5708,-0.523599,7.91955e-08,-2.0944,1.5708,1.5708,0.785397,0.00054354,0.000417144,-0.000518259,0.000480063,0.000244182,-0.000388919,-0.000160058,0,0,0,0,0,0,0,-0.529774,-10.0901,-0.508359,20.8725,0.751055,-0.67545,0.110056,-0.531595,-0.958031,-0.114809,2.33817,0.187946,-0.683151,0.155533
5398813,0.99,-1.57033,-0.52293,0.000165018,-2.09582,1.57077,1.5717,0.785061,-1.5708,-0.523599,7.91955e-08,-2.0944,1.5708,1.5708,0.785397,-0.000844065,-0.00092833,-0.000902318,0.000969656,0.000569687,0.000452797,0.000130654,0,0,0,0,0,0,0,-0.478199,-10.0385,-0.484555,20.8448,0.740068,-0.694677,0.103647,-0.530138,-0.956602,-0.113352,2.33763,0.187966,-0.683281,0.155606
5398814,0.99,-1.57032,-0.52293,0.000166697,-2.09582,1.57077,1.5717,0.785056,-1.5708,-0.523599,7.91955e-08,-2.0944,1.5708,1.5708,0.785397,8.69031e-05,-0.000618886,-4.47335e-05,-0.0011168,-2.71118e-05,-0.000172853,-0.00160832,0,0,0,0,0,0,0,-0.50597,-10.0385,-0.508359,20.9201,0.751055,-0.681859,0.149424,-0.528146,-0.953842,-0.111072,2.33634,0.187931,-0.683473,0.155651
5398815,0.99,-1.57032,-0.522928,0.00016457,-2.09582,1.57077,1.5717,0.785063,-1.5708,-0.523599,7.91955e-08,-2.0944,1.5708,1.5708,0.785397,5.79354e-05,0.000144221,-2.98224e-05,0.0010187,-0.000458885,-0.000352594,0.00133529,0,0,0,0,0,0,0,-0.50597,-10.0623,-0.508359,20.8448,0.762956,-0.67545,0.0844213,-0.526459,-0.951064,-0.109293,2.3353,0.187903,-0.683616,0.155692
5398816,0.99,-1.57032,-0.52293,0.000167662,-2.09582,1.57077,1.5717,0.785056,-1.5708,-0.523599,7.91955e-08,-2.0944,1.5708,1.5708,0.785397,0.00124505,-0.000460665,0.00053693,0.000679136,-0.000102474,0.000239655,-0.00127995,0,0,0,0,0,0,0,-0.557545,-10.0385,-0.532163,20.8448,0.757463,-0.688268,0.143015,-0.525909,-0.948734,-0.109189,2.33432,0.187901,-0.683597,0.155751
5398817,0.99,-1.57032,-0.522931,0.000164334,-2.09582,1.57077,1.5717,0.78506,-1.5708,-0.523599,7.91955e-08,-2.0944,1.5708,1.5708,0.785397,0.000830033,-0.000956724,-0.000198858,0.000452757,0.000169042,0.000397129,0.000367404,0,0,0,0,0,0,0,-0.557545,-10.0107,-0.508359,20.8448,0.751055,-0.694677,0.110056,-0.526536,-0.945573,-0.110708,2.33266,0.187912,-0.6834,0.15583
5398818,0.99,-1.57032,-0.522926,0.000167583,-2.09582,1.57077,1.5717,0.785062,-1.5708,-0.523599,7.91955e-08,-2.0944,1.5708,1.5708,0.785397,-0.000653071,0.00121822,0.00042424,0.000301838,-0.000328115,-0.000209965,0.000957013,0,0,0,0,0,0,0,-0.50597,-10.0901,-0.532163,20.8448,0.762956,-0.681859,0.09083,-0.52744,-0.942924,-0.112553,2.33124,0.187944,-0.683185,0.155928
5398819,0.99,-1.57032,-0.522926,0.000160689,-2.09581,1.57077,1.5717,0.785056,-1.5708,-0.523599,7.91955e-08,-2.0944,1.5708,1.5708,0.785397,0.000121432,0.000812149,-0.00148041,0.00131485,0.000425516,-0.000139977,-0.00153213,0,0,0,0,0,0,0,-0.529774,-10.0901,-0.456784,20.7972,0.745561,-0.681859,0.149424,-0.52748,-0.943293,-0.113067,2.33105,0.187992,-0.683156,0.156034
5398820,0.99,-1.57032,-0.522928,0.000162103,-2.09582,1.57077,1.5717,0.785063,-1.5708,-0.523599,7.91955e-08,-2.0944,1.5708,1.5708,0.785397,-0.000475858,-0.000108181,-0.000337327,-0.00144348,-0.000157132,0.000144041,0.00138608,0,0,0,0,0,0,0,-0.50597,-10.0623,-0.484555,20.8963,0.757463,-0.688268,0.0844213,-0.526338,-0.945963,-0.111689,2.33194,0.188038,-0.683341,0.156136
5398821,0.99,-1.57032,-0.522926,0.000165726,-2.09582,1.57077,1.5717,0.785063,-1.5708,-0.523599,7.91955e-08,-2.0944,1.5708,1.5708,0.785397,-0.000317238,0.000577493,0.000331927,0.000244104,0.000336054,9.60274e-05,0.000924052,0,0,0,0,0,0,0,-0.50597,-10.0901,-0.508359,20.8448,0.745561,-0.688268,0.0844213,-0.524839,-0.949458,-0.109745,2.33374,0.18811,-0.683589,0.156238
5398822,0.99,-1.57032,-0.522926,0.000166376,-2.09582,1.57077,1.5717,0.78506,-1.5708,-0.523599,7.91955e-08,-2.0944,1.5708,1.5708,0.785397,0.00034532,0.000384996,0.000221285,-0.00104369,2.05854e-05,6.40182e-05,-0.000333401,0,0,0,0,0,0,0,-0.529774,-10.0901,-0.508359,20.8963,0.751055,-0.688268,0.110056,-0.52398,-0.953571,-0.108808,2.33622,0.188233,-0.68375,0.156319
5398823,0.99,-1.57032,-0.522926,0.000164463,-2.09582,1.57077,1.5717,0.78506,-1.5708,-0.523599,7.91955e-08,-2.0944,1.5708,1.5708,0.785397,0.000230213,0.000256664,0.000147523,-0.000695793,-0.000223635,-0.00019468,-0.000222268,0,0,0,0,0,0,0,-0.529774,-10.0901,-0.508359,20.8963,0.757463,-0.681859,0.110056,-0.523947,-0.95804,-0.109071,2.33915,0.188397,-0.683795,0.156351
5398824,0.99,-1.57032,-0.522928,0.000167444,-2.09582,1.57077,1.5717,0.785056,-1.5708,-0.523599,7.91955e-08,-2.0944,1.5708,1.5708,0.785397,0.000803089,-0.000478505,0.00130477,0.000742564,-0.00014909,-0.000367146,-0.00136888,0,0,0,0,0,0,0,-0.557545,-10.0623,-0.559934,20.8448,0.757463,-0.67545,0.143015,-0.524889,-0.961125,-0.110729,2.34143,0.188564,-0.683681,0.156348
5398825,0.99,-1.57032,-0.522926,0.000169362,-2.09581,1.57077,1.5717,0.785061,-1.5708,-0.523599,7.91955e-08,-2.0944,1.5708,1.5708,0.785397,-0.000114221,0.000330611,0.00086985,0.00105185,-9.93937e-05,0.000229954,0.000782833,0,0,0,0,0,0,0,-0.529774,-10.0901,-0.559934,20.821,0.757463,-0.688268,0.0972387,-0.526869,-0.961326,-0.113928,2.3417,0.188694,-0.683385,0.156348
5398826,0.99,-1.57033,-0.522928,0.000164712,-2.09582,1.57077,1.5717,0.785058,-1.5708,-0.523599,7.91955e-08,-2.0944,1.5708,1.5708,0.785397,-0.00128257,-0.000429207,-0.00118334,0.000144424,0.000374547,0.000153303,-0.000664906,0,0,0,0,0,0,0,-0.478199,-10.0623,-0.484555,20.8448,0.745561,-0.688268,0.129282,-0.528215,-0.959633,-0.116216,2.34045,0.188747,-0.683167,0.156369
5398827,0.99,-1.57032,-0.522926,0.000166595,-2.09582,1.57077,1.5717,0.785063,-1.5708,-0.523599,7.91955e-08,-2.0944,1.5708,1.5708,0.785397,0.00100099,0.000363476,-0.00023208,-0.00111014,4.62474e-05,0.000339561,0.00121824,0,0,0,0,0,0,0,-0.557545,-10.0901,-0.508359,20.8963,0.751055,-0.694677,0.0844213,-0.52784,-0.958072,-0.115883,2.33934,0.188741,-0.683207,0.156404
5398828,0.99,-1.57032,-0.522926,0.000166666,-2.09582,1.57077,1.5717,0.785058,-1.5708,-0.523599,7.91955e-08,-2.0944,1.5708,1.5708,0.785397,1.77132e-05,0.000242317,-0.00015472,-0.000183283,3.08316e-05,0.000463733,-0.000849351,0,0,0,0,0,0,0,-0.529774,-10.0901,-0.508359,20.8725,0.751055,-0.701085,0.129282,-0.527027,-0.958108,-0.114764,2.33946,0.188752,-0.683338,0.156442
5398829,0.99,-1.57032,-0.522926,0.00016669,-2.09582,1.57077,1.5717,0.785056,-1.5708,-0.523599,7.91955e-08,-2.0944,1.5708,1.5708,0.785397,1.18088e-05,0.000161545,-0.000103147,-0.00123581,0.000224005,-0.000165563,-0.00107486,0,0,0,0,0,0,0,-0.529774,-10.0901,-0.508359,20.9201,0.745561,-0.688268,0.143015,-0.526442,-0.959531,-0.113921,2.34058,0.188796,-0.683471,0.156475
5398830,0.99,-1.57032,-0.522924,0.000168368,-2.09582,1.57077,1.5717,0.785064,-1.5708,-0.523599,7.91955e-08,-2.0944,1.5708,1.5708,0.785397,-0.000548939,0.000664509,0.000488047,-0.000267063,-0.000494923,-0.000347734,0.00169092,0,0,0,0,0,0,0,-0.50597,-10.1139,-0.532163,20.8963,0.762956,-0.681859,0.0780126,-0.52595,-0.961857,-0.113264,2.34235,0.188857,-0.683623,0.156522
5398831,0.99,-1.57032,-0.522928,0.000166701,-2.09582,1.57077,1.5717,0.78506,-1.5708,-0.523599,7.91955e-08,-2.0944,1.5708,1.5708,0.785397,0.000190852,-0.00076342,-0.000231447,-0.000734854,-0.000329949,-0.000231823,-5.95119e-05,0,0,0,0,0,0,0,-0.529774,-10.0623,-0.508359,20.9201,0.762956,-0.681859,0.110056,-0.525635,-0.963972,-0.112941,2.34409,0.188914,-0.683757,0.156596
5398832,0.99,-1.57032,-0.522924,0.000164571,-2.09582,1.57077,1.5717,0.785064,-1.5708,-0.523599,7.91955e-08,-2.0944,1.5708,1.5708,0.785397,0.000776849,0.000697479,-0.000154298,-0.000489903,0.000424294,8.28105e-05,0.00114712,0,0,0,0,0,0,0,-0.557545,-10.1139,-0.508359,20.9201,0.745561,-0.688268,0.0780126,-0.525543,-0.965005,-0.112885,2.34532,0.188956,-0.683848,0.156667
5398833,0.99,-1.57032,-0.522926,0.000162191,-2.09582,1.57077,1.5717,0.78506,-1.5708,-0.523599,7.91955e-08,-2.0944,1.5708,1.5708,0.785397,-0.000688527,-9.18259e-05,-0.000659677,-0.000326602,7.94121e-05,-0.000182152,-0.000422048,0,0,0,0,0,0,0,-0.50597,-10.0901,-0.484555,20.9201,0.751055,-0.681859,0.110056,-0.52536,-0.965853,-0.112556,2.34639,0.188986,-0.683947,0.156702
5398834,0.99,-1.57032,-0.522926,0.000164084,-2.09582,1.57077,1.5717,0.785059,-1.5708,-0.523599,7.91955e-08,-2.0944,1.5708,1.5708,0.785397,9.77942e-05,-6.12173e-05,-0.000439785,0.000895889,-0.000184418,0.000353283,-0.000518724,0,0,0,0,0,0,0,-0.529774,-10.0901,-0.484555,20.8725,0.757463,-0.694677,0.116465,-0.524599,-0.965857,-0.111287,2.34672,0.188963,-0.684123,0.156691
5398835,0.99,-1.57032,-0.522926,0.000169545,-2.09582,1.57077,1.5717,0.785061,-1.5708,-0.523599,7.91955e-08,-2.0944,1.5708,1.5708,0.785397,-0.000491616,-4.08115e-05,0.00202686,4.04476e-05,0.000317864,-0.000239196,0.000366261,0,0,0,0,0,0,0,-0.50597,-10.0901,-0.583737,20.8963,0.745561,-0.681859,0.0972387,-0.52415,-0.964205,-0.110551,2.34582,0.188908,-0.684235,0.156647
5398836,0.99,-1.57032,-0.522926,0.000165886,-2.09582,1.57077,1.5717,0.785057,-1.5708,-0.523599,7.91955e-08,-2.0944,1.5708,1.5708,0.785397,0.000229068,-2.72077e-05,-0.000411998,2.69651e-05,0.00021191,7.78951e-05,-0.00117998,0,0,0,0,0,0,0,-0.529774,-10.0901,-0.508359,20.8963,0.745561,-0.688268,0.135691,-0.524744,-0.961966,-0.111545,2.34454,0.18888,-0.68418,0.156591
5398837,0.99,-1.57032,-0.522926,0.000170049,-2.09582,1.57077,1.5717,0.785062,-1.5708,-0.523599,7.91955e-08,-2.0944,1.5708,1.5708,0.785397,0.000152712,-1.81384e-05,0.000931761,1.79767e-05,-0.000502987,5.19301e-05,0.000874859,0,0,0,0,0,0,0,-0.529774,-10.0901,-0.559934,20.8963,0.762956,-0.688268,0.09083,-0.52573,-0.95993,-0.113187,2.34348,0.188866,-0.684063,0.156532
5398838,0.99,-1.57032,-0.522928,0.00016281,-2.09582,1.57077,1.5717,0.785058,-1.5708,-0.523599,7.91955e-08,-2.0944,1.5708,1.5708,0.785397,0.000101808,-0.000661706,-0.00114206,1.19845e-05,-0.000131874,0.000271979,-0.000840914,0,0,0,0,0,0,0,-0.529774,-10.0623,-0.484555,20.8963,0.757463,-0.694677,0.129282,-0.526452,-0.957706,-0.114394,2.34246,0.188833,-0.683983,0.156485
5398839,0.99,-1.57032,-0.522924,0.000165501,-2.09582,1.57077,1.5717,0.785061,-1.5708,-0.523599,7.91955e-08,-2.0944,1.5708,1.5708,0.785397,6.7872e-05,0.000765288,0.000352248,0.000564802,0.000352893,-0.000293399,0.000388826,0,0,0,0,0,0,0,-0.529774,-10.1139,-0.532163,20.8725,0.745561,-0.681859,0.103647,-0.526564,-0.95547,-0.114613,2.34142,0.188772,-0.683998,0.156448
5398840,0.99,-1.57032,-0.522924,0.000164074,-2.09582,1.57077,1.5717,0.785061,-1.5708,-0.523599,7.91955e-08,-2.0944,1.5708,1.5708,0.785397,-0.000511564,0.000510192,-0.000878792,0.000376534,3.18117e-05,-0.000195599,0.000259218,0,0,0,0,0,0,0,-0.50597,-10.1139,-0.484555,20.8725,0.751055,-0.681859,0.103647,-0.5261,-0.954612,-0.113928,2.34083,0.188703,-0.684118,0.156426
5398841,0.99,-1.57032,-0.52293,0.000165923,-2.09582,1.57077,1.5717,0.785057,-1.5708,-0.523599,7.91955e-08,-2.0944,1.5708,1.5708,0.785397,0.000215769,-0.00142311,0.000527763,0.000251023,2.12078e-05,-0.000367758,-0.00101398,0,0,0,0,0,0,0,-0.529774,-10.0385,-0.532163,20.8725,0.751055,-0.67545,0.135691,-0.525393,-0.953765,-0.112895,2.34016,0.18862,-0.684267,0.156414
5398842,0.99,-1.57032,-0.522928,0.000169505,-2.09582,1.57077,1.5717,0.785064,-1.5708,-0.523599,7.91955e-08,-2.0944,1.5708,1.5708,0.785397,-0.000412966,-0.000391928,0.00100146,-0.000389463,0.000217589,0.000229546,0.00146024,0,0,0,0,0,0,0,-0.50597,-10.0623,-0.559934,20.8963,0.745561,-0.688268,0.0780126,-0.525238,-0.950897,-0.1128,2.33878,0.188537,-0.684287,0.156413
5398843,0.99,-1.57032,-0.522924,0.000164299,-2.09581,1.57077,1.5717,0.785058,-1.5708,-0.523599,7.91955e-08,-2.0944,1.5708,1.5708,0.785397,0.000281501,0.000945141,-0.000538789,0.00206041,-5.83911e-05,0.000390389,-0.000925377,0,0,0,0,0,0,0,-0.529774,-10.1139,-0.508359,20.7972,0.751055,-0.694677,0.129282,-0.525605,-0.947908,-0.113612,2.33729,0.188469,-0.684214,0.156424
5398844,0.99,-1.57032,-0.522926,0.000165901,-2.09582,1.57077,1.5717,0.785061,-1.5708,-0.523599,7.91955e-08,-2.0944,1.5708,1.5708,0.785397,-0.000369144,7.32818e-05,-0.000359193,-0.000946445,-0.000479737,2.29007e-05,0.000569877,0,0,0,0,0,0,0,-0.50597,-10.0901,-0.508359,20.8963,0.762956,-0.688268,0.0972387,-0.525525,-0.946917,-0.113747,2.33639,0.188395,-0.684232,0.156432
5398845,0.99,-1.57033,-0.522924,0.000164764,-2.09582,1.57077,1.5717,0.785064,-1.5708,-0.523599,7.91955e-08,-2.0944,1.5708,1.5708,0.785397,-0.000895709,0.000605667,-0.000796274,0.000575463,0.000324435,1.52671e-05,0.00109199,0,0,0,0,0,0,0,-0.478199,-10.1139,-0.484555,20.8448,0.745561,-0.688268,0.0780126,-0.524492,-0.94796,-0.112462,2.33659,0.188325,-0.684416,0.156431
5398846,0.99,-1.57032,-0.522926,0.000166153,-2.09582,1.57077,1.5717,0.785059,-1.5708,-0.523599,7.91955e-08,-2.0944,1.5708,1.5708,0.785397,0.0012589,-0.000153034,0.000582775,-0.000265972,0.00021629,-0.00046454,-0.000696157,0,0,0,0,0,0,0,-0.557545,-10.0901,-0.532163,20.8725,0.745561,-0.67545,0.116465,-0.523299,-0.949885,-0.110956,2.33742,0.188278,-0.684626,0.156408
5398847,0.99,-1.57032,-0.522926,0.000165502,-2.09582,1.57077,1.5717,0.785064,-1.5708,-0.523599,7.91955e-08,-2.0944,1.5708,1.5708,0.785397,0.000189652,-0.000102023,0.000388517,-0.00129094,0.000347644,0.000165025,0.00119741,0,0,0,0,0,0,0,-0.529774,-10.0901,-0.532163,20.9201,0.740068,-0.688268,0.071604,-0.523305,-0.951815,-0.111219,2.33861,0.188287,-0.684643,0.156346
5398848,0.99,-1.57032,-0.522926,0.000162126,-2.09582,1.57077,1.5717,0.785056,-1.5708,-0.523599,7.91955e-08,-2.0944,1.5708,1.5708,0.785397,0.000776049,-6.80152e-05,-0.00150423,0.000252998,-0.000615948,0.000347375,-0.00208394,0,0,0,0,0,0,0,-0.557545,-10.0901,-0.456784,20.8725,0.762956,-0.694677,0.149424,-0.523839,-0.95363,-0.112173,2.34016,0.18832,-0.684571,0.156242
5398849,0.99,-1.57032,-0.522926,0.000162582,-2.09582,1.57077,1.5717,0.785059,-1.5708,-0.523599,7.91955e-08,-2.0944,1.5708,1.5708,0.785397,-0.00068906,-4.53435e-05,-0.000353204,-0.000388147,-0.000207181,-0.000243134,-0.000168593,0,0,0,0,0,0,0,-0.50597,-10.0901,-0.484555,20.8963,0.757463,-0.681859,0.116465,-0.523542,-0.954928,-0.111709,2.3414,0.1883,-0.684624,0.156112
5398850,0.99,-1.57032,-0.522926,0.000163755,-2.09582,1.57077,1.5717,0.785061,-1.5708,-0.523599,7.91955e-08,-2.0944,1.5708,1.5708,0.785397,9.74386e-05,-3.0229e-05,0.000321343,0.000298048,0.000506139,-0.00016209,0.000362323,0,0,0,0,0,0,0,-0.529774,-10.0901,-0.508359,20.8725,0.740068,-0.681859,0.103647,-0.522814,-0.955584,-0.110546,2.3421,0.188248,-0.684743,0.155998
5398851,0.99,-1.57032,-0.522928,0.0001621,-2.09582,1.57077,1.5717,0.785061,-1.5708,-0.523599,7.91955e-08,-2.0944,1.5708,1.5708,0.785397,6.49591e-05,-0.000669767,-0.000992197,-0.000358114,0.000133976,-0.00010806,0.000478907,0,0,0,0,0,0,0,-0.529774,-10.0623,-0.456784,20.8963,0.745561,-0.681859,0.0972387,-0.522267,-0.955323,-0.10962,2.34223,0.188186,-0.684823,0.15592
5398852,0.99,-1.57032,-0.522928,0.000166374,-2.09582,1.57077,1.5717,0.785061,-1.5708,-0.523599,7.91955e-08,-2.0944,1.5708,1.5708,0.785397,-0.000513506,-0.000446511,0.000544961,0.00031807,8.9317e-05,-7.20398e-05,0.000319272,0,0,0,0,0,0,0,-0.50597,-10.0623,-0.508359,20.8725,0.745561,-0.681859,0.0972387,-0.521775,-0.953731,-0.1087,2.34167,0.188093,-0.684874,0.155861
5398853,0.99,-1.57032,-0.522926,0.000162792,-2.09582,1.57077,1.5717,0.785056,-1.5708,-0.523599,7.91955e-08,-2.0944,1.5708,1.5708,0.785397,0.000864089,0.00035194,-0.000193505,0.00086166,-0.000381265,0.000189332,-0.00171993,0,0,0,0,0,0,0,-0.557545,-10.0901,-0.484555,20.8448,0.757463,-0.688268,0.149424,-0.521676,-0.95155,-0.108328,2.34058,0.187986,-0.684856,0.155802
5398854,0.99,-1.57032,-0.522926,0.000167626,-2.09582,1.57077,1.5717,0.785062,-1.5708,-0.523599,7.91955e-08,-2.0944,1.5708,1.5708,0.785397,-7.35549e-05,0.000234627,0.000984621,-0.00174561,-0.000254177,-0.000111137,0.00102352,0,0,0,0,0,0,0,-0.529774,-10.0901,-0.532163,20.9439,0.757463,-0.681859,0.09083,-0.522424,-0.950836,-0.10918,2.34017,0.187932,-0.684728,0.155749
5398855,0.99,-1.57032,-0.522926,0.000164783,-2.09582,1.57077,1.5717,0.785056,-1.5708,-0.523599,7.91955e-08,-2.0944,1.5708,1.5708,0.785397,-4.90366e-05,0.000156418,-0.00045721,0.00115631,0.000271358,0.000163267,-0.00125044,0,0,0,0,0,0,0,-0.529774,-10.0901,-0.484555,20.8448,0.745561,-0.688268,0.143015,-0.523545,-0.951993,-0.110583,2.34096,0.18794,-0.684565,0.155721
5398856,0.99,-1.57033,-0.522931,0.000164488,-2.09581,1.57077,1.5717,0.785063,-1.5708,-0.523599,7.91955e-08,-2.0944,1.5708,1.5708,0.785397,-0.00123912,-0.00175176,0.000252005,0.00132769,-0.000463354,-0.000128514,0.00133652,0,0,0,0,0,0,0,-0.478199,-10.0107,-0.508359,20.821,0.762956,-0.681859,0.0844213,-0.524073,-0.951191,-0.111118,2.34043,0.187889,-0.68447,0.155729
5398857,0.99,-1.57032,-0.522921,0.000164294,-2.09582,1.57077,1.5717,0.785064,-1.5708,-0.523599,7.91955e-08,-2.0944,1.5708,1.5708,0.785397,0.00102996,0.00245144,-0.000388808,-0.000878114,-0.000308903,0.000151683,0.00136573,0,0,0,0,0,0,0,-0.557545,-10.1654,-0.484555,20.8963,0.762956,-0.688268,0.071604,-0.524023,-0.949253,-0.110785,2.33896,0.187792,-0.684452,0.155765
5398858,0.99,-1.57032,-0.522924,0.000167945,-2.09582,1.57077,1.5717,0.785056,-1.5708,-0.523599,7.91955e-08,-2.0944,1.5708,1.5708,0.785397,3.70272e-05,0.000427865,0.00150403,-2.85976e-05,0.000234874,0.000101122,-0.00197173,0,0,0,0,0,0,0,-0.529774,-10.1139,-0.559934,20.8725,0.751055,-0.688268,0.149424,-0.524504,-0.951563,-0.111239,2.33978,0.187814,-0.684404,0.155787
5398859,0.99,-1.57032,-0.522926,0.000163779,-2.09582,1.57077,1.5717,0.785061,-1.5708,-0.523599,7.91955e-08,-2.0944,1.5708,1.5708,0.785397,2.46848e-05,-0.000271568,-0.000203738,-1.9065e-05,-8.07761e-05,-0.000169944,0.000618293,0,0,0,0,0,0,0,-0.529774,-10.0901,-0.508359,20.8725,0.757463,-0.681859,0.0972387,-0.525726,-0.955805,-0.112847,2.34176,0.187934,-0.684267,0.155775
5398860,0.99,-1.57033,-0.522926,0.000165268,-2.09582,1.57077,1.5717,0.785056,-1.5708,-0.523599,7.91955e-08,-2.0944,1.5708,1.5708,0.785397,-0.00118997,-0.000181046,0.000420987,0.000636904,-5.38508e-05,0.000361422,-0.00152058,0,0,0,0,0,0,0,-0.478199,-10.0901,-0.532163,20.8448,0.757463,-0.694677,0.149424,-0.526547,-0.957679,-0.113963,2.34254,0.188022,-0.684162,0.155762
5398861,0.99,-1.57032,-0.522926,0.000165667,-2.09582,1.57077,1.5717,0.785061,-1.5708,-0.523599,7.91955e-08,-2.0944,1.5708,1.5708,0.785397,0.000413113,-0.000120697,-0.000276154,0.000424603,0.000201458,0.000240948,0.000919057,0,0,0,0,0,0,0,-0.529774,-10.0901,-0.508359,20.8448,0.751055,-0.694677,0.0972387,-0.526537,-0.9574,-0.113936,2.34204,0.188052,-0.684161,0.155773
5398862,0.99,-1.57032,-0.522924,0.000162556,-2.09582,1.57077,1.5717,0.785062,-1.5708,-0.523599,7.91955e-08,-2.0944,1.5708,1.5708,0.785397,0.000275408,0.000476347,-0.000740915,-0.000923357,0.000134306,-0.000551445,0.000850064,0,0,0,0,0,0,0,-0.529774,-10.1139,-0.484555,20.8963,0.751055,-0.67545,0.09083,-0.526111,-0.956992,-0.113246,2.34148,0.188069,-0.684225,0.155816
5398863,0.99,-1.57032,-0.522928,0.000165877,-2.09582,1.57077,1.5717,0.785058,-1.5708,-0.523599,7.91955e-08,-2.0944,1.5708,1.5708,0.785397,-0.000373206,-0.000888861,6.28688e-05,0.000590854,-0.000147822,0.000344447,-0.000857445,0,0,0,0,0,0,0,-0.50597,-10.0623,-0.508359,20.8448,0.757463,-0.694677,0.129282,-0.525419,-0.956956,-0.11208,2.34134,0.188088,-0.684335,0.155872
5398864,0.99,-1.57032,-0.522926,0.000164296,-2.09582,1.57077,1.5717,0.78506,-1.5708,-0.523599,7.91955e-08,-2.0944,1.5708,1.5708,0.785397,0.000308008,5.70399e-05,4.19126e-05,-0.000255711,-9.85479e-05,0.000229631,0.000140447,0,0,0,0,0,0,0,-0.529774,-10.0901,-0.508359,20.8725,0.757463,-0.694677,0.110056,-0.524759,-0.955906,-0.111005,2.34074,0.188097,-0.684432,0.155921
5398865,0.99,-1.57032,-0.522926,0.00016544,-2.09582,1.57077,1.5717,0.785057,-1.5708,-0.523599,7.91955e-08,-2.0944,1.5708,1.5708,0.785397,0.000205339,3.80266e-05,0.000584754,-0.000727286,-6.56986e-05,-0.00032163,-0.000855804,0,0,0,0,0,0,0,-0.529774,-10.0901,-0.532163,20.8963,0.757463,-0.681859,0.135691,-0.524655,-0.954993,-0.11083,2.34032,0.188142,-0.684455,0.155972
5398866,0.99,-1.57032,-0.522928,0.000167395,-2.09582,1.57077,1.5717,0.785063,-1.5708,-0.523599,7.91955e-08,-2.0944,1.5708,1.5708,0.785397,0.000136892,-0.000624263,0.000389836,0.000721569,0.000600461,0.000260298,0.00132834,0,0,0,0,0,0,0,-0.529774,-10.0623,-0.532163,20.8448,0.740068,-0.694677,0.0844213,-0.525215,-0.95451,-0.11171,2.34022,0.188229,-0.684391,0.156041
5398867,0.99,-1.57033,-0.52293,0.000164246,-2.09582,1.57077,1.5717,0.785059,-1.5708,-0.523599,7.91955e-08,-2.0944,1.5708,1.5708,0.785397,-0.00111516,-0.000972987,-0.000296921,-0.000168568,-0.000243953,-6.38272e-05,-0.000538597,0,0,0,0,0,0,0,-0.478199,-10.0385,-0.508359,20.8725,0.757463,-0.688268,0.122873,-0.525616,-0.952411,-0.112441,2.33917,0.188274,-0.684342,0.156126
5398868,0.99,-1.57032,-0.522926,0.000165423,-2.09582,1.57077,1.5717,0.785061,-1.5708,-0.523599,7.91955e-08,-2.0944,1.5708,1.5708,0.785397,0.00166941,0.000557768,0.000358864,-0.000112379,0.000278174,-4.25515e-05,0.000590371,0,0,0,0,0,0,0,-0.581349,-10.0901,-0.532163,20.8725,0.745561,-0.688268,0.0972387,-0.525679,-0.949791,-0.112697,2.33783,0.188285,-0.684345,0.156209
5398869,0.99,-1.57032,-0.522923,0.000164048,-2.09582,1.57077,1.5717,0.785061,-1.5708,-0.523599,7.91955e-08,-2.0944,1.5708,1.5708,0.785397,-9.34868e-05,0.00148547,-0.000874381,0.000574695,0.00018545,-2.83676e-05,0.000393581,0,0,0,0,0,0,0,-0.529774,-10.1377,-0.484555,20.8448,0.745561,-0.688268,0.0972387,-0.525931,-0.949965,-0.113102,2.3377,0.18832,-0.684365,0.156279
5398870,0.99,-1.57032,-0.522926,0.000165914,-2.09582,1.57077,1.5717,0.785056,-1.5708,-0.523599,7.91955e-08,-2.0944,1.5708,1.5708,0.785397,-0.000619136,-0.000123311,0.000530703,-0.000266484,-7.98175e-05,-1.89118e-05,-0.00167039,0,0,0,0,0,0,0,-0.50597,-10.0901,-0.532163,20.8725,0.751055,-0.688268,0.149424,-0.525879,-0.952902,-0.112991,2.33866,0.18836,-0.684476,0.156325
5398871,0.99,-1.57032,-0.522926,0.000165422,-2.09582,1.57077,1.5717,0.785064,-1.5708,-0.523599,7.91955e-08,-2.0944,1.5708,1.5708,0.785397,0.000144054,-8.22075e-05,0.000353802,-0.000177656,-0.000494021,-0.000487326,0.00176862,0,0,0,0,0,0,0,-0.529774,-10.0901,-0.532163,20.8725,0.762956,-0.67545,0.071604,-0.525647,-0.955724,-0.112732,2.33967,0.188387,-0.684611,0.156357
5398872,0.99,-1.57032,-0.52293,0.000169338,-2.09582,1.57077,1.5717,0.785055,-1.5708,-0.523599,7.91955e-08,-2.0944,1.5708,1.5708,0.785397,9.60362e-05,-0.00126123,0.000885482,-0.000675249,0.000111462,-8.75249e-05,-0.00095715,0,0,0,0,0,0,0,-0.529774,-10.0385,-0.559934,20.8963,0.751055,-0.681859,0.129282,-0.52602,-0.95653,-0.113499,2.34007,0.188416,-0.684619,0.156393
5398873,0.99,-1.57032,-0.522928,0.000164244,-2.09582,1.57077,1.5717,0.785059,-1.5708,-0.523599,7.91955e-08,-2.0944,1.5708,1.5708,0.785397,6.40241e-05,-0.000284009,-0.000616105,-0.000450166,0.000277759,0.000416368,7.39768e-05,0,0,0,0,0,0,0,-0.529774,-10.0623,-0.508359,20.8963,0.745561,-0.694677,0.110056,-0.526641,-0.955323,-0.114672,2.33988,0.188438,-0.684546,0.156419
5398874,0.99,-1.57032,-0.522926,0.000164212,-2.09582,1.57077,1.5717,0.78506,-1.5708,-0.523599,7.91955e-08,-2.0944,1.5708,1.5708,0.785397,-0.000514129,0.000460275,-0.000967548,-0.000300111,-0.000255637,-0.000197139,4.93178e-05,0,0,0,0,0,0,0,-0.50597,-10.0901,-0.484555,20.8963,0.757463,-0.681859,0.110056,-0.526362,-0.954262,-0.114442,2.33988,0.188429,-0.684598,0.156435
5398875,0.99,-1.57032,-0.522924,0.000164298,-2.09582,1.57077,1.5717,0.785058,-1.5708,-0.523599,7.91955e-08,-2.0944,1.5708,1.5708,0.785397,0.000214059,0.000863662,-8.82203e-05,0.00734228,6.69342e-05,0.000105933,-0.000679198,0,0,0,0,0,0,0,-0.529774,-10.1139,-0.508359,20.8448,0.751055,-0.688268,0.129282,-0.525136,-0.952764,-0.112663,2.3382,0.188304,-0.6848,0.156462
5398876,0.99,-1.57032,-0.522928,0.00016377,-2.09582,1.57077,1.5717,0.785063,-1.5708,-0.523599,7.91955e-08,-2.0944,1.5708,1.5708,0.785397,0.00079232,-0.000630651,-5.88135e-05,0.00477323,4.46228e-05,0.000307981,0.00120871,0,0,0,0,0,0,0,-0.557545,-10.0623,-0.508359,20.8725,0.751055,-0.694677,0.0844213,-0.524218,-0.946645,-0.111156,2.3313,0.187976,-0.684934,0.156519
5398877,0.99,-1.57032,-0.522924,0.000168884,-2.09582,1.57077,1.5717,0.785059,-1.5708,-0.523599,7.91955e-08,-2.0944,1.5708,1.5708,0.785397,-0.000678213,0.000785992,0.00172403,0.00422776,2.97485e-05,-3.20384e-05,-0.000618344,0,0,0,0,0,0,0,-0.50597,-10.1139,-0.583737,20.8448,0.751055,-0.688268,0.122873,-0.52441,-0.936816,-0.111277,2.32097,0.187556,-0.684882,0.156599
5398878,0.99,-1.57032,-0.522924,0.000167336,-2.09582,1.57077,1.5717,0.785061,-1.5708,-0.523599,7.91955e-08,-2.0944,1.5708,1.5708,0.785397,-0.000452142,0.000523994,-5.70733e-05,0.00246589,-0.000217527,-0.000258718,0.000537206,0,0,0,0,0,0,0,-0.50597,-10.1139,-0.532163,20.8725,0.757463,-0.681859,0.0972387,-0.525257,-0.928459,-0.112615,2.31176,0.187214,-0.684751,0.15667
5398879,0.99,-1.57032,-0.522924,0.000165896,-2.09582,1.57077,1.5717,0.785057,-1.57079,-0.523597,2.19109e-06,-2.09439,1.5708,1.5708,0.785397,0.000904998,0.00034933,-3.80489e-05,0.000753052,9.23412e-05,6.48804e-05,-0.00106602,0.00362557,0.001875,0.00211189,0.0026176,0.00132141,0.005,0.000469724,-0.557545,-10.1139,-0.532163,20.9201,0.751055,-0.688268,0.135691,-0.525971,-0.924199,-0.113899,2.3061,0.187008,-0.684671,0.156718
5398880,0.99,-1.57032,-0.522926,0.000165877,-2.09582,1.57077,1.5717,0.78506,-1.57079,-0.523593,6.41488e-06,-2.09439,1.5708,1.57081,0.785398,-4.62819e-05,-0.000323926,-0.000582178,0.00178272,6.15608e-05,-0.000431464,0.000238758,0.00725114,0.00375,0.00422379,0.00523521,0.00264281,0.01,0.000939449,-0.529774,-10.0901,-0.508359,20.8725,0.751055,-0.67545,0.110056,-0.526357,-0.923031,-0.114623,2.30383,0.186919,-0.684648,0.156749
5398881,0.99,-1.57032,-0.522928,0.000170046,-2.09582,1.57077,1.5717,0.785064,-1.57077,-0.523587,1.27506e-05,-2.09438,1.5708,1.57083,0.7854,-0.000587667,-0.000865564,0.000818307,0.000200151,-0.000399769,0.000187075,0.00158333,0.0108767,0.005625,0.00633568,0.00785281,0.00396422,0.015,0.00140917,-0.50597,-10.0623,-0.559934,20.9201,0.762956,-0.688268,0.071604,-0.526414,-0.922528,-0.114883,2.30338,0.186894,-0.684656,0.156782
5398882,0.99,-1.57032,-0.522925,0.000164735,-2.09582,1.57077,1.5717,0.785057,-1.57076,-0.52358,2.11981e-05,-2.09437,1.57081,1.57085,0.785402,0.00201646,0.00201059,-0.00170508,-0.000329407,-0.000469963,-0.000112642,-0.00131804,0.0145023,0.0075,0.00844758,0.0104704,0.00528562,0.02,0.0018789,-0.478199,-10.0385,-0.329831,20.9439,0.76845,-0.681859,0.135691,-0.526327,-0.924337,-0.114922,2.3054,0.186962,-0.68469,0.156805
5398883,0.99,-1.57032,-0.522931,0.000159584,-2.09582,1.57077,1.5717,0.785061,-1.57074,-0.523571,3.17576e-05,-2.09436,1.57082,1.57087,0.785404,0.00395868,-0.000617105,-0.00145077,0.0001678,9.35923e-05,-7.50948e-05,0.000545461,0.0181279,0.009375,0.0105595,0.013088,0.00660703,0.025,0.00234862,-0.176685,-9.80838,0.0986355,21.0709,0.757463,-0.681859,0.0972387,-0.526654,-0.930106,-0.115051,2.31038,0.187147,-0.684695,0.156795
5398884,0.99,-1.57033,-0.522928,0.00017841,-2.09582,1.57077,1.5717,0.785055,-1.57072,-0.523559,4.4429e-05,-2.09434,1.57082,1.5709,0.785407,-0.00233769,0.00222297,0.00229169,0.00107604,0.000299754,-0.000524781,-0.0018065,0.0217534,0.01125,0.0126714,0.0157056,0.00792843,0.03,0.00281835,0.350963,-9.63382,0.404117,21.1701,0.751055,-0.669042,0.155832,-0.527535,-0.937355,-0.115696,2.31651,0.18741,-0.684593,0.15677
5398885,0.99,-1.57033,-0.522924,0.000193722,-2.09582,1.57077,1.5717,0.785054,-1.57069,-0.523546,5.92123e-05,-2.09432,1.57083,1.57094,0.78541,-0.000775476,0.00127197,0.00557982,0.00138625,-3.75231e-05,0.00910194,-0.00144169,0.025379,0.013125,0.0147833,0.0183232,0.00924984,0.035,0.00328807,0.77943,-9.45529,0.832583,21.2931,0.757463,-0.669042,0.162241,-0.52872,-0.945299,-0.117821,2.32309,0.187793,-0.68437,0.156761
5398886,0.99,-1.57033,-0.522919,0.00020925,-2.09581,1.57077,1.5717,0.785061,-1.57067,-0.523531,7.61074e-05,-2.0943,1.57084,1.57098,0.785414,0.000662858,0.00133656,0.00729033,0.00571278,0.000822695,0.00709297,0.00120901,0.0290046,0.015,0.0168952,0.0209408,0.0105712,0.04,0.00375779,1.21186,-9.30453,1.31262,21.2455,0.734575,-0.67545,0.103647,-0.531001,-0.951145,-0.123435,2.32841,0.188302,-0.683807,0.156826
5398887,0.99,-1.57032,-0.522908,0.000232556,-2.0958,1.57077,1.57171,0.785054,-1.57063,-0.523514,9.51145e-05,-2.09428,1.57086,1.57102,0.785418,0.00277451,0.00571745,0.0116786,0.00794468,0.000751914,0.00925303,-0.00136413,0.0326301,0.016875,0.0190071,0.0235584,0.0118926,0.045,0.00422752,1.61256,-9.20535,1.66968,21.3684,0.729082,-0.656224,0.162241,-0.53586,-0.95322,-0.134913,2.33074,0.188903,-0.682487,0.157004
5398888,0.99,-1.57032,-0.522898,0.000259476,-2.0958,1.57077,1.57171,0.785061,-1.5706,-0.523496,0.000116233,-2.09425,1.57087,1.57107,0.785423,0.00539916,0.00889088,0.0164181,0.00771942,-0.000312526,0.0126361,0.00126072,0.0362557,0.01875,0.0211189,0.026176,0.0132141,0.05,0.00469724,1.96565,-9.1022,1.97119,21.4438,0.751055,-0.681859,0.103647,-0.544783,-0.958257,-0.154875,2.33331,0.189754,-0.680086,0.157285
5398889,0.99,-1.57031,-0.522889,0.000280273,-2.09579,1.57077,1.57172,0.78506,-1.57055,-0.523473,0.00014126,-2.09422,1.57089,1.57113,0.785428,0.00602703,0.00815444,0.0185761,0.00694089,-0.00190377,0.0154253,0.00060312,0.0429127,0.0225,0.0250268,0.0308254,0.0153369,0.06,0.0053676,2.37031,-9.00302,2.32825,21.543,0.796831,-0.713903,0.110056,-0.55758,-0.970693,-0.183614,2.33997,0.191019,-0.676545,0.157645
5398890,0.99,-1.5703,-0.52288,0.000311005,-2.09579,1.57077,1.57172,0.785061,-1.5705,-0.523447,0.000170195,-2.09418,1.5709,1.5712,0.785434,0.0071086,0.006968,0.0181769,0.00705408,-0.00106573,0.0107315,0.000639439,0.0495696,0.02625,0.0289346,0.0354747,0.0174597,0.07,0.00603795,2.62422,-8.87607,2.50281,21.6144,0.791338,-0.694677,0.103647,-0.570727,-0.985578,-0.216101,2.35022,0.192606,-0.672172,0.158043
5398891,0.99,-1.57028,-0.522868,0.000335211,-2.09578,1.57077,1.57173,0.785066,-1.57045,-0.523417,0.000203037,-2.09414,1.57092,1.57128,0.785441,0.00974756,0.00983328,0.0219438,0.00782368,-0.000710487,0.0115272,0.00113837,0.0562265,0.03,0.0328424,0.040124,0.0195825,0.08,0.00670831,2.79878,-8.77292,2.75672,21.666,0.791338,-0.662633,0.0844213,-0.581062,-0.998406,-0.247581,2.36266,0.194386,-0.667242,0.158432
5398892,0.99,-1.57026,-0.522854,0.00036233,-2.09576,1.57077,1.57174,0.785058,-1.57039,-0.523383,0.000239787,-2.0941,1.57094,1.57137,0.785448,0.0134272,0.01129,0.0259648,0.0120023,-0.00108401,0.0118546,-0.00113996,0.0628834,0.03375,0.0367502,0.0447734,0.0217053,0.09,0.00737866,3.02491,-8.64597,3.086,21.6898,0.807817,-0.617772,0.135691,-0.589196,-1.00961,-0.279003,2.3767,0.196384,-0.661621,0.158785
5398893,0.99,-1.57024,-0.522845,0.000391797,-2.09575,1.57077,1.57175,0.785065,-1.57032,-0.523346,0.000280445,-2.09405,1.57097,1.57147,0.785456,0.0185549,0.0107717,0.0290084,0.0119483,-0.000315772,0.010397,0.000664181,0.0695404,0.0375,0.040658,0.0494227,0.0238282,0.1,0.00804902,3.40577,-8.32065,3.54224,21.7176,0.796831,-0.527135,0.0972387,-0.597392,-1.01756,-0.313486,2.39064,0.198627,-0.654932,0.159099
5398894,0.99,-1.57021,-0.522828,0.000433538,-2.09573,1.57078,1.57175,0.785066,-1.57024,-0.523304,0.000325011,-2.094,1.57099,1.57158,0.785465,0.0217713,0.0140714,0.0320601,0.0124664,0.000637196,0.00742955,0.000442787,0.0761973,0.04125,0.0445658,0.054072,0.025951,0.11,0.00871937,3.80647,-7.99136,3.99848,21.8405,0.773943,-0.379735,0.0972387,-0.6066,-1.02157,-0.351898,2.40453,0.201139,-0.646903,0.15939
5398895,0.99,-1.57017,-0.5228,0.000472592,-2.09571,1.57078,1.57177,0.785065,-1.57016,-0.523259,0.000373485,-2.09394,1.57102,1.5717,0.785474,0.0297894,0.0185429,0.0315599,0.0162494,0.00103515,0.00698509,5.78327e-05,0.0828542,0.045,0.0484736,0.0587214,0.0280738,0.12,0.00938972,4.2389,-7.73746,4.58167,21.9635,0.757463,-0.269872,0.103647,-0.615958,-1.02645,-0.392223,2.42077,0.203921,-0.6375,0.159649
5398896,0.99,-1.57012,-0.522766,0.000515669,-2.09568,1.57078,1.57179,0.785063,-1.57007,-0.523211,0.000425866,-2.09387,1.57105,1.57183,0.785484,0.0347417,0.023679,0.0322298,0.0185006,0.00133436,0.0125975,-0.000910881,0.0895112,0.04875,0.0523814,0.0633707,0.0301966,0.13,0.0100601,4.6158,-7.55893,5.13709,21.9873,0.740068,-0.192968,0.129282,-0.623311,-1.03788,-0.43035,2.44112,0.206884,-0.62688,0.159859
5398897,0.99,-1.57007,-0.522725,0.000565937,-2.09565,1.57079,1.57182,0.78506,-1.56997,-0.523158,0.000482155,-2.09381,1.57108,1.57197,0.785495,0.0419454,0.0279711,0.0356728,0.02061,0.00214418,0.0165819,-0.00135324,0.0961681,0.0525,0.0562892,0.06802,0.0323194,0.14,0.0107304,4.96888,-7.40817,5.56952,22.1143,0.706194,-0.108739,0.149424,-0.627126,-1.0595,-0.463626,2.46697,0.20998,-0.615112,0.160028
5398898,0.99,-1.57,-0.522685,0.000612203,-2.09562,1.57079,1.57187,0.785064,-1.56987,-0.523102,0.000542353,-2.09373,1.57112,1.57212,0.785507,0.0502181,0.0330949,0.0377985,0.0246821,0.000581746,0.0270467,-0.0006648,0.102825,0.05625,0.0601971,0.0726694,0.0344423,0.15,0.0114008,5.19502,-7.20584,6.02179,22.2611,0.729082,-0.10233,0.143015,-0.627966,-1.09206,-0.492881,2.49873,0.21322,-0.60198,0.160197
5398899,0.99,-1.56993,-0.522642,0.000660661,-2.09558,1.5708,1.57193,0.785056,-1.56976,-0.52304,0.00060809,-2.09365,1.57116,1.57229,0.785519,0.0599608,0.0350602,0.0434967,0.0300451,0.00321615,0.0364435,-0.00352887,0.112121,0.061875,0.0657371,0.0789214,0.0370416,0.164713,0.0120549,5.39735,-7.05508,6.43042,22.3365,0.779436,-0.140783,0.226328,-0.627874,-1.13122,-0.520992,2.53377,0.216558,-0.587105,0.160423
5398900,0.99,-1.56985,-0.522596,0.000718017,-2.09554,1.5708,1.572,0.785063,-1.56963,-0.522972,0.000679367,-2.09357,1.5712,1.57247,0.785531,0.0633278,0.0387874,0.0474592,0.0346933,0.00148404,0.0477209,-0.00116578,0.121417,0.0675,0.0712771,0.0851734,0.039641,0.179425,0.012709,5.62349,-6.87656,6.70813,22.511,0.807817,-0.179235,0.194285,-0.628051,-1.16945,-0.549827,2.56794,0.219927,-0.570325,0.160779
5398901,0.99,-1.56977,-0.522554,0.000774634,-2.09549,1.5708,1.57209,0.785059,-1.5695,-0.522899,0.000756184,-2.09348,1.57124,1.57266,0.785545,0.072334,0.0380413,0.0514673,0.0386556,-0.00017537,0.0610437,-0.00270997,0.130713,0.073125,0.0768171,0.0914254,0.0422403,0.194138,0.0133631,5.69886,-6.67422,6.93427,22.5348,0.847185,-0.237828,0.24647,-0.627424,-1.19949,-0.578013,2.59811,0.223298,-0.551952,0.161347
5398902,0.99,-1.56967,-0.522505,0.000832571,-2.09544,1.57081,1.57219,0.785047,-1.56936,-0.522821,0.000838541,-2.09338,1.57128,1.57287,0.785559,0.0828911,0.0431967,0.0561061,0.0434192,0.0041558,0.0751229,-0.000717816,0.140009,0.07875,0.0823571,0.0976775,0.0448397,0.208851,0.0140172,5.72663,-6.44809,7.21198,22.6102,0.86458,-0.269872,0.349924,-0.626113,-1.21702,-0.605349,2.62293,0.226734,-0.532273,0.162185
5398903,0.99,-1.56957,-0.522453,0.00089621,-2.09538,1.57081,1.57229,0.78505,-1.56921,-0.522736,0.000926438,-2.09328,1.57133,1.57309,0.785573,0.0891937,0.0478958,0.0589841,0.0515339,0.00802023,0.0813607,0.000643573,0.149305,0.084375,0.0878971,0.103929,0.047439,0.223564,0.0146713,5.95277,-6.1188,7.64441,22.634,0.86458,-0.192968,0.330698,-0.624997,-1.22398,-0.632323,2.64292,0.2303,-0.511538,0.163371
5398904,0.99,-1.56946,-0.522395,0.000969908,-2.09532,1.57082,1.57242,0.785043,-1.56906,-0.522646,0.00101987,-2.09317,1.57138,1.57333,0.785589,0.095547,0.0536986,0.0614926,0.0573782,0.00781675,0.0913559,-0.00139965,0.158601,0.09,0.0934371,0.110182,0.0500384,0.238276,0.0153254,6.25428,-5.74191,8.07288,22.6618,0.819719,-0.115148,0.388376,-0.622222,-1.22475,-0.655552,2.65904,0.23396,-0.490313,0.165027
5398905,0.99,-1.56934,-0.522323,0.00104194,-2.09524,1.57083,1.57256,0.785057,-1.56889,-0.522551,0.00111885,-2.09305,1.57143,1.57358,0.785605,0.102301,0.0591787,0.0633621,0.0642639,0.010102,0.106079,0.00265448,0.167897,0.095625,0.0989771,0.116434,0.0526377,0.252989,0.0159795,6.60737,-5.41263,8.63227,22.5626,0.830705,-0.115148,0.297739,-0.614698,-1.22297,-0.67007,2.67276,0.237653,-0.469219,0.167234
5398906,1,-1.56921,-0.522242,0.00111779,-2.09516,1.57084,1.57273,0.785062,-1.56871,-0.522449,0.00122337,-2.09293,1.57149,1.57385,0.785621,0.113142,0.0665641,0.0672489,0.0696035,0.0127715,0.129119,0.00336679,0.177193,0.10125,0.104517,0.122686,0.0552371,0.267702,0.0166336,6.88508,-5.2103,9.11231,22.5348,0.819719,-0.172826,0.259287,-0.601081,-1.22296,-0.673606,2.68652,0.241389,-0.448616,0.169982
5398907,1,-1.56906,-0.522147,0.00119944,-2.09508,1.57086,1.57292,0.785067,-1.56852,-0.522342,0.00133343,-2.0928,1.57155,1.57413,0.785639,0.124881,0.0736231,0.0701986,0.0742573,0.0157455,0.146356,0.00383233,0.186489,0.106875,0.110057,0.128938,0.0578365,0.282414,0.0172877,7.11122,-5.08334,9.59235,22.5348,0.779436,-0.237828,0.219919,-0.582856,-1.22993,-0.667974,2.70355,0.245303,-0.428495,0.173144
5398908,1,-1.5689,-0.522053,0.00128257,-2.095,1.57089,1.57313,0.785077,-1.56833,-0.52223,0.00144902,-2.09266,1.57161,1.57443,0.785657,0.132566,0.0795694,0.0761576,0.0801012,0.0171747,0.165107,0.00858906,0.195785,0.1125,0.115597,0.13519,0.0604358,0.297127,0.0179418,7.26594,-4.85721,10.0486,22.5626,0.757463,-0.353185,0.187876,-0.562091,-1.24654,-0.656097,2.726,0.249502,-0.408715,0.176529
5398909,1,-1.56874,-0.521961,0.00137454,-2.09491,1.57091,1.57336,0.78508,-1.56812,-0.52211,0.00157113,-2.09252,1.57167,1.57474,0.785675,0.14291,0.0807267,0.0772895,0.0835476,0.0171641,0.184597,0.00548278,0.206769,0.11999,0.122108,0.142525,0.0633007,0.314169,0.0185865,7.38893,-4.62711,10.3779,22.634,0.762956,-0.482274,0.207102,-0.538937,-1.26765,-0.638279,2.7523,0.253891,-0.389375,0.179953
5398910,1,-1.56857,-0.521867,0.00147225,-2.09481,1.57093,1.57361,0.785089,-1.5679,-0.521983,0.00169975,-2.09237,1.57174,1.57508,0.785694,0.153943,0.0841968,0.0851031,0.0867319,0.0212819,0.19933,0.00899164,0.217754,0.12748,0.128619,0.14986,0.0661656,0.33121,0.0192312,7.59126,-4.37717,10.6556,22.6856,0.791338,-0.495092,0.200693,-0.513981,-1.28433,-0.61516,2.77974,0.258335,-0.370535,0.183273
5398911,1,-1.56838,-0.521766,0.00156973,-2.09471,1.57095,1.57387,0.785085,-1.56768,-0.521848,0.00183488,-2.09221,1.5718,1.57542,0.785714,0.163452,0.091104,0.091386,0.0913201,0.0181805,0.219012,0.00234739,0.228738,0.13497,0.13513,0.157195,0.0690305,0.348251,0.019876,7.74202,-4.19864,10.8857,22.7848,0.859087,-0.475866,0.316965,-0.490132,-1.29459,-0.591109,2.80846,0.262921,-0.352007,0.18642
5398912,1,-1.56818,-0.521663,0.00166184,-2.09458,1.57098,1.57414,0.78508,-1.56744,-0.521705,0.00197652,-2.09205,1.57188,1.57579,0.785735,0.174922,0.0944983,0.0898763,0.102575,0.02162,0.237658,0.00193771,0.239723,0.14246,0.141642,0.16453,0.0718954,0.365293,0.0205207,7.81739,-3.92093,11.2665,22.6856,0.903948,-0.431005,0.44697,-0.467253,-1.29882,-0.565861,2.83738,0.267642,-0.334029,0.189425
5398913,1,-1.56798,-0.521551,0.00176384,-2.09446,1.57101,1.57444,0.785087,-1.56718,-0.521555,0.00212468,-2.09188,1.57195,1.57617,0.785756,0.183885,0.0983775,0.0932433,0.110687,0.0245651,0.25397,0.000154918,0.250707,0.14995,0.148153,0.171865,0.0747604,0.382334,0.0211655,7.94435,-3.56784,11.5919,22.5864,0.943315,-0.340367,0.49824,-0.441487,-1.29075,-0.532976,2.86064,0.272195,-0.317158,0.192467
5398914,1,-1.56777,-0.521429,0.00186672,-2.09433,1.57105,1.57476,0.785089,-1.56692,-0.521398,0.00227934,-2.0917,1.57203,1.57657,0.785778,0.193397,0.107405,0.0964419,0.116606,0.0277307,0.275312,-0.00125801,0.261692,0.15744,0.154664,0.179201,0.0776253,0.399375,0.0218102,8.29744,-3.18698,12.0243,22.4872,0.955217,-0.333959,0.550425,-0.410696,-1.27002,-0.489047,2.87682,0.276538,-0.301591,0.19581
5398915,1,-1.56754,-0.52129,0.00197499,-2.09418,1.5711,1.5751,0.785101,-1.56665,-0.521233,0.00244051,-2.09151,1.57211,1.57699,0.7858,0.204162,0.116014,0.101457,0.125768,0.035152,0.293179,0.00652704,0.272676,0.16493,0.161175,0.186536,0.0804902,0.416417,0.022455,8.49977,-2.88547,12.4805,22.3127,0.955217,-0.386144,0.491831,-0.375362,-1.24655,-0.435119,2.89055,0.280953,-0.287182,0.199673
5398916,1,-1.56731,-0.521148,0.00209303,-2.09403,1.57116,1.57546,0.785116,-1.56637,-0.52106,0.0026082,-2.09132,1.57219,1.57742,0.785823,0.211811,0.12252,0.104262,0.13262,0.0443419,0.314832,0.0072063,0.283661,0.17242,0.167686,0.193871,0.0833551,0.433458,0.0230997,8.7259,-2.57999,12.8614,22.1381,0.859087,-0.411779,0.434153,-0.335907,-1.22638,-0.372215,2.90433,0.285573,-0.273755,0.204161
5398917,1,-1.56706,-0.520993,0.00221238,-2.09387,1.57122,1.57584,0.785135,-1.56607,-0.52088,0.0027824,-2.09112,1.57228,1.57787,0.785847,0.222857,0.131844,0.109976,0.141355,0.0505787,0.331317,0.0133787,0.294645,0.17991,0.174197,0.201206,0.08622,0.450499,0.0237445,9.00361,-2.33005,13.2145,22.0627,0.76845,-0.443822,0.343516,-0.292262,-1.21036,-0.300613,2.91835,0.290362,-0.261221,0.209228
5398918,1,-1.5668,-0.520829,0.0023279,-2.09371,1.57128,1.57624,0.785159,-1.56577,-0.520693,0.00296311,-2.09091,1.57237,1.57834,0.785871,0.233229,0.139411,0.109698,0.147152,0.0585894,0.348839,0.0183865,0.30563,0.1874,0.180708,0.208541,0.0890849,0.46754,0.0243892,9.20594,-2.12772,13.6191,22.0151,0.711687,-0.514318,0.240061,-0.24456,-1.20009,-0.220534,2.93356,0.295192,-0.24951,0.214681
5398919,1,-1.56653,-0.520665,0.0024465,-2.09354,1.57135,1.57666,0.785172,-1.56545,-0.520498,0.00315075,-2.09069,1.57246,1.57882,0.785896,0.245014,0.146749,0.108392,0.154662,0.0578739,0.37973,0.0164035,0.317487,0.19489,0.187641,0.21655,0.0920653,0.485507,0.0250313,9.3567,-1.85001,13.9484,21.9873,0.700701,-0.598546,0.278513,-0.190459,-1.19596,-0.128108,2.95077,0.29979,-0.23904,0.220228
5398920,1,-1.56625,-0.520494,0.00257439,-2.09336,1.57142,1.5771,0.78519,-1.56512,-0.520296,0.00334532,-2.09047,1.57256,1.57933,0.785922,0.254023,0.152808,0.114697,0.164314,0.0664645,0.398254,0.0155742,0.329344,0.20238,0.194573,0.224558,0.0950456,0.503473,0.0256733,9.5868,-1.5961,14.2261,21.9159,0.706194,-0.624181,0.310557,-0.128178,-1.19381,-0.0206995,2.9681,0.303886,-0.23024,0.225597
5398921,1,-1.56597,-0.520323,0.00270945,-2.09316,1.5715,1.57756,0.785198,-1.56478,-0.520086,0.00354683,-2.09023,1.57265,1.57985,0.785948,0.266546,0.156102,0.11788,0.175172,0.0722729,0.415879,0.0122953,0.341202,0.20987,0.201506,0.232566,0.098026,0.52144,0.0263153,9.76136,-1.29062,14.4285,21.8405,0.729082,-0.636998,0.42042,-0.0605571,-1.18351,0.0969124,2.9799,0.30728,-0.222678,0.230665
5398922,1,-1.56566,-0.520141,0.00285171,-2.09296,1.57158,1.57804,0.785206,-1.56443,-0.519869,0.00375527,-2.08999,1.57275,1.58039,0.785975,0.282422,0.161832,0.12568,0.185697,0.0763807,0.431508,0.0094312,0.353059,0.21736,0.208439,0.240575,0.101006,0.539406,0.0269573,9.73756,-1.11606,14.6586,21.789,0.757463,-0.566503,0.550425,0.00666284,-1.15427,0.215935,2.98027,0.309918,-0.215354,0.23549
5398923,1,-1.56535,-0.519951,0.00300852,-2.09275,1.57167,1.57853,0.785224,-1.56406,-0.519644,0.00397064,-2.08974,1.57286,1.58095,0.786003,0.289636,0.169705,0.136623,0.197758,0.0845673,0.446782,0.0117069,0.364916,0.22485,0.215371,0.248583,0.103987,0.557372,0.0275993,10.0153,-0.989105,14.7855,21.8167,0.784929,-0.475866,0.569651,0.0673249,-1.10369,0.32658,2.96752,0.312007,-0.207248,0.240284
5398924,1,-1.56503,-0.519761,0.00315339,-2.09252,1.57177,1.57906,0.785232,-1.56368,-0.519411,0.00419294,-2.08949,1.57297,1.58152,0.786031,0.30065,0.172613,0.137645,0.204743,0.0868214,0.472597,0.00659541,0.376773,0.23234,0.222304,0.256592,0.106967,0.575339,0.0282413,10.1898,-0.862152,15.087,21.8167,0.791338,-0.5015,0.641062,0.12091,-1.03409,0.426991,2.9431,0.313751,-0.19818,0.245309
5398925,1,-1.5647,-0.519557,0.00330643,-2.09229,1.57187,1.57961,0.785259,-1.5633,-0.519172,0.00442218,-2.08922,1.57307,1.58211,0.78606,0.316214,0.181158,0.142303,0.212498,0.0926307,0.495354,0.0083559,0.38863,0.23983,0.229236,0.2646,0.109947,0.593305,0.0288834,10.3406,-0.885956,15.3647,21.8405,0.81331,-0.617772,0.563242,0.171325,-0.949352,0.522882,2.91066,0.315285,-0.188671,0.250769
5398926,1,-1.56435,-0.519343,0.00347285,-2.09205,1.57199,1.58019,0.785285,-1.56289,-0.518924,0.00465834,-2.08895,1.57319,1.58273,0.78609,0.325777,0.190444,0.151229,0.218863,0.101175,0.517274,0.0157421,0.400488,0.24732,0.236169,0.272608,0.112928,0.611272,0.0295254,10.3684,-0.913727,15.5433,21.9873,0.729082,-0.662633,0.440561,0.219342,-0.859984,0.615476,2.87702,0.316905,-0.178922,0.256753
5398927,1,-1.56399,-0.519127,0.00364613,-2.09179,1.5721,1.58077,0.785313,-1.56248,-0.518669,0.00490145,-2.08867,1.5733,1.58336,0.78612,0.338168,0.203086,0.157192,0.227618,0.105802,0.539287,0.019585,0.412345,0.25481,0.243101,0.280617,0.115908,0.629238,0.0301674,10.5191,-0.913727,15.7456,21.9635,0.672319,-0.681859,0.349924,0.264077,-0.780318,0.702873,2.84973,0.318924,-0.169031,0.26316
5398928,1,-1.56361,-0.518896,0.00382225,-2.09153,1.57221,1.58139,0.785345,-1.56206,-0.518407,0.00515148,-2.08838,1.57342,1.584,0.786151,0.350956,0.209754,0.15817,0.239345,0.10775,0.563413,0.0235337,0.424202,0.2623,0.250034,0.288625,0.118888,0.647204,0.0308094,10.5707,-0.965302,15.9479,21.9635,0.661333,-0.785314,0.226328,0.307233,-0.716763,0.787734,2.83101,0.321278,-0.159475,0.269729
5398929,1,-1.56325,-0.518663,0.00399887,-2.09126,1.57233,1.58204,0.785368,-1.56162,-0.518137,0.0054084,-2.08808,1.57354,1.58467,0.786182,0.356845,0.219959,0.167971,0.249485,0.114435,0.585811,0.0267458,0.43621,0.26979,0.256922,0.296986,0.121857,0.665322,0.0314567,10.8206,-1.01291,16.1265,21.9397,0.643938,-0.881444,0.213511,0.351862,-0.665492,0.874794,2.81748,0.323622,-0.150823,0.276124
5398930,1,-1.56286,-0.518419,0.00418787,-2.09097,1.57245,1.58269,0.785393,-1.56117,-0.51786,0.00567221,-2.08778,1.57367,1.58535,0.786214,0.364392,0.225838,0.173377,0.260606,0.119424,0.609254,0.0284052,0.448218,0.27728,0.26381,0.305346,0.124826,0.683439,0.0321039,10.9992,-1.06448,16.305,21.8882,0.627458,-0.907079,0.233652,0.39998,-0.620739,0.966114,2.80549,0.325704,-0.14346,0.282014
5398931,1,-1.56246,-0.518167,0.00438981,-2.09068,1.57258,1.58335,0.785423,-1.56071,-0.517575,0.00594291,-2.08747,1.5738,1.58605,0.786247,0.381333,0.232357,0.180395,0.271777,0.123375,0.619769,0.031196,0.460226,0.28477,0.270697,0.313707,0.127795,0.701557,0.0327512,10.9714,-1.08829,16.4796,21.9873,0.599077,-0.791722,0.213511,0.450407,-0.575042,1.05965,2.79115,0.327367,-0.137198,0.287202
5398932,1,-1.56205,-0.51791,0.00459337,-2.09038,1.57271,1.58403,0.785441,-1.56024,-0.517283,0.00622049,-2.08714,1.57393,1.58677,0.78628,0.387449,0.239436,0.183277,0.280142,0.125173,0.635032,0.0278787,0.472233,0.29226,0.277585,0.322068,0.130764,0.719674,0.0333984,11.0983,-1.19144,16.6303,21.9635,0.599077,-0.669042,0.337107,0.501076,-0.522912,1.15304,2.77218,0.328518,-0.131538,0.291639
5398933,1,-1.56165,-0.517646,0.00480303,-2.09007,1.57284,1.58475,0.785464,-1.55976,-0.516983,0.00650497,-2.08681,1.57406,1.58751,0.786314,0.392421,0.242989,0.188171,0.285355,0.128928,0.658982,0.0274856,0.484241,0.29975,0.284473,0.330429,0.133733,0.737792,0.0340457,11.3522,-1.24301,16.785,21.9397,0.643938,-0.766088,0.42042,0.555407,-0.463848,1.25128,2.75023,0.329098,-0.12673,0.295373
5398934,1,-1.56122,-0.517365,0.00503206,-2.08977,1.57297,1.58551,0.785494,-1.55926,-0.516676,0.00679633,-2.08647,1.5742,1.58827,0.786349,0.405686,0.254275,0.198733,0.293436,0.1334,0.682706,0.0293763,0.496249,0.30724,0.291361,0.338789,0.136702,0.755909,0.034693,11.4752,-1.36996,16.785,22.0389,0.677812,-0.894261,0.453379,0.61539,-0.401671,1.35653,2.7291,0.329264,-0.122933,0.29859
5398935,1,-1.56078,-0.517076,0.00525549,-2.08944,1.57312,1.58625,0.785523,-1.55875,-0.516361,0.00709458,-2.08613,1.57434,1.58904,0.786384,0.417606,0.267717,0.205898,0.304516,0.138369,0.706812,0.024507,0.508257,0.31473,0.298249,0.34715,0.139671,0.774027,0.0353402,11.503,-1.5961,16.9358,22.0627,0.661333,-0.933629,0.52479,0.676239,-0.348119,1.46129,2.71392,0.329465,-0.1196,0.301564
5398936,1,-1.56031,-0.516776,0.00548075,-2.0891,1.57327,1.58702,0.785565,-1.55823,-0.516039,0.00739971,-2.08577,1.57448,1.58983,0.78642,0.432825,0.276192,0.207222,0.314733,0.1385,0.722716,0.0271273,0.520265,0.32222,0.305137,0.355511,0.14264,0.792144,0.0359875,11.4752,-1.79843,17.1143,21.9873,0.62105,-0.849401,0.427744,0.735094,-0.312097,1.56189,2.70687,0.329931,-0.116545,0.304565
5398937,1,-1.55985,-0.516476,0.00571515,-2.08875,1.57341,1.58781,0.785598,-1.5577,-0.515709,0.00771174,-2.08541,1.57463,1.59064,0.786457,0.446021,0.284702,0.216266,0.325196,0.141262,0.757945,0.0296776,0.532273,0.32971,0.312025,0.363872,0.145609,0.810262,0.0366347,11.5506,-1.92538,17.2413,21.9397,0.62105,-0.836583,0.427744,0.791849,-0.29097,1.65919,2.70541,0.330596,-0.11386,0.307769
5398938,1,-1.55938,-0.51616,0.00597188,-2.08839,1.57356,1.58864,0.785631,-1.55716,-0.515372,0.00803065,-2.08504,1.57477,1.59147,0.786494,0.449128,0.292157,0.228103,0.330291,0.143292,0.779431,0.035381,0.544281,0.3372,0.318913,0.372232,0.148578,0.828379,0.037282,11.7807,-2.09995,17.2889,21.8644,0.627458,-0.940038,0.459788,0.845961,-0.279946,1.75183,2.7077,0.331481,-0.111473,0.311188
5398939,1,-1.55889,-0.51584,0.00623541,-2.08804,1.57371,1.58949,0.785673,-1.5566,-0.515027,0.00835621,-2.08466,1.57493,1.59232,0.786532,0.461161,0.301077,0.237554,0.335144,0.145052,0.799629,0.0387114,0.556008,0.34469,0.325553,0.380725,0.151401,0.846076,0.0379188,11.8799,-2.15152,17.2889,21.8882,0.632951,-1.0618,0.388376,0.897,-0.279115,1.83759,2.71589,0.332757,-0.109206,0.31477
5398940,1,-1.55837,-0.51551,0.00649859,-2.08766,1.57388,1.59034,0.785709,-1.55603,-0.514675,0.0086884,-2.08427,1.57508,1.59318,0.786571,0.485483,0.312336,0.24359,0.345887,0.14988,0.81533,0.037816,0.567736,0.35218,0.332194,0.389218,0.154223,0.863773,0.0385556,11.7291,-2.25467,17.3405,21.8882,0.536821,-1.04258,0.401194,0.941403,-0.290971,1.91166,2.73199,0.334573,-0.106466,0.318475
5398941,1,-1.55784,-0.515169,0.00676991,-2.08729,1.57404,1.5912,0.785746,-1.55545,-0.514316,0.00902723,-2.08387,1.57524,1.59406,0.78661,0.49623,0.316426,0.252779,0.352332,0.156893,0.830804,0.0384032,0.579464,0.35967,0.338835,0.39771,0.157046,0.88147,0.0391924,11.6022,-2.33005,17.4436,21.9159,0.474565,-0.90067,0.381968,0.974533,-0.312344,1.96893,2.7534,0.336833,-0.102548,0.322239
5398942,1,-1.55731,-0.514817,0.00706,-2.08691,1.57421,1.59211,0.785784,-1.55486,-0.513948,0.00937271,-2.08346,1.5754,1.59496,0.78665,0.506319,0.328892,0.264757,0.363257,0.163702,0.845564,0.0386746,0.591191,0.36716,0.345475,0.406203,0.159868,0.899167,0.0398292,11.6022,-2.50461,17.2135,21.9873,0.491045,-0.919896,0.36915,0.996192,-0.337251,2.00936,2.77634,0.339242,-0.0972848,0.32599
5398943,1,-1.55677,-0.514465,0.00734835,-2.0865,1.57437,1.59303,0.785819,-1.55426,-0.513574,0.00972482,-2.08305,1.57556,1.59588,0.78669,0.516361,0.336301,0.272759,0.373779,0.162108,0.864691,0.0371693,0.602919,0.37465,0.352116,0.414696,0.16269,0.916865,0.040466,11.63,-2.60776,17.1381,21.9635,0.570696,-1.03617,0.401194,1.00903,-0.364559,2.03618,2.79893,0.341541,-0.0909271,0.329673
5398944,1,-1.55621,-0.514096,0.00765995,-2.0861,1.57454,1.59396,0.785872,-1.55364,-0.513192,0.0100836,-2.08262,1.57573,1.59681,0.786731,0.544257,0.348876,0.286551,0.383991,0.162431,0.877051,0.0458308,0.614647,0.38214,0.358756,0.423188,0.165513,0.934562,0.0411028,11.3522,-2.73471,16.9874,22.1143,0.62105,-1.04899,0.297739,1.01091,-0.395185,2.04656,2.82039,0.343768,-0.0831627,0.333263
5398945,1,-1.55563,-0.51372,0.00797095,-2.08569,1.57472,1.59488,0.785912,-1.55302,-0.512802,0.010449,-2.08219,1.57589,1.59777,0.786773,0.556047,0.358684,0.294392,0.390022,0.16187,0.88898,0.0474853,0.626374,0.38963,0.365397,0.431681,0.168335,0.952259,0.0417396,11.1975,-2.88547,16.8088,22.3365,0.553301,-0.940038,0.316965,0.996013,-0.433113,2.03295,2.84313,0.346279,-0.0732624,0.336727
5398946,1,-1.55503,-0.513327,0.00829195,-2.08527,1.5749,1.59583,0.785954,-1.55238,-0.512405,0.010821,-2.08175,1.57607,1.59874,0.786816,0.571576,0.367691,0.298688,0.395482,0.163398,0.906339,0.044511,0.638102,0.39712,0.372037,0.440174,0.171157,0.969956,0.0423764,11.023,-3.13541,16.6581,22.3603,0.558794,-0.894261,0.330698,0.967259,-0.482566,2.00023,2.87128,0.349212,-0.0617504,0.339966
5398947,1,-1.55444,-0.51294,0.00861571,-2.08484,1.57508,1.5968,0.786002,-1.55173,-0.512,0.0111997,-2.0813,1.57624,1.59972,0.786859,0.577732,0.373157,0.304461,0.411461,0.163899,0.923428,0.0482024,0.64983,0.40461,0.378678,0.448666,0.17398,0.987653,0.0430132,10.9476,-3.29013,16.5549,22.4634,0.587175,-0.855809,0.310557,0.934684,-0.537312,1.96326,2.90229,0.352184,-0.0500385,0.342912
5398948,1,-1.55382,-0.512534,0.00894975,-2.0844,1.57526,1.59777,0.786039,-1.55107,-0.511588,0.011585,-2.08085,1.57642,1.60073,0.786902,0.584871,0.384427,0.311793,0.415348,0.169644,0.944641,0.0466273,0.661558,0.4121,0.385318,0.457159,0.176802,1.00535,0.04365,10.9992,-3.51627,16.4558,22.511,0.599077,-0.778905,0.407602,0.907109,-0.589264,1.93436,2.93104,0.354754,-0.0393089,0.345555
5398949,1,-1.5532,-0.512122,0.00929722,-2.08396,1.57545,1.59878,0.786088,-1.5504,-0.511169,0.0119766,-2.08038,1.5766,1.60175,0.786946,0.600367,0.38961,0.324776,0.419689,0.174872,0.950727,0.0498607,0.672697,0.41959,0.391634,0.465625,0.1793,1.02226,0.0442601,11.0745,-3.61942,16.428,22.6102,0.592668,-0.766088,0.394785,0.885615,-0.640384,1.91413,2.96013,0.357028,-0.0295658,0.34792
5398950,1,-1.55256,-0.511713,0.00963951,-2.08351,1.57564,1.59978,0.786136,-1.54971,-0.510742,0.0123746,-2.07991,1.57678,1.60279,0.786991,0.618617,0.395556,0.332115,0.428308,0.179318,0.98879,0.0518861,0.683836,0.42708,0.397949,0.474091,0.181799,1.03917,0.0448701,10.9992,-3.64322,16.5311,22.634,0.558794,-0.740453,0.388376,0.863781,-0.68964,1.89301,2.99142,0.359324,-0.0196944,0.350104
5398951,1,-1.55191,-0.511293,0.0100017,-2.08306,1.57584,1.60082,0.786187,-1.54902,-0.510307,0.0127789,-2.07942,1.57696,1.60385,0.787037,0.625555,0.398659,0.338974,0.436211,0.188486,1.00199,0.0491339,0.694975,0.43457,0.404264,0.482557,0.184297,1.05609,0.0454802,11.0468,-3.61942,16.5827,22.6618,0.474565,-0.785314,0.36915,0.840065,-0.727979,1.86901,3.02027,0.361558,-0.00939055,0.352201
5398952,1,-1.55125,-0.510865,0.0103744,-2.08259,1.57603,1.6019,0.786249,-1.54831,-0.509865,0.0131894,-2.07893,1.57715,1.60492,0.787083,0.629047,0.408398,0.343666,0.444641,0.188633,1.01943,0.0513235,0.706114,0.44206,0.41058,0.491023,0.186795,1.073,0.0460902,11.0745,-3.59164,16.5311,22.634,0.469072,-0.90067,0.233652,0.821248,-0.751492,1.85169,3.04379,0.363352,0.000467982,0.354244
5398953,1,-1.55058,-0.510433,0.0107519,-2.08212,1.57623,1.60297,0.786297,-1.54759,-0.509415,0.0136063,-2.07843,1.57734,1.60601,0.78713,0.640144,0.414825,0.353677,0.451783,0.193003,1.03779,0.0521715,0.717253,0.44955,0.416895,0.49949,0.189294,1.08991,0.0467003,11.1737,-3.54007,16.4558,22.5626,0.474565,-1.01053,0.233652,0.812552,-0.765105,1.84803,3.06374,0.364502,0.0090986,0.356175
5398954,1,-1.54989,-0.509984,0.0111358,-2.08163,1.57641,1.60406,0.786346,-1.54686,-0.508958,0.0140295,-2.07793,1.57753,1.60712,0.787177,0.6542,0.42497,0.359182,0.465161,0.193946,1.05353,0.0477076,0.728392,0.45704,0.423211,0.507956,0.191792,1.10682,0.0473104,11.2491,-3.61942,16.428,22.3603,0.547807,-1.01694,0.252878,0.81175,-0.773511,1.85477,3.08114,0.365048,0.0165768,0.357859
5398955,1,-1.5492,-0.509532,0.0115187,-2.08113,1.57661,1.60517,0.786401,-1.54613,-0.508494,0.0144591,-2.07741,1.57772,1.60824,0.787225,0.667748,0.434205,0.366551,0.475825,0.196162,1.06593,0.0515652,0.739532,0.46453,0.429526,0.516422,0.194291,1.12373,0.0479204,11.2253,-3.7424,16.428,22.1619,0.576189,-0.952855,0.200693,0.814404,-0.778959,1.86608,3.09474,0.365072,0.0233018,0.359204
5398956,1,-1.54849,-0.509064,0.0119213,-2.08062,1.57682,1.60627,0.786443,-1.54537,-0.508022,0.0148949,-2.07688,1.57792,1.60938,0.787273,0.68165,0.444474,0.371952,0.487128,0.198592,1.07897,0.0491958,0.750671,0.47202,0.435841,0.524888,0.196789,1.14065,0.0485305,11.1499,-3.86935,16.305,21.9397,0.592668,-0.881444,0.284922,0.817896,-0.784685,1.87859,3.10429,0.364722,0.029542,0.360175
5398957,1,-1.54779,-0.508598,0.0123262,-2.0801,1.57703,1.60741,0.786492,-1.54461,-0.507542,0.0153371,-2.07635,1.57812,1.61054,0.787322,0.690338,0.449078,0.381905,0.497687,0.202294,1.08997,0.0442619,0.76181,0.47951,0.442157,0.533354,0.199287,1.15756,0.0491406,11.1737,-3.86935,16.2018,21.7652,0.565202,-0.875035,0.343516,0.820956,-0.789629,1.89032,3.10874,0.36415,0.0355896,0.360782
5398958,1,-1.54707,-0.508137,0.0127389,-2.07958,1.57724,1.60855,0.786548,-1.54384,-0.507055,0.0157855,-2.07581,1.57832,1.61171,0.787372,0.698445,0.451481,0.388627,0.50754,0.206805,1.10117,0.0424139,0.772949,0.487,0.448472,0.54182,0.201786,1.17447,0.0497506,11.1975,-3.79398,16.1265,21.6422,0.469072,-0.913488,0.356333,0.823948,-0.783778,1.90103,3.10355,0.363345,0.0416901,0.361135
5398959,1,-1.54632,-0.507661,0.0131665,-2.07904,1.57745,1.60973,0.786597,-1.54306,-0.506561,0.0162399,-2.07526,1.57853,1.6129,0.787423,0.70569,0.456426,0.397884,0.512088,0.205407,1.11569,0.0443973,0.783294,0.49449,0.454409,0.55016,0.203885,1.19035,0.050313,11.2253,-3.77017,15.9757,21.5906,0.378435,-1.01694,0.401194,0.828532,-0.759071,1.91217,3.08667,0.362254,0.0478144,0.361395
5398960,1,-1.54557,-0.507182,0.0135919,-2.0785,1.57766,1.61093,0.786662,-1.54226,-0.506059,0.0167003,-2.0747,1.57873,1.61411,0.787473,0.715639,0.47353,0.403927,0.520505,0.202645,1.13169,0.0516571,0.793639,0.50198,0.460346,0.5585,0.205985,1.20623,0.0508754,11.1737,-3.7186,15.8726,21.5152,0.332659,-1.10026,0.291331,0.83623,-0.727417,1.92516,3.06574,0.361017,0.0535365,0.361687
5398961,1,-1.5448,-0.506694,0.0140159,-2.07794,1.57788,1.61213,0.786716,-1.54146,-0.505549,0.0171666,-2.07413,1.57894,1.61533,0.787525,0.726647,0.475904,0.410255,0.53318,0.206458,1.14062,0.0482386,0.803983,0.50947,0.466282,0.566839,0.208085,1.22212,0.0514379,11.0983,-3.64322,15.9757,21.4438,0.378435,-1.11399,0.284922,0.847447,-0.703198,1.94059,3.04717,0.359623,0.0584314,0.362077
5398962,1,-1.54403,-0.506198,0.0144567,-2.07736,1.57809,1.61336,0.786774,-1.54064,-0.505032,0.0176388,-2.07356,1.57915,1.61657,0.787577,0.752077,0.478087,0.413418,0.542448,0.205047,1.15478,0.0512721,0.814328,0.51696,0.472219,0.575179,0.210184,1.238,0.0520003,11.0468,-3.59164,16.0233,21.3684,0.423296,-1.28061,0.265696,0.85879,-0.675952,1.95519,3.02465,0.357747,0.0628943,0.362542
5398963,1,-1.54324,-0.505691,0.0148976,-2.07679,1.57829,1.61461,0.786841,-1.53982,-0.504508,0.018117,-2.07297,1.57936,1.61782,0.787629,0.765114,0.485247,0.42219,0.549264,0.201646,1.18111,0.0603533,0.824673,0.52445,0.478156,0.583519,0.212284,1.25388,0.0525627,11.0745,-3.61942,15.9479,21.3169,0.524919,-1.55161,0.175059,0.864661,-0.633599,1.9628,2.99307,0.355367,0.0675395,0.363003
5398964,1,-1.54243,-0.505172,0.0153458,-2.0762,1.5785,1.61585,0.786898,-1.53898,-0.503976,0.018601,-2.07238,1.57958,1.61909,0.787683,0.777824,0.495421,0.42572,0.555224,0.202644,1.18928,0.0590066,0.835018,0.53194,0.484092,0.591858,0.214384,1.26976,0.0531251,10.9238,-3.64322,15.821,21.3169,0.547807,-1.52598,0.175059,0.864501,-0.584424,1.96286,2.95811,0.352852,0.0718991,0.363331
5398965,1,-1.54164,-0.50465,0.0157964,-2.07561,1.57871,1.61708,0.786959,-1.53814,-0.503437,0.0190911,-2.07178,1.57979,1.62038,0.787736,0.780553,0.500633,0.433037,0.578419,0.203731,1.18879,0.0591183,0.845362,0.53943,0.490029,0.600198,0.216483,1.28564,0.0536875,10.9476,-3.64322,15.7972,21.3684,0.558794,-1.1973,0.149424,0.862995,-0.533563,1.96149,2.92062,0.350267,0.0749665,0.363399
5398966,1,-1.54083,-0.504125,0.0162422,-2.07502,1.57893,1.61832,0.787017,-1.53728,-0.50289,0.019587,-2.07117,1.58001,1.62168,0.78779,0.78461,0.508321,0.438041,0.579854,0.210909,1.19667,0.0612132,0.855707,0.54692,0.495966,0.608538,0.218583,1.30153,0.0542499,11.1221,-3.66702,15.7972,21.4438,0.524919,-1.00412,0.200693,0.866163,-0.476001,1.96646,2.8755,0.347383,0.0760788,0.363123
5398967,1,-1.54002,-0.50359,0.016694,-2.07441,1.57915,1.61962,0.787074,-1.53642,-0.502335,0.0200889,-2.07056,1.58023,1.623,0.787845,0.797381,0.511273,0.436707,0.586212,0.215169,1.21476,0.0628695,0.866052,0.55441,0.501903,0.616877,0.220683,1.31741,0.0548123,11.3245,-3.64322,15.8488,21.5668,0.513933,-1.11399,0.252878,0.879445,-0.413493,1.98528,2.82626,0.344204,0.0749239,0.362435
5398968,1,-1.53919,-0.503055,0.0171356,-2.07382,1.57938,1.6209,0.787141,-1.53554,-0.501773,0.0205968,-2.06993,1.58045,1.62433,0.787901,0.808188,0.518655,0.440449,0.587058,0.220692,1.25529,0.0618595,0.876397,0.5619,0.507839,0.625217,0.222783,1.33329,0.0553747,11.2491,-3.64322,15.9995,21.7414,0.428789,-1.17167,0.240061,0.906035,-0.352005,2.02296,2.7805,0.340907,0.0713095,0.361343
5398969,1,-1.53835,-0.502508,0.0175938,-2.07321,1.57961,1.62222,0.787204,-1.53466,-0.501204,0.0211101,-2.0693,1.58068,1.62568,0.787957,0.819217,0.526965,0.442678,0.591875,0.228259,1.27499,0.065047,0.88581,0.56939,0.513363,0.633382,0.224456,1.34798,0.0558587,11.2253,-3.64322,16.2018,21.9635,0.350054,-1.28702,0.24647,0.94627,-0.299895,2.07994,2.74501,0.337695,0.0651108,0.35993
5398970,1,-1.53751,-0.501942,0.0180677,-2.07259,1.57985,1.62354,0.787283,-1.53376,-0.500627,0.021629,-2.06866,1.58091,1.62704,0.788013,0.821651,0.53895,0.450117,0.592469,0.231786,1.28388,0.072642,0.895224,0.57688,0.518887,0.641548,0.226129,1.36267,0.0563427,11.3999,-3.7186,16.2772,22.2373,0.236528,-1.16526,0.122873,0.998652,-0.269546,2.15346,2.72735,0.334699,0.0565135,0.358276
5398971,1,-1.53667,-0.501375,0.0185396,-2.07198,1.58007,1.62487,0.78736,-1.53286,-0.500043,0.0221534,-2.06801,1.58113,1.62842,0.78807,0.825359,0.549327,0.455696,0.601587,0.230921,1.29989,0.0755815,0.904638,0.58437,0.524411,0.649713,0.227803,1.37736,0.0568267,11.63,-3.86935,16.3526,22.4118,0.332659,-1.22294,0.038645,1.06183,-0.270048,2.24061,2.7319,0.331873,0.0458439,0.356409
5398972,1,-1.53581,-0.50079,0.0190238,-2.07134,1.58028,1.62623,0.787426,-1.53194,-0.499451,0.0226834,-2.06735,1.58136,1.62981,0.788127,0.828985,0.559212,0.464696,0.60483,0.23129,1.3162,0.0691765,0.914051,0.59186,0.529935,0.657878,0.229476,1.39205,0.0573107,11.8045,-4.04788,16.4558,22.5626,0.423296,-1.22934,0.071604,1.13443,-0.301899,2.33827,2.75764,0.3291,0.0334648,0.354248
5398973,1,-1.53494,-0.500202,0.0195087,-2.07072,1.58052,1.6276,0.787493,-1.53102,-0.498851,0.0232188,-2.06668,1.58159,1.63122,0.788185,0.835568,0.569935,0.469791,0.606767,0.229101,1.32854,0.0689203,0.923465,0.59935,0.535459,0.666044,0.231149,1.40674,0.0577947,11.6776,-4.19864,16.4042,22.7848,0.451677,-1.13321,0.110056,1.21401,-0.363455,2.44227,2.80375,0.326502,0.0198793,0.351674
5398974,1,-1.53404,-0.499604,0.0199866,-2.07008,1.58074,1.62899,0.787547,-1.53009,-0.498245,0.0237598,-2.06601,1.58183,1.63264,0.788243,0.84488,0.576243,0.468932,0.617863,0.227802,1.35106,0.06506,0.932878,0.60684,0.540983,0.674209,0.232823,1.42143,0.0582787,11.4276,-4.40097,16.5549,22.8839,0.474565,-1.15885,0.265696,1.29984,-0.448992,2.5522,2.86711,0.324159,0.00533462,0.348664
5398975,1,-1.53315,-0.498989,0.0204754,-2.06943,1.58096,1.63039,0.787609,-1.52914,-0.49763,0.0243063,-2.06533,1.58206,1.63407,0.788302,0.858163,0.584913,0.471833,0.624084,0.227213,1.35699,0.0600039,0.942292,0.61433,0.546506,0.682374,0.234496,1.43612,0.0587627,11.2253,-4.52792,16.5549,22.9077,0.491045,-1.10666,0.356333,1.39123,-0.544755,2.66937,2.93859,0.321899,-0.00988027,0.345372
5398976,1,-1.53224,-0.498382,0.0209766,-2.06878,1.58119,1.6318,0.787677,-1.52819,-0.497008,0.0248584,-2.06464,1.5823,1.63553,0.788361,0.881289,0.591161,0.477983,0.634694,0.227819,1.36928,0.0638363,0.951706,0.62182,0.55203,0.69054,0.23617,1.4508,0.0592467,11.0745,-4.62711,16.3804,22.9593,0.462663,-1.04899,0.36915,1.48002,-0.638857,2.78476,3.01045,0.319758,-0.0243647,0.342112
5398977,1,-1.53132,-0.497767,0.0215036,-2.06812,1.58142,1.63324,0.787745,-1.52723,-0.496379,0.0254159,-2.06394,1.58253,1.63699,0.788421,0.89349,0.597482,0.491185,0.637541,0.233802,1.38956,0.0626839,0.961119,0.62931,0.557554,0.698705,0.237843,1.46549,0.0597307,10.9238,-4.5795,16.0511,23.0069,0.423296,-0.946447,0.362742,1.55349,-0.723843,2.88152,3.07875,0.318044,-0.0361589,0.339206
5398978,1,-1.53038,-0.497148,0.0220121,-2.06745,1.58167,1.6347,0.78782,-1.52626,-0.495742,0.025979,-2.06323,1.58277,1.63847,0.788481,0.912588,0.616789,0.510753,0.649021,0.238361,1.40397,0.0654309,0.970533,0.6368,0.563078,0.70687,0.239516,1.48018,0.0602147,10.4675,-4.5795,15.8726,22.8601,0.378435,-0.92722,0.259287,1.60029,-0.805624,2.94231,3.14633,0.317245,-0.04367,0.336843
5398979,1,-1.52941,-0.496515,0.0225528,-2.06677,1.58192,1.63614,0.787895,-1.52528,-0.495098,0.0265472,-2.06252,1.58302,1.63996,0.788542,0.927625,0.623419,0.520888,0.660139,0.237913,1.41708,0.0670002,0.978924,0.64429,0.568171,0.714862,0.240749,1.49357,0.060572,10.0153,-4.62711,15.5949,22.7094,0.310686,-0.823766,0.155832,1.61275,-0.894886,2.95493,3.21637,0.317663,-0.0458379,0.335061
5398980,1,-1.52846,-0.495877,0.0231012,-2.06607,1.58216,1.63761,0.787959,-1.52429,-0.494446,0.0271204,-2.06179,1.58326,1.64147,0.788603,0.952249,0.625073,0.528733,0.668868,0.236063,1.4237,0.0682973,0.987316,0.65178,0.573265,0.722853,0.241982,1.50697,0.0609292,9.91212,-4.55173,15.4163,22.5348,0.276811,-0.733129,0.16865,1.58996,-0.980517,2.91923,3.28199,0.318966,-0.042358,0.33373
5398981,1,-1.52749,-0.495233,0.0236331,-2.06537,1.5824,1.63908,0.788021,-1.5233,-0.493787,0.0276988,-2.06106,1.5835,1.64299,0.788664,0.954755,0.630589,0.531603,0.68508,0.236527,1.43895,0.063359,0.995707,0.65927,0.578358,0.730844,0.243215,1.52036,0.0612865,9.78517,-4.6033,15.3925,22.2135,0.298784,-0.694677,0.213511,1.54009,-1.04058,2.84885,3.33175,0.320354,-0.0341358,0.332636
5398982,1,-1.52649,-0.494576,0.0241994,-2.06464,1.58264,1.64058,0.788075,-1.52229,-0.49312,0.0282822,-2.06032,1.58374,1.64453,0.788725,0.966311,0.637502,0.536414,0.696214,0.240054,1.4569,0.0591472,1.0041,0.66676,0.583451,0.738836,0.244447,1.53375,0.0616437,9.63441,-4.67868,15.214,21.9635,0.26491,-0.598546,0.297739,1.47889,-1.06591,2.76685,3.359,0.321006,-0.0233626,0.33162
5398983,1,-1.52551,-0.493932,0.0247715,-2.06393,1.58291,1.6421,0.788138,-1.52128,-0.492446,0.0288708,-2.05958,1.58399,1.64607,0.788787,0.972901,0.637609,0.547172,0.717353,0.246654,1.4703,0.0574007,1.01249,0.67425,0.588544,0.746827,0.24568,1.54714,0.062001,9.5868,-4.37717,15.0355,21.7176,0.129411,-0.482274,0.330698,1.41673,-1.05115,2.68758,3.35854,0.320413,-0.0114961,0.330669
5398984,1,-1.5245,-0.493295,0.0253215,-2.0632,1.58317,1.64362,0.788202,-1.52026,-0.491764,0.0294644,-2.05882,1.58424,1.64763,0.78885,0.982821,0.637607,0.546147,0.720459,0.245279,1.48571,0.0636806,1.02088,0.68174,0.593638,0.754819,0.246913,1.56053,0.0623582,9.3329,-4.07169,14.9879,21.666,0.146807,-0.495092,0.291331,1.35776,-0.987066,2.61653,3.32568,0.318253,0.00105075,0.329876
5398985,1,-1.52348,-0.492646,0.0258886,-2.06244,1.58342,1.64518,0.788256,-1.51923,-0.491075,0.0300631,-2.05806,1.58449,1.64921,0.788913,0.990502,0.635157,0.551323,0.729531,0.244855,1.49822,0.0649968,1.02927,0.68923,0.598731,0.76281,0.248145,1.57392,0.0627155,9.18214,-3.69479,14.9363,21.4676,0.1523,-0.63059,0.337107,1.30718,-0.871567,2.56112,3.26353,0.31437,0.0136754,0.329305
5398986,1,-1.52247,-0.491979,0.0264671,-2.0617,1.58367,1.64673,0.788326,-1.51819,-0.490378,0.030667,-2.05729,1.58474,1.65079,0.788976,0.995458,0.646035,0.56338,0.74274,0.243352,1.54729,0.0661291,1.03766,0.69672,0.603824,0.770801,0.249378,1.58731,0.0630728,9.25752,-3.61942,14.6824,21.416,0.180681,-0.759679,0.252878,1.26689,-0.71462,2.52322,3.1797,0.308993,0.0257464,0.328965
5398987,1,-1.52143,-0.49129,0.0270339,-2.06095,1.58392,1.64831,0.788385,-1.51715,-0.489674,0.0312759,-2.05651,1.58499,1.6524,0.789039,1.00787,0.661584,0.565485,0.745117,0.246329,1.55484,0.0685987,1.04606,0.70421,0.608917,0.778793,0.250611,1.6007,0.06343,9.03138,-3.77017,14.734,21.4914,0.242937,-0.849401,0.24647,1.23553,-0.54692,2.49941,3.08916,0.30276,0.0365994,0.328816
5398988,1,-1.52039,-0.490582,0.0276261,-2.06017,1.58418,1.64991,0.788431,-1.51609,-0.488962,0.0318899,-2.05572,1.58524,1.65401,0.789103,1.01891,0.672832,0.572501,0.752659,0.249949,1.55763,0.0613882,1.05445,0.7117,0.614011,0.786784,0.251843,1.61409,0.0637873,8.92823,-4.02011,14.6824,21.543,0.276811,-0.92722,0.356333,1.21017,-0.405008,2.48536,3.01133,0.29636,0.0461188,0.328751
5398989,1,-1.51935,-0.489886,0.0282174,-2.05941,1.58445,1.65149,0.788494,-1.51503,-0.488243,0.0325086,-2.05493,1.58549,1.65564,0.789167,1.01817,0.681904,0.578786,0.756497,0.249923,1.56837,0.0610743,1.06176,0.71919,0.618665,0.794616,0.25263,1.62612,0.063974,9.13057,-4.22244,14.607,21.789,0.24843,-0.919896,0.337107,1.18897,-0.30362,2.47842,2.95528,0.290194,0.0544193,0.328728
5398990,1,-1.51829,-0.489169,0.028815,-2.05863,1.58471,1.65314,0.788554,-1.51396,-0.487517,0.0331319,-2.05413,1.58574,1.65727,0.789231,1.0324,0.68976,0.584431,0.760888,0.253271,1.58089,0.0608606,1.06907,0.72668,0.623319,0.802448,0.253416,1.63815,0.0641608,9.30909,-4.40097,14.5832,22.0627,0.26491,-1.21653,0.323374,1.17236,-0.241188,2.47854,2.92186,0.284449,0.0612739,0.3288
5398991,1,-1.51723,-0.488463,0.0294044,-2.05785,1.58497,1.6548,0.788619,-1.51289,-0.486782,0.0337599,-2.05332,1.586,1.65892,0.789295,1.04232,0.69196,0.585007,0.767745,0.255069,1.60351,0.0618811,1.07638,0.73417,0.627973,0.810279,0.254203,1.65017,0.0643476,9.30909,-4.50412,14.6308,22.2889,0.287798,-1.4802,0.265696,1.1598,-0.206123,2.48511,2.90658,0.279105,0.0665288,0.329007
5398992,1,-1.51616,-0.487742,0.0300079,-2.05707,1.58524,1.6564,0.788697,-1.5118,-0.486041,0.0343925,-2.0525,1.58625,1.66059,0.78936,1.05044,0.701087,0.585537,0.76804,0.259873,1.59751,0.0704462,1.0837,0.74166,0.632627,0.818111,0.254989,1.6622,0.0645343,9.40828,-4.52792,14.5554,22.5626,0.225542,-1.24857,0.110056,1.15282,-0.18614,2.50079,2.90436,0.273972,0.0696527,0.329306
5398993,1,-1.5151,-0.487001,0.0306106,-2.05626,1.58549,1.65804,0.788769,-1.51071,-0.485292,0.0350298,-2.05167,1.58651,1.66226,0.789425,1.05649,0.710019,0.591901,0.776724,0.257742,1.59729,0.0744614,1.09101,0.74915,0.637281,0.825943,0.255776,1.67422,0.0647211,9.53523,-4.62711,14.607,22.634,0.310686,-1.08744,0.0194189,1.15285,-0.18073,2.52724,2.91562,0.268971,0.0703119,0.329548
5398994,1,-1.51403,-0.486251,0.0311941,-2.05545,1.58574,1.65969,0.788835,-1.50961,-0.484535,0.0356717,-2.05084,1.58677,1.66395,0.789489,1.05876,0.723886,0.588358,0.790405,0.250158,1.61955,0.0707764,1.09832,0.75664,0.641936,0.833774,0.256562,1.68625,0.0649078,9.73756,-4.90482,14.7578,22.388,0.417803,-1.14603,-0.0190333,1.16229,-0.192877,2.56683,2.93908,0.264036,0.0682629,0.329482
5398995,1,-1.51297,-0.485487,0.0318022,-2.05461,1.58599,1.66138,0.78891,-1.50851,-0.483771,0.0363183,-2.05,1.58702,1.66564,0.789555,1.05465,0.733573,0.59327,0.799984,0.250317,1.63459,0.0735858,1.10563,0.76413,0.64659,0.841606,0.257349,1.69827,0.0650946,10.0906,-5.10715,14.6824,22.0905,0.394914,-1.31998,-0.077627,1.18893,-0.223314,2.62928,2.97051,0.259038,0.0624916,0.328842
5398996,1,-1.51187,-0.484726,0.0324022,-2.05378,1.58626,1.66307,0.788986,-1.50739,-0.482999,0.0369695,-2.04915,1.58728,1.66735,0.78962,1.0723,0.76036,0.607199,0.81358,0.25841,1.64396,0.0785797,1.11294,0.77162,0.651244,0.849438,0.258135,1.7103,0.0652814,10.0629,-5.33725,14.734,21.8167,0.282305,-1.21012,-0.0904444,1.23049,-0.28187,2.70951,3.01121,0.254319,0.0534044,0.327412
5398997,1,-1.51078,-0.48397,0.0330089,-2.05292,1.58653,1.66475,0.789063,-1.50627,-0.48222,0.0376254,-2.04829,1.58754,1.66908,0.789685,1.0863,0.75592,0.608184,0.824384,0.267807,1.65646,0.0779551,1.12026,0.77911,0.655898,0.857269,0.258921,1.72233,0.0654681,10.0153,-5.13492,14.9363,21.5152,0.197161,-1.18448,-0.103262,1.27238,-0.369515,2.78628,3.05943,0.250278,0.0433039,0.325064
5398998,1,-1.50971,-0.483202,0.0336309,-2.05206,1.5868,1.66646,0.78915,-1.50515,-0.481433,0.038286,-2.04742,1.5878,1.67081,0.789751,1.09703,0.756959,0.610569,0.836964,0.270023,1.65755,0.0798533,1.12757,0.7866,0.660552,0.865101,0.259708,1.73435,0.0656549,10.293,-4.98416,14.9125,21.2455,0.106523,-1.04899,-0.168264,1.30742,-0.451563,2.8511,3.09827,0.246461,0.0337989,0.32178
5398999,1,-1.50865,-0.482436,0.0342635,-2.0512,1.58707,1.66818,0.78921,-1.50401,-0.480639,0.0389507,-2.04655,1.58806,1.67256,0.789817,1.09641,0.756757,0.61983,0.842699,0.268851,1.68121,0.0760839,1.13377,0.79409,0.664763,0.87276,0.260052,1.74497,0.0656631,10.7214,-4.85721,14.734,21.1423,0.0726488,-1.02335,0.0130102,1.3379,-0.494078,2.90783,3.11314,0.242233,0.0251494,0.317589
5399000,1,-1.50753,-0.481657,0.0348936,-2.05032,1.58733,1.66992,0.789277,-1.50287,-0.479838,0.0396197,-2.04567,1.58832,1.67431,0.789882,1.0991,0.760012,0.616239,0.852917,0.269175,1.69968,0.0711065,1.13997,0.80158,0.668974,0.880418,0.260395,1.75559,0.0656714,10.5945,-4.80563,14.6824,20.9717,0.0222948,-0.92722,0.149424,1.3716,-0.489662,2.96594,3.10261,0.237262,0.0165101,0.312585
5399001,1,-1.50641,-0.480854,0.0355359,-2.04944,1.5876,1.67169,0.789332,-1.50173,-0.479029,0.0402929,-2.04478,1.58858,1.67608,0.789948,1.10588,0.768584,0.624401,0.858932,0.272187,1.71267,0.0650949,1.14617,0.80907,0.673185,0.888077,0.260739,1.76621,0.0656796,10.166,-4.90482,14.607,20.9717,0.027788,-0.946447,0.356333,1.41565,-0.447383,3.03437,3.07217,0.231367,0.00704011,0.307055
5399002,1,-1.50525,-0.480067,0.0361858,-2.04857,1.58788,1.67346,0.789376,-1.50057,-0.478212,0.0409703,-2.04389,1.58884,1.67786,0.790014,1.12731,0.773931,0.634563,0.86661,0.276406,1.72517,0.0553332,1.15237,0.81656,0.677396,0.895736,0.261083,1.77683,0.0656878,9.55903,-4.88101,14.3531,20.9955,-0.0179884,-0.984899,0.595286,1.46258,-0.383706,3.10246,3.03063,0.224875,-0.00201186,0.301494
5399003,1,-1.50409,-0.479267,0.0368677,-2.04768,1.58814,1.67524,0.789432,-1.49942,-0.477388,0.0416519,-2.04298,1.5891,1.67964,0.790079,1.14325,0.77649,0.648353,0.861883,0.271192,1.73423,0.053996,1.15857,0.82405,0.681607,0.903394,0.261427,1.78745,0.0656961,9.05519,-4.75406,13.7699,21.1185,0.0332811,-0.972081,0.679514,1.49429,-0.309891,3.14558,2.98668,0.218511,-0.00802789,0.296534
5399004,1,-1.50295,-0.478479,0.0375529,-2.04678,1.5884,1.67703,0.789487,-1.49825,-0.476557,0.0423377,-2.04207,1.58936,1.68144,0.790145,1.14243,0.77859,0.661484,0.871796,0.265498,1.77955,0.0539864,1.16477,0.83154,0.685819,0.911053,0.261771,1.79807,0.0657043,8.7259,-4.52792,13.2145,21.1701,0.123918,-0.817357,0.72529,1.50228,-0.228774,3.15208,2.94536,0.212778,-0.0101487,0.292802
5399005,1,-1.5018,-0.477666,0.0382508,-2.04588,1.58866,1.67876,0.78954,-1.49708,-0.475718,0.0430278,-2.04115,1.58963,1.68325,0.790211,1.14574,0.785599,0.670533,0.878386,0.269016,1.76188,0.0556507,1.17097,0.83903,0.69003,0.918711,0.262115,1.80869,0.0657125,8.60292,-4.40097,12.5321,21.3684,0.163286,-0.392553,0.712473,1.49183,-0.139065,3.12908,2.90545,0.207632,-0.00944942,0.290753
5399006,1,-1.50065,-0.47684,0.0389411,-2.04496,1.58895,1.68053,0.789596,-1.4959,-0.474871,0.043722,-2.04023,1.58989,1.68507,0.790277,1.15131,0.79458,0.67638,0.882933,0.275553,1.75396,0.0599278,1.17718,0.84652,0.694241,0.92637,0.262458,1.81932,0.0657208,8.29744,-4.42477,12.2504,21.416,0.095537,-0.0190174,0.628245,1.46928,-0.047039,3.08627,2.86811,0.202855,-0.00634157,0.290586
5399007,1,-1.49946,-0.476009,0.0396363,-2.04405,1.58923,1.68232,0.789637,-1.49472,-0.474017,0.0444205,-2.03929,1.59015,1.6869,0.790342,1.17351,0.80661,0.68346,0.891761,0.2798,1.76852,0.0545086,1.18338,0.85401,0.698452,0.934029,0.262802,1.82994,0.065729,7.89674,-4.52792,12.0243,21.543,0.0222948,0.026759,0.621836,1.43491,0.0335032,3.02568,2.83914,0.198461,-4.34247e-05,0.292239
5399008,1,-1.49826,-0.475163,0.0403373,-2.04312,1.58952,1.68416,0.789683,-1.49353,-0.473155,0.0451231,-2.03835,1.59042,1.68874,0.790408,1.1785,0.813718,0.68994,0.893712,0.284962,1.77654,0.056382,1.18958,0.8615,0.702663,0.941687,0.263146,1.84056,0.0657373,7.59126,-4.65488,11.9727,21.666,-0.0912306,-0.205785,0.588877,1.38694,0.0929666,2.94638,2.8226,0.194525,0.0101747,0.295451
5399009,1,-1.4971,-0.474311,0.0410475,-2.04221,1.5898,1.68602,0.789752,-1.49233,-0.472286,0.0458295,-2.0374,1.59068,1.69059,0.790474,1.15817,0.825936,0.697892,0.902984,0.283286,1.79237,0.0611405,1.19466,0.86899,0.706429,0.949162,0.263057,1.84975,0.0655616,7.64283,-4.85721,11.8735,21.8167,-0.0683424,-0.533544,0.330698,1.33542,0.126932,2.86202,2.82061,0.190734,0.0229003,0.299892
5399010,1,-1.49591,-0.473444,0.0417722,-2.04128,1.59007,1.68784,0.789817,-1.49113,-0.47141,0.0465397,-2.03645,1.59094,1.69245,0.790539,1.16472,0.834781,0.702091,0.905228,0.281864,1.79842,0.0623624,1.19974,0.87648,0.710195,0.956636,0.262968,1.85894,0.065386,7.74202,-5.10715,11.7188,21.9397,-0.0344679,-0.636998,0.122873,1.29613,0.132233,2.7935,2.83443,0.186585,0.035334,0.305134
5399011,1,-1.49472,-0.472568,0.0424969,-2.04033,1.59034,1.6897,0.789899,-1.48993,-0.470526,0.0472537,-2.03548,1.5912,1.69432,0.790604,1.19007,0.842507,0.703122,0.913599,0.273747,1.80904,0.07165,1.20481,0.88397,0.713961,0.964111,0.262879,1.86814,0.0652104,7.74202,-5.26187,11.6434,21.9159,0.0671556,-0.720311,-0.200308,1.26775,0.111826,2.74048,2.86276,0.182013,0.046854,0.310574
5399012,1,-1.4935,-0.47171,0.0432081,-2.03939,1.59061,1.69156,0.789983,-1.48872,-0.469635,0.0479714,-2.03451,1.59147,1.69619,0.790669,1.21083,0.847177,0.699122,0.921822,0.270963,1.82122,0.0797482,1.20989,0.89146,0.717727,0.971585,0.262791,1.87733,0.0650347,7.64283,-5.2341,11.5443,21.8882,0.0726488,-0.946447,-0.446585,1.23865,0.0790023,2.69027,2.89855,0.177171,0.0584006,0.315453
5399013,1,-1.49228,-0.470834,0.0439276,-2.03842,1.59087,1.6935,0.790049,-1.48751,-0.468736,0.0486929,-2.03353,1.59173,1.69808,0.790734,1.20454,0.853143,0.703572,0.930831,0.271308,1.85618,0.0717973,1.21497,0.89895,0.721494,0.97906,0.262702,1.88653,0.0648591,7.56746,-5.10715,11.4689,21.666,0.146807,-1.63492,-0.440176,1.20916,0.0485619,2.6446,2.933,0.172007,0.0691852,0.31891
5399014,1,-1.49106,-0.469964,0.0446348,-2.03747,1.59114,1.6954,0.790116,-1.48629,-0.467829,0.0494182,-2.03254,1.59199,1.69998,0.790799,1.22992,0.880281,0.72396,0.941516,0.269082,1.85366,0.0684373,1.22005,0.90644,0.72526,0.986534,0.262613,1.89572,0.0646834,7.38893,-4.98416,11.4927,21.4914,0.168779,-1.7576,-0.349539,1.17828,0.0124306,2.59967,2.96793,0.166933,0.078322,0.32023
5399015,1,-1.48984,-0.469072,0.0453413,-2.03647,1.59141,1.69726,0.790172,-1.48506,-0.466915,0.0501472,-2.03155,1.59225,1.70188,0.790863,1.2187,0.882055,0.71983,0.960709,0.266329,1.8588,0.0607064,1.22513,0.91393,0.729026,0.994009,0.262524,1.90492,0.0645078,7.4167,-4.95639,11.5919,21.0709,0.220049,-1.51957,-0.10967,1.13934,-0.0429359,2.54401,3.00627,0.16248,0.0857535,0.31915
5399016,1,-1.48864,-0.468167,0.0460462,-2.03548,1.59167,1.69911,0.79024,-1.48383,-0.465994,0.05088,-2.03055,1.59252,1.70379,0.790928,1.21138,0.886978,0.714127,0.970236,0.263814,1.83507,0.0636277,1.23021,0.92142,0.732792,1.00148,0.262435,1.91411,0.0643322,7.89674,-4.95639,11.7982,20.821,0.287798,-0.972081,0.0459692,1.10654,-0.0990048,2.49785,3.03613,0.158007,0.0892308,0.315895
5399017,1,-1.48747,-0.467282,0.0467499,-2.0345,1.59194,1.70097,0.790305,-1.48259,-0.465065,0.0516166,-2.02954,1.59278,1.70572,0.790992,1.19893,0.885045,0.713488,0.97578,0.25996,1.88149,0.0636325,1.23529,0.92891,0.736559,1.00896,0.262346,1.9233,0.0641565,8.49977,-4.80563,11.8973,20.6702,0.270403,-0.740453,0.265696,1.10296,-0.130658,2.49369,3.04689,0.152712,0.0859576,0.311024
5399018,1,-1.48625,-0.466376,0.047459,-2.0335,1.59223,1.70287,0.790379,-1.48135,-0.464129,0.0523569,-2.02852,1.59304,1.70765,0.791056,1.20119,0.886481,0.708335,0.976596,0.277296,1.87732,0.0652001,1.24037,0.9364,0.740325,1.01643,0.262257,1.9325,0.0639809,8.75367,-4.67868,12.1512,20.8448,0.0442674,-0.617772,0.356333,1.13886,-0.128152,2.54489,3.0387,0.146507,0.0753667,0.305233
5399019,1,-1.48502,-0.465445,0.0481713,-2.03252,1.59252,1.7048,0.790442,-1.48011,-0.463185,0.0531005,-2.0275,1.5933,1.70959,0.791119,1.20794,0.895897,0.702586,0.97941,0.282816,1.88307,0.0672583,1.24433,0.94389,0.743646,1.02371,0.261751,1.94026,0.0636174,8.62672,-4.82944,12.4052,21.1939,-0.20384,-0.694677,0.52479,1.21178,-0.0981941,2.64785,3.01921,0.139504,0.059134,0.299246
5399020,1,-1.48379,-0.464509,0.0488835,-2.03151,1.59282,1.70672,0.790513,-1.47886,-0.462233,0.0538475,-2.02647,1.59356,1.71154,0.791183,1.21536,0.907802,0.703869,0.983756,0.293906,1.89632,0.0688412,1.2483,0.95138,0.746968,1.03099,0.261245,1.94803,0.0632539,8.62672,-5.10715,12.5559,21.4438,-0.408003,-0.75327,0.569651,1.31133,-0.0634447,2.78828,3.00125,0.131824,0.0397643,0.293723
5399021,1,-1.48258,-0.463563,0.0496087,-2.03049,1.59308,1.70867,0.790584,-1.47761,-0.461274,0.0545978,-2.02543,1.59383,1.71349,0.791245,1.20442,0.914668,0.702708,0.985124,0.283104,1.90013,0.0684417,1.25226,0.95887,0.750289,1.03828,0.260739,1.95579,0.0628903,8.97981,-5.28568,12.6075,21.7414,-0.345747,-0.810948,0.52479,1.43,-0.0431672,2.95488,2.99487,0.123407,0.0186544,0.289219
5399022,1,-1.48136,-0.462617,0.0503289,-2.02947,1.59334,1.71059,0.790642,-1.47635,-0.460308,0.0553514,-2.02439,1.59409,1.71546,0.791308,1.20967,0.927084,0.710648,0.995797,0.276133,1.91124,0.0651628,1.25623,0.96636,0.753611,1.04556,0.260233,1.96356,0.0625268,9.13057,-5.43643,12.6075,21.7176,-0.187361,-0.810948,0.550425,1.56315,-0.0442437,3.13956,3.0033,0.114137,-0.00350771,0.286105
5399023,1,-1.48011,-0.46166,0.0510689,-2.02843,1.5936,1.71255,0.790712,-1.47509,-0.459334,0.0561083,-2.02333,1.59435,1.71743,0.79137,1.21572,0.938047,0.720654,1.00569,0.265968,1.90955,0.0679613,1.26019,0.97385,0.756932,1.05284,0.259726,1.97132,0.0621633,8.80128,-5.51181,12.4052,21.5668,0.0103929,-0.713903,0.42042,1.6977,-0.0668476,3.3226,3.02417,0.104348,-0.0249062,0.284527
5399024,1,-1.47884,-0.460695,0.0518233,-2.02736,1.59386,1.71451,0.790779,-1.47383,-0.458353,0.0568686,-2.02227,1.5946,1.71941,0.791432,1.24028,0.940921,0.732066,1.02322,0.267947,1.91506,0.068299,1.26415,0.98134,0.760254,1.06012,0.25922,1.97909,0.0617997,8.0713,-5.48801,12.0243,21.1185,0.0900438,-0.560094,0.330698,1.81204,-0.0979035,3.47393,3.04752,0.0947165,-0.0423883,0.284437
5399025,1,-1.47755,-0.459728,0.0525826,-2.0263,1.59414,1.71645,0.790833,-1.47256,-0.457364,0.0576322,-2.02121,1.59486,1.7214,0.791493,1.24853,0.951715,0.740274,1.03021,0.270152,1.92852,0.0659229,1.26812,0.98883,0.763575,1.0674,0.258714,1.98685,0.0614362,7.23817,-5.51181,11.4927,20.7456,0.134905,-0.469457,0.304148,1.88926,-0.11924,3.57167,3.06199,0.0858707,-0.0534825,0.285559
5399026,1,-1.47628,-0.458748,0.0533616,-2.02521,1.59441,1.71843,0.790909,-1.47129,-0.456368,0.0583991,-2.02013,1.59512,1.72339,0.791554,1.2592,0.953792,0.753617,1.04334,0.265705,1.93768,0.0721826,1.27208,0.99632,0.766897,1.07468,0.258208,1.99462,0.0610727,6.86128,-5.51181,10.8341,20.3727,0.106523,-0.443822,0.0844213,1.92507,-0.123713,3.61125,3.0636,0.0782667,-0.0576761,0.287488
5399027,1,-1.47502,-0.457777,0.0541391,-2.02414,1.59469,1.72043,0.790964,-1.47001,-0.455364,0.0591693,-2.01905,1.59538,1.72539,0.791615,1.25596,0.953692,0.76476,1.05803,0.272338,1.94706,0.0623009,1.27605,1.00381,0.770218,1.08196,0.257702,2.00238,0.0607092,6.63514,-5.36105,10.2787,20.0989,-0.0738356,-0.386144,0.09083,1.92319,-0.097975,3.59861,3.04519,0.0719555,-0.0555778,0.289792
5399028,1,-1.47374,-0.456774,0.0549159,-2.02305,1.59498,1.72237,0.791029,-1.46873,-0.454353,0.0599428,-2.01796,1.59564,1.7274,0.791676,1.25625,0.968994,0.763956,1.06142,0.277258,1.93886,0.0677296,1.28001,1.0113,0.77354,1.08924,0.257195,2.01015,0.0603456,6.43281,-5.4642,9.97321,20.0235,-0.272505,-0.0959217,0.0194189,1.89598,-0.0400226,3.55132,3.00527,0.0665086,-0.0489439,0.291996
5399029,1,-1.47246,-0.455768,0.0556967,-2.02196,1.59528,1.72435,0.791083,-1.46745,-0.453334,0.0607192,-2.01686,1.59589,1.72942,0.791735,1.28735,0.972363,0.761369,1.06561,0.28346,1.94251,0.0634066,1.28289,1.01879,0.776419,1.09632,0.256292,2.01649,0.0597903,6.07972,-5.51181,9.87403,20.1743,-0.543501,0.110072,0.0459692,1.85424,0.0277581,3.48618,2.9571,0.0614196,-0.039227,0.293677
