shamilmamedov/beam_handling/log/param_estimation_ICRA/ocp_Xup_35cm_0.57s_3.csv
duration, success rate, q[0], q[1], q[2], q[3], q[4], q[5], q[6],q_d[0], q_d[1], q_d[2], q_d[3], q_d[4], q_d[5], q_d[6],dq[0], dq[1], dq[2], dq[3], dq[4], dq[5], dq[6],dq_d[0], dq_d[1], dq_d[2], dq_d[3], dq_d[4], dq_d[5], dq_d[6],tau_J[0], tau_J[1], tau_J[2], tau_J[3], tau_J[4], tau_J[5], tau_J[6],tau_ext_hat_filtered[0], tau_ext_hat_filtered[1], tau_ext_hat_filtered[2], tau_ext_hat_filtered[3], tau_ext_hat_filtered[4], tau_ext_hat_filtered[5], tau_ext_hat_filtered[6]
5113495,0,-1.57039,-0.522883,0.000113898,-2.09581,1.57074,1.57172,0.785068,-1.5708,-0.523599,5.76251e-08,-2.0944,1.5708,1.5708,0.785397,0.000809556,-0.00153734,2.67862e-05,-0.000644842,0.000312169,0.000105906,-7.32053e-05,0,0,0,0,0,0,0,-0.454395,-10.0623,-0.484555,20.8448,0.757463,-0.688268,0.122873,-0.433736,-0.992524,-0.0864833,2.29801,0.203236,-0.690358,0.155861
5113496,1,-1.57039,-0.522883,0.000113438,-2.09581,1.57074,1.57172,0.785074,-1.5708,-0.523599,5.76251e-08,-2.0944,1.5708,1.5708,0.785397,-1.71078e-05,-0.00102489,0.000574669,0.000683729,4.66184e-06,0.000307963,0.00185007,0,0,0,0,0,0,0,-0.430592,-10.0623,-0.508359,20.7972,0.762956,-0.694677,0.071604,-0.43334,-0.989983,-0.0860011,2.2968,0.203151,-0.690323,0.155921
5113497,1,-1.57039,-0.522878,0.00011124,-2.09581,1.57074,1.57172,0.785066,-1.5708,-0.523599,5.76251e-08,-2.0944,1.5708,1.5708,0.785397,-1.14052e-05,0.00107997,-0.000823313,0.000455819,-0.000403793,-3.20503e-05,-0.00141148,0,0,0,0,0,0,0,-0.430592,-10.1377,-0.456784,20.7972,0.773943,-0.688268,0.143015,-0.433322,-0.98652,-0.0860845,2.29488,0.203043,-0.690217,0.156012
5113498,1,-1.57039,-0.522876,0.000115332,-2.09581,1.57074,1.57172,0.785071,-1.5708,-0.523599,5.76251e-08,-2.0944,1.5708,1.5708,0.785397,0.000549208,0.0013696,0.000657551,-0.000809744,-6.57449e-05,0.000215992,-0.000195,0,0,0,0,0,0,0,-0.454395,-10.1654,-0.508359,20.8448,0.76845,-0.694677,0.122873,-0.433223,-0.986898,-0.0860265,2.29458,0.202982,-0.690175,0.156099
5113499,1,-1.57039,-0.52288,0.000117161,-2.09581,1.57074,1.57172,0.785067,-1.5708,-0.523599,5.76251e-08,-2.0944,1.5708,1.5708,0.785397,0.000366139,-0.000293361,0.000995179,-0.00053983,0.000159621,0.000381354,-0.000875985,0,0,0,0,0,0,0,-0.454395,-10.1139,-0.532163,20.8448,0.762956,-0.701085,0.143015,-0.433823,-0.991039,-0.0870433,2.29637,0.203031,-0.69008,0.156195
5113500,1,-1.57039,-0.522878,0.000113412,-2.09581,1.57074,1.57172,0.785066,-1.5708,-0.523599,5.76251e-08,-2.0944,1.5708,1.5708,0.785397,0.000244093,0.000361238,0.000106641,0.000196926,0.000106414,-0.000220482,-0.00058399,0,0,0,0,0,0,0,-0.454395,-10.1377,-0.508359,20.821,0.762956,-0.688268,0.143015,-0.435177,-0.995055,-0.0892333,2.29834,0.203123,-0.689885,0.156328
5113501,1,-1.57039,-0.52288,0.00011318,-2.09581,1.57074,1.57171,0.785073,-1.5708,-0.523599,5.76251e-08,-2.0944,1.5708,1.5708,0.785397,-0.000394084,-0.000315987,-0.000485718,-0.000425528,-0.000132508,-0.000384347,0.00201817,0,0,0,0,0,0,0,-0.430592,-10.1139,-0.484555,20.8448,0.76845,-0.681859,0.0780126,-0.436108,-0.997516,-0.0907522,2.29952,0.203167,-0.689752,0.156521
5113502,1,-1.57039,-0.52288,0.00011533,-2.09582,1.57074,1.57172,0.785067,-1.5708,-0.523599,5.76251e-08,-2.0944,1.5708,1.5708,0.785397,-0.000262722,-0.000210658,0.000233,-0.000933299,0.000115112,-1.88724e-05,-0.000790783,0,0,0,0,0,0,0,-0.430592,-10.1139,-0.508359,20.8725,0.762956,-0.688268,0.135691,-0.436109,-0.998841,-0.0908584,2.30032,0.203158,-0.68975,0.156757
5113503,1,-1.57038,-0.522874,0.000111688,-2.09581,1.57074,1.57172,0.785072,-1.5708,-0.523599,5.76251e-08,-2.0944,1.5708,1.5708,0.785397,0.000381664,0.0016228,-0.000401479,0.00179065,7.67412e-05,0.000462136,0.00113432,0,0,0,0,0,0,0,-0.454395,-10.1892,-0.484555,20.7694,0.762956,-0.701085,0.09083,-0.435679,-1.00015,-0.0903052,2.30097,0.203122,-0.689817,0.156999
5113504,1,-1.57038,-0.522881,0.000114832,-2.09581,1.57074,1.57171,0.78507,-1.5708,-0.523599,5.76251e-08,-2.0944,1.5708,1.5708,0.785397,0.000254442,-0.00123818,0.000289159,0.00119377,0.000254611,7.07319e-05,4.41391e-05,0,0,0,0,0,0,0,-0.454395,-10.0901,-0.508359,20.7694,0.757463,-0.694677,0.110056,-0.435348,-1.00055,-0.0898018,2.30032,0.203029,-0.689876,0.15723
5113505,1,-1.57039,-0.52288,0.000111704,-2.09581,1.57074,1.57172,0.785069,-1.5708,-0.523599,5.76251e-08,-2.0944,1.5708,1.5708,0.785397,-0.0010368,-0.000268644,-0.00101365,-0.00041058,-0.00023716,0.000284514,-0.000207933,0,0,0,0,0,0,0,-0.402821,-10.1139,-0.456784,20.821,0.76845,-0.701085,0.116465,-0.434778,-0.998149,-0.0888854,2.29792,0.202857,-0.689955,0.157434
5113506,1,-1.57039,-0.522881,0.000113817,-2.09582,1.57074,1.57172,0.785072,-1.5708,-0.523599,5.76251e-08,-2.0944,1.5708,1.5708,0.785397,-4.15844e-05,-0.000735908,-2.61547e-05,-0.000830532,4.53438e-05,-0.000522401,0.000810814,0,0,0,0,0,0,0,-0.430592,-10.0901,-0.484555,20.8448,0.762956,-0.681859,0.09083,-0.433505,-0.994759,-0.086956,2.29564,0.202668,-0.690131,0.157597
5113507,1,-1.57039,-0.522881,0.000113871,-2.09581,1.57074,1.57172,0.785067,-1.5708,-0.523599,5.76251e-08,-2.0944,1.5708,1.5708,0.785397,0.000529089,-0.000490605,-1.74364e-05,-0.000553688,-0.000376672,-0.000110908,-0.00112097,0,0,0,0,0,0,0,-0.454395,-10.0901,-0.484555,20.8448,0.773943,-0.688268,0.135691,-0.432432,-0.991993,-0.0853305,2.2944,0.202527,-0.690281,0.157718
5113508,1,-1.57039,-0.522876,0.0001151,-2.09581,1.57074,1.57171,0.785069,-1.5708,-0.523599,5.76251e-08,-2.0944,1.5708,1.5708,0.785397,0.000909538,0.00143617,0.001102,0.000187686,-4.76641e-05,0.00016342,-3.52365e-05,0,0,0,0,0,0,0,-0.478199,-10.1654,-0.532163,20.821,0.76845,-0.694677,0.116465,-0.432698,-0.990948,-0.0856685,2.29423,0.202477,-0.69025,0.157807
5113509,1,-1.57039,-0.522881,0.000112725,-2.09581,1.57074,1.57172,0.785073,-1.5708,-0.523599,5.76251e-08,-2.0944,1.5708,1.5708,0.785397,-0.000507265,-0.000805793,0.000177854,0.000125124,-3.1776e-05,0.000108947,0.00140066,0,0,0,0,0,0,0,-0.430592,-10.0901,-0.508359,20.821,0.76845,-0.694677,0.0780126,-0.434032,-0.991787,-0.0876153,2.29475,0.202499,-0.690092,0.157887
5113510,1,-1.57039,-0.522878,0.000112951,-2.09581,1.57074,1.57172,0.785068,-1.5708,-0.523599,5.76251e-08,-2.0944,1.5708,1.5708,0.785397,-0.0015446,0.000576429,-0.000438242,0.000640228,0.000182266,-0.000164728,-0.000727738,0,0,0,0,0,0,0,-0.379017,-10.1377,-0.484555,20.7972,0.762956,-0.688268,0.122873,-0.434732,-0.992295,-0.0887234,2.2948,0.202495,-0.690032,0.157954
5113511,1,-1.57039,-0.522881,0.000113583,-2.09581,1.57074,1.57171,0.785071,-1.5708,-0.523599,5.76251e-08,-2.0944,1.5708,1.5708,0.785397,0.000176691,-0.000729338,-0.000292162,-0.000686805,-8.19395e-05,-0.000109819,0.000464277,0,0,0,0,0,0,0,-0.430592,-10.0901,-0.484555,20.8448,0.76845,-0.688268,0.0972387,-0.434074,-0.992098,-0.0879014,2.29439,0.202438,-0.690162,0.157988
5113512,1,-1.57039,-0.522878,0.000111845,-2.09582,1.57074,1.57172,0.785069,-1.5708,-0.523599,5.76251e-08,-2.0944,1.5708,1.5708,0.785397,0.000117794,0.000627399,-0.000844388,-0.00110748,-0.000258077,0.000401506,-0.000402559,0,0,0,0,0,0,0,-0.430592,-10.1377,-0.456784,20.8725,0.773943,-0.701085,0.116465,-0.432941,-0.992515,-0.0863385,2.29466,0.202395,-0.690356,0.157988
5113513,1,-1.57039,-0.522876,0.000109784,-2.09581,1.57074,1.57172,0.785071,-1.5708,-0.523599,5.76251e-08,-2.0944,1.5708,1.5708,0.785397,-0.000571085,0.00106788,-0.000562926,-8.87087e-05,-0.000172051,3.03114e-05,0.000443704,0,0,0,0,0,0,0,-0.402821,-10.1654,-0.456784,20.8448,0.773943,-0.694677,0.0972387,-0.431585,-0.995119,-0.0843736,2.29637,0.2024,-0.690602,0.15796
5113514,1,-1.57039,-0.522878,0.000113177,-2.09581,1.57074,1.57172,0.785072,-1.5708,-0.523599,5.76251e-08,-2.0944,1.5708,1.5708,0.785397,0.000268891,6.23058e-05,0.00027433,0.00105448,8.87497e-05,2.02076e-05,0.000770521,0,0,0,0,0,0,0,-0.430592,-10.1377,-0.484555,20.7972,0.76845,-0.694677,0.0844213,-0.430298,-0.998753,-0.0825104,2.29825,0.202424,-0.690854,0.157915
5113515,1,-1.57039,-0.52288,0.000111528,-2.09581,1.57074,1.57172,0.785069,-1.5708,-0.523599,5.76251e-08,-2.0944,1.5708,1.5708,0.785397,-0.000470353,-0.000515275,0.000182887,0.000146178,0.000262617,-0.000223887,-0.000673114,0,0,0,0,0,0,0,-0.402821,-10.1139,-0.484555,20.821,0.762956,-0.688268,0.116465,-0.429739,-1.00013,-0.0817835,2.29853,0.202432,-0.690975,0.157847
5113516,1,-1.57039,-0.522881,0.000113108,-2.09581,1.57074,1.57172,0.785072,-1.5708,-0.523599,5.76251e-08,-2.0944,1.5708,1.5708,0.785397,0.000336045,-0.000900328,0.000121925,-0.00045936,-0.000231823,-0.000386617,0.000500693,0,0,0,0,0,0,0,-0.430592,-10.0901,-0.484555,20.8448,0.773943,-0.681859,0.09083,-0.429841,-0.998581,-0.0821091,2.29741,0.202429,-0.690951,0.157746
5113517,1,-1.57039,-0.522878,0.000109556,-2.09581,1.57074,1.57172,0.785068,-1.5708,-0.523599,5.76251e-08,-2.0944,1.5708,1.5708,0.785397,-0.000425584,0.000513405,-0.000568331,0.000250572,0.000693162,-2.03858e-05,-0.000852999,0,0,0,0,0,0,0,-0.402821,-10.1377,-0.456784,20.821,0.751055,-0.688268,0.122873,-0.430048,-0.996058,-0.0826113,2.2961,0.20243,-0.690879,0.157616
5113518,1,-1.57039,-0.522878,0.000114771,-2.09581,1.57074,1.57172,0.785068,-1.5708,-0.523599,5.76251e-08,-2.0944,1.5708,1.5708,0.785397,-0.000283723,0.00034227,0.000827539,-0.000389764,2.12984e-05,0.000461127,-0.000568666,0,0,0,0,0,0,0,-0.402821,-10.1377,-0.508359,20.8448,0.762956,-0.701085,0.122873,-0.430079,-0.994915,-0.0829099,2.2955,0.202449,-0.690832,0.157469
5113519,1,-1.57039,-0.522876,0.000113633,-2.09581,1.57074,1.57172,0.785071,-1.5708,-0.523599,5.76251e-08,-2.0944,1.5708,1.5708,0.785397,0.000460466,0.000877794,-5.11954e-06,0.000296969,-0.000189252,-0.0001673,0.000570325,0,0,0,0,0,0,0,-0.430592,-10.1654,-0.484555,20.821,0.76845,-0.688268,0.0972387,-0.430367,-0.995859,-0.0837063,2.29589,0.202503,-0.690761,0.157328
5113520,1,-1.57039,-0.52288,0.00011548,-2.09581,1.57074,1.57172,0.785068,-1.5708,-0.523599,5.76251e-08,-2.0944,1.5708,1.5708,0.785397,0.000306977,-0.00062123,0.000553399,0.00019798,-0.000329618,0.000125826,-0.000569219,0,0,0,0,0,0,0,-0.430592,-10.1139,-0.508359,20.821,0.773943,-0.694677,0.122873,-0.431186,-0.997204,-0.0853223,2.29637,0.202562,-0.690613,0.157214
5113521,1,-1.57039,-0.52288,0.000113869,-2.09581,1.57074,1.57172,0.785072,-1.5708,-0.523599,5.76251e-08,-2.0944,1.5708,1.5708,0.785397,0.000204651,-0.000414153,-0.000187879,0.000688798,0.000187156,8.38839e-05,0.000807315,0,0,0,0,0,0,0,-0.430592,-10.1139,-0.484555,20.7972,0.762956,-0.694677,0.09083,-0.43219,-0.996551,-0.0871865,2.29574,0.202579,-0.690417,0.157123
5113522,1,-1.57039,-0.522881,0.000113429,-2.09581,1.57074,1.57172,0.785067,-1.5708,-0.523599,5.76251e-08,-2.0944,1.5708,1.5708,0.785397,0.000693246,-0.000832914,0.000431559,-0.000654425,-0.000282131,-0.000181436,-0.0011233,0,0,0,0,0,0,0,-0.454395,-10.0901,-0.508359,20.8448,0.773943,-0.688268,0.135691,-0.433173,-0.993801,-0.0889734,2.29413,0.202561,-0.690201,0.157048
5113523,1,-1.57039,-0.522878,0.000111055,-2.09581,1.57074,1.57171,0.785068,-1.5708,-0.523599,5.76251e-08,-2.0944,1.5708,1.5708,0.785397,-9.46478e-05,0.000558348,-0.000269106,-0.000436283,1.53634e-05,-0.000120958,-0.00027415,0,0,0,0,0,0,0,-0.430592,-10.1377,-0.484555,20.8448,0.76845,-0.688268,0.122873,-0.434051,-0.991369,-0.090559,2.29302,0.202563,-0.690006,0.156985
5113524,1,-1.57039,-0.52288,0.000108871,-2.09581,1.57074,1.57172,0.785071,-1.5708,-0.523599,5.76251e-08,-2.0944,1.5708,1.5708,0.785397,-6.30986e-05,-0.00018458,-0.000829018,0.000265956,0.000417143,-8.06384e-05,0.000766669,0,0,0,0,0,0,0,-0.430592,-10.1139,-0.456784,20.821,0.757463,-0.688268,0.0972387,-0.434191,-0.990641,-0.0909805,2.29291,0.202576,-0.689943,0.156947
5113525,1,-1.57039,-0.522881,0.000110924,-2.09581,1.57074,1.57172,0.785067,-1.5708,-0.523599,5.76251e-08,-2.0944,1.5708,1.5708,0.785397,0.000514746,-0.000679865,-0.000552679,0.000734116,-0.000128806,0.000420959,-0.000913041,0,0,0,0,0,0,0,-0.454395,-10.0901,-0.456784,20.7972,0.76845,-0.701085,0.135691,-0.433431,-0.989705,-0.0899073,2.29243,0.202535,-0.690019,0.156942
5113526,1,-1.57039,-0.522878,0.000113557,-2.09581,1.57074,1.57172,0.785072,-1.5708,-0.523599,5.76251e-08,-2.0944,1.5708,1.5708,0.785397,-0.000863262,0.00066038,0.000281162,-0.000624213,-0.000289321,-0.000431438,0.00129018,0,0,0,0,0,0,0,-0.402821,-10.1377,-0.484555,20.8448,0.773943,-0.681859,0.0844213,-0.432429,-0.988302,-0.0883896,2.29155,0.202467,-0.690134,0.156962
5113527,1,-1.57039,-0.52288,0.000113785,-2.09582,1.57074,1.57172,0.785068,-1.5708,-0.523599,5.76251e-08,-2.0944,1.5708,1.5708,0.785397,7.41061e-05,-0.000116558,0.000187441,-0.00106576,-0.000192881,-5.02661e-05,-0.000564035,0,0,0,0,0,0,0,-0.430592,-10.1139,-0.484555,20.8725,0.773943,-0.688268,0.122873,-0.431632,-0.988791,-0.0872665,2.29194,0.20246,-0.690241,0.156997
5113528,1,-1.57039,-0.52288,0.000113401,-2.09581,1.57074,1.57172,0.785066,-1.5708,-0.523599,5.76251e-08,-2.0944,1.5708,1.5708,0.785397,0.000606216,-7.77056e-05,0.000681773,0.00105273,7.48635e-05,-3.35107e-05,-0.00112201,0,0,0,0,0,0,0,-0.454395,-10.1139,-0.508359,20.7972,0.76845,-0.688268,0.143015,-0.431549,-0.990163,-0.08726,2.293,0.202518,-0.690246,0.157031
5113529,1,-1.57039,-0.522878,0.000111045,-2.09581,1.57074,1.57172,0.785071,-1.5708,-0.523599,5.76251e-08,-2.0944,1.5708,1.5708,0.785397,0.000960956,0.000505008,-0.000102297,-0.000411801,-0.000153542,0.000452377,0.000947415,0,0,0,0,0,0,0,-0.478199,-10.1377,-0.484555,20.8448,0.773943,-0.701085,0.0972387,-0.432404,-0.990993,-0.0885407,2.29353,0.202598,-0.690106,0.157081
5113530,1,-1.57039,-0.522876,0.000112488,-2.09582,1.57074,1.57172,0.785066,-1.5708,-0.523599,5.76251e-08,-2.0944,1.5708,1.5708,0.785397,-0.0011226,0.000986286,0.000488614,-0.000924148,-0.000102361,6.4226e-05,-0.00106381,0,0,0,0,0,0,0,-0.402821,-10.1654,-0.508359,20.8725,0.773943,-0.694677,0.143015,-0.433386,-0.993296,-0.08995,2.29478,0.202717,-0.689975,0.157159
5113531,1,-1.57038,-0.522878,0.000114542,-2.09581,1.57074,1.57172,0.785073,-1.5708,-0.523599,5.76251e-08,-2.0944,1.5708,1.5708,0.785397,0.000458026,7.91012e-06,0.000325743,0.000590327,0.00033866,4.28173e-05,0.00169829,0,0,0,0,0,0,0,-0.454395,-10.1377,-0.508359,20.821,0.762956,-0.694677,0.0780126,-0.433963,-0.997066,-0.0908272,2.29689,0.202867,-0.689936,0.157259
5113532,1,-1.57038,-0.522878,0.000109477,-2.09581,1.57074,1.57171,0.785071,-1.5708,-0.523599,5.76251e-08,-2.0944,1.5708,1.5708,0.785397,0.000862162,5.27341e-06,-0.000989264,0.00159998,-0.000181127,-0.000446173,0.000420117,0,0,0,0,0,0,0,-0.478199,-10.1377,-0.456784,20.7694,0.773943,-0.681859,0.0972387,-0.434359,-0.998971,-0.0913199,2.2976,0.202957,-0.689919,0.157376
5113533,1,-1.57039,-0.522876,0.000108995,-2.09581,1.57074,1.57172,0.785066,-1.5708,-0.523599,5.76251e-08,-2.0944,1.5708,1.5708,0.785397,-0.000538849,0.00065313,-0.000659509,-0.000696586,8.26989e-05,0.000177269,-0.00141534,0,0,0,0,0,0,0,-0.430592,-10.1654,-0.456784,20.8448,0.76845,-0.694677,0.143015,-0.434195,-0.999047,-0.0907054,2.29691,0.202964,-0.689978,0.157476
5113534,1,-1.57038,-0.522874,0.000112914,-2.09581,1.57074,1.57172,0.785072,-1.5708,-0.523599,5.76251e-08,-2.0944,1.5708,1.5708,0.785397,0.000197579,0.000992232,0.000209941,0.000649233,-0.000351768,0.000118179,0.000989218,0,0,0,0,0,0,0,-0.454395,-10.1892,-0.484555,20.7972,0.779436,-0.694677,0.09083,-0.433428,-1.00025,-0.0890978,2.29682,0.202976,-0.690145,0.157545
5113535,1,-1.57039,-0.522878,0.000109491,-2.09581,1.57075,1.57172,0.785066,-1.5708,-0.523599,5.76251e-08,-2.0944,1.5708,1.5708,0.785397,-0.000425092,-0.000544938,-0.000509653,0.000432822,0.000375839,7.87863e-05,-0.0012733,0,0,0,0,0,0,0,-0.430592,-10.1377,-0.456784,20.7972,0.762956,-0.694677,0.143015,-0.432654,-1.00181,-0.0874805,2.29689,0.203007,-0.690323,0.157604
5113536,1,-1.57039,-0.522874,0.00011113,-2.09581,1.57074,1.57171,0.785069,-1.5708,-0.523599,5.76251e-08,-2.0944,1.5708,1.5708,0.785397,-0.000283395,0.000843134,-0.000339769,-0.000268264,4.7109e-05,-0.000184835,0.000134477,0,0,0,0,0,0,0,-0.430592,-10.1892,-0.456784,20.821,0.76845,-0.688268,0.116465,-0.43177,-1.00235,-0.0856714,2.29645,0.203029,-0.690507,0.157664
5113537,1,-1.57039,-0.522878,0.000113165,-2.09581,1.57074,1.57172,0.785074,-1.5708,-0.523599,5.76251e-08,-2.0944,1.5708,1.5708,0.785397,-0.00018893,-0.000644337,0.000979913,-0.000178843,0.000234857,-0.000123223,0.00175116,0,0,0,0,0,0,0,-0.430592,-10.1377,-0.508359,20.821,0.762956,-0.688268,0.071604,-0.431121,-1.00267,-0.0842528,2.29616,0.20307,-0.690648,0.157739
5113538,1,-1.57039,-0.52288,0.000109018,-2.09581,1.57074,1.57172,0.785067,-1.5708,-0.523599,5.76251e-08,-2.0944,1.5708,1.5708,0.785397,-0.00133238,-0.00098637,-0.00055315,-0.000119228,0.000156571,-0.000319508,-0.00120615,0,0,0,0,0,0,0,-0.379017,-10.1139,-0.456784,20.821,0.762956,-0.681859,0.135691,-0.430847,-1.00151,-0.083532,2.29543,0.203112,-0.6907,0.157818
5113539,1,-1.57039,-0.522876,0.000107172,-2.09581,1.57074,1.57171,0.785072,-1.5708,-0.523599,5.76251e-08,-2.0944,1.5708,1.5708,0.785397,-0.000331441,0.000548846,-0.000925579,-7.94856e-05,-9.90698e-05,-0.000450364,0.00109477,0,0,0,0,0,0,0,-0.402821,-10.1654,-0.432981,20.821,0.76845,-0.67545,0.0844213,-0.429926,-0.99906,-0.0819312,2.29418,0.203104,-0.690805,0.157872
5113540,1,-1.57039,-0.52288,0.000110914,-2.09581,1.57074,1.57172,0.785068,-1.5708,-0.523599,5.76251e-08,-2.0944,1.5708,1.5708,0.785397,0.000428653,-0.000840529,-6.02406e-05,-0.000609802,-0.000676398,0.000174475,-0.000694305,0,0,0,0,0,0,0,-0.430592,-10.1139,-0.456784,20.8448,0.784929,-0.688268,0.122873,-0.428619,-0.99731,-0.0797218,2.29334,0.203079,-0.690941,0.1579
5113541,1,-1.57039,-0.522876,0.000113553,-2.09581,1.57074,1.57172,0.785068,-1.5708,-0.523599,5.76251e-08,-2.0944,1.5708,1.5708,0.785397,0.000842581,0.000646074,0.000609454,-0.000406535,0.000159419,0.000116317,-0.00046287,0,0,0,0,0,0,0,-0.454395,-10.1654,-0.484555,20.8448,0.76845,-0.688268,0.122873,-0.428365,-0.996553,-0.0790375,2.29316,0.203113,-0.690898,0.157907
5113542,1,-1.57039,-0.522881,0.000115454,-2.09581,1.57074,1.57172,0.785072,-1.5708,-0.523599,5.76251e-08,-2.0944,1.5708,1.5708,0.785397,0.000561721,-0.00133252,0.000963114,-0.000271023,0.00010628,-0.000159814,0.00111557,0,0,0,0,0,0,0,-0.454395,-10.0901,-0.508359,20.8448,0.76845,-0.681859,0.0844213,-0.42972,-0.996056,-0.0807663,2.29322,0.203224,-0.690593,0.157905
5113543,1,-1.57039,-0.52288,0.000115531,-2.09581,1.57074,1.57172,0.785069,-1.5708,-0.523599,5.76251e-08,-2.0944,1.5708,1.5708,0.785397,-0.000182332,-0.000331536,0.000642076,-0.00520041,0.000274304,0.000368175,-0.000443079,0,0,0,0,0,0,0,-0.430592,-10.1139,-0.508359,20.821,0.762956,-0.694677,0.116465,-0.43199,-0.996124,-0.0839719,2.29447,0.203425,-0.690136,0.157895
5113544,1,-1.57039,-0.522881,0.000113886,-2.09581,1.57074,1.57172,0.785075,-1.5708,-0.523599,5.76251e-08,-2.0944,1.5708,1.5708,0.785397,-0.000121554,-0.000777836,-0.000128761,-0.00393165,-0.000224032,8.09101e-06,0.00065405,0,0,0,0,0,0,0,-0.430592,-10.0901,-0.484555,20.821,0.773943,-0.688268,0.09083,-0.433913,-0.999138,-0.0868323,2.29907,0.203748,-0.689741,0.157854
5113545,1,-1.57038,-0.522878,0.000113434,-2.09581,1.57074,1.57172,0.78507,-1.5708,-0.523599,5.76251e-08,-2.0944,1.5708,1.5708,0.785397,0.000475776,0.000595067,0.000470971,-0.00352645,0.000257546,5.39401e-06,-0.000513403,0,0,0,0,0,0,0,-0.454395,-10.1377,-0.508359,20.8448,0.762956,-0.688268,0.116465,-0.435143,-1.0054,-0.0887299,2.30637,0.204143,-0.68948,0.157779
5113546,1,-1.57039,-0.522878,0.000113187,-2.09582,1.57074,1.57172,0.785069,-1.5708,-0.523599,5.76251e-08,-2.0944,1.5708,1.5708,0.785397,-0.000239628,0.000396711,-0.000242831,-0.00326198,-0.000235203,0.000240955,-0.000342268,0,0,0,0,0,0,0,-0.430592,-10.1377,-0.484555,20.8725,0.773943,-0.694677,0.116465,-0.435943,-1.0138,-0.0899724,2.31453,0.20454,-0.689322,0.15768
5113547,1,-1.57039,-0.52288,0.000115332,-2.09581,1.57074,1.57171,0.78507,-1.5708,-0.523599,5.76251e-08,-2.0944,1.5708,1.5708,0.785397,0.00039706,-0.000292338,0.000394925,-0.00116428,-0.000360253,0.000160637,0.000246539,0,0,0,0,0,0,0,-0.454395,-10.1139,-0.508359,20.821,0.779436,-0.694677,0.103647,-0.436356,-1.0219,-0.0906067,2.32162,0.204872,-0.689245,0.157577
5113548,1,-1.57039,-0.52288,0.00011382,-2.09581,1.57074,1.57172,0.785069,-1.5708,-0.523599,5.76251e-08,-2.0944,1.5708,1.5708,0.785397,0.000264707,-0.000194892,-0.000293529,-0.00148003,0.000166732,0.000107091,-0.000310359,0,0,0,0,0,0,0,-0.454395,-10.1139,-0.484555,20.8448,0.76845,-0.694677,0.116465,-0.436615,-1.02659,-0.0909261,2.32566,0.205076,-0.689188,0.15749
5113549,1,-1.57038,-0.522878,0.000113872,-2.09581,1.57074,1.57172,0.785074,-1.5708,-0.523599,5.76251e-08,-2.0944,1.5708,1.5708,0.785397,0.000176471,0.000426884,-0.000195686,-0.000540156,0.000111155,7.13941e-05,0.00145461,0,0,0,0,0,0,0,-0.454395,-10.1377,-0.484555,20.821,0.76845,-0.694677,0.071604,-0.436678,-1.02825,-0.0908212,2.3269,0.205164,-0.689164,0.157417
5113550,1,-1.57039,-0.522881,0.00011389,-2.09582,1.57074,1.57172,0.785069,-1.5708,-0.523599,5.76251e-08,-2.0944,1.5708,1.5708,0.785397,0.000117647,-0.000829035,-0.000130457,-0.00164924,7.41033e-05,-0.000427122,-0.000691775,0,0,0,0,0,0,0,-0.454395,-10.0901,-0.484555,20.8725,0.76845,-0.681859,0.116465,-0.436473,-1.02796,-0.0902026,2.32632,0.20517,-0.689192,0.157342
5113551,1,-1.57039,-0.522878,0.000113896,-2.09581,1.57074,1.57171,0.78507,-1.5708,-0.523599,5.76251e-08,-2.0944,1.5708,1.5708,0.785397,-0.00112799,0.000560934,-8.69715e-05,-0.00051191,-0.000154048,-0.000284748,-0.000223824,0,0,0,0,0,0,0,-0.402821,-10.1377,-0.484555,20.8448,0.773943,-0.681859,0.110056,-0.435947,-1.02621,-0.0891032,2.32462,0.205122,-0.689266,0.157245
5113552,1,-1.57039,-0.522878,0.000111767,-2.09581,1.57074,1.57171,0.78507,-1.5708,-0.523599,5.76251e-08,-2.0944,1.5708,1.5708,0.785397,-0.000751996,0.000373956,-5.7981e-05,-0.000387797,0.000100752,4.7527e-05,-0.000149216,0,0,0,0,0,0,0,-0.402821,-10.1377,-0.484555,20.8448,0.76845,-0.688268,0.110056,-0.43484,-1.02433,-0.0872628,2.32246,0.205039,-0.68943,0.15713
5113553,1,-1.57038,-0.522876,0.000113188,-2.09581,1.57074,1.57172,0.785067,-1.5708,-0.523599,5.76251e-08,-2.0944,1.5708,1.5708,0.785397,0.000705095,0.000898918,-3.8654e-05,-0.000293424,6.71678e-05,0.000506403,-0.00104891,0,0,0,0,0,0,0,-0.454395,-10.1654,-0.484555,20.8448,0.76845,-0.701085,0.135691,-0.433663,-1.02319,-0.0853985,2.32021,0.20495,-0.689609,0.157018
5113554,1,-1.57039,-0.52288,0.000111531,-2.09581,1.57074,1.57172,0.785074,-1.5708,-0.523599,5.76251e-08,-2.0944,1.5708,1.5708,0.785397,-8.67486e-05,-0.000607147,-2.57693e-05,-0.000221786,0.000248229,-0.000137116,0.00167431,0,0,0,0,0,0,0,-0.430592,-10.1139,-0.484555,20.8448,0.762956,-0.688268,0.071604,-0.433078,-1.02186,-0.0843739,2.31769,0.204866,-0.689695,0.156925
5113555,1,-1.57039,-0.52288,0.00011478,-2.09581,1.57074,1.57172,0.785068,-1.5708,-0.523599,5.76251e-08,-2.0944,1.5708,1.5708,0.785397,-0.000707446,-0.000404765,0.000539632,0.000389328,-0.000241415,-0.00032877,-0.000782662,0,0,0,0,0,0,0,-0.402821,-10.1139,-0.508359,20.821,0.773943,-0.681859,0.122873,-0.432917,-1.01836,-0.0840205,2.3141,0.204751,-0.689691,0.156857
5113556,1,-1.57039,-0.522878,0.000115306,-2.09581,1.57074,1.57171,0.785067,-1.5708,-0.523599,5.76251e-08,-2.0944,1.5708,1.5708,0.785397,-0.000471631,0.000286969,0.000359755,0.000244831,0.000245958,-0.00021918,-0.000759134,0,0,0,0,0,0,0,-0.402821,-10.1377,-0.508359,20.821,0.762956,-0.681859,0.129282,-0.432894,-1.01315,-0.0840614,2.30963,0.204609,-0.689635,0.156794
5113557,1,-1.57039,-0.522878,0.000111862,-2.09581,1.57074,1.57171,0.78507,-1.5708,-0.523599,5.76251e-08,-2.0944,1.5708,1.5708,0.785397,0.000335193,0.000191312,-0.000966589,-0.000404631,-0.000242929,-0.00014612,0.000443347,0,0,0,0,0,0,0,-0.430592,-10.1377,-0.456784,20.8448,0.773943,-0.681859,0.103647,-0.43273,-1.00866,-0.0839894,2.3056,0.204472,-0.689587,0.156739
5113558,1,-1.57039,-0.522878,0.000111739,-2.09581,1.57074,1.57171,0.785064,-1.5708,-0.523599,5.76251e-08,-2.0944,1.5708,1.5708,0.785397,-0.000426152,0.000127542,5.22109e-06,0.000278778,4.14977e-05,0.000139946,-0.00163722,0,0,0,0,0,0,0,-0.402821,-10.1377,-0.484555,20.821,0.76845,-0.688268,0.155832,-0.432159,-1.00549,-0.0832877,2.30248,0.204347,-0.689588,0.156709
5113559,1,-1.57039,-0.522878,0.00011123,-2.09582,1.57074,1.57171,0.785071,-1.5708,-0.523599,5.76251e-08,-2.0944,1.5708,1.5708,0.785397,0.000922325,8.50278e-05,-0.000646133,-0.00102678,0.000231116,9.32971e-05,0.00107866,0,0,0,0,0,0,0,-0.454395,-10.1377,-0.456784,20.8725,0.762956,-0.688268,0.0972387,-0.431494,-1.00328,-0.08242,2.30019,0.204246,-0.689589,0.156716
5113560,1,-1.57039,-0.522876,0.000115329,-2.09581,1.57074,1.57172,0.78507,-1.5708,-0.523599,5.76251e-08,-2.0944,1.5708,1.5708,0.785397,0.000614883,0.000706299,0.00077567,0.00172367,-0.000252824,6.21981e-05,0.00024439,0,0,0,0,0,0,0,-0.454395,-10.1654,-0.508359,20.7694,0.773943,-0.688268,0.110056,-0.431483,-1.00182,-0.0824645,2.29841,0.204179,-0.689489,0.156774
5113561,1,-1.57039,-0.522878,0.000109739,-2.09581,1.57074,1.57172,0.785071,-1.5708,-0.523599,5.76251e-08,-2.0944,1.5708,1.5708,0.785397,-0.00014689,-0.000178748,-0.000689312,-6.08049e-05,3.49012e-05,0.000278824,0.000637645,0,0,0,0,0,0,0,-0.430592,-10.1377,-0.456784,20.821,0.76845,-0.694677,0.0972387,-0.432048,-1.00031,-0.0833202,2.29633,0.204116,-0.689306,0.156867
5113562,1,-1.57039,-0.522876,0.000109083,-2.09581,1.57074,1.57172,0.785072,-1.5708,-0.523599,5.76251e-08,-2.0944,1.5708,1.5708,0.785397,0.000458885,0.000530449,-0.000459542,-4.31565e-05,-0.000180183,0.000185883,0.000662455,0,0,0,0,0,0,0,-0.454395,-10.1654,-0.456784,20.821,0.773943,-0.694677,0.09083,-0.432267,-0.998871,-0.0836016,2.29431,0.204044,-0.689185,0.156958
5113563,1,-1.57039,-0.522878,0.000112483,-2.09581,1.57074,1.57172,0.785068,-1.5708,-0.523599,5.76251e-08,-2.0944,1.5708,1.5708,0.785397,-0.000900502,-0.000295981,0.000900065,0.00117569,8.33285e-05,-0.000113437,-0.000745158,0,0,0,0,0,0,0,-0.402821,-10.1377,-0.508359,20.7694,0.76845,-0.688268,0.122873,-0.4322,-0.997553,-0.0834499,2.29252,0.203981,-0.68912,0.157023
5113564,1,-1.57039,-0.52288,0.00011241,-2.09581,1.57074,1.57172,0.78507,-1.5708,-0.523599,5.76251e-08,-2.0944,1.5708,1.5708,0.785397,4.92791e-05,-0.000754133,0.000600043,-0.000980918,0.000903263,-0.000312984,0.000215305,0,0,0,0,0,0,0,-0.430592,-10.1139,-0.508359,20.8448,0.745561,-0.681859,0.103647,-0.432507,-0.995172,-0.084008,2.29034,0.203937,-0.688994,0.157054
5113565,1,-1.57039,-0.52288,0.000114516,-2.09581,1.57074,1.57171,0.785067,-1.5708,-0.523599,5.76251e-08,-2.0944,1.5708,1.5708,0.785397,3.28527e-05,-0.000502755,0.000400029,-0.000655051,-4.20848e-05,2.87032e-05,-0.00104326,0,0,0,0,0,0,0,-0.430592,-10.1139,-0.508359,20.8448,0.762956,-0.688268,0.135691,-0.43327,-0.992155,-0.0853782,2.28849,0.203926,-0.688783,0.157061
5113566,1,-1.57039,-0.522876,0.000113548,-2.09581,1.57074,1.57172,0.785072,-1.5708,-0.523599,5.76251e-08,-2.0944,1.5708,1.5708,0.785397,0.000578714,0.000871256,-0.000290126,0.000119282,-2.80565e-05,1.91355e-05,0.000966007,0,0,0,0,0,0,0,-0.454395,-10.1654,-0.484555,20.821,0.762956,-0.688268,0.09083,-0.43413,-0.990412,-0.0868768,2.28772,0.203932,-0.688567,0.157063
5113567,1,-1.57039,-0.52288,0.000113782,-2.09581,1.57074,1.57172,0.78507,-1.5708,-0.523599,5.76251e-08,-2.0944,1.5708,1.5708,0.785397,-0.000171003,-0.000625589,-0.000193417,-0.000477912,-0.000425605,1.2757e-05,0.000169287,0,0,0,0,0,0,0,-0.430592,-10.1139,-0.484555,20.8448,0.773943,-0.688268,0.103647,-0.434629,-0.990285,-0.0877385,2.28772,0.203918,-0.688431,0.157071
5113568,1,-1.57039,-0.522878,0.000111911,-2.09581,1.57074,1.57172,0.785068,-1.5708,-0.523599,5.76251e-08,-2.0944,1.5708,1.5708,0.785397,-0.000114002,0.000139753,-0.000778559,-0.000319074,-8.02864e-05,8.50465e-06,-0.000599219,0,0,0,0,0,0,0,-0.430592,-10.1377,-0.456784,20.8448,0.76845,-0.688268,0.122873,-0.434402,-0.990512,-0.0874423,2.28795,0.203867,-0.688411,0.157072
5113569,1,-1.57039,-0.522881,0.000113426,-2.09581,1.57074,1.57171,0.785072,-1.5708,-0.523599,5.76251e-08,-2.0944,1.5708,1.5708,0.785397,-7.60012e-05,-0.00102046,0.000687387,0.000900558,-0.000460425,0.000480388,0.000787315,0,0,0,0,0,0,0,-0.430592,-10.0901,-0.508359,20.7972,0.779436,-0.701085,0.09083,-0.433769,-0.989708,-0.0865194,2.2876,0.203779,-0.688447,0.157064
5113570,1,-1.57039,-0.522878,0.000113184,-2.09581,1.57074,1.57172,0.785067,-1.5708,-0.523599,5.76251e-08,-2.0944,1.5708,1.5708,0.785397,-0.000700281,0.00043332,-9.85542e-05,4.32978e-05,0.000303401,8.28995e-05,-0.00113664,0,0,0,0,0,0,0,-0.402821,-10.1377,-0.484555,20.821,0.762956,-0.694677,0.135691,-0.433266,-0.987694,-0.0858678,2.28633,0.203676,-0.688465,0.157052
5113571,1,-1.57039,-0.522876,0.000113661,-2.09582,1.57074,1.57172,0.78507,-1.5708,-0.523599,5.76251e-08,-2.0944,1.5708,1.5708,0.785397,-0.00102367,0.000938494,-6.57028e-05,-0.00117776,0.000202268,5.52663e-05,0.000191679,0,0,0,0,0,0,0,-0.379017,-10.1654,-0.484555,20.8725,0.762956,-0.694677,0.110056,-0.432473,-0.987552,-0.0849412,2.28603,0.203616,-0.68856,0.157034
5113572,1,-1.57039,-0.52288,0.000113819,-2.09581,1.57074,1.57171,0.785072,-1.5708,-0.523599,5.76251e-08,-2.0944,1.5708,1.5708,0.785397,0.000523982,-0.000580763,-4.38019e-05,-0.000135705,0.000338296,3.68442e-05,0.000839863,0,0,0,0,0,0,0,-0.430592,-10.1139,-0.484555,20.8448,0.757463,-0.694677,0.09083,-0.431396,-0.990012,-0.0837018,2.28738,0.203613,-0.688735,0.157022
5113573,1,-1.57039,-0.522881,0.000113872,-2.09581,1.57074,1.57172,0.785067,-1.5708,-0.523599,5.76251e-08,-2.0944,1.5708,1.5708,0.785397,0.000906133,-0.000943987,-2.92012e-05,0.00102304,2.20799e-05,2.45628e-05,-0.0011016,0,0,0,0,0,0,0,-0.454395,-10.0901,-0.484555,20.7972,0.762956,-0.694677,0.135691,-0.430953,-0.990714,-0.0833386,2.28787,0.203588,-0.688802,0.157021
5113574,1,-1.57039,-0.52288,0.000110271,-2.09581,1.57074,1.57172,0.785072,-1.5708,-0.523599,5.76251e-08,-2.0944,1.5708,1.5708,0.785397,0.000604089,-7.2513e-05,-0.00122589,0.000125134,-0.000595632,-0.000220984,0.00116447,0,0,0,0,0,0,0,-0.454395,-10.1139,-0.432981,20.821,0.779436,-0.688268,0.0844213,-0.43104,-0.988437,-0.0835392,2.28655,0.203492,-0.688772,0.157026
5113575,1,-1.57039,-0.522878,0.000113896,-2.09582,1.57074,1.57171,0.785067,-1.5708,-0.523599,5.76251e-08,-2.0944,1.5708,1.5708,0.785397,-0.000154086,0.00050847,0.000389164,-0.00112307,0.000654073,-0.000147322,-0.00112256,0,0,0,0,0,0,0,-0.430592,-10.1377,-0.484555,20.8725,0.751055,-0.688268,0.135691,-0.431001,-0.986903,-0.0833904,2.28567,0.203394,-0.688783,0.157031
5113576,1,-1.57039,-0.522876,0.000113898,-2.09581,1.57074,1.57172,0.785067,-1.5708,-0.523599,5.76251e-08,-2.0944,1.5708,1.5708,0.785397,0.000454088,0.000988594,0.000259442,0.00101448,-0.000411662,0.000139144,-0.000511014,0,0,0,0,0,0,0,-0.454395,-10.1654,-0.484555,20.7972,0.773943,-0.694677,0.129282,-0.43116,-0.988318,-0.0835464,2.28642,0.203364,-0.688807,0.157032
5113577,1,-1.57039,-0.52288,0.000113898,-2.09581,1.57074,1.57172,0.785071,-1.5708,-0.523599,5.76251e-08,-2.0944,1.5708,1.5708,0.785397,-0.000903701,-0.000547363,0.000172962,-0.000437338,0.00013246,0.000330122,0.000846119,0,0,0,0,0,0,0,-0.402821,-10.1139,-0.484555,20.8448,0.762956,-0.701085,0.0972387,-0.431569,-0.99074,-0.0841456,2.28751,0.203359,-0.688817,0.157053
5113578,1,-1.57039,-0.522876,0.000113899,-2.09581,1.57074,1.57172,0.785068,-1.5708,-0.523599,5.76251e-08,-2.0944,1.5708,1.5708,0.785397,4.71468e-05,0.000841517,0.000115308,0.000265227,-0.000522045,-1.72779e-05,-0.000385357,0,0,0,0,0,0,0,-0.430592,-10.1654,-0.484555,20.821,0.779436,-0.694677,0.122873,-0.431725,-0.992663,-0.0844508,2.28834,0.203342,-0.688871,0.157102
5113579,1,-1.57039,-0.522878,0.000115569,-2.09581,1.57074,1.57172,0.785072,-1.5708,-0.523599,5.76251e-08,-2.0944,1.5708,1.5708,0.785397,0.000588243,-8.86026e-05,0.000633684,0.000176798,-0.000144579,-1.15186e-05,0.00092989,0,0,0,0,0,0,0,-0.454395,-10.1377,-0.508359,20.821,0.773943,-0.694677,0.09083,-0.432069,-0.994485,-0.0850555,2.28912,0.20334,-0.688909,0.157166
5113580,1,-1.57039,-0.522878,0.00011724,-2.09581,1.57074,1.57172,0.785069,-1.5708,-0.523599,5.76251e-08,-2.0944,1.5708,1.5708,0.785397,-0.00016465,-5.90684e-05,0.000979268,-0.000438961,0.000310515,-0.000482397,-0.000329509,0,0,0,0,0,0,0,-0.430592,-10.1377,-0.532163,20.8448,0.762956,-0.681859,0.116465,-0.433181,-0.995797,-0.0868126,2.2897,0.203374,-0.688833,0.157231
5113581,1,-1.57039,-0.522878,0.00011724,-2.09581,1.57074,1.57172,0.785071,-1.5708,-0.523599,5.76251e-08,-2.0944,1.5708,1.5708,0.785397,0.00100386,-3.93789e-05,0.000652845,-0.000292652,3.55931e-06,-8.4239e-05,0.000492404,0,0,0,0,0,0,0,-0.478199,-10.1377,-0.532163,20.8448,0.76845,-0.688268,0.0972387,-0.434964,-0.996469,-0.0896121,2.29023,0.203448,-0.688645,0.157282
5113582,1,-1.57039,-0.522878,0.000113899,-2.09581,1.57074,1.57172,0.785069,-1.5708,-0.523599,5.76251e-08,-2.0944,1.5708,1.5708,0.785397,-0.000444386,-2.62526e-05,-0.000678394,0.000361702,-0.000201078,0.0001812,-0.000383807,0,0,0,0,0,0,0,-0.430592,-10.1377,-0.484555,20.821,0.773943,-0.694677,0.116465,-0.436558,-0.99673,-0.0920849,2.29062,0.203516,-0.688475,0.157311
5113583,1,-1.57038,-0.522878,0.000113899,-2.09581,1.57074,1.57172,0.785069,-1.5708,-0.523599,5.76251e-08,-2.0944,1.5708,1.5708,0.785397,0.000817367,-1.75017e-05,-0.000452263,0.000797941,-0.000134052,0.000358159,-0.000255872,0,0,0,0,0,0,0,-0.478199,-10.1377,-0.484555,20.7972,0.773943,-0.701085,0.116465,-0.437044,-0.996187,-0.0927603,2.29029,0.203518,-0.688465,0.157321
5113584,1,-1.57039,-0.522878,0.000115569,-2.09581,1.57074,1.57172,0.785073,-1.5708,-0.523599,5.76251e-08,-2.0944,1.5708,1.5708,0.785397,-0.00121833,-1.16678e-05,0.000255304,-0.000581668,-8.93678e-05,-0.000235945,0.00125357,0,0,0,0,0,0,0,-0.402821,-10.1377,-0.508359,20.8448,0.773943,-0.688268,0.0780126,-0.436648,-0.995244,-0.0920518,2.28955,0.203481,-0.688593,0.157321
5113585,1,-1.57039,-0.522878,0.00011195,-2.09581,1.57074,1.57172,0.785067,-1.5708,-0.523599,5.76251e-08,-2.0944,1.5708,1.5708,0.785397,-0.000812218,-7.77855e-06,-0.00103622,-0.000387782,0.000143872,-0.000157297,-0.00106316,0,0,0,0,0,0,0,-0.402821,-10.1377,-0.456784,20.8448,0.76845,-0.688268,0.129282,-0.435391,-0.994935,-0.0901609,2.28937,0.203455,-0.688857,0.157303
5113586,1,-1.57039,-0.522881,0.000111768,-2.09581,1.57074,1.57172,0.785073,-1.5708,-0.523599,5.76251e-08,-2.0944,1.5708,1.5708,0.785397,0.000108135,-0.00111881,-4.12017e-05,0.0008551,-0.000107536,0.000132494,0.0011901,0,0,0,0,0,0,0,-0.430592,-10.0901,-0.484555,20.7972,0.773943,-0.694677,0.0780126,-0.433421,-0.994052,-0.0872652,2.28903,0.203414,-0.68921,0.157261
5113587,1,-1.57039,-0.52288,0.000112728,-2.09581,1.57074,1.57172,0.785067,-1.5708,-0.523599,5.76251e-08,-2.0944,1.5708,1.5708,0.785397,7.20903e-05,-0.000189061,0.000529344,0.00121968,-7.16906e-05,-0.000149029,-0.00134283,0,0,0,0,0,0,0,-0.430592,-10.1139,-0.508359,20.7694,0.773943,-0.688268,0.135691,-0.432028,-0.990798,-0.0852205,2.28715,0.203349,-0.689443,0.157203
5113588,1,-1.57039,-0.52288,0.000107662,-2.09581,1.57074,1.57172,0.785065,-1.5708,-0.523599,5.76251e-08,-2.0944,1.5708,1.5708,0.785397,-0.000601554,-0.000126041,-0.00196715,-0.000393308,0.000359107,0.000138006,-0.00140385,0,0,0,0,0,0,0,-0.402821,-10.1139,-0.409177,20.821,0.762956,-0.694677,0.149424,-0.43097,-0.986973,-0.0836565,2.28468,0.203284,-0.68961,0.157132
5113589,1,-1.57039,-0.52288,0.000111453,-2.09581,1.57074,1.57172,0.785072,-1.5708,-0.523599,5.76251e-08,-2.0944,1.5708,1.5708,0.785397,0.000248578,-8.40272e-05,0.000451802,-0.000819019,3.59544e-05,9.2004e-05,0.0014716,0,0,0,0,0,0,0,-0.430592,-10.1139,-0.484555,20.8448,0.76845,-0.694677,0.0844213,-0.429445,-0.985144,-0.0813483,2.28351,0.203257,-0.689857,0.157076
5113590,1,-1.57038,-0.522876,0.000111134,-2.09581,1.57074,1.57172,0.785067,-1.5708,-0.523599,5.76251e-08,-2.0944,1.5708,1.5708,0.785397,0.000722531,0.00115041,-0.000348413,1.07987e-05,-0.000586382,-0.000176023,-0.000917805,0,0,0,0,0,0,0,-0.454395,-10.1654,-0.456784,20.821,0.784929,-0.688268,0.135691,-0.428526,-0.986205,-0.0799143,2.28421,0.203319,-0.690038,0.157062
5113591,1,-1.57038,-0.52288,0.000115297,-2.09582,1.57074,1.57172,0.785072,-1.5708,-0.523599,5.76251e-08,-2.0944,1.5708,1.5708,0.785397,0.000481687,-0.000439487,0.000974151,-0.00119923,1.59797e-05,0.000357369,0.001287,0,0,0,0,0,0,0,-0.454395,-10.1139,-0.508359,20.8725,0.773943,-0.701085,0.0844213,-0.42897,-0.989504,-0.0804908,2.28625,0.203481,-0.690042,0.157079
5113592,1,-1.57039,-0.522878,0.000111678,-2.09582,1.57074,1.57171,0.78507,-1.5708,-0.523599,5.76251e-08,-2.0944,1.5708,1.5708,0.785397,-0.000235687,0.00026382,9.26219e-05,-0.000799485,0.000214104,8.8723e-07,0.000145924,0,0,0,0,0,0,0,-0.430592,-10.1377,-0.484555,20.8725,0.76845,-0.694677,0.103647,-0.430259,-0.993243,-0.0823604,2.28887,0.20371,-0.689928,0.157109
5113593,1,-1.57039,-0.522876,0.000114829,-2.09582,1.57074,1.57172,0.785064,-1.5708,-0.523599,5.76251e-08,-2.0944,1.5708,1.5708,0.785397,0.000399687,0.000825494,0.00061856,-0.000532991,-6.07147e-05,-0.000236767,-0.0018355,0,0,0,0,0,0,0,-0.454395,-10.1654,-0.508359,20.8725,0.773943,-0.688268,0.155832,-0.431745,-0.997312,-0.0845704,2.29186,0.203972,-0.689795,0.15713
5113594,1,-1.57039,-0.522883,0.000115322,-2.09581,1.57074,1.57172,0.785072,-1.5708,-0.523599,5.76251e-08,-2.0944,1.5708,1.5708,0.785397,-0.000290354,-0.00186252,0.000412373,0.000294287,-0.000243927,0.000316873,0.00118383,0,0,0,0,0,0,0,-0.430592,-10.0623,-0.508359,20.8448,0.779436,-0.701085,0.09083,-0.433229,-0.99998,-0.0867918,2.294,0.204207,-0.689657,0.157151
5113595,1,-1.57038,-0.522876,0.000109737,-2.09581,1.57074,1.57171,0.785068,-1.5708,-0.523599,5.76251e-08,-2.0944,1.5708,1.5708,0.785397,0.000920055,0.00117117,-0.00093151,0.000753003,0.000447734,-0.000263469,-0.000397573,0,0,0,0,0,0,0,-0.478199,-10.1654,-0.456784,20.821,0.762956,-0.688268,0.122873,-0.434383,-0.999438,-0.0884244,2.29414,0.204352,-0.689544,0.157199
5113596,1,-1.57039,-0.522876,0.000114832,-2.09581,1.57074,1.57171,0.78507,-1.5708,-0.523599,5.76251e-08,-2.0944,1.5708,1.5708,0.785397,-0.00170668,0.00078078,0.000585419,-5.48102e-05,0.000739298,-0.000650364,0.000209669,0,0,0,0,0,0,0,-0.379017,-10.1654,-0.508359,20.8448,0.751055,-0.67545,0.110056,-0.434709,-0.999198,-0.0887164,2.29388,0.204437,-0.689568,0.157263
5113597,1,-1.57038,-0.522878,0.000113653,-2.09581,1.57074,1.57171,0.785072,-1.5708,-0.523599,5.76251e-08,-2.0944,1.5708,1.5708,0.785397,0.00118226,-0.000129094,-0.000166533,0.000520272,-0.000354845,-0.000196217,0.00108922,0,0,0,0,0,0,0,-0.478199,-10.1377,-0.484555,20.821,0.773943,-0.681859,0.0844213,-0.434589,-1.00042,-0.0883864,2.29412,0.204504,-0.689665,0.157332
5113598,1,-1.57039,-0.52288,0.000117158,-2.09581,1.57074,1.57171,0.785067,-1.5708,-0.523599,5.76251e-08,-2.0944,1.5708,1.5708,0.785397,0.000231363,-0.000642875,0.0010026,0.000346848,-3.31127e-05,-0.00036817,-0.00117273,0,0,0,0,0,0,0,-0.454395,-10.1139,-0.532163,20.821,0.76845,-0.67545,0.135691,-0.435076,-1.00017,-0.0889523,2.29362,0.20454,-0.689629,0.157396
5113599,1,-1.57039,-0.522878,0.000113871,-2.09582,1.57074,1.57172,0.785072,-1.5708,-0.523599,5.76251e-08,-2.0944,1.5708,1.5708,0.785397,0.000154242,0.000128229,-0.000445222,-0.00153201,-0.000225526,0.00046663,0.00111705,0,0,0,0,0,0,0,-0.454395,-10.1377,-0.484555,20.8963,0.773943,-0.694677,0.0844213,-0.436106,-0.998783,-0.0903031,2.29293,0.204573,-0.689467,0.15744
5113600,1,-1.57039,-0.522878,0.000111941,-2.09581,1.57074,1.57172,0.78507,-1.5708,-0.523599,5.76251e-08,-2.0944,1.5708,1.5708,0.785397,0.000102828,8.5486e-05,-0.000946429,0.000185088,5.31001e-05,7.37277e-05,-0.000204734,0,0,0,0,0,0,0,-0.454395,-10.1377,-0.456784,20.8448,0.76845,-0.688268,0.110056,-0.436459,-0.998478,-0.0905877,2.29329,0.204611,-0.689394,0.157461
5113601,1,-1.57039,-0.522876,0.000115566,-2.09581,1.57074,1.57172,0.78507,-1.5708,-0.523599,5.76251e-08,-2.0944,1.5708,1.5708,0.785397,-0.00048826,0.000706605,0.000575473,0.000123392,-0.00016805,0.000286511,-0.000136489,0,0,0,0,0,0,0,-0.430592,-10.1654,-0.508359,20.8448,0.773943,-0.694677,0.110056,-0.43599,-0.999325,-0.0895765,2.29422,0.204631,-0.689449,0.157457
5113602,1,-1.57039,-0.522876,0.000108148,-2.09582,1.57074,1.57172,0.785074,-1.5708,-0.523599,5.76251e-08,-2.0944,1.5708,1.5708,0.785397,-0.00097512,0.00047107,-0.00137959,-0.00112416,9.14169e-05,0.000191007,0.00133316,0,0,0,0,0,0,0,-0.402821,-10.1654,-0.432981,20.8963,0.76845,-0.694677,0.071604,-0.434895,-1.00142,-0.0876877,2.29565,0.204649,-0.689614,0.157426
5113603,1,-1.57039,-0.522874,0.000112728,-2.09581,1.57074,1.57172,0.785069,-1.5708,-0.523599,5.76251e-08,-2.0944,1.5708,1.5708,0.785397,-4.66381e-07,0.000870858,0.000843512,0.000456983,0.000467846,0.000364697,-0.000772739,0,0,0,0,0,0,0,-0.430592,-10.1892,-0.508359,20.8448,0.757463,-0.701085,0.116465,-0.433329,-1.00488,-0.0851724,2.29783,0.204677,-0.689867,0.157361
5113604,1,-1.57039,-0.522881,0.000114622,-2.09582,1.57074,1.57172,0.785072,-1.5708,-0.523599,5.76251e-08,-2.0944,1.5708,1.5708,0.785397,-3.10921e-07,-0.00173948,0.000562341,0.000304655,0.000549256,0.00048049,0.000434277,0,0,0,0,0,0,0,-0.430592,-10.0901,-0.508359,20.8448,0.751055,-0.707494,0.09083,-0.43255,-1.0066,-0.0839118,2.29899,0.204693,-0.689993,0.157257
5113605,1,-1.57039,-0.522878,0.000113583,-2.09581,1.57074,1.57172,0.785066,-1.5708,-0.523599,5.76251e-08,-2.0944,1.5708,1.5708,0.785397,0.000556605,-4.60278e-05,-0.000181918,0.000203104,-0.00048154,-0.000629109,-0.00164326,0,0,0,0,0,0,0,-0.454395,-10.1377,-0.484555,20.8448,0.773943,-0.681859,0.143015,-0.4329,-1.00433,-0.0843665,2.29805,0.204654,-0.689922,0.157125
5113606,1,-1.57039,-0.522876,0.000111845,-2.09581,1.57074,1.57172,0.78507,-1.5708,-0.523599,5.76251e-08,-2.0944,1.5708,1.5708,0.785397,-0.000185742,0.000618929,-0.000770892,0.000692214,-0.000117576,-0.000182047,0.000362554,0,0,0,0,0,0,0,-0.430592,-10.1654,-0.456784,20.821,0.76845,-0.688268,0.103647,-0.433321,-1.00116,-0.0848287,2.2965,0.204562,-0.689847,0.156986
5113607,1,-1.57039,-0.522878,0.000115534,-2.09581,1.57074,1.57172,0.785069,-1.57079,-0.523597,2.16952e-06,-2.09439,1.5708,1.5708,0.785398,-0.000773442,-0.000236995,0.000692498,-9.53358e-05,-7.8384e-05,0.000353353,-0.000233015,0.00362557,0.001875,0.00211189,0.0026176,0.00132141,0.005,0.000469724,-0.402821,-10.1377,-0.508359,20.8448,0.76845,-0.701085,0.116465,-0.433267,-0.999434,-0.0845839,2.29548,0.204454,-0.689872,0.156867
5113608,1,-1.57039,-0.52288,0.000115557,-2.09581,1.57074,1.57172,0.785065,-1.57079,-0.523593,6.39331e-06,-2.09439,1.5708,1.57081,0.785399,0.000133986,-0.000714808,0.000461665,-6.35572e-05,0.000151195,-1.79013e-06,-0.00137605,0.00725114,0.00375,0.00422379,0.00523521,0.00264281,0.01,0.000939449,-0.430592,-10.1139,-0.508359,20.8448,0.762956,-0.694677,0.149424,-0.433284,-0.997811,-0.084627,2.29466,0.204364,-0.689889,0.156779
5113609,1,-1.57039,-0.522878,0.000113895,-2.09581,1.57074,1.57172,0.785072,-1.57077,-0.523587,1.2729e-05,-2.09438,1.5708,1.57083,0.7854,8.93239e-05,8.0273e-05,-0.000249035,-4.23715e-05,-0.000306105,-0.000238552,0.00125277,0.0108767,0.005625,0.00633568,0.00785281,0.00396422,0.015,0.00140917,-0.430592,-10.1377,-0.484555,20.8448,0.773943,-0.688268,0.09083,-0.433681,-0.995794,-0.0853464,2.29391,0.204295,-0.689843,0.156733
5113610,1,-1.57039,-0.522879,0.000112022,-2.09581,1.57074,1.57172,0.785065,-1.57076,-0.52358,2.11766e-05,-2.09437,1.57081,1.57085,0.785402,0.00147931,0.00145575,0.00192414,-0.000677862,0.000406282,7.8324e-05,-0.00133496,0.0145023,0.0075,0.00844758,0.0104704,0.00528562,0.02,0.0018789,-0.355213,-10.0623,-0.306028,20.8725,0.757463,-0.694677,0.149424,-0.434892,-0.995868,-0.0872908,2.29435,0.204293,-0.689703,0.156739
5113611,1,-1.57039,-0.522883,0.000112282,-2.09581,1.57074,1.57172,0.78507,-1.57074,-0.523571,3.1736e-05,-2.09436,1.57082,1.57087,0.785404,0.000922922,-0.000343073,0.00235469,0.00277009,0.000508213,-0.000422502,0.000568091,0.0181279,0.009375,0.0105595,0.013088,0.00660703,0.025,0.00234862,-0.0775034,-9.85995,0.0748318,20.9955,0.751055,-0.681859,0.110056,-0.438062,-0.997624,-0.0922082,2.2953,0.204376,-0.68929,0.156795
5113612,1,-1.57039,-0.522883,0.000126788,-2.09582,1.57074,1.57171,0.785069,-1.57072,-0.523559,4.44074e-05,-2.09434,1.57082,1.5709,0.785407,-0.00299562,-0.00132033,0.00642678,0.00104201,0.000338809,-0.0012311,0.000141369,0.0217534,0.01125,0.0126714,0.0157056,0.00792843,0.03,0.00281835,0.378734,-9.65762,0.451724,21.1701,0.751055,-0.656224,0.116465,-0.443111,-0.995794,-0.100391,2.29391,0.204454,-0.688511,0.156911
5113613,1,-1.57039,-0.522882,0.000138431,-2.09581,1.57074,1.57172,0.785067,-1.57069,-0.523546,5.91907e-05,-2.09432,1.57083,1.57094,0.78541,-0.00529909,-0.00190537,0.00751032,0.00348616,0.000632774,-0.000108659,-0.000617831,0.025379,0.013125,0.0147833,0.0183232,0.00924984,0.035,0.00328807,0.831005,-9.45529,0.935733,21.2177,0.740068,-0.67545,0.135691,-0.448496,-0.987325,-0.110405,2.28932,0.204478,-0.687441,0.157079
5113614,1,-1.57039,-0.52287,0.000161274,-2.0958,1.57075,1.57172,0.785069,-1.57067,-0.523531,7.60858e-05,-2.0943,1.57084,1.57098,0.785414,-0.00283097,0.00146684,0.0112491,0.00490537,0.00082875,-7.24393e-05,0.000300189,0.0290046,0.015,0.0168952,0.0209408,0.0105712,0.04,0.00375779,1.25947,-9.40768,1.31262,21.2693,0.729082,-0.67545,0.116465,-0.45367,-0.974375,-0.121928,2.28275,0.204483,-0.686047,0.157288
5113615,1,-1.57039,-0.522859,0.000192487,-2.09579,1.57075,1.57172,0.785068,-1.57063,-0.523514,9.50929e-05,-2.09428,1.57086,1.57102,0.785418,-0.000748911,0.00308311,0.0157661,0.00687219,0.0005525,0.00370295,-3.72326e-05,0.0326301,0.016875,0.0190071,0.0235584,0.0118926,0.045,0.00422752,1.68794,-9.32834,1.61811,21.2693,0.729082,-0.649816,0.122873,-0.460759,-0.96245,-0.138231,2.27653,0.204613,-0.683964,0.157543
5113616,1,-1.57038,-0.522852,0.000213137,-2.09579,1.57074,1.57172,0.785067,-1.5706,-0.523496,0.000116212,-2.09425,1.57087,1.57107,0.785423,0.00155678,0.00314524,0.0142871,0.00503979,-0.00108973,0.00404715,-0.000262181,0.0362557,0.01875,0.0211189,0.026176,0.0132141,0.05,0.00469724,2.0926,-9.20535,1.99897,21.416,0.76845,-0.681859,0.129282,-0.470417,-0.954825,-0.160367,2.27292,0.204973,-0.681011,0.157835
5113617,1,-1.57038,-0.522843,0.00023824,-2.09578,1.57074,1.57173,0.78507,-1.57055,-0.523473,0.000141239,-2.09422,1.57088,1.57113,0.785428,0.00377295,0.00374989,0.0139088,0.00602212,-0.00133684,0.00441605,0.000774649,0.0429127,0.0225,0.0250268,0.0308254,0.0153369,0.06,0.0053676,2.46949,-9.1022,2.35205,21.4676,0.784929,-0.720311,0.103647,-0.479339,-0.95096,-0.183286,2.27298,0.205501,-0.677506,0.158148
5113618,1,-1.57036,-0.522836,0.000264745,-2.09578,1.57074,1.57174,0.785069,-1.5705,-0.523447,0.000170173,-2.09418,1.5709,1.5712,0.785435,0.00545764,0.00307887,0.0191639,0.00622462,-0.000891225,0.0024523,4.17145e-05,0.0495696,0.02625,0.0289346,0.0354747,0.0174597,0.07,0.00603795,2.7234,-8.95145,2.60596,21.543,0.784929,-0.701085,0.116465,-0.485661,-0.948242,-0.204474,2.27616,0.206162,-0.673552,0.158473
5113619,1,-1.57034,-0.522825,0.000293018,-2.09577,1.57074,1.57175,0.78508,-1.57045,-0.523417,0.000203016,-2.09414,1.57092,1.57128,0.785441,0.00939739,0.00433395,0.0209392,0.00976077,-0.00059415,0.00615503,0.00263876,0.0562265,0.03,0.0328424,0.040124,0.0195825,0.08,0.00670831,2.85035,-8.87607,2.80829,21.6144,0.784929,-0.688268,0.0459692,-0.490669,-0.94318,-0.22649,2.28045,0.207006,-0.668868,0.158798
5113620,1,-1.57032,-0.522816,0.000320287,-2.09575,1.57074,1.57176,0.785072,-1.57039,-0.523383,0.000239766,-2.0941,1.57094,1.57137,0.785449,0.0151278,0.0054226,0.0251805,0.0117588,-0.000633459,0.00743714,-0.00108914,0.0628834,0.03375,0.0367502,0.0447734,0.0217053,0.09,0.00737866,3.10029,-8.67374,3.13758,21.6898,0.791338,-0.636998,0.122873,-0.49614,-0.934253,-0.252049,2.28415,0.20807,-0.663209,0.159092
5113621,1,-1.5703,-0.522801,0.000349803,-2.09574,1.57075,1.57176,0.785073,-1.57032,-0.523346,0.000280424,-2.09405,1.57097,1.57147,0.785457,0.0204456,0.0114524,0.0319592,0.009983,-0.000184947,0.0113334,-0.000488731,0.0695404,0.0375,0.040658,0.0494227,0.0238282,0.1,0.00804902,3.45338,-8.41983,3.59381,21.789,0.784929,-0.533544,0.116465,-0.504893,-0.927145,-0.285172,2.29,0.20957,-0.65625,0.159317
5113622,1,-1.57027,-0.522783,0.000388401,-2.09572,1.57075,1.57177,0.785073,-1.57024,-0.523304,0.00032499,-2.094,1.57099,1.57158,0.785465,0.0251879,0.0119718,0.0325075,0.0107323,0.000283603,0.0129234,-0.00056318,0.0761973,0.04125,0.0445658,0.054072,0.025951,0.11,0.00871937,3.90962,-8.11832,4.12543,21.9159,0.773943,-0.386144,0.122873,-0.51821,-0.930203,-0.327605,2.30323,0.211746,-0.647829,0.159475
5113623,1,-1.57023,-0.522756,0.000428631,-2.0957,1.57075,1.57178,0.785071,-1.57016,-0.523259,0.000373463,-2.09394,1.57102,1.5717,0.785475,0.0298175,0.0169005,0.0314816,0.0157478,0.0050455,0.0115448,-0.000850171,0.0828542,0.045,0.0484736,0.0587214,0.0280738,0.12,0.00938972,4.33809,-7.86441,4.73242,21.9873,0.76845,-0.289098,0.135691,-0.532352,-0.943545,-0.373018,2.3237,0.214394,-0.638255,0.159601
5113624,1,-1.57018,-0.522723,0.000475816,-2.09568,1.57076,1.57181,0.785077,-1.57007,-0.523211,0.000425845,-2.09387,1.57105,1.57183,0.785485,0.0356575,0.02115,0.0340958,0.0151492,0.00480257,0.011322,0.00133209,0.0895112,0.04875,0.0523814,0.0633707,0.0301966,0.13,0.0100601,4.66737,-7.63828,5.21247,22.1381,0.740068,-0.212194,0.0844213,-0.543134,-0.966111,-0.414345,2.3499,0.217216,-0.627756,0.159723
5113625,1,-1.57013,-0.522678,0.000520401,-2.09564,1.57077,1.57183,0.785073,-1.56997,-0.523158,0.000482134,-2.09381,1.57108,1.57197,0.785496,0.042508,0.0307224,0.0352012,0.0193391,0.00995143,0.0157775,-0.000536093,0.0961681,0.0525,0.0562892,0.06802,0.0323194,0.14,0.0107304,5.02046,-7.55893,5.72028,22.1897,0.695207,-0.134374,0.122873,-0.549541,-1.00364,-0.449693,2.38445,0.220207,-0.616219,0.159846
5113626,1,-1.57006,-0.522643,0.000571546,-2.09561,1.57077,1.57188,0.785078,-1.56987,-0.523102,0.000542331,-2.09373,1.57112,1.57212,0.785507,0.0534573,0.0307673,0.0418934,0.021767,0.0115147,0.0264715,0.000354681,0.102825,0.05625,0.0601971,0.0726694,0.0344423,0.15,0.0114008,5.24659,-7.30899,6.10114,22.3127,0.706194,-0.127965,0.103647,-0.553583,-1.05743,-0.481779,2.42773,0.223403,-0.603221,0.159951
5113627,1,-1.56999,-0.522596,0.000618569,-2.09557,1.57077,1.57194,0.785076,-1.56976,-0.52304,0.000608068,-2.09365,1.57116,1.57229,0.785519,0.0617752,0.0337816,0.0429349,0.0277994,0.00686746,0.0345816,-0.000712981,0.112121,0.061875,0.0657371,0.0789214,0.0370416,0.164713,0.0120549,5.47273,-7.18204,6.5296,22.388,0.751055,-0.134374,0.129282,-0.558278,-1.11653,-0.514797,2.47407,0.226692,-0.588199,0.160052
5113628,1,-1.56991,-0.522558,0.00067712,-2.09553,1.57078,1.57201,0.785067,-1.56963,-0.522972,0.000679345,-2.09357,1.5712,1.57247,0.785532,0.0690248,0.0361261,0.0482216,0.0295551,0.00851936,0.0461707,-0.0048156,0.121417,0.0675,0.0712771,0.0851734,0.039641,0.179425,0.012709,5.65126,-6.92813,6.75971,22.5348,0.791338,-0.172826,0.24647,-0.563799,-1.17048,-0.548836,2.51846,0.229962,-0.571118,0.160178
5113629,1,-1.56982,-0.522514,0.000723653,-2.09548,1.57078,1.57209,0.785067,-1.5695,-0.522899,0.000756162,-2.09348,1.57124,1.57266,0.785545,0.0726324,0.0398834,0.049546,0.0335162,0.00489708,0.0600626,-0.00344776,0.130713,0.073125,0.0768171,0.0914254,0.0422403,0.194138,0.0133631,5.75044,-6.75357,7.08899,22.6102,0.836199,-0.218602,0.252878,-0.567322,-1.21705,-0.579964,2.56042,0.233219,-0.552594,0.160394
5113630,1,-1.56972,-0.522466,0.000781102,-2.09543,1.57078,1.57219,0.785056,-1.56936,-0.522821,0.000838519,-2.09338,1.57128,1.57287,0.785559,0.0833701,0.0408148,0.0509783,0.0394055,0.00287282,0.0739782,-0.00613016,0.140009,0.07875,0.0823571,0.0976775,0.0448397,0.208851,0.0140172,5.77424,-6.49966,7.39051,22.634,0.86458,-0.237828,0.356333,-0.565611,-1.254,-0.603309,2.59908,0.236457,-0.533425,0.160841
5113631,1,-1.56962,-0.522414,0.000851913,-2.09537,1.57079,1.57229,0.785056,-1.56921,-0.522736,0.000926416,-2.09328,1.57133,1.57309,0.785574,0.0938964,0.0429451,0.0613926,0.0457083,0.00769603,0.0862787,-0.00432413,0.149305,0.084375,0.0878971,0.103929,0.047439,0.223564,0.0146713,5.95277,-6.17038,7.69599,22.634,0.847185,-0.179235,0.362742,-0.560943,-1.27549,-0.621546,2.63089,0.239719,-0.513586,0.161691
5113632,1,-1.56951,-0.522354,0.000925033,-2.09531,1.5708,1.57242,0.785061,-1.56906,-0.522646,0.00101985,-2.09317,1.57138,1.57333,0.785589,0.09921,0.0503466,0.0662161,0.0496543,0.0111938,0.100447,-0.00118733,0.158601,0.09,0.0934371,0.110182,0.0500384,0.238276,0.0153254,6.23048,-5.81729,8.12445,22.6618,0.830705,-0.121556,0.316965,-0.558467,-1.28241,-0.642125,2.65584,0.243216,-0.492611,0.163093
5113633,1,-1.56939,-0.522281,0.000996873,-2.09524,1.57081,1.57257,0.785057,-1.56889,-0.522551,0.00111883,-2.09305,1.57143,1.57358,0.785605,0.105684,0.0580436,0.0667463,0.0564271,0.0129027,0.117618,-0.00201226,0.167897,0.095625,0.0989771,0.116434,0.0526377,0.252989,0.0159795,6.55976,-5.53958,8.68384,22.5864,0.836199,-0.108739,0.349924,-0.556305,-1.28606,-0.662251,2.67911,0.247041,-0.471077,0.165097
5113634,1,-1.56925,-0.522199,0.00107098,-2.09517,1.57082,1.57273,0.785067,-1.56871,-0.522449,0.00122335,-2.09293,1.57149,1.57385,0.785622,0.115473,0.065633,0.0691052,0.0605611,0.0153569,0.137643,0.00177807,0.177193,0.10125,0.104517,0.122686,0.0552371,0.267702,0.0166336,6.8097,-5.33725,9.18769,22.6102,0.81331,-0.166417,0.265696,-0.549183,-1.29693,-0.673478,2.70544,0.251125,-0.449996,0.16765
5113635,1,-1.5691,-0.522112,0.00115596,-2.09508,1.57085,1.57292,0.785076,-1.56852,-0.522342,0.0013334,-2.0928,1.57155,1.57413,0.785639,0.127502,0.0736093,0.072638,0.066067,0.022406,0.157272,0.00311816,0.186489,0.106875,0.110057,0.128938,0.0578365,0.282414,0.0172877,7.01204,-5.10715,9.62012,22.5864,0.773943,-0.237828,0.213511,-0.536212,-1.32051,-0.673618,2.73759,0.255455,-0.429659,0.170645
5113636,1,-1.56894,-0.522022,0.00123908,-2.09499,1.57087,1.57313,0.785082,-1.56833,-0.52223,0.001449,-2.09266,1.57161,1.57443,0.785657,0.137054,0.0765711,0.0780317,0.0733901,0.0221593,0.174098,0.00737759,0.195785,0.1125,0.115597,0.13519,0.0604358,0.297127,0.0179418,7.1866,-4.88101,10.0764,22.511,0.751055,-0.359594,0.194285,-0.519881,-1.35414,-0.665817,2.77439,0.259987,-0.40979,0.173917
5113637,1,-1.56877,-0.521922,0.001333,-2.09491,1.57089,1.57337,0.785091,-1.56812,-0.52211,0.00157111,-2.09252,1.57167,1.57474,0.785676,0.1476,0.083367,0.0855416,0.0802176,0.0242322,0.195707,0.00577534,0.206769,0.11999,0.122108,0.142525,0.0633007,0.314169,0.0185865,7.31355,-4.73026,10.3779,22.634,0.791338,-0.475866,0.181467,-0.50321,-1.38901,-0.654629,2.81128,0.264607,-0.390044,0.17728
5113638,1,-1.5686,-0.521836,0.00143237,-2.09481,1.57092,1.57361,0.785088,-1.5679,-0.521983,0.00169973,-2.09237,1.57174,1.57508,0.785695,0.157136,0.0842974,0.0885685,0.0844906,0.0269521,0.21234,0.00101732,0.217754,0.12748,0.128619,0.14986,0.0661656,0.33121,0.0192312,7.51588,-4.40097,10.6318,22.7094,0.807817,-0.475866,0.265696,-0.487712,-1.41782,-0.642451,2.84515,0.269236,-0.370402,0.180585
5113639,1,-1.56842,-0.521733,0.00153032,-2.09471,1.57095,1.57386,0.785088,-1.56768,-0.521848,0.00183486,-2.09221,1.5718,1.57542,0.785715,0.164602,0.0918803,0.0939472,0.0890317,0.0281775,0.228151,-0.00175164,0.228738,0.13497,0.13513,0.157195,0.0690305,0.348251,0.019876,7.71821,-4.22244,10.8857,22.8363,0.847185,-0.431005,0.337107,-0.472098,-1.43742,-0.627392,2.87591,0.273833,-0.351252,0.18376
5113640,1,-1.56821,-0.521627,0.00162676,-2.09458,1.57098,1.57415,0.78509,-1.56744,-0.521705,0.0019765,-2.09205,1.57188,1.57579,0.785735,0.176609,0.095733,0.0929656,0.101992,0.033886,0.244538,-0.00436344,0.239723,0.14246,0.141642,0.16453,0.0718954,0.365293,0.0205207,7.76979,-3.9725,11.215,22.6856,0.887468,-0.392553,0.427744,-0.453677,-1.44695,-0.605289,2.90286,0.278281,-0.333072,0.18687
5113641,1,-1.56801,-0.521519,0.00172751,-2.09446,1.57102,1.57444,0.785091,-1.56718,-0.521555,0.00212465,-2.09188,1.57195,1.57617,0.785756,0.187284,0.101981,0.094248,0.109195,0.0344792,0.269313,-0.00614495,0.250707,0.14995,0.148153,0.171865,0.0747604,0.382334,0.0211655,7.89674,-3.59164,11.5919,22.634,0.903948,-0.333959,0.518381,-0.429631,-1.44364,-0.571245,2.92249,0.282362,-0.316274,0.190086
5113642,1,-1.5678,-0.521396,0.00182755,-2.09432,1.57106,1.57477,0.785098,-1.56692,-0.521398,0.00227932,-2.0917,1.57203,1.57657,0.785778,0.197247,0.109801,0.0928847,0.116672,0.0359786,0.287584,-0.00400593,0.261692,0.15744,0.154664,0.179201,0.0776253,0.399375,0.0218102,8.17048,-3.21475,12.0759,22.4872,0.892961,-0.340367,0.518381,-0.397317,-1.42973,-0.520745,2.93526,0.286071,-0.301253,0.193628
5113643,1,-1.56757,-0.521259,0.00193821,-2.09418,1.57111,1.57512,0.785104,-1.56665,-0.521233,0.00244049,-2.09151,1.57211,1.57699,0.785801,0.202381,0.117344,0.0955251,0.125595,0.0406342,0.308453,-0.00331467,0.272676,0.16493,0.161175,0.186536,0.0804902,0.416417,0.022455,8.44819,-2.88547,12.5321,22.3127,0.909441,-0.418187,0.537607,-0.354259,-1.41221,-0.450285,2.9449,0.289532,-0.288312,0.197685
5113644,1,-1.56734,-0.521121,0.00205307,-2.09403,1.57116,1.57547,0.785122,-1.56637,-0.52106,0.00260818,-2.09132,1.57219,1.57742,0.785824,0.211826,0.122298,0.103126,0.131636,0.0465406,0.321151,0.00167289,0.283661,0.17242,0.167686,0.193871,0.0833551,0.433458,0.0230997,8.7259,-2.53238,12.909,22.1619,0.859087,-0.424596,0.434153,-0.301372,-1.39297,-0.362215,2.95272,0.292864,-0.277136,0.202366
5113645,1,-1.56709,-0.520964,0.00217719,-2.09388,1.57123,1.57585,0.785147,-1.56607,-0.52088,0.00278238,-2.09112,1.57228,1.57787,0.785847,0.222495,0.13257,0.109724,0.141431,0.0524421,0.340241,0.0103161,0.294645,0.17991,0.174197,0.201206,0.08622,0.450499,0.0237445,9.03138,-2.33005,13.2383,22.0627,0.762956,-0.450231,0.310557,-0.244517,-1.37239,-0.266286,2.95941,0.296293,-0.26672,0.207653
5113646,1,-1.56682,-0.520811,0.00229439,-2.09371,1.5713,1.57625,0.785168,-1.56577,-0.520693,0.00296308,-2.09091,1.57237,1.57834,0.785872,0.238288,0.13804,0.111463,0.148039,0.059977,0.361142,0.00989915,0.30563,0.1874,0.180708,0.208541,0.0890849,0.46754,0.0243892,9.13057,-2.02457,13.6945,21.9635,0.706194,-0.514318,0.240061,-0.188741,-1.35235,-0.170065,2.96576,0.2999,-0.256317,0.213347
5113647,1,-1.56655,-0.520643,0.00241792,-2.09354,1.57137,1.57668,0.785184,-1.56545,-0.520498,0.00315073,-2.09069,1.57246,1.57882,0.785897,0.243342,0.146309,0.114655,0.155112,0.064344,0.382497,0.0165932,0.317487,0.19489,0.187641,0.21655,0.0920653,0.485507,0.0250313,9.3567,-1.77066,13.9484,21.9397,0.683306,-0.598546,0.226328,-0.133612,-1.33315,-0.0726592,2.97223,0.303495,-0.246057,0.219114
5113648,1,-1.56627,-0.520473,0.00254931,-2.09336,1.57145,1.57712,0.785194,-1.56512,-0.520296,0.0033453,-2.09047,1.57255,1.57933,0.785923,0.259073,0.152453,0.12035,0.157438,0.0678801,0.400624,0.0132614,0.329344,0.20238,0.194573,0.224558,0.0950456,0.503473,0.0256733,9.55903,-1.52072,14.1746,21.9873,0.654924,-0.63059,0.316965,-0.0775395,-1.31594,0.0280082,2.98095,0.306948,-0.236278,0.224632
5113649,1,-1.56597,-0.520301,0.00268089,-2.09317,1.57152,1.57758,0.785201,-1.56478,-0.520086,0.00354681,-2.09023,1.57265,1.57985,0.785949,0.269388,0.15717,0.120064,0.1705,0.0724565,0.418726,0.0103171,0.341202,0.20987,0.201506,0.232566,0.098026,0.52144,0.0263153,9.63441,-1.26682,14.4562,21.8882,0.695207,-0.636998,0.434153,-0.0210732,-1.29779,0.131128,2.99126,0.310141,-0.22696,0.229749
5113650,1,-1.56567,-0.52012,0.00282033,-2.09296,1.57161,1.57806,0.785212,-1.56443,-0.519869,0.00375524,-2.08999,1.57275,1.58039,0.785976,0.278183,0.165056,0.126773,0.183746,0.0815549,0.433133,0.00894631,0.353059,0.21736,0.208439,0.240575,0.101006,0.539406,0.0269573,9.78517,-1.08829,14.7062,21.7652,0.723589,-0.553685,0.537607,0.0364934,-1.2692,0.237796,2.99607,0.312697,-0.218156,0.234546
5113651,1,-1.56537,-0.519936,0.00297322,-2.09275,1.5717,1.57855,0.785222,-1.56406,-0.519644,0.00397061,-2.08974,1.57286,1.58095,0.786003,0.290057,0.171981,0.132455,0.195596,0.088947,0.443604,0.0129966,0.364916,0.22485,0.215371,0.248583,0.103987,0.557372,0.0275993,9.9875,-0.937531,14.9125,21.8644,0.740068,-0.437413,0.628245,0.094504,-1.22488,0.346538,2.9897,0.314418,-0.209627,0.239273
5113652,1,-1.56504,-0.51974,0.00312755,-2.09253,1.57179,1.57907,0.785246,-1.56368,-0.519411,0.00419292,-2.08949,1.57296,1.58152,0.786032,0.297904,0.178772,0.13774,0.205863,0.089434,0.466338,0.0175314,0.376773,0.23234,0.222304,0.256592,0.106967,0.575339,0.0282413,10.2136,-0.862152,15.087,21.8882,0.762956,-0.463048,0.563242,0.151283,-1.16515,0.454243,2.97169,0.315444,-0.200941,0.244232
5113653,1,-1.5647,-0.519537,0.0032829,-2.09229,1.5719,1.57963,0.785267,-1.5633,-0.519172,0.00442215,-2.08922,1.57307,1.58211,0.786061,0.3143,0.185711,0.142296,0.21407,0.0952226,0.494169,0.0153206,0.38863,0.23983,0.229236,0.2646,0.109947,0.593305,0.0288834,10.293,-0.885956,15.3647,21.9159,0.76845,-0.566503,0.511057,0.206927,-1.09303,0.560547,2.94481,0.31606,-0.192047,0.249647
5113654,1,-1.56435,-0.519329,0.00344647,-2.09205,1.57201,1.5802,0.785288,-1.56289,-0.518924,0.00465832,-2.08895,1.57319,1.58273,0.78609,0.326066,0.196501,0.146833,0.221928,0.102497,0.52423,0.0183883,0.400488,0.24732,0.236169,0.272608,0.112928,0.611272,0.0295254,10.3684,-0.885956,15.5949,21.9873,0.688799,-0.636998,0.453379,0.261263,-1.01658,0.665112,2.9148,0.316625,-0.183092,0.255543
5113655,1,-1.56399,-0.519111,0.00362317,-2.0918,1.57213,1.58079,0.785319,-1.56248,-0.518669,0.00490142,-2.08867,1.5733,1.58336,0.78612,0.335143,0.203296,0.152686,0.231654,0.105627,0.550907,0.0228034,0.412345,0.25481,0.243101,0.280617,0.115908,0.629238,0.0301674,10.4675,-0.862152,15.7218,22.0389,0.649431,-0.694677,0.330698,0.315266,-0.94405,0.769152,2.88678,0.317349,-0.174505,0.261781
5113656,1,-1.56362,-0.518884,0.00379867,-2.09154,1.57224,1.58142,0.785338,-1.56206,-0.518407,0.00515146,-2.08838,1.57342,1.584,0.786151,0.346529,0.212232,0.157763,0.243272,0.107893,0.572006,0.0223399,0.424202,0.2623,0.250034,0.288625,0.118888,0.647204,0.0308094,10.5707,-0.913727,15.9241,22.0151,0.632951,-0.785314,0.304148,0.370369,-0.876352,0.874346,2.86115,0.318166,-0.166668,0.268139
5113657,0.99,-1.56325,-0.518647,0.00397174,-2.09126,1.57236,1.58205,0.785367,-1.56162,-0.518137,0.00540842,-2.08809,1.57354,1.58467,0.786182,0.354689,0.220753,0.164506,0.251991,0.114283,0.592144,0.0239127,0.436059,0.26979,0.256966,0.296633,0.121869,0.665171,0.0314514,10.7214,-0.989105,16.1503,22.0151,0.615556,-0.855809,0.226328,0.426695,-0.812491,0.980644,2.83706,0.318938,-0.159663,0.27435
5113658,0.99,-1.56286,-0.518404,0.00416234,-2.09098,1.57248,1.58271,0.785393,-1.56117,-0.51786,0.00567223,-2.08778,1.57367,1.58535,0.786215,0.362014,0.225382,0.171477,0.261529,0.119084,0.613278,0.0277834,0.448218,0.27728,0.26381,0.305346,0.124826,0.683439,0.0321039,10.9476,-1.01291,16.305,21.9873,0.599077,-0.887853,0.200693,0.484462,-0.750684,1.08792,2.81404,0.319547,-0.153566,0.280154
5113659,0.99,-1.56246,-0.518152,0.00436017,-2.0907,1.57261,1.58338,0.785408,-1.56071,-0.517575,0.00594293,-2.08747,1.5738,1.58605,0.786247,0.372222,0.233567,0.178302,0.267997,0.122402,0.640058,0.0212212,0.460226,0.28477,0.270697,0.313707,0.127795,0.701557,0.0327512,10.9992,-1.08829,16.5073,22.0627,0.587175,-0.785314,0.304148,0.543929,-0.687848,1.19605,2.7917,0.319942,-0.148485,0.285338
5113660,0.99,-1.56205,-0.517894,0.00456515,-2.09039,1.57274,1.58406,0.785437,-1.56024,-0.517283,0.00622052,-2.08714,1.57393,1.58677,0.786281,0.383491,0.239267,0.184942,0.282317,0.12468,0.649901,0.0242395,0.472233,0.29226,0.277585,0.322068,0.130764,0.719674,0.0333984,11.0983,-1.16763,16.6581,21.9635,0.587175,-0.649816,0.330698,0.603794,-0.622181,1.30314,2.76922,0.320116,-0.144189,0.289825
5113661,0.99,-1.56165,-0.51763,0.00477917,-2.09008,1.57286,1.58478,0.785458,-1.55976,-0.516983,0.00650499,-2.08681,1.57406,1.58751,0.786315,0.393177,0.24617,0.193641,0.28825,0.129842,0.668527,0.0234319,0.484241,0.29975,0.284473,0.330429,0.133733,0.737792,0.0340457,11.3245,-1.21524,16.7573,21.9873,0.62105,-0.701085,0.434153,0.6615,-0.55116,1.40581,2.74464,0.320036,-0.139963,0.293716
5113662,0.99,-1.56122,-0.517351,0.00500113,-2.08977,1.573,1.58553,0.785488,-1.55926,-0.516676,0.00679635,-2.08647,1.5742,1.58827,0.786349,0.400724,0.253937,0.203502,0.294018,0.133559,0.696033,0.021469,0.496249,0.30724,0.291361,0.338789,0.136702,0.755909,0.034693,11.4752,-1.36996,16.8604,22.0151,0.654924,-0.842992,0.466196,0.715766,-0.477892,1.5018,2.72047,0.319875,-0.135332,0.297196
5113663,0.99,-1.56077,-0.517062,0.00523369,-2.08944,1.57314,1.58629,0.785516,-1.55875,-0.516361,0.0070946,-2.08613,1.57434,1.58904,0.786385,0.417312,0.263122,0.21203,0.305267,0.139049,0.717224,0.0240516,0.508257,0.31473,0.298249,0.34715,0.139671,0.774027,0.0353402,11.503,-1.56833,16.912,22.0151,0.627458,-0.913488,0.511057,0.76544,-0.409257,1.58889,2.70078,0.319935,-0.130161,0.300491
5113664,0.99,-1.56031,-0.516769,0.00545996,-2.0891,1.5733,1.58707,0.78555,-1.55823,-0.516039,0.00739974,-2.08577,1.57448,1.58983,0.786421,0.430994,0.270421,0.214916,0.316682,0.139156,0.730135,0.0231118,0.520265,0.32222,0.305137,0.355511,0.14264,0.792144,0.0359875,11.4752,-1.77066,17.0865,21.9635,0.576189,-0.881444,0.511057,0.808987,-0.346454,1.66569,2.68435,0.320257,-0.124328,0.303842
5113665,0.99,-1.55984,-0.516462,0.00569628,-2.08876,1.57344,1.58786,0.78559,-1.5577,-0.515709,0.00771176,-2.08541,1.57463,1.59064,0.786457,0.442721,0.280829,0.225644,0.325315,0.141465,0.74971,0.0253173,0.532273,0.32971,0.312025,0.363872,0.145609,0.810262,0.0366347,11.5784,-1.92538,17.1897,21.9873,0.587175,-0.862218,0.427744,0.846492,-0.28957,1.7333,2.66953,0.320751,-0.117916,0.307433
5113666,0.99,-1.55938,-0.516147,0.0059516,-2.0884,1.57358,1.58869,0.785626,-1.55716,-0.515372,0.00803068,-2.08504,1.57477,1.59147,0.786495,0.457361,0.292246,0.236443,0.331964,0.143178,0.770908,0.0239295,0.544281,0.3372,0.318913,0.372232,0.148578,0.828379,0.037282,11.7529,-2.09995,17.2889,21.8882,0.60457,-0.92722,0.42042,0.876661,-0.245531,1.78965,2.65983,0.321579,-0.110858,0.311317
5113667,0.99,-1.55888,-0.515835,0.00621391,-2.08805,1.57373,1.58954,0.78566,-1.5566,-0.515027,0.00835623,-2.08466,1.57493,1.59232,0.786533,0.470182,0.300557,0.240208,0.338888,0.143446,0.795243,0.027103,0.556008,0.34469,0.325553,0.380725,0.151401,0.846076,0.0379188,11.8561,-2.12772,17.3167,21.9397,0.638445,-1.04258,0.42042,0.899113,-0.221569,1.83403,2.65978,0.322942,-0.103246,0.315407
5113668,0.99,-1.55837,-0.515502,0.00647929,-2.08768,1.5739,1.5904,0.785697,-1.55603,-0.514675,0.00868842,-2.08427,1.57508,1.59318,0.786571,0.486056,0.308016,0.249135,0.348655,0.149268,0.811804,0.0295172,0.567736,0.35218,0.332194,0.389218,0.154223,0.863773,0.0385556,11.8045,-2.2269,17.3405,21.9397,0.536821,-1.00412,0.42042,0.91633,-0.215097,1.87042,2.66842,0.324749,-0.0955053,0.319589
5113669,0.99,-1.55784,-0.51516,0.00675644,-2.0873,1.57406,1.59127,0.78573,-1.55545,-0.514316,0.00902726,-2.08387,1.57524,1.59406,0.78661,0.4992,0.318611,0.257719,0.355167,0.151389,0.826543,0.0305413,0.579464,0.35967,0.338835,0.39771,0.157046,0.88147,0.0391924,11.5784,-2.37766,17.392,21.9873,0.485552,-0.894261,0.434153,0.928473,-0.220973,1.89919,2.68295,0.326872,-0.0876322,0.323791
5113670,0.99,-1.5573,-0.514811,0.00703641,-2.08691,1.57423,1.59216,0.785772,-1.55486,-0.513948,0.00937273,-2.08346,1.5754,1.59496,0.78665,0.506767,0.324848,0.26466,0.367323,0.156004,0.848121,0.0325696,0.591191,0.36716,0.345475,0.406203,0.159868,0.899167,0.0398292,11.5506,-2.45303,17.3167,21.9873,0.474565,-0.92722,0.427744,0.936739,-0.23572,1.92184,2.70113,0.329101,-0.0797102,0.327973
5113671,0.99,-1.55676,-0.514451,0.00733754,-2.08652,1.5744,1.59309,0.785818,-1.55426,-0.513574,0.00972485,-2.08305,1.57556,1.59588,0.786691,0.518156,0.335034,0.276954,0.376526,0.161821,0.869871,0.036072,0.602919,0.37465,0.352116,0.414696,0.16269,0.916865,0.040466,11.5784,-2.63156,17.0627,22.0627,0.531328,-1.04899,0.362742,0.944014,-0.253978,1.94222,2.71917,0.331097,-0.0720629,0.332115
5113672,0.99,-1.55619,-0.514088,0.00764393,-2.08612,1.57457,1.59401,0.785863,-1.55364,-0.513192,0.0100836,-2.08262,1.57573,1.59681,0.786732,0.533582,0.347776,0.284416,0.385548,0.161385,0.888564,0.0374988,0.614647,0.38214,0.358756,0.423188,0.165513,0.934562,0.0411028,11.3007,-2.75851,16.9874,22.2135,0.587175,-1.0618,0.330698,0.949376,-0.277703,1.95884,2.73737,0.332853,-0.0646213,0.336173
5113673,0.99,-1.5556,-0.513709,0.00795496,-2.0857,1.57474,1.59494,0.785906,-1.55302,-0.512802,0.010449,-2.08219,1.57589,1.59777,0.786774,0.544126,0.35624,0.292572,0.394946,0.167572,0.898708,0.0418452,0.626374,0.38963,0.365397,0.431681,0.168335,0.952259,0.0417396,11.1221,-2.88547,16.8088,22.2889,0.576189,-0.97849,0.330698,0.951289,-0.312481,1.96986,2.75869,0.334541,-0.0572867,0.340051
5113674,0.99,-1.55501,-0.513323,0.00827596,-2.08528,1.57492,1.5959,0.785961,-1.55238,-0.512405,0.010821,-2.08175,1.57606,1.59874,0.786816,0.569161,0.373219,0.303459,0.395589,0.168412,0.914468,0.0525349,0.638102,0.39712,0.372037,0.440174,0.171157,0.969956,0.0423764,11.0468,-3.1116,16.6581,22.4634,0.565202,-0.940038,0.252878,0.946582,-0.365388,1.97157,2.78835,0.336478,-0.0496579,0.343638
5113675,0.99,-1.55442,-0.512928,0.00859778,-2.08486,1.5751,1.59685,0.785998,-1.55173,-0.512,0.0111997,-2.0813,1.57624,1.59972,0.786859,0.57612,0.381054,0.307274,0.404321,0.172958,0.929725,0.0508601,0.64983,0.40461,0.378678,0.448666,0.17398,0.987653,0.0430132,10.9714,-3.31393,16.5827,22.4634,0.570696,-0.875035,0.316965,0.932678,-0.445211,1.96111,2.83317,0.339006,-0.0413865,0.346824
5113676,0.99,-1.5538,-0.512524,0.00893377,-2.08441,1.57528,1.59784,0.78604,-1.55107,-0.511588,0.011585,-2.08085,1.57642,1.60073,0.786903,0.585519,0.389004,0.317827,0.410076,0.180742,0.944596,0.0451617,0.661558,0.4121,0.385318,0.457159,0.176802,1.00535,0.04365,10.9476,-3.49246,16.4558,22.4634,0.592668,-0.842992,0.381968,0.914493,-0.545803,1.94542,2.8909,0.34193,-0.032998,0.349544
5113677,0.99,-1.55319,-0.512116,0.00928142,-2.08397,1.57547,1.59882,0.786092,-1.5504,-0.511169,0.0119767,-2.08038,1.57659,1.60175,0.786947,0.597855,0.394166,0.328388,0.420157,0.17853,0.975398,0.0492306,0.672697,0.41959,0.391634,0.465625,0.1793,1.02226,0.0442601,11.023,-3.61942,16.4558,22.4634,0.576189,-0.791722,0.356333,0.895807,-0.650856,1.92897,2.95302,0.344955,-0.024793,0.351854
5113678,0.99,-1.55254,-0.511706,0.00963166,-2.08353,1.57566,1.59983,0.786134,-1.54971,-0.510742,0.0123746,-2.07991,1.57678,1.60279,0.786992,0.613963,0.396929,0.340547,0.425021,0.177329,0.985395,0.0489179,0.683836,0.42708,0.397949,0.474091,0.181799,1.03917,0.0448701,10.9992,-3.59164,16.4558,22.6102,0.553301,-0.746862,0.407602,0.873702,-0.744726,1.9068,3.01171,0.348069,-0.0161389,0.353902
5113679,0.99,-1.5519,-0.511281,0.00998877,-2.08307,1.57586,1.60087,0.786188,-1.54902,-0.510307,0.0127789,-2.07942,1.57696,1.60385,0.787037,0.624983,0.401599,0.349121,0.438253,0.183114,0.998745,0.0469554,0.694975,0.43457,0.404264,0.482557,0.184297,1.05609,0.0454802,10.9714,-3.61942,16.5827,22.634,0.474565,-0.766088,0.381968,0.844923,-0.813897,1.87417,3.06004,0.351171,-0.00617415,0.355826
5113680,0.99,-1.55124,-0.510865,0.0103673,-2.0826,1.57605,1.60191,0.786252,-1.54831,-0.509865,0.0131895,-2.07893,1.57715,1.60492,0.787083,0.626395,0.408708,0.355883,0.446096,0.183775,1.017,0.0540886,0.706114,0.44206,0.41058,0.491023,0.186795,1.073,0.0460902,11.0745,-3.54007,16.4796,22.6102,0.474565,-0.849401,0.252878,0.813807,-0.853533,1.83727,3.09411,0.353881,0.00475016,0.357722
5113681,0.99,-1.55056,-0.510423,0.0107435,-2.08212,1.57624,1.60299,0.786294,-1.54759,-0.509415,0.0136064,-2.07843,1.57734,1.60601,0.78713,0.637698,0.41544,0.368925,0.45707,0.185148,1.03094,0.0520114,0.717253,0.44955,0.416895,0.49949,0.189294,1.08991,0.0467003,11.1499,-3.54007,16.4042,22.511,0.469072,-0.959264,0.304148,0.786898,-0.86815,1.80493,3.11492,0.355917,0.0156362,0.359571
5113682,0.99,-1.54988,-0.509979,0.0111308,-2.08163,1.57643,1.60409,0.786353,-1.54686,-0.508958,0.0140296,-2.07793,1.57753,1.60712,0.787177,0.655532,0.423332,0.370619,0.46867,0.184031,1.04841,0.050977,0.728392,0.45704,0.423211,0.507956,0.191792,1.10682,0.0473104,11.1221,-3.61942,16.3804,22.2889,0.513933,-1.01053,0.233652,0.763885,-0.863542,1.777,3.12443,0.357265,0.0263061,0.36128
5113683,0.99,-1.54918,-0.509522,0.0115187,-2.08114,1.57663,1.60518,0.786402,-1.54613,-0.508494,0.0144591,-2.07741,1.57772,1.60824,0.787225,0.666546,0.433962,0.3765,0.476907,0.188509,1.06716,0.0517781,0.739532,0.46453,0.429526,0.516422,0.194291,1.12373,0.0479204,11.1221,-3.77017,16.3288,22.1619,0.547807,-0.940038,0.240061,0.744418,-0.847621,1.7544,3.12548,0.357953,0.0364349,0.362758
5113684,0.99,-1.54848,-0.509055,0.0119184,-2.08062,1.57683,1.60629,0.786451,-1.54537,-0.508022,0.0148949,-2.07688,1.57792,1.60938,0.787274,0.699173,0.443474,0.37807,0.488997,0.196817,1.07914,0.0509471,0.750671,0.47202,0.435841,0.524888,0.196789,1.14065,0.0485305,11.023,-3.86935,16.2534,21.9159,0.587175,-0.881444,0.284922,0.726922,-0.830668,1.73662,3.12249,0.358119,0.0459304,0.363919
5113685,0.99,-1.54777,-0.508598,0.0123255,-2.08011,1.57704,1.6074,0.786506,-1.54461,-0.507542,0.0153371,-2.07635,1.57812,1.61054,0.787323,0.703235,0.444202,0.386348,0.495948,0.195381,1.09175,0.0528944,0.76181,0.47951,0.442157,0.533354,0.199287,1.15756,0.0491406,11.0468,-3.82175,16.1503,21.7414,0.565202,-0.849401,0.272104,0.707402,-0.811863,1.71902,3.11508,0.357919,0.0554196,0.364738
5113686,0.99,-1.54704,-0.508129,0.0127368,-2.07958,1.57725,1.60856,0.78655,-1.54384,-0.507055,0.0157856,-2.07581,1.57832,1.61171,0.787373,0.707531,0.447517,0.394956,0.505248,0.197256,1.10362,0.0493471,0.772949,0.487,0.448472,0.54182,0.201786,1.17447,0.0497506,11.1221,-3.79398,16.0749,21.6422,0.469072,-0.868627,0.381968,0.68877,-0.779739,1.70401,3.09902,0.357365,0.0647866,0.365272
5113687,0.99,-1.54631,-0.50767,0.0131661,-2.07904,1.57746,1.60974,0.786603,-1.54306,-0.506561,0.01624,-2.07526,1.57853,1.6129,0.787423,0.710551,0.45114,0.402355,0.515674,0.202565,1.12032,0.0510387,0.783294,0.49449,0.454409,0.55016,0.203885,1.19035,0.050313,11.0983,-3.64322,15.9241,21.543,0.383928,-0.965673,0.394785,0.677717,-0.726312,1.69833,3.07105,0.356324,0.073289,0.365622
5113688,0.99,-1.54554,-0.507179,0.01359,-2.07849,1.57768,1.61092,0.786667,-1.54226,-0.506059,0.0167003,-2.0747,1.57873,1.61411,0.787474,0.72187,0.461762,0.406961,0.528993,0.205148,1.13686,0.050742,0.793639,0.50198,0.460346,0.5585,0.205985,1.20623,0.0508754,10.9238,-3.66702,15.8488,21.3446,0.332659,-1.0618,0.316965,0.677879,-0.65424,1.70602,3.031,0.354597,0.0803309,0.365942
5113689,0.99,-1.54477,-0.506681,0.0140236,-2.07792,1.57788,1.61213,0.786724,-1.54146,-0.505549,0.0171666,-2.07413,1.57894,1.61533,0.787525,0.730591,0.469027,0.414826,0.536538,0.208605,1.14411,0.0525543,0.803983,0.50947,0.466282,0.566839,0.208085,1.22212,0.0514379,10.896,-3.69479,15.8488,21.2931,0.366533,-1.11399,0.297739,0.688367,-0.574581,1.72599,2.98298,0.352119,0.0857615,0.366342
5113690,0.99,-1.54399,-0.50619,0.0144685,-2.07736,1.5781,1.61335,0.786785,-1.54064,-0.505032,0.0176388,-2.07356,1.57915,1.61657,0.787577,0.740523,0.474082,0.421294,0.54696,0.209701,1.16556,0.056175,0.814328,0.51696,0.472219,0.575179,0.210184,1.238,0.0520003,10.8722,-3.69479,15.8488,21.2455,0.440691,-1.26139,0.219919,0.705892,-0.494396,1.75392,2.931,0.348967,0.0897637,0.366802
5113691,0.99,-1.5432,-0.505682,0.014916,-2.07678,1.5783,1.61461,0.786846,-1.53982,-0.504508,0.018117,-2.07298,1.57936,1.61782,0.78763,0.746469,0.483073,0.43152,0.557162,0.201417,1.19158,0.0573492,0.824673,0.52445,0.478156,0.583519,0.212284,1.25388,0.0525627,10.8444,-3.69479,15.7456,21.2455,0.531328,-1.55802,0.175059,0.728405,-0.415052,1.78677,2.87647,0.345333,0.0922035,0.367228
5113692,0.99,-1.54241,-0.505162,0.0153603,-2.07619,1.5785,1.61585,0.786907,-1.53898,-0.503976,0.0186011,-2.07238,1.57958,1.61909,0.787683,0.77378,0.50001,0.433847,0.562255,0.20205,1.19814,0.0580728,0.835018,0.53194,0.484092,0.591858,0.214384,1.26976,0.0531251,10.7968,-3.66702,15.694,21.2931,0.558794,-1.52598,0.143015,0.751651,-0.349324,1.81911,2.82624,0.34177,0.0930622,0.367478
5113693,0.99,-1.5416,-0.504649,0.0158125,-2.0756,1.57872,1.61706,0.78697,-1.53814,-0.503437,0.0190911,-2.07178,1.57979,1.62038,0.787737,0.782256,0.506521,0.45326,0.571199,0.203696,1.19714,0.0583669,0.845362,0.53943,0.490029,0.600198,0.216483,1.28564,0.0536875,10.7691,-3.64322,15.5949,21.3684,0.547807,-1.16526,0.116465,0.765775,-0.312402,1.83795,2.78923,0.339002,0.0933894,0.367404
5113694,0.99,-1.54079,-0.504116,0.0162598,-2.075,1.57893,1.61831,0.787024,-1.53728,-0.50289,0.0195871,-2.07117,1.58001,1.62168,0.787791,0.787303,0.516095,0.451823,0.576716,0.210602,1.19903,0.0538085,0.855707,0.54692,0.495966,0.608538,0.218583,1.30153,0.0542499,10.896,-3.69479,15.6464,21.4676,0.524919,-0.940038,0.219919,0.767844,-0.302466,1.8388,2.76611,0.337228,0.0938993,0.366896
5113695,0.99,-1.53999,-0.503588,0.0167137,-2.0744,1.57915,1.6196,0.787078,-1.53642,-0.502335,0.020089,-2.07056,1.58023,1.623,0.787846,0.793466,0.518397,0.453035,0.587443,0.214052,1.22254,0.0512961,0.866052,0.55441,0.501903,0.616877,0.220683,1.31741,0.0548123,11.1221,-3.66702,15.7218,21.4914,0.536821,-1.06821,0.304148,0.769813,-0.306995,1.83889,2.75144,0.33591,0.093534,0.365914
5113696,0.99,-1.53917,-0.503043,0.0171624,-2.07379,1.57939,1.6209,0.787137,-1.53554,-0.501773,0.0205968,-2.06993,1.58045,1.62433,0.787901,0.799578,0.524361,0.45405,0.590677,0.220521,1.24139,0.0564686,0.876397,0.5619,0.507839,0.625217,0.222783,1.33329,0.0553747,11.2253,-3.7186,15.821,21.6898,0.451677,-1.14603,0.330698,0.784622,-0.312493,1.85736,2.73918,0.334437,0.0909664,0.364558
5113697,0.99,-1.53832,-0.502491,0.0176186,-2.07318,1.57961,1.62223,0.787207,-1.53466,-0.501204,0.0211102,-2.0693,1.58068,1.62568,0.787957,0.818806,0.532137,0.449908,0.597104,0.220412,1.26531,0.0576182,0.88581,0.56939,0.513363,0.633382,0.224456,1.34798,0.0558587,11.0468,-3.7424,16.0987,21.9635,0.36104,-1.26139,0.291331,0.816855,-0.315412,1.9014,2.72903,0.332608,0.0857017,0.363021
5113698,0.99,-1.53747,-0.501933,0.0180976,-2.07257,1.57985,1.62352,0.787294,-1.53376,-0.500627,0.0216291,-2.06866,1.58091,1.62704,0.788013,0.816343,0.535768,0.459366,0.601374,0.221027,1.27954,0.0700366,0.895224,0.57688,0.518887,0.641548,0.226129,1.36267,0.0563427,11.1975,-3.82175,16.178,22.1897,0.236528,-1.1204,0.0780126,0.86572,-0.317646,1.97021,2.72334,0.330403,0.0777863,0.361466
5113699,0.99,-1.53662,-0.50137,0.0185713,-2.07195,1.58007,1.62487,0.78737,-1.53286,-0.500043,0.0221535,-2.06801,1.58113,1.62842,0.78807,0.815729,0.542011,0.462289,0.609514,0.219285,1.30005,0.07393,0.904638,0.58437,0.524411,0.649713,0.227803,1.37736,0.0568267,11.503,-3.84555,16.2534,22.3365,0.298784,-1.15244,-0.0126246,0.931192,-0.31635,2.06217,2.72142,0.327665,0.0672267,0.359884
5113700,0.99,-1.53579,-0.500793,0.0190601,-2.07132,1.58028,1.62625,0.787432,-1.53194,-0.499451,0.0226834,-2.06735,1.58136,1.62981,0.788127,0.816462,0.55112,0.473913,0.610889,0.221033,1.32366,0.0662876,0.914051,0.59186,0.529935,0.657878,0.229476,1.39205,0.0573107,11.8283,-3.99631,16.3288,22.5626,0.423296,-1.22294,0.0587866,1.01356,-0.314064,2.1755,2.72494,0.324334,0.054033,0.358041
5113701,0.99,-1.53491,-0.500196,0.0195317,-2.07069,1.58052,1.62761,0.787503,-1.53102,-0.498851,0.0232189,-2.06668,1.58159,1.63122,0.788185,0.826521,0.562092,0.471953,0.61508,0.225278,1.33566,0.0631891,0.923465,0.59935,0.535459,0.666044,0.231149,1.40674,0.0577947,11.7807,-4.19864,16.4796,22.761,0.469072,-1.17807,0.0651953,1.10984,-0.322876,2.30505,2.74061,0.320699,0.0386601,0.355688
5113702,0.99,-1.53402,-0.499595,0.0200152,-2.07004,1.58074,1.62901,0.787552,-1.53009,-0.498245,0.0237598,-2.06601,1.58183,1.63264,0.788243,0.847211,0.566908,0.465764,0.623712,0.225893,1.35293,0.0585051,0.932878,0.60684,0.540983,0.674209,0.232823,1.42143,0.0582787,11.5268,-4.40097,16.5549,22.8086,0.469072,-1.16526,0.272104,1.21657,-0.347605,2.44803,2.77023,0.31693,0.0217106,0.35276
5113703,0.99,-1.53311,-0.498989,0.0205005,-2.0694,1.58096,1.6304,0.78761,-1.52914,-0.49763,0.0243063,-2.06533,1.58206,1.63407,0.788302,0.869702,0.57934,0.471265,0.630542,0.225944,1.36074,0.0540969,0.942292,0.61433,0.546506,0.682374,0.234496,1.43612,0.0587627,11.1975,-4.5795,16.6065,22.8839,0.462663,-1.06821,0.394785,1.32586,-0.383721,2.59676,2.80941,0.313151,0.00448884,0.349415
5113704,0.99,-1.5322,-0.49838,0.0210001,-2.06875,1.58119,1.63183,0.787678,-1.52819,-0.497008,0.0248584,-2.06464,1.5823,1.63553,0.788361,0.881911,0.583597,0.480129,0.639861,0.234123,1.37615,0.059742,0.951706,0.62182,0.55203,0.69054,0.23617,1.4508,0.0592467,11.1221,-4.6033,16.4558,22.9077,0.462663,-1.07462,0.401194,1.42484,-0.427206,2.73429,2.85433,0.309718,-0.010984,0.34602
5113705,0.99,-1.5313,-0.497779,0.0215268,-2.06808,1.58142,1.63328,0.787747,-1.52723,-0.496379,0.0254159,-2.06394,1.58253,1.63699,0.788421,0.890795,0.586042,0.493263,0.643,0.232173,1.39913,0.0612033,0.961119,0.62931,0.557554,0.698705,0.237843,1.46549,0.0597307,11.1221,-4.52792,16.0987,22.9355,0.462663,-1.03617,0.356333,1.50544,-0.467977,2.84801,2.89994,0.306882,-0.0234138,0.342972
5113706,0.99,-1.53035,-0.497154,0.0220344,-2.06741,1.58166,1.63472,0.787834,-1.52626,-0.495742,0.025979,-2.06323,1.58277,1.63847,0.788481,0.907551,0.592377,0.499221,0.652889,0.237514,1.41498,0.0716386,0.970533,0.6368,0.563078,0.70687,0.239516,1.48018,0.0602147,10.6937,-4.50412,15.9241,22.7848,0.400408,-0.97849,0.175059,1.56532,-0.495534,2.93309,2.94177,0.304732,-0.0324354,0.340501
5113707,0.99,-1.52937,-0.49652,0.0225658,-2.06673,1.58191,1.63617,0.78791,-1.52528,-0.495098,0.0265472,-2.06252,1.58302,1.63996,0.788542,0.929534,0.601269,0.503769,0.66069,0.238592,1.42412,0.0750163,0.978924,0.64429,0.568171,0.714862,0.240749,1.49357,0.060572,10.1145,-4.52792,15.7456,22.6856,0.293291,-0.772496,0.09083,1.60318,-0.509685,2.98817,2.97866,0.303213,-0.037847,0.338583
5113708,0.99,-1.52842,-0.495885,0.0231167,-2.06604,1.58216,1.63763,0.787967,-1.52429,-0.494446,0.0271204,-2.06179,1.58326,1.64147,0.788603,0.936072,0.608652,0.520313,0.673719,0.24165,1.45999,0.0668066,0.987316,0.65178,0.573265,0.722853,0.241982,1.50697,0.0609292,9.93989,-4.5795,15.5195,22.4356,0.231035,-0.72672,0.175059,1.6182,-0.514367,3.01272,3.01005,0.302196,-0.0395618,0.336974
5113709,0.99,-1.52745,-0.49524,0.0236539,-2.06533,1.5824,1.63914,0.788032,-1.5233,-0.493787,0.0276988,-2.06106,1.5835,1.64299,0.788664,0.938545,0.616863,0.524046,0.683875,0.239754,1.46919,0.0631506,0.995707,0.65927,0.578358,0.730844,0.243215,1.52036,0.0612865,9.86055,-4.52792,15.4163,22.1619,0.287798,-0.836583,0.194285,1.61553,-0.511203,3.01316,3.03418,0.301387,-0.0383572,0.33542
5113710,0.99,-1.52647,-0.494583,0.0242146,-2.06461,1.58264,1.64065,0.788082,-1.52229,-0.49312,0.0282823,-2.06032,1.58374,1.64453,0.788726,0.96315,0.6408,0.52872,0.697292,0.246358,1.48266,0.0610567,1.0041,0.66676,0.583451,0.738836,0.244447,1.53375,0.0616437,9.81294,-4.55173,15.3171,21.9635,0.270403,-0.759679,0.323374,1.60238,-0.513552,3.00019,3.05491,0.300476,-0.0352895,0.33382
5113711,0.99,-1.52548,-0.49394,0.0247734,-2.06389,1.58291,1.64213,0.78814,-1.52128,-0.492446,0.0288708,-2.05958,1.58399,1.64607,0.788788,0.975635,0.639926,0.551178,0.702332,0.250639,1.48073,0.0586008,1.01249,0.67425,0.588544,0.746827,0.24568,1.54714,0.062001,9.5868,-4.40097,15.1148,21.789,0.134905,-0.482274,0.36915,1.57365,-0.535078,2.96746,3.07815,0.299635,-0.0295695,0.332231
5113712,0.99,-1.52446,-0.493304,0.0253344,-2.06316,1.58316,1.64365,0.788212,-1.52026,-0.491764,0.0294644,-2.05882,1.58424,1.64763,0.78885,0.98595,0.636061,0.551181,0.706979,0.25418,1.4859,0.0617499,1.02088,0.68174,0.593638,0.754819,0.246913,1.56053,0.0623582,9.28132,-3.99631,14.9601,21.6898,0.118425,-0.373326,0.278513,1.52318,-0.556157,2.90585,3.09807,0.298851,-0.0197967,0.330839
5113713,0.99,-1.52346,-0.49266,0.025904,-2.06242,1.58341,1.64522,0.788267,-1.51923,-0.491075,0.0300632,-2.05806,1.58449,1.64921,0.788913,0.990162,0.636997,0.552759,0.716704,0.254734,1.50565,0.0580159,1.02927,0.68923,0.598731,0.76281,0.248145,1.57392,0.0627155,9.15437,-3.66702,14.8609,21.5906,0.157793,-0.539952,0.343516,1.46185,-0.546705,2.83133,3.10356,0.297361,-0.00697142,0.329772
5113714,0.99,-1.52245,-0.491986,0.0264774,-2.06168,1.58367,1.64679,0.788335,-1.51819,-0.490378,0.030667,-2.05729,1.58473,1.65079,0.788976,0.990934,0.642492,0.559379,0.728405,0.249942,1.52716,0.0603891,1.03766,0.69672,0.603824,0.770801,0.249378,1.58731,0.0630728,9.15437,-3.56784,14.7062,21.5906,0.220049,-0.785314,0.265696,1.40588,-0.497654,2.7673,3.08955,0.294511,0.00651785,0.329042
5113715,0.99,-1.52142,-0.491289,0.0270536,-2.06092,1.58392,1.64837,0.788395,-1.51715,-0.489674,0.0312759,-2.05651,1.58499,1.6524,0.789039,1.02785,0.660897,0.564641,0.740689,0.253282,1.54482,0.0594189,1.04606,0.70421,0.608917,0.778793,0.250611,1.6007,0.06343,8.97981,-3.77017,14.6308,21.5906,0.231035,-0.919896,0.252878,1.35584,-0.424564,2.71481,3.06093,0.290537,0.0199276,0.328624
5113716,0.99,-1.52037,-0.490596,0.0276457,-2.06016,1.58418,1.64994,0.788443,-1.51609,-0.488962,0.0318899,-2.05572,1.58524,1.65401,0.789103,1.03032,0.670213,0.572607,0.752334,0.254092,1.557,0.0551484,1.05445,0.7117,0.614011,0.786784,0.251843,1.61409,0.0637873,8.77748,-3.9725,14.5832,21.6422,0.270403,-0.972081,0.337107,1.30186,-0.353294,2.66068,3.02799,0.286135,0.0338228,0.32844
5113717,0.99,-1.51932,-0.489893,0.0282391,-2.05938,1.58445,1.65153,0.788509,-1.51503,-0.488243,0.0325086,-2.05493,1.58549,1.65564,0.789167,1.02599,0.674471,0.579024,0.758016,0.253327,1.55987,0.0571279,1.06176,0.71919,0.618665,0.794616,0.25263,1.62612,0.063974,8.90443,-4.14706,14.48,21.8167,0.236528,-0.881444,0.291331,1.24638,-0.292436,2.60709,2.99548,0.281549,0.0473377,0.328419
5113718,0.99,-1.51829,-0.489186,0.0288403,-2.0586,1.58471,1.65317,0.788567,-1.51396,-0.487517,0.0331319,-2.05413,1.58574,1.65727,0.789231,1.03065,0.68661,0.588139,0.759763,0.255041,1.58067,0.0568096,1.06907,0.72668,0.623319,0.802448,0.253416,1.63815,0.0641608,9.15437,-4.3494,14.4047,22.0905,0.270403,-1.10666,0.297739,1.19903,-0.243605,2.56513,2.96807,0.276849,0.0588515,0.328534
5113719,0.99,-1.51722,-0.488474,0.0294352,-2.05783,1.58497,1.65481,0.788631,-1.51289,-0.486782,0.0337599,-2.05332,1.586,1.65892,0.789296,1.03771,0.688055,0.591615,0.764593,0.255593,1.60191,0.0588979,1.07638,0.73417,0.627973,0.810279,0.254203,1.65017,0.0643476,9.23372,-4.40097,14.4047,22.388,0.316179,-1.40329,0.240061,1.16295,-0.211115,2.53794,2.95199,0.272272,0.0676231,0.328734
5113720,0.99,-1.51614,-0.487747,0.0300398,-2.05705,1.58523,1.65644,0.788709,-1.5118,-0.486041,0.0343925,-2.0525,1.58625,1.66059,0.78936,1.04206,0.695748,0.58937,0.768558,0.264306,1.60637,0.068355,1.0837,0.74166,0.632627,0.818111,0.254989,1.6622,0.0645343,9.25752,-4.45255,14.3531,22.634,0.270403,-1.22934,0.0844213,1.14104,-0.189919,2.52977,2.94701,0.267747,0.0729557,0.328935
5113721,0.99,-1.51507,-0.487017,0.0306435,-2.05625,1.58549,1.65805,0.788777,-1.51071,-0.485292,0.0350298,-2.05167,1.58651,1.66226,0.789425,1.052,0.709283,0.591767,0.776836,0.262838,1.61033,0.0704073,1.09101,0.74915,0.637281,0.825943,0.255776,1.67422,0.0647211,9.30909,-4.55173,14.4047,22.6102,0.293291,-1.07462,0.0322363,1.13616,-0.180556,2.54546,2.95332,0.263097,0.0742891,0.328976
5113722,0.99,-1.514,-0.48626,0.0312275,-2.05542,1.58574,1.65972,0.788843,-1.50961,-0.484535,0.0356717,-2.05084,1.58676,1.66395,0.78949,1.05438,0.724597,0.587597,0.791747,0.263638,1.6255,0.0677159,1.09832,0.75664,0.641936,0.833774,0.256562,1.68625,0.0649078,9.48365,-4.80563,14.5832,22.3127,0.372942,-1.10666,-0.00621587,1.14937,-0.193592,2.58698,2.97277,0.258271,0.0715088,0.328624
5113723,0.99,-1.51295,-0.485502,0.0318331,-2.05459,1.586,1.66142,0.788916,-1.50851,-0.483771,0.0363183,-2.05,1.58702,1.66564,0.789555,1.0504,0.752296,0.59436,0.802156,0.259816,1.64753,0.0698608,1.10563,0.76413,0.64659,0.841606,0.257349,1.69827,0.0650946,9.86055,-5.08334,14.5554,21.9873,0.355547,-1.31998,-0.044668,1.18438,-0.24718,2.65864,3.00902,0.253361,0.0641137,0.327656
5113724,0.99,-1.51188,-0.484739,0.0324338,-2.05375,1.58626,1.66308,0.789002,-1.50739,-0.482999,0.0369696,-2.04915,1.58728,1.66735,0.78962,1.05799,0.757582,0.59565,0.814121,0.263287,1.65637,0.0746842,1.11294,0.77162,0.651244,0.849438,0.258135,1.7103,0.0652814,10.0906,-5.2103,14.6308,21.6144,0.287798,-1.22294,-0.149038,1.24153,-0.352431,2.75909,3.06436,0.248629,0.0520845,0.325917
5113725,0.99,-1.51077,-0.483975,0.0330377,-2.0529,1.58654,1.66478,0.789077,-1.50627,-0.48222,0.0376255,-2.04829,1.58754,1.66908,0.789686,1.07322,0.755051,0.595397,0.820574,0.2672,1.6659,0.0737056,1.12026,0.77911,0.655898,0.857269,0.258921,1.72233,0.0654681,10.0153,-5.08334,14.8847,21.3922,0.186174,-1.15885,-0.141714,1.31306,-0.480534,2.87741,3.12544,0.243999,0.0369748,0.323304
5113726,0.99,-1.5097,-0.483223,0.033664,-2.05204,1.58682,1.66646,0.789159,-1.50515,-0.481433,0.038286,-2.04742,1.5878,1.67081,0.789751,1.07084,0.753347,0.60555,0.834086,0.270063,1.70548,0.0742831,1.12757,0.7866,0.660552,0.865101,0.259708,1.73435,0.0656549,10.2414,-4.90482,14.8331,21.0431,0.0671556,-0.97849,-0.161856,1.39108,-0.584013,3.00286,3.17106,0.239093,0.0204677,0.319739
5113727,0.99,-1.50862,-0.48245,0.034294,-2.05117,1.58708,1.66821,0.78922,-1.50401,-0.480639,0.0389508,-2.04655,1.58806,1.67256,0.789817,1.06684,0.750853,0.611066,0.842652,0.265234,1.71639,0.0723254,1.13377,0.79409,0.664763,0.87276,0.260052,1.74497,0.0656631,10.6183,-4.73026,14.734,20.9717,0.0222948,-1.02335,0.0130102,1.47426,-0.631802,3.13199,3.1867,0.233548,0.0031469,0.315216
5113728,0.99,-1.50753,-0.481666,0.0349212,-2.05029,1.58735,1.66997,0.789276,-1.50287,-0.479838,0.0396197,-2.04567,1.58832,1.67431,0.789883,1.07756,0.758471,0.611962,0.853585,0.265119,1.72967,0.0691636,1.13997,0.80158,0.668974,0.880418,0.260395,1.75559,0.0656714,10.6461,-4.70645,14.7062,20.8448,-0.000593394,-0.997716,0.240061,1.56343,-0.618347,3.26484,3.16975,0.227103,-0.0145961,0.309878
5113729,0.99,-1.50639,-0.480878,0.0355557,-2.04941,1.58761,1.67172,0.789333,-1.50173,-0.479029,0.0402929,-2.04478,1.58858,1.67608,0.789948,1.08889,0.764621,0.627881,0.864757,0.267254,1.74457,0.0643888,1.14617,0.80907,0.673185,0.888077,0.260739,1.76621,0.0656796,10.2652,-4.75406,14.7062,20.7456,0.0387743,-1.04899,0.434153,1.65125,-0.558703,3.39103,3.12715,0.219912,-0.0313216,0.304115
5113730,0.99,-1.50523,-0.48008,0.0362103,-2.04852,1.58789,1.67349,0.789378,-1.50057,-0.478212,0.0409703,-2.04389,1.58884,1.67786,0.790014,1.10493,0.767362,0.638358,0.869496,0.272714,1.74064,0.0561925,1.15237,0.81656,0.677396,0.895736,0.261083,1.77683,0.0656878,9.73756,-4.78183,14.4047,20.7694,-0.00608656,-0.965673,0.634653,1.72231,-0.467793,3.48871,3.06683,0.212505,-0.0445911,0.29854
5113731,0.99,-1.50409,-0.479295,0.0368833,-2.04763,1.58815,1.67528,0.789437,-1.49942,-0.477388,0.0416519,-2.04298,1.5891,1.67964,0.79008,1.12042,0.772599,0.646176,0.872012,0.268895,1.75403,0.0570498,1.15857,0.82405,0.681607,0.903394,0.261427,1.78745,0.0656961,9.20594,-4.6033,13.9246,20.9201,0.0332811,-0.907079,0.653879,1.76526,-0.356326,3.54302,2.99731,0.205378,-0.0526604,0.293825
5113732,0.99,-1.50294,-0.478494,0.0375646,-2.04673,1.58842,1.67704,0.789498,-1.49825,-0.476557,0.0423378,-2.04207,1.58936,1.68144,0.790145,1.11707,0.77671,0.659128,0.877769,0.264095,1.75636,0.0538698,1.16477,0.83154,0.685819,0.911053,0.261771,1.79807,0.0657043,8.87666,-4.42477,13.4168,21.0709,0.129411,-0.798131,0.634653,1.78047,-0.235425,3.55567,2.92717,0.198772,-0.0557166,0.290536
5113733,0.99,-1.50181,-0.477681,0.03826,-2.04582,1.58869,1.67881,0.789544,-1.49708,-0.475718,0.0430278,-2.04115,1.58963,1.68325,0.790211,1.14839,0.783197,0.668994,0.884867,0.264187,1.74977,0.0534457,1.17097,0.83903,0.69003,0.918711,0.262115,1.80869,0.0657125,8.80128,-4.25021,12.7067,21.1423,0.129411,-0.539952,0.679514,1.76822,-0.111751,3.52801,2.86057,0.19287,-0.0538635,0.288993
5113734,0.99,-1.50065,-0.476867,0.0389533,-2.04491,1.58897,1.68057,0.789598,-1.4959,-0.474871,0.043722,-2.04023,1.58989,1.68507,0.790277,1.14719,0.790254,0.672199,0.894333,0.271493,1.744,0.0526709,1.17718,0.84652,0.694241,0.92637,0.262458,1.81932,0.0657208,8.55134,-4.30179,12.3298,21.2455,0.0506761,-0.192968,0.608103,1.72719,0.0112763,3.46006,2.79813,0.187722,-0.0466943,0.289264
5113735,0.99,-1.49944,-0.476032,0.0396404,-2.04399,1.58925,1.68237,0.789644,-1.49472,-0.474017,0.0444205,-2.03929,1.59015,1.6869,0.790343,1.16154,0.799679,0.680773,0.900367,0.28101,1.75744,0.0496514,1.18338,0.85401,0.698452,0.934029,0.262802,1.82994,0.065729,7.97212,-4.3494,12.2028,21.3922,-0.00608656,-0.0510608,0.588877,1.66606,0.1276,3.36458,2.74128,0.183043,-0.0351311,0.291224
5113736,0.99,-1.49827,-0.475193,0.0403393,-2.04307,1.58954,1.6842,0.789686,-1.49353,-0.473155,0.0451231,-2.03835,1.59041,1.68874,0.790408,1.16536,0.814836,0.687209,0.904983,0.280321,1.7717,0.0472181,1.18958,0.8615,0.702663,0.941687,0.263146,1.84056,0.0657373,7.66664,-4.55173,12.1751,21.543,-0.10771,-0.134374,0.57606,1.59459,0.222387,3.25467,2.69697,0.178691,-0.0204295,0.294599
5113737,0.99,-1.4971,-0.47433,0.041054,-2.04215,1.58981,1.68603,0.789752,-1.49233,-0.472286,0.0458296,-2.0374,1.59068,1.69059,0.790474,1.15818,0.823845,0.695448,0.911435,0.278187,1.79359,0.0537778,1.19466,0.86899,0.706429,0.949162,0.263057,1.84975,0.0655616,7.76979,-4.78183,11.9489,21.7176,-0.0518629,-0.392553,0.330698,1.52247,0.280106,3.14319,2.67323,0.174577,-0.00414927,0.299067
5113738,0.99,-1.49591,-0.47346,0.0417748,-2.04121,1.59008,1.68789,0.789819,-1.49114,-0.47141,0.0465398,-2.03645,1.59094,1.69245,0.790539,1.16411,0.833755,0.700139,0.909777,0.2727,1.79944,0.0562265,1.19974,0.87648,0.710195,0.956636,0.262968,1.85894,0.065386,7.89674,-5.05954,11.7982,21.789,-0.000593394,-0.649816,0.135691,1.45988,0.296543,3.04392,2.67355,0.170484,0.0118537,0.304236
5113739,0.99,-1.49472,-0.472601,0.0424965,-2.04028,1.59035,1.68973,0.7899,-1.48993,-0.470526,0.0472537,-2.03548,1.5912,1.69432,0.790605,1.16939,0.841048,0.701443,0.919694,0.266639,1.82235,0.0664531,1.20481,0.88397,0.713961,0.964111,0.262879,1.86814,0.0652104,7.71821,-5.18649,11.7188,21.8405,0.0900438,-0.791722,-0.174673,1.41049,0.276889,2.9626,2.69674,0.166294,0.0264474,0.309538
5113740,0.99,-1.49349,-0.471731,0.0432098,-2.03933,1.59064,1.6916,0.789979,-1.48872,-0.469635,0.0479714,-2.03451,1.59147,1.69619,0.79067,1.18014,0.845149,0.702296,0.931246,0.273665,1.83005,0.0705014,1.20989,0.89146,0.717727,0.971585,0.262791,1.87733,0.0650347,7.49208,-5.18649,11.5443,21.7652,-0.0289747,-0.933629,-0.400808,1.37446,0.238928,2.90101,2.73182,0.161782,0.0389079,0.314255
5113741,0.99,-1.49229,-0.470869,0.0439375,-2.03837,1.5909,1.69354,0.790049,-1.48751,-0.468736,0.0486929,-2.03353,1.59173,1.69808,0.790734,1.18353,0.866809,0.708034,0.939346,0.267651,1.86457,0.0707128,1.21497,0.89895,0.721494,0.97906,0.262702,1.88653,0.0648591,7.34132,-5.03177,11.3657,21.6898,0.0616625,-1.59647,-0.433767,1.3505,0.190784,2.85834,2.77094,0.15686,0.0486279,0.317584
5113742,0.99,-1.49106,-0.469984,0.0446388,-2.0374,1.59115,1.69542,0.79011,-1.48629,-0.467829,0.0494182,-2.03255,1.59199,1.69998,0.790799,1.197,0.875022,0.711482,0.949476,0.266963,1.86573,0.0655129,1.22005,0.90644,0.72526,0.986534,0.262613,1.89572,0.0646834,7.26594,-4.98416,11.4173,21.4438,0.174272,-1.78324,-0.297354,1.3349,0.121308,2.82931,2.81742,0.151817,0.0551098,0.318843
5113743,0.99,-1.48984,-0.469087,0.0453515,-2.03641,1.59141,1.6973,0.790166,-1.48506,-0.466915,0.0501472,-2.03155,1.59225,1.70188,0.790864,1.19377,0.877214,0.712138,0.965068,0.262752,1.86519,0.0581791,1.22513,0.91393,0.729026,0.994009,0.262524,1.90492,0.0645078,7.36512,-4.95639,11.4411,21.0431,0.276811,-1.48752,-0.0510767,1.32455,0.0414961,2.81002,2.86444,0.146695,0.0579759,0.317782
5113744,0.99,-1.48865,-0.468192,0.0460644,-2.03543,1.59169,1.69911,0.790237,-1.48383,-0.465994,0.05088,-2.03055,1.59252,1.70379,0.790928,1.19653,0.886028,0.709885,0.968759,0.262776,1.88402,0.0631803,1.23021,0.92142,0.732792,1.00148,0.262435,1.91411,0.0643322,7.69441,-5.00797,11.5681,20.8448,0.293291,-0.855809,0.071604,1.32382,-0.0258685,2.80708,2.90044,0.141296,0.056244,0.314643
5113745,0.99,-1.48746,-0.467292,0.0467563,-2.03444,1.59196,1.701,0.790294,-1.48259,-0.465065,0.0516166,-2.02954,1.59278,1.70572,0.790992,1.18078,0.882895,0.705449,0.972648,0.264127,1.88395,0.0614915,1.23529,0.92891,0.736559,1.00896,0.262346,1.9233,0.0641565,8.24983,-4.88101,11.8458,20.7456,0.276811,-0.624181,0.330698,1.34439,-0.0726591,2.83627,2.92405,0.13552,0.0486498,0.309982
5113746,0.99,-1.48623,-0.466378,0.0474731,-2.03345,1.59224,1.70292,0.790367,-1.48135,-0.464129,0.0523569,-2.02852,1.59304,1.70765,0.791056,1.21174,0.886277,0.706621,0.975619,0.268752,1.88362,0.0620516,1.24037,0.9364,0.740325,1.01643,0.262257,1.9325,0.0639809,8.44819,-4.78183,12.0243,20.9201,0.027788,-0.572911,0.42042,1.38751,-0.0907957,2.89907,2.93507,0.129462,0.036458,0.304533
5113747,0.99,-1.48502,-0.465462,0.0481935,-2.03246,1.59254,1.70483,0.79044,-1.48011,-0.463185,0.0531006,-2.0275,1.5933,1.70959,0.79112,1.21108,0.897178,0.703726,0.977578,0.275938,1.89726,0.0646461,1.24433,0.94389,0.743646,1.02371,0.261751,1.94026,0.0636174,8.52357,-4.90482,12.1751,21.1939,-0.226729,-0.694677,0.472605,1.44078,-0.0845443,2.97839,2.93783,0.123463,0.0229285,0.299073
5113748,0.99,-1.48378,-0.46452,0.0488992,-2.03146,1.59283,1.70677,0.790504,-1.47886,-0.462233,0.0538475,-2.02647,1.59356,1.71154,0.791183,1.2154,0.904808,0.70487,0.978385,0.28365,1.91011,0.0657011,1.2483,0.95138,0.746968,1.03099,0.261245,1.94803,0.0632539,8.62672,-5.08334,12.4528,21.4676,-0.418989,-0.785314,0.537607,1.50083,-0.075094,3.06836,2.94383,0.1175,0.00925138,0.294212
5113749,0.99,-1.48257,-0.463587,0.0496215,-2.03044,1.5931,1.70872,0.790584,-1.47761,-0.461274,0.0545978,-2.02543,1.59383,1.71349,0.791246,1.20766,0.914998,0.702412,0.988613,0.275208,1.91019,0.0674564,1.25226,0.95887,0.750289,1.03828,0.260739,1.95579,0.0628903,8.80128,-5.26187,12.5559,21.7176,-0.362227,-0.778905,0.434153,1.5736,-0.076053,3.17526,2.95918,0.11099,-0.00518868,0.290366
5113750,0.99,-1.48135,-0.462624,0.0503441,-2.02942,1.59336,1.71065,0.790638,-1.47635,-0.460308,0.0553514,-2.02439,1.59409,1.71546,0.791308,1.20727,0.928403,0.710515,0.998116,0.272447,1.91816,0.0632334,1.25623,0.96636,0.753611,1.04556,0.260233,1.96356,0.0625268,9.05519,-5.43643,12.5559,21.6898,-0.260603,-0.766088,0.472605,1.66127,-0.0924983,3.30056,2.98325,0.103423,-0.0206674,0.287779
5113751,0.99,-1.48013,-0.461662,0.0510818,-2.02837,1.59361,1.71261,0.790701,-1.47509,-0.459334,0.0561083,-2.02333,1.59435,1.71743,0.791371,1.23491,0.938694,0.718539,1.00939,0.261258,1.92292,0.063333,1.26019,0.97385,0.756932,1.05284,0.259726,1.97132,0.0621633,8.95601,-5.48801,12.429,21.4438,-0.0234816,-0.791722,0.42042,1.75101,-0.126553,3.42557,3.01404,0.0950437,-0.0354244,0.286497
5113752,0.99,-1.47884,-0.460716,0.0518297,-2.02732,1.59388,1.71454,0.790769,-1.47383,-0.458353,0.0568686,-2.02227,1.5946,1.71941,0.791432,1.24876,0.940352,0.729077,1.02349,0.261061,1.9279,0.0649119,1.26415,0.98134,0.760254,1.06012,0.25922,1.97909,0.0617997,8.14668,-5.43643,12.1235,21.0709,0.129411,-0.649816,0.330698,1.81906,-0.164776,3.51784,3.04319,0.0866062,-0.0460837,0.286448
5113753,0.99,-1.47755,-0.459737,0.0525866,-2.02624,1.59415,1.7165,0.790829,-1.47256,-0.457364,0.0576322,-2.02121,1.59486,1.7214,0.791494,1.25224,0.948601,0.740539,1.03533,0.262577,1.93046,0.0641761,1.26812,0.98883,0.763575,1.0674,0.258714,1.98685,0.0614362,7.4405,-5.4642,11.6196,20.6226,0.129411,-0.469457,0.278513,1.85356,-0.185852,3.5614,3.05883,0.0786698,-0.0509045,0.287441
5113754,0.99,-1.4763,-0.45877,0.0533677,-2.02516,1.59443,1.71848,0.790896,-1.47129,-0.456368,0.0583991,-2.02013,1.59512,1.72339,0.791555,1.25976,0.955701,0.750373,1.04735,0.260613,1.9393,0.0658726,1.27208,0.99632,0.766897,1.07468,0.258208,1.99462,0.0610727,7.11122,-5.43643,10.9611,20.2735,0.078142,-0.443822,0.155832,1.85623,-0.18319,3.55876,3.05676,0.0716078,-0.0501451,0.289151
5113755,0.99,-1.47503,-0.457788,0.0541351,-2.02408,1.59471,1.72044,0.790963,-1.47001,-0.455364,0.0591693,-2.01905,1.59538,1.72539,0.791616,1.25791,0.95816,0.756613,1.06337,0.267369,1.94866,0.0664493,1.27605,1.00381,0.770218,1.08196,0.257702,2.00238,0.0607092,6.91285,-5.28568,10.5286,20.0235,-0.0802443,-0.359594,0.0587866,1.83429,-0.154148,3.52083,3.03446,0.0654514,-0.044906,0.291202
5113756,0.99,-1.47375,-0.456785,0.0549148,-2.02299,1.59499,1.72242,0.79103,-1.46873,-0.454353,0.0599428,-2.01796,1.59564,1.7274,0.791676,1.2612,0.970903,0.75968,1.06361,0.274211,1.94162,0.0668502,1.28001,1.0113,0.77354,1.08924,0.257195,2.01015,0.0603456,6.75813,-5.33725,10.1755,19.9244,-0.294478,-0.115148,-0.0382593,1.79879,-0.10211,3.46381,2.994,0.0598534,-0.0367705,0.293164
