shamilmamedov/beam_handling/log/param_estimation_ICRA/ocp_Z_15cm_0.42s_3.csv
duration, success rate, q[0], q[1], q[2], q[3], q[4], q[5], q[6],q_d[0], q_d[1], q_d[2], q_d[3], q_d[4], q_d[5], q_d[6],dq[0], dq[1], dq[2], dq[3], dq[4], dq[5], dq[6],dq_d[0], dq_d[1], dq_d[2], dq_d[3], dq_d[4], dq_d[5], dq_d[6],tau_J[0], tau_J[1], tau_J[2], tau_J[3], tau_J[4], tau_J[5], tau_J[6],tau_ext_hat_filtered[0], tau_ext_hat_filtered[1], tau_ext_hat_filtered[2], tau_ext_hat_filtered[3], tau_ext_hat_filtered[4], tau_ext_hat_filtered[5], tau_ext_hat_filtered[6]
627237,0,-1.57044,-0.523075,0.000204118,-2.09647,-0.00110839,1.57105,0.785655,-1.5708,-0.523598,8.04568e-07,-2.0944,-1.05168e-06,1.5708,0.785399,0.00023056,0.000413841,-0.000554153,0.000301384,-0.000246766,5.34946e-05,-0.000224958,0,0,0,0,0,0,0,-0.478199,-10.0107,-0.81384,21.6144,1.73525,1.49526,-0.200308,-0.466336,-0.873108,-0.356199,3.08211,1.0123,-0.175449,-0.196083
627238,1,-1.57044,-0.523075,0.000204118,-2.09647,-0.00110779,1.57105,0.785657,-1.5708,-0.523598,8.04568e-07,-2.0944,-1.05168e-06,1.5708,0.785399,0.000153707,0.000275894,-0.000369435,-0.000448691,3.89396e-05,-0.000201696,0.000324746,0,0,0,0,0,0,0,-0.478199,-10.0107,-0.81384,21.6422,1.72975,1.50167,-0.213125,-0.465604,-0.874821,-0.354984,3.08357,1.01243,-0.175276,-0.196282
627239,1,-1.57044,-0.523073,0.000205789,-2.09647,-0.00110459,1.57105,0.785656,-1.5708,-0.523598,8.04568e-07,-2.0944,-1.05168e-06,1.5708,0.785399,0.000102471,0.00018393,0.000310522,-0.000299128,2.59597e-05,-0.000134464,-2.08617e-05,0,0,0,0,0,0,0,-0.478199,-10.0107,-0.837644,21.6422,1.72975,1.50167,-0.206716,-0.465197,-0.876898,-0.354176,3.08516,1.01254,-0.17509,-0.196488
627240,1,-1.57044,-0.523078,0.000205789,-2.09647,-0.00110611,1.57105,0.785653,-1.5708,-0.523598,8.04568e-07,-2.0944,-1.05168e-06,1.5708,0.785399,6.83142e-05,-0.000991004,0.000207015,0.00100701,0.000220757,0.000418984,-0.000963344,0,0,0,0,0,0,0,-0.478199,-9.9631,-0.837644,21.5906,1.72426,1.48794,-0.181082,-0.465385,-0.877617,-0.35424,3.08597,1.01262,-0.174969,-0.196704
627241,1,-1.57044,-0.523075,0.000205789,-2.09646,-0.00110743,1.57104,0.785657,-1.5708,-0.523598,8.04568e-07,-2.0944,-1.05168e-06,1.5708,0.785399,-0.000511269,0.000452954,0.00013801,0.000671338,-5.62792e-05,8.0551e-06,0.000544566,0,0,0,0,0,0,0,-0.454395,-10.0107,-0.837644,21.5906,1.72975,1.49526,-0.213125,-0.465864,-0.875985,-0.354771,3.08515,1.01264,-0.175005,-0.196921
627242,1,-1.57043,-0.523077,0.000207459,-2.09647,-0.00110706,1.57105,0.785656,-1.5708,-0.523598,8.04568e-07,-2.0944,-1.05168e-06,1.5708,0.785399,0.000865579,-0.000254842,0.000648818,0.000447559,0.000165931,5.37007e-06,0.000125685,0,0,0,0,0,0,0,-0.50597,-9.98691,-0.861447,21.5906,1.72426,1.49526,-0.206716,-0.466586,-0.873784,-0.355686,3.08367,1.01264,-0.17512,-0.19712
627243,1,-1.57043,-0.523071,0.000205789,-2.09647,-0.00110775,1.57105,0.78565,-1.5708,-0.523598,8.04568e-07,-2.0944,-1.05168e-06,1.5708,0.785399,0.000577053,0.00103653,-0.000124266,0.000298373,-9.28298e-05,3.58005e-06,-0.00181508,0,0,0,0,0,0,0,-0.50597,-10.0385,-0.837644,21.5906,1.72975,1.49526,-0.155447,-0.467881,-0.872711,-0.357363,3.08263,1.01261,-0.175204,-0.1973
627244,1,-1.57044,-0.523075,0.000207459,-2.09646,-0.00110519,1.57105,0.785652,-1.5708,-0.523598,8.04568e-07,-2.0944,-1.05168e-06,1.5708,0.785399,-0.00137854,4.14067e-05,0.000473968,0.000198915,-0.000265337,0.000273654,-0.000497978,0,0,0,0,0,0,0,-0.430592,-10.0107,-0.861447,21.5906,1.73525,1.48794,-0.174673,-0.469045,-0.873221,-0.358838,3.08235,1.01259,-0.175225,-0.197454
627245,1,-1.57044,-0.523077,0.000207459,-2.09647,-0.00110794,1.57105,0.785657,-1.5708,-0.523598,8.04568e-07,-2.0944,-1.05168e-06,1.5708,0.785399,0.0001946,-0.000529207,0.000315978,-0.000424202,-0.000380342,-0.00032619,0.00132953,0,0,0,0,0,0,0,-0.478199,-9.98691,-0.861447,21.6144,1.74074,1.50167,-0.219534,-0.469547,-0.873973,-0.359516,3.08239,1.01262,-0.175205,-0.197545
627246,1,-1.57044,-0.523073,0.000204118,-2.09647,-0.00110804,1.57105,0.785654,-1.5708,-0.523598,8.04568e-07,-2.0944,-1.05168e-06,1.5708,0.785399,-0.000427078,0.000204007,-0.000902972,-0.000282801,-5.01107e-05,0.000291166,-0.000300443,0,0,0,0,0,0,0,-0.454395,-10.0107,-0.81384,21.6144,1.73525,1.48794,-0.18749,-0.469511,-0.874166,-0.359489,3.08253,1.01269,-0.175149,-0.197571
627247,1,-1.57044,-0.523076,0.000205789,-2.09647,-0.00110767,1.57105,0.785651,-1.5708,-0.523598,8.04568e-07,-2.0944,-1.05168e-06,1.5708,0.785399,0.000272093,-0.000420807,-4.51691e-05,-0.000188534,0.000170043,0.000194111,-0.00114973,0,0,0,0,0,0,0,-0.478199,-9.98691,-0.837644,21.6144,1.72975,1.48794,-0.161856,-0.468933,-0.874321,-0.358617,3.08283,1.01281,-0.175066,-0.197566
627248,1,-1.57044,-0.523073,0.000205789,-2.09647,-0.00110836,1.57105,0.785654,-1.5708,-0.523598,8.04568e-07,-2.0944,-1.05168e-06,1.5708,0.785399,-0.000375417,0.000276274,-3.01127e-05,-0.000125689,-9.00883e-05,-0.00014186,0.000182948,0,0,0,0,0,0,0,-0.454395,-10.0107,-0.837644,21.6144,1.73525,1.49526,-0.18749,-0.468273,-0.874446,-0.357613,3.08311,1.01295,-0.174992,-0.197527
627249,1,-1.57044,-0.523074,0.000207459,-2.09647,-0.00110717,1.57105,0.785655,-1.5708,-0.523598,8.04568e-07,-2.0944,-1.05168e-06,1.5708,0.785399,-0.000250278,-0.000372629,0.000536737,-0.000733407,0.000346842,-0.000331932,0.000596683,0,0,0,0,0,0,0,-0.454395,-9.98691,-0.861447,21.6422,1.72426,1.50167,-0.200308,-0.467906,-0.874766,-0.357127,3.08358,1.01308,-0.174911,-0.197434
627250,1,-1.57044,-0.523069,0.000204118,-2.09647,-0.0011084,1.57105,0.785652,-1.5708,-0.523598,8.04568e-07,-2.0944,-1.05168e-06,1.5708,0.785399,0.00038996,0.00151482,-0.000755799,0.000160676,-0.000175673,-0.000221288,-0.000551647,0,0,0,0,0,0,0,-0.478199,-10.0623,-0.81384,21.6144,1.73525,1.50167,-0.174673,-0.467722,-0.87623,-0.356966,3.08463,1.01322,-0.174788,-0.197293
627251,1,-1.57044,-0.523072,0.000207459,-2.09647,-0.00110779,1.57105,0.785655,-1.5708,-0.523598,8.04568e-07,-2.0944,-1.05168e-06,1.5708,0.785399,-0.000296839,-0.000196547,0.000609758,0.000663929,8.63352e-05,-0.000147526,0.000344312,0,0,0,0,0,0,0,-0.454395,-10.0107,-0.861447,21.5906,1.72975,1.50167,-0.193899,-0.467611,-0.878764,-0.356895,3.08584,1.01334,-0.174675,-0.197125
627252,1,-1.57044,-0.523074,0.000207459,-2.09647,-0.00110718,1.57105,0.785657,-1.5708,-0.523598,8.04568e-07,-2.0944,-1.05168e-06,1.5708,0.785399,-0.000197892,-0.000687843,0.000406505,-0.000114192,0.000261007,0.000410276,0.000941618,0,0,0,0,0,0,0,-0.454395,-9.98691,-0.861447,21.6144,1.72426,1.48794,-0.213125,-0.467754,-0.879833,-0.357283,3.08598,1.01343,-0.174658,-0.196937
627253,1,-1.57044,-0.523076,0.000204118,-2.09647,-0.0011084,1.57105,0.78565,-1.5708,-0.523598,8.04568e-07,-2.0944,-1.05168e-06,1.5708,0.785399,-0.000131928,-0.000458562,-0.000842621,-7.61283e-05,-0.000232896,2.24995e-06,-0.00174584,0,0,0,0,0,0,0,-0.454395,-9.98691,-0.81384,21.6144,1.73525,1.49526,-0.149038,-0.467854,-0.878505,-0.357708,3.08502,1.01349,-0.174715,-0.19675
627254,1,-1.57044,-0.523074,0.000207459,-2.09647,-0.00110779,1.57104,0.785654,-1.5708,-0.523598,8.04568e-07,-2.0944,-1.05168e-06,1.5708,0.785399,-0.000644764,-0.000305708,0.000551877,-0.00125718,4.81864e-05,-0.000235859,0.000260258,0,0,0,0,0,0,0,-0.430592,-9.98691,-0.861447,21.666,1.72975,1.50167,-0.18749,-0.467469,-0.876667,-0.357487,3.08418,1.01358,-0.174732,-0.196569
627255,1,-1.57043,-0.523074,0.000202169,-2.09647,-0.00110962,1.57105,0.785657,-1.5708,-0.523598,8.04568e-07,-2.0944,-1.05168e-06,1.5708,0.785399,0.00133339,0.000353007,-0.00139532,-0.000838119,-0.000578227,-0.000157239,0.0013603,0,0,0,0,0,0,0,-0.50597,-10.0107,-0.786069,21.666,1.74623,1.50167,-0.219534,-0.466921,-0.876185,-0.357018,3.08455,1.01369,-0.174625,-0.196366
627256,1,-1.57044,-0.523076,0.000207459,-2.09647,-0.00110779,1.57105,0.785657,-1.5708,-0.523598,8.04568e-07,-2.0944,-1.05168e-06,1.5708,0.785399,0.000239316,-0.000878286,0.000833025,-1.93386e-06,0.000224867,-0.000342185,0.000669508,0,0,0,0,0,0,0,-0.478199,-9.9631,-0.861447,21.6422,1.72975,1.50808,-0.213125,-0.466763,-0.87648,-0.35696,3.08552,1.01379,-0.174459,-0.196147
627257,1,-1.57044,-0.523074,0.000209408,-2.09647,-0.00110779,1.57105,0.785653,-1.5708,-0.523598,8.04568e-07,-2.0944,-1.05168e-06,1.5708,0.785399,-0.000397268,0.0005281,0.00120496,0.00120514,0.000149911,0.000246594,-0.000740456,0,0,0,0,0,0,0,-0.454395,-10.0107,-0.889218,21.5906,1.72975,1.49526,-0.181082,-0.467471,-0.875773,-0.358183,3.0856,1.01384,-0.174393,-0.195956
627258,1,-1.57044,-0.523075,0.000207459,-2.09647,-0.00110398,1.57105,0.785658,-1.5708,-0.523598,8.04568e-07,-2.0944,-1.05168e-06,1.5708,0.785399,0.000291967,0.000352067,0.000153695,0.000246612,0.000303391,0.000673023,0.00116788,0,0,0,0,0,0,0,-0.478199,-10.0107,-0.861447,21.6144,1.72426,1.48153,-0.225942,-0.468768,-0.874823,-0.360434,3.08484,1.01384,-0.174443,-0.195811
627259,1,-1.57044,-0.523077,0.000209408,-2.09647,-0.00110733,1.57105,0.785657,-1.5708,-0.523598,8.04568e-07,-2.0944,-1.05168e-06,1.5708,0.785399,0.000194645,-0.000322101,0.000752077,-0.000485206,-0.00020464,-0.000297304,0.000303865,0,0,0,0,0,0,0,-0.478199,-9.98691,-0.889218,21.6422,1.73525,1.50167,-0.213125,-0.47012,-0.874555,-0.362818,3.08424,1.01384,-0.174497,-0.19571
627260,1,-1.57043,-0.523079,0.000207459,-2.09647,-0.00110621,1.57105,0.78565,-1.5708,-0.523598,8.04568e-07,-2.0944,-1.05168e-06,1.5708,0.785399,0.00133619,-0.000771546,-0.000148229,0.000326144,0.000473925,-0.000435561,-0.00217101,0,0,0,0,0,0,0,-0.529774,-9.9631,-0.861447,21.6144,1.71877,1.50808,-0.149038,-0.471591,-0.873759,-0.36531,3.08374,1.01384,-0.174524,-0.195667
627261,1,-1.57043,-0.523075,0.000207459,-2.09647,-0.00110706,1.57105,0.785657,-1.5708,-0.523598,8.04568e-07,-2.0944,-1.05168e-06,1.5708,0.785399,0.000890792,4.2448e-05,-9.88193e-05,0.000217429,0.000112499,-0.000290374,0.00116361,0,0,0,0,0,0,0,-0.529774,-9.98691,-0.861447,21.6144,1.72426,1.50808,-0.219534,-0.473149,-0.871914,-0.367719,3.08287,1.01381,-0.17456,-0.195667
627262,1,-1.57044,-0.523075,0.000207459,-2.09647,-0.00110836,1.57105,0.78566,-1.5708,-0.523598,8.04568e-07,-2.0944,-1.05168e-06,1.5708,0.785399,-0.00116938,0.000585111,-6.58796e-05,-0.000504661,-0.000331901,0.000552402,0.00148781,0,0,0,0,0,0,0,-0.454395,-10.0107,-0.861447,21.6422,1.73525,1.48794,-0.23876,-0.474064,-0.870923,-0.369069,3.08243,1.0138,-0.17455,-0.195673
627263,1,-1.57044,-0.523075,0.000205789,-2.09647,-0.00110839,1.57105,0.785654,-1.5708,-0.523598,8.04568e-07,-2.0944,-1.05168e-06,1.5708,0.785399,-0.000222772,0.000390074,-0.000600732,-0.000336441,-0.000221268,0.000605627,-0.000906995,0,0,0,0,0,0,0,-0.478199,-10.0107,-0.837644,21.6422,1.73525,1.48153,-0.18749,-0.473644,-0.872176,-0.368545,3.0832,1.01388,-0.174439,-0.195704
627264,1,-1.57044,-0.523077,0.000205789,-2.09647,-0.00110779,1.57105,0.785651,-1.5708,-0.523598,8.04568e-07,-2.0944,-1.05168e-06,1.5708,0.785399,-0.000148515,-0.000296763,-0.000400488,0.00042532,5.59387e-05,-0.000104875,-0.0015541,0,0,0,0,0,0,0,-0.478199,-9.98691,-0.837644,21.6144,1.72975,1.49526,-0.161856,-0.472288,-0.874071,-0.36666,3.08431,1.01401,-0.174312,-0.19579
627265,1,-1.57044,-0.523077,0.000204118,-2.09647,-0.00110779,1.57104,0.785657,-1.5708,-0.523598,8.04568e-07,-2.0944,-1.05168e-06,1.5708,0.785399,-9.90097e-05,-0.000197842,-0.000823804,0.000283547,3.72925e-05,0.000201351,0.000862805,0,0,0,0,0,0,0,-0.478199,-9.98691,-0.81384,21.6144,1.72975,1.48794,-0.213125,-0.470642,-0.874608,-0.364252,3.0846,1.01414,-0.174276,-0.195899
627266,1,-1.57044,-0.523075,0.000205789,-2.09647,-0.00110779,1.57105,0.785655,-1.5708,-0.523598,8.04568e-07,-2.0944,-1.05168e-06,1.5708,0.785399,-0.000622818,0.000424917,7.60942e-06,0.000745843,2.48617e-05,0.000134234,0.000100486,0,0,0,0,0,0,0,-0.454395,-10.0107,-0.837644,21.5906,1.72975,1.48794,-0.200308,-0.468935,-0.874147,-0.361693,3.08415,1.01425,-0.174334,-0.19599
627267,1,-1.57044,-0.523077,0.000205789,-2.09647,-0.0011084,1.57105,0.785653,-1.5708,-0.523598,8.04568e-07,-2.0944,-1.05168e-06,1.5708,0.785399,0.0001416,-0.000273534,5.07295e-06,-5.95832e-05,-0.000186876,-0.000419137,-0.000645086,0,0,0,0,0,0,0,-0.478199,-9.98691,-0.837644,21.6144,1.73525,1.50167,-0.181082,-0.467606,-0.873654,-0.359695,3.08355,1.01434,-0.174431,-0.196063
627268,1,-1.57044,-0.523077,0.000205789,-2.09647,-0.0011084,1.57104,0.785652,-1.5708,-0.523598,8.04568e-07,-2.0944,-1.05168e-06,1.5708,0.785399,-0.000462412,-0.000182356,3.38196e-06,-3.97222e-05,-0.000124584,-0.000279425,-0.000667416,0,0,0,0,0,0,0,-0.454395,-9.98691,-0.837644,21.6144,1.73525,1.50167,-0.174673,-0.466903,-0.873044,-0.358638,3.08308,1.01441,-0.17451,-0.196123
627269,1,-1.57044,-0.523073,0.000205789,-2.09647,-0.00110657,1.57104,0.785656,-1.5708,-0.523598,8.04568e-07,-2.0944,-1.05168e-06,1.5708,0.785399,-0.000308275,0.00108486,2.25464e-06,0.000530331,0.000527296,5.10758e-05,0.00074185,0,0,0,0,0,0,0,-0.454395,-10.0385,-0.837644,21.5906,1.71877,1.49526,-0.206716,-0.466527,-0.873031,-0.358092,3.08301,1.01447,-0.174546,-0.196151
627270,1,-1.57044,-0.523073,0.000205789,-2.09647,-0.0011084,1.57105,0.785655,-1.5708,-0.523598,8.04568e-07,-2.0944,-1.05168e-06,1.5708,0.785399,-0.000762328,7.3623e-05,1.50309e-06,-0.000203258,-0.000258821,0.000305318,0.000257208,0,0,0,0,0,0,0,-0.430592,-10.0107,-0.837644,21.6144,1.73525,1.48794,-0.200308,-0.466165,-0.874405,-0.357647,3.08348,1.01454,-0.174542,-0.196141
627271,1,-1.57044,-0.523074,0.000202169,-2.09646,-0.00110779,1.57105,0.785652,-1.5708,-0.523598,8.04568e-07,-2.0944,-1.05168e-06,1.5708,0.785399,0.000605405,-0.00050773,-0.00120542,0.000421306,3.0903e-05,0.000203545,-0.000777964,0,0,0,0,0,0,0,-0.478199,-9.98691,-0.786069,21.5906,1.72975,1.48794,-0.174673,-0.465614,-0.875555,-0.356929,3.08382,1.01461,-0.174544,-0.196116
627272,1,-1.57044,-0.523072,0.000207459,-2.09647,-0.00110459,1.57104,0.785653,-1.5708,-0.523598,8.04568e-07,-2.0944,-1.05168e-06,1.5708,0.785399,-0.000153209,0.000218325,0.000959622,-0.000275941,2.0602e-05,-0.000372929,-0.000281284,0,0,0,0,0,0,0,-0.454395,-10.0107,-0.861447,21.6144,1.72975,1.50167,-0.181082,-0.465262,-0.875495,-0.356428,3.08366,1.01466,-0.174575,-0.196081
627273,1,-1.57044,-0.523074,0.000205789,-2.09647,-0.00110611,1.57105,0.785658,-1.5708,-0.523598,8.04568e-07,-2.0944,-1.05168e-06,1.5708,0.785399,0.000454673,-0.000411262,8.2936e-05,-0.000833575,0.000217185,-0.00024862,0.00147399,0,0,0,0,0,0,0,-0.478199,-9.98691,-0.837644,21.6422,1.72426,1.50167,-0.225942,-0.465769,-0.875376,-0.357202,3.08377,1.01467,-0.174562,-0.196017
627274,1,-1.57044,-0.523076,0.000204118,-2.09647,-0.00110424,1.57105,0.785651,-1.5708,-0.523598,8.04568e-07,-2.0944,-1.05168e-06,1.5708,0.785399,0.000303115,-0.000274175,-0.000501521,-0.000555716,-5.86604e-05,-0.000165746,-0.00139093,0,0,0,0,0,0,0,-0.478199,-9.98691,-0.81384,21.6422,1.72975,1.50167,-0.161856,-0.466739,-0.875428,-0.358642,3.08442,1.01466,-0.174471,-0.195931
627275,1,-1.57043,-0.523076,0.000205789,-2.09647,-0.00110402,1.57105,0.785655,-1.5708,-0.523598,8.04568e-07,-2.0944,-1.05168e-06,1.5708,0.785399,0.00085169,-0.000739595,0.000222464,0.000279136,-0.000242557,0.000398129,0.000496867,0,0,0,0,0,0,0,-0.50597,-9.9631,-0.837644,21.6144,1.73525,1.48794,-0.200308,-0.467733,-0.87467,-0.359995,3.08477,1.01464,-0.174389,-0.195848
627276,1,-1.57044,-0.523078,0.000205789,-2.09647,-0.00110694,1.57105,0.785656,-1.5708,-0.523598,8.04568e-07,-2.0944,-1.05168e-06,1.5708,0.785399,-8.18199e-05,-0.000493063,0.00014831,0.000186091,-0.000161705,-5.84824e-06,0.000568604,0,0,0,0,0,0,0,-0.478199,-9.9631,-0.837644,21.6144,1.73525,1.49526,-0.206716,-0.468914,-0.87246,-0.361531,3.08414,1.01459,-0.174403,-0.195757
627277,1,-1.57044,-0.523073,0.000202169,-2.09647,-0.0011073,1.57105,0.785652,-1.5708,-0.523598,8.04568e-07,-2.0944,-1.05168e-06,1.5708,0.785399,-0.000611359,0.000784915,-0.00110755,0.000680873,9.56472e-05,-3.89883e-06,-0.000807725,0,0,0,0,0,0,0,-0.454395,-10.0107,-0.786069,21.5906,1.72975,1.49526,-0.174673,-0.469528,-0.870202,-0.36221,3.08306,1.01456,-0.174484,-0.195667
627278,1,-1.57044,-0.523074,0.000204118,-2.09647,-0.00110702,1.57105,0.785653,-1.5708,-0.523598,8.04568e-07,-2.0944,-1.05168e-06,1.5708,0.785399,0.00014924,0.000523277,-8.87546e-05,-0.000102897,0.000267215,0.000268668,-0.000301125,0,0,0,0,0,0,0,-0.478199,-10.0107,-0.81384,21.6144,1.72426,1.48794,-0.181082,-0.469079,-0.869948,-0.361285,3.08258,1.01459,-0.174546,-0.195588
627279,1,-1.57043,-0.523077,0.000204118,-2.09647,-0.00110713,1.57105,0.785655,-1.5708,-0.523598,8.04568e-07,-2.0944,-1.05168e-06,1.5708,0.785399,0.000749106,-0.000207961,-5.91697e-05,-0.000718212,0.000178144,-9.21553e-05,0.000511327,0,0,0,0,0,0,0,-0.50597,-9.98691,-0.81384,21.6422,1.72426,1.49526,-0.200308,-0.468675,-0.871354,-0.360313,3.08299,1.01465,-0.174537,-0.195497
627280,1,-1.57044,-0.523075,0.000209408,-2.09647,-0.00110838,1.57105,0.785657,-1.5708,-0.523598,8.04568e-07,-2.0944,-1.05168e-06,1.5708,0.785399,-0.00126383,0.000418171,0.00172379,0.000170806,-0.000288139,-6.14368e-05,0.000815603,0,0,0,0,0,0,0,-0.430592,-10.0107,-0.889218,21.6144,1.73525,1.49526,-0.213125,-0.469125,-0.873099,-0.360616,3.08392,1.01466,-0.174476,-0.195385
627281,1,-1.57044,-0.523077,0.000205789,-2.09647,-0.0011052,1.57105,0.785654,-1.5708,-0.523598,8.04568e-07,-2.0944,-1.05168e-06,1.5708,0.785399,0.000271069,-0.000278031,-5.72317e-05,-0.000535743,-0.000192092,-0.000278317,-0.000405701,0,0,0,0,0,0,0,-0.478199,-9.98691,-0.837644,21.6422,1.73525,1.50167,-0.18749,-0.470086,-0.874637,-0.361868,3.0849,1.01465,-0.174409,-0.195272
627282,1,-1.57044,-0.523075,0.000202169,-2.09647,-0.00110414,1.57105,0.785652,-1.5708,-0.523598,8.04568e-07,-2.0944,-1.05168e-06,1.5708,0.785399,0.000180712,0.000371458,-0.00124458,0.000849264,-0.000128062,0.000323082,-0.000745185,0,0,0,0,0,0,0,-0.478199,-10.0107,-0.786069,21.5906,1.73525,1.48794,-0.174673,-0.470644,-0.87561,-0.362516,3.08552,1.01466,-0.174377,-0.195186
627283,1,-1.57043,-0.523077,0.000207459,-2.09646,-0.00110576,1.57104,0.785657,-1.5708,-0.523598,8.04568e-07,-2.0944,-1.05168e-06,1.5708,0.785399,0.0013269,-0.000309173,0.000933518,0.00112299,0.000321527,-0.000293238,0.000927364,0,0,0,0,0,0,0,-0.529774,-9.98691,-0.861447,21.5668,1.72426,1.50167,-0.213125,-0.470967,-0.875386,-0.362589,3.08507,1.01465,-0.174454,-0.195115
627284,1,-1.57044,-0.523077,0.000207459,-2.09647,-0.00110732,1.57104,0.785656,-1.5708,-0.523598,8.04568e-07,-2.0944,-1.05168e-06,1.5708,0.785399,-0.00143545,-0.000206116,0.000622345,-0.000364965,1.09006e-05,0.000313134,0.000380883,0,0,0,0,0,0,0,-0.430592,-9.98691,-0.861447,21.6144,1.72975,1.48794,-0.206716,-0.471844,-0.873887,-0.363444,3.08369,1.01461,-0.174617,-0.195043
627285,1,-1.57043,-0.523073,0.000203658,-2.09647,-0.00110641,1.57105,0.78565,-1.5708,-0.523598,8.04568e-07,-2.0944,-1.05168e-06,1.5708,0.785399,0.000806271,0.00106902,-0.000141915,-0.000892924,0.000414168,0.000208756,-0.00164495,0,0,0,0,0,0,0,-0.50597,-10.0385,-0.837644,21.6422,1.71877,1.48794,-0.155447,-0.472727,-0.873422,-0.364447,3.08316,1.01458,-0.174687,-0.194986
627286,1,-1.57044,-0.523075,0.000206749,-2.09647,-0.00110261,1.57105,0.785654,-1.5708,-0.523598,8.04568e-07,-2.0944,-1.05168e-06,1.5708,0.785399,-0.000112099,6.30631e-05,0.000462202,5.43311e-05,0.000513471,0.000139171,9.01619e-05,0,0,0,0,0,0,0,-0.478199,-10.0107,-0.861447,21.6144,1.71236,1.48794,-0.18749,-0.473395,-0.875315,-0.365153,3.08417,1.0146,-0.174615,-0.19494
627287,1,-1.57044,-0.523075,0.000205552,-2.09647,-0.00110732,1.57105,0.785656,-1.5708,-0.523598,8.04568e-07,-2.0944,-1.05168e-06,1.5708,0.785399,-7.47328e-05,4.20421e-05,-0.000248677,-0.00117021,-0.000505397,-0.000178487,0.000772185,0,0,0,0,0,0,0,-0.478199,-10.0107,-0.837644,21.666,1.73525,1.49526,-0.206716,-0.473934,-0.877795,-0.36566,3.08569,1.01461,-0.174499,-0.194873
627288,1,-1.57044,-0.523077,0.000204039,-2.09647,-0.00110804,1.57105,0.785655,-1.5708,-0.523598,8.04568e-07,-2.0944,-1.05168e-06,1.5708,0.785399,-4.98218e-05,-0.000528784,-0.000722597,-0.000223325,-0.000336931,0.000389635,4.0072e-05,0,0,0,0,0,0,0,-0.478199,-9.98691,-0.81384,21.6422,1.73525,1.48153,-0.193899,-0.473821,-0.879432,-0.365218,3.08709,1.01463,-0.174391,-0.194787
627289,0.99,-1.57044,-0.523075,0.000209381,-2.09647,-0.00110706,1.57105,0.785654,-1.5708,-0.523598,8.04568e-07,-2.0944,-1.05168e-06,1.5708,0.785399,-3.32146e-05,0.000204289,0.00128151,0.000500731,0.00018228,-0.000723588,-0.000210644,0,0,0,0,0,0,0,-0.478199,-10.0107,-0.889218,21.6144,1.72426,1.50808,-0.18749,-0.473486,-0.879724,-0.364463,3.08778,1.01463,-0.174361,-0.194703
627290,0.99,-1.57044,-0.523075,0.00020578,-2.09647,-0.00110455,1.57105,0.785657,-1.5708,-0.523598,8.04568e-07,-2.0944,-1.05168e-06,1.5708,0.785399,-0.00113577,-0.000420619,-0.000352088,-0.000315793,-8.19303e-05,-0.000245033,0.000809006,0,0,0,0,0,0,0,-0.430592,-9.98691,-0.837644,21.6422,1.72975,1.50167,-0.213125,-0.473357,-0.878951,-0.364156,3.08766,1.0146,-0.174422,-0.194627
627291,0.99,-1.57044,-0.523076,0.000205786,-2.09647,-0.00110229,1.57105,0.785657,-1.5708,-0.523598,8.04568e-07,-2.0944,-1.05168e-06,1.5708,0.785399,-0.000200366,-0.000837225,-0.000234725,0.000439085,0.000352281,7.40038e-05,0.000539337,0,0,0,0,0,0,0,-0.454395,-9.9631,-0.837644,21.6144,1.71877,1.49526,-0.213125,-0.472737,-0.877,-0.363294,3.08685,1.01457,-0.174537,-0.194567
627292,0.99,-1.57044,-0.523074,0.000204117,-2.09647,-0.00110636,1.57105,0.785655,-1.5708,-0.523598,8.04568e-07,-2.0944,-1.05168e-06,1.5708,0.785399,0.000423235,0.000555474,-0.000713296,-0.000356891,-0.000172047,4.93359e-05,-0.00011516,0,0,0,0,0,0,0,-0.478199,-10.0107,-0.81384,21.6422,1.72975,1.49526,-0.200308,-0.471654,-0.874491,-0.361754,3.08571,1.01456,-0.174672,-0.194544
627293,0.99,-1.57044,-0.523075,0.000205788,-2.09647,-0.00110609,1.57104,0.785654,-1.5708,-0.523598,8.04568e-07,-2.0944,-1.05168e-06,1.5708,0.785399,-0.000274656,0.000370316,8.12816e-05,-0.000237927,0.000292203,0.000304158,-0.000551491,0,0,0,0,0,0,0,-0.454395,-10.0107,-0.837644,21.6422,1.71877,1.48794,-0.18749,-0.470685,-0.873684,-0.360316,3.0854,1.01454,-0.174737,-0.194564
627294,0.99,-1.57044,-0.523077,0.000207459,-2.09647,-0.00110824,1.57104,0.785658,-1.5708,-0.523598,8.04568e-07,-2.0944,-1.05168e-06,1.5708,0.785399,0.000373708,-0.000309935,0.000611,0.000490996,-0.00041555,0.000440131,0.00105649,0,0,0,0,0,0,0,-0.478199,-9.98691,-0.861447,21.6144,1.73525,1.48153,-0.225942,-0.470261,-0.874044,-0.359716,3.08564,1.0145,-0.17477,-0.194613
627295,0.99,-1.57044,-0.523075,0.000204118,-2.09647,-0.00110774,1.57105,0.785656,-1.5708,-0.523598,8.04568e-07,-2.0944,-1.05168e-06,1.5708,0.785399,0.000249139,0.000350189,-0.000706291,-0.000322283,-7.35825e-05,5.60617e-05,-7.74814e-06,0,0,0,0,0,0,0,-0.478199,-10.0107,-0.81384,21.6422,1.72975,1.48794,-0.206716,-0.470415,-0.874108,-0.35999,3.08565,1.01441,-0.174844,-0.194684
627296,0.99,-1.57043,-0.523073,0.000205789,-2.09647,-0.00110519,1.57105,0.785655,-1.5708,-0.523598,8.04568e-07,-2.0944,-1.05168e-06,1.5708,0.785399,0.000815706,0.000233459,8.59514e-05,-0.000214856,-0.000252506,-0.000233893,-0.000479883,0,0,0,0,0,0,0,-0.50597,-10.0107,-0.837644,21.6422,1.73525,1.49526,-0.193899,-0.470734,-0.874682,-0.360411,3.08601,1.01433,-0.174901,-0.19479
627297,0.99,-1.57044,-0.523076,0.000202169,-2.09646,-0.0011023,1.57105,0.785656,-1.5708,-0.523598,8.04568e-07,-2.0944,-1.05168e-06,1.5708,0.785399,-0.000105809,-0.000401172,-0.00114912,0.00106319,0.000442015,0.000115339,0.000154796,0,0,0,0,0,0,0,-0.478199,-9.98691,-0.786069,21.5906,1.71877,1.48794,-0.206716,-0.470905,-0.875151,-0.360474,3.08629,1.01427,-0.174979,-0.194934
627298,0.99,-1.57044,-0.523073,0.000205789,-2.09647,-0.00110637,1.57105,0.785658,-1.5708,-0.523598,8.04568e-07,-2.0944,-1.05168e-06,1.5708,0.785399,-0.000627352,0.000289364,0.000440343,0.000708793,-0.000112225,-0.000194375,0.000815274,0,0,0,0,0,0,0,-0.454395,-10.0107,-0.837644,21.5906,1.72975,1.49526,-0.225942,-0.470586,-0.874277,-0.359767,3.08551,1.01421,-0.175168,-0.195102
627299,0.99,-1.57044,-0.523074,0.000207459,-2.09647,-0.00110793,1.57105,0.785657,-1.5708,-0.523598,8.04568e-07,-2.0944,-1.05168e-06,1.5708,0.785399,0.000138578,0.000192909,0.000850374,-0.00129071,-0.000278267,0.000141684,6.87981e-05,0,0,0,0,0,0,0,-0.478199,-10.0107,-0.861447,21.666,1.73525,1.48794,-0.213125,-0.470402,-0.87366,-0.359366,3.08487,1.01416,-0.175346,-0.19529
627300,0.99,-1.57044,-0.523076,0.000204118,-2.09646,-0.00110383,1.57105,0.785653,-1.5708,-0.523598,8.04568e-07,-2.0944,-1.05168e-06,1.5708,0.785399,9.23851e-05,-0.000985018,-0.000546708,0.00145958,0.00022139,-0.00041417,-0.00114093,0,0,0,0,0,0,0,-0.478199,-9.9631,-0.81384,21.5668,1.72426,1.50167,-0.181082,-0.470807,-0.873234,-0.35989,3.08468,1.0141,-0.175464,-0.195511
627301,0.99,-1.57044,-0.523076,0.000205789,-2.09647,-0.00110667,1.57105,0.785657,-1.5708,-0.523598,8.04568e-07,-2.0944,-1.05168e-06,1.5708,0.785399,6.159e-05,-9.98666e-05,0.00019234,-0.000140573,-5.58574e-05,-3.87545e-05,0.000426175,0,0,0,0,0,0,0,-0.478199,-9.98691,-0.837644,21.6144,1.72975,1.49526,-0.213125,-0.471216,-0.871178,-0.360353,3.08361,1.01403,-0.17564,-0.195759
627302,0.99,-1.57044,-0.523075,0.000202169,-2.09647,-0.00110681,1.57105,0.785657,-1.5708,-0.523598,8.04568e-07,-2.0944,-1.05168e-06,1.5708,0.785399,4.106e-05,-6.65777e-05,-0.0010782,-0.000743329,0.000166212,-0.000263195,0.000284117,0,0,0,0,0,0,0,-0.478199,-9.98691,-0.786069,21.6422,1.72426,1.50167,-0.213125,-0.471246,-0.86917,-0.360166,3.08267,1.01399,-0.175778,-0.196009
627303,0.99,-1.57044,-0.523074,0.000205789,-2.09647,-0.00110767,1.57105,0.785653,-1.5708,-0.523598,8.04568e-07,-2.0944,-1.05168e-06,1.5708,0.785399,-0.000529439,0.000512427,0.000487626,0.000154061,-9.26423e-05,6.18954e-05,-0.000997384,0,0,0,0,0,0,0,-0.454395,-10.0107,-0.837644,21.6144,1.72975,1.49526,-0.181082,-0.470855,-0.869079,-0.359313,3.08297,1.01399,-0.17578,-0.196257
627304,0.99,-1.57044,-0.523071,0.000205789,-2.09647,-0.00110897,1.57104,0.785652,-1.5708,-0.523598,8.04568e-07,-2.0944,-1.05168e-06,1.5708,0.785399,-0.000352959,0.000991232,0.000325084,0.000102707,-0.000468663,0.000312531,-0.00113964,0,0,0,0,0,0,0,-0.454395,-10.0385,-0.837644,21.6144,1.74074,1.48794,-0.168264,-0.470492,-0.870915,-0.358581,3.08409,1.01402,-0.175712,-0.196496
627305,0.99,-1.57043,-0.523076,0.000205789,-2.09647,-0.00110778,1.57104,0.785657,-1.5708,-0.523598,8.04568e-07,-2.0944,-1.05168e-06,1.5708,0.785399,0.000971119,-0.000545605,0.000216723,0.000625284,9.44593e-05,-0.000537631,0.00113911,0,0,0,0,0,0,0,-0.50597,-9.98691,-0.837644,21.5906,1.72975,1.50808,-0.219534,-0.470718,-0.873265,-0.358755,3.08516,1.01402,-0.175659,-0.196693
627306,0.99,-1.57044,-0.523078,0.000207459,-2.09646,-0.0011084,1.57105,0.785657,-1.5708,-0.523598,8.04568e-07,-2.0944,-1.05168e-06,1.5708,0.785399,-0.000559012,-0.000920548,0.000701294,0.000416856,-0.000140478,-0.000358421,0.000522049,0,0,0,0,0,0,0,-0.454395,-9.9631,-0.861447,21.5906,1.73525,1.50808,-0.213125,-0.471591,-0.873287,-0.359854,3.08493,1.01397,-0.175695,-0.196835
627307,0.99,-1.57043,-0.523075,0.000204118,-2.09647,-0.0011084,1.57105,0.785655,-1.5708,-0.523598,8.04568e-07,-2.0944,-1.05168e-06,1.5708,0.785399,0.00083375,0.000499925,-0.000646095,-0.000278908,-9.36518e-05,0.000235771,-0.000126685,0,0,0,0,0,0,0,-0.50597,-10.0107,-0.81384,21.6144,1.73525,1.49526,-0.200308,-0.472563,-0.871565,-0.361092,3.08388,1.01392,-0.175761,-0.196953
627308,0.99,-1.57044,-0.523075,0.000207459,-2.09646,-0.00110657,1.57105,0.785654,-1.5708,-0.523598,8.04568e-07,-2.0944,-1.05168e-06,1.5708,0.785399,-0.000650592,0.000333283,0.000682894,0.000927685,0.000547917,0.00015718,-0.000559175,0,0,0,0,0,0,0,-0.454395,-10.0107,-0.861447,21.5668,1.71877,1.49526,-0.18749,-0.47323,-0.870825,-0.361857,3.08323,1.01391,-0.17577,-0.197073
627309,0.99,-1.57044,-0.523076,0.000207459,-2.09647,-0.00110779,1.57105,0.785657,-1.5708,-0.523598,8.04568e-07,-2.0944,-1.05168e-06,1.5708,0.785399,-0.000433728,-0.000891435,0.000455263,-0.000495167,-4.1623e-05,0.000104787,0.000814011,0,0,0,0,0,0,0,-0.454395,-9.9631,-0.861447,21.6144,1.72975,1.49526,-0.219534,-0.473689,-0.87047,-0.362426,3.08265,1.01392,-0.175758,-0.197193
627310,0.99,-1.57043,-0.523075,0.000205789,-2.09647,-0.00110779,1.57105,0.785657,-1.5708,-0.523598,8.04568e-07,-2.0944,-1.05168e-06,1.5708,0.785399,0.000917273,0.000519334,-0.000253303,-0.000979725,-2.77487e-05,6.9858e-05,0.000305315,0,0,0,0,0,0,0,-0.50597,-10.0107,-0.837644,21.6422,1.72975,1.49526,-0.213125,-0.474106,-0.870136,-0.363035,3.08245,1.01394,-0.175679,-0.197306
627311,0.99,-1.57044,-0.523076,0.000204118,-2.09647,-0.00110779,1.57105,0.785652,-1.5708,-0.523598,8.04568e-07,-2.0944,-1.05168e-06,1.5708,0.785399,-0.00115172,-0.000767401,-0.000725681,0.000553276,-1.84991e-05,0.000317839,-0.00122061,0,0,0,0,0,0,0,-0.430592,-9.9631,-0.81384,21.5906,1.72975,1.48794,-0.174673,-0.474062,-0.870353,-0.362928,3.08283,1.01399,-0.175531,-0.197431
627312,0.99,-1.57044,-0.52308,0.000205789,-2.09647,-0.0011084,1.57105,0.785651,-1.5708,-0.523598,8.04568e-07,-2.0944,-1.05168e-06,1.5708,0.785399,-0.000211002,-0.00116121,7.30247e-05,-0.000837575,-0.000215783,-0.000296733,-0.00128846,0,0,0,0,0,0,0,-0.454395,-9.93533,-0.837644,21.6422,1.73525,1.50167,-0.161856,-0.473114,-0.869317,-0.361552,3.08262,1.01408,-0.17543,-0.19757
627313,0.99,-1.57044,-0.523073,0.000207459,-2.09647,-0.0011084,1.57105,0.785658,-1.5708,-0.523598,8.04568e-07,-2.0944,-1.05168e-06,1.5708,0.785399,0.000416144,0.000989095,0.000605495,9.12303e-05,-0.000143856,3.95367e-05,0.00151462,0,0,0,0,0,0,0,-0.478199,-10.0107,-0.861447,21.6144,1.73525,1.49526,-0.225942,-0.472265,-0.867779,-0.360421,3.08227,1.01415,-0.175345,-0.197676
627314,0.99,-1.57044,-0.523076,0.000204118,-2.09647,-0.00110337,1.57105,0.785656,-1.5708,-0.523598,8.04568e-07,-2.0944,-1.05168e-06,1.5708,0.785399,-0.000279383,0.000102584,-0.000709961,6.08202e-05,0.000514448,0.000297625,0.000297668,0,0,0,0,0,0,0,-0.454395,-9.98691,-0.81384,21.6144,1.71877,1.48794,-0.206716,-0.471983,-0.868128,-0.360138,3.08268,1.01421,-0.175228,-0.197725
627315,0.99,-1.57044,-0.523073,0.000207459,-2.09647,-0.00110733,1.57105,0.785655,-1.5708,-0.523598,8.04568e-07,-2.0944,-1.05168e-06,1.5708,0.785399,-0.000743067,0.00127482,0.000640317,-0.000609067,-0.000267386,-0.00031021,-3.89135e-05,0,0,0,0,0,0,0,-0.430592,-10.0385,-0.861447,21.6422,1.73525,1.50167,-0.200308,-0.471529,-0.870584,-0.359664,3.08391,1.01429,-0.175079,-0.197753
627316,0.99,-1.57044,-0.523079,0.000204118,-2.09647,-0.00110682,1.57104,0.785657,-1.5708,-0.523598,8.04568e-07,-2.0944,-1.05168e-06,1.5708,0.785399,6.14338e-05,-0.000913361,-0.000686746,-0.000406045,0.000228644,0.00030182,0.000686134,0,0,0,0,0,0,0,-0.454395,-9.9631,-0.81384,21.6422,1.72426,1.48794,-0.219534,-0.470812,-0.873879,-0.358932,3.08566,1.01438,-0.174894,-0.19779
627317,0.99,-1.57044,-0.523075,0.000204118,-2.09647,-0.00110706,1.57105,0.785651,-1.5708,-0.523598,8.04568e-07,-2.0944,-1.05168e-06,1.5708,0.785399,4.09559e-05,0.000504717,-0.000457831,0.000935729,0.000152429,-7.00541e-05,-0.00167881,0,0,0,0,0,0,0,-0.454395,-10.0107,-0.81384,21.5906,1.72426,1.49526,-0.161856,-0.46993,-0.875721,-0.357962,3.08667,1.01445,-0.174782,-0.197847
627318,0.99,-1.57043,-0.523075,0.000205789,-2.09647,-0.00110775,1.57105,0.785651,-1.5708,-0.523598,8.04568e-07,-2.0944,-1.05168e-06,1.5708,0.785399,0.00123373,0.000336478,0.000251592,0.00062382,-0.000101831,-0.000284062,-0.0011192,0,0,0,0,0,0,0,-0.50597,-10.0107,-0.837644,21.5906,1.72975,1.50167,-0.161856,-0.469391,-0.876157,-0.357381,3.08651,1.01447,-0.1748,-0.197911
627319,0.99,-1.57044,-0.523075,0.000205789,-2.09646,-0.00110839,1.57105,0.785656,-1.5708,-0.523598,8.04568e-07,-2.0944,-1.05168e-06,1.5708,0.785399,-0.000383939,0.000224319,0.000167728,0.000972692,-0.000271338,-0.000189374,0.000915376,0,0,0,0,0,0,0,-0.454395,-10.0107,-0.837644,21.5668,1.73525,1.50167,-0.206716,-0.469667,-0.87617,-0.357917,3.0857,1.01443,-0.174901,-0.197933
627320,0.99,-1.57043,-0.523075,0.000207459,-2.09647,-0.00110779,1.57105,0.785658,-1.5708,-0.523598,8.04568e-07,-2.0944,-1.05168e-06,1.5708,0.785399,0.000950466,0.000149546,0.00066863,-0.000465163,2.25585e-05,0.000111109,0.00132233,0,0,0,0,0,0,0,-0.50597,-10.0107,-0.861447,21.6144,1.72975,1.49526,-0.225942,-0.470508,-0.875938,-0.359292,3.08471,1.01434,-0.175009,-0.197891
627321,0.99,-1.57044,-0.523075,0.000205789,-2.09647,-0.0011084,1.57105,0.785652,-1.5708,-0.523598,8.04568e-07,-2.0944,-1.05168e-06,1.5708,0.785399,-1.59694e-05,-0.000457115,-0.000111058,-0.000310109,-0.000188411,0.00034534,-0.00101732,0,0,0,0,0,0,0,-0.478199,-9.98691,-0.837644,21.6144,1.73525,1.48794,-0.174673,-0.471683,-0.875691,-0.361151,3.08413,1.01427,-0.175045,-0.19782
627322,0.99,-1.57044,-0.523073,0.000205789,-2.09647,-0.00110779,1.57105,0.785655,-1.5708,-0.523598,8.04568e-07,-2.0944,-1.05168e-06,1.5708,0.785399,-0.000567458,0.000901683,-7.40389e-05,-0.000856353,7.78429e-05,-0.000278399,3.38636e-05,0,0,0,0,0,0,0,-0.454395,-10.0385,-0.837644,21.6422,1.72975,1.50167,-0.193899,-0.472438,-0.876071,-0.362396,3.08435,1.01424,-0.174976,-0.197758
627323,0.99,-1.57044,-0.523073,0.000205789,-2.09647,-0.0011084,1.57105,0.785658,-1.5708,-0.523598,8.04568e-07,-2.0944,-1.05168e-06,1.5708,0.785399,0.000178506,0.000601122,-4.93593e-05,7.8712e-05,-0.000151555,0.000323027,0.00120937,0,0,0,0,0,0,0,-0.478199,-10.0385,-0.837644,21.6144,1.73525,1.48794,-0.225942,-0.472413,-0.878161,-0.36253,3.08559,1.01429,-0.174815,-0.197698
627324,0.99,-1.57044,-0.523073,0.000205789,-2.09647,-0.00110459,1.57105,0.785656,-1.5708,-0.523598,8.04568e-07,-2.0944,-1.05168e-06,1.5708,0.785399,-0.000437808,-0.000248866,-3.29062e-05,5.24746e-05,0.000102414,-5.59163e-05,9.41701e-05,0,0,0,0,0,0,0,-0.454395,-10.0107,-0.837644,21.6144,1.72975,1.49526,-0.206716,-0.472052,-0.880583,-0.36217,3.08685,1.01436,-0.174668,-0.197644
627325,0.99,-1.57043,-0.523076,0.000205789,-2.09647,-0.00110733,1.57105,0.785653,-1.5708,-0.523598,8.04568e-07,-2.0944,-1.05168e-06,1.5708,0.785399,0.000914553,-0.000722723,-2.19375e-05,3.49831e-05,-0.000135175,-0.000511995,-0.000886656,0,0,0,0,0,0,0,-0.50597,-9.98691,-0.837644,21.6144,1.73525,1.50808,-0.181082,-0.471759,-0.880926,-0.361862,3.08696,1.01441,-0.17462,-0.197624
627326,0.99,-1.57044,-0.523075,0.000202169,-2.09647,-0.00110363,1.57105,0.785655,-1.5708,-0.523598,8.04568e-07,-2.0944,-1.05168e-06,1.5708,0.785399,-0.000596723,7.49968e-05,-0.00122105,-0.0011831,0.000316785,0.000404655,0.000120973,0,0,0,0,0,0,0,-0.454395,-10.0107,-0.786069,21.666,1.72426,1.48794,-0.200308,-0.471351,-0.87979,-0.361266,3.08655,1.01447,-0.174595,-0.197638
627327,0.99,-1.57043,-0.523073,0.000204118,-2.09647,-0.00110661,1.57105,0.785657,-1.5708,-0.523598,8.04568e-07,-2.0944,-1.05168e-06,1.5708,0.785399,0.00080861,0.000699612,-0.00016442,0.00041769,7.73918e-06,-1.49737e-06,0.000555367,0,0,0,0,0,0,0,-0.50597,-10.0385,-0.81384,21.6144,1.72975,1.49526,-0.213125,-0.470485,-0.879496,-0.359847,3.08668,1.01456,-0.174521,-0.197663
627328,0.99,-1.57044,-0.523073,0.000205789,-2.09647,-0.0011074,1.57105,0.785655,-1.5708,-0.523598,8.04568e-07,-2.0944,-1.05168e-06,1.5708,0.785399,-0.00011054,-0.000183206,0.000447199,0.00027846,5.15945e-06,0.000270269,-0.000104474,0,0,0,0,0,0,0,-0.478199,-10.0107,-0.837644,21.6144,1.72975,1.48794,-0.200308,-0.469947,-0.879954,-0.358796,3.0869,1.01464,-0.174473,-0.197691
627329,0.99,-1.57044,-0.523073,0.000207459,-2.09647,-0.00110766,1.57105,0.785653,-1.5708,-0.523598,8.04568e-07,-2.0944,-1.05168e-06,1.5708,0.785399,-0.000630505,0.000527477,0.000854944,-0.000463974,3.43963e-06,-0.000328447,-0.000781726,0,0,0,0,0,0,0,-0.454395,-10.0385,-0.861447,21.6422,1.72975,1.50167,-0.181082,-0.470182,-0.880308,-0.358931,3.08685,1.01466,-0.174476,-0.19773
627330,0.99,-1.57043,-0.523075,0.000205789,-2.09647,-0.00110577,1.57105,0.78566,-1.5708,-0.523598,8.04568e-07,-2.0944,-1.05168e-06,1.5708,0.785399,0.000786088,-0.000854775,1.3151e-05,-0.000309316,-0.000404608,1.83943e-05,0.00161508,0,0,0,0,0,0,0,-0.50597,-9.98691,-0.837644,21.6422,1.74074,1.49526,-0.23876,-0.470878,-0.88046,-0.359834,3.08691,1.01467,-0.174469,-0.197774
627331,0.99,-1.57044,-0.523076,0.000204118,-2.09647,-0.00110732,1.57105,0.785656,-1.5708,-0.523598,8.04568e-07,-2.0944,-1.05168e-06,1.5708,0.785399,-0.000125554,-0.00056985,-0.000548045,-0.000206211,-6.62881e-05,1.22629e-05,-0.000110075,0,0,0,0,0,0,0,-0.478199,-9.98691,-0.81384,21.6422,1.73525,1.49526,-0.206716,-0.471597,-0.879298,-0.360688,3.08658,1.01467,-0.174481,-0.197825
627332,0.99,-1.57044,-0.523078,0.000205789,-2.09647,-0.00110804,1.57105,0.785656,-1.5708,-0.523598,8.04568e-07,-2.0944,-1.05168e-06,1.5708,0.785399,-8.37029e-05,-0.000936712,0.000191449,0.00051214,-4.41921e-05,-0.000229184,-7.33832e-05,0,0,0,0,0,0,0,-0.478199,-9.9631,-0.837644,21.6144,1.73525,1.50167,-0.206716,-0.471887,-0.876271,-0.360816,3.08535,1.01468,-0.174565,-0.197914
627333,0.99,-1.57044,-0.523073,0.000207459,-2.09647,-0.00110447,1.57105,0.785655,-1.5708,-0.523598,8.04568e-07,-2.0944,-1.05168e-06,1.5708,0.785399,-5.58019e-05,0.00113876,0.000684445,-0.000864999,0.000173989,0.000355837,-0.000286281,0,0,0,0,0,0,0,-0.478199,-10.0385,-0.861447,21.666,1.72975,1.48794,-0.200308,-0.472151,-0.873563,-0.360923,3.08421,1.01471,-0.174653,-0.198042
627334,0.99,-1.57044,-0.523077,0.000205789,-2.09647,-0.00110729,1.57104,0.785657,-1.5708,-0.523598,8.04568e-07,-2.0944,-1.05168e-06,1.5708,0.785399,-0.000594013,-0.00044725,-0.000100516,-1.98541e-05,-8.74578e-05,0.000237225,0.000283864,0,0,0,0,0,0,0,-0.454395,-9.98691,-0.837644,21.6422,1.73525,1.48794,-0.213125,-0.47254,-0.87322,-0.361298,3.0843,1.01476,-0.174653,-0.19819
627335,0.99,-1.57044,-0.523075,0.000205789,-2.09647,-0.00110742,1.57105,0.785655,-1.5708,-0.523598,8.04568e-07,-2.0944,-1.05168e-06,1.5708,0.785399,-0.000396009,0.000258645,-6.70104e-05,0.000636378,0.000145145,-0.000113118,-0.000285475,0,0,0,0,0,0,0,-0.454395,-10.0107,-0.837644,21.6144,1.72975,1.49526,-0.200308,-0.472483,-0.873625,-0.361105,3.08465,1.01485,-0.174654,-0.198355
627336,0.99,-1.57044,-0.523075,0.000205789,-2.09647,-0.00110645,1.57105,0.785657,-1.5708,-0.523598,8.04568e-07,-2.0944,-1.05168e-06,1.5708,0.785399,0.000292806,-0.000384382,-4.46736e-05,0.000424252,0.000503665,0.000195856,0.00052176,0,0,0,0,0,0,0,-0.478199,-9.98691,-0.837644,21.6144,1.71877,1.48794,-0.219534,-0.472107,-0.873197,-0.360471,3.08426,1.01493,-0.174748,-0.198535
627337,0.99,-1.57044,-0.523072,0.000205789,-2.09647,-0.00110897,1.57105,0.785657,-1.5708,-0.523598,8.04568e-07,-2.0944,-1.05168e-06,1.5708,0.785399,0.000195204,0.000300557,-2.97824e-05,0.000282835,-0.000478026,-0.000140697,0.00034784,0,0,0,0,0,0,0,-0.478199,-10.0107,-0.837644,21.6144,1.74074,1.49526,-0.219534,-0.471928,-0.872385,-0.360091,3.08351,1.01498,-0.174894,-0.198726
627338,0.99,-1.57044,-0.523074,0.000205789,-2.09647,-0.00110717,1.57105,0.785657,-1.5708,-0.523598,8.04568e-07,-2.0944,-1.05168e-06,1.5708,0.785399,-0.000426676,0.000200372,-1.98549e-05,-0.000461058,0.000291668,0.000177469,-5.46563e-06,0,0,0,0,0,0,0,-0.454395,-10.0107,-0.837644,21.6422,1.72426,1.48794,-0.213125,-0.471847,-0.872299,-0.359861,3.08323,1.01502,-0.175004,-0.198933
627339,0.99,-1.57044,-0.523074,0.000205789,-2.09647,-0.00110585,1.57105,0.785652,-1.5708,-0.523598,8.04568e-07,-2.0944,-1.05168e-06,1.5708,0.785399,-0.000841263,-0.000423231,-1.32366e-05,-0.000307372,0.000635255,0.000118313,-0.0014278,0,0,0,0,0,0,0,-0.430592,-9.98691,-0.837644,21.6422,1.71236,1.48794,-0.174673,-0.471446,-0.873004,-0.359287,3.08367,1.01509,-0.175043,-0.199169
627340,0.99,-1.57044,-0.523074,0.000207459,-2.09647,-0.00110718,1.57104,0.78566,-1.5708,-0.523598,8.04568e-07,-2.0944,-1.05168e-06,1.5708,0.785399,0.000552782,0.000274658,0.000547988,0.000444699,-1.73064e-05,-0.000192392,0.00142172,0,0,0,0,0,0,0,-0.478199,-10.0107,-0.861447,21.6144,1.72426,1.49526,-0.23876,-0.471033,-0.873507,-0.358833,3.08418,1.01514,-0.175072,-0.199415
627341,0.99,-1.57044,-0.523073,0.000205789,-2.09647,-0.0011084,1.57105,0.785659,-1.5708,-0.523598,8.04568e-07,-2.0944,-1.05168e-06,1.5708,0.785399,-0.00018829,0.000183105,-0.000191487,0.000296466,-0.000418439,-0.000128261,0.000710457,0,0,0,0,0,0,0,-0.454395,-10.0107,-0.837644,21.6144,1.73525,1.49526,-0.232351,-0.471064,-0.873894,-0.359083,3.08448,1.01512,-0.175139,-0.199647
627342,0.99,-1.57044,-0.523076,0.000205789,-2.09647,-0.0011084,1.57104,0.785655,-1.5708,-0.523598,8.04568e-07,-2.0944,-1.05168e-06,1.5708,0.785399,0.000431285,-0.000434742,-0.000127658,-0.00045197,-0.000278959,-8.55076e-05,-0.000713156,0,0,0,0,0,0,0,-0.478199,-9.98691,-0.837644,21.6422,1.73525,1.49526,-0.200308,-0.471189,-0.874234,-0.359475,3.08473,1.01508,-0.175214,-0.199892
627343,0.99,-1.57044,-0.523077,0.000205789,-2.09647,-0.00110779,1.57105,0.785655,-1.5708,-0.523598,8.04568e-07,-2.0944,-1.05168e-06,1.5708,0.785399,-0.000269289,-0.000289828,-8.51053e-05,0.000348301,1.74778e-05,0.000214262,-0.000475438,0,0,0,0,0,0,0,-0.454395,-9.98691,-0.837644,21.6144,1.72975,1.48794,-0.200308,-0.471159,-0.873915,-0.359643,3.08481,1.01504,-0.175286,-0.200172
627344,0.99,-1.57044,-0.523075,0.000201988,-2.09647,-0.0011052,1.57105,0.785654,-1.5708,-0.523598,8.04568e-07,-2.0944,-1.05168e-06,1.5708,0.785399,-0.000179526,-0.000193219,-0.000613549,0.000789012,-0.000191799,-0.000365785,-0.000791676,0,0,0,0,0,0,0,-0.454395,-9.98691,-0.81384,21.5906,1.73525,1.50167,-0.18749,-0.470778,-0.872664,-0.359321,3.0843,1.01501,-0.175404,-0.200467
627345,0.99,-1.57044,-0.523072,0.000201459,-2.09647,-0.00110672,1.57105,0.785651,-1.5708,-0.523598,8.04568e-07,-2.0944,-1.05168e-06,1.5708,0.785399,-0.000119684,0.000428,-0.00105865,-3.08036e-05,7.55848e-05,-6.49757e-06,-0.00147722,0,0,0,0,0,0,0,-0.454395,-10.0107,-0.786069,21.6144,1.72975,1.49526,-0.161856,-0.4697,-0.871449,-0.357951,3.08352,1.01501,-0.175546,-0.200745
627346,0.99,-1.57043,-0.523076,0.000207222,-2.09647,-0.00110682,1.57105,0.785655,-1.5708,-0.523598,8.04568e-07,-2.0944,-1.05168e-06,1.5708,0.785399,0.00112664,-0.000271479,0.00105747,-2.05358e-05,0.00025384,-0.000241691,0.000201981,0,0,0,0,0,0,0,-0.50597,-9.98691,-0.861447,21.6144,1.72426,1.50167,-0.193899,-0.468824,-0.871183,-0.356793,3.08324,1.01503,-0.175629,-0.200963
627347,0.99,-1.57044,-0.523071,0.00020571,-2.09647,-0.00110889,1.57105,0.785659,-1.5708,-0.523598,8.04568e-07,-2.0944,-1.05168e-06,1.5708,0.785399,0.000101477,0.00102544,0.00014817,-1.36905e-05,-0.000441125,0.000347499,0.00155881,0,0,0,0,0,0,0,-0.478199,-10.0385,-0.837644,21.6144,1.74074,1.48794,-0.232351,-0.469265,-0.872054,-0.357509,3.08367,1.01499,-0.175635,-0.201084
627348,0.99,-1.57044,-0.523076,0.000205762,-2.09647,-0.00110958,1.57105,0.785652,-1.5708,-0.523598,8.04568e-07,-2.0944,-1.05168e-06,1.5708,0.785399,-0.00048916,-0.000522799,9.87803e-05,-9.127e-06,-0.000497534,0.000469025,-0.00109703,0,0,0,0,0,0,0,-0.454395,-9.98691,-0.837644,21.6144,1.74623,1.48153,-0.174673,-0.470152,-0.873741,-0.358908,3.08451,1.01496,-0.1756,-0.201135
627349,0.99,-1.57044,-0.523073,0.00020578,-2.09647,-0.00110656,1.57105,0.785651,-1.5708,-0.523597,8.04614e-07,-2.0944,-1.05176e-06,1.5708,0.785399,0.000230705,0.000208279,6.58535e-05,-6.08467e-06,0.000685564,-0.000433302,-0.00120607,1.18455e-07,0.00155352,4.60725e-08,-0.003125,-7.70999e-08,0.005,1.18982e-07,-0.478199,-10.0107,-0.837644,21.6144,1.71877,1.50167,-0.161856,-0.470618,-0.874993,-0.359738,3.08516,1.01496,-0.175575,-0.20116
627350,0.99,-1.57044,-0.523076,0.000204115,-2.09647,-0.0011084,1.57105,0.785655,-1.5708,-0.523594,8.04706e-07,-2.0944,-1.05191e-06,1.57081,0.785399,0.000153803,-0.000417959,-0.00051291,-0.00065367,-0.000153309,-5.1509e-05,0.000620108,2.3691e-07,0.00310704,9.2145e-08,-0.00625,-1.542e-07,0.01,2.37964e-07,-0.478199,-9.98691,-0.81384,21.6422,1.73525,1.49526,-0.200308,-0.470822,-0.875619,-0.360131,3.08567,1.015,-0.175542,-0.201143
627351,0.99,-1.57044,-0.523071,0.000205788,-2.09647,-0.0011084,1.57104,0.785657,-1.5708,-0.523589,8.04844e-07,-2.09441,-1.05214e-06,1.57083,0.785399,0.000102536,0.000927786,0.000214872,0.000770646,-0.000102206,0.000236928,0.000888123,3.55365e-07,0.00466055,1.38218e-07,-0.009375,-2.313e-07,0.015,3.56946e-07,-0.478199,-10.0385,-0.837644,21.5906,1.73525,1.48794,-0.213125,-0.470845,-0.87643,-0.360161,3.08629,1.01505,-0.175498,-0.201062
627352,0.99,-1.57044,-0.523076,0.000205788,-2.09647,-0.00110779,1.57104,0.785652,-1.5708,-0.523583,8.05028e-07,-2.09443,-1.05245e-06,1.57085,0.785399,-0.000488455,0.00150094,0.000143248,-0.00141605,0.000135313,-0.000588033,-0.000832071,4.73819e-07,0.00621407,1.8429e-07,-0.0125,-3.084e-07,0.02,4.75928e-07,-0.454395,-9.80838,-0.837644,21.543,1.72975,1.50808,-0.174673,-0.470802,-0.879268,-0.360084,3.08777,1.01513,-0.175396,-0.200936
627353,0.99,-1.57044,-0.523077,0.000205788,-2.09646,-0.00110657,1.57104,0.785654,-1.5708,-0.523575,8.05259e-07,-2.09444,-1.05284e-06,1.57087,0.785399,-0.000325637,0.0015248,9.54988e-05,-0.000541223,0.00049711,-0.00134146,-7.99964e-05,5.92274e-07,0.00776759,2.30363e-07,-0.015625,-3.855e-07,0.025,5.9491e-07,-0.454395,-9.40768,-0.837644,21.1185,1.71877,1.53372,-0.18749,-0.470631,-0.885557,-0.359888,3.09113,1.01525,-0.175115,-0.200788
627354,0.99,-1.57044,-0.523082,0.000205788,-2.09647,-0.0011059,1.57104,0.785657,-1.5708,-0.523566,8.05535e-07,-2.09446,-1.0533e-06,1.5709,0.785399,-0.000217091,-0.000676074,6.36658e-05,-0.00389468,0.00161993,-0.00136902,0.000896105,7.10729e-07,0.00932111,2.76435e-07,-0.01875,-4.626e-07,0.03,7.13892e-07,-0.454395,-8.74911,-0.837644,20.698,1.68398,1.54653,-0.213125,-0.470328,-0.892941,-0.359569,3.09581,1.0154,-0.174599,-0.200619
627355,0.99,-1.57043,-0.523072,0.000202169,-2.09648,-0.00110452,1.57105,0.785656,-1.5708,-0.523555,8.05858e-07,-2.09448,-1.05384e-06,1.57094,0.785399,0.0010617,0.00478855,-0.00116398,-0.00145992,0.00189375,-0.00186212,0.000360044,8.29184e-07,0.0108746,3.22508e-07,-0.021875,-5.397e-07,0.035,8.32874e-07,-0.50597,-8.2175,-0.786069,20.1743,1.662,1.57217,-0.206716,-0.469988,-0.901172,-0.359103,3.10151,1.01554,-0.173768,-0.200433
627356,0.99,-1.57044,-0.523052,0.000202169,-2.09648,-0.00110229,1.57105,0.785654,-1.5708,-0.523542,8.06226e-07,-2.09451,-1.05445e-06,1.57098,0.785399,-0.000498627,0.00844572,-0.000775988,-0.00153833,0.00105905,-0.00147877,-0.000472047,9.47639e-07,0.0124281,3.6858e-07,-0.025,-6.168e-07,0.04,9.51857e-07,-0.454395,-7.78903,-0.786069,19.5792,1.6675,1.57858,-0.18749,-0.469252,-0.916042,-0.357807,3.10924,1.01566,-0.172515,-0.200251
627357,0.99,-1.57044,-0.523028,0.000204118,-2.09649,-0.00110135,1.57105,0.785656,-1.5708,-0.523528,8.06641e-07,-2.09454,-1.05515e-06,1.57102,0.785399,-0.000332418,0.0104686,0.000132289,-0.00130937,0.000706034,-0.00169792,0.000397379,1.06609e-06,0.0139817,4.14653e-07,-0.028125,-6.939e-07,0.045,1.07084e-06,-0.454395,-7.45975,-0.81384,19.0793,1.6675,1.5978,-0.206716,-0.468,-0.940775,-0.35564,3.11892,1.01574,-0.17078,-0.200074
627358,0.99,-1.57044,-0.523006,0.000202169,-2.0965,-0.00110103,1.57106,0.785658,-1.5708,-0.523513,8.07102e-07,-2.09457,-1.05592e-06,1.57107,0.785399,-0.000221612,0.0117629,-0.000561422,-0.00307301,0.00047069,-0.000657231,0.000976996,1.18455e-06,0.0155352,4.60725e-07,-0.03125,-7.70999e-07,0.05,1.18982e-06,-0.454395,-7.13046,-0.786069,18.6588,1.6675,1.58499,-0.225942,-0.466641,-0.972502,-0.353341,3.12882,1.01574,-0.168537,-0.199897
627359,0.99,-1.57044,-0.522986,0.000202169,-2.09652,-0.00110347,1.57107,0.785651,-1.5708,-0.523495,8.07639e-07,-2.0946,-1.05678e-06,1.57113,0.785399,-0.000704553,0.0155432,-0.000374281,-0.00442293,-0.000533917,0.000511281,-0.00172226,1.39022e-06,0.0176023,5.36882e-07,-0.0375,-8.60127e-07,0.0584956,1.40124e-06,-0.430592,-6.80118,-0.786069,18.385,1.69039,1.55935,-0.161856,-0.465131,-1.00905,-0.350837,3.13792,1.01568,-0.165712,-0.199733
627360,0.99,-1.57044,-0.522972,0.000203658,-2.09654,-0.00110089,1.57108,0.785657,-1.5708,-0.523476,8.08252e-07,-2.09465,-1.05773e-06,1.5712,0.785399,-0.00167613,0.0153764,0.000956905,-0.00747671,0.000491766,-0.000371223,0.000750699,1.59589e-06,0.0196694,6.13039e-07,-0.04375,-9.49254e-07,0.0669912,1.61265e-06,-0.379017,-6.47189,-0.837644,18.1867,1.6675,1.57858,-0.213125,-0.463421,-1.04941,-0.34822,3.14608,1.01562,-0.162207,-0.199584
627361,0.99,-1.57044,-0.522962,0.000203408,-2.09656,-0.00110468,1.57109,0.785656,-1.5708,-0.523454,8.08941e-07,-2.0947,-1.05877e-06,1.57127,0.785399,-0.000560607,0.0135844,8.11249e-05,-0.0109215,0.000124393,0.00201745,0.000263107,1.80156e-06,0.0217365,6.89195e-07,-0.05,-1.03838e-06,0.0754868,1.82407e-06,-0.402821,-6.0712,-0.81384,18.0637,1.67299,1.64907,-0.206716,-0.46191,-1.0879,-0.346247,3.15168,1.01557,-0.158062,-0.199433
627362,0.99,-1.57044,-0.522952,0.000209171,-2.09658,-0.00110575,1.57109,0.785652,-1.5708,-0.52343,8.09706e-07,-2.09475,-1.05989e-06,1.57136,0.785399,0.000275876,0.0153904,0.00181732,-0.0159409,8.29288e-05,0.00229949,-0.00101139,2.00723e-06,0.0238035,7.65352e-07,-0.05625,-1.12751e-06,0.0839824,2.03548e-06,-0.430592,-5.66653,-0.889218,17.79,1.67299,1.76535,-0.174673,-0.461389,-1.11943,-0.346031,3.15375,1.01549,-0.153268,-0.199281
627363,0.99,-1.57043,-0.522937,0.00020571,-2.09661,-0.00110549,1.5711,0.785652,-1.5708,-0.523404,8.10548e-07,-2.09482,-1.06111e-06,1.57145,0.785399,0.00194715,0.015491,5.12149e-06,-0.0211403,0.000258736,0.00220113,-0.000911619,2.2129e-06,0.0258706,8.41509e-07,-0.0625,-1.21664e-06,0.0924781,2.2469e-06,-0.50597,-5.2103,-0.837644,17.4408,1.6675,1.89443,-0.168264,-0.462609,-1.1451,-0.34848,3.15428,1.01541,-0.147527,-0.199122
627364,0.99,-1.57044,-0.522913,0.000204092,-2.09664,-0.00110382,1.57111,0.785659,-1.5708,-0.523376,8.11465e-07,-2.09489,-1.06242e-06,1.57155,0.785399,0.00064849,0.0217191,-0.000553398,-0.0279881,0.001834,0.0028487,0.00176584,2.41858e-06,0.0279377,9.17665e-07,-0.06875,-1.30576e-06,0.100974,2.45831e-06,-0.478199,-4.75406,-0.81384,16.9687,1.62264,2.00979,-0.232351,-0.464641,-1.17119,-0.352002,3.15728,1.01545,-0.140277,-0.198924
627365,0.99,-1.57044,-0.52289,0.000204109,-2.09668,-0.00109725,1.57113,0.785655,-1.5708,-0.523346,8.12459e-07,-2.09496,-1.06381e-06,1.57166,0.785399,0.000432327,0.020029,-0.000368932,-0.032049,-0.00199059,0.00509088,-9.56574e-06,2.62425e-06,0.0300048,9.93822e-07,-0.075,-1.39489e-06,0.109469,2.66973e-06,-0.478199,-4.27402,-0.81384,16.5442,1.58235,2.0812,-0.200308,-0.465919,-1.20249,-0.354306,3.16514,1.01573,-0.131075,-0.198684
627366,0.99,-1.57044,-0.522862,0.000204115,-2.09672,-0.00109096,1.57116,0.78565,-1.5708,-0.523314,8.13529e-07,-2.09504,-1.0653e-06,1.57178,0.785399,0.000937831,0.0200628,-0.000245954,-0.0370339,0.000145798,0.0135118,-0.00190525,2.82992e-06,0.0320719,1.06998e-06,-0.08125,-1.48402e-06,0.117965,2.88114e-06,-0.50597,-3.84555,-0.81384,16.0721,1.532,2.10043,-0.149038,-0.466385,-1.2332,-0.355404,3.1742,1.01615,-0.120041,-0.198444
627367,0.99,-1.57044,-0.52283,0.000202168,-2.09678,-0.00108696,1.57121,0.785654,-1.5708,-0.52328,8.14675e-07,-2.09513,-1.06687e-06,1.5719,0.785399,-2.43926e-05,0.0255962,-0.000813584,-0.0408229,0.00105773,0.0223913,0.000153988,3.03559e-06,0.034139,1.14614e-06,-0.0875,-1.57314e-06,0.12646,3.09256e-06,-0.478199,-3.51627,-0.786069,15.727,1.49812,2.04183,-0.18749,-0.466342,-1.25912,-0.355692,3.18063,1.01654,-0.10749,-0.198213
627368,0.99,-1.57044,-0.522799,0.000203658,-2.09684,-0.0010875,1.57128,0.785656,-1.5708,-0.523244,8.15898e-07,-2.09522,-1.06853e-06,1.57204,0.785399,-1.62617e-05,0.0270574,0.000664037,-0.04844,0.000281147,0.0314406,0.000814735,3.24126e-06,0.0362061,1.22229e-06,-0.09375,-1.66227e-06,0.134956,3.30397e-06,-0.478199,-3.21475,-0.837644,15.4532,1.50362,1.90725,-0.206716,-0.46585,-1.2846,-0.355291,3.18505,1.01679,-0.0935136,-0.197953
627369,0.99,-1.57044,-0.52278,0.000201459,-2.09691,-0.00108549,1.57135,0.785652,-1.5708,-0.523206,8.17212e-07,-2.09533,-1.07023e-06,1.57218,0.785399,-1.08412e-05,0.0217922,-0.000763735,-0.055663,-0.000384888,0.0470102,-0.000643638,3.50912e-06,0.0377552,1.31447e-06,-0.103125,-1.69881e-06,0.14588,3.61328e-06,-0.478199,-2.78232,-0.786069,15.2509,1.5146,1.78457,-0.174673,-0.465221,-1.30622,-0.354744,3.18612,1.01684,-0.0784486,-0.197668
627370,0.99,-1.57043,-0.522754,0.000201932,-2.09698,-0.00108503,1.57143,0.785648,-1.5708,-0.523167,8.18619e-07,-2.09544,-1.07197e-06,1.57234,0.785399,0.000642386,0.0202901,-0.000509156,-0.0578708,-0.000584106,0.0607489,-0.00188715,3.77699e-06,0.0393043,1.40665e-06,-0.1125,-1.73535e-06,0.156804,3.92258e-06,-0.50597,-2.45303,-0.786069,15.0525,1.5201,1.72689,-0.135305,-0.464498,-1.31052,-0.354019,3.17739,1.01656,-0.0632644,-0.197399
627371,0.99,-1.57044,-0.522736,0.00020738,-2.09706,-0.00108661,1.57152,0.785652,-1.5708,-0.523126,8.20117e-07,-2.09556,-1.07374e-06,1.57251,0.785399,-0.000221356,0.0173685,0.0014238,-0.0656307,-0.00112671,0.0679533,0.000199959,4.04485e-06,0.0408535,1.49883e-06,-0.121875,-1.77188e-06,0.167728,4.23188e-06,-0.478199,-2.05234,-0.861447,15.0049,1.53749,1.75253,-0.174673,-0.464269,-1.28874,-0.353981,3.15397,1.01587,-0.0488649,-0.197131
627372,0.99,-1.57043,-0.522711,0.000205762,-2.09714,-0.00109151,1.57161,0.785652,-1.5708,-0.523083,8.21708e-07,-2.09569,-1.07555e-06,1.57269,0.785399,0.00105885,0.0206313,0.000392388,-0.0709582,-0.00143128,0.0768095,-0.000104053,4.31271e-06,0.0424026,1.59101e-06,-0.13125,-1.80842e-06,0.178653,4.54118e-06,-0.529774,-1.74686,-0.837644,14.8066,1.55397,1.82302,-0.168264,-0.465311,-1.24415,-0.35586,3.118,1.01479,-0.0353741,-0.196813
627373,0.99,-1.57043,-0.522686,0.000211069,-2.09724,-0.00109451,1.57171,0.78565,-1.5708,-0.523039,8.23392e-07,-2.09583,-1.07739e-06,1.57288,0.785399,0.00191233,0.0224751,0.00202483,-0.0799577,-0.000599624,0.083257,-0.000781445,4.58058e-06,0.0439517,1.68319e-06,-0.140625,-1.84496e-06,0.189577,4.85048e-06,-0.581349,-1.41757,-0.913022,14.5566,1.54299,1.90084,-0.149038,-0.468032,-1.18832,-0.360117,3.07612,1.01347,-0.0223641,-0.196418
627374,0.99,-1.57043,-0.522655,0.000211075,-2.09734,-0.00109022,1.57183,0.785655,-1.5708,-0.522994,8.25167e-07,-2.09598,-1.07927e-06,1.57308,0.785399,0.00248131,0.0243493,0.00134989,-0.0861712,0.00145987,0.0934261,0.00114055,4.84844e-06,0.0455008,1.77537e-06,-0.15,-1.8815e-06,0.200501,5.15978e-06,-0.632923,-1.11606,-0.913022,14.2829,1.49172,1.97134,-0.193899,-0.472858,-1.13112,-0.367198,3.03391,1.01204,-0.0093378,-0.195939
627375,0.99,-1.57042,-0.522622,0.000211537,-2.09744,-0.00108825,1.57196,0.785655,-1.5708,-0.522947,8.27035e-07,-2.09614,-1.08119e-06,1.57329,0.785399,0.00341745,0.0242668,0.000343112,-0.094186,0.00175761,0.107683,0.000760366,5.1163e-06,0.04705,1.86755e-06,-0.159375,-1.91804e-06,0.211425,5.46908e-06,-0.708302,-0.885956,-0.889218,13.8861,1.46974,1.99697,-0.193899,-0.479208,-1.07491,-0.37604,2.99266,1.01056,0.0039058,-0.195393
627376,0.99,-1.57042,-0.522587,0.000210299,-2.09756,-0.00108403,1.57212,0.78565,-1.5708,-0.522898,8.28994e-07,-2.09631,-1.08315e-06,1.57351,0.785399,0.00283511,0.0271756,-0.000420872,-0.0999862,0.00260772,0.127101,-0.000917243,5.38416e-06,0.0485991,1.95973e-06,-0.16875,-1.95457e-06,0.222349,5.77838e-06,-0.732105,-0.659821,-0.861447,13.6124,1.43038,1.92007,-0.155447,-0.485724,-1.01908,-0.384406,2.95119,1.00906,0.0172841,-0.194837
627377,0.99,-1.57042,-0.52256,0.000214156,-2.0977,-0.00107642,1.5723,0.785652,-1.5708,-0.522848,8.31046e-07,-2.09649,-1.08514e-06,1.57374,0.785399,0.00133326,0.0277235,0.000925844,-0.113848,0.00321389,0.143128,0.000100582,5.65203e-06,0.0501482,2.05191e-06,-0.178125,-1.99111e-06,0.233273,6.08768e-06,-0.708302,-0.382111,-0.913022,13.3625,1.39009,1.79098,-0.174673,-0.491521,-0.965698,-0.391082,2.91035,1.00759,0.03085,-0.194302
627378,0.99,-1.57042,-0.522528,0.000214053,-2.09784,-0.00107669,1.57248,0.785655,-1.5708,-0.522797,8.3319e-07,-2.09668,-1.08716e-06,1.57399,0.785399,0.000888841,0.0296713,0.00126684,-0.123403,0.00168936,0.159429,0.00101649,5.91989e-06,0.0516973,2.14408e-06,-0.1875,-2.02765e-06,0.244197,6.39698e-06,-0.708302,-0.155975,-0.940793,13.1641,1.40199,1.6683,-0.200308,-0.496611,-0.918257,-0.396427,2.87326,1.00618,0.0448428,-0.193776
627379,0.99,-1.57042,-0.5225,0.00020975,-2.09799,-0.00107243,1.57268,0.785655,-1.5708,-0.522744,8.35435e-07,-2.09688,-1.08918e-06,1.57425,0.785399,0.00114937,0.0271846,-0.000361864,-0.13054,0.00135429,0.168862,0.00067766,6.2299e-06,0.0525803,2.2452e-06,-0.19912,-2.0171e-06,0.256415,6.7686e-06,-0.732105,0.0979309,-0.889218,12.9895,1.39559,1.61703,-0.200308,-0.500931,-0.874156,-0.400437,2.83914,1.00475,0.0590578,-0.193262
627380,0.99,-1.57042,-0.522475,0.000211652,-2.09815,-0.00107064,1.57288,0.785651,-1.5708,-0.52269,8.37782e-07,-2.09709,-1.09119e-06,1.57451,0.785399,-0.00099699,0.0253982,-0.000241242,-0.137335,0.00109932,0.174794,-0.00097238,6.53992e-06,0.0534633,2.34631e-06,-0.210739,-2.00656e-06,0.268633,7.14021e-06,-0.656727,0.351837,-0.889218,12.8666,1.39009,1.61703,-0.161856,-0.503662,-0.823639,-0.40184,2.80231,1.00319,0.0728619,-0.192804
627381,0.99,-1.57041,-0.522442,0.000210338,-2.09832,-0.00107218,1.5731,0.785649,-1.5708,-0.522636,8.40229e-07,-2.09731,-1.09318e-06,1.57479,0.785399,0.00165539,0.0264022,-0.000810442,-0.146035,8.33809e-05,0.188694,-0.000173536,6.84993e-06,0.0543463,2.44742e-06,-0.222359,-1.99601e-06,0.28085,7.51183e-06,-0.755909,0.502594,-0.861447,12.7912,1.40749,1.5978,-0.174673,-0.504853,-0.761019,-0.400666,2.75937,1.00139,0.0858357,-0.192411
627382,0.99,-1.57041,-0.522406,0.000212498,-2.0985,-0.00107585,1.57334,0.78565,-1.5708,-0.522581,8.42778e-07,-2.09754,-1.09517e-06,1.57509,0.785399,0.00175321,0.0313721,0.000109319,-0.153386,-0.000151793,0.200448,-0.000590408,7.15994e-06,0.0552293,2.54854e-06,-0.233978,-1.98546e-06,0.293068,7.88345e-06,-0.78368,0.601776,-0.889218,12.6166,1.41298,1.67471,-0.161856,-0.506148,-0.691876,-0.399101,2.71239,0.999328,0.0979356,-0.192042
627383,0.99,-1.57041,-0.52237,0.000212568,-2.09868,-0.00107433,1.57357,0.785651,-1.5708,-0.522525,8.45427e-07,-2.09779,-1.09714e-06,1.57539,0.785399,0.00228243,0.0321619,7.28794e-05,-0.163448,0.000743568,0.213164,-0.000393606,7.46995e-06,0.0561123,2.64965e-06,-0.245598,-1.97491e-06,0.305286,8.25506e-06,-0.831288,0.681122,-0.889218,12.3706,1.39009,1.78457,-0.161856,-0.508888,-0.624984,-0.398962,2.66525,0.997055,0.109355,-0.191654
627384,0.99,-1.5704,-0.522339,0.000212592,-2.09888,-0.00107152,1.57383,0.785643,-1.5708,-0.522468,8.48178e-07,-2.09805,-1.09911e-06,1.57571,0.785399,0.00272805,0.0303006,4.85863e-05,-0.175628,0.00154466,0.228947,-0.00172047,7.77997e-06,0.0569953,2.75076e-06,-0.257218,-1.96437e-06,0.317503,8.62668e-06,-0.882862,0.855682,-0.889218,12.1961,1.36171,1.86148,-0.122488,-0.513346,-0.561549,-0.40062,2.61954,0.994645,0.120382,-0.19123
627385,0.99,-1.5704,-0.522305,0.00021427,-2.09909,-0.00107163,1.57411,0.785647,-1.5708,-0.52241,8.5103e-07,-2.09831,-1.10106e-06,1.57604,0.785399,0.00126188,0.0300872,0.000589203,-0.19022,0.00102812,0.243989,0.000311085,8.08998e-06,0.0578783,2.85188e-06,-0.268837,-1.95382e-06,0.329721,8.99829e-06,-0.859058,0.982635,-0.913022,12.0969,1.36171,1.85507,-0.161856,-0.519182,-0.498891,-0.403655,2.57614,0.992185,0.131448,-0.19075
627386,0.99,-1.57041,-0.52227,0.000212602,-2.09931,-0.00107045,1.57441,0.785646,-1.5708,-0.522351,8.53983e-07,-2.09859,-1.10301e-06,1.57638,0.785399,-0.000921981,0.0336259,-0.00016401,-0.198352,0.00109107,0.263316,0.00020739,8.39999e-06,0.0587613,2.95299e-06,-0.280457,-1.94327e-06,0.341938,9.36991e-06,-0.78368,1.08182,-0.889218,11.8985,1.35072,1.75894,-0.161856,-0.524986,-0.438714,-0.40631,2.53652,0.989791,0.142922,-0.190197
627387,0.99,-1.57041,-0.522238,0.000214734,-2.09956,-0.00106666,1.57473,0.78564,-1.5708,-0.522291,8.57037e-07,-2.09889,-1.10494e-06,1.57674,0.785399,0.00129027,0.0324913,-0.00010934,-0.210351,0.000929897,0.284074,-0.00179452,8.71001e-06,0.0596443,3.0541e-06,-0.292076,-1.93273e-06,0.354156,9.74153e-06,-0.732105,1.20877,-0.889218,11.7994,1.34523,1.61062,-0.10967,-0.529817,-0.382691,-0.407326,2.49989,0.987489,0.154696,-0.189583
627388,0.99,-1.57041,-0.522201,0.000211365,-2.09981,-0.00106437,1.57506,0.785644,-1.5708,-0.522231,8.60192e-07,-2.09919,-1.10686e-06,1.5771,0.785399,0.00232589,0.0328034,-0.000722507,-0.217425,0.00102613,0.298203,-0.00119635,9.02002e-06,0.0605273,3.15521e-06,-0.303696,-1.92218e-06,0.366374,1.01131e-05,-0.78368,1.28415,-0.861447,11.6248,1.33425,1.48794,-0.10967,-0.534657,-0.326999,-0.407923,2.46286,0.985155,0.166293,-0.188913
627389,1,-1.57041,-0.522165,0.000209681,-2.10007,-0.00106331,1.5754,0.78565,-1.5708,-0.52217,8.63453e-07,-2.09951,-1.10875e-06,1.57748,0.785399,0.000538625,0.0359174,-0.0015953,-0.233176,0.000920923,0.306255,0.000897857,9.35614e-06,0.0608632,3.26104e-06,-0.316186,-1.88514e-06,0.379007,1.05104e-05,-0.732105,1.36349,-0.81384,11.5256,1.32784,1.44308,-0.155447,-0.539574,-0.271435,-0.408194,2.4253,0.982745,0.177546,-0.188145
627390,1,-1.57041,-0.522124,0.000213393,-2.10034,-0.00106512,1.57575,0.785646,-1.5708,-0.522109,8.6682e-07,-2.09984,-1.11059e-06,1.57787,0.785399,0.00171135,0.0369796,0.000699708,-0.245281,0.00470235,0.320674,0.000361212,9.69227e-06,0.0611992,3.36687e-06,-0.328676,-1.84811e-06,0.39164,1.09077e-05,-0.78368,1.36349,-0.889218,11.3987,1.34523,1.42385,-0.149038,-0.544264,-0.222625,-0.408008,2.39196,0.980325,0.188749,-0.187256
627391,1,-1.57041,-0.522078,0.000216668,-2.10062,-0.00106447,1.5761,0.785648,-1.5708,-0.522047,8.70293e-07,-2.10018,-1.1124e-06,1.57828,0.785399,0.00125029,0.0381487,0.00102328,-0.253386,0.00373247,0.332924,-3.04593e-05,1.00284e-05,0.0615351,3.4727e-06,-0.341166,-1.81107e-06,0.404273,1.1305e-05,-0.78368,1.33572,-0.913022,11.2519,1.33974,1.49526,-0.141714,-0.550093,-0.181792,-0.409605,2.36356,0.97783,0.199781,-0.186272
627392,1,-1.57041,-0.522043,0.000215072,-2.10091,-0.00106253,1.57647,0.785651,-1.5708,-0.521985,8.73871e-07,-2.10053,-1.11418e-06,1.57869,0.785399,0.000915562,0.0358219,0.000682189,-0.267326,0.00342817,0.347119,0.00191247,1.03645e-05,0.061871,3.57853e-06,-0.353656,-1.77404e-06,0.416906,1.17023e-05,-0.78368,1.43887,-0.913022,11.1765,1.32234,1.57217,-0.193899,-0.557267,-0.143154,-0.413409,2.33622,0.97521,0.210191,-0.185237
627393,1,-1.57041,-0.521998,0.000216671,-2.10122,-0.00105998,1.57685,0.785649,-1.5708,-0.521923,8.77556e-07,-2.1009,-1.11592e-06,1.57912,0.785399,0.000671903,0.037839,0.000454793,-0.279219,0.00335485,0.363603,0.000800265,1.07006e-05,0.062207,3.68436e-06,-0.366146,-1.737e-06,0.42954,1.20996e-05,-0.78368,1.3873,-0.913022,11.0257,1.29946,1.61703,-0.181082,-0.564609,-0.103279,-0.417757,2.30849,0.972547,0.219952,-0.184202
627394,1,-1.57041,-0.521958,0.000217203,-2.10154,-0.00106069,1.57726,0.785647,-1.5708,-0.521861,8.81346e-07,-2.10127,-1.11762e-06,1.57957,0.785399,-0.000155533,0.0373416,0.000303195,-0.293237,0.00216548,0.373764,-0.00116191,1.10368e-05,0.0625429,3.79019e-06,-0.378636,-1.69997e-06,0.442173,1.24969e-05,-0.755909,1.4111,-0.913022,10.9781,1.30586,1.61062,-0.135305,-0.571277,-0.063625,-0.421459,2.28159,0.969923,0.229392,-0.183225
627395,1,-1.57041,-0.521918,0.000212091,-2.10188,-0.0010613,1.57768,0.785645,-1.5708,-0.521798,8.85242e-07,-2.10167,-1.11928e-06,1.58002,0.785399,-0.0011827,0.0366858,-0.00156111,-0.310845,0.00136491,0.386838,-0.000537249,1.13729e-05,0.0628788,3.89602e-06,-0.391126,-1.66293e-06,0.454806,1.28942e-05,-0.708302,1.43887,-0.837644,10.9027,1.31136,1.58499,-0.141714,-0.576133,-0.0264327,-0.422911,2.25795,0.967441,0.239046,-0.182326
627396,1,-1.57042,-0.521877,0.000213821,-2.10223,-0.00106252,1.57811,0.785649,-1.5708,-0.521735,8.89244e-07,-2.10207,-1.1209e-06,1.58049,0.785399,-0.00317536,0.0377279,-0.000483927,-0.321502,0.000596565,0.405714,0.00133726,1.1709e-05,0.0632148,4.00184e-06,-0.403616,-1.6259e-06,0.467439,1.32915e-05,-0.605152,1.4111,-0.861447,10.9027,1.32234,1.56576,-0.18749,-0.578063,0.00740924,-0.420646,2.23878,0.965187,0.249181,-0.181478
627397,1,-1.57042,-0.521833,0.0002105,-2.1026,-0.00106252,1.57857,0.78565,-1.5708,-0.521671,8.93352e-07,-2.10249,-1.12249e-06,1.58097,0.785399,-0.00209744,0.0388761,-0.00143624,-0.335899,0.000467856,0.427259,0.000179427,1.20452e-05,0.0635507,4.10767e-06,-0.416106,-1.58886e-06,0.480072,1.36888e-05,-0.605152,1.36349,-0.81384,10.9265,1.32234,1.47512,-0.168264,-0.577363,0.0376389,-0.41525,2.22263,0.963142,0.259497,-0.180671
627398,1,-1.57042,-0.521786,0.000210506,-2.10297,-0.00105994,1.57904,0.785645,-1.5708,-0.521607,8.97565e-07,-2.10291,-1.12405e-06,1.58146,0.785399,-0.00138369,0.0435501,-0.000957494,-0.346009,0.000161063,0.431322,-0.00181316,1.23813e-05,0.0638866,4.2135e-06,-0.428596,-1.55183e-06,0.492705,1.40861e-05,-0.605152,1.28415,-0.81384,10.9027,1.32784,1.37258,-0.116079,-0.575469,0.061332,-0.408679,2.2092,0.961228,0.269785,-0.179918
627399,1,-1.57043,-0.521735,0.000206429,-2.10336,-0.00105704,1.57952,0.785647,-1.5708,-0.521543,9.01886e-07,-2.10336,-1.12554e-06,1.58197,0.785399,-0.00267475,0.0472354,-0.00128794,-0.355448,0.000757184,0.447412,-0.000971416,1.27307e-05,0.0637499,4.32054e-06,-0.441086,-1.49971e-06,0.505231,1.44878e-05,-0.529774,1.18497,-0.786069,10.8512,1.31136,1.37258,-0.122488,-0.573272,0.0739585,-0.402097,2.19903,0.959376,0.279944,-0.179192
627400,1,-1.57042,-0.521683,0.00020785,-2.10376,-0.0010611,1.58002,0.785647,-1.5708,-0.52148,9.06313e-07,-2.10381,-1.12699e-06,1.58248,0.785399,-0.000568527,0.0463091,-0.000858629,-0.367242,0.000127481,0.467731,0.000573093,1.30801e-05,0.0636132,4.42758e-06,-0.453576,-1.44759e-06,0.517757,1.48895e-05,-0.581349,1.10959,-0.786069,10.7282,1.32234,1.40463,-0.155447,-0.571198,0.0772824,-0.396126,2.18969,0.957505,0.289478,-0.178438
627401,1,-1.57042,-0.521638,0.000206654,-2.10418,-0.00106205,1.58052,0.785648,-1.5708,-0.521416,9.10848e-07,-2.10428,-1.12839e-06,1.58301,0.785399,-0.00092967,0.0463456,-0.00112923,-0.380612,0.000107182,0.476032,0.00109414,1.34295e-05,0.0634765,4.53462e-06,-0.466066,-1.39547e-06,0.530284,1.52911e-05,-0.557545,1.13339,-0.762265,10.7798,1.32234,1.49526,-0.174673,-0.570025,0.0781368,-0.39181,2.1783,0.955544,0.298028,-0.177638
627402,1,-1.57042,-0.52159,0.000206811,-2.10461,-0.00106053,1.58104,0.785649,-1.5708,-0.521353,9.15489e-07,-2.10475,-1.12973e-06,1.58356,0.785399,0.000498464,0.0444911,-0.000752821,-0.390614,0.000698452,0.490885,0.00120414,1.37789e-05,0.0633398,4.64166e-06,-0.478556,-1.34335e-06,0.54281,1.56928e-05,-0.605152,1.10959,-0.762265,10.752,1.30586,1.50167,-0.18749,-0.570219,0.0828363,-0.389727,2.1631,0.953448,0.305648,-0.176821
627403,1,-1.57043,-0.521549,0.000208535,-2.10504,-0.00105673,1.58158,0.785651,-1.5708,-0.52129,9.20238e-07,-2.10524,-1.13102e-06,1.58411,0.785399,-0.00077785,0.0426139,5.49314e-05,-0.402917,0.000715478,0.509732,0.00151484,1.41284e-05,0.0632031,4.74871e-06,-0.491046,-1.29123e-06,0.555336,1.60944e-05,-0.557545,1.10959,-0.786069,10.752,1.29946,1.43026,-0.206716,-0.571903,0.0977148,-0.39007,2.14131,0.951169,0.312296,-0.176048
627404,1,-1.57043,-0.521499,0.000203262,-2.1055,-0.0010557,1.58214,0.785646,-1.5708,-0.521227,9.25094e-07,-2.10575,-1.13226e-06,1.58468,0.785399,-0.000515968,0.0442275,-0.00172662,-0.416822,0.000486349,0.524584,-0.000888979,1.44778e-05,0.0630664,4.85575e-06,-0.503536,-1.23912e-06,0.567862,1.64961e-05,-0.557545,0.982635,-0.710691,10.8274,1.29946,1.32772,-0.155447,-0.574252,0.123623,-0.391702,2.11299,0.94876,0.318042,-0.175383
627405,1,-1.57043,-0.521453,0.000202808,-2.10596,-0.00105353,1.5827,0.785645,-1.5708,-0.521164,9.30057e-07,-2.10626,-1.13345e-06,1.58526,0.785399,-0.000991644,0.0445325,-0.000594266,-0.429261,0.000941607,0.532583,-0.000830011,1.48272e-05,0.0629297,4.96279e-06,-0.516026,-1.187e-06,0.580388,1.68978e-05,-0.529774,0.883453,-0.734494,10.8512,1.28298,1.3085,-0.149038,-0.576112,0.154367,-0.39292,2.08226,0.946338,0.323271,-0.174844
627406,1,-1.57043,-0.5214,0.00020256,-2.10643,-0.00105656,1.58327,0.785651,-1.5708,-0.521101,9.35127e-07,-2.10679,-1.13458e-06,1.58585,0.785399,-0.00121645,0.0503694,-0.000952989,-0.440548,-0.000418156,0.540755,0.00134553,1.51766e-05,0.062793,5.06983e-06,-0.528516,-1.13488e-06,0.592914,1.72994e-05,-0.50597,0.681122,-0.710691,10.8274,1.31136,1.35977,-0.200308,-0.577357,0.181663,-0.393546,2.05354,0.943941,0.328338,-0.17438
627407,1,-1.57043,-0.521345,0.000199233,-2.1069,-0.00105394,1.58386,0.785655,-1.5708,-0.521038,9.40303e-07,-2.10733,-1.13567e-06,1.58646,0.785399,-0.00145948,0.051173,-0.00119214,-0.445843,-0.000478271,0.553272,0.00232117,1.5526e-05,0.0626563,5.17687e-06,-0.541006,-1.08276e-06,0.60544,1.77011e-05,-0.478199,0.47879,-0.686887,10.7044,1.31685,1.3854,-0.23876,-0.577817,0.200502,-0.393329,2.02754,0.941542,0.333166,-0.173956
627408,1,-1.57043,-0.521293,0.000204152,-2.10739,-0.00105347,1.58446,0.785648,-1.5708,-0.520976,9.45587e-07,-2.10789,-1.1367e-06,1.58708,0.785399,-0.000322552,0.0530541,0.000318865,-0.454544,0.00420444,0.569657,-0.00082614,1.58754e-05,0.0625195,5.28391e-06,-0.553496,-1.03064e-06,0.617966,1.81027e-05,-0.50597,0.351837,-0.734494,10.6052,1.32234,1.34695,-0.174673,-0.577998,0.214441,-0.392915,1.99957,0.939014,0.337201,-0.173619
627409,1,-1.57043,-0.521249,0.000203008,-2.10789,-0.00105377,1.58508,0.785648,-1.5708,-0.520914,9.50977e-07,-2.10845,-1.13767e-06,1.58771,0.785399,-0.00142084,0.0515765,-0.000344235,-0.466487,0.00404654,0.588167,-0.0015002,1.62279e-05,0.0619437,5.3892e-06,-0.565986,-9.68507e-07,0.630087,1.84974e-05,-0.454395,0.351837,-0.710691,10.4544,1.29946,1.24349,-0.149038,-0.578814,0.229189,-0.393626,1.96589,0.936288,0.340079,-0.173423
627410,1,-1.57043,-0.521202,0.000202723,-2.1084,-0.00105034,1.58571,0.785653,-1.5708,-0.520853,9.56471e-07,-2.10903,-1.13857e-06,1.58835,0.785399,-0.00654977,0.0506592,0.000327322,-0.477879,0.00445266,0.593861,0.000186664,1.65803e-05,0.0613678,5.49449e-06,-0.578476,-9.06371e-07,0.642207,1.88921e-05,-0.478199,0.351837,-0.734494,10.2799,1.26009,1.24349,-0.181082,-0.578687,0.248263,-0.393607,1.92641,0.933497,0.341898,-0.173346
627411,1,-1.57043,-0.521158,0.000200401,-2.10892,-0.00104821,1.58633,0.785652,-1.5708,-0.520792,9.62071e-07,-2.10962,-1.13942e-06,1.589,0.785399,-0.0054363,0.0459708,-0.000338597,-0.491786,0.00400492,0.59544,0.00083652,1.69328e-05,0.0607919,5.59977e-06,-0.590966,-8.44235e-07,0.654328,1.92868e-05,-0.454395,0.399445,-0.710691,10.1807,1.23812,1.30117,-0.200308,-0.575598,0.275576,-0.390402,1.88199,0.93075,0.343028,-0.173336
627412,1,-1.57043,-0.521109,0.000196565,-2.10946,-0.00104634,1.58697,0.785647,-1.5708,-0.520732,9.67776e-07,-2.11023,-1.1402e-06,1.58967,0.785399,-0.00400893,0.0448204,-0.00143216,-0.502785,0.00243005,0.611085,-0.000866474,1.72852e-05,0.0602161,5.70506e-06,-0.603456,-7.82099e-07,0.666449,1.96814e-05,-0.454395,0.351837,-0.659116,10.1569,1.2491,1.37899,-0.161856,-0.570196,0.31462,-0.384569,1.83299,0.927982,0.343762,-0.173374
627413,1,-1.57043,-0.521061,0.000198441,-2.11001,-0.00104714,1.58765,0.785649,-1.5708,-0.520672,9.73586e-07,-2.11084,-1.14092e-06,1.59035,0.785399,-0.00296116,0.0474624,-0.000305158,-0.530171,0.00113494,0.631943,0.000134428,1.76377e-05,0.0596402,5.81035e-06,-0.615946,-7.19964e-07,0.67857,2.00761e-05,-0.454395,0.276459,-0.686887,10.1093,1.26558,1.33413,-0.181082,-0.564471,0.357624,-0.378371,1.78544,0.925232,0.34468,-0.173441
627414,1,-1.57043,-0.521008,0.000196468,-2.11058,-0.00104493,1.58833,0.785648,-1.5708,-0.520613,9.79502e-07,-2.11147,-1.14158e-06,1.59104,0.785399,-0.00163371,0.0520141,-0.000853052,-0.542479,0.000409759,0.646984,8.96184e-05,1.79901e-05,0.0590643,5.91564e-06,-0.628436,-6.57828e-07,0.690691,2.04708e-05,-0.478199,0.0979309,-0.659116,10.2561,1.27748,1.31491,-0.181082,-0.560091,0.385925,-0.373978,1.75095,0.922704,0.346777,-0.173493
627415,1,-1.57043,-0.520962,0.00019646,-2.11117,-0.00104181,1.58904,0.785645,-1.5708,-0.520554,9.85523e-07,-2.11211,-1.14217e-06,1.59174,0.785399,-4.50206e-05,0.050223,-0.000568702,-0.553107,0.000987889,0.670269,-0.00211039,1.83426e-05,0.0584884,6.02093e-06,-0.640926,-5.95692e-07,0.702812,2.08654e-05,-0.529774,-0.00125125,-0.659116,10.3553,1.26009,1.22427,-0.122488,-0.557923,0.394199,-0.372393,1.73017,0.920391,0.349938,-0.173515
627416,1,-1.57043,-0.520915,0.000194787,-2.11176,-0.00103898,1.58974,0.785644,-1.5708,-0.520496,9.91649e-07,-2.11276,-1.14271e-06,1.59246,0.785399,-0.00135817,0.0495313,-0.000935946,-0.567584,0.00152524,0.674183,-0.000932211,1.8695e-05,0.0579126,6.12621e-06,-0.653416,-5.33557e-07,0.714932,2.12601e-05,-0.478199,-0.128204,-0.635312,10.5814,1.23812,1.21786,-0.135305,-0.55773,0.392437,-0.37315,1.71498,0.918136,0.353298,-0.173502
627417,1,-1.57043,-0.520864,0.000196456,-2.11237,-0.00103946,1.59045,0.785652,-1.5708,-0.520439,9.9788e-07,-2.11343,-1.14318e-06,1.59318,0.785399,-0.000996744,0.0495234,-6.71523e-05,-0.577246,0.000853006,0.687504,0.00202338,1.90475e-05,0.0573367,6.2315e-06,-0.665906,-4.71421e-07,0.727053,2.16548e-05,-0.478199,-0.282928,-0.659116,10.7798,1.24361,1.33413,-0.206716,-0.558598,0.388393,-0.37509,1.70087,0.915842,0.356479,-0.173414
627418,1,-1.57043,-0.520821,0.000196456,-2.113,-0.00103941,1.59117,0.785651,-1.5708,-0.520382,1.00422e-06,-2.11411,-1.14359e-06,1.59392,0.785399,-8.33563e-05,0.0495491,-0.00633322,-0.594079,0.000598394,0.698778,0.000162127,1.93999e-05,0.0567608,6.33679e-06,-0.678396,-4.09285e-07,0.739174,2.20495e-05,-0.50597,-0.306732,-0.659116,10.9781,1.24361,1.41745,-0.174673,-0.558636,0.383885,-0.375327,1.68697,0.913521,0.359421,-0.173254
627419,1,-1.57043,-0.520774,0.000198405,-2.11363,-0.0010394,1.59192,0.785651,-1.5708,-0.520327,1.01066e-06,-2.1148,-1.14392e-06,1.59467,0.785399,0.0010995,0.0478248,-0.00409657,-0.60756,0.000421222,0.713049,-0.000366633,1.97472e-05,0.05574,6.43775e-06,-0.690886,-3.37126e-07,0.750741,2.24329e-05,-0.557545,-0.382111,-0.686887,11.1011,1.24361,1.37899,-0.161856,-0.556325,0.378707,-0.371288,1.67459,0.911257,0.362354,-0.173083
627420,1,-1.57042,-0.520731,0.000198405,-2.11429,-0.00103685,1.59268,0.785653,-1.5708,-0.520272,1.01719e-06,-2.1155,-1.14419e-06,1.59544,0.785399,0.00180811,0.0452417,-0.00312407,-0.621563,0.00114525,0.731784,0.00141709,2.00945e-05,0.0547192,6.53871e-06,-0.703376,-2.64966e-07,0.762309,2.28164e-05,-0.605152,-0.405914,-0.686887,11.2995,1.22072,1.37258,-0.206716,-0.55364,0.375906,-0.36599,1.66332,0.908972,0.365354,-0.172926
627421,1,-1.57042,-0.520684,0.000194786,-2.11496,-0.00103624,1.59344,0.785652,-1.5708,-0.520218,1.02383e-06,-2.11622,-1.14438e-06,1.59621,0.785399,0.000619706,0.0441342,-0.00358391,-0.636941,0.000979487,0.743987,-4.70876e-06,2.04418e-05,0.0536984,6.63967e-06,-0.715866,-1.92806e-07,0.773876,2.31999e-05,-0.581349,-0.457489,-0.635312,11.3987,1.21523,1.41745,-0.181082,-0.552461,0.378877,-0.362554,1.65203,0.906572,0.368314,-0.172791
627422,1,-1.57042,-0.520643,0.000196456,-2.11565,-0.00103426,1.5942,0.785646,-1.5708,-0.520166,1.03057e-06,-2.11695,-1.1445e-06,1.597,0.785399,0.000391472,0.042118,-0.00205354,-0.650373,0.000255495,0.751051,-0.00118993,2.07891e-05,0.0526776,6.74063e-06,-0.728356,-1.20646e-07,0.785444,2.35834e-05,-0.581349,-0.457489,-0.659116,11.4264,1.22621,1.48794,-0.149038,-0.552378,0.387362,-0.360651,1.6417,0.904078,0.371401,-0.172702
627423,1,-1.57042,-0.520599,0.000200075,-2.11637,-0.0010332,1.595,0.785647,-1.5708,-0.520114,1.03742e-06,-2.11769,-1.14455e-06,1.59779,0.785399,0.000244732,0.0431063,-0.00032841,-0.666427,0.000177384,0.765359,-0.000318571,2.11364e-05,0.0516568,6.84159e-06,-0.740846,-4.84866e-08,0.797011,2.39668e-05,-0.581349,-0.560638,-0.710691,11.5732,1.22621,1.44949,-0.161856,-0.553848,0.398586,-0.36117,1.63425,0.901481,0.374926,-0.172638
627424,1,-1.57042,-0.520552,0.000196456,-2.11709,-0.00103417,1.59579,0.785649,-1.5708,-0.520063,1.04436e-06,-2.11844,-1.14453e-06,1.5986,0.785399,0.000150968,0.0460812,-0.00154972,-0.679897,-0.000317264,0.777681,0.000737055,2.14837e-05,0.050636,6.94255e-06,-0.753336,2.36732e-08,0.808579,2.43503e-05,-0.581349,-0.76297,-0.659116,11.6486,1.23812,1.37258,-0.18749,-0.55707,0.405451,-0.364446,1.63287,0.898834,0.379184,-0.172554
627425,1,-1.57043,-0.520512,0.000196456,-2.11782,-0.00103089,1.59659,0.785646,-1.5708,-0.520014,1.0514e-06,-2.11921,-1.14443e-06,1.59942,0.785399,-0.00111492,0.0419806,-0.00112642,-0.692351,0.00084362,0.781661,-0.000695425,2.1831e-05,0.0496152,7.04351e-06,-0.765826,9.58329e-08,0.820146,2.47338e-05,-0.529774,-0.838348,-0.659116,11.597,1.20973,1.42385,-0.155447,-0.560674,0.405267,-0.368403,1.63798,0.896203,0.384168,-0.172441
627426,1,-1.57042,-0.520468,0.000194786,-2.11855,-0.00102827,1.5974,0.785645,-1.5708,-0.519965,1.05855e-06,-2.11999,-1.14426e-06,1.60025,0.785399,0.00045629,0.0407869,-0.00137771,-0.701747,0.000361938,0.795228,-0.000700975,2.21782e-05,0.0485944,7.14447e-06,-0.778316,1.67993e-07,0.831714,2.51173e-05,-0.581349,-0.989105,-0.635312,11.5256,1.21523,1.47512,-0.149038,-0.56395,0.405974,-0.371911,1.64425,0.893507,0.389373,-0.172322
627427,1,-1.57043,-0.520432,0.000193115,-2.11929,-0.00102719,1.59822,0.785647,-1.5708,-0.519917,1.06579e-06,-2.12078,-1.14402e-06,1.6011,0.785399,-0.000907374,0.0374546,-0.00152775,-0.709758,0.000243524,0.807425,0.00024476,2.25255e-05,0.0475736,7.24543e-06,-0.790806,2.40152e-07,0.843281,2.55008e-05,-0.529774,-1.04068,-0.611508,11.3272,1.21523,1.48153,-0.168264,-0.566977,0.417113,-0.374943,1.64438,0.890595,0.394036,-0.172198
627428,1,-1.57042,-0.5204,0.000187365,-2.12006,-0.00102429,1.59906,0.785646,-1.57079,-0.519871,1.07314e-06,-2.12158,-1.14371e-06,1.60195,0.785399,0.00115447,0.0369284,-0.00226427,-0.722842,0.00101173,0.814703,-0.000311545,2.28728e-05,0.0465527,7.34639e-06,-0.803296,3.12312e-07,0.854849,2.58842e-05,-0.605152,-1.04068,-0.559934,11.2995,1.19234,1.51449,-0.155447,-0.569596,0.442205,-0.3771,1.63472,0.887408,0.397819,-0.172062
627429,1,-1.57043,-0.520372,0.000186655,-2.12082,-0.00101721,1.5999,0.785642,-1.57079,-0.519826,1.08058e-06,-2.1224,-1.14331e-06,1.60282,0.7854,-0.000996486,0.0355579,-0.00153902,-0.735695,0.00193036,0.81494,-0.0014284,2.32084e-05,0.0450417,7.44071e-06,-0.815786,3.99577e-07,0.865828,2.62584e-05,-0.529774,-0.989105,-0.559934,11.2519,1.15846,1.46231,-0.122488,-0.57182,0.477014,-0.378297,1.61816,0.883993,0.401215,-0.171905
627430,1,-1.57042,-0.520338,0.000188089,-2.12162,-0.0010098,1.60077,0.785648,-1.57079,-0.519782,1.08811e-06,-2.12322,-1.14282e-06,1.60369,0.7854,0.000539933,0.0364458,-0.000491337,-0.747705,0.00339017,0.832813,0.000980514,2.3544e-05,0.0435306,7.53502e-06,-0.828276,4.86841e-07,0.876807,2.66325e-05,-0.581349,-1.01291,-0.583737,11.351,1.1017,1.43026,-0.174673,-0.574124,0.514786,-0.379321,1.59903,0.88039,0.404756,-0.1717
627431,1,-1.57043,-0.520304,0.000189959,-2.12241,-0.00100817,1.60166,0.785648,-1.57079,-0.51974,1.09574e-06,-2.12406,-1.14225e-06,1.60458,0.7854,-0.000848097,0.0370763,0.000305456,-0.771134,0.00161656,0.853069,0.000891035,2.38795e-05,0.0420196,7.62934e-06,-0.840766,5.74106e-07,0.887786,2.70067e-05,-0.529774,-1.04068,-0.611508,11.2995,1.1191,1.35336,-0.181082,-0.577293,0.546753,-0.381483,1.58307,0.876669,0.408757,-0.171426
627432,1,-1.57043,-0.520268,0.000182694,-2.12322,-0.00100755,1.60254,0.785649,-1.57079,-0.5197,1.10347e-06,-2.12492,-1.14159e-06,1.60548,0.7854,-0.000566618,0.036888,-0.00222166,-0.779875,-0.000176377,0.872166,-0.000355413,2.42151e-05,0.0405085,7.72366e-06,-0.853256,6.61371e-07,0.898765,2.73808e-05,-0.529774,-1.16763,-0.508359,11.4502,1.15297,1.27554,-0.155447,-0.580532,0.565891,-0.383716,1.57523,0.872973,0.413325,-0.171113
627433,1,-1.57043,-0.520228,0.000189924,-2.12405,-0.00101168,1.60344,0.785652,-1.57079,-0.519661,1.11128e-06,-2.12578,-1.14084e-06,1.60639,0.7854,-0.000935472,0.038869,0.000922405,-0.789712,-0.00198215,0.880166,0.00142457,2.45507e-05,0.0389974,7.81798e-06,-0.865746,7.48635e-07,0.909744,2.7755e-05,-0.50597,-1.39377,-0.611508,11.5256,1.20333,1.24349,-0.200308,-0.582918,0.574042,-0.384686,1.57262,0.869281,0.417863,-0.170801
627434,1,-1.57043,-0.520191,0.000184353,-2.12488,-0.00100612,1.60433,0.785649,-1.57079,-0.519623,1.1192e-06,-2.12666,-1.14e-06,1.60731,0.7854,0.000582091,0.0368776,-0.00124811,-0.804139,0.00294699,0.893353,0.000474996,2.48862e-05,0.0374864,7.91229e-06,-0.878236,8.359e-07,0.920722,2.81291e-05,-0.557545,-1.6199,-0.532163,11.724,1.21523,1.29476,-0.18749,-0.585316,0.575337,-0.38559,1.57123,0.865487,0.421826,-0.17051
627435,1,-1.57043,-0.52016,0.000184352,-2.12574,-0.0010019,1.60524,0.785646,-1.57079,-0.519587,1.1272e-06,-2.12755,-1.13908e-06,1.60824,0.7854,0.000387546,0.0359917,-0.000837323,-0.817699,0.00300155,0.902179,-0.000632772,2.52218e-05,0.0359753,8.00661e-06,-0.890726,9.23165e-07,0.931701,2.85033e-05,-0.557545,-1.74686,-0.532163,11.9461,1.19783,1.35977,-0.161856,-0.588,0.572625,-0.386628,1.57079,0.861638,0.425226,-0.170275
627436,1,-1.57043,-0.520137,0.000182681,-2.12663,-0.000998691,1.60616,0.78565,-1.57079,-0.519553,1.1353e-06,-2.12846,-1.13807e-06,1.60919,0.7854,-0.000948448,0.0336375,-0.00111897,-0.833905,0.00310931,0.914024,0.000764947,2.55574e-05,0.0344643,8.10093e-06,-0.903216,1.01043e-06,0.94268,2.88775e-05,-0.50597,-1.79843,-0.508359,12.2715,1.17586,1.42385,-0.193899,-0.590258,0.568064,-0.386777,1.57223,0.857874,0.428301,-0.170114
627437,1,-1.57043,-0.520112,0.00018055,-2.12752,-0.000998436,1.60708,0.785654,-1.57079,-0.51952,1.1435e-06,-2.12937,-1.13697e-06,1.61014,0.7854,-0.00183901,0.0295,-0.00386982,-0.850715,0.00229373,0.916851,0.00193412,2.58929e-05,0.0329532,8.19525e-06,-0.915706,1.09769e-06,0.953659,2.92516e-05,-0.454395,-1.87381,-0.508359,12.569,1.17586,1.41745,-0.232351,-0.590497,0.563657,-0.383923,1.57717,0.854339,0.431491,-0.170022
627438,1,-1.57043,-0.520087,0.00017455,-2.12844,-0.000993265,1.60802,0.785651,-1.57079,-0.519488,1.15179e-06,-2.1303,-1.13579e-06,1.6111,0.7854,-1.98008e-05,0.0264368,-0.00460541,-0.86776,0.00339022,0.924899,0.000102617,2.62285e-05,0.0314421,8.28956e-06,-0.928196,1.18496e-06,0.964638,2.96258e-05,-0.50597,-1.94919,-0.432981,12.8904,1.13008,1.47512,-0.200308,-0.587522,0.561803,-0.376247,1.58722,0.851101,0.435282,-0.170027
627439,1,-1.57043,-0.520063,0.000172643,-2.12936,-0.000991406,1.60895,0.785644,-1.57079,-0.519459,1.16017e-06,-2.13124,-1.1345e-06,1.61208,0.7854,-0.0017766,0.0242142,-0.0038238,-0.887183,0.00299473,0.928541,-0.00210173,2.65471e-05,0.0294706,8.37575e-06,-0.940656,1.28796e-06,0.974981,2.99896e-05,-0.430592,-2.02457,-0.409177,13.1403,1.1136,1.62985,-0.141714,-0.582292,0.56156,-0.365113,1.60506,0.848125,0.44013,-0.170153
627440,1,-1.57043,-0.520029,0.000166996,-2.1303,-0.000993227,1.6099,0.785646,-1.57079,-0.519431,1.16863e-06,-2.13219,-1.13311e-06,1.61306,0.7854,-0.000627711,0.028655,-0.00455278,-0.903843,0.00147931,0.941813,-0.000892525,2.68657e-05,0.027499,8.46193e-06,-0.953117,1.39096e-06,0.985323,3.03534e-05,-0.454395,-2.2269,-0.329831,13.3149,1.13008,1.62344,-0.155447,-0.576051,0.554709,-0.352496,1.63558,0.845386,0.446536,-0.170356
627441,1,-1.57043,-0.519994,0.000161499,-2.13126,-0.000993182,1.61086,0.785649,-1.57079,-0.519406,1.17718e-06,-2.13316,-1.13161e-06,1.61406,0.7854,-0.000975377,0.0323142,-0.00425946,-0.915556,4.92499e-06,0.951684,0.000591778,2.71843e-05,0.0255274,8.54811e-06,-0.965577,1.49396e-06,0.995665,3.07172e-05,-0.430592,-2.45303,-0.282224,13.3387,1.15846,1.61062,-0.18749,-0.569438,0.530012,-0.339292,1.68203,0.842848,0.454667,-0.170541
627442,1,-1.57044,-0.519966,0.00016245,-2.13221,-0.000990285,1.61183,0.785649,-1.57079,-0.519382,1.18581e-06,-2.13414,-1.13002e-06,1.61507,0.7854,-0.00241356,0.0300906,-0.00236582,-0.927337,0.000666045,0.959499,0.000394519,2.75029e-05,0.0235559,8.63429e-06,-0.978038,1.59696e-06,1.00601,3.10811e-05,-0.355213,-2.60776,-0.306028,13.3149,1.14198,1.57858,-0.18749,-0.563136,0.486952,-0.326533,1.74071,0.840377,0.464041,-0.170665
627443,1,-1.57045,-0.51994,0.000156921,-2.13316,-0.000992371,1.61283,0.785646,-1.57079,-0.519361,1.19453e-06,-2.13513,-1.12832e-06,1.61608,0.7854,-0.00281552,0.0288676,-0.00340269,-0.927491,-0.000330464,0.974862,-0.000686423,2.78215e-05,0.0215843,8.72047e-06,-0.990498,1.69996e-06,1.01635,3.14449e-05,-0.303639,-2.78232,-0.230649,13.0173,1.16396,1.41104,-0.161856,-0.557284,0.440009,-0.314632,1.79957,0.837736,0.473398,-0.170763
627444,1,-1.57045,-0.519922,0.000156381,-2.13412,-0.000986615,1.61385,0.785652,-1.57079,-0.519341,1.20334e-06,-2.13613,-1.12651e-06,1.61711,0.7854,-0.00243386,0.0236663,-0.00175833,-0.959338,0.000622973,0.991476,0.00144126,2.81401e-05,0.0196128,8.80666e-06,-1.00296,1.80297e-06,1.02669,3.18087e-05,-0.279835,-2.90927,-0.254453,12.692,1.14198,1.08236,-0.213125,-0.551879,0.40065,-0.303667,1.85156,0.834856,0.481918,-0.170867
627445,1,-1.57045,-0.519909,0.000157593,-2.13509,-0.000982967,1.61487,0.785651,-1.57079,-0.519324,1.21223e-06,-2.13715,-1.12461e-06,1.61815,0.7854,-0.0016226,0.0206801,-0.000557619,-0.958157,0.00128514,1.00387,0.000723478,2.84588e-05,0.0176412,8.89284e-06,-1.01542,1.90597e-06,1.03703,3.21726e-05,-0.279835,-2.93704,-0.282224,12.2715,1.1191,0.86996,-0.206716,-0.548154,0.372245,-0.295472,1.89739,0.831789,0.48943,-0.170989
627446,1,-1.57045,-0.519902,0.000159018,-2.13608,-0.000975639,1.61586,0.785659,-1.57079,-0.519308,1.22121e-06,-2.13817,-1.1226e-06,1.61919,0.7854,-0.000524945,0.0168322,0.000158807,-0.962057,0.00686293,1.00823,0.00194038,2.87774e-05,0.0156696,8.97902e-06,-1.02788,2.00897e-06,1.04738,3.25364e-05,-0.303639,-2.88547,-0.306028,11.9223,1.08522,1.03109,-0.246084,-0.547475,0.364943,-0.291923,1.92781,0.82826,0.494528,-0.171171
627447,1,-1.57045,-0.519894,0.000162095,-2.13705,-0.000980046,1.61687,0.785671,-1.57079,-0.519294,1.23027e-06,-2.13921,-1.12049e-06,1.62025,0.7854,-0.00034998,0.0122959,0.00184942,-0.964343,0.00311734,0.986574,0.00488788,2.9096e-05,0.0136981,9.0652e-06,-1.04034,2.11197e-06,1.05772,3.29002e-05,-0.303639,-2.88547,-0.381406,11.4978,1.13558,1.16659,-0.34313,-0.550235,0.389558,-0.293462,1.93162,0.823892,0.495954,-0.171463
627448,1,-1.57045,-0.519882,0.000157738,-2.13806,-0.000982803,1.61791,0.78567,-1.57079,-0.519282,1.23942e-06,-2.14027,-1.11827e-06,1.62132,0.7854,-0.000233332,0.013354,1.17472e-05,-0.971456,0.00606918,1.00387,0.00274996,2.94146e-05,0.0117265,9.15139e-06,-1.0528,2.21497e-06,1.06806,3.3264e-05,-0.303639,-2.93704,-0.329831,11.3749,1.16396,1.173,-0.329397,-0.555378,0.444626,-0.298572,1.90803,0.818653,0.493939,-0.171943
627449,1,-1.57045,-0.519862,0.000159441,-2.13909,-0.000980798,1.619,0.785662,-1.57079,-0.519273,1.24865e-06,-2.14133,-1.11595e-06,1.6224,0.7854,0.000401248,0.0132956,0.000646368,-0.990937,0.004229,1.02958,0.00865644,2.9712e-05,0.00947334,9.2291e-06,-1.06484,2.32335e-06,1.07762,3.36075e-05,-0.327442,-3.0878,-0.357602,11.474,1.17586,0.973414,-0.258901,-0.56099,0.515105,-0.30447,1.86559,0.81293,0.489348,-0.172741
627450,1,-1.57045,-0.519842,0.00015741,-2.14011,-0.000975213,1.62005,0.785665,-1.57079,-0.519266,1.25796e-06,-2.14241,-1.11352e-06,1.62348,0.7854,0.000267492,0.0167548,-0.000227011,-1.00262,0.00477907,1.0448,0.00750657,3.00095e-05,0.00722019,9.30681e-06,-1.07688,2.43174e-06,1.08718,3.3951e-05,-0.327442,-3.26236,-0.329831,11.5494,1.13558,0.99264,-0.284536,-0.56599,0.580584,-0.30961,1.81791,0.807265,0.48329,-0.173905
627451,1,-1.57045,-0.519822,0.000159514,-2.14117,-0.000966095,1.62111,0.785669,-1.57079,-0.519261,1.26735e-06,-2.1435,-1.11098e-06,1.62458,0.7854,-0.00158492,0.0155397,-0.000157572,-1.01674,0.00645299,1.05545,0.00701816,3.0307e-05,0.00496704,9.38453e-06,-1.08892,2.54012e-06,1.09674,3.42945e-05,-0.252064,-3.41708,-0.329831,11.7478,1.05684,1.14096,-0.322988,-0.56932,0.628879,-0.312594,1.77373,0.801978,0.476519,-0.175373
627452,1,-1.57046,-0.519798,0.000156414,-2.14222,-0.000963386,1.6222,0.78567,-1.57079,-0.519258,1.27681e-06,-2.1446,-1.10833e-06,1.62569,0.7854,-0.00217024,0.0167692,-0.000666533,-1.03136,0.00906869,1.07394,0.00562962,3.06045e-05,0.00271389,9.46224e-06,-1.10096,2.6485e-06,1.1063,3.46381e-05,-0.204456,-3.66702,-0.306028,11.8232,1.06233,1.05673,-0.336721,-0.569819,0.657216,-0.311973,1.73639,0.797136,0.469483,-0.177098
627453,1,-1.57046,-0.519783,0.000154267,-2.14331,-0.00096228,1.6233,0.785672,-1.57079,-0.519258,1.28635e-06,-2.14571,-1.10557e-06,1.6268,0.7854,-0.00385968,0.0157777,-0.00100467,-1.04402,0.00663538,1.08943,0.00455947,3.09019e-05,0.000460737,9.53996e-06,-1.11301,2.75689e-06,1.11586,3.49816e-05,-0.101307,-3.84555,-0.282224,11.9977,1.06233,1.02468,-0.349539,-0.566887,0.666369,-0.307104,1.7071,0.792689,0.462482,-0.179087
627454,1,-1.57046,-0.519775,0.000150489,-2.14441,-0.000959326,1.62442,0.785675,-1.57079,-0.519259,1.29597e-06,-2.14684,-1.10271e-06,1.62793,0.7854,-0.00201631,0.0138048,-0.00187884,-1.05607,0.00466233,1.10308,0.0032884,3.11994e-05,-0.00179241,9.61767e-06,-1.12505,2.86527e-06,1.12542,3.53251e-05,-0.125111,-3.9725,-0.230649,12.1207,1.06783,0.954188,-0.349539,-0.560652,0.661227,-0.298223,1.68401,0.788528,0.455447,-0.18135
627455,1,-1.57046,-0.519775,0.000146816,-2.1455,-0.000956874,1.62552,0.785675,-1.57079,-0.519263,1.30566e-06,-2.14797,-1.09973e-06,1.62906,0.7854,-0.000137783,0.00803219,-0.00246095,-1.06534,0.0027956,1.10391,0.00214147,3.14969e-05,-0.00404557,9.69539e-06,-1.13709,2.97365e-06,1.13498,3.56686e-05,-0.176685,-4.04788,-0.179074,12.1723,1.08522,0.986232,-0.34313,-0.552582,0.652499,-0.287129,1.6622,0.78445,0.448079,-0.183881
627456,1,-1.57046,-0.519781,0.000146339,-2.1466,-0.000947843,1.62662,0.785666,-1.57079,-0.51927,1.31543e-06,-2.14912,-1.09665e-06,1.63021,0.7854,-9.18562e-05,0.0058254,-0.0010853,-1.07455,0.00812901,1.09659,-0.00178937,3.17943e-05,-0.00629872,9.7731e-06,-1.14913,3.08204e-06,1.14454,3.60121e-05,-0.176685,-4.07169,-0.202878,12.1207,1.04585,1.20504,-0.252493,-0.544707,0.651025,-0.276392,1.63675,0.780195,0.440246,-0.186648
627457,1,-1.57046,-0.519788,0.000151191,-2.14771,-0.000946901,1.62775,0.785667,-1.57079,-0.519278,1.32528e-06,-2.15028,-1.09346e-06,1.63136,0.7854,-6.12384e-05,0.00191608,-0.00202026,-1.0827,0.0105117,1.09979,-0.000850611,3.20918e-05,-0.00855187,9.85082e-06,-1.16117,3.19042e-06,1.1541,3.63556e-05,-0.176685,-4.12326,-0.282224,12.1207,1.05135,1.39822,-0.258901,-0.537964,0.661814,-0.26726,1.60511,0.77558,0.432116,-0.189572
627458,1,-1.57047,-0.519799,0.000146873,-2.14884,-0.000941255,1.62889,0.785672,-1.57079,-0.519289,1.33521e-06,-2.15146,-1.09016e-06,1.63253,0.7854,-0.00124725,-0.000998001,-0.00225992,-1.09588,0.00847098,1.1192,0.00117314,3.23893e-05,-0.010805,9.92853e-06,-1.17321,3.2988e-06,1.16366,3.66991e-05,-0.125111,-4.17484,-0.254453,12.1723,1.03395,1.39181,-0.303762,-0.531494,0.685534,-0.258582,1.56661,0.770614,0.423906,-0.192535
627459,1,-1.57047,-0.519806,0.000146083,-2.14999,-0.000930472,1.63004,0.785666,-1.57079,-0.519302,1.34521e-06,-2.15264,-1.08676e-06,1.6337,0.7854,-0.00138831,-0.00200722,-0.00170422,-1.11478,0.0120402,1.13044,-0.00105775,3.26623e-05,-0.0131922,9.99754e-06,-1.18453,3.40613e-06,1.17235,3.70161e-05,-0.101307,-4.27402,-0.254453,12.3706,1.00557,1.44949,-0.252493,-0.524376,0.716111,-0.249313,1.5258,0.765503,0.416219,-0.19545
627460,1,-1.57046,-0.519808,0.00014582,-2.15114,-0.000927887,1.6312,0.785662,-1.57079,-0.519318,1.35528e-06,-2.15384,-1.08324e-06,1.63488,0.785401,0.00204412,-0.00161244,-0.00128435,-1.12408,0.00783024,1.12525,-0.00211895,3.29353e-05,-0.0155794,1.00666e-05,-1.19585,3.51346e-06,1.18104,3.73331e-05,-0.22826,-4.42477,-0.254453,12.4698,1.03395,1.41745,-0.213125,-0.517738,0.742605,-0.241105,1.4904,0.760376,0.410048,-0.198261
627461,1,-1.57046,-0.51981,0.000149351,-2.15234,-0.000921557,1.63238,0.785668,-1.57079,-0.519336,1.36541e-06,-2.15505,-1.07962e-06,1.63607,0.785401,0.00191956,-0.000782356,0.000239044,-1.14045,0.00626802,1.14464,0.000790707,3.32083e-05,-0.0179665,1.01356e-05,-1.20717,3.62079e-06,1.18973,3.765e-05,-0.252064,-4.6033,-0.306028,12.8427,1.02297,1.35336,-0.271719,-0.513632,0.757022,-0.236637,1.46469,0.755222,0.405923,-0.200874
627462,1,-1.57046,-0.519816,0.000144032,-2.15352,-0.000919058,1.63358,0.785667,-1.57079,-0.519356,1.37562e-06,-2.15626,-1.07589e-06,1.63727,0.785401,0.000166082,-0.00399719,-0.00168724,-1.17559,0.00279443,1.16883,0.000314682,3.34813e-05,-0.0203537,1.02046e-05,-1.21848,3.72812e-06,1.19842,3.7967e-05,-0.204456,-4.75406,-0.230649,13.1879,1.07332,1.27554,-0.26531,-0.511502,0.750483,-0.235174,1.45658,0.750331,0.404387,-0.203232
627463,1,-1.57047,-0.519819,0.000145693,-2.15475,-0.000919471,1.63476,0.785664,-1.57079,-0.519379,1.38589e-06,-2.15749,-1.07206e-06,1.63847,0.785401,-0.0010957,-0.00533741,-0.000630536,-1.18697,0.000121169,1.17895,-0.000992238,3.37543e-05,-0.0227409,1.02736e-05,-1.2298,3.83545e-06,1.2071,3.8284e-05,-0.152882,-4.95639,-0.254453,13.6878,1.13008,1.28195,-0.232351,-0.508737,0.717546,-0.233274,1.47409,0.746121,0.405886,-0.205365
627464,1,-1.57046,-0.519828,0.000147639,-2.15599,-0.000913174,1.63594,0.785669,-1.57079,-0.519404,1.39623e-06,-2.15873,-1.06812e-06,1.63969,0.785401,0.00158958,-0.00706505,0.000182365,-1.19869,0.00286041,1.18122,0.0012853,3.40273e-05,-0.0251281,1.03426e-05,-1.24112,3.94278e-06,1.21579,3.8601e-05,-0.252064,-5.13492,-0.282224,14.1361,1.06233,1.52731,-0.284536,-0.505337,0.66562,-0.230892,1.5118,0.742519,0.409624,-0.207302
627465,1,-1.57046,-0.519844,0.000147637,-2.15723,-0.000907846,1.63712,0.785669,-1.57079,-0.519432,1.40665e-06,-2.15999,-1.06407e-06,1.64091,0.785401,0.00226615,-0.0108433,-0.00305166,-1.21214,0.00295745,1.16556,0.000630011,3.43004e-05,-0.0275153,1.04116e-05,-1.25244,4.05011e-06,1.22448,3.8918e-05,-0.303639,-5.2103,-0.282224,14.4574,1.03945,1.70767,-0.278127,-0.502469,0.606253,-0.229126,1.56026,0.739203,0.414785,-0.209059
627466,1,-1.57045,-0.519856,0.000149308,-2.15848,-0.00090946,1.63834,0.785664,-1.57079,-0.519462,1.41713e-06,-2.16125,-1.05991e-06,1.64215,0.785401,0.003274,-0.0109866,-0.00176551,-1.21693,0.00127602,1.18667,-0.00103018,3.45734e-05,-0.0299024,1.04806e-05,-1.26375,4.15744e-06,1.23317,3.9235e-05,-0.379017,-5.38882,-0.306028,14.5328,1.06233,1.72048,-0.23876,-0.499804,0.548083,-0.226941,1.6125,0.735936,0.420979,-0.210688
627467,1,-1.57045,-0.519881,0.000148847,-2.15974,-0.000903454,1.63956,0.785662,-1.57079,-0.519494,1.42768e-06,-2.16253,-1.05564e-06,1.64339,0.785401,0.00273948,-0.0154455,-0.000836105,-1.22123,0.00286363,1.19698,-0.00163031,3.48464e-05,-0.0322896,1.05496e-05,-1.27507,4.26477e-06,1.24186,3.95519e-05,-0.402821,-5.38882,-0.329831,14.3344,1.01106,1.88162,-0.213125,-0.497833,0.500999,-0.224961,1.65806,0.732444,0.427087,-0.212236
627468,1,-1.57045,-0.519912,0.000150268,-2.16097,-0.000890228,1.64076,0.785668,-1.57079,-0.519528,1.43829e-06,-2.16381,-1.05127e-06,1.64464,0.785401,0.00126951,-0.0196385,-0.000719337,-1.21924,0.0110612,1.20425,0.0010877,3.51194e-05,-0.0346768,1.06186e-05,-1.28639,4.3721e-06,1.25054,3.98689e-05,-0.379017,-5.33725,-0.329831,13.8861,0.892961,2.05557,-0.271719,-0.496937,0.478203,-0.223904,1.68439,0.728404,0.431806,-0.213712
627469,1,-1.57045,-0.519938,0.000148611,-2.16223,-0.000883845,1.642,0.785667,-1.57079,-0.519566,1.44897e-06,-2.16511,-1.0468e-06,1.6459,0.785401,0.00140315,-0.022578,-0.000601008,-1.22694,0.00888047,1.21634,0.000253738,3.53653e-05,-0.0370744,1.06788e-05,-1.29675,4.47425e-06,1.2583,4.01554e-05,-0.402821,-5.41263,-0.329831,13.5132,0.86458,2.02902,-0.258901,-0.496366,0.487785,-0.222815,1.68406,0.723562,0.434685,-0.215121
627470,1,-1.57044,-0.519967,0.000152138,-2.16349,-0.000877597,1.64327,0.785664,-1.57079,-0.519605,1.45971e-06,-2.16642,-1.04222e-06,1.64716,0.785401,0.00214186,-0.0261023,0.000157854,-1.23857,0.0105841,1.24616,-0.000811692,3.56112e-05,-0.039472,1.07389e-05,-1.30711,4.5764e-06,1.26606,4.04419e-05,-0.454395,-5.43643,-0.357602,13.2633,0.875566,1.62985,-0.232351,-0.496247,0.525558,-0.221885,1.65987,0.71789,0.436225,-0.21649
627471,1,-1.57045,-0.519998,0.000152664,-2.1648,-0.00087944,1.64456,0.785663,-1.57079,-0.519647,1.47051e-06,-2.16773,-1.03754e-06,1.64844,0.785401,0.00022148,-0.0274651,3.69203e-05,-1.24769,0.00519702,1.26567,-0.000776617,3.58571e-05,-0.0418696,1.07991e-05,-1.31747,4.67854e-06,1.27382,4.07284e-05,-0.402821,-5.51181,-0.357602,13.414,0.943315,1.23709,-0.225942,-0.496721,0.58148,-0.221408,1.61917,0.711555,0.436958,-0.217825
627472,1,-1.57045,-0.520022,0.00015089,-2.16611,-0.000883156,1.64584,0.785667,-1.57079,-0.519691,1.48137e-06,-2.16906,-1.03276e-06,1.64972,0.785401,0.000147654,-0.0287539,-0.000676237,-1.26723,-4.88978e-05,1.27409,0.00094172,3.6103e-05,-0.0442672,1.08592e-05,-1.32782,4.78069e-06,1.28158,4.10149e-05,-0.402821,-5.71414,-0.329831,13.5608,1.05135,1.10159,-0.26531,-0.49659,0.642589,-0.219888,1.57185,0.704899,0.437303,-0.219091
627473,1,-1.57044,-0.52005,0.000158187,-2.16743,-0.000886557,1.64708,0.785669,-1.57079,-0.519738,1.49229e-06,-2.1704,-1.02788e-06,1.65101,0.785401,0.00074805,-0.0269024,0.0019236,-1.28057,-0.00278646,1.27224,0.00110358,3.6349e-05,-0.0466648,1.09194e-05,-1.33818,4.88284e-06,1.28934,4.13014e-05,-0.430592,-5.91647,-0.432981,13.8623,1.13558,1.21145,-0.278127,-0.49592,0.69257,-0.217548,1.53139,0.698339,0.438009,-0.220237
627474,1,-1.57043,-0.520074,0.000158207,-2.16877,-0.000887114,1.64835,0.785661,-1.57079,-0.519787,1.50327e-06,-2.17175,-1.02289e-06,1.65231,0.785401,0.00402517,-0.0269694,0.00125358,-1.29098,0.00208271,1.27709,-0.00190835,3.65949e-05,-0.0490624,1.09795e-05,-1.34854,4.98499e-06,1.2971,4.1588e-05,-0.581349,-6.19418,-0.432981,13.9615,1.15846,1.39181,-0.206716,-0.49704,0.720805,-0.217495,1.50563,0.692109,0.439427,-0.221262
627475,1,-1.57043,-0.520105,0.000158213,-2.1701,-0.000887673,1.64963,0.785666,-1.57079,-0.519838,1.51431e-06,-2.17311,-1.01781e-06,1.65361,0.785401,0.00444669,-0.0284859,0.000814104,-1.30162,0.00156344,1.28808,0.000423782,3.68408e-05,-0.05146,1.10397e-05,-1.3589,5.08714e-06,1.30486,4.18745e-05,-0.656727,-6.42429,-0.432981,14.0329,1.16945,1.43026,-0.252493,-0.501221,0.728074,-0.221016,1.49314,0.686303,0.441222,-0.222191
627476,1,-1.57043,-0.520152,0.000161835,-2.17145,-0.00087494,1.65091,0.785663,-1.57079,-0.519892,1.52541e-06,-2.17448,-1.01262e-06,1.65492,0.785401,0.00869407,-0.0350854,0.00173295,-1.31338,0.00564942,1.29521,-0.000700379,3.70867e-05,-0.0538576,1.10998e-05,-1.36926,5.18929e-06,1.31262,4.2161e-05,-0.632923,-6.42429,-0.484555,14.0845,1.05684,1.50167,-0.225942,-0.50895,0.723795,-0.228289,1.48835,0.680963,0.442957,-0.223026
627477,1,-1.57043,-0.5202,0.000163506,-2.17283,-0.000859201,1.65221,0.785664,-1.57079,-0.519948,1.53657e-06,-2.17586,-1.00733e-06,1.65624,0.785401,0.0056703,-0.0359801,0.00169995,-1.32184,0.00931548,1.29732,-0.000229228,3.73326e-05,-0.0562552,1.116e-05,-1.37962,5.29144e-06,1.32037,4.24475e-05,-0.605152,-6.44809,-0.508359,14.1837,0.915849,1.51449,-0.232351,-0.520369,0.718084,-0.239416,1.48594,0.676012,0.444444,-0.223779
627478,1,-1.57042,-0.520258,0.000165636,-2.17418,-0.000844587,1.65353,0.785673,-1.57079,-0.520007,1.54779e-06,-2.17725,-1.00193e-06,1.65757,0.785401,0.00537953,-0.0424344,0.00112418,-1.33002,0.0102535,1.28698,0.00296701,3.75785e-05,-0.0586528,1.12202e-05,-1.38998,5.39358e-06,1.32813,4.2734e-05,-0.656727,-6.34891,-0.508359,14.1599,0.81331,1.27554,-0.31658,-0.533055,0.717079,-0.251469,1.4822,0.671257,0.445772,-0.224466
627479,1,-1.57042,-0.520315,0.000166347,-2.17556,-0.000835944,1.65486,0.785688,-1.57079,-0.520068,1.55906e-06,-2.17864,-9.96444e-07,1.65891,0.785401,0.00634865,-0.0488395,0.000742616,-1.33822,0.00847786,1.30087,0.00703055,3.77953e-05,-0.060955,1.12714e-05,-1.3992,5.4877e-06,1.33492,4.29873e-05,-0.632923,-6.29733,-0.508359,14.2075,0.773943,1.173,-0.452993,-0.544843,0.72867,-0.26178,1.47264,0.666365,0.44673,-0.225139
627480,1,-1.57043,-0.520364,0.000168254,-2.17693,-0.000833826,1.6562,0.78569,-1.57079,-0.520131,1.57038e-06,-2.18005,-9.90862e-07,1.66025,0.785401,0.00294224,-0.0497719,0.00104676,-1.37706,0.0085945,1.31051,0.00421245,3.8012e-05,-0.0632572,1.13226e-05,-1.40842,5.58182e-06,1.34172,4.32406e-05,-0.557545,-6.39651,-0.532163,14.2591,0.825212,1.19223,-0.440176,-0.554969,0.747824,-0.269585,1.46434,0.661283,0.447783,-0.225946
627481,1,-1.57043,-0.520408,0.000166662,-2.17833,-0.000840495,1.65753,0.785687,-1.57079,-0.520197,1.58176e-06,-2.18147,-9.85186e-07,1.6616,0.785401,0.00231628,-0.0490399,0.000137181,-1.38461,0.00100328,1.32637,0.00509419,3.82287e-05,-0.0655594,1.13738e-05,-1.41765,5.67593e-06,1.34851,4.3494e-05,-0.557545,-6.57504,-0.508359,14.3067,0.966203,1.12173,-0.375173,-0.561994,0.753528,-0.273464,1.47433,0.656334,0.45018,-0.227082
627482,1,-1.57043,-0.520447,0.000163069,-2.17976,-0.000844939,1.65889,0.785687,-1.57079,-0.520265,1.59318e-06,-2.1829,-9.79416e-07,1.66295,0.785401,0.00181027,-0.0452431,-0.00111786,-1.39249,-0.00357106,1.33706,0.00331259,3.84455e-05,-0.0678616,1.1425e-05,-1.42687,5.77005e-06,1.3553,4.37473e-05,-0.557545,-6.90433,-0.456784,14.6082,1.09072,1.03109,-0.362356,-0.564791,0.736282,-0.272021,1.50366,0.65163,0.453484,-0.228645
627483,1,-1.57043,-0.520498,0.000165027,-2.18119,-0.000846141,1.66023,0.785689,-1.57079,-0.520335,1.60466e-06,-2.18433,-9.73552e-07,1.66431,0.785401,0.00196322,-0.0465778,-9.77883e-05,-1.40396,-0.00461121,1.32353,0.00202707,3.86622e-05,-0.0701638,1.14762e-05,-1.43609,5.86417e-06,1.36209,4.40006e-05,-0.581349,-7.07889,-0.484555,15.1041,1.15846,1.01828,-0.349539,-0.563951,0.697994,-0.265884,1.5444,0.647153,0.456646,-0.230583
