shamilmamedov/beam_handling/data/vibration_suppression_ICRA/aOCP_T3_0.81s.csv
duration, success rate, q[0], q[1], q[2], q[3], q[4], q[5], q[6],q_d[0], q_d[1], q_d[2], q_d[3], q_d[4], q_d[5], q_d[6],dq[0], dq[1], dq[2], dq[3], dq[4], dq[5], dq[6],dq_d[0], dq_d[1], dq_d[2], dq_d[3], dq_d[4], dq_d[5], dq_d[6],tau_J[0], tau_J[1], tau_J[2], tau_J[3], tau_J[4], tau_J[5], tau_J[6],tau_ext_hat_filtered[0], tau_ext_hat_filtered[1], tau_ext_hat_filtered[2], tau_ext_hat_filtered[3], tau_ext_hat_filtered[4], tau_ext_hat_filtered[5], tau_ext_hat_filtered[6]
1412745,0,-1.57083,-0.52317,3.84466e-05,-2.09593,1.56984,1.5702,0.785748,-1.5708,-0.523599,6.16779e-08,-2.09439,1.5708,1.5708,0.785398,-0.000992457,0.00038105,0.000788762,-9.17297e-05,-7.73951e-05,0.000157184,-0.000964676,0,0,0,0,0,0,0,0.0732535,-9.88773,-0.456784,20.8963,1.33974,0.464381,-0.258901,0.0214842,-0.75558,-0.0183776,2.37061,0.773302,0.467089,-0.226819
1412746,1,-1.57083,-0.52317,3.67762e-05,-2.09593,1.56984,1.5702,0.785743,-1.5708,-0.523599,6.16779e-08,-2.09439,1.5708,1.5708,0.785398,-0.000104826,0.000254033,-3.09708e-05,-0.000617965,-0.000255047,-0.000132569,-0.0013891,0,0,0,0,0,0,0,0.0494498,-9.88773,-0.432981,20.9201,1.34523,0.47079,-0.23876,0.0219386,-0.757548,-0.0182498,2.37146,0.773299,0.467012,-0.226962
1412747,1,-1.57083,-0.523172,3.84466e-05,-2.09593,1.56984,1.5702,0.785746,-1.5708,-0.523599,6.16779e-08,-2.09439,1.5708,1.5708,0.785398,0.00113654,-0.000480258,0.000536165,-0.000968789,0.00023687,0.000386338,-0.000417442,0,0,0,0,0,0,0,-0.00212494,-9.85995,-0.456784,20.9439,1.33425,0.457972,-0.252493,0.021999,-0.759976,-0.0187869,2.37296,0.773336,0.467006,-0.227089
1412748,1,-1.57083,-0.523169,3.51058e-05,-2.09593,1.56984,1.5702,0.785752,-1.5708,-0.523599,6.16779e-08,-2.09439,1.5708,1.5708,0.785398,0.000108081,0.000886254,-0.000756181,0.000467765,-4.55375e-05,2.01999e-05,0.00138322,0,0,0,0,0,0,0,0.0256461,-9.91153,-0.409177,20.8963,1.33974,0.464381,-0.297354,0.021632,-0.762219,-0.0198703,2.37456,0.773383,0.46707,-0.227154
1412749,1,-1.57083,-0.52317,3.51058e-05,-2.09593,1.56984,1.5702,0.785747,-1.5708,-0.523599,6.16779e-08,-2.09439,1.5708,1.5708,0.785398,7.20537e-05,3.40238e-05,-0.00050412,0.000311843,-3.03583e-05,-0.000461251,0.000210068,0,0,0,0,0,0,0,0.0256461,-9.88773,-0.409177,20.8963,1.33974,0.477198,-0.278127,0.021727,-0.764292,-0.0201368,2.37572,0.77338,0.467056,-0.227158
1412750,1,-1.57083,-0.523172,3.31569e-05,-2.09592,1.56984,1.5702,0.785747,-1.5708,-0.523599,6.16779e-08,-2.09439,1.5708,1.5708,0.785398,4.80358e-05,-0.000626931,-0.000985694,0.000764707,0.000183212,0.000404576,0.000614764,0,0,0,0,0,0,0,0.0256461,-9.85995,-0.381406,20.8725,1.33425,0.457972,-0.290945,0.0226551,-0.764795,-0.0190372,2.37564,0.773289,0.466927,-0.22714
1412751,1,-1.57083,-0.523169,3.67762e-05,-2.09593,1.56984,1.5702,0.785751,-1.5708,-0.523599,6.16779e-08,-2.09439,1.5708,1.5708,0.785398,3.20239e-05,0.000788472,0.000549296,-0.000603819,-0.00048821,-0.00044236,0.000647201,0,0,0,0,0,0,0,0.0256461,-9.91153,-0.432981,20.9201,1.35072,0.477198,-0.297354,0.0237756,-0.764013,-0.017595,2.37482,0.773164,0.466783,-0.227133
1412752,1,-1.57083,-0.523172,3.51058e-05,-2.09593,1.56984,1.5702,0.785748,-1.5708,-0.523599,6.16779e-08,-2.09439,1.5708,1.5708,0.785398,2.13492e-05,-0.000680778,-0.000190614,0.000154266,-0.000122023,0.000179812,-0.000755327,0,0,0,0,0,0,0,0.0256461,-9.85995,-0.409177,20.8963,1.34523,0.464381,-0.26531,0.0244111,-0.763661,-0.0169179,2.37441,0.773083,0.466708,-0.227158
1412753,1,-1.57083,-0.52317,3.51058e-05,-2.09592,1.56984,1.5702,0.785751,-1.5708,-0.523599,6.16779e-08,-2.09439,1.5708,1.5708,0.785398,-0.000542579,0.000195762,-0.000127076,0.000659656,0.000122102,0.000119874,0.000208525,0,0,0,0,0,0,0,0.0494498,-9.88773,-0.409177,20.8725,1.33974,0.464381,-0.284536,0.0248469,-0.762828,-0.0165747,2.37379,0.773023,0.466671,-0.227222
1412754,1,-1.57084,-0.523169,3.67762e-05,-2.09592,1.56984,1.5702,0.785747,-1.5708,-0.523599,6.16779e-08,-2.09439,1.5708,1.5708,0.785398,-0.00156815,0.00068732,0.000472094,0.000439771,-0.000122049,0.000317275,-9.8342e-05,0,0,0,0,0,0,0,0.101024,-9.91153,-0.432981,20.8725,1.34523,0.457972,-0.278127,0.025679,-0.761876,-0.0157648,2.37282,0.77296,0.466575,-0.22731
1412755,1,-1.57083,-0.523172,3.31569e-05,-2.09593,1.56984,1.5702,0.785742,-1.5708,-0.523599,6.16779e-08,-2.09439,1.5708,1.5708,0.785398,0.000160996,-0.000748213,-0.000891696,-0.00137726,-0.000284817,-2.58422e-05,-0.00125236,0,0,0,0,0,0,0,0.0494498,-9.85995,-0.381406,20.9439,1.35072,0.464381,-0.246084,0.0269544,-0.7619,-0.0144672,2.37243,0.772928,0.466404,-0.227415
1412756,1,-1.57083,-0.523169,3.51058e-05,-2.09593,1.56984,1.5702,0.785746,-1.5708,-0.523599,6.16779e-08,-2.09439,1.5708,1.5708,0.785398,0.00131376,0.000707617,5.51498e-05,-0.00091817,-0.000189878,-1.72281e-05,-0.000597545,0,0,0,0,0,0,0,-0.00212494,-9.91153,-0.409177,20.9439,1.35072,0.464381,-0.252493,0.0279619,-0.762914,-0.013503,2.37321,0.772967,0.466271,-0.227519
1412757,1,-1.57083,-0.52317,3.31569e-05,-2.09592,1.56984,1.5702,0.785746,-1.5708,-0.523599,6.16779e-08,-2.09439,1.5708,1.5708,0.785398,-0.000330588,-8.5067e-05,-0.000612847,0.00105832,-0.000126585,0.000225874,-0.000635722,0,0,0,0,0,0,0,0.0494498,-9.88773,-0.381406,20.8725,1.35072,0.457972,-0.246084,0.0282816,-0.764551,-0.0133736,2.37447,0.773061,0.466229,-0.227583
1412758,1,-1.57083,-0.523172,3.67762e-05,-2.09593,1.56984,1.5702,0.785744,-1.5708,-0.523599,6.16779e-08,-2.09439,1.5708,1.5708,0.785398,0.000986034,-0.000706325,0.000797861,-0.000964888,0.00011906,-0.000324136,-0.000186456,0,0,0,0,0,0,0,-0.00212494,-9.85995,-0.432981,20.9439,1.34523,0.47079,-0.252493,0.0280823,-0.764977,-0.0139219,2.37484,0.773161,0.466265,-0.227575
1412759,1,-1.57083,-0.523172,3.67762e-05,-2.09592,1.56983,1.5702,0.785745,-1.5708,-0.523599,6.16779e-08,-2.09439,1.5708,1.5708,0.785398,-0.00054907,-0.000470884,0.000531907,0.00102718,0.000282824,-0.00021609,0.000587773,0,0,0,0,0,0,0,0.0494498,-9.85995,-0.432981,20.8725,1.33974,0.47079,-0.271719,0.0271626,-0.763268,-0.0155559,2.37409,0.773269,0.466426,-0.227485
1412760,1,-1.57083,-0.523169,3.31569e-05,-2.09593,1.56984,1.5702,0.785749,-1.5708,-0.523599,6.16779e-08,-2.09439,1.5708,1.5708,0.785398,0.000190765,0.000892504,-0.000851821,-0.000428839,0.000392,-0.00014406,0.000629208,0,0,0,0,0,0,0,0.0256461,-9.91153,-0.381406,20.9201,1.33425,0.47079,-0.278127,0.026285,-0.761275,-0.0171371,2.37303,0.773371,0.46658,-0.227328
1412761,1,-1.57083,-0.52317,3.51058e-05,-2.09593,1.56984,1.5702,0.785751,-1.5708,-0.523599,6.16779e-08,-2.09439,1.5708,1.5708,0.785398,0.000127177,3.81904e-05,8.17333e-05,-0.000285893,5.78828e-05,-9.60402e-05,0.00089419,0,0,0,0,0,0,0,0.0256461,-9.88773,-0.409177,20.9201,1.33974,0.47079,-0.290945,0.0261493,-0.761237,-0.0175242,2.37287,0.773468,0.466603,-0.22714
1412762,1,-1.57083,-0.523169,3.67762e-05,-2.09592,1.56984,1.5702,0.785748,-1.5708,-0.523599,6.16779e-08,-2.09439,1.5708,1.5708,0.785398,0.000734398,0.000582272,0.000611301,0.000923029,-0.000368313,0.000410691,0.000358767,0,0,0,0,0,0,0,-0.00212494,-9.91153,-0.432981,20.8725,1.35072,0.457972,-0.284536,0.0258925,-0.762439,-0.0180076,2.37329,0.773574,0.466632,-0.226959
1412763,1,-1.57083,-0.523169,3.51058e-05,-2.09593,1.56984,1.5702,0.785747,-1.5708,-0.523599,6.16779e-08,-2.09439,1.5708,1.5708,0.785398,-0.000160015,0.000388181,-0.000149278,-0.000498271,0.00036481,3.64351e-05,0.000476537,0,0,0,0,0,0,0,0.0256461,-9.91153,-0.409177,20.9201,1.33425,0.464381,-0.290945,0.025186,-0.763896,-0.0191193,2.37364,0.773682,0.466719,-0.226813
1412764,1,-1.57083,-0.52317,3.84466e-05,-2.09593,1.56984,1.5702,0.785748,-1.5708,-0.523599,6.16779e-08,-2.09439,1.5708,1.5708,0.785398,-0.000663489,-0.000298024,0.00101411,-0.000332181,0.000243207,0.000499008,0.000792409,0,0,0,0,0,0,0,0.0494498,-9.88773,-0.456784,20.9201,1.33425,0.451564,-0.303762,0.024607,-0.765516,-0.0200923,2.37421,0.773791,0.466776,-0.226724
1412765,1,-1.57083,-0.52317,3.67762e-05,-2.09593,1.56984,1.5702,0.785742,-1.5708,-0.523599,6.16779e-08,-2.09439,1.5708,1.5708,0.785398,-0.000999138,-0.000198683,0.000119258,0.000335358,0.000162138,-0.000142046,-0.00160796,0,0,0,0,0,0,0,0.0732535,-9.88773,-0.432981,20.8963,1.33425,0.464381,-0.246084,0.0244488,-0.766117,-0.0206275,2.3745,0.773873,0.466773,-0.226705
1412766,1,-1.57083,-0.52317,3.67762e-05,-2.09593,1.56984,1.5702,0.785741,-1.5708,-0.523599,6.16779e-08,-2.09439,1.5708,1.5708,0.785398,-0.00010928,-0.000132455,7.95054e-05,-0.00033324,-0.000298809,-0.000569415,-0.00229267,0,0,0,0,0,0,0,0.0494498,-9.88773,-0.432981,20.9201,1.34523,0.477198,-0.213125,0.0247783,-0.765496,-0.0205835,2.37418,0.773902,0.466707,-0.226743
1412767,1,-1.57083,-0.52317,3.67762e-05,-2.09593,1.56984,1.5702,0.785746,-1.5708,-0.523599,6.16779e-08,-2.09439,1.5708,1.5708,0.785398,-7.28532e-05,-8.83035e-05,5.30036e-05,-0.000778972,-0.000402657,-0.00037961,-0.000307747,0,0,0,0,0,0,0,0.0494498,-9.88773,-0.432981,20.9439,1.35072,0.477198,-0.246084,0.0253147,-0.764859,-0.0202751,2.37404,0.773911,0.46662,-0.226774
1412768,1,-1.57083,-0.52317,3.67762e-05,-2.09593,1.56984,1.5702,0.785749,-1.5708,-0.523599,6.16779e-08,-2.09439,1.5708,1.5708,0.785398,0.00115786,-5.8869e-05,3.53358e-05,-0.000519315,-0.000268438,0.000221644,0.000744271,0,0,0,0,0,0,0,-0.00212494,-9.88773,-0.432981,20.9439,1.35072,0.464381,-0.271719,0.0255288,-0.764868,-0.0204198,2.37456,0.773942,0.466595,-0.226728
1412769,1,-1.57083,-0.523169,3.51058e-05,-2.09593,1.56984,1.5702,0.785749,-1.5708,-0.523599,6.16779e-08,-2.09439,1.5708,1.5708,0.785398,-0.000434521,0.000517566,-0.000533255,0.000767414,0.000668752,-8.9596e-05,0.000258822,0,0,0,0,0,0,0,0.0494498,-9.91153,-0.409177,20.8963,1.32784,0.47079,-0.26531,0.0255867,-0.765302,-0.020707,2.37521,0.773976,0.466603,-0.226596
1412770,1,-1.57083,-0.523172,3.31569e-05,-2.09593,1.56984,1.5702,0.785752,-1.5708,-0.523599,6.16779e-08,-2.09439,1.5708,1.5708,0.785398,-0.000289681,-0.000861382,-0.00100512,-0.000602014,5.02519e-06,0.000177628,0.00112198,0,0,0,0,0,0,0,0.0494498,-9.85995,-0.381406,20.9439,1.33974,0.464381,-0.290945,0.0264371,-0.76529,-0.0197445,2.37532,0.773956,0.466507,-0.226411
1412771,1,-1.57083,-0.523169,3.51058e-05,-2.09593,1.56984,1.5702,0.785748,-1.5708,-0.523599,6.16779e-08,-2.09439,1.5708,1.5708,0.785398,0.00157012,0.000632171,-2.04641e-05,-0.000401343,3.35013e-06,0.000118419,0.00051063,0,0,0,0,0,0,0,-0.0259286,-9.91153,-0.409177,20.9439,1.33974,0.464381,-0.284536,0.0277017,-0.764943,-0.0180628,2.37534,0.773907,0.466361,-0.226212
1412772,1,-1.57083,-0.523172,3.84466e-05,-2.09592,1.56984,1.5702,0.785749,-1.5708,-0.523599,6.16779e-08,-2.09439,1.5708,1.5708,0.785398,-0.000716493,-0.000784978,0.00109998,0.00140287,-0.000404668,-0.000158413,0.0010525,0,0,0,0,0,0,0,0.0494498,-9.85995,-0.456784,20.8725,1.35072,0.47079,-0.303762,0.0279959,-0.764275,-0.0177689,2.37516,0.773874,0.466361,-0.226034
1412773,1,-1.57083,-0.52317,3.31569e-05,-2.09592,1.56984,1.5702,0.785748,-1.5708,-0.523599,6.16779e-08,-2.09439,1.5708,1.5708,0.785398,7.915e-05,0.000126295,-0.00102992,0.000935249,0.000340573,0.000369109,0.000701665,0,0,0,0,0,0,0,0.0256461,-9.88773,-0.381406,20.8725,1.33425,0.457972,-0.303762,0.0278236,-0.761964,-0.0182177,2.37361,0.773808,0.466436,-0.225907
1412774,1,-1.57083,-0.523169,3.14865e-05,-2.09593,1.56984,1.5702,0.785743,-1.5708,-0.523599,6.16779e-08,-2.09439,1.5708,1.5708,0.785398,5.27667e-05,0.000641009,-0.00124342,6.66875e-05,2.35982e-05,8.71386e-06,-0.00119374,0,0,0,0,0,0,0,0.0256461,-9.91153,-0.357602,20.8963,1.33974,0.464381,-0.258901,0.0285408,-0.759677,-0.0172281,2.37169,0.773695,0.466366,-0.225864
1412775,1,-1.57083,-0.52317,3.51058e-05,-2.09593,1.56984,1.5702,0.78575,-1.5708,-0.523599,6.16779e-08,-2.09439,1.5708,1.5708,0.785398,0.000684792,-0.000129473,0.000377477,-0.00106917,1.57322e-05,5.80924e-06,0.000390971,0,0,0,0,0,0,0,-0.00212494,-9.88773,-0.409177,20.9439,1.33974,0.464381,-0.290945,0.0296579,-0.759682,-0.0154429,2.37122,0.773618,0.466202,-0.22591
1412776,1,-1.57083,-0.523167,3.67762e-05,-2.09593,1.56984,1.5702,0.785741,-1.5708,-0.523599,6.16779e-08,-2.09439,1.5708,1.5708,0.785398,-0.000749898,0.00102731,0.000808463,0.000400847,-0.000192962,3.87283e-06,-0.00190949,0,0,0,0,0,0,0,0.0494498,-9.93533,-0.432981,20.8963,1.34523,0.464381,-0.232351,0.0299476,-0.761644,-0.0148956,2.37221,0.773631,0.466131,-0.226009
1412777,1,-1.57083,-0.523167,3.67762e-05,-2.09593,1.56984,1.5702,0.785742,-1.5708,-0.523599,6.16779e-08,-2.09439,1.5708,1.5708,0.785398,-0.000499932,0.000684872,0.000538976,-0.000846393,0.000278259,-0.000234777,-0.000764368,0,0,0,0,0,0,0,0.0494498,-9.93533,-0.432981,20.9439,1.33425,0.47079,-0.246084,0.0295654,-0.765332,-0.0155282,2.3742,0.773718,0.466132,-0.226122
1412778,1,-1.57083,-0.52317,3.51058e-05,-2.09593,1.56984,1.5702,0.785746,-1.5708,-0.523599,6.16779e-08,-2.09439,1.5708,1.5708,0.785398,-0.000333288,-0.000657042,-0.000197495,-0.000564262,-0.000221395,-0.000631236,-0.00027222,0,0,0,0,0,0,0,0.0494498,-9.88773,-0.409177,20.9439,1.34523,0.483607,-0.252493,0.0292366,-0.76933,-0.0162085,2.37657,0.773823,0.466129,-0.226198
1412779,1,-1.57083,-0.523174,3.67762e-05,-2.09593,1.56984,1.5702,0.785747,-1.5708,-0.523599,6.16779e-08,-2.09439,1.5708,1.5708,0.785398,0.000984234,-0.00164445,0.000425149,-0.000376175,-0.000147597,0.000291253,0.00100531,0,0,0,0,0,0,0,-0.00212494,-9.83615,-0.432981,20.9439,1.34523,0.464381,-0.284536,0.0288491,-0.770229,-0.0169355,2.37777,0.773883,0.466194,-0.226199
1412780,1,-1.57083,-0.52317,3.51058e-05,-2.09593,1.56984,1.5702,0.785748,-1.5708,-0.523599,6.16779e-08,-2.09439,1.5708,1.5708,0.785398,6.54197e-06,0.000110123,-0.00027338,-0.000250783,-0.000301848,-0.000280549,0.000195492,0,0,0,0,0,0,0,0.0256461,-9.88773,-0.409177,20.9439,1.35072,0.477198,-0.271719,0.0281238,-0.767837,-0.0180463,2.37748,0.773896,0.466366,-0.226135
1412781,1,-1.57083,-0.52317,3.51058e-05,-2.09592,1.56984,1.5702,0.785751,-1.5708,-0.523599,6.16779e-08,-2.09439,1.5708,1.5708,0.785398,4.36131e-06,7.34155e-05,-0.000182253,0.00215286,2.2184e-06,0.000287685,0.000605046,0,0,0,0,0,0,0,0.0256461,-9.88773,-0.409177,20.8448,1.34523,0.464381,-0.284536,0.0276109,-0.764768,-0.0187373,2.37634,0.773868,0.46652,-0.226039
1412782,1,-1.57083,-0.52317,3.51058e-05,-2.09593,1.56984,1.5702,0.785751,-1.5708,-0.523599,6.16779e-08,-2.09439,1.5708,1.5708,0.785398,-0.000553904,4.89436e-05,-0.000121502,0.000228815,1.47893e-06,0.000429149,0.000403364,0,0,0,0,0,0,0,0.0494498,-9.88773,-0.409177,20.8963,1.34523,0.457972,-0.284536,0.027748,-0.761815,-0.0184252,2.37438,0.773794,0.466569,-0.22594
1412783,1,-1.57083,-0.52317,3.31569e-05,-2.09593,1.56984,1.5702,0.785753,-1.5708,-0.523599,6.16779e-08,-2.09439,1.5708,1.5708,0.785398,-0.00036927,3.26291e-05,-0.000730615,0.000152543,0.000645246,0.000286099,0.000980986,0,0,0,0,0,0,0,0.0494498,-9.88773,-0.381406,20.8963,1.32784,0.457972,-0.303762,0.0285939,-0.759607,-0.0170818,2.37253,0.773714,0.4665,-0.225866
1412784,1,-1.57083,-0.523172,3.67762e-05,-2.09593,1.56984,1.5702,0.785751,-1.5708,-0.523599,6.16779e-08,-2.09439,1.5708,1.5708,0.785398,-0.00024618,-0.000627861,0.000719349,0.000101695,-0.000214096,0.000190733,-5.80861e-05,0,0,0,0,0,0,0,0.0494498,-9.85995,-0.432981,20.8963,1.34523,0.457972,-0.284536,0.0297184,-0.758143,-0.0153842,2.37133,0.773659,0.466373,-0.225843
1412785,1,-1.57083,-0.52317,3.51058e-05,-2.09593,1.56984,1.5702,0.785748,-1.5708,-0.523599,6.16779e-08,-2.09439,1.5708,1.5708,0.785398,0.000392692,0.00023104,-7.72459e-05,6.7797e-05,-0.000142731,-0.000347563,-0.00098816,0,0,0,0,0,0,0,0.0256461,-9.88773,-0.409177,20.8963,1.34523,0.47079,-0.258901,0.0302433,-0.756868,-0.0146573,2.37047,0.773641,0.466324,-0.225882
1412786,1,-1.57083,-0.523167,3.67762e-05,-2.09593,1.56984,1.5702,0.785748,-1.5708,-0.523599,6.16779e-08,-2.09439,1.5708,1.5708,0.785398,-0.000295017,0.00126765,0.000505315,-0.000511614,-9.51538e-05,5.65052e-06,-0.000658773,0,0,0,0,0,0,0,0.0494498,-9.93533,-0.432981,20.9201,1.34523,0.464381,-0.258901,0.0301206,-0.757691,-0.0149555,2.37083,0.773692,0.466337,-0.22597
1412787,1,-1.57083,-0.52317,3.67762e-05,-2.09592,1.56984,1.5702,0.785749,-1.5708,-0.523599,6.16779e-08,-2.09439,1.5708,1.5708,0.785398,-0.000196678,-0.000268524,0.000336876,0.000772548,0.000140015,3.76701e-06,-0.000201823,0,0,0,0,0,0,0,0.0494498,-9.88773,-0.432981,20.8725,1.33974,0.464381,-0.26531,0.0297693,-0.760716,-0.0156942,2.37229,0.773795,0.466352,-0.226069
1412788,1,-1.57083,-0.523172,3.51058e-05,-2.09593,1.56984,1.5702,0.785742,-1.5708,-0.523599,6.16779e-08,-2.09439,1.5708,1.5708,0.785398,-0.000131119,-0.00082863,-0.000332228,-4.178e-05,0.000296794,0.000477229,-0.00135525,0,0,0,0,0,0,0,0.0494498,-9.85995,-0.409177,20.8963,1.33425,0.451564,-0.232351,0.0295699,-0.762299,-0.0162906,2.37291,0.773869,0.466357,-0.226143
1412789,1,-1.57083,-0.523174,3.51058e-05,-2.09593,1.56984,1.5702,0.785744,-1.5708,-0.523599,6.16779e-08,-2.09439,1.5708,1.5708,0.785398,-8.74125e-05,-0.00110923,-0.000221485,-0.000584665,-0.000209039,-0.000393924,7.98429e-05,0,0,0,0,0,0,0,0.0494498,-9.83615,-0.409177,20.9201,1.34523,0.47079,-0.258901,0.0298201,-0.760964,-0.0162248,2.37226,0.773881,0.466329,-0.226169
1412790,1,-1.57083,-0.523172,3.51058e-05,-2.09592,1.56984,1.5702,0.785744,-1.5708,-0.523599,6.16779e-08,-2.09439,1.5708,1.5708,0.785398,0.000498537,-0.000182676,-0.000147657,0.000723847,-0.00054626,-0.000262616,-0.000930116,0,0,0,0,0,0,0,0.0256461,-9.85995,-0.409177,20.8725,1.35622,0.47079,-0.232351,0.0302262,-0.758139,-0.0158978,2.37111,0.773861,0.466292,-0.226124
1412791,1,-1.57083,-0.523172,3.51058e-05,-2.09593,1.56984,1.5702,0.785745,-1.5708,-0.523599,6.16779e-08,-2.09439,1.5708,1.5708,0.785398,0.000981972,-0.000121784,-9.84378e-05,-7.42473e-05,4.27276e-05,-0.000412436,-0.000382718,0,0,0,0,0,0,0,-0.00212494,-9.85995,-0.409177,20.8963,1.34523,0.477198,-0.23876,0.0302177,-0.75549,-0.0160868,2.36988,0.773848,0.466314,-0.225995
1412792,1,-1.57083,-0.52317,3.51058e-05,-2.09593,1.56984,1.5702,0.78575,-1.5708,-0.523599,6.16779e-08,-2.09439,1.5708,1.5708,0.785398,-0.00110859,0.000568425,-6.56252e-05,-0.00116312,0.000231936,0.00019976,0.00120292,0,0,0,0,0,0,0,0.0732535,-9.88773,-0.409177,20.9439,1.33974,0.464381,-0.278127,0.0300715,-0.754963,-0.016437,2.36977,0.77389,0.466339,-0.225779
1412793,1,-1.57083,-0.52317,3.67762e-05,-2.09592,1.56984,1.5702,0.785751,-1.5708,-0.523599,6.16779e-08,-2.09439,1.5708,1.5708,0.785398,-0.000182248,0.00037895,0.000513062,0.000895021,-4.88268e-05,0.000133174,0.0010393,0,0,0,0,0,0,0,0.0494498,-9.88773,-0.432981,20.8725,1.34523,0.464381,-0.284536,0.0303318,-0.756967,-0.0163205,2.37104,0.773984,0.466284,-0.225494
1412794,1,-1.57083,-0.523172,3.51058e-05,-2.09593,1.56984,1.5702,0.785748,-1.5708,-0.523599,6.16779e-08,-2.09439,1.5708,1.5708,0.785398,-0.000121499,-0.000396981,-0.000214771,-0.000516943,0.000170899,-0.000148577,0.000930228,0,0,0,0,0,0,0,0.0494498,-9.85995,-0.409177,20.9201,1.33974,0.47079,-0.290945,0.0307369,-0.759281,-0.0161111,2.37227,0.774078,0.466211,-0.225186
1412795,1,-1.57083,-0.523174,3.51058e-05,-2.09593,1.56984,1.5702,0.785747,-1.5708,-0.523599,6.16779e-08,-2.09439,1.5708,1.5708,0.785398,-8.09991e-05,-0.000821466,-0.00014318,0.000212183,-8.95176e-05,-9.9051e-05,0.000620152,0,0,0,0,0,0,0,0.0494498,-9.83615,-0.409177,20.8963,1.34523,0.47079,-0.290945,0.0311806,-0.759873,-0.015845,2.37263,0.77414,0.466165,-0.224908
1412796,1,-1.57083,-0.523174,3.31569e-05,-2.09592,1.56984,1.5702,0.785752,-1.5708,-0.523599,6.16779e-08,-2.09439,1.5708,1.5708,0.785398,0.000502813,-0.000547644,-0.000745068,0.000698267,-5.96784e-05,-6.6034e-05,0.000888152,0,0,0,0,0,0,0,0.0256461,-9.83615,-0.381406,20.8725,1.34523,0.47079,-0.303762,0.0317994,-0.758181,-0.0152274,2.37183,0.774147,0.466133,-0.224694
1412797,1,-1.57083,-0.52317,3.67762e-05,-2.09593,1.56984,1.5702,0.785744,-1.5708,-0.523599,6.16779e-08,-2.09439,1.5708,1.5708,0.785398,0.000984822,0.00084133,0.000709714,-9.13003e-05,-3.97856e-05,-4.40227e-05,-0.00106941,0,0,0,0,0,0,0,-0.00212494,-9.88773,-0.432981,20.8963,1.34523,0.47079,-0.258901,0.0320247,-0.756173,-0.0150516,2.37063,0.774149,0.466172,-0.224569
1412798,1,-1.57083,-0.523172,3.51058e-05,-2.09593,1.56984,1.5702,0.785749,-1.5708,-0.523599,6.16779e-08,-2.09439,1.5708,1.5708,0.785398,6.93426e-06,-8.87273e-05,-8.36692e-05,-0.000617679,-2.65237e-05,0.00020801,-8.63797e-07,0,0,0,0,0,0,0,0.0256461,-9.85995,-0.409177,20.9201,1.34523,0.464381,-0.278127,0.0314728,-0.756342,-0.0159628,2.37059,0.774224,0.466307,-0.224534
1412799,1,-1.57083,-0.52317,3.67762e-05,-2.09592,1.56984,1.5702,0.785753,-1.5708,-0.523599,6.16779e-08,-2.09439,1.5708,1.5708,0.785398,-0.000552189,0.000590462,0.000501032,0.000701838,-1.76825e-05,-0.000573403,0.00094886,0,0,0,0,0,0,0,0.0494498,-9.88773,-0.432981,20.8725,1.34523,0.483607,-0.303762,0.0308302,-0.758035,-0.0170494,2.37143,0.774343,0.466439,-0.224559
1412800,1,-1.57083,-0.52317,3.67762e-05,-2.09593,1.56984,1.5702,0.785745,-1.5708,-0.523599,6.16779e-08,-2.09439,1.5708,1.5708,0.785398,-0.000368126,0.000393642,0.000334022,-8.89199e-05,0.000191662,-0.00014491,-0.00102894,0,0,0,0,0,0,0,0.0494498,-9.88773,-0.432981,20.8963,1.33974,0.477198,-0.258901,0.030522,-0.760152,-0.0177425,2.37232,0.774459,0.466525,-0.224629
1412801,1,-1.57083,-0.52317,3.67762e-05,-2.09593,1.56984,1.5702,0.785746,-1.5708,-0.523599,6.16779e-08,-2.09439,1.5708,1.5708,0.785398,0.000311395,0.000262428,0.000222681,-5.928e-05,-7.56757e-05,0.000378111,-0.000923318,0,0,0,0,0,0,0,0.0256461,-9.88773,-0.432981,20.8963,1.34523,0.464381,-0.252493,0.0303116,-0.762553,-0.0183636,2.37327,0.774578,0.46661,-0.224744
1412802,1,-1.57083,-0.523169,3.67762e-05,-2.09593,1.56984,1.5702,0.785745,-1.5708,-0.523599,6.16779e-08,-2.09439,1.5708,1.5708,0.785398,0.000207596,0.000731764,0.000148454,-3.952e-05,0.000356451,-0.000222644,-0.000378187,0,0,0,0,0,0,0,0.0256461,-9.91153,-0.432981,20.8963,1.33425,0.477198,-0.258901,0.0300261,-0.765205,-0.019079,2.3744,0.774704,0.46672,-0.22487
1412803,1,-1.57083,-0.523169,3.51058e-05,-2.09593,1.56984,1.5702,0.785744,-1.5708,-0.523599,6.16779e-08,-2.09439,1.5708,1.5708,0.785398,0.000138398,0.000487843,-0.000457843,-2.63467e-05,-0.000372718,8.89298e-05,-0.000252124,0,0,0,0,0,0,0,0.0256461,-9.91153,-0.409177,20.8963,1.35072,0.47079,-0.258901,0.0298677,-0.768241,-0.0195328,2.3757,0.774819,0.466816,-0.224969
1412804,1,-1.57083,-0.52317,3.67762e-05,-2.09593,1.56984,1.5702,0.785746,-1.5708,-0.523599,6.16779e-08,-2.09439,1.5708,1.5708,0.785398,-0.00102136,-0.000231584,0.000251584,-0.00113119,-4.50281e-05,0.000296645,0.000543994,0,0,0,0,0,0,0,0.0732535,-9.88773,-0.432981,20.9439,1.34523,0.464381,-0.278127,0.0302675,-0.771104,-0.019161,2.37709,0.77491,0.466838,-0.225024
1412805,1,-1.57083,-0.523172,3.51058e-05,-2.09593,1.56984,1.5702,0.78575,-1.5708,-0.523599,6.16779e-08,-2.09439,1.5708,1.5708,0.785398,0.000432718,-0.000804003,-0.00038909,-0.000754126,-3.00187e-05,0.000672482,0.00178682,0,0,0,0,0,0,0,0.0256461,-9.85995,-0.409177,20.9439,1.34523,0.451564,-0.31658,0.0311462,-0.772543,-0.0181612,2.37828,0.774981,0.466809,-0.22504
1412806,1,-1.57083,-0.52317,3.31569e-05,-2.09593,1.56984,1.5702,0.785748,-1.5708,-0.523599,6.16779e-08,-2.09439,1.5708,1.5708,0.785398,0.000288479,0.000113612,-0.000909007,-0.00050275,0.000386889,-0.000263756,0.000479134,0,0,0,0,0,0,0,0.0256461,-9.88773,-0.381406,20.9439,1.33425,0.47079,-0.297354,0.0321991,-0.772354,-0.0168267,2.379,0.775024,0.466763,-0.225055
1412807,1,-1.57083,-0.52317,3.51058e-05,-2.09593,1.56984,1.5702,0.785749,-1.5708,-0.523599,6.16779e-08,-2.09439,1.5708,1.5708,0.785398,-0.000921305,7.57413e-05,4.36093e-05,0.000778457,5.44752e-05,-0.000175837,-0.000155295,0,0,0,0,0,0,0,0.0732535,-9.88773,-0.409177,20.8963,1.33974,0.47079,-0.284536,0.0334581,-0.771455,-0.0150662,2.37911,0.775022,0.466673,-0.225117
1412808,1,-1.57083,-0.523172,3.51058e-05,-2.09593,1.56984,1.5702,0.785753,-1.5708,-0.523599,6.16779e-08,-2.09439,1.5708,1.5708,0.785398,0.00114903,-0.00059912,2.90729e-05,0.000518971,3.63168e-05,0.000120134,0.000608547,0,0,0,0,0,0,0,-0.00212494,-9.85995,-0.409177,20.8963,1.33974,0.464381,-0.303762,0.03445,-0.769437,-0.0136841,2.37812,0.774972,0.466616,-0.225242
1412809,1,-1.57083,-0.523172,3.84466e-05,-2.09593,1.56984,1.5702,0.78575,-1.5708,-0.523599,6.16779e-08,-2.09439,1.5708,1.5708,0.785398,0.000116409,-0.000399413,0.00113301,0.000345981,2.42112e-05,8.00894e-05,-0.000543738,0,0,0,0,0,0,0,0.0256461,-9.85995,-0.456784,20.8963,1.33974,0.464381,-0.278127,0.0342402,-0.765757,-0.0140724,2.37596,0.774909,0.466741,-0.225424
1412810,1,-1.57083,-0.52317,3.67762e-05,-2.09593,1.56984,1.5702,0.785752,-1.5708,-0.523599,6.16779e-08,-2.09439,1.5708,1.5708,0.785398,-0.000479206,0.000383338,0.000198525,0.000230654,-0.00018731,5.3393e-05,0.000112226,0,0,0,0,0,0,0,0.0494498,-9.88773,-0.432981,20.8963,1.34523,0.464381,-0.290945,0.0331548,-0.762056,-0.0158395,2.37374,0.77487,0.466979,-0.22566
1412811,1,-1.57083,-0.52317,3.51058e-05,-2.09592,1.56984,1.5702,0.785747,-1.5708,-0.523599,6.16779e-08,-2.09439,1.5708,1.5708,0.785398,-0.000319471,0.000255559,-0.000424462,0.000710581,-0.000124873,3.55953e-05,-0.000399901,0,0,0,0,0,0,0,0.0494498,-9.88773,-0.409177,20.8725,1.34523,0.464381,-0.278127,0.0325213,-0.759893,-0.0170279,2.37218,0.774835,0.467114,-0.225937
1412812,1,-1.57083,-0.52317,3.31569e-05,-2.09593,1.56984,1.5702,0.785742,-1.5708,-0.523599,6.16779e-08,-2.09439,1.5708,1.5708,0.785398,0.000343832,0.000170373,-0.000932588,-8.30911e-05,0.000323652,-0.000213629,-0.00172466,0,0,0,0,0,0,0,0.0256461,-9.88773,-0.381406,20.8963,1.33425,0.47079,-0.23876,0.0328683,-0.759076,-0.0166819,2.37118,0.774779,0.467075,-0.226238
1412813,1,-1.57083,-0.523169,3.67762e-05,-2.09593,1.56984,1.5702,0.785745,-1.5708,-0.523599,6.16779e-08,-2.09439,1.5708,1.5708,0.785398,-0.000884403,0.000670394,0.0005847,-0.000612206,1.23177e-05,9.49398e-05,-0.000878508,0,0,0,0,0,0,0,0.0732535,-9.91153,-0.432981,20.9201,1.33974,0.464381,-0.246084,0.0337219,-0.759795,-0.0155275,2.37116,0.774739,0.466941,-0.22653
1412814,1,-1.57083,-0.523169,3.84466e-05,-2.09592,1.56984,1.5702,0.785744,-1.5708,-0.523599,6.16779e-08,-2.09439,1.5708,1.5708,0.785398,-3.279e-05,0.000446929,0.000946612,0.000705487,0.000211662,-0.000174066,-0.00133166,0,0,0,0,0,0,0,0.0494498,-9.91153,-0.456784,20.8725,1.33425,0.47079,-0.225942,0.034213,-0.762052,-0.0150814,2.3721,0.774752,0.466847,-0.226757
1412815,1,-1.57083,-0.523167,3.51058e-05,-2.09592,1.56984,1.5702,0.785747,-1.5708,-0.523599,6.16779e-08,-2.09439,1.5708,1.5708,0.785398,0.00118457,0.000854765,-0.000482549,0.000470324,-0.000265793,0.000121315,9.55729e-05,0,0,0,0,0,0,0,-0.00212494,-9.93533,-0.409177,20.8725,1.34523,0.464381,-0.252493,0.0338906,-0.764727,-0.0159268,2.37301,0.774783,0.46687,-0.226872
1412816,1,-1.57083,-0.523169,3.67762e-05,-2.09593,1.56984,1.5702,0.785749,-1.5708,-0.523599,6.16779e-08,-2.09439,1.5708,1.5708,0.785398,0.000140097,1.30312e-05,0.000235113,-0.000800074,-0.000177195,8.08767e-05,0.000538433,0,0,0,0,0,0,0,0.0256461,-9.91153,-0.432981,20.9201,1.34523,0.464381,-0.26531,0.0331591,-0.767456,-0.0172507,2.37388,0.774809,0.466952,-0.226857
1412817,1,-1.57083,-0.52317,3.51058e-05,-2.09593,1.56984,1.5702,0.785746,-1.5708,-0.523599,6.16779e-08,-2.09439,1.5708,1.5708,0.785398,9.33978e-05,-0.000548124,-0.00040007,-0.000533383,-0.000321581,0.000291277,0.000358955,0,0,0,0,0,0,0,0.0256461,-9.88773,-0.409177,20.9201,1.35072,0.457972,-0.26531,0.032621,-0.76951,-0.0182128,2.37484,0.774831,0.46701,-0.226736
1412818,1,-1.57083,-0.52317,3.84466e-05,-2.09593,1.56984,1.5702,0.785749,-1.5708,-0.523599,6.16779e-08,-2.09439,1.5708,1.5708,0.785398,6.22652e-05,-0.000365416,0.00084691,0.000201223,0.000192514,0.000194185,0.00166346,0,0,0,0,0,0,0,0.0256461,-9.88773,-0.456784,20.8963,1.33974,0.457972,-0.303762,0.0322733,-0.76966,-0.0189064,2.37517,0.774837,0.467051,-0.226546
1412819,1,-1.57083,-0.52317,3.67762e-05,-2.09593,1.56984,1.5702,0.785749,-1.5708,-0.523599,6.16779e-08,-2.09439,1.5708,1.5708,0.785398,0.000691124,-0.000243611,7.79497e-06,-0.000422663,-7.51079e-05,-0.000345262,0.00134633,0,0,0,0,0,0,0,-0.00212494,-9.88773,-0.432981,20.9201,1.34523,0.47079,-0.310171,0.031621,-0.768286,-0.0200542,2.37472,0.774836,0.467136,-0.226334
1412820,1,-1.57083,-0.52317,3.31569e-05,-2.09593,1.56984,1.5702,0.785748,-1.5708,-0.523599,6.16779e-08,-2.09439,1.5708,1.5708,0.785398,-0.000188865,-0.000162407,-0.00120123,0.000275037,0.000153379,-0.000230174,-0.0005266,0,0,0,0,0,0,0,0.0256461,-9.88773,-0.381406,20.8963,1.33974,0.47079,-0.271719,0.0311818,-0.766508,-0.0207595,2.37398,0.774818,0.467177,-0.226165
1412821,1,-1.57083,-0.52317,3.51058e-05,-2.09593,1.56984,1.5702,0.78575,-1.5708,-0.523599,6.16779e-08,-2.09439,1.5708,1.5708,0.785398,-0.00012591,-0.000108272,-0.000151206,-0.000373454,-0.000304649,-0.00015345,0.000123651,0,0,0,0,0,0,0,0.0256461,-9.88773,-0.409177,20.9201,1.35072,0.47079,-0.284536,0.0317189,-0.76489,-0.0198436,2.3732,0.774764,0.467063,-0.226075
1412822,1,-1.57083,-0.52317,3.51058e-05,-2.09593,1.56984,1.5702,0.785749,-1.5708,-0.523599,6.16779e-08,-2.09439,1.5708,1.5708,0.785398,-0.000640752,-7.2181e-05,-0.000100804,-0.000248969,3.5142e-07,-0.0001023,-0.000629643,0,0,0,0,0,0,0,0.0494498,-9.88773,-0.409177,20.9201,1.34523,0.47079,-0.26531,0.0327634,-0.763833,-0.0181505,2.37271,0.774713,0.466869,-0.226056
1412823,1,-1.57083,-0.52317,3.31569e-05,-2.09592,1.56984,1.5702,0.78575,-1.5708,-0.523599,6.16779e-08,-2.09439,1.5708,1.5708,0.785398,0.000129644,-4.81207e-05,-0.000716816,0.000947644,-0.00871994,0.000169159,5.49561e-05,0,0,0,0,0,0,0,0.0256461,-9.88773,-0.381406,20.8725,1.32784,0.464381,-0.278127,0.03387,-0.763106,-0.0164091,2.37232,0.774707,0.466657,-0.226077
1412824,1,-1.57083,-0.523172,3.51058e-05,-2.09592,1.56984,1.5702,0.785748,-1.5708,-0.523599,6.16779e-08,-2.09439,1.5708,1.5708,0.785398,-0.000470383,-0.000681694,0.000171736,0.00128138,-0.00703448,-0.000124586,-0.000675439,0,0,0,0,0,0,0,0.0494498,-9.85995,-0.409177,20.8448,1.33974,0.47079,-0.258901,0.0348412,-0.761358,-0.0149002,2.37106,0.774741,0.466459,-0.226104
1412825,1,-1.57083,-0.523174,3.51058e-05,-2.09593,1.56984,1.5702,0.785742,-1.5708,-0.523599,6.16779e-08,-2.09439,1.5708,1.5708,0.785398,0.00144965,-0.00101127,0.000114491,-0.000908987,-0.00568183,0.00039166,-0.00143364,0,0,0,0,0,0,0,-0.0259286,-9.83615,-0.409177,20.9201,1.35072,0.457972,-0.232351,0.0349946,-0.758056,-0.0145974,2.36897,0.77481,0.466392,-0.226124
1412826,1,-1.57083,-0.523174,3.14865e-05,-2.09592,1.56984,1.5702,0.785746,-1.5708,-0.523599,6.16779e-08,-2.09439,1.5708,1.5708,0.785398,0.000409621,-0.000674183,-0.0011301,0.000507633,-0.00402339,-0.000213611,-0.000209773,0,0,0,0,0,0,0,-0.00212494,-9.83615,-0.357602,20.8725,1.34523,0.47079,-0.252493,0.0343376,-0.75419,-0.0152953,2.36702,0.774894,0.466459,-0.226117
1412827,1,-1.57083,-0.52317,3.67762e-05,-2.09593,1.56984,1.5702,0.785746,-1.5708,-0.523599,6.16779e-08,-2.09439,1.5708,1.5708,0.785398,-0.000376533,0.00075697,0.00100984,-0.000775202,-0.00301148,-0.000142407,-0.000377208,0,0,0,0,0,0,0,0.0256461,-9.88773,-0.432981,20.9201,1.34523,0.47079,-0.246084,0.0335774,-0.75182,-0.0159393,2.36602,0.774984,0.466531,-0.226055
1412828,1,-1.57083,-0.523169,3.51058e-05,-2.09593,1.56984,1.5702,0.785748,-1.5708,-0.523599,6.16779e-08,-2.09439,1.5708,1.5708,0.785398,-0.000251022,0.00106146,0.000116414,-0.00172323,-0.00205112,0.000142421,0.000223246,0,0,0,0,0,0,0,0.0256461,-9.91153,-0.409177,20.9717,1.33974,0.464381,-0.258901,0.0327619,-0.75389,-0.0166995,2.36754,0.775139,0.46657,-0.225931
1412829,1,-1.57083,-0.52317,3.67762e-05,-2.09592,1.56984,1.5702,0.785749,-1.5708,-0.523599,6.16779e-08,-2.09439,1.5708,1.5708,0.785398,-0.00072416,0.000150827,0.000634421,0.00117123,-0.00134915,0.000332306,0.00038619,0,0,0,0,0,0,0,0.0494498,-9.88773,-0.432981,20.8725,1.33425,0.457972,-0.26531,0.0319887,-0.759228,-0.0174898,2.37081,0.775329,0.466574,-0.225749
1412830,1,-1.57083,-0.523176,3.84466e-05,-2.09593,1.56984,1.5702,0.785748,-1.5708,-0.523599,6.16779e-08,-2.09439,1.5708,1.5708,0.785398,-0.00103959,-0.00175549,0.000979759,0.000224009,-0.00124177,-0.00025318,2.01009e-05,0,0,0,0,0,0,0,0.0732535,-9.80838,-0.456784,20.8963,1.33974,0.47079,-0.258901,0.0314017,-0.761876,-0.0181274,2.37227,0.775417,0.466588,-0.225518
1412831,1,-1.57083,-0.52317,3.67762e-05,-2.09593,1.56984,1.5702,0.785751,-1.5708,-0.523599,6.16779e-08,-2.09439,1.5708,1.5708,0.785398,0.00107018,0.000685714,9.6361e-05,-0.000964284,-0.000728563,-0.000168787,0.000962836,0,0,0,0,0,0,0,-0.00212494,-9.88773,-0.432981,20.9439,1.33425,0.47079,-0.284536,0.0306323,-0.761045,-0.019138,2.37189,0.775411,0.46668,-0.225259
1412832,1,-1.57083,-0.523172,3.67762e-05,-2.09593,1.56984,1.5702,0.785749,-1.5708,-0.523599,6.16779e-08,-2.09439,1.5708,1.5708,0.785398,6.384e-05,-0.000192471,6.42407e-05,0.000470768,-0.000563834,-0.000349884,0.00111661,0,0,0,0,0,0,0,0.0256461,-9.85995,-0.432981,20.8963,1.33425,0.477198,-0.297354,0.0296055,-0.760623,-0.0204566,2.37187,0.775385,0.466822,-0.225001
1412833,1,-1.57083,-0.52317,3.67762e-05,-2.09593,1.56984,1.5702,0.785745,-1.5708,-0.523599,6.16779e-08,-2.09439,1.5708,1.5708,0.785398,-0.000514252,0.0005213,4.28271e-05,-0.00144939,-0.00104483,4.10321e-06,-0.000442389,0,0,0,0,0,0,0,0.0494498,-9.88773,-0.432981,20.9717,1.35072,0.47079,-0.26531,0.0288995,-0.761632,-0.0212666,2.37264,0.77534,0.466916,-0.22478
1412834,1,-1.57083,-0.523169,3.67762e-05,-2.09593,1.56984,1.5702,0.785753,-1.5708,-0.523599,6.16779e-08,-2.09439,1.5708,1.5708,0.785398,-0.000342835,0.000904345,2.85514e-05,0.000796976,-0.000333601,-0.000234623,0.00160395,0,0,0,0,0,0,0,0.0494498,-9.91153,-0.432981,20.8963,1.33974,0.477198,-0.31658,0.0289072,-0.764158,-0.0211344,2.37422,0.775283,0.466906,-0.224623
1412835,1,-1.57083,-0.52317,3.31569e-05,-2.09593,1.56984,1.5702,0.785748,-1.5708,-0.523599,6.16779e-08,-2.09439,1.5708,1.5708,0.785398,0.000977869,4.60849e-05,-0.00118739,0.000531317,0.00018545,0.000318302,-0.00106693,0,0,0,0,0,0,0,-0.00212494,-9.88773,-0.381406,20.8963,1.32784,0.464381,-0.258901,0.0294648,-0.767016,-0.0201692,2.37556,0.775185,0.466827,-0.224536
1412836,1,-1.57083,-0.523172,3.31569e-05,-2.09592,1.56984,1.5702,0.785743,-1.5708,-0.523599,6.16779e-08,-2.09439,1.5708,1.5708,0.785398,2.29904e-06,-0.000618891,-0.000791594,0.000911024,-0.000748797,0.000212201,-0.00118601,0,0,0,0,0,0,0,0.0256461,-9.85995,-0.381406,20.8725,1.35072,0.464381,-0.246084,0.0304704,-0.767534,-0.018331,2.37523,0.774997,0.466718,-0.22452
1412837,1,-1.57083,-0.523169,3.67762e-05,-2.09593,1.56984,1.5702,0.785744,-1.5708,-0.523599,6.16779e-08,-2.09439,1.5708,1.5708,0.785398,1.5327e-06,0.000793832,0.000678696,-0.00106309,-0.000110836,-9.58913e-05,-0.000315953,0,0,0,0,0,0,0,0.0256461,-9.91153,-0.432981,20.9439,1.33974,0.47079,-0.258901,0.0314686,-0.766632,-0.0164437,2.37423,0.77479,0.466631,-0.224543
1412838,1,-1.57083,-0.523172,3.51058e-05,-2.09592,1.56984,1.5702,0.785743,-1.5708,-0.523599,6.16779e-08,-2.09439,1.5708,1.5708,0.785398,1.0218e-06,-0.000677205,-0.000104348,0.000961711,0.000115655,0.000173431,-0.000447994,0,0,0,0,0,0,0,0.0256461,-9.85995,-0.409177,20.8725,1.33425,0.464381,-0.252493,0.0318638,-0.766071,-0.0155721,2.3737,0.774639,0.466631,-0.224557
1412839,1,-1.57083,-0.523169,3.84466e-05,-2.09592,1.56984,1.5702,0.785744,-1.5708,-0.523599,6.16779e-08,-2.09439,1.5708,1.5708,0.785398,6.81198e-07,0.000754956,0.00104406,0.000641141,-0.000340226,-0.000121738,-0.000807289,0,0,0,0,0,0,0,0.0256461,-9.91153,-0.456784,20.8725,1.34523,0.47079,-0.23876,0.031589,-0.765024,-0.0158022,2.37282,0.774515,0.466729,-0.224532
1412840,1,-1.57083,-0.52317,3.51058e-05,-2.09592,1.56984,1.5702,0.78575,-1.5708,-0.523599,6.16779e-08,-2.09439,1.5708,1.5708,0.785398,4.54132e-07,-5.35078e-05,-0.000417585,0.00107704,-3.11881e-05,-8.11587e-05,0.000919869,0,0,0,0,0,0,0,0.0256461,-9.88773,-0.409177,20.8448,1.33974,0.47079,-0.278127,0.030932,-0.763616,-0.0166655,2.37137,0.774391,0.466878,-0.224452
1412841,1,-1.57083,-0.52317,3.51058e-05,-2.09592,1.56984,1.5702,0.78575,-1.5708,-0.523599,6.16779e-08,-2.09439,1.5708,1.5708,0.785398,3.02755e-07,-3.56719e-05,-0.00027839,6.84135e-05,-2.66581e-05,-5.41058e-05,0.000613246,0,0,0,0,0,0,0,0.0256461,-9.88773,-0.409177,20.8725,1.33974,0.47079,-0.278127,0.0305628,-0.762162,-0.0170737,2.36974,0.774255,0.466981,-0.224319
1412842,1,-1.57083,-0.523169,3.84466e-05,-2.09593,1.56984,1.5702,0.785752,-1.5708,-0.523599,6.16779e-08,-2.09439,1.5708,1.5708,0.785398,-0.00055661,0.000533031,0.000928031,-0.000511203,-2.21716e-05,0.000438647,0.000883549,0,0,0,0,0,0,0,0.0494498,-9.91153,-0.456784,20.8963,1.33974,0.457972,-0.290945,0.0305138,-0.761411,-0.0170442,2.36872,0.774144,0.467029,-0.224165
1412843,1,-1.57083,-0.523169,3.51058e-05,-2.09593,1.56984,1.5702,0.785753,-1.5708,-0.523599,6.16779e-08,-2.09439,1.5708,1.5708,0.785398,0.000835352,0.000355354,-0.000494937,-0.000340802,-1.80807e-05,-0.000182286,0.00106375,0,0,0,0,0,0,0,-0.00212494,-9.91153,-0.409177,20.8963,1.33974,0.47079,-0.303762,0.0302851,-0.762596,-0.0173811,2.36911,0.774106,0.467081,-0.224033
1412844,1,-1.57083,-0.523172,3.31569e-05,-2.09592,1.56984,1.5702,0.785751,-1.5708,-0.523599,6.16779e-08,-2.09439,1.5708,1.5708,0.785398,-9.27123e-05,-0.000969523,-0.000979572,0.000329611,-0.000217979,-0.000121524,0.000946526,0,0,0,0,0,0,0,0.0256461,-9.85995,-0.381406,20.8725,1.34523,0.47079,-0.310171,0.0302497,-0.763757,-0.017321,2.36967,0.774068,0.467099,-0.223956
1412845,1,-1.57083,-0.523167,3.51058e-05,-2.09592,1.56984,1.5702,0.785752,-1.5708,-0.523599,6.16779e-08,-2.09439,1.5708,1.5708,0.785398,-6.18082e-05,0.00111689,-3.43392e-06,0.00021974,-0.000350626,0.000156343,0.000393658,0,0,0,0,0,0,0,0.0256461,-9.93533,-0.409177,20.8725,1.35072,0.464381,-0.303762,0.0307845,-0.763778,-0.0162638,2.36951,0.773988,0.467039,-0.223967
1412846,1,-1.57083,-0.523167,3.67762e-05,-2.09593,1.56984,1.5702,0.78575,-1.5708,-0.523599,6.16779e-08,-2.09439,1.5708,1.5708,0.785398,-4.12055e-05,0.000744593,0.000554523,-0.00217356,0.000375209,-0.00013313,-0.000686997,0,0,0,0,0,0,0,0.0256461,-9.93533,-0.432981,20.9717,1.33425,0.47079,-0.278127,0.031222,-0.765836,-0.0153924,2.37048,0.773972,0.466965,-0.22409
1412847,1,-1.57083,-0.523169,3.31569e-05,-2.09593,1.56984,1.5702,0.785752,-1.5708,-0.523599,6.16779e-08,-2.09439,1.5708,1.5708,0.785398,-0.000584282,-6.04169e-05,-0.000836744,-0.000242612,-0.000157806,0.000385964,1.67199e-05,0,0,0,0,0,0,0,0.0494498,-9.91153,-0.381406,20.9201,1.34523,0.457972,-0.290945,0.0314928,-0.770375,-0.0148633,2.37319,0.774052,0.466889,-0.224317
1412848,1,-1.57083,-0.523169,3.31569e-05,-2.09593,1.56984,1.5702,0.785748,-1.5708,-0.523599,6.16779e-08,-2.09439,1.5708,1.5708,0.785398,0.000816904,-4.02779e-05,-0.000557829,-0.000161741,9.74637e-05,-0.000217408,-0.00117565,0,0,0,0,0,0,0,-0.00212494,-9.91153,-0.381406,20.9201,1.33974,0.47079,-0.258901,0.0321165,-0.773915,-0.0137359,2.37548,0.774111,0.466769,-0.224612
1412849,1,-1.57083,-0.523167,3.51058e-05,-2.09593,1.56984,1.5702,0.785747,-1.5708,-0.523599,6.16779e-08,-2.09439,1.5708,1.5708,0.785398,-0.000661823,0.00052996,0.000277728,-0.000107827,6.43885e-05,9.242e-05,-0.00102112,0,0,0,0,0,0,0,0.0494498,-9.93533,-0.409177,20.9201,1.33974,0.464381,-0.252493,0.03269,-0.775769,-0.0125589,2.37659,0.774128,0.466666,-0.224932
1412850,1,-1.57083,-0.523172,3.84466e-05,-2.09593,1.56984,1.5702,0.78575,-1.5708,-0.523599,6.16779e-08,-2.09439,1.5708,1.5708,0.785398,0.000765211,-0.00140993,0.00129878,-0.000628697,-0.000160965,6.16134e-05,0.000268686,0,0,0,0,0,0,0,-0.00212494,-9.85995,-0.456784,20.9439,1.34523,0.464381,-0.278127,0.0323612,-0.77607,-0.012777,2.37686,0.774153,0.466708,-0.225232
1412851,1,-1.57083,-0.523167,3.51058e-05,-2.09592,1.56984,1.5702,0.785754,-1.5708,-0.523599,6.16779e-08,-2.09439,1.5708,1.5708,0.785398,-0.000139474,0.000823284,-0.000247773,0.0012513,-0.000107641,4.10756e-05,0.00136592,0,0,0,0,0,0,0,0.0256461,-9.93533,-0.409177,20.8725,1.34523,0.464381,-0.310171,0.0310596,-0.77434,-0.0145083,2.37599,0.774173,0.466908,-0.225479
1412852,1,-1.57084,-0.52317,3.51058e-05,-2.09593,1.56984,1.5702,0.785751,-1.5708,-0.523599,6.16779e-08,-2.09439,1.5708,1.5708,0.785398,-0.00185622,-0.000564768,-0.000165182,-0.000279421,-0.000275459,2.73837e-05,-3.88232e-05,0,0,0,0,0,0,0,0.101024,-9.88773,-0.409177,20.9201,1.35072,0.464381,-0.284536,0.0303385,-0.77197,-0.0154269,2.3744,0.774146,0.467012,-0.225693
1412853,1,-1.57083,-0.523169,3.67762e-05,-2.09593,1.56984,1.5702,0.785749,-1.5708,-0.523599,6.16779e-08,-2.09439,1.5708,1.5708,0.785398,0.000525758,0.0001803,0.00044669,-0.000186281,1.96256e-05,-0.000219103,0.000448836,0,0,0,0,0,0,0,0.0256461,-9.91153,-0.432981,20.9201,1.34523,0.47079,-0.297354,0.0306572,-0.769997,-0.01494,2.37296,0.774101,0.466953,-0.225916
1412854,1,-1.57083,-0.523169,3.67762e-05,-2.09592,1.56984,1.5702,0.785752,-1.5708,-0.523599,6.16779e-08,-2.09439,1.5708,1.5708,0.785398,-0.000206307,0.0001202,0.000297794,0.000989437,0.000216395,-0.000146069,0.000536583,0,0,0,0,0,0,0,0.0494498,-9.91153,-0.432981,20.8725,1.33974,0.47079,-0.303762,0.030713,-0.768466,-0.0149325,2.37177,0.774087,0.466937,-0.226164
1412855,1,-1.57083,-0.523172,3.67762e-05,-2.09593,1.56984,1.5702,0.785744,-1.5708,-0.523599,6.16779e-08,-2.09439,1.5708,1.5708,0.785398,-0.000137538,-0.00112629,0.000198529,-0.000453999,-5.92918e-05,-9.73792e-05,-0.00154115,0,0,0,0,0,0,0,0.0494498,-9.85995,-0.432981,20.9201,1.34523,0.47079,-0.252493,0.0303628,-0.766451,-0.0155879,2.37024,0.774085,0.467,-0.226444
1412856,1,-1.57083,-0.523174,3.14865e-05,-2.09593,1.56984,1.5702,0.785746,-1.5708,-0.523599,6.16779e-08,-2.09439,1.5708,1.5708,0.785398,0.00046512,-0.00130767,-0.00163089,-0.000302666,-3.96062e-05,0.000172439,-7.79974e-05,0,0,0,0,0,0,0,0.0256461,-9.83615,-0.357602,20.9201,1.34523,0.464381,-0.278127,0.0304489,-0.762718,-0.0155774,2.36819,0.774056,0.46704,-0.22675
1412857,1,-1.57083,-0.52317,3.51058e-05,-2.09592,1.56984,1.5702,0.785747,-1.5708,-0.523601,2.56168e-06,-2.09439,1.57079,1.57079,0.785403,0.00031008,0.000334643,0.000119169,0.00156146,0.000176988,-0.000122399,-0.000526716,-0.00375,-0.001875,0.0025,0.000350923,-0.00188882,-0.0016168,0.005,0.0256461,-9.88773,-0.409177,20.8448,1.33974,0.47079,-0.26531,0.0311134,-0.758069,-0.014549,2.36576,0.773989,0.467017,-0.227046
1412858,1,-1.57083,-0.523169,3.84466e-05,-2.09593,1.56984,1.5702,0.785749,-1.57081,-0.523604,7.56168e-06,-2.09439,1.57079,1.57079,0.785413,0.000856334,0.000779908,0.00119307,-0.000165452,0.000321398,-8.15995e-05,-0.000113785,-0.0075,-0.00375,0.005,0.000701846,-0.00377763,-0.00323359,0.01,-0.00212494,-9.91153,-0.456784,20.8963,1.33425,0.47079,-0.271719,0.0310935,-0.755256,-0.0144947,2.36382,0.773959,0.467072,-0.227305
1412859,1,-1.57083,-0.52317,3.67762e-05,-2.09593,1.56984,1.5702,0.785747,-1.57082,-0.52361,1.50617e-05,-2.09439,1.57078,1.57079,0.785428,0.000570889,-3.68736e-05,0.000238568,-0.000110302,1.07818e-05,0.000420318,-0.00102529,-0.01125,-0.005625,0.0075,0.00105277,-0.00566645,-0.00485039,0.015,-0.00212494,-9.88773,-0.432981,20.8963,1.33974,0.457972,-0.246084,0.0297194,-0.755549,-0.0165255,2.36339,0.774029,0.467289,-0.227519
1412860,1,-1.57083,-0.52317,3.52874e-05,-2.09593,1.56984,1.5702,0.785744,-1.57083,-0.523618,2.50617e-05,-2.09439,1.57078,1.57078,0.785448,0.000937405,-0.00342993,0.00212935,0.00152196,7.16309e-06,-0.000194506,-0.00142951,-0.015,-0.0075,0.01,0.00140369,-0.00755526,-0.00646719,0.02,-0.0259286,-10.0107,-0.381406,20.9717,1.33974,0.47079,-0.225942,0.0272621,-0.753888,-0.0202148,2.36219,0.774108,0.467684,-0.227671
1412861,1,-1.57083,-0.523164,3.54291e-05,-2.09593,1.56984,1.5702,0.785743,-1.57085,-0.523627,3.75617e-05,-2.09439,1.57077,1.57077,0.785473,-0.000429272,-0.00202617,-0.000635753,0.000905541,0.000852467,0.00105712,-0.00237716,-0.01875,-0.009375,0.0125,0.00175461,-0.00944408,-0.00808398,0.025,-0.101307,-10.4431,-0.282224,21.1423,1.31685,0.438746,-0.18749,0.024493,-0.745451,-0.0243366,2.35757,0.774068,0.468186,-0.227725
1412862,1,-1.57084,-0.523166,4.63184e-05,-2.09593,1.56984,1.5702,0.785744,-1.57088,-0.523638,5.25617e-05,-2.09439,1.57076,1.57076,0.785503,-0.00319573,-0.00139056,0.00292887,-0.00138131,0.000975199,0.00117947,-0.00375491,-0.0225,-0.01125,0.015,0.00210554,-0.0113329,-0.00970078,0.03,-0.125111,-10.8954,-0.282224,21.3922,1.30586,0.425929,-0.128897,0.0229127,-0.735019,-0.0267166,2.35223,0.773947,0.4685,-0.227635
1412863,1,-1.57084,-0.523175,5.84703e-05,-2.09593,1.56984,1.57021,0.785748,-1.5709,-0.523651,7.00617e-05,-2.09438,1.57074,1.57075,0.785538,-0.00377408,-0.00362283,0.00551353,-0.00131006,0.000650122,0.00197311,-0.00202856,-0.02625,-0.013125,0.0175,0.00245646,-0.0132217,-0.0113176,0.035,-0.204456,-11.2525,-0.282224,21.5906,1.30586,0.393885,-0.141714,0.0217319,-0.727412,-0.0288518,2.34932,0.773876,0.468654,-0.227323
1412864,1,-1.57085,-0.523193,7.10431e-05,-2.09594,1.56984,1.57021,0.785754,-1.57093,-0.523666,9.00617e-05,-2.09438,1.57073,1.57074,0.785578,-0.00629899,-0.00788003,0.00744145,-0.00208432,0.00107767,0.00179012,-0.000843746,-0.03,-0.015,0.02,0.00280738,-0.0151105,-0.0129344,0.04,-0.204456,-11.5024,-0.282224,21.8167,1.28847,0.381068,-0.155447,0.0190296,-0.718176,-0.0336846,2.34704,0.773831,0.468936,-0.226691
1412865,1,-1.57087,-0.523217,8.58867e-05,-2.09594,1.56984,1.5702,0.785754,-1.57097,-0.523683,0.000112562,-2.09438,1.57071,1.57072,0.785623,-0.00925413,-0.013372,0.0123302,-0.00395302,0.000718439,0.00119341,-0.000799856,-0.03375,-0.016875,0.0225,0.00315831,-0.0169993,-0.0145512,0.045,-0.152882,-11.6571,-0.282224,21.9635,1.28847,0.381068,-0.149038,0.0139784,-0.69921,-0.0424741,2.34201,0.773689,0.469526,-0.225698
1412866,1,-1.57088,-0.523236,9.95383e-05,-2.09594,1.56983,1.5702,0.785758,-1.571,-0.523702,0.000137562,-2.09438,1.57069,1.57071,0.785673,-0.00848651,-0.0124163,0.0150521,-0.000961386,-0.00439754,0.00130424,0.0041669,-0.0375,-0.01875,0.025,0.00350923,-0.0188882,-0.016168,0.05,-0.22826,-11.8833,-0.254453,22.0627,1.29396,0.367335,-0.149038,0.00514801,-0.66818,-0.0574299,2.33307,0.77344,0.470627,-0.224357
1412867,1,-1.57089,-0.523253,0.000110562,-2.09594,1.56983,1.57021,0.785765,-1.57105,-0.523724,0.000167083,-2.09437,1.57067,1.57069,0.785733,-0.0104221,-0.0148235,0.0153373,-0.00339946,-0.00416883,0.00181893,0.00748861,-0.045,-0.022084,0.0295211,0.00413053,-0.0218775,-0.0187268,0.06,-0.327442,-12.1094,-0.155271,22.2135,1.31685,0.3417,-0.141714,-0.00777835,-0.630657,-0.0786177,2.322,0.773122,0.472171,-0.222706
1412868,1,-1.57091,-0.523268,0.00012618,-2.09593,1.56983,1.57021,0.785767,-1.5711,-0.523749,0.000201125,-2.09437,1.57065,1.57067,0.785803,-0.0148854,-0.0122682,0.0162921,0.00110575,-0.00371554,-0.00297292,0.00353246,-0.0525,-0.025418,0.0340422,0.00475184,-0.0248669,-0.0212857,0.07,-0.303639,-12.3871,-0.0798923,22.2373,1.33425,0.328883,-0.0840357,-0.0220395,-0.593968,-0.101354,2.31137,0.772689,0.473653,-0.22079
1412869,1,-1.57093,-0.523288,0.000148245,-2.09593,1.56982,1.57021,0.785771,-1.57116,-0.523778,0.000239688,-2.09436,1.57062,1.57064,0.785883,-0.0176666,-0.0163287,0.018143,0.00129542,-0.00310298,-0.00142086,0.000929402,-0.06,-0.028752,0.0385634,0.00537315,-0.0278563,-0.0238446,0.08,-0.303639,-12.5418,-0.0521213,22.388,1.34523,0.303248,-0.0318506,-0.0347715,-0.560962,-0.121049,2.30118,0.772046,0.474617,-0.21862
1412870,1,-1.57096,-0.523294,0.000171805,-2.09593,1.56982,1.57021,0.785789,-1.57123,-0.52381,0.000282773,-2.09436,1.57059,1.57062,0.785973,-0.0246173,-0.0151823,0.0191655,0.00427236,-0.000978331,-0.000526432,0.00520935,-0.0675,-0.032086,0.0430845,0.00599445,-0.0308457,-0.0264034,0.09,-0.355213,-12.9941,-0.000546589,22.5864,1.31136,0.284022,-0.0190333,-0.0440077,-0.530622,-0.134788,2.29015,0.771134,0.474742,-0.216149
1412871,1,-1.57099,-0.523311,0.000207738,-2.09593,1.56982,1.57021,0.785803,-1.5713,-0.523846,0.000330378,-2.09435,1.57055,1.57059,0.786073,-0.0286241,-0.0181061,0.0259803,0.00578699,0.000919984,0.00085475,0.00606759,-0.075,-0.03542,0.0476056,0.00661576,-0.0338351,-0.0289623,0.1,-0.454395,-13.4503,-0.0798923,22.8086,1.26558,0.24557,0.0523779,-0.0492984,-0.502564,-0.142353,2.27783,0.76997,0.473904,-0.213312
1412872,1,-1.57103,-0.523338,0.000245096,-2.09593,1.56981,1.5702,0.785832,-1.57139,-0.523884,0.000382505,-2.09434,1.57052,1.57056,0.786183,-0.0361364,-0.0212601,0.0326684,0.00622488,0.00218242,0.00230487,0.0129458,-0.0825,-0.038754,0.0521267,0.00723706,-0.0368244,-0.0315211,0.11,-0.529774,-13.8788,-0.103696,23.0585,1.22072,0.194301,0.09083,-0.0533673,-0.474931,-0.148568,2.26381,0.768641,0.472484,-0.210038
1412873,1,-1.57108,-0.523369,0.000287848,-2.09593,1.5698,1.5702,0.785865,-1.57148,-0.523927,0.000439153,-2.09433,1.57048,1.57052,0.786303,-0.0401137,-0.0243532,0.0358599,0.00223611,-0.00291371,0.00215969,0.0208229,-0.09,-0.042088,0.0566478,0.00785837,-0.0398138,-0.03408,0.12,-0.656727,-14.2835,-0.179074,23.3561,1.20973,0.174159,0.175059,-0.0584739,-0.446804,-0.157252,2.24972,0.767242,0.470777,-0.20625
1412874,1,-1.57114,-0.523415,0.000328675,-2.09593,1.56979,1.57019,0.785904,-1.57157,-0.523972,0.000500322,-2.09432,1.57043,1.57049,0.786433,-0.0427813,-0.0308179,0.0380123,0.00119328,-0.00299699,-0.00356827,0.0265303,-0.0975,-0.045422,0.0611689,0.00847968,-0.0428032,-0.0366389,0.13,-0.807484,-14.5096,-0.1275,23.5782,1.22621,0.180568,0.272104,-0.0650727,-0.418202,-0.168446,2.23818,0.765774,0.468826,-0.201853
1412875,1,-1.5712,-0.523459,0.000384817,-2.09594,1.56977,1.57018,0.785962,-1.57168,-0.524021,0.000566012,-2.09432,1.57039,1.57045,0.786573,-0.049097,-0.0368857,0.0463127,-0.00250389,-0.01226,-0.0094639,0.0376911,-0.105,-0.0487559,0.0656901,0.00910098,-0.0457926,-0.0391977,0.14,-0.910633,-14.7913,-0.230649,23.7806,1.24361,0.232753,0.304148,-0.0747249,-0.385124,-0.183684,2.22914,0.764199,0.466956,-0.196707
1412876,1,-1.57127,-0.523507,0.000439467,-2.09593,1.56975,1.57016,0.786025,-1.57179,-0.524073,0.000636223,-2.09431,1.57034,1.5704,0.786723,-0.0535145,-0.0398514,0.0504934,-0.003471,-0.019168,-0.012658,0.0447641,-0.1125,-0.0520899,0.0702112,0.00972229,-0.048782,-0.0417566,0.15,-1.03362,-15.0174,-0.230649,23.9035,1.26009,0.258387,0.381968,-0.0895296,-0.346595,-0.206012,2.2231,0.762636,0.465554,-0.190658
1412877,1,-1.57135,-0.52355,0.000500295,-2.09593,1.56973,1.57015,0.786103,-1.57191,-0.524129,0.000712482,-2.0943,1.57029,1.57036,0.786888,-0.0623404,-0.0400809,0.0534284,0.00178122,-0.0185852,-0.0126535,0.0519638,-0.12375,-0.0565355,0.0762584,0.0105496,-0.0523914,-0.0448462,0.165,-1.18834,-15.3189,-0.230649,23.9035,1.2491,0.219935,0.407602,-0.108192,-0.30739,-0.233316,2.22053,0.761093,0.4644,-0.183593
1412878,1,-1.57143,-0.523594,0.000558073,-2.09592,1.5697,1.57013,0.786194,-1.57205,-0.52419,0.000794787,-2.09428,1.57023,1.57031,0.787068,-0.0697389,-0.0403138,0.0532874,0.00150949,-0.0230555,-0.0132268,0.0671845,-0.135,-0.060981,0.0823057,0.0113768,-0.0560008,-0.0479358,0.18,-1.31133,-15.6244,-0.1275,23.9273,1.23812,0.194301,0.381968,-0.125523,-0.274236,-0.257291,2.22115,0.759355,0.462629,-0.175461
1412879,1,-1.57152,-0.523636,0.000632367,-2.09592,1.56968,1.57012,0.786298,-1.5722,-0.524256,0.00088314,-2.09427,1.57017,1.57026,0.787263,-0.0754867,-0.039293,0.0570081,-0.00130421,-0.0202855,-0.0118366,0.0796876,-0.14625,-0.0654265,0.088353,0.0122041,-0.0596103,-0.0510255,0.195,-1.43828,-15.9775,-0.179074,24.0543,1.19234,0.116481,0.343516,-0.137799,-0.256743,-0.271655,2.22854,0.757392,0.459527,-0.166308
1412880,1,-1.57163,-0.523686,0.000710677,-2.09592,1.56965,1.5701,0.786422,-1.57235,-0.524326,0.000977541,-2.09426,1.57011,1.57021,0.787473,-0.0869065,-0.0430892,0.0598894,-0.000748522,-0.0230061,-0.012796,0.094027,-0.1575,-0.0698721,0.0944003,0.0130314,-0.0632197,-0.0541151,0.21,-1.51366,-16.279,-0.230649,24.2249,1.14198,0.0844372,0.272104,-0.144357,-0.260263,-0.275056,2.24591,0.755269,0.454859,-0.156285
1412881,1,-1.57175,-0.52374,0.000790326,-2.09591,1.56962,1.57008,0.786563,-1.57252,-0.5244,0.00107799,-2.09424,1.57004,1.57015,0.787698,-0.0955729,-0.0477711,0.0649057,0.00325267,-0.0251885,-0.0138794,0.113886,-0.16875,-0.0743176,0.100448,0.0138587,-0.0668292,-0.0572047,0.225,-1.61681,-16.6361,-0.282224,24.3994,1.09621,0.0652111,0.240061,-0.145257,-0.276697,-0.267837,2.26862,0.752788,0.448636,-0.145614
1412882,1,-1.57187,-0.523796,0.000872273,-2.0959,1.56958,1.57006,0.786715,-1.5727,-0.524479,0.00118448,-2.09423,1.56997,1.57009,0.787938,-0.10552,-0.0531233,0.0683914,0.0032714,-0.0288277,-0.0194652,0.124581,-0.18,-0.0787631,0.106495,0.014686,-0.0704386,-0.0602944,0.24,-1.81517,-17.0407,-0.329831,24.5502,1.1017,0.0459851,0.291331,-0.141634,-0.29317,-0.251947,2.28935,0.749652,0.441121,-0.134554
1412883,1,-1.57201,-0.523866,0.000962778,-2.0959,1.56954,1.57003,0.786876,-1.57289,-0.524562,0.00129702,-2.09421,1.5699,1.57003,0.788193,-0.114136,-0.0580467,0.07925,0.0025791,-0.0311912,-0.0241364,0.136124,-0.19125,-0.0832087,0.112542,0.0155132,-0.0740481,-0.063384,0.255,-1.9699,-17.2907,-0.456784,24.7248,1.1017,0.0459851,0.414011,-0.137105,-0.303443,-0.233092,2.30566,0.745843,0.432954,-0.123321
1412884,1,-1.57216,-0.523943,0.00106113,-2.09589,1.56949,1.56999,0.787058,-1.5731,-0.52465,0.00141561,-2.0942,1.56982,1.56996,0.788463,-0.125015,-0.0651113,0.0870212,0.00273702,-0.0348963,-0.0290735,0.149333,-0.2025,-0.0876542,0.118589,0.0163405,-0.0776575,-0.0664736,0.27,-2.06908,-17.5208,-0.559934,24.8716,1.15297,0.0844372,0.537607,-0.136781,-0.305057,-0.219485,2.31772,0.74156,0.424971,-0.111975
1412885,1,-1.57232,-0.524026,0.00116497,-2.09588,1.56943,1.56995,0.787264,-1.57331,-0.524742,0.00154025,-2.09418,1.56974,1.56989,0.788748,-0.136466,-0.0683696,0.0917746,0.00816094,-0.0420042,-0.034132,0.166487,-0.21375,-0.0920997,0.124637,0.0171678,-0.0812669,-0.0695632,0.285,-2.16826,-17.6953,-0.635312,24.9469,1.19783,0.161342,0.615427,-0.142081,-0.295644,-0.213544,2.32406,0.736863,0.417442,-0.100396
1412886,1,-1.5725,-0.524112,0.00127193,-2.09587,1.56937,1.56991,0.787485,-1.57353,-0.524838,0.00167093,-2.09416,1.56965,1.56982,0.789048,-0.147743,-0.0749314,0.0974806,0.00758839,-0.0467743,-0.0366164,0.180607,-0.225,-0.0965453,0.130684,0.0179951,-0.0848764,-0.0726529,0.3,-2.27141,-17.8223,-0.659116,25.0699,1.23171,0.213527,0.653879,-0.150469,-0.275126,-0.211381,2.32348,0.731733,0.410072,-0.0883622
1412887,1,-1.57268,-0.524197,0.00138567,-2.09587,1.56931,1.56986,0.787739,-1.57377,-0.52494,0.0018088,-2.09414,1.56956,1.56974,0.789367,-0.159194,-0.0739008,0.101533,0.00829552,-0.0484985,-0.041803,0.207028,-0.239985,-0.101824,0.137862,0.0189768,-0.088813,-0.0760225,0.319304,-2.34679,-18.0484,-0.686887,25.1453,1.22072,0.226344,0.628245,-0.159473,-0.250367,-0.209123,2.31953,0.726343,0.402576,-0.0756935
1412888,1,-1.57288,-0.524283,0.00150195,-2.09585,1.56925,1.56981,0.788015,-1.57403,-0.525047,0.00195384,-2.09412,1.56947,1.56966,0.789706,-0.1683,-0.0808203,0.10448,0.0110328,-0.0535482,-0.0437902,0.234899,-0.254969,-0.107104,0.145039,0.0199585,-0.0927496,-0.0793922,0.338608,-2.42217,-18.227,-0.659116,25.1215,1.18135,0.186976,0.563242,-0.167277,-0.229386,-0.203575,2.31637,0.720854,0.39477,-0.0623248
1412889,1,-1.57309,-0.524375,0.00162917,-2.09584,1.56918,1.56976,0.788301,-1.5743,-0.52516,0.00210605,-2.0941,1.56937,1.56958,0.790064,-0.188298,-0.0821283,0.112253,0.011112,-0.057636,-0.0489024,0.254141,-0.269954,-0.112383,0.152217,0.0209403,-0.0966862,-0.0827619,0.357912,-2.42217,-18.4293,-0.635312,25.1691,1.14198,0.110072,0.491831,-0.171942,-0.213655,-0.191925,2.31455,0.715277,0.386464,-0.048325
1412890,1,-1.57331,-0.524458,0.00176097,-2.09583,1.56911,1.56971,0.788606,-1.57458,-0.525277,0.00226545,-2.09408,1.56927,1.56949,0.790441,-0.20216,-0.0827245,0.116683,0.011386,-0.0556139,-0.0486712,0.268726,-0.284939,-0.117662,0.159394,0.021922,-0.100623,-0.0861316,0.377215,-2.52532,-18.7824,-0.686887,25.1969,1.09072,0.0459851,0.485422,-0.171041,-0.208267,-0.171606,2.31673,0.709657,0.37726,-0.0338988
1412891,1,-1.57355,-0.524549,0.00189421,-2.09582,1.56904,1.56965,0.788924,-1.57488,-0.5254,0.00243202,-2.09406,1.56917,1.5694,0.790838,-0.213751,-0.0840407,0.120774,0.0146885,-0.0636627,-0.0518238,0.29021,-0.299923,-0.122941,0.166572,0.0229038,-0.104559,-0.0895013,0.396519,-2.69988,-19.1117,-0.762265,25.2445,1.03945,0.0716198,0.511057,-0.16374,-0.220476,-0.141591,2.32603,0.704013,0.366826,-0.0193057
1412892,1,-1.5738,-0.524651,0.00203951,-2.09581,1.56895,1.56958,0.78927,-1.5752,-0.525528,0.00260577,-2.09403,1.56906,1.56931,0.791254,-0.226893,-0.0887652,0.128512,0.0100126,-0.0680092,-0.0590737,0.299849,-0.314908,-0.128221,0.17375,0.0238855,-0.108496,-0.092871,0.415823,-2.85064,-19.4132,-0.889218,25.4428,1.07332,0.103663,0.52479,-0.152454,-0.250799,-0.104955,2.34294,0.698344,0.355391,-0.00473594
1412893,1,-1.57408,-0.524755,0.00219505,-2.09579,1.56887,1.56951,0.789621,-1.57553,-0.525662,0.0027867,-2.09401,1.56895,1.56921,0.791689,-0.243213,-0.0913643,0.140815,0.00819045,-0.0744349,-0.0646093,0.315781,-0.329893,-0.1335,0.180927,0.0248672,-0.112433,-0.0962406,0.435127,-2.97759,-19.7702,-1.09155,25.5936,1.07973,0.142115,0.621836,-0.141794,-0.297811,-0.0689754,2.36898,0.692834,0.343689,0.00971642
1412894,1,-1.57438,-0.524871,0.00236456,-2.09578,1.56878,1.56944,0.790004,-1.57587,-0.525801,0.0029748,-2.09398,1.56883,1.56911,0.792143,-0.256586,-0.0963786,0.151833,0.0113684,-0.0806111,-0.0685186,0.339211,-0.344877,-0.138779,0.188105,0.025849,-0.116369,-0.0996103,0.454431,-3.07677,-19.9964,-1.31769,25.6928,1.10719,0.180568,0.673105,-0.136631,-0.357754,-0.0418895,2.40313,0.687652,0.332551,0.0240533
1412895,1,-1.57468,-0.525,0.00253547,-2.09577,1.56868,1.56936,0.790412,-1.57623,-0.525945,0.00317008,-2.09396,1.56871,1.56901,0.792617,-0.27024,-0.105252,0.156676,0.0118953,-0.0854473,-0.0717905,0.359314,-0.359862,-0.144058,0.195283,0.0268307,-0.120306,-0.10298,0.473735,-3.2791,-20.1233,-1.44464,25.8673,1.14748,0.226344,0.731699,-0.138726,-0.419333,-0.0264235,2.43862,0.682644,0.322406,0.0383741
1412896,1,-1.575,-0.525132,0.00271083,-2.09575,1.56858,1.56928,0.790845,-1.57661,-0.526094,0.00337254,-2.09393,1.56859,1.56891,0.79311,-0.286172,-0.114391,0.164199,0.0155507,-0.0934506,-0.077863,0.381925,-0.374847,-0.149337,0.20246,0.0278125,-0.124243,-0.10635,0.493038,-3.48143,-20.2741,-1.5954,25.915,1.18135,0.251979,0.750925,-0.145759,-0.467328,-0.0185222,2.46713,0.677466,0.313166,0.0528216
1412897,1,-1.57534,-0.52526,0.0028949,-2.09573,1.56848,1.5692,0.791288,-1.577,-0.526249,0.003583,-2.0939,1.56846,1.5688,0.793623,-0.302908,-0.117205,0.168053,0.0180145,-0.0985901,-0.0810343,0.403897,-0.389837,-0.155228,0.210452,0.0289075,-0.128328,-0.109847,0.513028,-3.68377,-20.4526,-1.67474,25.9665,1.19783,0.24557,0.744517,-0.153918,-0.495354,-0.0120755,2.48462,0.671919,0.30443,0.0675186
1412898,1,-1.57569,-0.525398,0.00308919,-2.09572,1.56836,1.56911,0.791759,-1.5774,-0.52641,0.00380144,-2.09387,1.56833,1.56868,0.794156,-0.321454,-0.123724,0.178404,0.0186743,-0.102855,-0.0825246,0.419093,-0.404827,-0.161119,0.218443,0.0300025,-0.132413,-0.113344,0.533018,-3.73534,-20.5796,-1.77392,26.0657,1.22072,0.200709,0.706064,-0.160357,-0.508939,-0.00281845,2.4932,0.666083,0.295738,0.0825194
1412899,1,-1.57607,-0.525529,0.00328735,-2.0957,1.56824,1.56902,0.792247,-1.57782,-0.526577,0.00402787,-2.09384,1.56819,1.56857,0.794709,-0.335621,-0.123582,0.181517,0.0211476,-0.104126,-0.0839068,0.440934,-0.419817,-0.16701,0.226435,0.0310975,-0.136498,-0.11684,0.553008,-3.75914,-20.7819,-1.8255,26.0895,1.19234,0.161342,0.621836,-0.164201,-0.517897,0.0106046,2.49765,0.660181,0.286786,0.0977832
1412900,1,-1.57646,-0.525666,0.0034943,-2.09568,1.56812,1.56892,0.792768,-1.57826,-0.52675,0.0042623,-2.09381,1.56805,1.56845,0.795282,-0.354924,-0.128767,0.187042,0.0230766,-0.109548,-0.0859004,0.464202,-0.434807,-0.1729,0.234426,0.0321925,-0.140584,-0.120337,0.572998,-3.70757,-21.008,-1.87707,26.0895,1.15846,0.142115,0.556833,-0.164046,-0.531232,0.0307263,2.50203,0.654319,0.277147,0.11316
1412901,1,-1.57686,-0.525815,0.00370397,-2.09566,1.568,1.56882,0.793299,-1.57871,-0.526929,0.00450472,-2.09377,1.5679,1.56832,0.795875,-0.368563,-0.135043,0.194221,0.0191722,-0.113079,-0.0934044,0.486133,-0.449797,-0.178791,0.242418,0.0332876,-0.144669,-0.123834,0.592988,-3.60839,-21.1588,-1.77392,26.1649,1.1017,0.161342,0.518381,-0.159435,-0.551594,0.058331,2.50867,0.64854,0.266668,0.128415
1412902,1,-1.57729,-0.525968,0.00393458,-2.09564,1.56788,1.56871,0.793857,-1.57917,-0.527114,0.00475513,-2.09374,1.56776,1.56819,0.796488,-0.387026,-0.139612,0.207959,0.0180606,-0.115449,-0.0974648,0.510221,-0.464787,-0.184682,0.250409,0.0343826,-0.148754,-0.127331,0.612978,-3.35448,-21.3095,-1.72235,26.3156,1.02846,0.135707,0.491831,-0.154445,-0.578703,0.0865885,2.51995,0.643024,0.256018,0.143295
1412903,1,-1.57773,-0.526133,0.00416677,-2.09563,1.56774,1.5686,0.794422,-1.57965,-0.527304,0.00501353,-2.0937,1.5676,1.56806,0.797121,-0.401384,-0.143455,0.214222,0.0187357,-0.123982,-0.0996191,0.522015,-0.479777,-0.190573,0.258401,0.0354776,-0.152839,-0.130828,0.632968,-3.15215,-21.4365,-1.52002,26.4148,1.01106,0.0844372,0.588877,-0.153116,-0.614077,0.108381,2.53757,0.637892,0.245841,0.157601
1412904,1,-1.5782,-0.526301,0.00440404,-2.09561,1.5676,1.56849,0.795009,-1.58015,-0.527501,0.00527992,-2.09367,1.56745,1.56793,0.797774,-0.423801,-0.150083,0.222359,0.0187024,-0.128291,-0.100778,0.545438,-0.494767,-0.196464,0.266392,0.0365726,-0.156925,-0.134325,0.652958,-2.90221,-21.5396,-1.39306,26.5378,1.06233,0.026759,0.653879,-0.153952,-0.656746,0.125081,2.56045,0.632957,0.235926,0.171254
1412905,1,-1.57867,-0.526484,0.00465338,-2.09559,1.56746,1.56837,0.795628,-1.58066,-0.527703,0.0055543,-2.09363,1.56729,1.56779,0.798447,-0.441456,-0.159383,0.228069,0.0180867,-0.134581,-0.104226,0.563109,-0.509757,-0.202354,0.274384,0.0376676,-0.16101,-0.137822,0.672948,-2.69988,-21.5634,-1.31769,26.6886,1.09072,0.026759,0.685923,-0.152229,-0.70002,0.142974,2.58521,0.627883,0.225645,0.184325
1412906,1,-1.57916,-0.526663,0.00490284,-2.09557,1.56731,1.56825,0.796261,-1.58118,-0.527911,0.00583668,-2.09359,1.56712,1.56765,0.79914,-0.455585,-0.166753,0.230922,0.0193263,-0.136653,-0.112047,0.586467,-0.524747,-0.208245,0.282376,0.0387626,-0.165095,-0.141319,0.692938,-2.54912,-21.6666,-1.14312,26.76,1.16396,0.0459851,0.718882,-0.144942,-0.735207,0.16662,2.60776,0.622405,0.214702,0.196982
1412907,1,-1.57967,-0.526847,0.00516348,-2.09555,1.56715,1.56813,0.79692,-1.58172,-0.528126,0.00612761,-2.09355,1.56695,1.5675,0.799853,-0.480627,-0.169055,0.238087,0.0195826,-0.147038,-0.110899,0.608754,-0.539737,-0.21457,0.290928,0.039938,-0.16922,-0.14485,0.712928,-2.34679,-21.8174,-1.06378,26.8631,1.22621,0.00753292,0.744517,-0.129679,-0.762481,0.199758,2.62765,0.616497,0.202805,0.209392
1412908,1,-1.58019,-0.527038,0.00542383,-2.09553,1.56698,1.56801,0.797615,-1.58228,-0.528347,0.00642709,-2.09351,1.56678,1.56736,0.800586,-0.493148,-0.173994,0.246972,0.0211744,-0.153963,-0.112884,0.631601,-0.554727,-0.220894,0.29948,0.0411134,-0.173346,-0.148381,0.732918,-2.14446,-21.9681,-0.837644,26.9107,1.27199,-0.089513,0.738108,-0.105856,-0.789972,0.242397,2.64808,0.610484,0.189787,0.221692
1412909,1,-1.58074,-0.527235,0.005703,-2.09551,1.56681,1.56789,0.798324,-1.58285,-0.528574,0.00673512,-2.09347,1.5666,1.5672,0.801338,-0.511073,-0.18166,0.252301,0.0207484,-0.161387,-0.11553,0.666403,-0.569717,-0.227219,0.308033,0.0422888,-0.177471,-0.151912,0.752908,-1.94213,-22.0951,-0.710691,27.0099,1.2491,-0.147191,0.641062,-0.0766241,-0.82005,0.289599,2.67001,0.604736,0.176057,0.233982
1412910,1,-1.58129,-0.527434,0.00599355,-2.09548,1.56665,1.56777,0.799053,-1.58343,-0.528808,0.00705171,-2.09342,1.56642,1.56705,0.802111,-0.520796,-0.18465,0.264708,0.0230624,-0.159423,-0.117007,0.675933,-0.584707,-0.233544,0.316585,0.0434642,-0.181596,-0.155443,0.772898,-1.81517,-22.3212,-0.659116,27.0099,1.15846,-0.23142,0.601694,-0.0466149,-0.851028,0.33489,2.69255,0.599489,0.162271,0.246257
1412911,1,-1.58185,-0.527643,0.00628556,-2.09545,1.56649,1.56764,0.799826,-1.58403,-0.529048,0.00737684,-2.09338,1.56623,1.56689,0.802904,-0.528936,-0.197895,0.274436,0.0228606,-0.159958,-0.119772,0.713052,-0.599697,-0.239868,0.325138,0.0446395,-0.185721,-0.158974,0.792888,-1.79137,-22.4997,-0.508359,27.0853,1.09621,-0.276281,0.44697,-0.0231994,-0.878544,0.367871,2.71342,0.594864,0.149487,0.258405
1412912,1,-1.58243,-0.527853,0.00659372,-2.09543,1.56633,1.5675,0.800597,-1.58464,-0.529294,0.00771053,-2.09333,1.56604,1.56673,0.803717,-0.550863,-0.201926,0.281887,0.0215398,-0.1584,-0.126271,0.734418,-0.614687,-0.246193,0.33369,0.0458149,-0.189846,-0.162505,0.812878,-1.66442,-22.6743,-0.456784,27.2083,0.983598,-0.321141,0.375559,-0.00927375,-0.896567,0.384543,2.73033,0.59069,0.138142,0.270196
1412913,1,-1.58304,-0.528077,0.00691329,-2.09541,1.56615,1.56737,0.801396,-1.58527,-0.529546,0.00805278,-2.09329,1.56585,1.56656,0.80455,-0.566781,-0.207237,0.292836,0.0235155,-0.161502,-0.133308,0.748979,-0.629677,-0.252518,0.342243,0.0469903,-0.193971,-0.166036,0.832868,-1.51366,-22.8528,-0.432981,27.359,0.983598,-0.308324,0.343516,-0.000337764,-0.908983,0.391019,2.74537,0.58667,0.127512,0.281329
1412914,1,-1.58365,-0.528303,0.00723776,-2.09538,1.56597,1.56722,0.802208,-1.58592,-0.529805,0.00840357,-2.09324,1.56565,1.56639,0.805403,-0.576134,-0.211853,0.302,0.0234684,-0.169415,-0.138906,0.774972,-0.644667,-0.258843,0.350795,0.0481657,-0.198096,-0.169567,0.852858,-1.56524,-23.0313,-0.282224,27.4344,1.00557,-0.276281,0.304148,0.00456282,-0.923321,0.388509,2.76155,0.582675,0.117357,0.291549
1412915,1,-1.58426,-0.528545,0.00758288,-2.09535,1.56578,1.56707,0.803047,-1.58658,-0.53007,0.00876292,-2.09319,1.56545,1.56622,0.806276,-0.580372,-0.22079,0.313057,0.0267737,-0.175593,-0.143342,0.793994,-0.659657,-0.265167,0.359348,0.049341,-0.202222,-0.173098,0.872848,-1.66442,-23.1067,-0.329831,27.5058,1.04585,-0.218602,0.356333,0.000393195,-0.939534,0.370696,2.77838,0.578713,0.108405,0.300708
1412916,1,-1.5849,-0.528791,0.00794795,-2.09533,1.56559,1.56692,0.803896,-1.58725,-0.530342,0.00913082,-2.09314,1.56524,1.56604,0.807169,-0.595319,-0.227472,0.331025,0.0258035,-0.185758,-0.145584,0.798688,-0.674647,-0.271492,0.3679,0.0505164,-0.206347,-0.17663,0.892838,-1.76757,-23.1821,-0.508359,27.5812,1.10719,-0.205785,0.479014,-0.0187612,-0.953006,0.329527,2.79365,0.574942,0.10162,0.308785
1412917,1,-1.58554,-0.529036,0.00830299,-2.09531,1.56538,1.56677,0.804765,-1.58794,-0.53062,0.00950763,-2.09309,1.56503,1.56586,0.808081,-0.612074,-0.231148,0.334976,0.0260576,-0.191325,-0.149103,0.822858,-0.689637,-0.278109,0.376811,0.0517458,-0.210445,-0.180138,0.912828,-2.09288,-23.3091,-0.583737,27.7558,1.24361,-0.269872,0.544016,-0.0514137,-0.965771,0.266714,2.80894,0.571549,0.0968482,0.315907
1412918,1,-1.58619,-0.529285,0.00868137,-2.09528,1.56518,1.56662,0.805662,-1.58865,-0.530905,0.00989335,-2.09303,1.56482,1.56568,0.809014,-0.625775,-0.233426,0.351607,0.0259882,-0.195529,-0.154166,0.832211,-0.704627,-0.284725,0.385722,0.0529752,-0.214544,-0.183646,0.932818,-2.27141,-23.432,-0.762265,27.8073,1.27748,-0.276281,0.595286,-0.0910001,-0.987767,0.191903,2.82935,0.568683,0.093058,0.322327
1412919,1,-1.58686,-0.529532,0.00907318,-2.09525,1.56498,1.56645,0.806579,-1.58937,-0.531196,0.010288,-2.09298,1.5646,1.56549,0.809967,-0.638946,-0.238197,0.362512,0.0283089,-0.197244,-0.155404,0.861927,-0.719617,-0.291342,0.394633,0.0542047,-0.218643,-0.187155,0.952808,-2.52532,-23.5868,-0.964597,27.9065,1.25459,-0.218602,0.628245,-0.136365,-1.02537,0.10728,2.85751,0.5666,0.0899385,0.328348
1412920,1,-1.58754,-0.529795,0.00946278,-2.09523,1.56478,1.56628,0.807514,-1.5901,-0.531494,0.0106915,-2.09292,1.56438,1.5653,0.81094,-0.663104,-0.242359,0.37038,0.0285872,-0.196898,-0.160035,0.880365,-0.734607,-0.297959,0.403545,0.0554341,-0.222742,-0.190663,0.972798,-2.72368,-23.7137,-0.988401,28.0533,1.18135,-0.186559,0.582468,-0.184641,-1.07796,0.0175993,2.89249,0.565292,0.0869764,0.334226
1412921,1,-1.58823,-0.530061,0.00987139,-2.0952,1.56457,1.5661,0.808477,-1.59085,-0.531798,0.011104,-2.09287,1.56415,1.56511,0.811933,-0.667871,-0.24438,0.375305,0.0290795,-0.201484,-0.163076,0.902705,-0.749597,-0.304575,0.412456,0.0566635,-0.22684,-0.194172,0.992788,-2.90221,-23.8883,-1.14312,28.0533,1.10719,-0.160009,0.544016,-0.229771,-1.14568,-0.0667718,2.93413,0.564493,0.0832553,0.340119
1412922,1,-1.58896,-0.530331,0.0102694,-2.09517,1.56436,1.56592,0.809447,-1.59162,-0.53211,0.0115254,-2.09281,1.56392,1.56491,0.812945,-0.677868,-0.254002,0.384164,0.0311097,-0.2044,-0.165019,0.928322,-0.764587,-0.311192,0.421367,0.0578929,-0.230939,-0.19768,1.01278,-2.87841,-23.9914,-1.03998,28.1287,1.01106,-0.134374,0.52479,-0.272667,-1.22542,-0.144613,2.98104,0.563964,0.0789364,0.346069
1412923,1,-1.58968,-0.530625,0.0106895,-2.09513,1.56415,1.56573,0.810455,-1.5924,-0.532427,0.0119556,-2.09275,1.56368,1.56471,0.813978,-0.69646,-0.261888,0.388593,0.030732,-0.202257,-0.17179,0.944871,-0.779577,-0.317809,0.430278,0.0591223,-0.235038,-0.201189,1.03277,-2.87841,-23.8883,-0.940793,28.1287,0.932329,-0.10233,0.459788,-0.314521,-1.30534,-0.21616,3.02778,0.563271,0.0743826,0.352032
1412924,1,-1.59043,-0.530914,0.011109,-2.0951,1.56394,1.56553,0.811484,-1.59319,-0.532752,0.0123948,-2.09269,1.56344,1.5645,0.815031,-0.709723,-0.274642,0.401167,0.0339438,-0.211999,-0.176985,0.980032,-0.794567,-0.324425,0.439189,0.0603517,-0.239136,-0.204697,1.05276,-2.90221,-23.8367,-0.762265,28.1287,0.926836,-0.0638782,0.414011,-0.353453,-1.37173,-0.278972,3.06819,0.561883,0.069626,0.357914
1412925,1,-1.59118,-0.531215,0.0115477,-2.09506,1.56372,1.56533,0.812512,-1.594,-0.533083,0.0128429,-2.09263,1.5632,1.56429,0.816104,-0.727719,-0.282527,0.410174,0.0353552,-0.210865,-0.180284,0.993249,-0.809557,-0.331042,0.4481,0.0615812,-0.243235,-0.208205,1.07275,-2.90221,-23.7891,-0.710691,28.1525,0.921343,-0.0446521,0.440561,-0.390402,-1.41438,-0.335347,3.09735,0.559495,0.0650592,0.363589
1412926,1,-1.59196,-0.531528,0.0119973,-2.09501,1.56348,1.56512,0.813582,-1.59482,-0.533421,0.0132999,-2.09257,1.56295,1.56408,0.817196,-0.744342,-0.291198,0.425773,0.0384658,-0.217725,-0.187204,1.00243,-0.824547,-0.337659,0.457012,0.0628106,-0.247334,-0.211714,1.09274,-2.77526,-23.7375,-0.583737,28.0811,1.00008,-0.0382434,0.375559,-0.427419,-1.4319,-0.389446,3.11423,0.556095,0.0611287,0.368954
1412927,1,-1.59276,-0.531844,0.0124495,-2.09498,1.56324,1.56493,0.814648,-1.59566,-0.533765,0.0137661,-2.0925,1.5627,1.56387,0.818309,-0.761535,-0.298594,0.434749,0.0388319,-0.226527,-0.18752,1.02306,-0.839537,-0.344454,0.46612,0.064073,-0.251366,-0.215165,1.11241,-2.6245,-23.6621,-0.508359,28.1049,1.05135,-0.147191,0.44697,-0.465749,-1.42941,-0.444202,3.12121,0.551922,0.0580543,0.373954
1412928,1,-1.59355,-0.532165,0.0129148,-2.09494,1.56299,1.56472,0.815752,-1.59652,-0.534116,0.0142413,-2.09244,1.56245,1.56365,0.819441,-0.778027,-0.304217,0.441191,0.0383545,-0.229581,-0.190762,1.03743,-0.854527,-0.351249,0.475228,0.0653354,-0.255398,-0.218616,1.13209,-2.52532,-23.6859,-0.381406,28.1525,1.15297,-0.199376,0.485422,-0.503156,-1.41583,-0.496642,3.12323,0.547268,0.0553772,0.378543
1412929,1,-1.59438,-0.53249,0.0133744,-2.0949,1.56275,1.56451,0.816866,-1.59739,-0.534474,0.0147256,-2.09237,1.56219,1.56343,0.820593,-0.792412,-0.305556,0.446577,0.0386281,-0.232437,-0.194858,1.08695,-0.869517,-0.358044,0.484337,0.0665979,-0.25943,-0.222068,1.15176,-2.32299,-23.7375,-0.306028,28.1803,1.13558,-0.212194,0.491831,-0.535121,-1.40548,-0.539631,3.12767,0.542406,0.052148,0.382724
1412930,1,-1.59523,-0.532818,0.0138422,-2.09486,1.5625,1.56429,0.818001,-1.59827,-0.534839,0.0152191,-2.0923,1.56192,1.5632,0.821764,-0.811734,-0.312217,0.453144,0.0415342,-0.239014,-0.201781,1.09957,-0.884507,-0.36484,0.493445,0.0678603,-0.263461,-0.225519,1.17143,-2.16826,-23.8129,-0.0283176,28.2279,1.10719,-0.244237,0.57606,-0.558486,-1.40884,-0.568269,3.1391,0.537545,0.047672,0.386572
1412931,1,-1.59607,-0.533154,0.0143281,-2.09482,1.56225,1.56408,0.819161,-1.59917,-0.535211,0.0157216,-2.09223,1.56166,1.56297,0.822955,-0.827653,-0.319596,0.463102,0.046222,-0.243914,-0.20441,1.11235,-0.899497,-0.371635,0.502553,0.0691227,-0.267493,-0.22897,1.19111,-2.06908,-24.0152,0.0986355,28.3033,1.08522,-0.225011,0.588877,-0.572411,-1.42243,-0.58189,3.15445,0.532719,0.0418094,0.390244
1412932,1,-1.59695,-0.533503,0.0148101,-2.09477,1.562,1.56385,0.820343,-1.60009,-0.535589,0.0162333,-2.09216,1.56138,1.56274,0.824166,-0.843855,-0.330657,0.468013,0.0480697,-0.244881,-0.206683,1.14845,-0.914487,-0.37843,0.511662,0.0703852,-0.271525,-0.232421,1.21078,-1.86675,-24.039,0.225589,28.3271,0.97719,-0.295507,0.537607,-0.577973,-1.43425,-0.582549,3.16698,0.527793,0.0348105,0.393928
1412933,1,-1.59784,-0.533863,0.0153015,-2.09472,1.56174,1.56364,0.821536,-1.60102,-0.535974,0.016754,-2.09209,1.56111,1.5625,0.825396,-0.877093,-0.335519,0.477639,0.0465487,-0.248193,-0.212643,1.1628,-0.929477,-0.385225,0.52077,0.0716476,-0.275557,-0.235873,1.23045,-1.64061,-24.0668,0.503299,28.3271,0.937822,-0.366002,0.381968,-0.572322,-1.43931,-0.567081,3.17513,0.522569,0.0263239,0.397712
1412934,1,-1.59875,-0.534238,0.0157975,-2.09467,1.56148,1.56342,0.822764,-1.60196,-0.536366,0.0172839,-2.09202,1.56083,1.56227,0.826647,-0.88788,-0.34523,0.47903,0.050782,-0.245903,-0.213887,1.17155,-0.944467,-0.392021,0.529878,0.07291,-0.279589,-0.239324,1.25013,-1.46209,-23.9637,0.781009,28.2517,0.887468,-0.431005,0.219919,-0.550694,-1.44006,-0.529601,3.18104,0.516838,0.015636,0.40152
1412935,1,-1.59967,-0.534617,0.0163013,-2.09461,1.56123,1.56319,0.823976,-1.60292,-0.536765,0.0178229,-2.09194,1.56055,1.56202,0.827916,-0.891743,-0.352367,0.483483,0.0517088,-0.249435,-0.218439,1.18532,-0.959457,-0.398816,0.538987,0.0741725,-0.283621,-0.242775,1.2698,-1.43828,-23.8645,0.907962,28.2517,0.847185,-0.398961,0.187876,-0.516651,-1.43539,-0.473608,3.18375,0.510429,0.00318082,0.405109
1412936,1,-1.60059,-0.534999,0.016815,-2.09455,1.56096,1.56295,0.825218,-1.60389,-0.537171,0.018371,-2.09187,1.56026,1.56178,0.829206,-0.901282,-0.357268,0.497454,0.0553679,-0.256545,-0.222015,1.19457,-0.974447,-0.405611,0.548095,0.0754349,-0.287653,-0.246226,1.28947,-1.46209,-23.8645,1.06269,28.1287,0.825212,-0.359594,0.284922,-0.481819,-1.42595,-0.414229,3.18321,0.503518,-0.00944206,0.408159
1412937,1,-1.60154,-0.535384,0.0173265,-2.0945,1.56067,1.56272,0.826468,-1.60488,-0.537583,0.0189283,-2.09179,1.55997,1.56153,0.830514,-0.911825,-0.365098,0.502858,0.0593603,-0.26419,-0.226203,1.21394,-0.989437,-0.412494,0.557271,0.0767135,-0.291593,-0.249599,1.30794,-1.48986,-23.8645,1.21344,28.1049,0.971697,-0.392553,0.356333,-0.455262,-1.41485,-0.364928,3.18043,0.496393,-0.0209402,0.41049
1412938,1,-1.6025,-0.535774,0.0178585,-2.09445,1.5604,1.56247,0.827758,-1.60589,-0.538003,0.0194947,-2.09171,1.55967,1.56127,0.83184,-0.949524,-0.371281,0.513263,0.0552134,-0.269386,-0.232114,1.23354,-1.00443,-0.419378,0.566448,0.0779922,-0.295534,-0.252972,1.3264,-1.31133,-23.8645,1.21344,28.2279,0.989092,-0.366002,0.401194,-0.433019,-1.4046,-0.321472,3.17719,0.489104,-0.0318419,0.412123
1412939,1,-1.60351,-0.536173,0.0184029,-2.09439,1.56011,1.56223,0.829096,-1.60691,-0.538429,0.0200704,-2.09163,1.55937,1.56102,0.833185,-0.968702,-0.381401,0.525606,0.0591023,-0.274857,-0.238316,1.26174,-1.01942,-0.426261,0.575624,0.0792708,-0.299474,-0.256345,1.34486,-1.08519,-23.8883,1.26502,28.2279,1.05135,-0.282689,0.213511,-0.405493,-1.39695,-0.272642,3.17617,0.481723,-0.0434381,0.413205
1412940,1,-1.60452,-0.536576,0.0189357,-2.09433,1.55983,1.56198,0.830416,-1.60794,-0.538862,0.0206552,-2.09155,1.55907,1.56076,0.834548,-0.981993,-0.388493,0.530624,0.057826,-0.278773,-0.239316,1.28298,-1.03441,-0.433144,0.584801,0.0805495,-0.303415,-0.259718,1.36333,-1.00982,-23.9398,1.46735,28.2517,0.983598,-0.276281,0.16865,-0.37154,-1.38899,-0.217698,3.17663,0.47442,-0.0557375,0.413847
1412941,1,-1.60554,-0.536982,0.0194872,-2.09426,1.55955,1.56174,0.831752,-1.60899,-0.539302,0.0212491,-2.09147,1.55876,1.56049,0.83593,-0.988158,-0.390479,0.529149,0.0608127,-0.279775,-0.241417,1.29551,-1.0494,-0.440027,0.593977,0.0818281,-0.307355,-0.263091,1.38179,-0.859058,-24.0906,1.64191,28.2517,0.875566,-0.379735,0.252878,-0.333376,-1.38404,-0.157431,3.17964,0.467314,-0.0683594,0.413982
1412942,1,-1.60659,-0.537394,0.0200381,-2.0942,1.55927,1.56151,0.833114,-1.61006,-0.539749,0.0218523,-2.09139,1.55845,1.56023,0.83733,-1.00703,-0.406413,0.540917,0.059656,-0.284916,-0.235319,1.32432,-1.06439,-0.44691,0.603154,0.0831068,-0.311296,-0.266464,1.40025,-0.680531,-24.1184,1.87201,28.2517,0.773943,-0.57932,0.316965,-0.291723,-1.38368,-0.0907579,3.18554,0.460343,-0.0812241,0.413521
1412943,1,-1.60764,-0.537821,0.0205959,-2.09413,1.55897,1.56127,0.834473,-1.61113,-0.540203,0.0224646,-2.0913,1.55813,1.55996,0.838749,-1.02667,-0.412244,0.541636,0.0612636,-0.286223,-0.238254,1.33356,-1.07938,-0.453793,0.61233,0.0843854,-0.315236,-0.269837,1.41872,-0.50597,-24.0906,2.17353,28.2795,0.807817,-0.713903,0.42042,-0.245334,-1.37924,-0.0162668,3.19053,0.453211,-0.0945826,0.412539
1412944,1,-1.60872,-0.538268,0.0211684,-2.09407,1.55868,1.56101,0.83587,-1.61223,-0.540664,0.0230861,-2.09122,1.55782,1.55968,0.840186,-1.03714,-0.421696,0.549091,0.064199,-0.290386,-0.245359,1.34837,-1.09437,-0.460677,0.621507,0.0856641,-0.319177,-0.27321,1.43718,-0.379017,-23.9637,2.35205,28.2279,0.81331,-0.598546,0.466196,-0.192412,-1.3675,0.0683103,3.19256,0.445604,-0.108897,0.411265
1412945,1,-1.60982,-0.538722,0.021746,-2.094,1.55837,1.56073,0.837303,-1.61334,-0.541131,0.0237168,-2.09113,1.55749,1.55941,0.841642,-1.04894,-0.431396,0.558314,0.063428,-0.295342,-0.256153,1.38659,-1.10936,-0.46756,0.630683,0.0869427,-0.323117,-0.276583,1.45564,-0.355213,-23.7375,2.4552,28.3033,0.86458,-0.424596,0.440561,-0.13771,-1.34818,0.156365,3.19101,0.437516,-0.123577,0.409992
1412946,1,-1.61089,-0.539173,0.0223384,-2.09393,1.55805,1.56047,0.83873,-1.61446,-0.541606,0.0243567,-2.09104,1.55717,1.55913,0.843116,-1.06231,-0.435359,0.568061,0.068302,-0.298782,-0.259058,1.40052,-1.12435,-0.474443,0.63986,0.0882214,-0.327058,-0.279956,1.47411,-0.581349,-23.6106,2.53058,28.3033,0.932329,-0.386144,0.401194,-0.0880652,-1.3228,0.237527,3.18666,0.429207,-0.137507,0.408953
1412947,1,-1.612,-0.539632,0.0229528,-2.09385,1.55774,1.56022,0.840196,-1.6156,-0.542087,0.0250057,-2.09095,1.55683,1.55884,0.844607,-1.06904,-0.438722,0.585584,0.073727,-0.299308,-0.254268,1.43869,-1.13934,-0.481342,0.649001,0.0895028,-0.330892,-0.283238,1.49082,-0.78368,-23.6106,2.35205,28.2279,0.937822,-0.533544,0.304148,-0.0495807,-1.29903,0.302109,3.18157,0.421086,-0.149713,0.408242
1412948,1,-1.61313,-0.54009,0.0235735,-2.09377,1.55742,1.55996,0.841661,-1.61676,-0.542575,0.0256638,-2.09086,1.5565,1.55856,0.846114,-1.08309,-0.443503,0.598567,0.0741245,-0.304757,-0.252354,1.44965,-1.15433,-0.488241,0.658143,0.0907843,-0.334726,-0.28652,1.50754,-1.00982,-23.6621,2.2251,28.1525,0.943315,-0.649816,0.194285,-0.0285618,-1.28464,0.340171,3.17835,0.413672,-0.159376,0.407804
1412949,1,-1.61425,-0.540554,0.0242072,-2.0937,1.55709,1.55968,0.843152,-1.61793,-0.54307,0.0263311,-2.09077,1.55616,1.55827,0.847639,-1.09526,-0.448199,0.606424,0.0769625,-0.309936,-0.258053,1.45845,-1.16932,-0.495139,0.667285,0.0920657,-0.33856,-0.289802,1.52425,-1.18834,-23.7613,2.17353,28.1049,0.870073,-0.585729,0.194285,-0.0247239,-1.28425,0.35221,3.17996,0.407259,-0.166755,0.407452
1412950,1,-1.61541,-0.541029,0.0248517,-2.09362,1.55677,1.55938,0.844682,-1.61911,-0.543572,0.0270075,-2.09068,1.55582,1.55798,0.84918,-1.10345,-0.458419,0.625533,0.0778866,-0.313973,-0.272697,1.49605,-1.18431,-0.502038,0.676426,0.0933472,-0.342394,-0.293084,1.54097,-1.31133,-23.7613,2.02277,28.1287,0.773943,-0.346776,0.162241,-0.0371616,-1.29463,0.340379,3.18592,0.401828,-0.172045,0.406957
1412951,1,-1.61657,-0.541512,0.0255077,-2.09355,1.55645,1.55909,0.846194,-1.62031,-0.544081,0.0276931,-2.09058,1.55547,1.55768,0.850737,-1.12496,-0.464379,0.633827,0.073719,-0.318935,-0.288394,1.5078,-1.1993,-0.508937,0.685568,0.0946286,-0.346229,-0.296366,1.55768,-1.28753,-23.8367,1.97119,28.2041,0.729082,-0.186559,0.219919,-0.0664605,-1.30996,0.304024,3.19553,0.397248,-0.17487,0.406136
1412952,1,-1.61776,-0.542005,0.0261757,-2.09347,1.55611,1.5588,0.847729,-1.62152,-0.544597,0.0283878,-2.09049,1.55512,1.55738,0.852312,-1.13768,-0.469738,0.645123,0.0755027,-0.324479,-0.290338,1.5142,-1.21429,-0.515836,0.694709,0.0959101,-0.350063,-0.299648,1.5744,-1.28753,-23.8883,1.89582,28.2279,0.729082,-0.205785,0.343516,-0.106606,-1.3323,0.251792,3.21162,0.393261,-0.175732,0.404904
1412953,1,-1.61896,-0.542495,0.0268398,-2.09339,1.55576,1.55852,0.849271,-1.62275,-0.54512,0.0290916,-2.09039,1.55477,1.55708,0.853903,-1.16004,-0.47474,0.650155,0.0736666,-0.329064,-0.289436,1.51769,-1.22928,-0.522734,0.703851,0.0971915,-0.353897,-0.30293,1.59111,-1.3629,-23.916,1.89582,28.2517,0.745561,-0.282689,0.394785,-0.148265,-1.3665,0.197491,3.23632,0.389519,-0.175824,0.403336
1412954,1,-1.62015,-0.543003,0.0275151,-2.0933,1.55541,1.55823,0.850849,-1.624,-0.545649,0.0298046,-2.09029,1.55441,1.55677,0.855511,-1.1678,-0.479964,0.653346,0.0763972,-0.332305,-0.289658,1.52391,-1.24427,-0.529633,0.712993,0.098473,-0.357731,-0.306212,1.60783,-1.41448,-23.9398,1.92359,28.2517,0.784929,-0.359594,0.414011,-0.183381,-1.41451,0.153883,3.26941,0.385658,-0.176389,0.401644
1412955,1,-1.62139,-0.543508,0.0281888,-2.09321,1.55506,1.55793,0.852454,-1.62526,-0.546186,0.0305268,-2.09019,1.55405,1.55646,0.857135,-1.18395,-0.495858,0.665306,0.0800513,-0.336311,-0.286252,1.5647,-1.25926,-0.536532,0.722134,0.0997544,-0.361565,-0.309494,1.62454,-1.31133,-23.916,2.09815,28.1803,0.847185,-0.40537,0.401194,-0.210293,-1.46542,0.124796,3.30408,0.381313,-0.177792,0.400054
1412956,1,-1.62263,-0.544027,0.0288769,-2.09312,1.55469,1.55764,0.854051,-1.62653,-0.546729,0.031258,-2.09009,1.55368,1.55615,0.858776,-1.22506,-0.499923,0.676484,0.0826722,-0.344971,-0.287702,1.57734,-1.27425,-0.543431,0.731276,0.101036,-0.365399,-0.312776,1.64126,-1.13677,-23.8129,2.35205,28.0811,0.943315,-0.475866,0.42042,-0.227019,-1.50378,0.111632,3.33157,0.376259,-0.180439,0.398709
1412957,1,-1.6239,-0.544549,0.0295779,-2.09303,1.55432,1.55734,0.855682,-1.62782,-0.54728,0.0319983,-2.08999,1.55331,1.55583,0.860432,-1.23941,-0.503024,0.684837,0.0824737,-0.349148,-0.291658,1.58855,-1.28883,-0.550287,0.7403,0.102309,-0.369118,-0.315959,1.65591,-0.859058,-23.8129,2.4552,28.0811,0.97719,-0.475866,0.427744,-0.227341,-1.53509,0.12053,3.35405,0.370709,-0.185453,0.397674
1412958,1,-1.62518,-0.545066,0.0302748,-2.09294,1.55396,1.55704,0.857295,-1.62912,-0.547837,0.0327477,-2.08989,1.55294,1.55551,0.862103,-1.24443,-0.508356,0.687171,0.0832544,-0.350829,-0.297271,1.60011,-1.30342,-0.557144,0.749325,0.103583,-0.372837,-0.319142,1.67056,-0.755909,-23.8367,2.62976,28.0533,0.971697,-0.5015,0.588877,-0.213754,-1.57323,0.148777,3.37846,0.365168,-0.19266,0.396988
1412959,1,-1.62645,-0.5456,0.0309786,-2.09285,1.5536,1.55673,0.858958,-1.63044,-0.548401,0.033506,-2.08978,1.55257,1.55519,0.863788,-1.2613,-0.513079,0.689075,0.0871487,-0.358148,-0.300335,1.60519,-1.31801,-0.564001,0.758349,0.104857,-0.376556,-0.322326,1.68521,-0.708302,-23.7891,2.85987,28.0295,0.898454,-0.463048,0.582468,-0.191692,-1.62168,0.191592,3.40625,0.359874,-0.201321,0.396742
1412960,1,-1.62776,-0.546144,0.0316895,-2.09275,1.55325,1.5564,0.860651,-1.63177,-0.548972,0.0342734,-2.08967,1.55218,1.55487,0.865488,-1.27327,-0.532364,0.69982,0.088675,-0.363997,-0.304336,1.64615,-1.3326,-0.570857,0.767374,0.10613,-0.380274,-0.325509,1.69986,-0.557545,-23.7613,3.01062,28.0533,0.729082,-0.366002,0.343516,-0.163364,-1.66774,0.246914,3.43098,0.354677,-0.210989,0.397094
1412961,1,-1.62909,-0.546693,0.0324164,-2.09265,1.55289,1.55609,0.862336,-1.63312,-0.549549,0.0350498,-2.08957,1.5518,1.55454,0.867202,-1.29204,-0.536433,0.703673,0.0923402,-0.355913,-0.300633,1.66382,-1.34719,-0.577714,0.776398,0.107404,-0.383993,-0.328692,1.71451,-0.152882,-23.6621,3.0622,27.9779,0.531328,-0.443822,0.122873,-0.131219,-1.69375,0.310693,3.44451,0.349222,-0.221058,0.398027
1412962,1,-1.63045,-0.547252,0.033147,-2.09255,1.55251,1.55578,0.864046,-1.63448,-0.550134,0.0358352,-2.08946,1.55141,1.5542,0.868932,-1.31227,-0.541612,0.707681,0.0989701,-0.361062,-0.301224,1.67076,-1.36177,-0.58457,0.785423,0.108677,-0.387712,-0.331875,1.72915,0.176403,-23.559,3.3161,27.855,0.502947,-0.566503,0.0130102,-0.0924657,-1.70176,0.386061,3.44648,0.343037,-0.231865,0.399176
1412963,1,-1.63183,-0.547812,0.0338862,-2.09244,1.55214,1.55547,0.865744,-1.63586,-0.550725,0.0366297,-2.08935,1.55102,1.55387,0.870675,-1.32681,-0.548498,0.714498,0.101647,-0.366338,-0.303465,1.67675,-1.37636,-0.591427,0.794447,0.109951,-0.39143,-0.335058,1.7438,0.477917,-23.5114,3.44306,27.7082,0.519426,-0.624181,-0.044668,-0.0436443,-1.70194,0.476708,3.44016,0.335766,-0.24397,0.400013
1412964,1,-1.6332,-0.548391,0.0346537,-2.09233,1.55177,1.55514,0.867478,-1.63725,-0.551324,0.0374331,-2.08924,1.55063,1.55353,0.872434,-1.33807,-0.556759,0.73341,0.104534,-0.362717,-0.318783,1.67695,-1.39095,-0.598284,0.803472,0.111224,-0.395149,-0.338241,1.75845,0.680248,-23.432,3.46686,27.6566,0.480058,-0.539952,-0.0584009,0.00835025,-1.69653,0.570505,3.42731,0.327502,-0.256257,0.400098
1412965,1,-1.63458,-0.548979,0.0354151,-2.09222,1.55137,1.55481,0.869244,-1.63866,-0.551929,0.0382456,-2.08912,1.55023,1.55319,0.874207,-1.35201,-0.561563,0.739582,0.105163,-0.373671,-0.318844,1.69136,-1.40554,-0.60514,0.812496,0.112498,-0.398868,-0.341425,1.7731,0.60487,-23.3091,3.61762,27.5336,0.666826,-0.546361,-0.103262,0.0535312,-1.68772,0.650668,3.41084,0.318642,-0.267098,0.399149
1412966,1,-1.63599,-0.549573,0.0361811,-2.09211,1.55096,1.5545,0.870984,-1.64008,-0.552541,0.0390672,-2.08901,1.54983,1.55285,0.875995,-1.36764,-0.576058,0.756021,0.10575,-0.380218,-0.318542,1.70798,-1.42012,-0.611997,0.821521,0.113771,-0.402586,-0.344608,1.78775,0.553295,-23.1067,3.59381,27.5336,0.830705,-0.688268,-0.044668,0.089192,-1.67571,0.71188,3.39286,0.309535,-0.276067,0.397015
1412967,1,-1.63738,-0.550187,0.036997,-2.09201,1.55055,1.55419,0.872761,-1.64151,-0.55316,0.0398975,-2.0889,1.54942,1.5525,0.877795,-1.37237,-0.580516,0.773763,0.104247,-0.388923,-0.318255,1.72106,-1.43331,-0.618765,0.830363,0.115028,-0.406184,-0.347687,1.80016,0.303356,-22.8528,3.18915,27.609,1.00557,-0.855809,0.0194189,0.111305,-1.65758,0.747386,3.37425,0.300785,-0.282671,0.393681
1412968,1,-1.63879,-0.550806,0.0378162,-2.09191,1.55014,1.55387,0.874558,-1.64296,-0.553785,0.0407367,-2.08878,1.54901,1.55215,0.879607,-1.37675,-0.596224,0.794314,0.10545,-0.397554,-0.311829,1.75896,-1.4465,-0.625533,0.839205,0.116286,-0.409782,-0.350767,1.81257,-0.0775034,-22.5235,2.78449,27.6328,1.08522,-0.919896,0.129282,0.109879,-1.63116,0.742353,3.35575,0.293292,-0.285752,0.389291
1412969,1,-1.64019,-0.551438,0.0386503,-2.0918,1.54971,1.55352,0.876351,-1.64441,-0.554417,0.0415848,-2.08866,1.5486,1.55179,0.881432,-1.41725,-0.603636,0.80152,0.105377,-0.401329,-0.320798,1.75967,-1.45969,-0.632302,0.848047,0.117543,-0.41338,-0.353847,1.82497,-0.50597,-22.222,2.42743,27.6804,1.1017,-0.75327,0.143015,0.0875616,-1.59219,0.700485,3.33594,0.287448,-0.286117,0.384121
1412970,1,-1.64165,-0.55208,0.0394926,-2.09168,1.5493,1.55317,0.878185,-1.64589,-0.555057,0.0424417,-2.08854,1.54818,1.55144,0.88327,-1.42482,-0.611088,0.815273,0.104032,-0.402499,-0.334575,1.78002,-1.47287,-0.63907,0.856889,0.1188,-0.416977,-0.356926,1.83738,-0.529774,-21.9681,2.25287,27.6566,0.943315,-0.5015,0.129282,0.0591082,-1.54432,0.64351,3.31656,0.283152,-0.286145,0.378497
1412971,1,-1.64312,-0.552706,0.040318,-2.09157,1.5489,1.55281,0.880013,-1.64737,-0.555702,0.0433074,-2.08842,1.54776,1.55108,0.88512,-1.43302,-0.613443,0.825481,0.10977,-0.404052,-0.340601,1.78303,-1.48606,-0.645838,0.86573,0.120057,-0.420575,-0.360006,1.84979,-0.402821,-21.865,2.47901,27.6328,0.773943,-0.321141,0.071604,0.0270387,-1.49838,0.577496,3.3017,0.280373,-0.286122,0.372711
1412972,1,-1.6446,-0.553348,0.041175,-2.09145,1.54849,1.55245,0.881863,-1.64887,-0.556355,0.044182,-2.0883,1.54733,1.55071,0.886982,-1.41979,-0.618175,0.840743,0.111186,-0.403173,-0.341896,1.79219,-1.49925,-0.652607,0.874572,0.121314,-0.424173,-0.363085,1.8622,-0.176685,-21.8174,2.73291,27.5812,0.558794,-0.250646,0.135691,-0.0192271,-1.46187,0.490714,3.29261,0.279041,-0.284208,0.366942
1412973,1,-1.6461,-0.553972,0.0420194,-2.09133,1.54809,1.5521,0.883694,-1.65039,-0.557014,0.0450654,-2.08818,1.54691,1.55035,0.888856,-1.43515,-0.614087,0.842826,0.113395,-0.404204,-0.348848,1.80808,-1.51243,-0.659375,0.883414,0.122571,-0.427771,-0.366165,1.8746,0.0732535,-21.9165,3.11377,27.482,0.355547,-0.269872,0.240061,-0.0847635,-1.44565,0.378714,3.29287,0.278802,-0.279325,0.361258
1412974,1,-1.6476,-0.554621,0.0428904,-2.09121,1.54766,1.55174,0.885568,-1.65191,-0.557681,0.0459576,-2.08806,1.54648,1.54998,0.890743,-1.46786,-0.623026,0.851778,0.113301,-0.411213,-0.352399,1.81935,-1.52562,-0.666143,0.892256,0.123828,-0.431368,-0.369245,1.88701,0.454113,-21.9443,3.33991,27.4344,0.316179,-0.353185,0.265696,-0.155161,-1.45961,0.262435,3.30682,0.278759,-0.273281,0.35573
1412975,1,-1.64912,-0.555281,0.0437504,-2.09109,1.54722,1.55138,0.887467,-1.65345,-0.558353,0.0468587,-2.08793,1.54604,1.54961,0.892643,-1.4845,-0.630504,0.846875,0.114202,-0.416163,-0.354645,1.83432,-1.53881,-0.672912,0.901098,0.125085,-0.434966,-0.372324,1.89942,0.628673,-21.9165,3.76837,27.359,0.400408,-0.456639,0.252878,-0.208189,-1.49724,0.172964,3.3318,0.277669,-0.269095,0.350502
1412976,1,-1.65068,-0.555949,0.0446152,-2.09097,1.54677,1.55102,0.889349,-1.655,-0.559033,0.0477687,-2.0878,1.5456,1.54923,0.894555,-1.51327,-0.640589,0.851092,0.115873,-0.42498,-0.351975,1.84674,-1.55199,-0.67968,0.90994,0.126342,-0.438564,-0.375404,1.91183,1.05714,-21.7142,4.02228,27.3828,0.632951,-0.539952,0.187876,-0.229818,-1.5434,0.130985,3.36081,0.274591,-0.2688,0.345699
1412977,1,-1.65221,-0.55663,0.0454993,-2.09085,1.54632,1.55066,0.891272,-1.65656,-0.559719,0.0486872,-2.08768,1.54516,1.54885,0.896477,-1.51728,-0.647678,0.854503,0.115957,-0.432961,-0.35372,1.85318,-1.5631,-0.686323,0.918547,0.127576,-0.442037,-0.378377,1.92191,1.18409,-21.5872,4.177,27.4582,0.830705,-0.67545,0.135691,-0.218515,-1.58775,0.139041,3.389,0.269433,-0.272774,0.341355
1412978,1,-1.65377,-0.557307,0.0463704,-2.09073,1.54586,1.55031,0.893192,-1.65814,-0.560412,0.0496144,-2.08755,1.54471,1.54847,0.898409,-1.51951,-0.652193,0.86304,0.12005,-0.447429,-0.349714,1.88119,-1.57421,-0.692967,0.927154,0.12881,-0.445511,-0.38135,1.932,1.31105,-21.5634,4.45471,27.3828,1.05684,-0.952855,0.24647,-0.18703,-1.62751,0.178922,3.41506,0.263021,-0.279407,0.337407
1412979,1,-1.65534,-0.557975,0.0472493,-2.09059,1.54542,1.54995,0.895106,-1.65972,-0.561112,0.0505501,-2.08742,1.54426,1.54809,0.900351,-1.52577,-0.655985,0.867731,0.124705,-0.44396,-0.348016,1.89068,-1.58532,-0.69961,0.935761,0.130044,-0.448984,-0.384324,1.94208,1.33485,-21.6388,4.784,27.2083,1.09621,-1.08744,0.330698,-0.149916,-1.66512,0.229951,3.4389,0.256411,-0.287024,0.333777
1412980,1,-1.65694,-0.558656,0.0481619,-2.09046,1.54498,1.54956,0.897039,-1.66132,-0.561818,0.0514945,-2.08729,1.54381,1.5477,0.902303,-1.56229,-0.658515,0.87648,0.126819,-0.446144,-0.362657,1.89374,-1.59643,-0.706253,0.944369,0.131278,-0.452458,-0.387297,1.95217,1.96565,-21.7142,4.95856,27.0615,1.01106,-0.92722,0.466196,-0.108306,-1.70596,0.28909,3.4615,0.250303,-0.295932,0.330502
1412981,1,-1.65858,-0.559333,0.0490497,-2.09033,1.54455,1.54916,0.899004,-1.66293,-0.562531,0.0524475,-2.08715,1.54336,1.54731,0.904265,-1.57772,-0.664332,0.883809,0.12445,-0.440642,-0.374506,1.92819,-1.60754,-0.712897,0.952976,0.132511,-0.455931,-0.39027,1.96225,2.57264,-21.8174,5.4148,26.9623,0.825212,-0.694677,0.388376,-0.0551981,-1.75671,0.363411,3.48661,0.245059,-0.307256,0.327732
1412982,1,-1.66019,-0.560026,0.0499422,-2.0902,1.54412,1.54877,0.900978,-1.66455,-0.563251,0.0534091,-2.08702,1.5429,1.54692,0.906237,-1.59137,-0.668634,0.886119,0.124828,-0.431244,-0.384422,1.93327,-1.61865,-0.71954,0.961583,0.133745,-0.459405,-0.393243,1.97234,2.90193,-21.9165,6.02179,26.9107,0.627458,-0.624181,0.0459692,0.0109608,-1.81991,0.453822,3.51719,0.240705,-0.320841,0.325612
1412983,1,-1.66183,-0.560734,0.0508705,-2.09007,1.5437,1.5484,0.902959,-1.66618,-0.563977,0.0543792,-2.08688,1.54243,1.54652,0.90822,-1.60409,-0.677998,0.891222,0.122878,-0.425606,-0.378248,1.92914,-1.62976,-0.726183,0.97019,0.134979,-0.462878,-0.396216,1.98243,3.17567,-21.9165,6.25189,26.8354,0.316179,-0.72672,-0.116079,0.0882642,-1.89201,0.558374,3.55238,0.236865,-0.335843,0.324032
1412984,1,-1.66344,-0.561442,0.0517947,-2.08994,1.54326,1.54804,0.904924,-1.66782,-0.56471,0.055358,-2.08675,1.54197,1.54612,0.910212,-1.60397,-0.688571,0.899299,0.125526,-0.4304,-0.372924,1.94854,-1.64087,-0.732827,0.978797,0.136213,-0.466352,-0.39919,1.99251,2.7472,-21.8927,6.40265,26.8631,0.225542,-0.97849,-0.213125,0.171518,-1.9617,0.670481,3.58694,0.23298,-0.351133,0.322528
1412985,1,-1.66502,-0.562168,0.0527624,-2.0898,1.54282,1.54769,0.906929,-1.66947,-0.565449,0.0563454,-2.08661,1.5415,1.54572,0.912215,-1.59765,-0.693837,0.916841,0.128979,-0.433135,-0.357201,1.95941,-1.65198,-0.73947,0.987404,0.137447,-0.469825,-0.402163,2.0026,2.04103,-21.7658,6.25189,26.8116,0.270403,-1.32639,-0.310171,0.246171,-2.01767,0.76971,3.61462,0.228672,-0.364675,0.320545
1412986,1,-1.66668,-0.562907,0.0537456,-2.08966,1.54235,1.5473,0.908917,-1.67113,-0.566195,0.0573415,-2.08647,1.54102,1.54531,0.914228,-1.60932,-0.707604,0.943573,0.131684,-0.440932,-0.36666,1.96652,-1.66309,-0.746113,0.996011,0.138681,-0.473298,-0.405136,2.01268,1.94184,-21.4127,5.74408,26.7878,0.45717,-1.35843,-0.400808,0.294113,-2.0526,0.828738,3.63115,0.223968,-0.374283,0.317665
1412987,1,-1.66832,-0.563664,0.0547287,-2.08952,1.54188,1.54688,0.910942,-1.6728,-0.566948,0.0583458,-2.08633,1.54055,1.5449,0.916248,-1.65424,-0.717867,0.955545,0.133493,-0.452915,-0.386396,1.97565,-1.67173,-0.752602,1.00434,0.139886,-0.476646,-0.408001,2.02044,1.91804,-21.0318,5.61713,26.76,0.706194,-1.05539,-0.407217,0.314493,-2.05911,0.843035,3.63361,0.218872,-0.38023,0.313585
1412988,1,-1.66999,-0.564435,0.0557105,-2.08939,1.54142,1.54644,0.912966,-1.67448,-0.567707,0.0593585,-2.08619,1.54007,1.54449,0.918276,-1.65737,-0.732279,0.963438,0.1339,-0.455663,-0.40293,1.98094,-1.68038,-0.759092,1.01267,0.141091,-0.479993,-0.410866,2.02821,1.89027,-20.6272,5.69648,26.7878,0.807817,-0.662633,-0.246084,0.32243,-2.03316,0.83352,3.62125,0.21323,-0.384799,0.308093
1412989,1,-1.67168,-0.565179,0.0566841,-2.08925,1.54097,1.54601,0.914949,-1.67617,-0.568473,0.0603795,-2.08605,1.53958,1.54408,0.920312,-1.66204,-0.734673,0.962998,0.134571,-0.454488,-0.414458,1.98144,-1.68902,-0.765581,1.021,0.142296,-0.48334,-0.413731,2.03597,1.89027,-20.5518,5.77185,26.8116,0.683306,-0.373326,0.0844213,0.325234,-1.98033,0.815337,3.59744,0.207215,-0.388782,0.301194
1412990,1,-1.67336,-0.565927,0.0576615,-2.0891,1.54051,1.54561,0.91698,-1.67787,-0.569245,0.0614088,-2.08591,1.5391,1.54366,0.922356,-1.66297,-0.736205,0.962322,0.134515,-0.450637,-0.41186,1.97976,-1.69766,-0.77207,1.02933,0.143501,-0.486687,-0.416597,2.04373,1.94184,-20.7025,6.14875,26.7124,0.627458,-0.527135,0.291331,0.32536,-1.92155,0.798022,3.57189,0.201216,-0.392136,0.293253
1412991,1,-1.67507,-0.566669,0.0586383,-2.08896,1.54005,1.54522,0.919035,-1.67958,-0.570023,0.0624465,-2.08576,1.53861,1.54324,0.924407,-1.67234,-0.750194,0.972418,0.139158,-0.451373,-0.399491,2.01585,-1.70631,-0.778559,1.03767,0.144706,-0.490034,-0.419462,2.05149,2.27113,-20.8811,6.5296,26.7124,0.502947,-0.862218,0.330698,0.325717,-1.86905,0.788642,3.54944,0.195343,-0.395018,0.284965
1412992,1,-1.67676,-0.567433,0.0596496,-2.08882,1.53959,1.5448,0.921088,-1.68129,-0.570808,0.0634925,-2.08562,1.53811,1.54282,0.926467,-1.6781,-0.753462,0.985582,0.139422,-0.446997,-0.398396,2.02996,-1.71495,-0.785048,1.046,0.145912,-0.493381,-0.422327,2.05925,2.54884,-20.9326,6.78351,26.6608,0.372942,-1.00412,0.135691,0.323851,-1.81737,0.7826,3.52675,0.189535,-0.39708,0.277071
1412993,1,-1.67847,-0.56822,0.0606789,-2.0887,1.53912,1.54437,0.923186,-1.68302,-0.5716,0.0645468,-2.08547,1.53762,1.5424,0.928534,-1.67947,-0.759139,0.991614,0.134461,-0.452966,-0.415878,2.05371,-1.7236,-0.791537,1.05433,0.147117,-0.496729,-0.425192,2.06701,2.6996,-20.8057,6.96204,26.8631,0.355547,-0.92722,-0.135305,0.315078,-1.77176,0.770915,3.5076,0.183923,-0.397834,0.270011
1412994,1,-1.68019,-0.569003,0.0617042,-2.08856,1.53865,1.54393,0.925233,-1.68475,-0.572398,0.0656095,-2.08532,1.53712,1.54197,0.930608,-1.6785,-0.770871,1.00251,0.134684,-0.458648,-0.414562,2.04975,-1.73224,-0.798026,1.06266,0.148322,-0.500076,-0.428057,2.07478,2.85035,-20.6549,6.98584,26.9107,0.366533,-0.933629,-0.168264,0.295441,-1.73762,0.747132,3.49712,0.178586,-0.396825,0.263744
1412995,1,-1.68188,-0.569793,0.0627492,-2.08842,1.53815,1.54351,0.927304,-1.68649,-0.573202,0.0666805,-2.08517,1.53661,1.54154,0.932691,-1.69247,-0.774628,1.01286,0.140603,-0.467019,-0.415769,2.039,-1.74089,-0.804515,1.07099,0.149527,-0.503423,-0.430922,2.08254,2.87416,-20.6272,7.1128,26.8631,0.519426,-1.04258,-0.0712183,0.264658,-1.70853,0.709845,3.49194,0.173356,-0.394108,0.257917
1412996,1,-1.68363,-0.570584,0.063784,-2.08828,1.53765,1.54307,0.929355,-1.68824,-0.574013,0.0677598,-2.08502,1.53611,1.5411,0.934781,-1.71149,-0.781749,1.02627,0.138804,-0.491402,-0.416799,2.08726,-1.74953,-0.811004,1.07932,0.150732,-0.50677,-0.433787,2.0903,3.22725,-20.6549,7.23975,26.9107,0.599077,-1.14603,0.0194189,0.229186,-1.68412,0.665245,3.4901,0.168211,-0.390833,0.252207
1412997,1,-1.6854,-0.571373,0.064831,-2.08812,1.53716,1.54263,0.93144,-1.68999,-0.574831,0.0688471,-2.08487,1.5356,1.54067,0.936877,-1.72608,-0.786697,1.02417,0.146788,-0.491503,-0.426124,2.08266,-1.75559,-0.817315,1.08734,0.151904,-0.50999,-0.436543,2.09581,3.48115,-20.6549,7.56903,26.7124,0.62105,-1.15244,0.0972387,0.199893,-1.66773,0.627085,3.49201,0.163157,-0.388831,0.246507
1412998,1,-1.68712,-0.572177,0.0658791,-2.08797,1.53667,1.54217,0.933529,-1.69176,-0.575654,0.0699425,-2.08471,1.53508,1.54023,0.938978,-1.72727,-0.793277,1.02792,0.156437,-0.488359,-0.438893,2.06121,-1.76165,-0.823627,1.09536,0.153076,-0.513209,-0.439299,2.10132,3.42958,-20.6272,8.10065,26.6132,0.565202,-1.00412,0.316965,0.184105,-1.65476,0.608311,3.49173,0.157803,-0.389244,0.240944
1412999,1,-1.68887,-0.572987,0.0669294,-2.08782,1.53618,1.5417,0.935619,-1.69352,-0.576484,0.0710459,-2.08456,1.53457,1.53979,0.941085,-1.72771,-0.806555,1.03589,0.153238,-0.486824,-0.448535,2.07691,-1.76772,-0.829938,1.10338,0.154249,-0.516429,-0.442055,2.10683,3.40577,-20.4526,8.42993,26.5378,0.513933,-0.810948,0.304148,0.177774,-1.63454,0.606232,3.48222,0.151919,-0.391226,0.235822
1413000,1,-1.69061,-0.573812,0.0680137,-2.08768,1.53568,1.54125,0.937728,-1.6953,-0.57732,0.0721573,-2.0844,1.53405,1.53934,0.943198,-1.72466,-0.812654,1.05095,0.149524,-0.484069,-0.453888,2.06289,-1.77378,-0.83625,1.11141,0.155421,-0.519649,-0.444811,2.11234,3.33039,-20.2503,8.42993,26.514,0.428789,-0.855809,0.297739,0.168923,-1.6029,0.60394,3.46573,0.145948,-0.392556,0.231477
1413001,1,-1.69241,-0.574655,0.0691163,-2.08752,1.53516,1.54081,0.939892,-1.69708,-0.578163,0.0732767,-2.08425,1.53353,1.53889,0.945315,-1.73901,-0.821498,1.0644,0.152687,-0.496473,-0.452155,2.08655,-1.77984,-0.842561,1.11943,0.156593,-0.522868,-0.447567,2.11786,3.80647,-19.9964,8.40216,26.4148,0.451677,-1.01694,-0.141714,0.149576,-1.56505,0.587878,3.44862,0.140446,-0.391743,0.228115
1413002,1,-1.69421,-0.575487,0.0701999,-2.08738,1.53466,1.54035,0.942006,-1.69886,-0.579012,0.0744041,-2.08409,1.533,1.53844,0.947439,-1.75621,-0.827039,1.07688,0.146069,-0.495576,-0.446169,2.0959,-1.7859,-0.848872,1.12745,0.157765,-0.526088,-0.450323,2.12337,4.21113,-19.794,8.48151,26.5378,0.332659,-1.16526,-0.394399,0.12349,-1.52865,0.560121,3.43584,0.135602,-0.389419,0.225558
1413003,1,-1.69599,-0.576333,0.0712982,-2.08722,1.53417,1.53988,0.944128,-1.70066,-0.579867,0.0755396,-2.08393,1.53247,1.53799,0.949568,-1.76356,-0.833376,1.07969,0.158024,-0.49705,-0.456283,2.09115,-1.79196,-0.855184,1.13547,0.158937,-0.529308,-0.453079,2.12888,4.43727,-19.6671,8.78302,26.3871,0.174272,-1.08103,-0.407217,0.10003,-1.49876,0.532558,3.42889,0.131117,-0.387238,0.223155
1413004,1,-1.69779,-0.577172,0.0723813,-2.08706,1.53367,1.5394,0.946262,-1.70245,-0.580729,0.0766831,-2.08377,1.53194,1.53753,0.951702,-1.76948,-0.841019,1.06634,0.158696,-0.495588,-0.459869,2.12543,-1.79802,-0.861495,1.14349,0.160109,-0.532527,-0.455835,2.13439,4.66737,-19.5163,9.29084,26.2879,0.027788,-1.07462,-0.336721,0.0894952,-1.47208,0.523722,3.42216,0.125978,-0.386956,0.220138
