shamilmamedov/beam_handling/data/vibration_suppression_ICRA/aOCP_T1_0.44s.csv
duration, success rate, q[0], q[1], q[2], q[3], q[4], q[5], q[6],q_d[0], q_d[1], q_d[2], q_d[3], q_d[4], q_d[5], q_d[6],dq[0], dq[1], dq[2], dq[3], dq[4], dq[5], dq[6],dq_d[0], dq_d[1], dq_d[2], dq_d[3], dq_d[4], dq_d[5], dq_d[6],tau_J[0], tau_J[1], tau_J[2], tau_J[3], tau_J[4], tau_J[5], tau_J[6],tau_ext_hat_filtered[0], tau_ext_hat_filtered[1], tau_ext_hat_filtered[2], tau_ext_hat_filtered[3], tau_ext_hat_filtered[4], tau_ext_hat_filtered[5], tau_ext_hat_filtered[6]
3791402,0,-1.57078,-0.522805,-0.000276744,-2.09595,-1.5707,1.57151,0.785702,-1.5708,-0.523599,-2.73185e-08,-2.0944,-1.5708,1.5708,0.785399,0.000896455,-0.000199586,-0.000255768,0.00118356,-6.09681e-05,-5.04086e-06,0.00104845,0,0,0,0,0,0,0,-0.101307,-10.2646,0.578677,20.9439,-0.77513,-0.566503,-0.200308,-0.0651995,-1.13685,0.397404,2.46175,-0.211525,-0.565286,-0.211604
3791403,1,-1.57079,-0.522805,-0.00027698,-2.09595,-1.5707,1.57151,0.785702,-1.5708,-0.523599,-2.73185e-08,-2.0944,-1.5708,1.5708,0.785399,-0.000608789,-0.000133057,-0.000170512,0.000139426,-4.06454e-05,0.000471357,0.000461605,0,0,0,0,0,0,0,-0.0497324,-10.2646,0.578677,20.9717,-0.77513,-0.57932,-0.193899,-0.0665797,-1.13396,0.395501,2.45993,-0.211558,-0.56555,-0.2117
3791404,1,-1.57079,-0.522805,-0.000275388,-2.09595,-1.5707,1.57151,0.785694,-1.5708,-0.523599,-2.73185e-08,-2.0944,-1.5708,1.5708,0.785399,-0.000405859,-8.8705e-05,0.000443137,-0.00102067,-2.7097e-05,-0.000635198,-0.00257448,0,0,0,0,0,0,0,-0.0497324,-10.2646,0.554873,21.0193,-0.77513,-0.553685,-0.116079,-0.0669529,-1.13227,0.395049,2.45878,-0.211577,-0.565664,-0.21185
3791405,1,-1.57078,-0.522801,-0.000277085,-2.09595,-1.5707,1.57151,0.785699,-1.5708,-0.523599,-2.73185e-08,-2.0944,-1.5708,1.5708,0.785399,0.000379041,0.00114729,-0.000261387,0.000433175,-0.000221515,5.12528e-05,0.000928537,0,0,0,0,0,0,0,-0.0775034,-10.3162,0.578677,20.9717,-0.769636,-0.566503,-0.18749,-0.0668231,-1.13299,0.395312,2.45913,-0.211628,-0.565715,-0.21203
3791406,1,-1.57079,-0.522805,-0.000279042,-2.09594,-1.5707,1.57151,0.785696,-1.5708,-0.523599,-2.73185e-08,-2.0944,-1.5708,1.5708,0.785399,-0.000953732,-0.000441566,-0.000823872,0.00149521,5.57738e-05,0.000508886,0.000144307,0,0,0,0,0,0,0,-0.0259286,-10.2646,0.606448,20.9201,-0.77513,-0.57932,-0.174673,-0.0661613,-1.13482,0.396403,2.45964,-0.211655,-0.565692,-0.212197
3791407,1,-1.57079,-0.522807,-0.000277096,-2.09595,-1.57069,1.57151,0.785691,-1.5708,-0.523599,-2.73185e-08,-2.0944,-1.5708,1.5708,0.785399,-7.90093e-05,-0.00085119,0.000100366,-0.000766432,0.000477992,-0.000372819,-0.00159922,0,0,0,0,0,0,0,-0.0497324,-10.2408,0.578677,20.9955,-0.787031,-0.560094,-0.128897,-0.0647537,-1.13497,0.398531,2.45899,-0.211603,-0.565535,-0.212355
3791408,1,-1.57078,-0.522805,-0.000275427,-2.09595,-1.5707,1.57151,0.785696,-1.5708,-0.523599,-2.73185e-08,-2.0944,-1.5708,1.5708,0.785399,0.000596941,-1.06477e-05,0.000623723,-0.00106777,-0.000122148,-0.000248546,0.000866636,0,0,0,0,0,0,0,-0.0775034,-10.2646,0.554873,21.0193,-0.77513,-0.560094,-0.181082,-0.0637093,-1.13425,0.400057,2.45844,-0.211571,-0.565414,-0.212493
3791409,1,-1.57078,-0.522803,-0.000275427,-2.09595,-1.5707,1.57151,0.785697,-1.5708,-0.523599,-2.73185e-08,-2.0944,-1.5708,1.5708,0.785399,0.000954773,0.000642515,0.000415815,0.00040178,0.000122018,-0.000165697,0.000815116,0,0,0,0,0,0,0,-0.101307,-10.2924,0.554873,20.9717,-0.780623,-0.560094,-0.18749,-0.0640054,-1.13497,0.399687,2.45903,-0.211631,-0.565499,-0.212585
3791410,1,-1.57079,-0.522803,-0.000274967,-2.09595,-1.5707,1.57151,0.785693,-1.5708,-0.523599,-2.73185e-08,-2.0944,-1.5708,1.5708,0.785399,-0.000569911,0.000428344,-0.000279602,-0.000288959,-0.000122105,-0.000110465,-0.000880743,0,0,0,0,0,0,0,-0.0497324,-10.2924,0.578677,20.9955,-0.77513,-0.560094,-0.149038,-0.064873,-1.13727,0.398576,2.4602,-0.211731,-0.565673,-0.212651
3791411,1,-1.57078,-0.522805,-0.000276387,-2.09595,-1.5707,1.57151,0.785698,-1.5708,-0.523599,-2.73185e-08,-2.0944,-1.5708,1.5708,0.785399,0.000826485,-0.000364052,-0.000186401,-0.000749451,-0.000284854,-7.36433e-05,0.000124915,0,0,0,0,0,0,0,-0.101307,-10.2646,0.578677,21.0193,-0.769636,-0.560094,-0.168264,-0.0653056,-1.13997,0.398161,2.46154,-0.211825,-0.56576,-0.212714
3791412,1,-1.57079,-0.522807,-0.000276861,-2.09595,-1.5707,1.57151,0.785701,-1.5708,-0.523599,-2.73185e-08,-2.0944,-1.5708,1.5708,0.785399,-0.000655436,-0.000799513,-0.000124268,-0.000499634,0.000454357,0.000662981,0.000795353,0,0,0,0,0,0,0,-0.0497324,-10.2408,0.578677,21.0193,-0.787031,-0.57932,-0.18749,-0.0653167,-1.14149,0.398391,2.46262,-0.211894,-0.565744,-0.21277
3791413,1,-1.57078,-0.522807,-0.000276837,-2.09595,-1.57069,1.57151,0.785694,-1.5708,-0.523599,-2.73185e-08,-2.0944,-1.5708,1.5708,0.785399,0.000212657,-0.000533009,-0.000732459,0.000780534,0.000302905,-0.000507448,-0.000893918,0,0,0,0,0,0,0,-0.0775034,-10.2408,0.606448,20.9717,-0.787031,-0.553685,-0.149038,-0.0648411,-1.14078,0.399314,2.46263,-0.211908,-0.565613,-0.212827
3791414,1,-1.57079,-0.522807,-0.00027831,-2.09595,-1.5707,1.57151,0.785694,-1.5708,-0.523599,-2.73185e-08,-2.0944,-1.5708,1.5708,0.785399,-0.000507843,-0.000355339,-0.000488306,0.000520356,-3.54223e-05,-0.00010094,-0.000358586,0,0,0,0,0,0,0,-0.0497324,-10.2408,0.606448,20.9717,-0.780623,-0.560094,-0.155447,-0.0637392,-1.13822,0.401159,2.46131,-0.211858,-0.565359,-0.212895
3791415,1,-1.57078,-0.522805,-0.000276852,-2.09595,-1.57069,1.57151,0.785696,-1.5708,-0.523599,-2.73185e-08,-2.0944,-1.5708,1.5708,0.785399,0.000311052,0.000319919,0.000324077,-0.00132353,0.000213744,0.000170066,0.000473019,0,0,0,0,0,0,0,-0.0775034,-10.2646,0.578677,21.0431,-0.787031,-0.566503,-0.174673,-0.0626351,-1.1361,0.403063,2.46011,-0.211827,-0.565102,-0.212949
3791416,1,-1.57079,-0.522807,-0.000274885,-2.09595,-1.5707,1.57151,0.785692,-1.5708,-0.523599,-2.73185e-08,-2.0944,-1.5708,1.5708,0.785399,-0.000442246,-0.000343532,0.000216051,-0.000882354,-0.000298313,0.000588095,-0.000905357,0,0,0,0,0,0,0,-0.0497324,-10.2408,0.578677,21.0431,-0.77513,-0.57932,-0.141714,-0.0622013,-1.13613,0.404033,2.4605,-0.211895,-0.564968,-0.212971
3791417,1,-1.57078,-0.522803,-0.00027469,-2.09595,-1.5707,1.57151,0.785696,-1.5708,-0.523599,-2.73185e-08,-2.0944,-1.5708,1.5708,0.785399,0.000911595,0.000977404,0.000700846,-3.14243e-05,-0.000198876,-8.26545e-05,0.000617132,0,0,0,0,0,0,0,-0.101307,-10.2924,0.554873,21.0193,-0.77513,-0.566503,-0.174673,-0.062641,-1.13785,0.403758,2.46204,-0.212041,-0.564994,-0.212964
3791418,1,-1.57079,-0.522803,-0.000276852,-2.09595,-1.5707,1.57151,0.785693,-1.5708,-0.523599,-2.73185e-08,-2.0944,-1.5708,1.5708,0.785399,-0.000598696,0.000651603,-8.95813e-05,-2.09496e-05,7.08668e-05,-0.000292462,-0.000538015,0,0,0,0,0,0,0,-0.0497324,-10.2924,0.578677,21.0193,-0.780623,-0.560094,-0.149038,-0.0636401,-1.1409,0.402707,2.46396,-0.212216,-0.565137,-0.212929
3791419,1,-1.57078,-0.522807,-0.000273675,-2.09595,-1.57069,1.57151,0.785698,-1.5708,-0.523599,-2.73185e-08,-2.0944,-1.5708,1.5708,0.785399,0.000250483,-0.000772024,0.0010539,0.000542846,0.000691505,4.23843e-05,0.00130284,0,0,0,0,0,0,0,-0.0775034,-10.2408,0.53107,20.9955,-0.798018,-0.566503,-0.193899,-0.0646904,-1.14343,0.401514,2.4653,-0.212368,-0.565291,-0.212874
3791420,1,-1.57078,-0.522807,-0.00027707,-2.09595,-1.5707,1.57151,0.785697,-1.5708,-0.523599,-2.73185e-08,-2.0944,-1.5708,1.5708,0.785399,0.000166989,-0.000514683,-0.000411022,0.000361897,-0.000386708,-0.000446462,0.000631199,0,0,0,0,0,0,0,-0.0775034,-10.2408,0.578677,20.9955,-0.77513,-0.553685,-0.18749,-0.065696,-1.14301,0.400254,2.46498,-0.212465,-0.565405,-0.212822
3791421,1,-1.57078,-0.522803,-0.000277089,-2.09595,-1.5707,1.57151,0.785697,-1.5708,-0.523599,-2.73185e-08,-2.0944,-1.5708,1.5708,0.785399,0.000668138,0.000863304,-0.000274015,0.00144769,-5.43545e-05,-6.02822e-05,-0.000528637,0,0,0,0,0,0,0,-0.101307,-10.2924,0.578677,20.9439,-0.780623,-0.560094,-0.161856,-0.0664115,-1.1409,0.399456,2.4635,-0.212519,-0.565447,-0.212801
3791422,1,-1.57079,-0.522805,-0.000275424,-2.09595,-1.5707,1.57151,0.785692,-1.5708,-0.523599,-2.73185e-08,-2.0944,-1.5708,1.5708,0.785399,-0.00131781,-7.40779e-05,0.000374136,-0.000798111,-0.000646588,0.00043453,-0.00133577,0,0,0,0,0,0,0,-0.0259286,-10.2646,0.554873,21.0193,-0.764143,-0.572911,-0.135305,-0.0665973,-1.13963,0.399491,2.46222,-0.212564,-0.565408,-0.212819
3791423,1,-1.57078,-0.522807,-0.000277097,-2.09595,-1.5707,1.57151,0.785697,-1.5708,-0.523599,-2.73185e-08,-2.0944,-1.5708,1.5708,0.785399,0.000327884,-0.000606197,-0.000307388,2.47381e-05,-2.41575e-05,-0.000185031,0.00104227,0,0,0,0,0,0,0,-0.0775034,-10.2408,0.578677,20.9955,-0.77513,-0.560094,-0.18749,-0.0663054,-1.13895,0.400136,2.46162,-0.212615,-0.565293,-0.212847
3791424,1,-1.57079,-0.522807,-0.000275427,-2.09594,-1.57069,1.57151,0.785696,-1.5708,-0.523599,-2.73185e-08,-2.0944,-1.5708,1.5708,0.785399,-0.000431024,-0.000404131,0.000351886,0.00122292,0.000628155,0.000114005,0.000220127,0,0,0,0,0,0,0,-0.0497324,-10.2408,0.554873,20.9439,-0.792525,-0.566503,-0.174673,-0.0658356,-1.1371,0.400938,2.46069,-0.212638,-0.565134,-0.212867
3791425,1,-1.57078,-0.522805,-0.000269677,-2.09595,-1.5707,1.57151,0.785691,-1.5708,-0.523599,-2.73185e-08,-2.0944,-1.5708,1.5708,0.785399,0.000362264,0.000287391,0.00144102,-0.00215439,-2.20395e-05,-0.000161356,-0.00154867,0,0,0,0,0,0,0,-0.0775034,-10.2646,0.503299,21.0709,-0.780623,-0.560094,-0.128897,-0.065983,-1.13519,0.40073,2.45987,-0.212676,-0.565068,-0.212887
3791426,1,-1.57078,-0.522805,-0.000274717,-2.09595,-1.5707,1.57151,0.785698,-1.5708,-0.523599,-2.73185e-08,-2.0944,-1.5708,1.5708,0.785399,0.00024151,0.000191594,-0.000245748,-0.000786643,-0.000218144,-0.000107571,0.00137505,0,0,0,0,0,0,0,-0.0775034,-10.2646,0.554873,21.0431,-0.77513,-0.560094,-0.193899,-0.0669537,-1.13583,0.399271,2.46104,-0.212818,-0.565148,-0.212896
3791427,1,-1.57079,-0.522805,-0.00027473,-2.09595,-1.5707,1.57151,0.785696,-1.5708,-0.523599,-2.73185e-08,-2.0944,-1.5708,1.5708,0.785399,-0.000488608,0.000127729,-0.000720644,0.000589195,-0.00034888,0.000165645,0.000204624,0,0,0,0,0,0,0,-0.0497324,-10.2646,0.578677,20.9955,-0.769636,-0.566503,-0.174673,-0.067506,-1.13788,0.398465,2.46317,-0.212981,-0.565178,-0.212883
3791428,1,-1.57078,-0.522805,-0.000278257,-2.09595,-1.5707,1.57151,0.785689,-1.5708,-0.523599,-2.73185e-08,-2.0944,-1.5708,1.5708,0.785399,0.000323876,8.51529e-05,-0.00113004,0.000392797,0.000174315,0.000347789,-0.00203372,0,0,0,0,0,0,0,-0.0775034,-10.2646,0.606448,20.9955,-0.780623,-0.572911,-0.116079,-0.0667837,-1.1391,0.399576,2.46436,-0.213052,-0.565009,-0.212877
3791429,1,-1.57078,-0.522809,-0.000276835,-2.09595,-1.5707,1.57151,0.785697,-1.5708,-0.523599,-2.73185e-08,-2.0944,-1.5708,1.5708,0.785399,0.000215917,-0.00114966,-0.000103748,-0.000294947,-8.72407e-05,0.000231859,0.00128904,0,0,0,0,0,0,0,-0.0775034,-10.213,0.578677,21.0193,-0.77513,-0.572911,-0.18749,-0.0655149,-1.13866,0.401546,2.46444,-0.213043,-0.564747,-0.212874
3791430,1,-1.57079,-0.522807,-0.000278959,-2.09595,-1.57069,1.57151,0.785699,-1.5708,-0.523599,-2.73185e-08,-2.0944,-1.5708,1.5708,0.785399,-0.000505669,-0.000116824,-0.000718779,0.000916992,0.000382649,-0.000320145,0.000384643,0,0,0,0,0,0,0,-0.0497324,-10.2408,0.606448,20.9717,-0.787031,-0.560094,-0.174673,-0.0642694,-1.1363,0.403473,2.46354,-0.212991,-0.564479,-0.212849
3791431,1,-1.57078,-0.522803,-0.000275398,-2.09595,-1.5707,1.57151,0.785695,-1.5708,-0.523599,-2.73185e-08,-2.0944,-1.5708,1.5708,0.785399,0.000869313,0.00112854,0.00072724,5.45163e-05,-0.00018571,2.3929e-05,-0.000455648,0,0,0,0,0,0,0,-0.101307,-10.2924,0.554873,20.9955,-0.77513,-0.566503,-0.155447,-0.0634395,-1.13426,0.404798,2.46256,-0.212946,-0.564295,-0.21281
3791432,1,-1.57078,-0.522803,-0.000275417,-2.09595,-1.5707,1.57151,0.785694,-1.5708,-0.523599,-2.73185e-08,-2.0944,-1.5708,1.5708,0.785399,0.000579542,0.000752362,0.000484826,-0.00107728,-0.000327257,-0.000221406,-0.000303765,0,0,0,0,0,0,0,-0.101307,-10.2924,0.554873,21.0431,-0.769636,-0.560094,-0.155447,-0.0639064,-1.13541,0.404344,2.46314,-0.212995,-0.564351,-0.212768
3791433,1,-1.57079,-0.522805,-0.000279043,-2.09595,-1.57069,1.57151,0.785699,-1.5708,-0.523599,-2.73185e-08,-2.0944,-1.5708,1.5708,0.785399,-0.000820065,-0.000148039,-0.000883208,0.00160186,0.000426088,8.97547e-05,0.001459,0,0,0,0,0,0,0,-0.0497324,-10.2646,0.606448,20.9439,-0.787031,-0.566503,-0.200308,-0.064843,-1.13809,0.403284,2.46456,-0.213085,-0.564493,-0.212718
3791434,1,-1.57079,-0.522805,-0.000274966,-2.09595,-1.5707,1.57151,0.785691,-1.5708,-0.523599,-2.73185e-08,-2.0944,-1.5708,1.5708,0.785399,-0.00054671,-9.86928e-05,6.08084e-05,0.00106791,-0.00015675,0.000534554,-0.00143483,0,0,0,0,0,0,0,-0.0497324,-10.2646,0.578677,20.9439,-0.77513,-0.57932,-0.135305,-0.064797,-1.13864,0.403595,2.46444,-0.213084,-0.564464,-0.212679
3791435,1,-1.57079,-0.522805,-0.000273046,-2.09595,-1.5707,1.57151,0.785692,-1.5708,-0.523599,-2.73185e-08,-2.0944,-1.5708,1.5708,0.785399,-0.000364473,-6.57952e-05,0.00115416,0.000711939,9.89502e-05,-0.000118348,-0.000719194,0,0,0,0,0,0,0,-0.0497324,-10.2646,0.53107,20.9439,-0.780623,-0.566503,-0.141714,-0.0645103,-1.13699,0.404088,2.46276,-0.213018,-0.564388,-0.212661
3791436,1,-1.57079,-0.522803,-0.00027352,-2.09595,-1.5707,1.57151,0.785697,-1.5708,-0.523599,-2.73185e-08,-2.0944,-1.5708,1.5708,0.785399,-0.000242982,0.00060575,0.000769442,-0.00128861,-0.000340934,-7.88989e-05,0.00121596,0,0,0,0,0,0,0,-0.0497324,-10.2924,0.53107,21.0193,-0.769636,-0.566503,-0.18749,-0.0650128,-1.13588,0.403252,2.46159,-0.213005,-0.564455,-0.212628
3791437,1,-1.57079,-0.522805,-0.000275348,-2.09595,-1.5707,1.57151,0.785693,-1.5708,-0.523599,-2.73185e-08,-2.0944,-1.5708,1.5708,0.785399,-0.000161988,-0.00024578,-4.38507e-05,0.000254549,-0.00043074,-0.000289958,-0.000613515,0,0,0,0,0,0,0,-0.0497324,-10.2646,0.554873,20.9717,-0.764143,-0.560094,-0.149038,-0.0658506,-1.13643,0.401834,2.46182,-0.213062,-0.564604,-0.21256
3791438,1,-1.57078,-0.522803,-0.00027373,-2.09595,-1.5707,1.57151,0.785699,-1.5708,-0.523599,-2.73185e-08,-2.0944,-1.5708,1.5708,0.785399,0.00109843,0.00048576,0.000527578,-0.00215035,0.00056055,0.000281412,0.000540426,0,0,0,0,0,0,0,-0.101307,-10.2924,0.53107,21.0709,-0.787031,-0.572911,-0.174673,-0.0667431,-1.13811,0.400358,2.46316,-0.213154,-0.564775,-0.212476
3791439,1,-1.57078,-0.522803,-0.000275418,-2.09595,-1.5707,1.57151,0.785698,-1.5708,-0.523599,-2.73185e-08,-2.0944,-1.5708,1.5708,0.785399,0.000175477,0.00032384,-0.000205093,0.000886483,-6.71091e-05,-0.00028711,0.000835002,0,0,0,0,0,0,0,-0.0775034,-10.2924,0.554873,20.9717,-0.77513,-0.560094,-0.18749,-0.0678903,-1.14075,0.398602,2.46528,-0.213266,-0.564992,-0.21239
3791440,1,-1.57079,-0.522805,-0.000271623,-2.09595,-1.57069,1.57151,0.785694,-1.5708,-0.523599,-2.73185e-08,-2.0944,-1.5708,1.5708,0.785399,-0.00108944,-0.00043372,0.000420083,0.000590989,0.000599521,-0.000191406,-0.000630127,0,0,0,0,0,0,0,-0.0259286,-10.2646,0.53107,20.9717,-0.792525,-0.560094,-0.155447,-0.068597,-1.14237,0.397411,2.46647,-0.213323,-0.565129,-0.212325
3791441,1,-1.57079,-0.522805,-0.000272586,-2.09595,-1.5707,1.57151,0.785697,-1.5708,-0.523599,-2.73185e-08,-2.0944,-1.5708,1.5708,0.785399,-0.000169482,-0.000289147,-0.000276757,-0.000162819,-4.11291e-05,-0.000364963,0.00076671,0,0,0,0,0,0,0,-0.0497324,-10.2646,0.554873,20.9955,-0.780623,-0.553685,-0.18749,-0.0683451,-1.14161,0.397371,2.46599,-0.213297,-0.565088,-0.212297
3791442,1,-1.57078,-0.522805,-0.00027448,-2.09595,-1.5707,1.57151,0.785697,-1.5708,-0.523599,-2.73185e-08,-2.0944,-1.5708,1.5708,0.785399,0.000536626,-0.000192765,-0.000184504,-0.000108546,-0.00023087,0.000231409,-0.000438296,0,0,0,0,0,0,0,-0.0775034,-10.2646,0.554873,20.9955,-0.77513,-0.566503,-0.161856,-0.0676556,-1.13989,0.397877,2.46506,-0.213258,-0.564957,-0.2123
3791443,1,-1.57079,-0.522805,-0.000273441,-2.09595,-1.5707,1.57151,0.785695,-1.5708,-0.523599,-2.73185e-08,-2.0944,-1.5708,1.5708,0.785399,-0.000291863,-0.00012851,0.000433809,-0.000629176,-0.000153913,0.000391632,-0.000292197,0,0,0,0,0,0,0,-0.0497324,-10.2646,0.53107,21.0193,-0.77513,-0.572911,-0.161856,-0.0671602,-1.13846,0.398113,2.46445,-0.213245,-0.564848,-0.21233
3791444,1,-1.57079,-0.522805,-0.000274862,-2.09595,-1.5707,1.57151,0.785696,-1.5708,-0.523599,-2.73185e-08,-2.0944,-1.5708,1.5708,0.785399,-0.000194576,-8.56732e-05,-0.000824418,-0.000419451,-0.000102609,2.37288e-05,0.00027992,0,0,0,0,0,0,0,-0.0497324,-10.2646,0.578677,21.0193,-0.77513,-0.566503,-0.174673,-0.0666494,-1.13773,0.39834,2.46441,-0.213256,-0.564742,-0.212374
3791445,1,-1.57079,-0.522803,-0.000270881,-2.09595,-1.5707,1.57151,0.785696,-1.5708,-0.523599,-2.73185e-08,-2.0944,-1.5708,1.5708,0.785399,-0.000686529,0.000592498,0.000564012,0.00083399,-6.84059e-05,-0.000458899,0.000423972,0,0,0,0,0,0,0,-0.0259286,-10.2924,0.53107,20.9717,-0.77513,-0.553685,-0.181082,-0.0657265,-1.13765,0.399098,2.4646,-0.21326,-0.564588,-0.212422
3791446,1,-1.57079,-0.522801,-0.000276139,-2.09595,-1.5707,1.57151,0.785691,-1.5708,-0.523599,-2.73185e-08,-2.0944,-1.5708,1.5708,0.785399,9.9126e-05,0.000951811,-0.000737616,-0.000557631,-4.56039e-05,0.000168785,-0.00141277,0,0,0,0,0,0,0,-0.0497324,-10.3162,0.578677,21.0193,-0.77513,-0.566503,-0.135305,-0.0646409,-1.13883,0.400028,2.46503,-0.21326,-0.564433,-0.212479
3791447,1,-1.57079,-0.522803,-0.000275108,-2.09595,-1.5707,1.57151,0.785695,-1.5708,-0.523599,-2.73185e-08,-2.0944,-1.5708,1.5708,0.785399,6.6084e-05,7.77287e-05,6.5068e-05,0.00074187,0.000173048,0.000112524,0.000278855,0,0,0,0,0,0,0,-0.0497324,-10.2924,0.554873,20.9717,-0.780623,-0.566503,-0.168264,-0.0636541,-1.14114,0.400824,2.46582,-0.213263,-0.564309,-0.21254
3791448,1,-1.57078,-0.522805,-0.000276991,-2.09595,-1.5707,1.57151,0.785696,-1.5708,-0.523599,-2.73185e-08,-2.0944,-1.5708,1.5708,0.785399,0.00069367,-0.000597795,-0.000513433,-6.22318e-05,-8.80853e-05,7.50158e-05,0.000660621,0,0,0,0,0,0,0,-0.0775034,-10.2646,0.578677,20.9955,-0.77513,-0.566503,-0.181082,-0.062979,-1.14231,0.401194,2.46596,-0.213244,-0.564221,-0.212585
3791449,1,-1.57078,-0.522805,-0.000274932,-2.09595,-1.57069,1.57151,0.78569,-1.5708,-0.523599,-2.73185e-08,-2.0944,-1.5708,1.5708,0.785399,0.000462447,-0.00039853,-0.000342289,-0.0005983,0.000382086,-0.000424707,-0.00172972,0,0,0,0,0,0,0,-0.0775034,-10.2646,0.578677,21.0193,-0.787031,-0.553685,-0.122488,-0.0626439,-1.14155,0.40113,2.46534,-0.213208,-0.564158,-0.212618
3791450,1,-1.57078,-0.522805,-0.000276376,-2.09595,-1.5707,1.57151,0.785696,-1.5708,-0.523599,-2.73185e-08,-2.0944,-1.5708,1.5708,0.785399,0.00086511,-0.000265687,-0.000228193,0.000157945,-0.000186085,0.00019158,0.00077963,0,0,0,0,0,0,0,-0.101307,-10.2646,0.578677,20.9955,-0.77513,-0.566503,-0.174673,-0.0626154,-1.14005,0.400756,2.46468,-0.213182,-0.564117,-0.212634
3791451,1,-1.57078,-0.522803,-0.000274726,-2.09595,-1.5707,1.57151,0.785698,-1.5708,-0.523599,-2.73185e-08,-2.0944,-1.5708,1.5708,0.785399,1.99278e-05,0.00047249,-0.000152128,0.000105297,-0.000327508,0.00012772,0.00146919,0,0,0,0,0,0,0,-0.0775034,-10.2924,0.578677,20.9955,-0.769636,-0.566503,-0.200308,-0.0628951,-1.13883,0.400092,2.46413,-0.213173,-0.564116,-0.212614
3791452,1,-1.57079,-0.522801,-0.000272506,-2.09595,-1.5707,1.57151,0.78569,-1.5708,-0.523599,-2.73185e-08,-2.0944,-1.5708,1.5708,0.785399,-0.000636329,0.000871805,0.000455393,7.0198e-05,0.000188563,0.000322505,-0.00190276,0,0,0,0,0,0,0,-0.0497324,-10.3162,0.554873,20.9955,-0.780623,-0.572911,-0.122488,-0.0632143,-1.13914,0.399455,2.4641,-0.213182,-0.564137,-0.212574
3791453,1,-1.57079,-0.522805,-0.000272783,-2.09595,-1.5707,1.57151,0.785696,-1.5708,-0.523599,-2.73185e-08,-2.0944,-1.5708,1.5708,0.785399,-0.000424219,-0.000625223,0.000860407,4.67986e-05,0.000125708,-2.23553e-05,0.000664276,0,0,0,0,0,0,0,-0.0497324,-10.2646,0.53107,20.9955,-0.780623,-0.566503,-0.174673,-0.0635866,-1.14037,0.398655,2.46444,-0.213203,-0.56418,-0.21254
3791454,1,-1.57079,-0.522803,-0.000275103,-2.09595,-1.5707,1.57151,0.7857,-1.5708,-0.523599,-2.73185e-08,-2.0944,-1.5708,1.5708,0.785399,-0.000839625,0.000232799,1.67929e-05,3.11991e-05,-0.000323095,0.000222455,0.000917568,0,0,0,0,0,0,0,-0.0259286,-10.2924,0.554873,20.9955,-0.769636,-0.572911,-0.18749,-0.0639316,-1.14076,0.397729,2.4644,-0.213212,-0.564223,-0.212496
3791455,1,-1.57078,-0.522801,-0.000274859,-2.09595,-1.5707,1.57151,0.785692,-1.5708,-0.523599,-2.73185e-08,-2.0944,-1.5708,1.5708,0.785399,0.00120349,0.000712011,-0.000545617,2.07994e-05,-1.19464e-05,0.000148304,-0.00132107,0,0,0,0,0,0,0,-0.101307,-10.3162,0.578677,20.9955,-0.77513,-0.572911,-0.135305,-0.0640223,-1.14125,0.397203,2.46441,-0.213214,-0.564246,-0.212447
3791456,1,-1.57078,-0.522803,-0.00027255,-2.09595,-1.5707,1.57151,0.785698,-1.5708,-0.523599,-2.73185e-08,-2.0944,-1.5708,1.5708,0.785399,0.000245513,-8.21378e-05,0.000193068,1.38663e-05,-7.96427e-06,-0.00013849,0.000339991,0,0,0,0,0,0,0,-0.0775034,-10.2924,0.554873,20.9955,-0.77513,-0.566503,-0.168264,-0.0642275,-1.14262,0.396725,2.46481,-0.21322,-0.564311,-0.212406
3791457,1,-1.57078,-0.522805,-0.000274008,-2.09595,-1.57069,1.57151,0.785698,-1.5708,-0.523599,-2.73185e-08,-2.0944,-1.5708,1.5708,0.785399,0.000163676,-0.000704372,-0.0004281,9.24418e-06,0.0004355,0.000145032,0.000938738,0,0,0,0,0,0,0,-0.0775034,-10.2646,0.578677,20.9955,-0.787031,-0.572911,-0.18749,-0.0645643,-1.14312,0.39617,2.46484,-0.213208,-0.564395,-0.212361
3791458,1,-1.57078,-0.52281,-0.000272727,-2.09595,-1.5707,1.57151,0.785692,-1.5708,-0.523599,-2.73185e-08,-2.0944,-1.5708,1.5708,0.785399,0.000109117,-0.00223282,0.000828224,-0.000550649,5.29744e-05,-0.000140671,-0.00130695,0,0,0,0,0,0,0,-0.0775034,-10.1892,0.53107,21.0193,-0.780623,-0.566503,-0.135305,-0.0648804,-1.14065,0.39559,2.46372,-0.213159,-0.564446,-0.212323
3791459,1,-1.57079,-0.522807,-0.000276754,-2.09595,-1.5707,1.57151,0.785696,-1.5708,-0.523599,-2.73185e-08,-2.0944,-1.5708,1.5708,0.785399,-0.00113368,-0.00028212,-0.000561475,0.000189713,-0.000168134,0.000143578,-0.000362677,0,0,0,0,0,0,0,-0.0259286,-10.2408,0.578677,20.9955,-0.77513,-0.572911,-0.149038,-0.0649712,-1.13548,0.395208,2.46161,-0.213079,-0.564435,-0.212297
3791460,1,-1.57079,-0.522805,-0.000273642,-2.09595,-1.5707,1.5715,0.785697,-1.5708,-0.523599,-2.73185e-08,-2.0944,-1.5708,1.5708,0.785399,-0.000755787,0.000368732,0.000739307,0.000126475,9.1361e-05,-0.000887625,0.00094501,0,0,0,0,0,0,0,-0.0259286,-10.2646,0.53107,20.9955,-0.780623,-0.546361,-0.181082,-0.0643862,-1.13109,0.395688,2.4598,-0.213,-0.564344,-0.212252
3791461,1,-1.57079,-0.522803,-0.000279008,-2.09595,-1.5707,1.57151,0.785692,-1.5708,-0.523599,-2.73185e-08,-2.0944,-1.5708,1.5708,0.785399,-0.000503858,0.000895435,-0.00127037,8.43167e-05,-0.000142543,0.000628953,-0.000828055,0,0,0,0,0,0,0,-0.0259286,-10.2924,0.606448,20.9955,-0.77513,-0.57932,-0.141714,-0.0631936,-1.13003,0.397034,2.45933,-0.212959,-0.564211,-0.212172
3791462,1,-1.57078,-0.522803,-0.000271614,-2.09594,-1.5707,1.57151,0.785697,-1.5708,-0.523599,-2.73185e-08,-2.0944,-1.5708,1.5708,0.785399,0.00198414,0.000596957,0.000916327,0.00126264,0.000108422,-5.54159e-05,0.00114338,0,0,0,0,0,0,0,-0.125111,-10.2924,0.53107,20.9439,-0.780623,-0.566503,-0.18749,-0.0623692,-1.13168,0.397995,2.45976,-0.212956,-0.564174,-0.212077
3791463,1,-1.57078,-0.522807,-0.000276383,-2.09595,-1.5707,1.57151,0.785696,-1.5708,-0.523599,-2.73185e-08,-2.0944,-1.5708,1.5708,0.785399,0.000765951,-0.000808455,-0.000502739,0.000192144,-0.00053807,-0.000274303,0.000524897,0,0,0,0,0,0,0,-0.101307,-10.2408,0.578677,20.9717,-0.764143,-0.560094,-0.181082,-0.0629371,-1.13325,0.397132,2.45973,-0.212972,-0.564347,-0.211981
3791464,1,-1.57079,-0.522803,-0.000275189,-2.09595,-1.5707,1.57151,0.785691,-1.5708,-0.523599,-2.73185e-08,-2.0944,-1.5708,1.5708,0.785399,-0.000695792,0.000667456,0.000221652,-0.000985528,4.81874e-05,5.44904e-05,-0.00134549,0,0,0,0,0,0,0,-0.0497324,-10.2924,0.554873,21.0193,-0.77513,-0.566503,-0.135305,-0.0639356,-1.13414,0.395728,2.45959,-0.212994,-0.564563,-0.211907
3791465,1,-1.57078,-0.522805,-0.000277018,-2.09595,-1.5707,1.57151,0.785698,-1.5708,-0.523599,-2.73185e-08,-2.0944,-1.5708,1.5708,0.785399,0.000185753,-0.000204643,-0.000409044,-0.000657019,0.000235575,-0.000201032,0.00127315,0,0,0,0,0,0,0,-0.0775034,-10.2646,0.578677,21.0193,-0.780623,-0.560094,-0.193899,-0.0642657,-1.13606,0.395304,2.46064,-0.213035,-0.564666,-0.211852
3791466,1,-1.57079,-0.522805,-0.000274941,-2.09595,-1.5707,1.57151,0.785694,-1.5708,-0.523599,-2.73185e-08,-2.0944,-1.5708,1.5708,0.785399,-0.000525779,-0.000136429,-0.000272696,-0.000438012,-4.64002e-05,0.000340697,-0.000338031,0,0,0,0,0,0,0,-0.0497324,-10.2646,0.578677,21.0193,-0.77513,-0.572911,-0.161856,-0.0640235,-1.13837,0.395727,2.46233,-0.213077,-0.564667,-0.211805
3791467,1,-1.57078,-0.522807,-0.000276379,-2.09595,-1.5707,1.57151,0.785691,-1.5708,-0.523599,-2.73185e-08,-2.0944,-1.5708,1.5708,0.785399,0.000299095,-0.000647765,-0.000181797,-0.000292008,-3.09335e-05,-1.02279e-05,-0.00144606,0,0,0,0,0,0,0,-0.0775034,-10.2408,0.578677,21.0193,-0.77513,-0.566503,-0.128897,-0.0634688,-1.13951,0.396614,2.46359,-0.213087,-0.564597,-0.211781
3791468,1,-1.57079,-0.522803,-0.000278807,-2.09595,-1.5707,1.57151,0.785697,-1.5708,-0.523599,-2.73185e-08,-2.0944,-1.5708,1.5708,0.785399,-0.000450217,0.000774583,-0.000770812,0.00156857,0.000420187,-0.000244178,0.0012061,0,0,0,0,0,0,0,-0.0497324,-10.2924,0.606448,20.9439,-0.787031,-0.560094,-0.18749,-0.0627387,-1.13949,0.397788,2.46392,-0.213049,-0.564487,-0.211767
3791469,1,-1.57078,-0.522803,-0.000276836,-2.09595,-1.5707,1.57151,0.785698,-1.5708,-0.523599,-2.73185e-08,-2.0944,-1.5708,1.5708,0.785399,0.000349469,0.000516389,-0.000513875,-0.000160715,-0.000160685,-0.000162785,0.00104143,0,0,0,0,0,0,0,-0.0775034,-10.2924,0.606448,20.9955,-0.77513,-0.560094,-0.193899,-0.0617648,-1.13968,0.399431,2.46367,-0.212981,-0.564344,-0.211738
3791470,1,-1.57078,-0.522803,-0.000276179,-2.09595,-1.5707,1.57151,0.785691,-1.5708,-0.523599,-2.73185e-08,-2.0944,-1.5708,1.5708,0.785399,0.000789791,0.000344259,-0.000342583,-0.000107144,9.63274e-05,0.000128836,-0.00171321,0,0,0,0,0,0,0,-0.101307,-10.2924,0.606448,20.9955,-0.780623,-0.566503,-0.128897,-0.0610693,-1.14106,0.400867,2.46384,-0.212943,-0.564247,-0.211715
3791471,1,-1.57079,-0.522807,-0.000274011,-2.09595,-1.57069,1.57151,0.785699,-1.5708,-0.523599,-2.73185e-08,-2.0944,-1.5708,1.5708,0.785399,-0.000679898,-0.00097692,0.000421225,-0.000628241,0.000301577,8.58904e-05,0.000553279,0,0,0,0,0,0,0,-0.0497324,-10.2408,0.578677,21.0193,-0.787031,-0.566503,-0.174673,-0.0610304,-1.14227,0.401452,2.46431,-0.212945,-0.564231,-0.211715
3791472,1,-1.57078,-0.522805,-0.000274398,-2.09595,-1.5707,1.57151,0.785702,-1.5708,-0.523599,-2.73185e-08,-2.0944,-1.5708,1.5708,0.785399,0.000196348,-9.4468e-05,0.000837629,0.000137985,-0.000443209,5.72603e-05,0.00108093,0,0,0,0,0,0,0,-0.0775034,-10.2646,0.554873,20.9955,-0.769636,-0.566503,-0.193899,-0.0615914,-1.14191,0.401063,2.46435,-0.212967,-0.564279,-0.211716
3791473,1,-1.57079,-0.522803,-0.000280374,-2.09595,-1.5707,1.57151,0.785696,-1.5708,-0.523599,-2.73185e-08,-2.0944,-1.5708,1.5708,0.785399,-0.000518715,0.000586635,-0.00120482,0.000648802,-0.000498923,-0.000199185,-0.00144952,0,0,0,0,0,0,0,-0.0497324,-10.2924,0.630252,20.9717,-0.764143,-0.560094,-0.135305,-0.0622244,-1.14102,0.400527,2.46399,-0.212987,-0.564333,-0.211723
3791474,1,-1.57079,-0.522805,-0.000276983,-2.09595,-1.57069,1.57151,0.785702,-1.5708,-0.523599,-2.73185e-08,-2.0944,-1.5708,1.5708,0.785399,-0.000902622,-0.000258524,0.000403213,-0.000681089,0.000515095,0.000341928,0.000966434,0,0,0,0,0,0,0,-0.0259286,-10.2646,0.578677,21.0193,-0.787031,-0.572911,-0.18749,-0.0620838,-1.14079,0.401158,2.46376,-0.212981,-0.56428,-0.211746
3791475,1,-1.57079,-0.522805,-0.00027706,-2.09595,-1.57069,1.57151,0.785701,-1.5708,-0.523599,-2.73185e-08,-2.0944,-1.5708,1.5708,0.785399,-0.000601748,-0.000172349,0.000268809,-0.00045406,0.000343397,-0.000484125,0.00135637,0,0,0,0,0,0,0,-0.0259286,-10.2646,0.578677,21.0193,-0.787031,-0.553685,-0.206716,-0.0615326,-1.14088,0.402283,2.46396,-0.212978,-0.564172,-0.211772
3791476,1,-1.57078,-0.522805,-0.000273744,-2.09595,-1.5707,1.57151,0.785696,-1.5708,-0.523599,-2.73185e-08,-2.0944,-1.5708,1.5708,0.785399,0.000805261,-0.000114899,0.00129283,0.000254106,-0.000211878,-8.53911e-05,-0.00150325,0,0,0,0,0,0,0,-0.0775034,-10.2646,0.53107,20.9955,-0.77513,-0.560094,-0.141714,-0.0617431,-1.14073,0.402143,2.46424,-0.21301,-0.56418,-0.211824
3791477,1,-1.57078,-0.522805,-0.000279042,-2.09595,-1.5707,1.57151,0.785696,-1.5708,-0.523599,-2.73185e-08,-2.0944,-1.5708,1.5708,0.785399,0.00053684,-7.65996e-05,-0.000901351,0.000726216,-0.000141252,-0.000294286,-1.88251e-05,0,0,0,0,0,0,0,-0.0775034,-10.2646,0.606448,20.9717,-0.77513,-0.553685,-0.168264,-0.0628705,-1.13998,0.400655,2.46395,-0.213049,-0.564318,-0.211922
3791478,0.99,-1.57078,-0.522807,-0.000277096,-2.09595,-1.5707,1.57151,0.785696,-1.5708,-0.523599,-2.73185e-08,-2.0944,-1.5708,1.5708,0.785399,0.000357894,-0.000607878,4.87131e-05,-0.00062948,-9.41681e-05,4.1168e-05,0.000224809,0,0,0,0,0,0,0,-0.0775034,-10.2408,0.578677,21.0193,-0.77513,-0.560094,-0.174673,-0.063911,-1.13856,0.399407,2.46314,-0.213063,-0.564421,-0.212039
3791479,0.99,-1.57079,-0.522803,-0.000279046,-2.09595,-1.5707,1.57151,0.785693,-1.5708,-0.523599,-2.73185e-08,-2.0944,-1.5708,1.5708,0.785399,-0.000411018,0.000801174,-0.000617139,0.000137159,0.000140672,0.000502163,-0.000799563,0,0,0,0,0,0,0,-0.0497324,-10.2924,0.606448,20.9955,-0.780623,-0.572911,-0.149038,-0.0643084,-1.13761,0.39919,2.46272,-0.213069,-0.564413,-0.212151
3791480,0.99,-1.57078,-0.522805,-0.000271626,-2.09595,-1.5707,1.57151,0.785697,-1.5708,-0.523599,-2.73185e-08,-2.0944,-1.5708,1.5708,0.785399,0.000932414,-0.000115498,0.00135181,9.1439e-05,-0.000109669,-0.000139942,-5.83242e-05,0,0,0,0,0,0,0,-0.101307,-10.2646,0.53107,20.9955,-0.77513,-0.560094,-0.161856,-0.0647301,-1.13797,0.398956,2.46295,-0.213093,-0.564416,-0.212253
3791481,0.99,-1.57078,-0.522809,-0.000272586,-2.09595,-1.5707,1.57151,0.785702,-1.5708,-0.523599,-2.73185e-08,-2.0944,-1.5708,1.5708,0.785399,6.47972e-05,-0.00128342,0.000344396,6.09593e-05,-7.31129e-05,0.000144064,0.00114791,0,0,0,0,0,0,0,-0.0775034,-10.213,0.554873,20.9955,-0.77513,-0.566503,-0.193899,-0.0659719,-1.13762,0.397453,2.46278,-0.213126,-0.564534,-0.212333
3791482,0.99,-1.57078,-0.522805,-0.00027448,-2.09595,-1.5707,1.57151,0.785695,-1.5708,-0.523599,-2.73185e-08,-2.0944,-1.5708,1.5708,0.785399,0.00060001,0.000350809,0.000229597,4.06396e-05,0.000154709,9.60427e-05,-0.000658879,0,0,0,0,0,0,0,-0.101307,-10.2646,0.554873,20.9955,-0.780623,-0.566503,-0.155447,-0.0675665,-1.1357,0.395378,2.46193,-0.213144,-0.564683,-0.212403
3791483,0.99,-1.57078,-0.522805,-0.000275112,-2.09595,-1.5707,1.57151,0.785698,-1.5708,-0.523599,-2.73185e-08,-2.0944,-1.5708,1.5708,0.785399,0.000400007,0.000233873,0.000153065,2.7093e-05,0.000103139,-0.00017333,-0.000201894,0,0,0,0,0,0,0,-0.101307,-10.2646,0.554873,20.9955,-0.780623,-0.560094,-0.161856,-0.068937,-1.13455,0.393711,2.46145,-0.213162,-0.564801,-0.212474
3791484,0.99,-1.57079,-0.522803,-0.000271521,-2.09595,-1.5707,1.57151,0.7857,-1.5708,-0.523599,-2.73185e-08,-2.0944,-1.5708,1.5708,0.785399,-0.000939755,0.000805529,0.000658855,1.8062e-05,-0.000338142,-0.000352913,0.000340122,0,0,0,0,0,0,0,-0.0497324,-10.2924,0.53107,20.9955,-0.769636,-0.553685,-0.174673,-0.0699213,-1.13535,0.392643,2.46185,-0.2132,-0.564878,-0.212537
3791485,0.99,-1.57078,-0.522803,-0.000276352,-2.09595,-1.5707,1.57151,0.785695,-1.5708,-0.523599,-2.73185e-08,-2.0944,-1.5708,1.5708,0.785399,2.31108e-05,0.00053702,-0.000674387,-0.000544771,-2.19773e-05,2.08387e-06,-0.000485329,0,0,0,0,0,0,0,-0.0775034,-10.2924,0.578677,21.0193,-0.77513,-0.560094,-0.155447,-0.0701058,-1.1379,0.392695,2.46314,-0.213248,-0.564843,-0.212584
3791486,0.99,-1.57079,-0.522809,-0.000275179,-2.09595,-1.5707,1.57151,0.785695,-1.5708,-0.523599,-2.73185e-08,-2.0944,-1.5708,1.5708,0.785399,-0.000634207,-0.00149803,0.000107221,0.000750444,-1.46515e-05,1.38925e-06,-8.61936e-05,0,0,0,0,0,0,0,-0.0497324,-10.213,0.554873,20.9717,-0.77513,-0.560094,-0.161856,-0.0694291,-1.1397,0.393948,2.46414,-0.213253,-0.564655,-0.212624
3791487,0.99,-1.57078,-0.522805,-0.000275344,-2.09594,-1.5707,1.57151,0.785696,-1.5708,-0.523599,-2.73185e-08,-2.0944,-1.5708,1.5708,0.785399,0.000226809,0.000207741,7.14804e-05,0.00114991,-9.76767e-06,0.000475644,0.000417255,0,0,0,0,0,0,0,-0.0775034,-10.2646,0.554873,20.9439,-0.77513,-0.572911,-0.174673,-0.0684777,-1.13823,0.395479,2.46327,-0.213171,-0.564383,-0.21266
3791488,0.99,-1.57078,-0.522803,-0.000273269,-2.09595,-1.5707,1.57151,0.785693,-1.5708,-0.523599,-2.73185e-08,-2.0944,-1.5708,1.5708,0.785399,0.000151206,0.000788108,4.76536e-05,0.000116992,-6.51178e-06,7.97371e-05,-0.000671265,0,0,0,0,0,0,0,-0.0775034,-10.2924,0.554873,20.9717,-0.77513,-0.566503,-0.149038,-0.0678934,-1.13618,0.396436,2.46168,-0.213061,-0.564168,-0.212686
3791489,0.99,-1.57079,-0.522807,-0.000274248,-2.09595,-1.57069,1.57151,0.785699,-1.5708,-0.523599,-2.73185e-08,-2.0944,-1.5708,1.5708,0.785399,-0.00054881,-0.00068102,-0.000525043,-0.00103563,0.000639919,-0.000184201,0.00145136,0,0,0,0,0,0,0,-0.0497324,-10.2408,0.578677,21.0193,-0.792525,-0.560094,-0.200308,-0.0673865,-1.13589,0.397323,2.46114,-0.212993,-0.563993,-0.212696
3791490,0.99,-1.57079,-0.522807,-0.000275966,-2.09595,-1.5707,1.57151,0.785697,-1.5708,-0.523599,-2.73185e-08,-2.0944,-1.5708,1.5708,0.785399,-0.000365873,-0.000454014,-0.000999643,-0.000133607,-0.000217647,0.000114558,-0.000456579,0,0,0,0,0,0,0,-0.0497324,-10.2408,0.606448,20.9955,-0.77513,-0.566503,-0.161856,-0.0661727,-1.13578,0.399231,2.46134,-0.212945,-0.563716,-0.212701
3791491,0.99,-1.57078,-0.522805,-0.00027394,-2.09595,-1.5707,1.57151,0.785697,-1.5708,-0.523599,-2.73185e-08,-2.0944,-1.5708,1.5708,0.785399,0.000405699,0.000254136,-1.68144e-05,-0.000645884,5.83522e-05,-0.000160987,0.00040769,0,0,0,0,0,0,0,-0.0775034,-10.2646,0.578677,21.0193,-0.780623,-0.560094,-0.181082,-0.0645849,-1.13546,0.401707,2.46178,-0.212912,-0.563389,-0.212722
3791492,0.99,-1.57078,-0.522805,-0.000274375,-2.09595,-1.5707,1.57151,0.785697,-1.5708,-0.523599,-2.73185e-08,-2.0944,-1.5708,1.5708,0.785399,0.000270466,0.000169424,0.000545602,-0.000987401,-0.000368,0.000367393,-0.000677642,0,0,0,0,0,0,0,-0.0775034,-10.2646,0.554873,21.0431,-0.769636,-0.572911,-0.155447,-0.0638529,-1.13636,0.402983,2.463,-0.212942,-0.563218,-0.212765
3791493,0.99,-1.57078,-0.522809,-0.000278696,-2.09595,-1.57069,1.57151,0.785698,-1.5708,-0.523599,-2.73185e-08,-2.0944,-1.5708,1.5708,0.785399,0.00018031,-0.00109348,-0.000842691,-0.00130788,0.000398927,7.57e-06,0.000735033,0,0,0,0,0,0,0,-0.0775034,-10.213,0.606448,21.0709,-0.787031,-0.566503,-0.18749,-0.0639574,-1.1378,0.403069,2.46487,-0.213024,-0.56319,-0.212821
3791494,0.99,-1.57079,-0.522807,-0.00027531,-2.09595,-1.5707,1.57151,0.785695,-1.5708,-0.523599,-2.73185e-08,-2.0944,-1.5708,1.5708,0.785399,-0.000529407,-7.93704e-05,0.000644632,0.00209774,2.85924e-05,-0.000232312,-0.00144276,0,0,0,0,0,0,0,-0.0497324,-10.2408,0.554873,20.9439,-0.780623,-0.560094,-0.135305,-0.0640638,-1.13741,0.403107,2.46572,-0.213068,-0.563155,-0.212894
3791495,0.99,-1.57078,-0.522801,-0.000273718,-2.09595,-1.5707,1.57151,0.785693,-1.5708,-0.523599,-2.73185e-08,-2.0944,-1.5708,1.5708,0.785399,0.000853488,0.00115351,0.000986567,0.000748881,-0.000184389,8.24841e-05,-0.00072448,0,0,0,0,0,0,0,-0.101307,-10.2924,0.53107,20.9717,-0.77513,-0.566503,-0.141714,-0.0646764,-1.13583,0.402298,2.46491,-0.213061,-0.563205,-0.212974
3791496,0.99,-1.57078,-0.522806,-0.000274954,-2.09595,-1.5707,1.57151,0.785701,-1.5708,-0.523599,-2.73185e-08,-2.0944,-1.5708,1.5708,0.785399,1.218e-05,-0.000437418,-0.000455913,0.000499254,-0.000122926,-0.00018237,0.00144979,0,0,0,0,0,0,0,-0.0775034,-10.2408,0.578677,20.9717,-0.77513,-0.560094,-0.193899,-0.0660347,-1.13494,0.400402,2.46367,-0.213058,-0.56339,-0.213022
3791497,0.99,-1.57078,-0.522803,-0.000281951,-2.09595,-1.5707,1.57151,0.785692,-1.5708,-0.523599,-2.73185e-08,-2.0944,-1.5708,1.5708,0.785399,8.11999e-06,0.000914814,-0.00215998,-0.000223976,0.000358859,0.000115779,-0.00144097,0,0,0,0,0,0,0,-0.0775034,-10.2924,0.658023,20.9955,-0.787031,-0.566503,-0.128897,-0.0664855,-1.13489,0.40002,2.46292,-0.213049,-0.563442,-0.213025
3791498,0.99,-1.57079,-0.522809,-0.000276859,-2.09595,-1.5707,1.57151,0.785695,-1.5708,-0.523599,-2.73185e-08,-2.0944,-1.5708,1.5708,0.785399,-0.00120101,-0.00124616,0.000416052,0.000407495,-0.00020157,7.71862e-05,0.000497416,0,0,0,0,0,0,0,-0.0259286,-10.213,0.578677,20.9717,-0.77513,-0.566503,-0.168264,-0.0653332,-1.13485,0.402113,2.46251,-0.213009,-0.563243,-0.213
3791499,0.99,-1.57078,-0.522807,-0.000275348,-2.09595,-1.5707,1.57151,0.785698,-1.5708,-0.523599,-2.73185e-08,-2.0944,-1.5708,1.5708,0.785399,0.000405751,-0.000181162,0.00083418,-0.00139877,-0.000337831,0.000288816,0.00128105,0,0,0,0,0,0,0,-0.0775034,-10.2408,0.554873,21.0431,-0.769636,-0.572911,-0.193899,-0.0642618,-1.13375,0.403964,2.46206,-0.212985,-0.563049,-0.212943
3791500,0.99,-1.57079,-0.522805,-0.000277071,-2.09595,-1.5707,1.57151,0.785695,-1.5708,-0.523599,-2.73185e-08,-2.0944,-1.5708,1.5708,0.785399,-0.000379113,0.000436037,-6.91982e-07,0.000181109,-0.00022522,-0.000282174,-0.00107875,0,0,0,0,0,0,0,-0.0497324,-10.2646,0.578677,20.9955,-0.769636,-0.560094,-0.141714,-0.0642871,-1.133,0.404101,2.46226,-0.213023,-0.563036,-0.212867
3791501,0.99,-1.57079,-0.522805,-0.000277089,-2.09595,-1.5707,1.57151,0.785698,-1.5708,-0.523599,-2.73185e-08,-2.0944,-1.5708,1.5708,0.785399,-0.000252742,0.000290692,-4.61322e-07,0.000120739,5.33035e-05,0.000286602,-0.00021054,0,0,0,0,0,0,0,-0.0497324,-10.2646,0.578677,20.9955,-0.77513,-0.572911,-0.155447,-0.0646041,-1.13366,0.403808,2.46312,-0.213078,-0.563098,-0.212796
3791502,0.99,-1.57079,-0.522803,-0.000277095,-2.09595,-1.5707,1.57151,0.785698,-1.5708,-0.523599,-2.73185e-08,-2.0944,-1.5708,1.5708,0.785399,-0.000168495,0.000843408,-3.07548e-07,0.000637305,0.000238986,-4.62909e-05,0.000809076,0,0,0,0,0,0,0,-0.0497324,-10.2924,0.578677,20.9717,-0.780623,-0.566503,-0.181082,-0.0647295,-1.13508,0.403776,2.46392,-0.213104,-0.563159,-0.212723
3791503,0.99,-1.57079,-0.522803,-0.000276915,-2.09595,-1.5707,1.57151,0.785695,-1.5708,-0.523599,-2.73185e-08,-2.0944,-1.5708,1.5708,0.785399,-0.00011233,0.000562272,-0.000649819,-0.00189518,0.000159324,-0.00026822,-0.000172693,0,0,0,0,0,0,0,-0.0497324,-10.2924,0.606448,21.0709,-0.780623,-0.560094,-0.161856,-0.0646207,-1.13783,0.404115,2.46537,-0.213138,-0.563212,-0.212637
3791504,0.99,-1.57079,-0.522803,-0.000273046,-2.09595,-1.5707,1.57151,0.785698,-1.5708,-0.523599,-2.73185e-08,-2.0944,-1.5708,1.5708,0.785399,-0.000631699,0.000374848,0.00133003,0.0010566,-0.000504135,0.000295905,-0.000115129,0,0,0,0,0,0,0,-0.0259286,-10.2924,0.53107,20.9717,-0.764143,-0.572911,-0.161856,-0.0644724,-1.14149,0.404458,2.46755,-0.213196,-0.563279,-0.212555
3791505,0.99,-1.57078,-0.522805,-0.000276861,-2.09595,-1.5707,1.57151,0.785697,-1.5708,-0.523599,-2.73185e-08,-2.0944,-1.5708,1.5708,0.785399,0.000785294,-0.000399715,-0.00022694,0.000147586,0.000274261,-0.000514807,0.000635324,0,0,0,0,0,0,0,-0.0775034,-10.2646,0.578677,20.9955,-0.780623,-0.553685,-0.181082,-0.0648398,-1.14356,0.403863,2.4687,-0.213228,-0.563418,-0.212487
3791506,0.99,-1.57078,-0.522805,-0.000273218,-2.09594,-1.5707,1.57151,0.785695,-1.5708,-0.523599,-2.73185e-08,-2.0944,-1.5708,1.5708,0.785399,0.00108034,-0.000266477,0.000405518,0.00186163,-2.06097e-05,0.000131513,-0.000288527,0,0,0,0,0,0,0,-0.101307,-10.2646,0.554873,20.9201,-0.77513,-0.566503,-0.161856,-0.065847,-1.14253,0.40227,2.46774,-0.213189,-0.563622,-0.212444
3791507,0.99,-1.57079,-0.522807,-0.00027256,-2.09595,-1.5707,1.57151,0.785694,-1.5708,-0.523599,-2.73185e-08,-2.0944,-1.5708,1.5708,0.785399,-0.00104301,-0.000734463,0.000270346,-0.000522152,-0.00021719,8.76755e-05,-0.00042971,0,0,0,0,0,0,0,-0.0259286,-10.2408,0.554873,20.9955,-0.769636,-0.566503,-0.155447,-0.0669964,-1.1391,0.400431,2.46529,-0.213091,-0.563811,-0.212428
3791508,0.99,-1.57078,-0.522803,-0.000276142,-2.09595,-1.5707,1.57151,0.785699,-1.5708,-0.523599,-2.73185e-08,-2.0944,-1.5708,1.5708,0.785399,0.0010679,0.000716784,-0.000376582,-0.000904913,0.000262108,5.84503e-05,0.000425603,0,0,0,0,0,0,0,-0.101307,-10.2924,0.578677,21.0193,-0.780623,-0.566503,-0.174673,-0.0676912,-1.13616,0.399214,2.46349,-0.213005,-0.563926,-0.21242
3791509,0.99,-1.57079,-0.522803,-0.000278728,-2.09595,-1.5707,1.57151,0.785694,-1.5708,-0.523599,-2.73185e-08,-2.0944,-1.5708,1.5708,0.785399,-0.00105131,0.000477856,-0.000900668,0.000510348,0.000174738,3.89669e-05,-0.0006657,0,0,0,0,0,0,0,-0.0259286,-10.2924,0.606448,20.9717,-0.780623,-0.566503,-0.149038,-0.0675642,-1.1359,0.399316,2.46346,-0.212959,-0.563936,-0.212403
3791510,0.99,-1.57079,-0.522805,-0.000274861,-2.09595,-1.5707,1.57151,0.785701,-1.5708,-0.523599,-2.73185e-08,-2.0944,-1.5708,1.5708,0.785399,-0.000144059,-0.000331043,4.91684e-05,-0.00021658,0.000116492,0.000263337,0.000980353,0,0,0,0,0,0,0,-0.0497324,-10.2646,0.578677,20.9955,-0.780623,-0.572911,-0.18749,-0.0665075,-1.13671,0.400813,2.46389,-0.212906,-0.563819,-0.212381
3791511,0.99,-1.57078,-0.522805,-0.000276352,-2.09595,-1.5707,1.57151,0.785697,-1.5708,-0.523599,-2.73185e-08,-2.0944,-1.5708,1.5708,0.785399,0.000553575,-0.000220696,3.27789e-05,-0.000701198,-0.00032924,-0.00029916,0.000178851,0,0,0,0,0,0,0,-0.0775034,-10.2646,0.578677,21.0193,-0.769636,-0.560094,-0.174673,-0.0654289,-1.13693,0.402292,2.46413,-0.212858,-0.563697,-0.21236
3791512,0.99,-1.57079,-0.522803,-0.000273508,-2.09595,-1.5707,1.57151,0.785692,-1.5708,-0.523599,-2.73185e-08,-2.0944,-1.5708,1.5708,0.785399,-0.000280564,0.000502484,0.00113548,0.000646158,0.000187408,-0.000436799,-0.00110147,0,0,0,0,0,0,0,-0.0497324,-10.2924,0.53107,20.9717,-0.780623,-0.553685,-0.141714,-0.0652534,-1.13702,0.402409,2.46439,-0.212847,-0.563712,-0.212354
3791513,0.99,-1.57079,-0.522807,-0.000275344,-2.09595,-1.5707,1.57151,0.785699,-1.5708,-0.523599,-2.73185e-08,-2.0944,-1.5708,1.5708,0.785399,-0.000187043,-0.000871437,0.000200172,-0.000682852,-0.000281962,0.000420878,0.00048639,0,0,0,0,0,0,0,-0.0497324,-10.2408,0.554873,21.0193,-0.769636,-0.572911,-0.174673,-0.0657332,-1.13689,0.401433,2.46441,-0.21285,-0.563821,-0.212363
3791514,0.99,-1.57078,-0.522807,-0.0002754,-2.09595,-1.5707,1.57151,0.785696,-1.5708,-0.523597,-2.52732e-06,-2.09439,-1.5708,1.5708,0.785399,0.000524919,-0.000580958,0.000133448,-0.000455234,-0.000187975,4.32261e-05,8.69013e-05,-0.00270108,0.00171727,-0.0025,0.00170159,-0.00155809,0.005,0.000123198,-0.0775034,-10.2408,0.554873,21.0193,-0.769636,-0.566503,-0.168264,-0.0663233,-1.13571,0.400203,2.4641,-0.212843,-0.563928,-0.212371
3791515,0.99,-1.57079,-0.522805,-0.000273748,-2.09595,-1.5707,1.57151,0.785694,-1.5708,-0.523594,-7.52732e-06,-2.09439,-1.5708,1.57081,0.785399,-0.00085648,0.000169507,0.000645777,-0.00030349,-0.000125317,2.88174e-05,-0.000416784,-0.00540216,0.00343454,-0.005,0.00340318,-0.00311619,0.01,0.000246396,-0.0259286,-10.2646,0.53107,21.0193,-0.769636,-0.566503,-0.155447,-0.0667942,-1.13421,0.399103,2.46387,-0.212827,-0.564012,-0.212374
3791516,0.99,-1.57079,-0.522803,-0.000275424,-2.09595,-1.57069,1.57151,0.785696,-1.57081,-0.523588,-1.50273e-05,-2.09438,-1.57081,1.57083,0.7854,-0.000570987,0.000762618,-0.000126294,0.000354486,0.000560716,0.000256571,0.000434221,-0.00810324,0.00515181,-0.0075,0.00510477,-0.00467428,0.015,0.000369595,-0.0259286,-10.2924,0.554873,20.9955,-0.787031,-0.572911,-0.174673,-0.0668265,-1.13402,0.398529,2.46412,-0.212801,-0.564054,-0.212372
3791517,0.99,-1.57079,-0.522806,-0.00027884,-2.09595,-1.5707,1.57151,0.785699,-1.57082,-0.523582,-2.50273e-05,-2.09438,-1.57081,1.57085,0.7854,-0.00123232,0.000986911,-0.00398217,0.000236324,0.000136451,-0.000303671,0.00123892,-0.0108043,0.00686908,-0.01,0.00680636,-0.00623238,0.02,0.000492793,-0.125111,-10.1892,0.451724,20.9955,-0.780623,-0.560094,-0.200308,-0.0648997,-1.13574,0.400855,2.46492,-0.212727,-0.563837,-0.212364
3791518,0.99,-1.57078,-0.522806,-0.00027743,-2.09595,-1.5707,1.5715,0.785691,-1.57084,-0.523573,-3.75273e-05,-2.09437,-1.57082,1.57087,0.785401,-0.00146256,0.0024499,-0.00314386,-0.00160569,0.00158294,-0.000711074,-0.00158155,-0.0135054,0.00858635,-0.0125,0.00850795,-0.00779047,0.025,0.000615991,-0.379017,-10.0107,0.0470608,21.0709,-0.820906,-0.546361,-0.135305,-0.0595968,-1.14071,0.408392,2.46731,-0.212618,-0.563145,-0.212364
3791519,0.99,-1.57078,-0.522806,-0.000296765,-2.09595,-1.5707,1.5715,0.785693,-1.57085,-0.523563,-5.25273e-05,-2.09436,-1.57083,1.5709,0.785401,0.00340488,0.00280089,-0.00935192,-0.00107046,0.00166564,-0.000711408,-0.000545743,-0.0162065,0.0103036,-0.015,0.0102095,-0.00934857,0.03,0.000739189,-0.859058,-9.78458,-0.230649,21.0709,-0.837385,-0.539952,-0.149038,-0.0515416,-1.15072,0.420715,2.47273,-0.212561,-0.562028,-0.212377
3791520,0.99,-1.57078,-0.522798,-0.000313727,-2.09595,-1.5707,1.57151,0.785701,-1.57087,-0.523551,-7.00273e-05,-2.09435,-1.57084,1.57094,0.785402,0.00173484,0.00439708,-0.0107316,-0.00182726,0.00151733,-0.00094899,0.00129768,-0.0189076,0.0120209,-0.0175,0.0119111,-0.0109067,0.035,0.000862388,-1.28753,-9.60605,-0.659116,21.1185,-0.848372,-0.527135,-0.193899,-0.04143,-1.16575,0.437616,2.48133,-0.212602,-0.56047,-0.212373
3791521,0.99,-1.57078,-0.522789,-0.000341026,-2.09594,-1.5707,1.57151,0.785691,-1.57089,-0.523537,-9.00273e-05,-2.09433,-1.57085,1.57098,0.785403,-0.00107817,0.00698546,-0.0132421,-0.000661364,0.000604652,-0.00063266,-0.00177973,-0.0216086,0.0137382,-0.02,0.0136127,-0.0124648,0.04,0.000985586,-1.66442,-9.48306,-1.03998,21.0947,-0.837385,-0.527135,-0.122488,-0.0288693,-1.18614,0.459899,2.49313,-0.212749,-0.558277,-0.212332
3791522,0.99,-1.57079,-0.522772,-0.000366396,-2.09594,-1.5707,1.57151,0.785692,-1.57092,-0.523521,-0.000112527,-2.09432,-1.57087,1.57102,0.785404,-0.00378495,0.0111393,-0.0185804,0.000115903,0.000403102,-0.000184414,-0.000711771,-0.0243097,0.0154554,-0.0225,0.0153143,-0.0140229,0.045,0.00110878,-2.01751,-9.45529,-1.42083,21.0709,-0.837385,-0.533544,-0.135305,-0.0125932,-1.21416,0.489447,2.5087,-0.212979,-0.55514,-0.212249
3791523,0.99,-1.57079,-0.522764,-0.000396691,-2.09593,-1.5707,1.57152,0.785694,-1.57094,-0.523504,-0.000137527,-2.0943,-1.57088,1.57107,0.785406,-0.00539419,0.00884958,-0.0246096,0.000726883,0.000472185,0.00633064,0.00050883,-0.0270108,0.0171727,-0.025,0.0170159,-0.0155809,0.05,0.00123198,-2.39837,-9.32834,-1.72235,21.0431,-0.842879,-0.57932,-0.161856,0.00898794,-1.24831,0.529067,2.52703,-0.213167,-0.550695,-0.212099
3791524,0.99,-1.5708,-0.522756,-0.000419074,-2.09593,-1.5707,1.57153,0.785698,-1.57098,-0.523484,-0.000167527,-2.09428,-1.5709,1.57113,0.785407,-0.00955182,0.00608738,-0.0207952,0.00228741,0.00136595,0.00604109,0.000576579,-0.0313268,0.0201609,-0.03,0.0199581,-0.0182682,0.0590148,0.00142043,-2.6483,-9.15378,-2.10321,21.0947,-0.87126,-0.617772,-0.168264,0.0341568,-1.27826,0.57613,2.54344,-0.21316,-0.545026,-0.211895
3791525,0.99,-1.57081,-0.522745,-0.000443834,-2.09593,-1.5707,1.57154,0.785696,-1.57101,-0.523461,-0.000202527,-2.09426,-1.57092,1.5712,0.785409,-0.00940982,0.00814971,-0.0230683,0.00455998,0.00175834,0.00793726,-0.000598958,-0.0356428,0.0231491,-0.035,0.0229002,-0.0209555,0.0680296,0.00160888,-2.90221,-9.02682,-2.40869,21.0947,-0.894148,-0.585729,-0.141714,0.0576373,-1.29563,0.622276,2.55375,-0.212968,-0.538805,-0.211683
3791526,0.99,-1.57082,-0.522742,-0.00047152,-2.09592,-1.5707,1.57154,0.785704,-1.57105,-0.523435,-0.000242527,-2.09423,-1.57094,1.57128,0.78541,-0.0102497,0.0073023,-0.0228243,0.0057006,0.00222339,0.00711006,0.00319499,-0.0399588,0.0261372,-0.04,0.0258424,-0.0236428,0.0770444,0.00179732,-3.10454,-8.80069,-2.65863,21.1185,-0.922529,-0.488683,-0.23876,0.0750166,-1.30074,0.661062,2.55771,-0.21273,-0.532673,-0.211486
3791527,0.99,-1.57084,-0.522734,-0.000492009,-2.09592,-1.57069,1.57155,0.785707,-1.5711,-0.523406,-0.000287527,-2.0942,-1.57097,1.57136,0.785412,-0.0114628,0.00627926,-0.0219498,0.00417021,0.00294032,0.00649459,0.00240126,-0.0442748,0.0291254,-0.045,0.0287846,-0.02633,0.0860592,0.00198577,-3.2791,-8.54678,-3.06726,21.2455,-0.961897,-0.386144,-0.246084,0.083649,-1.29482,0.688684,2.55672,-0.212627,-0.526946,-0.211335
3791528,0.99,-1.57087,-0.522718,-0.0005252,-2.09592,-1.5707,1.57156,0.785701,-1.57114,-0.523374,-0.000337527,-2.09417,-1.571,1.57146,0.785415,-0.0171149,0.00973552,-0.027284,0.00276153,-0.0011719,0.00678052,-0.000806659,-0.0485908,0.0321136,-0.05,0.0317267,-0.0290173,0.0950741,0.00217422,-3.50524,-8.34445,-3.49572,21.3922,-1.00676,-0.295507,-0.181082,0.0844655,-1.28184,0.706243,2.55442,-0.212823,-0.521345,-0.211295
3791529,0.99,-1.57088,-0.522704,-0.000577084,-2.0959,-1.57069,1.57157,0.785705,-1.5712,-0.523338,-0.000392527,-2.09414,-1.57103,1.57156,0.785417,-0.0186777,0.010596,-0.0355889,0.00778066,0.000921588,0.00659523,0.00186973,-0.0529068,0.0351018,-0.055,0.0346689,-0.0317046,0.104089,0.00236266,-3.98528,-8.06674,-3.87658,21.416,-1.06352,-0.192968,-0.246084,0.0833882,-1.26742,0.722465,2.5538,-0.213292,-0.514824,-0.211404
3791530,0.99,-1.57091,-0.522676,-0.000630744,-2.09589,-1.57069,1.57159,0.785698,-1.57125,-0.5233,-0.000452527,-2.0941,-1.57107,1.57167,0.78542,-0.0225681,0.0149937,-0.0408834,0.00779018,0.00241711,0.0125116,-0.000686296,-0.0572228,0.0380899,-0.06,0.0376111,-0.0343919,0.113104,0.00255111,-4.36614,-7.93979,-4.30505,21.4676,-1.12028,-0.121556,-0.193899,0.0853014,-1.25413,0.744886,2.55494,-0.213959,-0.506456,-0.211665
3791531,0.99,-1.57095,-0.522647,-0.000683133,-2.09587,-1.5707,1.57162,0.785695,-1.57132,-0.523259,-0.000517527,-2.09406,-1.5711,1.5718,0.785422,-0.0303794,0.0202617,-0.0425418,0.012946,0.00179361,0.0187864,-0.00239031,-0.0615388,0.0410781,-0.065,0.0405533,-0.0370791,0.122118,0.00273956,-4.5407,-7.78903,-4.83667,21.416,-1.13127,-0.10233,-0.141714,0.0906861,-1.24653,0.774156,2.55907,-0.214934,-0.496053,-0.212068
3791532,0.99,-1.571,-0.522609,-0.000747447,-2.09585,-1.57071,1.57166,0.785695,-1.57138,-0.523215,-0.000587527,-2.09402,-1.57114,1.57193,0.785425,-0.0334256,0.0231172,-0.0455937,0.0156414,0.00187492,0.0244758,-0.000847555,-0.0658548,0.0440663,-0.07,0.0434954,-0.0397664,0.131133,0.002928,-4.81841,-7.71365,-5.16595,21.416,-1.15416,-0.115148,-0.161856,0.0974917,-1.24764,0.806584,2.56658,-0.216356,-0.483864,-0.212552
3791533,0.99,-1.57104,-0.522578,-0.000811186,-2.09583,-1.57072,1.57171,0.785693,-1.57145,-0.523168,-0.000662527,-2.09397,-1.57119,1.57207,0.785428,-0.0322335,0.0254926,-0.0471325,0.0203208,0.00278507,0.0340256,-0.00226046,-0.0701708,0.0470545,-0.075,0.0464376,-0.0424537,0.140148,0.00311645,-5.11992,-7.53513,-5.52301,21.416,-1.19902,-0.147191,-0.116079,0.10111,-1.25437,0.835123,2.57523,-0.218305,-0.470541,-0.213041
3791534,0.99,-1.57109,-0.522546,-0.000871861,-2.09581,-1.57073,1.57179,0.785688,-1.57153,-0.523117,-0.000745027,-2.09392,-1.57123,1.57222,0.785432,-0.0391123,0.0273382,-0.0506333,0.019879,-0.000796016,0.0479962,-0.00340584,-0.0751153,0.0509534,-0.0825,0.0502547,-0.046183,0.1516,0.00333596,-5.22307,-7.3566,-5.8999,21.4676,-1.25578,-0.244237,-0.0648096,0.0973854,-1.26279,0.853721,2.58364,-0.22084,-0.456806,-0.213469
3791535,0.99,-1.57114,-0.522518,-0.000931239,-2.09579,-1.57074,1.57186,0.785685,-1.57161,-0.523062,-0.000835027,-2.09387,-1.57128,1.57238,0.785435,-0.0460139,0.0294366,-0.0534755,0.0213077,-0.00379194,0.055618,-0.00325391,-0.0800598,0.0548522,-0.09,0.0540717,-0.0499123,0.163051,0.00355546,-5.37383,-7.07889,-6.25696,21.5668,-1.30705,-0.269872,-0.0382593,0.087197,-1.2713,0.863072,2.59272,-0.223976,-0.442795,-0.213738
3791536,0.99,-1.5712,-0.52249,-0.00099742,-2.09576,-1.57075,1.57193,0.785683,-1.57169,-0.523004,-0.000932527,-2.09381,-1.57134,1.57256,0.785439,-0.0510132,0.0288415,-0.0547118,0.0230583,-0.00542992,0.0621235,-0.00193191,-0.0850043,0.0587511,-0.0975,0.0578888,-0.0536416,0.174503,0.00377497,-5.52459,-6.82895,-6.53467,21.6422,-1.3748,-0.192968,-0.044668,0.0727295,-1.27671,0.865296,2.60239,-0.227721,-0.428438,-0.213729
3791537,0.99,-1.57127,-0.522455,-0.0010704,-2.09573,-1.57077,1.57202,0.785679,-1.57178,-0.522941,-0.00103753,-2.09375,-1.57139,1.57274,0.785443,-0.0573872,0.0318648,-0.0615657,0.0268851,-0.0119596,0.0725127,-0.00223738,-0.0899489,0.06265,-0.105,0.0617059,-0.057371,0.185955,0.00399447,-5.55236,-6.59885,-6.81238,21.7414,-1.43156,-0.127965,-0.0190333,0.0554104,-1.27442,0.861795,2.61063,-0.232041,-0.413702,-0.213365
3791538,0.99,-1.57135,-0.522417,-0.00114211,-2.0957,-1.5708,1.57212,0.785683,-1.57188,-0.522874,-0.00115003,-2.09368,-1.57145,1.57294,0.785447,-0.0645888,0.0337343,-0.0683132,0.0262693,-0.0173848,0.0806092,-3.35227e-05,-0.0948934,0.0665489,-0.1125,0.0655229,-0.0611003,0.197407,0.00421398,-5.59996,-6.34891,-7.29242,21.8644,-1.47093,-0.0702869,-0.0584009,0.0389401,-1.26451,0.857903,2.61761,-0.236885,-0.398166,-0.212604
3791539,0.99,-1.57142,-0.522367,-0.00123935,-2.09566,-1.57082,1.57225,0.785687,-1.57198,-0.522804,-0.00127003,-2.09361,-1.57152,1.57315,0.785452,-0.063362,0.0372982,-0.076734,0.0312668,-0.0215168,0.0950154,0.000452369,-0.0998379,0.0704478,-0.12,0.06934,-0.0648296,0.208858,0.00443348,-5.92925,-6.19418,-7.6217,21.8882,-1.5048,-0.10233,-0.0712183,0.0257291,-1.24998,0.857506,2.62508,-0.242284,-0.381543,-0.211445
3791540,0.99,-1.57149,-0.522313,-0.00134269,-2.09563,-1.57086,1.57239,0.785679,-1.57208,-0.52273,-0.00139753,-2.09354,-1.57159,1.57337,0.785456,-0.0664859,0.0435054,-0.0816637,0.0324464,-0.025278,0.112475,-0.0016312,-0.104782,0.0743466,-0.1275,0.0731571,-0.0685589,0.22031,0.00465299,-6.25853,-6.0712,-8.02636,22.0151,-1.52128,-0.192968,-0.0190333,0.0134465,-1.2355,0.857841,2.6348,-0.248367,-0.364306,-0.209951
3791541,0.99,-1.57159,-0.522241,-0.00144211,-2.09558,-1.57089,1.57255,0.785683,-1.57219,-0.522651,-0.00153253,-2.09346,-1.57166,1.5736,0.785461,-0.07457,0.051896,-0.0868788,0.0387623,-0.0292638,0.125066,0.000370595,-0.109727,0.0782455,-0.135,0.0769742,-0.0722882,0.231762,0.00487249,-6.33391,-6.1188,-8.51037,22.0389,-1.5048,-0.289098,-0.0584009,-0.000246469,-1.22928,0.855533,2.6496,-0.255276,-0.347055,-0.208177
3791542,0.99,-1.57168,-0.522184,-0.00156296,-2.09554,-1.57093,1.57271,0.785679,-1.57231,-0.522569,-0.00167503,-2.09338,-1.57174,1.57384,0.785466,-0.0804343,0.0527434,-0.0984724,0.0432658,-0.0313979,0.145221,-0.00097364,-0.114671,0.0821444,-0.1425,0.0807912,-0.0760175,0.243213,0.005092,-6.53228,-5.94424,-8.78808,22.0627,-1.5103,-0.314733,-0.0254419,-0.0132672,-1.23306,0.853076,2.66905,-0.262884,-0.329727,-0.206161
3791543,0.99,-1.57177,-0.522119,-0.00167658,-2.09549,-1.57097,1.57289,0.785684,-1.57243,-0.522483,-0.00182503,-2.0933,-1.57182,1.5741,0.785472,-0.0862569,0.055158,-0.102475,0.0425758,-0.0328508,0.160946,6.29837e-05,-0.119616,0.0860433,-0.15,0.0846083,-0.0797469,0.254665,0.0053115,-6.78618,-5.84109,-9.14117,22.1381,-1.51579,-0.32755,-0.044668,-0.0232311,-1.23977,0.853453,2.69031,-0.270938,-0.312147,-0.203963
3791544,0.99,-1.57188,-0.52206,-0.00179825,-2.09543,-1.57101,1.5731,0.785685,-1.57255,-0.522393,-0.00198446,-2.09321,-1.5719,1.57437,0.785477,-0.0907199,0.0569064,-0.107884,0.0468555,-0.0377581,0.174019,-0.00019537,-0.124525,0.0905609,-0.159435,0.0890113,-0.0840992,0.267552,0.00554302,-6.93694,-5.61496,-9.52203,22.1381,-1.54417,-0.379735,-0.0382593,-0.0320556,-1.2436,0.853337,2.71247,-0.279377,-0.294688,-0.201629
3791545,0.99,-1.57199,-0.521991,-0.0019252,-2.09537,-1.57106,1.57331,0.78568,-1.57268,-0.522298,-0.00215333,-2.09311,-1.57199,1.57465,0.785483,-0.0956636,0.0636343,-0.112553,0.052222,-0.0416937,0.187625,-0.000842323,-0.129434,0.0950786,-0.168869,0.0934144,-0.0884515,0.280439,0.00577453,-7.01232,-5.48801,-9.87512,22.1619,-1.56157,-0.40537,-0.0190333,-0.0430039,-1.24322,0.847656,2.73461,-0.288173,-0.277876,-0.199188
3791546,0.99,-1.57209,-0.521922,-0.00205763,-2.09531,-1.57111,1.57354,0.785674,-1.57281,-0.522198,-0.00233163,-2.09301,-1.57208,1.57494,0.785489,-0.0993856,0.0644356,-0.118902,0.0559613,-0.0383085,0.199623,-0.00222306,-0.134344,0.0995962,-0.178304,0.0978174,-0.0928038,0.293327,0.00600604,-7.21465,-5.30948,-10.1052,22.1897,-1.62932,-0.366002,0.0258276,-0.0578398,-1.23869,0.833751,2.75555,-0.297285,-0.262012,-0.196669
3791547,0.99,-1.57221,-0.521844,-0.00219058,-2.09524,-1.57116,1.57377,0.785678,-1.57295,-0.522094,-0.00251937,-2.09291,-1.57218,1.57525,0.785495,-0.105044,0.0699,-0.123989,0.0592689,-0.0413162,0.208241,-5.78873e-05,-0.139253,0.104114,-0.187738,0.10222,-0.0971562,0.306214,0.00623755,-7.29003,-5.2103,-10.4345,22.1897,-1.67967,-0.295507,-0.0126246,-0.0768942,-1.2293,0.811015,2.775,-0.306748,-0.247098,-0.194063
3791548,0.99,-1.57235,-0.521767,-0.00232712,-2.09517,-1.57122,1.57403,0.785674,-1.5731,-0.521985,-0.00271655,-2.09281,-1.57228,1.57557,0.785502,-0.113453,0.0761316,-0.128547,0.0607932,-0.0442944,0.222227,-0.00122539,-0.144162,0.108631,-0.197173,0.106623,-0.101508,0.319101,0.00646907,-7.3178,-5.08334,-10.8392,22.2373,-1.71355,-0.289098,0.0194189,-0.099338,-1.21908,0.780399,2.79558,-0.316697,-0.232949,-0.191326
3791549,0.99,-1.57246,-0.521678,-0.00248302,-2.09509,-1.57129,1.57431,0.785673,-1.57325,-0.521872,-0.00292315,-2.0927,-1.57239,1.5759,0.785508,-0.113266,0.0823817,-0.140603,0.0674601,-0.0513545,0.237741,-0.00129164,-0.149071,0.113149,-0.206607,0.111026,-0.105861,0.331988,0.00670058,-7.61931,-5.03177,-11.1923,22.1619,-1.73643,-0.308324,0.0322363,-0.123731,-1.21441,0.744231,2.82017,-0.327209,-0.219339,-0.188434
3791550,0.99,-1.57258,-0.521586,-0.00265603,-2.09501,-1.57136,1.5746,0.785676,-1.5734,-0.521754,-0.00313919,-2.09258,-1.5725,1.57624,0.785515,-0.111177,0.0859782,-0.150508,0.0699981,-0.0572043,0.255971,0.0003257,-0.15398,0.117667,-0.216042,0.115429,-0.110213,0.344876,0.00693209,-7.9962,-4.93259,-11.4977,22.1897,-1.75383,-0.359594,0.000192821,-0.14987,-1.21571,0.704187,2.84802,-0.338196,-0.206204,-0.185388
3791551,0.99,-1.57272,-0.521481,-0.00282305,-2.09493,-1.57144,1.57491,0.785676,-1.57356,-0.521632,-0.00336467,-2.09246,-1.57261,1.5766,0.785522,-0.122129,0.0944724,-0.154739,0.0737498,-0.0682957,0.270905,-2.02256e-05,-0.15889,0.122184,-0.225476,0.119833,-0.114565,0.357763,0.0071636,-8.14696,-4.95639,-11.954,22.1381,-1.71355,-0.463048,0.00660151,-0.178528,-1.22291,0.659902,2.87879,-0.349609,-0.193662,-0.18219
3791552,0.99,-1.57286,-0.521378,-0.00299949,-2.09484,-1.57152,1.57524,0.785674,-1.57372,-0.521506,-0.00359958,-2.09234,-1.57273,1.57697,0.78553,-0.127524,0.0987891,-0.158373,0.0776608,-0.0712651,0.290933,-0.0017089,-0.163799,0.126702,-0.234911,0.124236,-0.118918,0.37065,0.00739512,-8.27391,-4.90482,-12.3586,22.1619,-1.67967,-0.546361,0.0523779,-0.210164,-1.23785,0.609744,2.91336,-0.36145,-0.181896,-0.178858
3791553,0.99,-1.57299,-0.521271,-0.00319251,-2.09474,-1.57161,1.57558,0.785679,-1.57389,-0.521374,-0.00384393,-2.09221,-1.57285,1.57735,0.785537,-0.1298,0.101452,-0.169365,0.0817056,-0.07744,0.304244,0.00150559,-0.168708,0.13122,-0.244346,0.128639,-0.12327,0.383537,0.00762663,-8.6032,-4.82944,-12.5848,22.1381,-1.66868,-0.592137,-0.0190333,-0.24521,-1.25664,0.552432,2.94976,-0.373583,-0.17107,-0.175426
3791554,0.99,-1.57314,-0.521161,-0.00339179,-2.09463,-1.5717,1.57593,0.78568,-1.57407,-0.521238,-0.00409826,-2.09207,-1.57298,1.57775,0.785545,-0.135956,0.10277,-0.17605,0.0876454,-0.0860652,0.316485,0.00147844,-0.173452,0.136117,-0.254336,0.133402,-0.127907,0.396941,0.00786145,-8.75396,-4.73026,-12.8625,22.1143,-1.67418,-0.598546,-0.0318506,-0.282537,-1.26937,0.489853,2.98311,-0.38567,-0.160987,-0.171938
3791555,0.99,-1.57329,-0.521047,-0.00358712,-2.09453,-1.5718,1.5763,0.78568,-1.57424,-0.521097,-0.00436259,-2.09194,-1.57311,1.57816,0.785553,-0.140246,0.104931,-0.18134,0.0949209,-0.0920544,0.331859,-0.000201166,-0.178195,0.141015,-0.264326,0.138165,-0.132544,0.410345,0.00809627,-8.90471,-4.67868,-13.2433,22.0905,-1.69157,-0.611364,0.000192821,-0.321512,-1.26637,0.422886,3.00788,-0.397367,-0.151488,-0.168481
3791556,0.99,-1.57343,-0.52093,-0.00378774,-2.09441,-1.5719,1.57668,0.785682,-1.57443,-0.520951,-0.0046369,-2.09179,-1.57325,1.57858,0.785562,-0.144035,0.105555,-0.186168,0.0986769,-0.0913608,0.344853,0.000340607,-0.182939,0.145913,-0.274316,0.142929,-0.137181,0.423748,0.00833109,-9.13085,-4.5795,-13.4734,22.1381,-1.72545,-0.546361,-0.0126246,-0.364245,-1.24224,0.348216,3.02094,-0.408574,-0.142833,-0.165143
3791557,0.99,-1.57358,-0.520806,-0.00400178,-2.0943,-1.572,1.57707,0.785686,-1.57461,-0.5208,-0.00492121,-2.09164,-1.57339,1.57902,0.78557,-0.144578,0.111528,-0.195672,0.106414,-0.0950059,0.360433,0.00141387,-0.187682,0.15081,-0.284306,0.147692,-0.141818,0.437152,0.0085659,-9.36095,-4.47635,-13.6996,22.1143,-1.76481,-0.5015,-0.044668,-0.412718,-1.19855,0.263399,3.02313,-0.419408,-0.135249,-0.161958
3791558,0.99,-1.57375,-0.520676,-0.00422679,-2.09417,-1.57211,1.57749,0.785676,-1.57481,-0.520645,-0.00521551,-2.09149,-1.57354,1.57947,0.785579,-0.14824,0.11678,-0.205289,0.113074,-0.0982719,0.379787,-0.00143101,-0.192426,0.155708,-0.294296,0.152456,-0.146455,0.450555,0.00880072,-9.46013,-4.40097,-13.9535,22.0389,-1.80418,-0.527135,0.0194189,-0.466565,-1.14287,0.170239,3.01737,-0.429975,-0.128628,-0.158941
3791559,0.99,-1.57391,-0.52054,-0.00445758,-2.09403,-1.57222,1.57793,0.785679,-1.575,-0.520484,-0.00551979,-2.09134,-1.57369,1.57994,0.785588,-0.153204,0.122856,-0.217016,0.118775,-0.101463,0.398891,-0.00047929,-0.19717,0.160605,-0.304286,0.157219,-0.151092,0.463959,0.00903554,-9.58709,-4.30179,-14.1558,21.9159,-1.82707,-0.585729,0.00660151,-0.522865,-1.08345,0.0740672,3.00706,-0.440336,-0.122515,-0.156087
3791560,0.99,-1.57407,-0.520396,-0.00471033,-2.0939,-1.57234,1.57838,0.785686,-1.57521,-0.520319,-0.00583407,-2.09117,-1.57384,1.58041,0.785597,-0.15661,0.131749,-0.22846,0.126553,-0.108562,0.425719,0.00157934,-0.201913,0.165503,-0.314276,0.161982,-0.155729,0.477363,0.00927036,-9.71404,-4.25021,-14.2074,21.8882,-1.84447,-0.636998,-0.044668,-0.578292,-1.02814,-0.0196408,2.99576,-0.450562,-0.11652,-0.153346
3791561,0.99,-1.57425,-0.520243,-0.00496204,-2.09375,-1.57247,1.57885,0.785679,-1.57541,-0.520148,-0.00615833,-2.09101,-1.57401,1.5809,0.785607,-0.167823,0.13712,-0.232013,0.131392,-0.115395,0.444618,-0.00132069,-0.206657,0.170401,-0.324266,0.166746,-0.160366,0.490766,0.00950518,-9.68627,-4.27402,-14.3582,21.789,-1.82707,-0.72672,0.0194189,-0.631831,-0.982919,-0.109638,2.9861,-0.460753,-0.110705,-0.150682
3791562,0.99,-1.57443,-0.52009,-0.00521998,-2.0936,-1.5726,1.57934,0.78568,-1.57562,-0.519973,-0.00649259,-2.09083,-1.57417,1.58141,0.785617,-0.172238,0.142647,-0.243888,0.138911,-0.120249,0.457069,-0.000405744,-0.2114,0.175298,-0.334256,0.171509,-0.165003,0.50417,0.00974,-9.73784,-4.25021,-14.5089,21.7652,-1.80418,-0.785314,0.00660151,-0.68307,-0.947322,-0.196378,2.97828,-0.47096,-0.105095,-0.148092
3791563,0.99,-1.57461,-0.519931,-0.00549716,-2.09345,-1.57274,1.57983,0.785685,-1.57584,-0.519793,-0.00683683,-2.09066,-1.57434,1.58193,0.785627,-0.174371,0.149776,-0.255888,0.144745,-0.131766,0.468078,0.00115366,-0.216144,0.180196,-0.344246,0.176272,-0.16964,0.517573,0.00997482,-9.81322,-4.22244,-14.5367,21.7414,-1.80418,-0.740453,-0.0318506,-0.730505,-0.918829,-0.277672,2.97138,-0.481121,-0.099437,-0.145544
3791564,0.99,-1.57479,-0.519767,-0.00577545,-2.09329,-1.57288,1.58033,0.785682,-1.57606,-0.519607,-0.00719107,-2.09048,-1.57451,1.58246,0.785637,-0.174514,0.152729,-0.262165,0.147716,-0.136307,0.484245,5.70282e-05,-0.220602,0.185276,-0.354236,0.181223,-0.174354,0.530943,0.0102125,-9.83702,-4.22244,-14.6597,21.7652,-1.80968,-0.669042,-0.0126246,-0.775661,-0.896177,-0.354979,2.96569,-0.491235,-0.0939439,-0.14302
3791565,0.99,-1.57497,-0.519597,-0.00607051,-2.09313,-1.57304,1.58086,0.785682,-1.57629,-0.519417,-0.00755529,-2.09029,-1.57469,1.583,0.785647,-0.177218,0.157387,-0.270051,0.152526,-0.145007,0.499647,3.80188e-05,-0.225061,0.190355,-0.364226,0.186173,-0.179068,0.544312,0.0104502,-9.91637,-4.19864,-14.7628,21.8167,-1.79869,-0.649816,-0.0126246,-0.823338,-0.876412,-0.43518,2.96154,-0.50141,-0.0892696,-0.140548
3791566,0.99,-1.57515,-0.519434,-0.00637283,-2.09296,-1.57319,1.58141,0.785686,-1.57652,-0.519222,-0.00792951,-2.0901,-1.57488,1.58356,0.785658,-0.180637,0.159646,-0.29008,0.157063,-0.146466,0.51346,0.00121214,-0.229519,0.195435,-0.374216,0.191123,-0.183783,0.557681,0.0106879,-10.0394,-4.12326,-14.866,21.8405,-1.79869,-0.701085,-0.044668,-0.872464,-0.855183,-0.516572,2.95798,-0.51156,-0.0850725,-0.138155
3791567,0.99,-1.57534,-0.519258,-0.0066912,-2.09279,-1.57336,1.58196,0.785686,-1.57675,-0.519021,-0.00831372,-2.0899,-1.57507,1.58413,0.785669,-0.184603,0.164994,-0.297,0.163299,-0.151755,0.52228,0.000808094,-0.233978,0.200515,-0.384206,0.196073,-0.188497,0.57105,0.0109256,-10.1147,-4.09946,-14.866,21.8644,-1.80418,-0.75327,-0.044668,-0.917502,-0.829115,-0.590807,2.95361,-0.52147,-0.0803012,-0.135867
3791568,0.99,-1.57554,-0.519081,-0.00700935,-2.0926,-1.57352,1.58254,0.785685,-1.57699,-0.518816,-0.00870791,-2.0897,-1.57526,1.58471,0.78568,-0.185547,0.168949,-0.302944,0.168642,-0.160724,0.540905,0.00030137,-0.238436,0.205595,-0.394196,0.201023,-0.193211,0.58442,0.0111633,-10.1147,-4.04788,-14.9413,21.7414,-1.80968,-0.842992,-0.0382593,-0.960231,-0.797649,-0.660872,2.94767,-0.531144,-0.0751762,-0.133714
3791569,0.99,-1.57574,-0.518887,-0.00734662,-2.09241,-1.57369,1.58312,0.785696,-1.57723,-0.518605,-0.0091121,-2.0895,-1.57546,1.58531,0.785691,-0.189636,0.179305,-0.317201,0.17329,-0.166975,0.551358,0.00260841,-0.242895,0.210674,-0.404186,0.205973,-0.197925,0.597789,0.011401,-10.1147,-4.07169,-14.8898,21.6898,-1.82707,-0.855809,-0.103262,-1.00453,-0.766121,-0.732565,2.94216,-0.540714,-0.0704781,-0.131701
3791570,0.99,-1.57594,-0.518685,-0.00769432,-2.09221,-1.57387,1.58371,0.785696,-1.57748,-0.518389,-0.00952627,-2.08929,-1.57566,1.58592,0.785703,-0.189706,0.187671,-0.32473,0.180428,-0.171655,0.559289,0.00150158,-0.247353,0.215754,-0.414176,0.210923,-0.202639,0.611158,0.0116387,-10.2417,-4.12326,-14.8898,21.6144,-1.83806,-0.862218,-0.0968531,-1.0499,-0.744431,-0.804664,2.94107,-0.550308,-0.0663575,-0.129829
3791571,0.99,-1.57615,-0.51848,-0.00805264,-2.09201,-1.57405,1.58431,0.785692,-1.57773,-0.518168,-0.00995044,-2.08907,-1.57587,1.58655,0.785715,-0.196632,0.194753,-0.335846,0.186661,-0.174671,0.567926,-0.0016438,-0.251811,0.220834,-0.424166,0.215874,-0.207353,0.624527,0.0118764,-10.3448,-4.22244,-14.866,21.6144,-1.87193,-0.80454,-0.0254419,-1.09558,-0.737021,-0.876028,2.94545,-0.560004,-0.062774,-0.128141
3791572,0.99,-1.57636,-0.518266,-0.00840791,-2.0918,-1.57424,1.58493,0.785696,-1.57799,-0.517942,-0.0103846,-2.08885,-1.57608,1.58719,0.785727,-0.202012,0.199623,-0.340264,0.192009,-0.177092,0.585502,-0.00109587,-0.25627,0.225914,-0.434156,0.220824,-0.212067,0.637897,0.0121141,-10.3171,-4.32559,-14.9889,21.5906,-1.90031,-0.823766,-0.0254419,-1.14126,-0.740375,-0.94687,2.95331,-0.569809,-0.0596654,-0.126657
3791573,0.99,-1.57658,-0.518055,-0.00878487,-2.09159,-1.57444,1.58556,0.785703,-1.57825,-0.517711,-0.0108287,-2.08862,-1.5763,1.58784,0.785739,-0.206471,0.204532,-0.355644,0.196485,-0.183918,0.594732,0.000964842,-0.260728,0.230993,-0.444146,0.225774,-0.216781,0.651266,0.0123518,-10.3686,-4.3494,-14.9889,21.543,-1.92869,-0.810948,-0.0712183,-1.1861,-0.748821,-1.01634,2.9626,-0.579699,-0.0568468,-0.125323
3791574,0.99,-1.5768,-0.517838,-0.00917482,-2.09137,-1.57464,1.5862,0.785702,-1.57851,-0.517475,-0.0112829,-2.08839,-1.57652,1.5885,0.785752,-0.215473,0.208434,-0.367296,0.203994,-0.191148,0.605237,0.000405869,-0.264786,0.236088,-0.454136,0.230781,-0.221443,0.664281,0.0126001,-10.4202,-4.37717,-14.866,21.5668,-1.90031,-0.791722,-0.0648096,-1.22584,-0.75628,-1.07817,2.97082,-0.589514,-0.0535471,-0.124091
3791575,0.99,-1.57704,-0.517612,-0.00957296,-2.09115,-1.57485,1.58687,0.785703,-1.57878,-0.517234,-0.011747,-2.08816,-1.57674,1.58918,0.785765,-0.222555,0.214996,-0.378307,0.210878,-0.196027,0.62456,0.00420314,-0.268845,0.241184,-0.464126,0.235787,-0.226105,0.677296,0.0128484,-10.3686,-4.45255,-14.8898,21.543,-1.86644,-0.823766,-0.044668,-1.25635,-0.758455,-1.12641,2.97526,-0.599057,-0.0490717,-0.122969
3791576,0.99,-1.57728,-0.517386,-0.00998636,-2.09092,-1.57505,1.58754,0.785712,-1.57905,-0.516988,-0.0122211,-2.08792,-1.57697,1.58987,0.785778,-0.225787,0.219795,-0.38639,0.21386,-0.200394,0.639048,0.00465003,-0.272903,0.246279,-0.474116,0.240794,-0.230767,0.690311,0.0130967,-10.3171,-4.50412,-14.8144,21.6144,-1.82158,-0.855809,-0.0840357,-1.27948,-0.756246,-1.16373,2.97628,-0.608356,-0.0437565,-0.121964
3791577,0.99,-1.5775,-0.517149,-0.0104019,-2.09069,-1.57526,1.58823,0.785703,-1.57933,-0.516736,-0.0127052,-2.08767,-1.57721,1.59057,0.785791,-0.225282,0.222625,-0.400046,0.221521,-0.202613,0.651039,-0.000201862,-0.276961,0.251374,-0.484106,0.2458,-0.235429,0.703326,0.013345,-10.4678,-4.55173,-14.6874,21.5668,-1.80968,-0.817357,0.0130102,-1.2999,-0.749862,-1.19629,2.97482,-0.617487,-0.0383013,-0.12107
3791578,1,-1.57776,-0.516899,-0.0108389,-2.09045,-1.57548,1.58892,0.785699,-1.57961,-0.51648,-0.0131993,-2.08742,-1.57745,1.59129,0.785805,-0.237506,0.232673,-0.41084,0.227071,-0.207447,0.676611,-0.00137333,-0.281019,0.256469,-0.494096,0.250807,-0.240092,0.716341,0.0135933,-10.3448,-4.78183,-14.6121,21.543,-1.83256,-0.798131,0.0523779,-1.31865,-0.739915,-1.22503,2.97105,-0.626352,-0.0328987,-0.120264
3791579,1,-1.57802,-0.516648,-0.0112761,-2.0902,-1.57571,1.58964,0.785704,-1.5799,-0.516218,-0.0137034,-2.08716,-1.57769,1.59202,0.785819,-0.245669,0.23933,-0.41917,0.234567,-0.211192,0.687892,0.000944348,-0.285078,0.261564,-0.504086,0.255814,-0.244754,0.729356,0.0138416,-10.2179,-4.88101,-14.5605,21.4914,-1.86094,-0.836583,0.00660151,-1.33356,-0.732985,-1.24717,2.96726,-0.634868,-0.027373,-0.119427
3791580,1,-1.57827,-0.516386,-0.0117347,-2.08995,-1.57594,1.59038,0.785704,-1.58019,-0.515952,-0.0142175,-2.0869,-1.57794,1.59276,0.785833,-0.249179,0.246042,-0.429579,0.234878,-0.212497,0.698772,0.000752925,-0.289136,0.266659,-0.514076,0.26082,-0.249416,0.742371,0.0140899,-10.2417,-5.05954,-14.4573,21.543,-1.91221,-0.830175,0.00660151,-1.34474,-0.734644,-1.26339,2.96657,-0.643179,-0.0217237,-0.118435
3791581,1,-1.57853,-0.516129,-0.0122089,-2.0897,-1.57617,1.59111,0.785705,-1.58048,-0.51568,-0.0147415,-2.08664,-1.5782,1.59352,0.785847,-0.252581,0.248131,-0.441562,0.242749,-0.223715,0.706732,-0.000117607,-0.293194,0.271754,-0.524066,0.265827,-0.254078,0.755386,0.0143382,-10.2179,-5.10715,-14.3066,21.5152,-1.91771,-0.785314,0.0258276,-1.35381,-0.743137,-1.27582,2.96949,-0.651434,-0.0160167,-0.117256
3791582,1,-1.5788,-0.515867,-0.0126873,-2.08944,-1.5764,1.59187,0.785712,-1.58078,-0.515403,-0.0152756,-2.08637,-1.57846,1.59428,0.785862,-0.253289,0.251729,-0.450348,0.247133,-0.228154,0.723529,0.00188986,-0.297252,0.276849,-0.534056,0.270833,-0.25874,0.768401,0.0145865,-10.1663,-5.10715,-14.3066,21.543,-1.94609,-0.80454,-0.0254419,-1.36277,-0.74998,-1.28695,2.972,-0.659603,-0.0103916,-0.115919
3791583,1,-1.57907,-0.515597,-0.013198,-2.08918,-1.57665,1.59266,0.785713,-1.58108,-0.515121,-0.0158196,-2.08609,-1.57872,1.59507,0.785877,-0.259254,0.257455,-0.463118,0.250611,-0.237086,0.738542,0.00059987,-0.301311,0.281944,-0.544046,0.27584,-0.263402,0.781417,0.0148348,-10.1425,-5.10715,-14.128,21.5668,-1.9406,-0.855809,-0.00621587,-1.3734,-0.751335,-1.29903,2.97221,-0.667713,-0.00508892,-0.11446
3791584,1,-1.57934,-0.515318,-0.0137107,-2.08891,-1.5769,1.59343,0.78571,-1.58138,-0.514834,-0.0163737,-2.08581,-1.57899,1.59586,0.785892,-0.266144,0.263139,-0.490062,0.253106,-0.244894,0.750288,0.00248183,-0.304853,0.286928,-0.554036,0.280792,-0.26793,0.793908,0.0150937,-10.1425,-5.15872,-13.9257,21.6144,-1.91771,-0.830175,0.0651953,-1.37929,-0.75167,-1.30205,2.97328,-0.675718,0.000766211,-0.112915
3791585,1,-1.57963,-0.515032,-0.0142322,-2.08864,-1.57715,1.59423,0.785716,-1.58169,-0.514542,-0.0169377,-2.08552,-1.57926,1.59667,0.785907,-0.270487,0.269066,-0.49312,0.262849,-0.245397,0.767567,0.00828074,-0.308395,0.291912,-0.564026,0.285743,-0.272458,0.8064,0.0153527,-9.91637,-5.18649,-13.9019,21.5668,-1.88933,-0.798131,0.0258276,-1.37372,-0.753723,-1.28574,2.97629,-0.683483,0.00810001,-0.111295
3791586,1,-1.57992,-0.514741,-0.0147665,-2.08837,-1.57741,1.59503,0.785723,-1.582,-0.514245,-0.0175117,-2.08523,-1.57954,1.59749,0.785923,-0.276892,0.275278,-0.503028,0.264768,-0.249124,0.779103,0.00741791,-0.311937,0.296895,-0.574016,0.290695,-0.276986,0.818892,0.0156116,-9.78942,-5.26187,-13.8265,21.6144,-1.90581,-0.817357,-0.00621587,-1.36189,-0.757769,-1.2586,2.98008,-0.691141,0.0160785,-0.109581
3791587,1,-1.5802,-0.514443,-0.0153107,-2.08809,-1.57766,1.59586,0.785721,-1.58232,-0.513944,-0.0180957,-2.08494,-1.57982,1.59832,0.785939,-0.278184,0.28113,-0.520363,0.265979,-0.252774,0.791961,0.0033081,-0.315479,0.301879,-0.584006,0.295647,-0.281514,0.831383,0.0158705,-9.83702,-5.38882,-13.6242,21.666,-1.91221,-0.823766,0.0523779,-1.34833,-0.767173,-1.22796,2.98717,-0.698897,0.0240098,-0.107767
3791588,1,-1.5805,-0.514139,-0.0158645,-2.08781,-1.57793,1.59669,0.785723,-1.58264,-0.513637,-0.0186897,-2.08464,-1.5801,1.59916,0.785955,-0.278936,0.288154,-0.527324,0.272045,-0.257948,0.797427,0.00189305,-0.319021,0.306863,-0.593996,0.300599,-0.286042,0.843875,0.0161294,-9.76165,-5.51181,-13.6242,21.7652,-1.95708,-0.72672,0.071604,-1.33396,-0.785457,-1.1948,3.00051,-0.706844,0.0318029,-0.105861
3791589,1,-1.5808,-0.513837,-0.0164288,-2.08752,-1.5782,1.59752,0.785742,-1.58296,-0.513325,-0.0192937,-2.08433,-1.5804,1.60002,0.785971,-0.283396,0.296679,-0.536656,0.2766,-0.25899,0.80707,0.00515612,-0.322563,0.311847,-0.603986,0.30555,-0.29057,0.856367,0.0163884,-9.66246,-5.53958,-13.648,21.8644,-1.97996,-0.636998,-0.0254419,-1.32271,-0.81418,-1.16499,3.01989,-0.715106,0.0389591,-0.10384
3791590,1,-1.58109,-0.513521,-0.0170184,-2.08724,-1.57847,1.59839,0.785742,-1.58329,-0.513008,-0.0199077,-2.08402,-1.58069,1.60089,0.785988,-0.288878,0.301477,-0.556218,0.277597,-0.259578,0.820427,0.00152603,-0.326105,0.316831,-0.613976,0.310502,-0.295098,0.868859,0.0166473,-9.73784,-5.63876,-13.5211,21.9397,-2.00194,-0.617772,0.0322363,-1.31352,-0.854388,-1.13744,3.04568,-0.72374,0.0457626,-0.101706
3791591,1,-1.58139,-0.51321,-0.0176046,-2.08694,-1.57875,1.59925,0.785738,-1.58362,-0.512686,-0.0205316,-2.08371,-1.58099,1.60177,0.786005,-0.292979,0.304683,-0.559247,0.283707,-0.264537,0.838573,-0.00291693,-0.329647,0.321815,-0.623966,0.315454,-0.299626,0.88135,0.0169062,-9.78942,-5.69034,-13.5726,22.0389,-2.03032,-0.643407,0.143015,-1.30321,-0.901384,-1.10797,3.07657,-0.732656,0.0528274,-0.0995315
3791592,1,-1.58171,-0.512889,-0.0181881,-2.08664,-1.57903,1.60016,0.78575,-1.58395,-0.512359,-0.0211656,-2.08339,-1.58129,1.60266,0.786022,-0.306328,0.310375,-0.567398,0.288263,-0.27286,0.855699,-0.000834802,-0.333189,0.326799,-0.633956,0.320405,-0.304153,0.893842,0.0171651,-9.76165,-5.76572,-13.6758,22.1381,-2.06419,-0.778905,0.116465,-1.29367,-0.946973,-1.08077,3.10816,-0.74176,0.059907,-0.097316
3791593,1,-1.58202,-0.512556,-0.0187893,-2.08633,-1.57933,1.60106,0.785758,-1.58429,-0.512028,-0.0218095,-2.08306,-1.5816,1.60357,0.786039,-0.306356,0.316702,-0.581073,0.296344,-0.27951,0.868097,-0.00191974,-0.336731,0.331783,-0.643946,0.325357,-0.308681,0.906334,0.017424,-9.83702,-5.94424,-13.775,22.1897,-2.06419,-0.798131,0.155832,-1.28521,-0.987774,-1.0572,3.13737,-0.750951,0.0668617,-0.0949556
3791594,1,-1.58233,-0.512229,-0.0194176,-2.08602,-1.57962,1.60196,0.785764,-1.58462,-0.511691,-0.0224635,-2.08273,-1.58192,1.60449,0.786057,-0.305385,0.324882,-0.597275,0.302987,-0.281227,0.878566,-0.00263284,-0.339634,0.336556,-0.653936,0.330164,-0.313019,0.918241,0.0176935,-10.0156,-6.01962,-13.7512,22.2135,-2.04222,-0.842992,0.194285,-1.27663,-1.02548,-1.03415,3.16347,-0.760169,0.0737699,-0.0923686
3791595,1,-1.58265,-0.511887,-0.020032,-2.0857,-1.57992,1.60289,0.78578,-1.58497,-0.51135,-0.0231274,-2.08239,-1.58223,1.60542,0.786075,-0.311147,0.328228,-0.6016,0.305114,-0.283379,0.889315,0.00411524,-0.342537,0.341329,-0.663926,0.33497,-0.317356,0.930149,0.0179629,-10.0156,-6.1188,-13.8027,22.3127,-1.99644,-0.887853,0.16865,-1.26956,-1.0624,-1.01277,3.18762,-0.769524,0.0803264,-0.0894974
3791596,1,-1.58298,-0.511549,-0.020673,-2.08539,-1.58023,1.60381,0.785791,-1.58531,-0.511004,-0.0238013,-2.08205,-1.58255,1.60636,0.786093,-0.314007,0.332565,-0.607111,0.306314,-0.288794,0.899788,0.00657502,-0.345439,0.346102,-0.673916,0.339776,-0.321693,0.942057,0.0182324,-10.0394,-6.14658,-13.8265,22.4634,-1.96257,-0.92722,0.200693,-1.26831,-1.0983,-0.999929,3.2121,-0.779223,0.0858245,-0.0862942
3791597,1,-1.58331,-0.511202,-0.0213102,-2.08507,-1.58053,1.60475,0.7858,-1.58566,-0.510653,-0.0244852,-2.08171,-1.58288,1.60731,0.786112,-0.313387,0.333632,-0.614408,0.310739,-0.295402,0.902344,0.00695345,-0.348342,0.350874,-0.683906,0.344583,-0.326031,0.953965,0.0185018,-10.1901,-6.19418,-13.9019,22.4634,-2.00194,-0.862218,0.278513,-1.27727,-1.12943,-1.00262,3.23721,-0.789303,0.0895979,-0.0827511
3791598,1,-1.58364,-0.510851,-0.0219597,-2.08474,-1.58084,1.60571,0.785821,-1.58601,-0.510297,-0.0251791,-2.08136,-1.58321,1.60828,0.78613,-0.317067,0.335631,-0.626501,0.313455,-0.294769,0.915413,0.0112478,-0.351245,0.355647,-0.693896,0.349389,-0.330368,0.965872,0.0187713,-10.1901,-6.19418,-13.9535,22.4872,-2.04222,-0.849401,0.252878,-1.29643,-1.14938,-1.02065,3.26048,-0.799566,0.0917319,-0.0788591
3791599,1,-1.58398,-0.510494,-0.02263,-2.08441,-1.58114,1.60664,0.785854,-1.58637,-0.509937,-0.025883,-2.08101,-1.58355,1.60926,0.786149,-0.321457,0.342602,-0.641834,0.318149,-0.302389,0.920081,0.0224604,-0.354148,0.36042,-0.703886,0.354196,-0.334705,0.97778,0.0190407,-10.0909,-6.27353,-13.8781,22.511,-2.09257,-0.778905,0.129282,-1.31992,-1.15748,-1.04482,3.28138,-0.809793,0.0931765,-0.0745833
3791600,1,-1.58431,-0.510131,-0.0232857,-2.08407,-1.58145,1.60761,0.785871,-1.58672,-0.509572,-0.0265969,-2.08065,-1.58389,1.61024,0.786169,-0.328184,0.348739,-0.642971,0.321691,-0.306902,0.934618,0.0206597,-0.357051,0.365193,-0.713876,0.359002,-0.339042,0.989688,0.0193102,-9.99175,-6.27353,-13.8265,22.511,-2.09807,-0.785314,0.143015,-1.3434,-1.16122,-1.0688,3.30256,-0.819978,0.0945611,-0.0699589
3791601,1,-1.58465,-0.509759,-0.0239722,-2.08373,-1.58178,1.60858,0.785899,-1.58708,-0.509202,-0.0273208,-2.08028,-1.58423,1.61125,0.786188,-0.329403,0.355804,-0.65345,0.328274,-0.309351,0.936312,0.0265262,-0.359954,0.369966,-0.723866,0.363809,-0.34338,1.0016,0.0195796,-9.96398,-6.37271,-13.6996,22.4872,-2.12095,-0.759679,0.09083,-1.36888,-1.16742,-1.09624,3.32584,-0.830312,0.0955886,-0.0651363
3791602,1,-1.585,-0.509397,-0.0246599,-2.08339,-1.5821,1.60957,0.785925,-1.58745,-0.508827,-0.0280546,-2.07992,-1.58458,1.61226,0.786208,-0.336372,0.359251,-0.678007,0.334223,-0.313367,0.946847,0.0250125,-0.362856,0.374739,-0.733856,0.368615,-0.347717,1.0135,0.0198491,-9.8886,-6.39651,-13.6758,22.4118,-2.09807,-0.849401,0.071604,-1.39222,-1.17628,-1.12081,3.34993,-0.840705,0.0969923,-0.0602971
3791603,1,-1.58536,-0.509024,-0.0253694,-2.08304,-1.58241,1.61058,0.785948,-1.58781,-0.508447,-0.0287985,-2.07954,-1.58493,1.61329,0.786228,-0.341933,0.36467,-0.688687,0.339563,-0.313231,0.967529,0.0239198,-0.365759,0.379512,-0.743846,0.373421,-0.352054,1.02541,0.0201185,-9.66246,-6.44809,-13.6242,22.4118,-2.14384,-0.997716,0.0523779,-1.40378,-1.18413,-1.12768,3.37231,-0.850805,0.100201,-0.0556117
3791604,1,-1.58571,-0.508647,-0.0260963,-2.08269,-1.58275,1.61159,0.785975,-1.58818,-0.508063,-0.0295523,-2.07916,-1.58528,1.61432,0.786249,-0.343374,0.368599,-0.696115,0.345194,-0.320036,0.979881,0.023756,-0.367969,0.383995,-0.753836,0.37801,-0.356156,1.03668,0.0203991,-9.63866,-6.47189,-13.5726,22.3603,-2.13835,-1.01053,0.0130102,-1.40468,-1.18894,-1.11882,3.39177,-0.860582,0.104741,-0.0512205
3791605,1,-1.58605,-0.508265,-0.0268067,-2.08232,-1.58308,1.61261,0.786004,-1.58855,-0.507675,-0.0303161,-2.07878,-1.58564,1.61537,0.786269,-0.346449,0.371583,-0.706551,0.348544,-0.320555,0.98797,0.0240315,-0.370179,0.388477,-0.763826,0.382599,-0.360259,1.04796,0.0206796,-9.71404,-6.49966,-13.6242,22.3127,-2.13286,-0.984899,-0.0318506,-1.40245,-1.18915,-1.10605,3.4078,-0.870256,0.109187,-0.0472245
3791606,1,-1.5864,-0.507876,-0.027538,-2.08196,-1.58343,1.61365,0.786033,-1.58892,-0.507282,-0.0310899,-2.07839,-1.58601,1.61643,0.78629,-0.348049,0.373908,-0.716276,0.353223,-0.324912,1.0036,0.0289122,-0.372388,0.39296,-0.773816,0.387188,-0.364361,1.05923,0.0209601,-9.83702,-6.52347,-13.6996,22.1897,-2.12095,-1.08744,-0.0840357,-1.40093,-1.18209,-1.09542,3.41996,-0.879959,0.11285,-0.0437243
3791607,1,-1.58676,-0.507487,-0.0282577,-2.08158,-1.58377,1.6147,0.786055,-1.5893,-0.506884,-0.0318737,-2.078,-1.58638,1.6175,0.786312,-0.351733,0.380513,-0.721718,0.359699,-0.329273,1.01116,0.0243184,-0.374598,0.397443,-0.783806,0.391776,-0.368463,1.07051,0.0212406,-9.96398,-6.62662,-13.8027,22.0627,-2.10448,-1.21653,-0.0382593,-1.40299,-1.16764,-1.0913,3.42806,-0.889746,0.115235,-0.0408212
3791608,1,-1.58711,-0.507087,-0.0290038,-2.08119,-1.58413,1.61573,0.786082,-1.58967,-0.506483,-0.0326675,-2.07761,-1.58675,1.61858,0.786333,-0.349075,0.385922,-0.725653,0.364982,-0.341317,1.01294,0.0223965,-0.376808,0.401925,-0.793796,0.396365,-0.372565,1.08178,0.0215212,-10.0909,-6.67422,-13.8503,21.8882,-2.10448,-1.03617,-0.0254419,-1.41364,-1.15006,-1.10104,3.43285,-0.8997,0.115534,-0.0385499
3791609,1,-1.58747,-0.50669,-0.0297481,-2.08081,-1.58449,1.61677,0.786111,-1.59005,-0.506076,-0.0334713,-2.0772,-1.58713,1.61967,0.786355,-0.353412,0.395123,-0.724681,0.370678,-0.345402,1.03778,0.0215677,-0.379017,0.406408,-0.803786,0.400954,-0.376667,1.09305,0.0218017,-10.0394,-6.75357,-14.0289,21.7652,-2.10997,-0.817357,-0.0318506,-1.43972,-1.13647,-1.13449,3.43653,-0.90998,0.112617,-0.0368481
3791610,1,-1.58783,-0.506287,-0.0305039,-2.08041,-1.58484,1.61786,0.786139,-1.59043,-0.505665,-0.0342851,-2.0768,-1.58751,1.62078,0.786377,-0.358407,0.396913,-0.731555,0.381999,-0.349067,1.04826,0.0206388,-0.381227,0.410891,-0.813776,0.405542,-0.380769,1.10433,0.0220822,-10.1425,-6.77737,-14.0804,21.5906,-2.10448,-0.830175,-0.0254419,-1.4839,-1.12828,-1.19592,3.43813,-0.920564,0.106163,-0.0356415
3791611,1,-1.58818,-0.505885,-0.0312847,-2.08,-1.58521,1.61899,0.786158,-1.59082,-0.50525,-0.0351089,-2.07639,-1.58789,1.62189,0.786399,-0.35609,0.397235,-0.739425,0.389189,-0.360426,1.07431,0.02145,-0.383437,0.415373,-0.823766,0.410131,-0.384871,1.1156,0.0223627,-10.3171,-6.77737,-14.0289,21.4438,-2.09807,-1.10666,0.0651953,-1.54267,-1.11406,-1.28048,3.43047,-0.931072,0.0971167,-0.0348964
3791612,1,-1.58855,-0.505482,-0.0320822,-2.07961,-1.58558,1.6201,0.786188,-1.5912,-0.50483,-0.0359426,-2.07597,-1.58828,1.62302,0.786422,-0.361117,0.399868,-0.750843,0.393046,-0.359115,1.08865,0.0226197,-0.385646,0.419856,-0.833756,0.41472,-0.388973,1.12688,0.0226433,-10.2695,-6.7258,-13.9773,21.5152,-2.12095,-1.24857,0.0258276,-1.61082,-1.08395,-1.37976,3.40951,-0.941183,0.0865401,-0.0345325
3791613,1,-1.58893,-0.505067,-0.0328584,-2.07918,-1.58596,1.6212,0.786231,-1.59159,-0.504406,-0.0367864,-2.07556,-1.58867,1.62416,0.786445,-0.370731,0.402249,-0.754313,0.403879,-0.362693,1.08684,0.0279819,-0.387856,0.424339,-0.843746,0.419309,-0.393075,1.13815,0.0229238,-10.0394,-6.702,-14.1558,21.3446,-2.15483,-1.11399,-0.141714,-1.68137,-1.03671,-1.4834,3.3761,-0.950811,0.0754837,-0.0344048
3791614,1,-1.58931,-0.504649,-0.0336699,-2.07876,-1.58634,1.62234,0.78626,-1.59198,-0.503977,-0.03764,-2.07513,-1.58907,1.62531,0.786468,-0.374885,0.406724,-0.769861,0.409896,-0.370142,1.09947,0.0256059,-0.389461,0.428469,-0.853617,0.423622,-0.396898,1.14866,0.0232164,-9.8886,-6.75357,-14.0804,21.2931,-2.17772,-1.16526,-0.155447,-1.74665,-0.973309,-1.58093,3.33072,-0.959887,0.0650625,-0.0344706
3791615,1,-1.58968,-0.504225,-0.0344844,-2.07834,-1.58674,1.62346,0.786289,-1.59237,-0.503545,-0.0385035,-2.0747,-1.58947,1.62647,0.786492,-0.372138,0.41025,-0.78233,0.415788,-0.379212,1.10636,0.0238192,-0.391066,0.432599,-0.863488,0.427935,-0.400721,1.15918,0.0235091,-10.0156,-6.82895,-13.9535,21.3169,-2.12095,-1.15885,-0.161856,-1.80199,-0.898855,-1.66495,3.27638,-0.968407,0.0559053,-0.0348381
3791616,1,-1.59005,-0.503788,-0.0353238,-2.0779,-1.58713,1.62461,0.786311,-1.59276,-0.503108,-0.0393768,-2.07427,-1.58988,1.62764,0.786515,-0.37048,0.41577,-0.797123,0.421556,-0.378641,1.11118,0.0239082,-0.392672,0.43673,-0.87336,0.432249,-0.404544,1.16969,0.0238017,-10.1425,-6.92813,-13.8027,21.2931,-2.09807,-1.19089,-0.077627,-1.84731,-0.820882,-1.73368,3.21804,-0.976527,0.0480056,-0.0356233
3791617,1,-1.59044,-0.503362,-0.0361703,-2.07747,-1.58752,1.62575,0.786337,-1.59316,-0.502667,-0.0402601,-2.07383,-1.59028,1.62882,0.786539,-0.369553,0.418189,-0.800751,0.428445,-0.38876,1.11637,0.0213683,-0.394277,0.44086,-0.883231,0.436562,-0.408367,1.1802,0.0240944,-9.94017,-6.9559,-13.7234,21.2693,-2.06419,-1.08103,-0.044668,-1.88667,-0.743807,-1.79211,3.15857,-0.984435,0.0408123,-0.0368383
3791618,1,-1.59083,-0.502935,-0.0370194,-2.07702,-1.58792,1.62689,0.786362,-1.59355,-0.502222,-0.0411532,-2.07339,-1.5907,1.63001,0.786564,-0.376347,0.419103,-0.814651,0.430231,-0.393613,1.11525,0.0237552,-0.395882,0.44499,-0.893103,0.440876,-0.412189,1.19071,0.0243871,-9.71404,-6.92813,-13.5726,21.2455,-2.10448,-0.842992,0.000192821,-1.92274,-0.666461,-1.84446,3.09864,-0.992165,0.0340632,-0.0383699
3791619,1,-1.59123,-0.502496,-0.0378909,-2.07658,-1.58832,1.62806,0.786403,-1.59395,-0.501773,-0.0420561,-2.07295,-1.59111,1.63121,0.786589,-0.382034,0.421904,-0.81889,0.434867,-0.395119,1.1224,0.0313932,-0.397488,0.44912,-0.902974,0.445189,-0.416012,1.20123,0.0246797,-9.46013,-6.97971,-13.3941,21.2455,-2.1942,-0.772496,-0.10967,-1.95324,-0.586743,-1.8888,3.03932,-0.999691,0.0283463,-0.0400493
3791620,1,-1.59164,-0.502052,-0.038772,-2.07613,-1.58872,1.62926,0.786437,-1.59435,-0.50132,-0.042969,-2.0725,-1.59153,1.63242,0.786614,-0.391383,0.430764,-0.853464,0.435406,-0.395967,1.14226,0.0300094,-0.399093,0.45325,-0.912845,0.449503,-0.419835,1.21174,0.0249724,-9.234,-7.07889,-13.1164,21.3684,-2.1887,-0.959264,-0.161856,-1.9697,-0.511216,-1.91309,2.98536,-1.00699,0.0250995,-0.0417625
3791621,1,-1.59203,-0.501598,-0.0396762,-2.07567,-1.58913,1.63046,0.786449,-1.59475,-0.500862,-0.0438917,-2.07205,-1.59196,1.63364,0.786639,-0.38954,0.436886,-0.864539,0.439377,-0.394176,1.1506,0.021141,-0.400698,0.457381,-0.922717,0.453816,-0.423658,1.22225,0.025265,-9.10704,-7.20584,-12.7633,21.4438,-2.22899,-0.946447,-0.00621587,-1.96236,-0.452813,-1.90172,2.94379,-1.01408,0.025704,-0.0435183
3791622,1,-1.59244,-0.501149,-0.0405961,-2.07523,-1.58954,1.63164,0.786473,-1.59515,-0.500401,-0.0448243,-2.07159,-1.59238,1.63488,0.786664,-0.395882,0.442719,-0.879378,0.441829,-0.395007,1.15326,0.0193079,-0.402303,0.461511,-0.932588,0.45813,-0.427481,1.23277,0.0255577,-8.88091,-7.3566,-12.4856,21.5668,-2.23448,-0.785314,0.0322363,-1.93287,-0.417619,-1.85651,2.91751,-1.02119,0.029783,-0.0453319
3791623,1,-1.59285,-0.500683,-0.0414963,-2.07477,-1.58995,1.63284,0.786492,-1.59556,-0.499935,-0.0457667,-2.07112,-1.59282,1.63612,0.78669,-0.399803,0.450537,-0.890081,0.447559,-0.39748,1.16078,0.0173175,-0.403909,0.465641,-0.94246,0.462443,-0.431304,1.24328,0.0258503,-8.6032,-7.53513,-12.434,21.6422,-2.30772,-0.617772,0.09083,-1.88793,-0.405069,-1.78801,2.90535,-1.02858,0.0363078,-0.0470779
3791624,1,-1.59326,-0.500209,-0.042431,-2.07431,-1.59038,1.63408,0.786516,-1.59596,-0.499466,-0.0467187,-2.07066,-1.59325,1.63737,0.786716,-0.400442,0.45643,-0.904071,0.453323,-0.403098,1.17428,0.0168471,-0.404987,0.46937,-0.951908,0.466435,-0.434793,1.25295,0.0261579,-8.52782,-7.71365,-12.3309,21.6898,-2.25645,-0.656224,0.122873,-1.83264,-0.413108,-1.70433,2.9046,-1.03634,0.0445712,-0.0485712
3791625,1,-1.59365,-0.499738,-0.043386,-2.07385,-1.5908,1.63531,0.786528,-1.59637,-0.498993,-0.04768,-2.07019,-1.59369,1.63863,0.786743,-0.392729,0.461864,-0.919536,0.454335,-0.407853,1.19001,0.0143163,-0.406065,0.473098,-0.961356,0.470426,-0.438282,1.26262,0.0264654,-8.70238,-7.93979,-12.2039,21.8405,-2.20061,-0.720311,0.213511,-1.77377,-0.438596,-1.61492,2.91295,-1.04457,0.0536342,-0.049656
3791626,1,-1.59406,-0.499261,-0.0443095,-2.07339,-1.59124,1.63655,0.786549,-1.59678,-0.498516,-0.0486508,-2.06971,-1.59413,1.63991,0.78677,-0.393858,0.464592,-0.918947,0.452313,-0.420554,1.19611,0.0196668,-0.407144,0.476827,-0.970804,0.474417,-0.441771,1.2723,0.0267729,-8.73015,-8.14212,-12.434,21.9635,-2.16032,-0.611364,0.240061,-1.72068,-0.478945,-1.53294,2.93095,-1.05342,0.0621198,-0.0501732
3791627,1,-1.59446,-0.498784,-0.0452613,-2.07293,-1.59169,1.63779,0.786577,-1.59718,-0.498035,-0.0496311,-2.06924,-1.59458,1.64119,0.786797,-0.391091,0.45985,-0.920469,0.457017,-0.42323,1.22502,0.0224726,-0.408222,0.480555,-0.980253,0.478408,-0.44526,1.28197,0.0270804,-8.88091,-8.29288,-12.5332,22.1143,-2.16032,-0.488683,0.16865,-1.68509,-0.52313,-1.47679,2.95516,-1.06297,0.0682654,-0.0499945
3791628,1,-1.59486,-0.498297,-0.0462154,-2.07246,-1.59211,1.63906,0.786596,-1.59759,-0.497551,-0.0506208,-2.06875,-1.59502,1.64248,0.786824,-0.402057,0.464754,-0.930926,0.458588,-0.424217,1.23021,0.0223047,-0.4093,0.484283,-0.989701,0.4824,-0.448749,1.29164,0.027388,-9.10704,-8.41983,-12.5094,22.2373,-2.2061,-0.482274,0.149424,-1.66991,-0.556387,-1.45266,2.97839,-1.07295,0.0717328,-0.0491064
3791629,1,-1.59527,-0.497807,-0.0472028,-2.07199,-1.59256,1.64037,0.786608,-1.598,-0.497063,-0.0516199,-2.06827,-1.59548,1.64378,0.786852,-0.403104,0.470767,-0.948872,0.459038,-0.430508,1.24426,0.0194758,-0.410378,0.488012,-0.999149,0.486391,-0.452238,1.30132,0.0276955,-9.13085,-8.54678,-12.434,22.388,-2.20061,-0.669042,0.200693,-1.66424,-0.580951,-1.44479,3.00151,-1.08304,0.0744004,-0.0475777
3791630,1,-1.59568,-0.497324,-0.0481879,-2.07152,-1.593,1.64168,0.786636,-1.59842,-0.496571,-0.0526285,-2.06778,-1.59593,1.64509,0.78688,-0.40296,0.47787,-0.95455,0.46807,-0.441697,1.2593,0.0222376,-0.411457,0.49174,-1.0086,0.490382,-0.455728,1.31099,0.028003,-9.10704,-8.62216,-12.3824,22.4118,-2.22899,-0.823766,0.122873,-1.66013,-0.607553,-1.43991,3.02832,-1.09304,0.0775186,-0.0454882
3791631,1,-1.5961,-0.496831,-0.0491676,-2.07104,-1.59344,1.64299,0.786656,-1.59883,-0.496076,-0.0536466,-2.06728,-1.59639,1.64641,0.786908,-0.406934,0.479296,-0.963584,0.466213,-0.437642,1.27418,0.0227827,-0.412535,0.495469,-1.01805,0.494373,-0.459217,1.32066,0.0283106,-8.93248,-8.67374,-12.2833,22.4872,-2.29033,-0.875035,0.0844213,-1.65936,-0.638958,-1.43955,3.0583,-1.10296,0.0805522,-0.0429448
3791632,1,-1.59651,-0.496335,-0.0501733,-2.07058,-1.5939,1.64431,0.786674,-1.59924,-0.495577,-0.054674,-2.06678,-1.59685,1.64774,0.786937,-0.410923,0.478753,-0.967714,0.466893,-0.441515,1.28271,0.0205059,-0.413613,0.499197,-1.02749,0.498365,-0.462706,1.33033,0.0286181,-8.95629,-8.74911,-12.1047,22.6618,-2.28483,-0.810948,0.110056,-1.66355,-0.670516,-1.44662,3.09066,-1.11295,0.0829316,-0.0401192
3791633,1,-1.59693,-0.495851,-0.0511759,-2.07009,-1.59435,1.64562,0.786705,-1.59966,-0.495074,-0.055711,-2.06628,-1.59732,1.64908,0.786966,-0.409993,0.48092,-0.980229,0.472345,-0.445945,1.29608,0.0282968,-0.414692,0.502926,-1.03694,0.502356,-0.466195,1.34001,0.0289256,-8.90471,-8.69754,-11.9778,22.634,-2.24547,-0.791722,0.0130102,-1.67222,-0.694611,-1.46092,3.12296,-1.12309,0.0845243,-0.0371955
3791634,1,-1.59734,-0.495342,-0.0521991,-2.0696,-1.59481,1.64695,0.786729,-1.60007,-0.494567,-0.0567568,-2.06577,-1.59779,1.65043,0.786995,-0.413538,0.493482,-0.989891,0.477166,-0.447307,1.30195,0.0307419,-0.415313,0.506216,-1.04576,0.505984,-0.469272,1.34879,0.029251,-8.80553,-8.77292,-11.954,22.6856,-2.21159,-0.849401,0.000192821,-1.68346,-0.714334,-1.47887,3.15466,-1.13333,0.0854958,-0.034316
3791635,1,-1.59775,-0.494842,-0.0532318,-2.06912,-1.59526,1.64827,0.786745,-1.60049,-0.494058,-0.0578113,-2.06527,-1.59826,1.65179,0.787024,-0.405227,0.497007,-0.999625,0.481399,-0.447047,1.30857,0.0247187,-0.415934,0.509506,-1.05458,0.509612,-0.472349,1.35757,0.0295764,-8.85314,-8.80069,-11.9262,22.7094,-2.26286,-0.791722,0.071604,-1.69716,-0.741921,-1.49886,3.18945,-1.14374,0.0858234,-0.0316128
3791636,1,-1.59816,-0.494332,-0.0542389,-2.06862,-1.59572,1.64961,0.786772,-1.6009,-0.493545,-0.0588747,-2.06475,-1.59874,1.65316,0.787054,-0.409422,0.500744,-0.995612,0.485763,-0.448739,1.3119,0.023452,-0.416555,0.512796,-1.0634,0.51324,-0.475426,1.36636,0.0299017,-8.80553,-8.87607,-12.1563,22.634,-2.25645,-0.785314,0.0651953,-1.71882,-0.778679,-1.52879,3.22731,-1.15445,0.0847549,-0.0291754
3791637,1,-1.59856,-0.493819,-0.0552895,-2.06813,-1.59618,1.65097,0.786803,-1.60132,-0.493029,-0.0599469,-2.06424,-1.59922,1.65453,0.787085,-0.403889,0.50172,-1.00615,0.496558,-0.454469,1.3272,0.0288434,-0.417176,0.516086,-1.07222,0.516868,-0.478503,1.37514,0.0302271,-8.95629,-8.89987,-12.1563,22.511,-2.23448,-0.791722,0.0130102,-1.75349,-0.813941,-1.57738,3.26197,-1.1654,0.0816217,-0.0270174
3791638,1,-1.59896,-0.493318,-0.0563159,-2.06762,-1.59666,1.65234,0.786827,-1.60174,-0.49251,-0.061028,-2.06371,-1.5997,1.65592,0.787115,-0.401354,0.501559,-1.03371,0.501179,-0.45784,1.35134,0.0295046,-0.417797,0.519375,-1.08104,0.520496,-0.48158,1.38392,0.0305525,-9.00786,-8.8483,-12.2039,22.388,-2.13286,-0.959264,0.0459692,-1.79516,-0.834777,-1.63563,3.28581,-1.17611,0.0772876,-0.0251659
3791639,1,-1.59936,-0.492804,-0.0573771,-2.06711,-1.59712,1.65376,0.786851,-1.60216,-0.491987,-0.0621178,-2.06319,-1.60018,1.65731,0.787146,-0.394698,0.504668,-1.04006,0.502744,-0.454178,1.3704,0.0313047,-0.418418,0.522665,-1.08986,0.524124,-0.484657,1.39271,0.0308779,-9.18242,-8.8483,-12.0532,22.2373,-2.05321,-1.4097,0.0523779,-1.83487,-0.837011,-1.68875,3.29799,-1.18614,0.0729155,-0.0236576
3791640,1,-1.59977,-0.492294,-0.0584506,-2.0666,-1.5976,1.65514,0.786892,-1.60258,-0.491461,-0.0632165,-2.06266,-1.60067,1.65871,0.787177,-0.399813,0.507997,-1.04461,0.510578,-0.458927,1.37764,0.0324512,-0.41904,0.525955,-1.09868,0.527752,-0.487734,1.40149,0.0312032,-9.15862,-8.8483,-11.9778,22.0389,-2.04222,-1.44816,-0.0648096,-1.87417,-0.825856,-1.73901,3.30243,-1.19553,0.0679147,-0.0224568
3791641,1,-1.60018,-0.491769,-0.0595046,-2.06607,-1.59806,1.65652,0.786912,-1.603,-0.490932,-0.064324,-2.06213,-1.60116,1.66012,0.787209,-0.400536,0.511372,-1.04825,0.511649,-0.458139,1.37381,0.029467,-0.419661,0.529245,-1.10749,0.53138,-0.490811,1.41027,0.0315286,-9.03167,-8.89987,-12.0809,21.8644,-2.14384,-1.14603,0.038645,-1.91669,-0.806347,-1.79333,3.30147,-1.20437,0.0613312,-0.0215248
3791642,1,-1.60059,-0.491238,-0.0605816,-2.06556,-1.59853,1.65792,0.78694,-1.60342,-0.490399,-0.0654403,-2.0616,-1.60165,1.66154,0.787241,-0.398973,0.516478,-1.05226,0.511682,-0.457561,1.37727,0.0308084,-0.420282,0.532535,-1.11631,0.535008,-0.493888,1.41906,0.031854,-9.10704,-9.0784,-12.1285,21.7652,-2.21159,-0.97849,0.0587866,-1.96412,-0.785948,-1.85518,3.29988,-1.21288,0.0528072,-0.0208483
3791643,1,-1.60097,-0.490713,-0.0616924,-2.06503,-1.599,1.65933,0.786978,-1.60384,-0.489863,-0.0665655,-2.06106,-1.60215,1.66297,0.787273,-0.391473,0.522222,-1.06682,0.519507,-0.459431,1.38859,0.0348414,-0.420903,0.535825,-1.12513,0.538636,-0.496965,1.42784,0.0321793,-9.46013,-9.20535,-11.8746,21.6898,-2.25096,-1.01053,0.000192821,-2.01798,-0.772964,-1.92606,3.30206,-1.22138,0.04239,-0.0203609
3791644,1,-1.60138,-0.490183,-0.0627959,-2.06449,-1.59948,1.66078,0.787012,-1.60426,-0.489325,-0.0676987,-2.06052,-1.60265,1.6644,0.787305,-0.395473,0.523047,-1.08312,0.523936,-0.457025,1.3996,0.0354057,-0.421133,0.538653,-1.1332,0.541862,-0.499512,1.4357,0.0325242,-9.43633,-9.22916,-11.5731,21.666,-2.27385,-1.09385,-0.00621587,-2.0731,-0.766509,-1.99712,3.30572,-1.22979,0.0312543,-0.0200117
3791645,1,-1.60182,-0.489655,-0.0639065,-2.06395,-1.59996,1.66219,0.787066,-1.60468,-0.488783,-0.0688399,-2.05997,-1.60315,1.66585,0.787338,-0.404176,0.534796,-1.08888,0.526629,-0.465488,1.40388,0.0423941,-0.421363,0.541481,-1.14127,0.545087,-0.502058,1.44356,0.032869,-8.98009,-9.32834,-11.4224,21.5668,-2.26835,-1.10026,-0.18749,-2.12058,-0.76648,-2.05504,3.30992,-1.23801,0.0210021,-0.0197949
3791646,1,-1.60226,-0.489114,-0.0650269,-2.06341,-1.60044,1.66363,0.787114,-1.6051,-0.488239,-0.0699893,-2.05942,-1.60366,1.6673,0.787371,-0.424453,0.541117,-1.10442,0.530922,-0.472335,1.40733,0.04345,-0.421592,0.544308,-1.14935,0.548313,-0.504604,1.45142,0.0332139,-8.37706,-9.43149,-11.0653,21.6422,-2.26286,-0.997716,-0.26531,-2.15081,-0.781544,-2.0871,3.31896,-1.24603,0.0130966,-0.019749
3791647,1,-1.60269,-0.48856,-0.0661891,-2.06286,-1.60094,1.66509,0.787162,-1.60552,-0.487692,-0.0711467,-2.05887,-1.60416,1.66876,0.787405,-0.423108,0.54209,-1.12363,0.539409,-0.478622,1.41758,0.0425759,-0.421822,0.547136,-1.15742,0.551538,-0.507151,1.45928,0.0335587,-8.12316,-9.65762,-10.6368,21.6144,-2.1887,-1.04258,-0.290945,-2.15342,-0.808953,-2.07982,3.33102,-1.25355,0.00906298,-0.0200817
3791648,1,-1.6031,-0.488012,-0.0673542,-2.06231,-1.60144,1.66654,0.787194,-1.60595,-0.487142,-0.0723122,-2.05832,-1.60467,1.67022,0.787439,-0.421305,0.544423,-1.12922,0.542484,-0.496331,1.42796,0.0399534,-0.422052,0.549964,-1.16549,0.554764,-0.509697,1.46714,0.0339035,-8.09935,-9.93533,-10.2798,21.6144,-2.09257,-1.07462,-0.149038,-2.13032,-0.834739,-2.03628,3.3388,-1.26034,0.00860773,-0.0210708
3791649,1,-1.60352,-0.487451,-0.0685044,-2.06177,-1.60193,1.66801,0.787237,-1.60637,-0.486589,-0.0734857,-2.05776,-1.60519,1.6717,0.787473,-0.416392,0.550186,-1.14312,0.547421,-0.490408,1.4346,0.0457776,-0.422282,0.552792,-1.17356,0.557989,-0.512244,1.47501,0.0342484,-7.92083,-10.1654,-10.2044,21.7176,-2.0706,-1.01053,-0.077627,-2.09485,-0.854979,-1.97495,3.34074,-1.26652,0.00968367,-0.022815
3791650,1,-1.60394,-0.486887,-0.0696806,-2.06123,-1.60242,1.66944,0.787285,-1.60679,-0.486033,-0.0746674,-2.0572,-1.6057,1.67318,0.787508,-0.419174,0.554607,-1.14418,0.545114,-0.491436,1.42814,0.0482081,-0.422512,0.555619,-1.18163,0.561215,-0.51479,1.48287,0.0345932,-7.84545,-10.3678,-10.0536,21.8644,-2.15483,-0.572911,-0.0712183,-2.05754,-0.876633,-1.91047,3.34193,-1.27248,0.0107762,-0.0251634
3791651,1,-1.60436,-0.486329,-0.0708324,-2.06067,-1.60291,1.67088,0.787322,-1.60721,-0.485475,-0.0758571,-2.05663,-1.60622,1.67467,0.787543,-0.41491,0.553852,-1.16746,0.545873,-0.492525,1.42787,0.0465726,-0.422742,0.558447,-1.1897,0.564441,-0.517336,1.49073,0.0349381,-7.82164,-10.5423,-10.0775,21.9159,-2.24547,-0.244237,0.0322363,-2.02065,-0.903069,-1.84608,3.34714,-1.27842,0.011964,-0.0278527
3791652,1,-1.60479,-0.485762,-0.0720028,-2.06011,-1.60341,1.67237,0.787366,-1.60764,-0.484914,-0.0770548,-2.05606,-1.60674,1.67617,0.787578,-0.41942,0.558804,-1.16677,0.548418,-0.49864,1.44901,0.048212,-0.422972,0.561275,-1.19777,0.567666,-0.519883,1.49859,0.0352829,-7.74627,-10.7209,-10.2322,22.1381,-2.30223,-0.314733,0.0651953,-1.98287,-0.931133,-1.78005,3.3566,-1.28436,0.0140775,-0.030636
3791653,1,-1.60519,-0.485198,-0.0732106,-2.05955,-1.60393,1.67388,0.787409,-1.60806,-0.48435,-0.0782607,-2.05549,-1.60726,1.67768,0.787614,-0.409304,0.559728,-1.17394,0.550836,-0.50322,1.46803,0.0494163,-0.423201,0.564102,-1.20584,0.570892,-0.522429,1.50645,0.0356277,-7.92083,-10.8716,-10.0775,22.2373,-2.26286,-0.649816,0.0844213,-1.95138,-0.959491,-1.72323,3.36891,-1.29052,0.016473,-0.0332777
3791654,1,-1.6056,-0.484633,-0.0744227,-2.05899,-1.60443,1.6754,0.787442,-1.60848,-0.483783,-0.0794737,-2.05492,-1.60779,1.67919,0.78765,-0.410132,0.561098,-1.19108,0.552011,-0.504954,1.47842,0.043317,-0.423105,0.566453,-1.21305,0.573687,-0.524414,1.51336,0.0359908,-8.07158,-10.9232,-9.72436,22.4356,-2.25645,-0.798131,0.175059,-1.93172,-0.986453,-1.68349,3.38274,-1.29708,0.0183842,-0.0355819
3791655,1,-1.60604,-0.484069,-0.0756438,-2.05843,-1.60495,1.67689,0.787478,-1.60891,-0.483214,-0.080694,-2.05434,-1.60831,1.68071,0.787686,-0.41744,0.563624,-1.18886,0.5516,-0.506298,1.47805,0.0421259,-0.423009,0.568803,-1.22026,0.576482,-0.526399,1.52027,0.0363539,-7.82164,-10.82,-9.47046,22.6102,-2.22258,-0.63059,0.181467,-1.91944,-1.01031,-1.65451,3.39815,-1.30399,0.0202469,-0.0373772
