shamilmamedov/beam_handling/data/vibration_suppression_ICRA/csZVIS_T2_0.62s.csv
duration, success rate, q[0], q[1], q[2], q[3], q[4], q[5], q[6],q_d[0], q_d[1], q_d[2], q_d[3], q_d[4], q_d[5], q_d[6],dq[0], dq[1], dq[2], dq[3], dq[4], dq[5], dq[6],dq_d[0], dq_d[1], dq_d[2], dq_d[3], dq_d[4], dq_d[5], dq_d[6],tau_J[0], tau_J[1], tau_J[2], tau_J[3], tau_J[4], tau_J[5], tau_J[6],tau_ext_hat_filtered[0], tau_ext_hat_filtered[1], tau_ext_hat_filtered[2], tau_ext_hat_filtered[3], tau_ext_hat_filtered[4], tau_ext_hat_filtered[5], tau_ext_hat_filtered[6]
1876101,0,-1.57037,-0.522989,0.000260786,-2.09662,-0.000694557,1.57115,0.785787,-1.5708,-0.523599,7.17749e-08,-2.0944,1.96212e-07,1.5708,0.785398,0.00104262,0.000738835,-0.000554246,0.00138208,0.000657896,0.00024738,0.000360604,0,0,0,0,0,0,0,-0.50597,-10.0623,-0.710691,21.666,1.39009,1.41745,-0.310171,-0.464124,-0.922806,-0.265811,3.17309,0.691096,-0.246898,-0.314794
1876102,1,-1.57038,-0.522994,0.000263952,-2.09662,-0.000694961,1.57116,0.785786,-1.5708,-0.523599,7.17749e-08,-2.0944,1.96212e-07,1.5708,0.785398,-0.000511346,-0.000713869,0.00139374,0.000364576,-0.000409113,0.00016492,-0.000234315,0,0,0,0,0,0,0,-0.454395,-10.0107,-0.786069,21.6898,1.41298,1.41745,-0.297354,-0.465237,-0.92138,-0.267353,3.17195,0.69099,-0.247007,-0.314403
1876103,1,-1.57037,-0.522991,0.000263703,-2.09662,-0.000694248,1.57116,0.785787,-1.5708,-0.523599,7.17749e-08,-2.0944,1.96212e-07,1.5708,0.785398,-0.000340897,0.000173701,0.000372348,0.000799863,-0.000272742,0.000109947,8.11486e-05,0,0,0,0,0,0,0,-0.454395,-10.0385,-0.762265,21.666,1.41298,1.41745,-0.303762,-0.466558,-0.919371,-0.269284,3.17027,0.690862,-0.24719,-0.314029
1876104,1,-1.57038,-0.522992,0.000264178,-2.09662,-0.0006934,1.57116,0.785791,-1.5708,-0.523599,7.17749e-08,-2.0944,1.96212e-07,1.5708,0.785398,0.000329547,-0.000533813,0.000248232,0.00109005,2.16225e-05,-0.000164061,0.00151216,0,0,0,0,0,0,0,-0.478199,-10.0107,-0.762265,21.6422,1.40749,1.42385,-0.34313,-0.467707,-0.916839,-0.271059,3.1682,0.69074,-0.247418,-0.313673
1876105,1,-1.57037,-0.52299,0.000262387,-2.09662,-0.00069332,1.57116,0.78579,-1.5708,-0.523599,7.17749e-08,-2.0944,1.96212e-07,1.5708,0.785398,0.00142612,0.000293738,-0.000484126,-0.000386921,1.4415e-05,0.000127985,0.000499481,0,0,0,0,0,0,0,-0.529774,-10.0385,-0.734494,21.6898,1.40749,1.41745,-0.329397,-0.468718,-0.914549,-0.272484,3.16627,0.690636,-0.247633,-0.31335
1876106,1,-1.57037,-0.52299,0.000264388,-2.09662,-0.000692684,1.57116,0.785789,-1.5708,-0.523599,7.17749e-08,-2.0944,1.96212e-07,1.5708,0.785398,-0.000812488,0.000195826,0.000326863,-0.000257948,0.000213061,8.53233e-05,9.56285e-05,0,0,0,0,0,0,0,-0.454395,-10.0385,-0.762265,21.6898,1.40199,1.41745,-0.322988,-0.46954,-0.913977,-0.273456,3.16557,0.690582,-0.24772,-0.313097
1876107,1,-1.57037,-0.52299,0.000262275,-2.09662,-0.000692675,1.57116,0.78579,-1.5708,-0.523599,7.17749e-08,-2.0944,1.96212e-07,1.5708,0.785398,1.51531e-05,0.00013055,0.000217909,-0.00137839,0.00014204,-0.000180477,0.000572379,0,0,0,0,0,0,0,-0.478199,-10.0385,-0.762265,21.7414,1.40199,1.42385,-0.336721,-0.469879,-0.915558,-0.273761,3.16653,0.6906,-0.247636,-0.312931
1876108,1,-1.57037,-0.522992,0.000265372,-2.09662,-0.000695868,1.57115,0.785792,-1.5708,-0.523599,7.17749e-08,-2.0944,1.96212e-07,1.5708,0.785398,-0.00054671,-0.00056258,0.000702085,-0.000918927,9.46936e-05,-0.000357677,0.000856304,0,0,0,0,0,0,0,-0.454395,-10.0107,-0.786069,21.7414,1.40199,1.43026,-0.349539,-0.469986,-0.918046,-0.273866,3.16861,0.69066,-0.247422,-0.312849
1876109,1,-1.57037,-0.522989,0.000265847,-2.09662,-0.000698153,1.57115,0.785791,-1.5708,-0.523599,7.17749e-08,-2.0944,1.96212e-07,1.5708,0.785398,0.00139876,0.000831372,0.000468056,0.000593808,-0.000343772,0.000236267,0.00033351,0,0,0,0,0,0,0,-0.529774,-10.0623,-0.786069,21.6898,1.41298,1.41745,-0.34313,-0.470497,-0.92035,-0.274611,3.17077,0.690695,-0.247199,-0.312858
1876110,1,-1.57038,-0.52299,0.000260256,-2.09662,-0.000694701,1.57115,0.78579,-1.5708,-0.523599,7.17749e-08,-2.0944,1.96212e-07,1.5708,0.785398,-0.000830728,-2.56372e-06,-0.000894388,-0.000810554,-2.57308e-05,0.000157511,-0.000286286,0,0,0,0,0,0,0,-0.454395,-10.0385,-0.734494,21.7414,1.40749,1.41745,-0.329397,-0.471074,-0.922629,-0.275374,3.17251,0.690712,-0.247041,-0.31297
1876111,1,-1.57038,-0.52299,0.000261729,-2.09662,-0.000692432,1.57115,0.785792,-1.5708,-0.523599,7.17749e-08,-2.0944,1.96212e-07,1.5708,0.785398,-0.000553819,-1.70915e-06,-0.000596259,-0.000540369,0.000423656,-0.000132352,0.000555128,0,0,0,0,0,0,0,-0.454395,-10.0385,-0.734494,21.7414,1.39559,1.42385,-0.349539,-0.470435,-0.92488,-0.274325,3.17416,0.690787,-0.246903,-0.313188
1876112,1,-1.57037,-0.522989,0.00026009,-2.09662,-0.000694659,1.57115,0.785791,-1.5708,-0.523599,7.17749e-08,-2.0944,1.96212e-07,1.5708,0.785398,0.0001876,0.000555673,-0.000397506,0.000196566,-0.000565273,-8.82343e-05,0.000132726,0,0,0,0,0,0,0,-0.478199,-10.0623,-0.734494,21.7176,1.41847,1.42385,-0.34313,-0.468809,-0.926795,-0.27184,3.17563,0.690904,-0.246786,-0.313492
1876113,1,-1.57037,-0.52299,0.000263623,-2.09662,-0.000695207,1.57115,0.785794,-1.5708,-0.523599,7.17749e-08,-2.0944,1.96212e-07,1.5708,0.785398,-0.000431746,-0.000186364,0.00038461,0.00133747,0.000470862,0.000178536,0.00103792,0,0,0,0,0,0,0,-0.454395,-10.0385,-0.762265,21.666,1.39559,1.41745,-0.368765,-0.467407,-0.927702,-0.269681,3.17611,0.69098,-0.24679,-0.313869
1876114,1,-1.57037,-0.522989,0.000265821,-2.09663,-0.000694364,1.57115,0.785788,-1.5708,-0.523599,7.17749e-08,-2.0944,1.96212e-07,1.5708,0.785398,0.000918595,0.00043257,0.000813219,-0.0014284,-0.000126902,-0.000118335,-0.00124083,0,0,0,0,0,0,0,-0.50597,-10.0623,-0.786069,21.7652,1.40749,1.42385,-0.31658,-0.467042,-0.927634,-0.26908,3.17583,0.690989,-0.246881,-0.314317
1876115,1,-1.57037,-0.522989,0.000264327,-2.09662,-0.000692319,1.57116,0.785792,-1.5708,-0.523599,7.17749e-08,-2.0944,1.96212e-07,1.5708,0.785398,-3.72167e-05,0.00028838,-1.46662e-05,0.000810969,0.000356208,0.000158469,0.000393481,0,0,0,0,0,0,0,-0.478199,-10.0623,-0.762265,21.6898,1.39559,1.41745,-0.349539,-0.467776,-0.927967,-0.270097,3.17597,0.690951,-0.246929,-0.314827
1876116,1,-1.57037,-0.522989,0.000262436,-2.09662,-0.000694622,1.57116,0.78579,-1.5708,-0.523599,7.17749e-08,-2.0944,1.96212e-07,1.5708,0.785398,-0.000581623,0.000192253,-0.000659391,-0.000108968,-0.000610238,-0.000131713,-0.000483665,0,0,0,0,0,0,0,-0.454395,-10.0623,-0.734494,21.7176,1.41847,1.42385,-0.329397,-0.468305,-0.92845,-0.270811,3.17616,0.690918,-0.246978,-0.315379
1876117,1,-1.57038,-0.522987,0.000262274,-2.09662,-0.000696517,1.57116,0.785793,-1.5708,-0.523599,7.17749e-08,-2.0944,1.96212e-07,1.5708,0.785398,-0.000387749,0.000777783,0.00021002,-7.26453e-05,7.54983e-08,0.000386909,0.000660901,0,0,0,0,0,0,0,-0.454395,-10.0901,-0.762265,21.7176,1.40749,1.41104,-0.355947,-0.467914,-0.929062,-0.270235,3.17629,0.690924,-0.247041,-0.315953
1876118,1,-1.57038,-0.52299,0.000261571,-2.09662,-0.000697555,1.57116,0.78579,-1.5708,-0.523599,7.17749e-08,-2.0944,1.96212e-07,1.5708,0.785398,-0.000258499,-0.000687904,0.000140013,-4.84302e-05,5.03322e-08,2.05806e-05,-0.000271476,0,0,0,0,0,0,0,-0.454395,-10.0385,-0.762265,21.7176,1.40749,1.41745,-0.336721,-0.467318,-0.92967,-0.269459,3.17652,0.690948,-0.247096,-0.316541
1876119,1,-1.57038,-0.522987,0.000259387,-2.09662,-0.000694706,1.57116,0.785793,-1.5708,-0.523599,7.17749e-08,-2.0944,1.96212e-07,1.5708,0.785398,-0.000172333,0.000747823,-0.000556272,0.00173095,3.35548e-08,-0.000223639,0.000768452,0,0,0,0,0,0,0,-0.454395,-10.0901,-0.734494,21.6422,1.40749,1.42385,-0.362356,-0.466774,-0.928973,-0.268819,3.17589,0.690958,-0.247237,-0.317143
1876120,1,-1.57037,-0.522987,0.00026144,-2.09662,-0.000696952,1.57116,0.785789,-1.5708,-0.523599,7.17749e-08,-2.0944,1.96212e-07,1.5708,0.785398,0.00109154,0.000498549,-0.000370848,0.00115397,2.23699e-08,-0.000149092,-0.000945761,0,0,0,0,0,0,0,-0.50597,-10.0901,-0.734494,21.6422,1.40749,1.42385,-0.322988,-0.466274,-0.927547,-0.26815,3.17422,0.690943,-0.247499,-0.317763
1876121,1,-1.57038,-0.522989,0.000264073,-2.09662,-0.000695115,1.57115,0.785791,-1.5708,-0.523599,7.17749e-08,-2.0944,1.96212e-07,1.5708,0.785398,-0.00103555,-0.000317248,0.000402382,0.0002125,-0.000203436,0.000375323,0.000115478,0,0,0,0,0,0,0,-0.430592,-10.0623,-0.762265,21.666,1.41298,1.41104,-0.34313,-0.466072,-0.92604,-0.267846,3.17213,0.69091,-0.247801,-0.318393
1876122,1,-1.57037,-0.522992,0.000264301,-2.09662,-0.000694299,1.57115,0.78579,-1.5708,-0.523599,7.17749e-08,-2.0944,1.96212e-07,1.5708,0.785398,0.00042326,-0.00141792,0.000268255,-0.000415146,-0.000135624,-0.000224503,-0.000160374,0,0,0,0,0,0,0,-0.478199,-10.0107,-0.762265,21.6898,1.41298,1.42385,-0.336721,-0.46617,-0.923378,-0.268092,3.16994,0.690884,-0.248061,-0.319017
1876123,1,-1.57037,-0.522989,0.000262428,-2.09662,-0.000696002,1.57115,0.785793,-1.5708,-0.523599,7.17749e-08,-2.0944,1.96212e-07,1.5708,0.785398,0.000931787,0.000261143,-0.000470777,-0.000926378,0.000316485,8.76906e-05,0.000605161,0,0,0,0,0,0,0,-0.50597,-10.0623,-0.734494,21.7176,1.40199,1.41745,-0.355947,-0.466665,-0.920144,-0.268924,3.16826,0.690871,-0.248213,-0.319623
1876124,1,-1.57037,-0.52299,0.000256982,-2.09662,-0.000696977,1.57115,0.78579,-1.5708,-0.523599,7.17749e-08,-2.0944,1.96212e-07,1.5708,0.785398,-2.84222e-05,-0.000382717,-0.00142748,-0.000617585,0.00021099,-0.000178899,-0.000579903,0,0,0,0,0,0,0,-0.478199,-10.0385,-0.686887,21.7176,1.40199,1.42385,-0.329397,-0.466993,-0.918474,-0.269299,3.16792,0.690906,-0.248211,-0.320217
1876125,1,-1.57038,-0.522989,0.000259621,-2.09662,-0.000694106,1.57115,0.78579,-1.5708,-0.523599,7.17749e-08,-2.0944,1.96212e-07,1.5708,0.785398,-0.00057576,0.000301667,0.000161974,-0.000411723,0.00014066,-0.000356625,-0.000386602,0,0,0,0,0,0,0,-0.454395,-10.0623,-0.734494,21.7176,1.40199,1.43026,-0.329397,-0.466495,-0.918518,-0.268336,3.16861,0.691002,-0.24811,-0.320805
1876126,1,-1.57038,-0.522989,0.000259387,-2.09662,-0.000692437,1.57115,0.78579,-1.5708,-0.523599,7.17749e-08,-2.0944,1.96212e-07,1.5708,0.785398,-0.000940652,0.000201112,0.000107982,0.000375132,0.000331132,-0.00023775,-0.000257735,0,0,0,0,0,0,0,-0.430592,-10.0623,-0.734494,21.6898,1.39559,1.43026,-0.329397,-0.46564,-0.919496,-0.26694,3.16955,0.691109,-0.247995,-0.321373
1876127,1,-1.57038,-0.522989,0.000259769,-2.09662,-0.000694661,1.57115,0.785789,-1.5708,-0.523599,7.17749e-08,-2.0944,1.96212e-07,1.5708,0.785398,-7.02894e-05,0.000134074,-0.000484824,0.000250088,-0.000626956,0.000316218,-0.000409182,0,0,0,0,0,0,0,-0.454395,-10.0623,-0.710691,21.6898,1.41847,1.41745,-0.322988,-0.464772,-0.920695,-0.265638,3.17014,0.691189,-0.247929,-0.321902
1876128,1,-1.57037,-0.52299,0.000264073,-2.09662,-0.000693334,1.57115,0.785786,-1.5708,-0.523599,7.17749e-08,-2.0944,1.96212e-07,1.5708,0.785398,0.000509952,-0.000467429,0.00088321,0.000166725,-1.10694e-05,-0.000263906,-0.00122222,0,0,0,0,0,0,0,-0.478199,-10.0385,-0.762265,21.6898,1.40749,1.43026,-0.297354,-0.464403,-0.921157,-0.265054,3.17005,0.691217,-0.247927,-0.322379
1876129,1,-1.57037,-0.52299,0.000258551,-2.09662,-0.000697105,1.57115,0.785785,-1.5708,-0.523599,7.17749e-08,-2.0944,1.96212e-07,1.5708,0.785398,-0.000216844,-0.000311619,-0.000617619,-0.000538464,-0.00021083,6.14217e-05,-0.00105217,0,0,0,0,0,0,0,-0.454395,-10.0385,-0.710691,21.7176,1.41298,1.42385,-0.290945,-0.464809,-0.920669,-0.265558,3.16956,0.691198,-0.24794,-0.322782
1876130,1,-1.57038,-0.52299,0.000260047,-2.09662,-0.000694352,1.57115,0.785789,-1.5708,-0.523599,7.17749e-08,-2.0944,1.96212e-07,1.5708,0.785398,-0.000701374,-0.000207746,-0.000411746,-0.000915788,6.28971e-05,0.000278307,0.000485345,0,0,0,0,0,0,0,-0.430592,-10.0385,-0.710691,21.7414,1.40749,1.41745,-0.322988,-0.464909,-0.920162,-0.265605,3.16942,0.691211,-0.247894,-0.323087
1876131,1,-1.57037,-0.522989,0.000262216,-2.09662,-0.000693638,1.57115,0.785791,-1.5708,-0.523599,7.17749e-08,-2.0944,1.96212e-07,1.5708,0.785398,0.000646041,0.000418314,0.000282315,0.000595901,4.19314e-05,-0.00028918,0.00106955,0,0,0,0,0,0,0,-0.478199,-10.0623,-0.734494,21.6898,1.40749,1.43026,-0.34313,-0.464619,-0.92039,-0.265079,3.16978,0.691256,-0.247799,-0.323279
1876132,1,-1.57037,-0.52299,0.000266002,-2.09662,-0.0006934,1.57115,0.785791,-1.5708,-0.523599,7.17749e-08,-2.0944,1.96212e-07,1.5708,0.785398,0.00108031,-0.000277936,0.00139464,-0.000809159,2.79543e-05,-0.000430146,-0.000507671,0,0,0,0,0,0,0,-0.50597,-10.0385,-0.786069,21.7414,1.40749,1.43667,-0.310171,-0.465468,-0.92107,-0.266174,3.17027,0.691247,-0.247705,-0.323383
1876133,1,-1.57037,-0.522985,0.000260768,-2.09662,-0.000691998,1.57115,0.785784,-1.5708,-0.523599,7.17749e-08,-2.0944,1.96212e-07,1.5708,0.785398,7.05916e-05,0.00157795,-0.000833481,0.0012238,0.000459446,0.000425313,-0.0017626,0,0,0,0,0,0,0,-0.478199,-10.1139,-0.710691,21.666,1.39559,1.41745,-0.271719,-0.467366,-0.922524,-0.268721,3.17092,0.691188,-0.247609,-0.323436
1876134,1,-1.57037,-0.522985,0.000264405,-2.09662,-0.000692684,1.57116,0.785792,-1.5708,-0.523599,7.17749e-08,-2.0944,1.96212e-07,1.5708,0.785398,0.000696674,0.00105196,0.000650772,-0.00039056,6.89382e-05,0.000283542,0.00170715,0,0,0,0,0,0,0,-0.50597,-10.1139,-0.762265,21.7176,1.40199,1.41745,-0.349539,-0.468998,-0.925849,-0.270768,3.17201,0.691143,-0.247506,-0.323437
1876135,1,-1.57037,-0.522992,0.000260332,-2.09662,-0.000692675,1.57115,0.78579,-1.5708,-0.523599,7.17749e-08,-2.0944,1.96212e-07,1.5708,0.785398,-0.000185164,-0.00171154,-0.000215766,-0.000817185,4.59588e-05,-4.83309e-05,0.000392114,0,0,0,0,0,0,0,-0.478199,-10.0107,-0.734494,21.7414,1.40199,1.42385,-0.329397,-0.470225,-0.929076,-0.272166,3.17314,0.691108,-0.247393,-0.323374
1876136,1,-1.57037,-0.522989,0.000263703,-2.09662,-0.00069196,1.57115,0.785789,-1.5708,-0.523599,7.17749e-08,-2.0944,1.96212e-07,1.5708,0.785398,-0.000123442,6.5398e-05,0.00050577,-0.00054479,0.000267998,0.000205138,2.40502e-05,0,0,0,0,0,0,0,-0.478199,-10.0623,-0.762265,21.7414,1.39559,1.41745,-0.322988,-0.471087,-0.929571,-0.27306,3.1736,0.691072,-0.247293,-0.323288
1876137,1,-1.57037,-0.522987,0.000260098,-2.09662,-0.000697087,1.57115,0.785787,-1.5708,-0.523599,7.17749e-08,-2.0944,1.96212e-07,1.5708,0.785398,-8.2295e-05,0.000693213,-0.000312434,0.000843232,-0.000465595,-0.0001006,-0.000696043,0,0,0,0,0,0,0,-0.478199,-10.0901,-0.734494,21.6898,1.41298,1.42385,-0.303762,-0.471466,-0.929115,-0.273283,3.17367,0.691039,-0.247234,-0.323211
1876138,1,-1.57037,-0.52299,0.000263625,-2.09662,-0.000694346,1.57115,0.78579,-1.5708,-0.523599,7.17749e-08,-2.0944,1.96212e-07,1.5708,0.785398,-0.000611675,-0.000744284,0.000441325,0.000562155,-0.000106946,-6.70667e-05,0.000485407,0,0,0,0,0,0,0,-0.454395,-10.0385,-0.762265,21.6898,1.40749,1.42385,-0.329397,-0.47141,-0.928497,-0.272898,3.17315,0.690997,-0.247268,-0.323139
1876139,1,-1.57038,-0.52299,0.000260532,-2.09662,-0.000694857,1.57115,0.785787,-1.5708,-0.523599,7.17749e-08,-2.0944,1.96212e-07,1.5708,0.785398,-0.000964595,-0.000496189,-0.000912209,-0.000274844,-0.000478198,-4.47111e-05,-0.000625831,0,0,0,0,0,0,0,-0.430592,-10.0385,-0.710691,21.7176,1.41847,1.42385,-0.303762,-0.470625,-0.926377,-0.271541,3.17172,0.690972,-0.247392,-0.323065
1876140,1,-1.57037,-0.522989,0.000264327,-2.09662,-0.000696595,1.57115,0.785787,-1.5708,-0.523599,7.17749e-08,-2.0944,1.96212e-07,1.5708,0.785398,0.00047056,0.000226019,0.000598286,-0.000740041,8.81022e-05,-2.98074e-05,-0.000417221,0,0,0,0,0,0,0,-0.478199,-10.0623,-0.762265,21.7414,1.40749,1.42385,-0.303762,-0.469399,-0.924196,-0.269611,3.17059,0.690987,-0.24747,-0.322985
1876141,1,-1.57037,-0.522989,0.000260766,-2.09662,-0.000697581,1.57116,0.785785,-1.5708,-0.523599,7.17749e-08,-2.0944,1.96212e-07,1.5708,0.785398,0.000313707,0.000150679,-0.000807568,0.00182669,5.87348e-05,0.000217487,-0.000990224,0,0,0,0,0,0,0,-0.478199,-10.0623,-0.710691,21.6422,1.40749,1.41745,-0.284536,-0.468603,-0.92306,-0.268254,3.16997,0.691005,-0.247512,-0.32288
1876142,1,-1.57037,-0.522989,0.000262456,-2.09662,-0.000694714,1.57115,0.785787,-1.5708,-0.523599,7.17749e-08,-2.0944,1.96212e-07,1.5708,0.785398,-0.000347674,0.000100453,1.8433e-05,-0.00110226,3.91565e-05,-0.000329726,5.19275e-05,0,0,0,0,0,0,0,-0.454395,-10.0623,-0.734494,21.7414,1.40749,1.43026,-0.303762,-0.46807,-0.922421,-0.267201,3.16927,0.691019,-0.247584,-0.32273
1876143,1,-1.57037,-0.52299,0.000264411,-2.09662,-0.000693759,1.57116,0.785782,-1.5708,-0.523599,7.17749e-08,-2.0944,1.96212e-07,1.5708,0.785398,-0.000231783,-0.000489843,0.000661903,-0.000734838,2.61044e-05,0.000492259,-0.00138954,0,0,0,0,0,0,0,-0.454395,-10.0385,-0.762265,21.7414,1.40749,1.41104,-0.26531,-0.467665,-0.922484,-0.266407,3.16929,0.691054,-0.247576,-0.322517
1876144,1,-1.57037,-0.522989,0.000256993,-2.09662,-0.00069283,1.57115,0.785787,-1.5708,-0.523599,7.17749e-08,-2.0944,1.96212e-07,1.5708,0.785398,0.0010519,0.00023025,-0.00132197,6.69199e-05,0.000220853,9.08139e-05,0.000497797,0,0,0,0,0,0,0,-0.50597,-10.0623,-0.686887,21.7176,1.40199,1.41745,-0.303762,-0.467588,-0.922979,-0.266109,3.17,0.691099,-0.247493,-0.322227
1876145,1,-1.57037,-0.522987,0.000259625,-2.09662,-0.000692724,1.57115,0.785785,-1.5708,-0.523599,7.17749e-08,-2.0944,1.96212e-07,1.5708,0.785398,5.16557e-05,0.000803114,0.000232311,0.000694227,0.000147236,-0.000176816,-0.000142853,0,0,0,0,0,0,0,-0.478199,-10.0901,-0.734494,21.6898,1.40199,1.42385,-0.290945,-0.467582,-0.92392,-0.265738,3.17067,0.691132,-0.247444,-0.321854
1876146,1,-1.57037,-0.522989,0.000263468,-2.09662,-0.000696494,1.57115,0.785787,-1.5708,-0.523599,7.17749e-08,-2.0944,1.96212e-07,1.5708,0.785398,0.00068405,-0.000114205,0.000804488,0.000462818,-0.000105293,-0.000117878,0.000379482,0,0,0,0,0,0,0,-0.50597,-10.0623,-0.762265,21.6898,1.40749,1.42385,-0.303762,-0.468089,-0.925187,-0.266029,3.17104,0.691122,-0.247465,-0.321407
1876147,1,-1.57037,-0.522989,0.000263639,-2.09662,-0.000694352,1.57115,0.785787,-1.5708,-0.523599,7.17749e-08,-2.0944,1.96212e-07,1.5708,0.785398,-0.000750392,-7.61365e-05,0.00109314,-0.000341069,-7.01956e-05,-0.000315944,0.000490347,0,0,0,0,0,0,0,-0.454395,-10.0623,-0.786069,21.7176,1.40749,1.43026,-0.310171,-0.469441,-0.925849,-0.267668,3.17104,0.691058,-0.247522,-0.320908
1876148,1,-1.57037,-0.522987,0.00026165,-2.09663,-0.000696834,1.57116,0.78579,-1.5708,-0.523599,7.17749e-08,-2.0944,1.96212e-07,1.5708,0.785398,0.000706164,0.000598856,-0.000477668,-0.00189781,-4.67971e-05,0.000264089,0.00131024,0,0,0,0,0,0,0,-0.50597,-10.0901,-0.734494,21.789,1.40749,1.41745,-0.336721,-0.470893,-0.927128,-0.269561,3.17189,0.69101,-0.247473,-0.320385
1876149,1,-1.57037,-0.52299,0.000263683,-2.09662,-0.000694465,1.57116,0.785788,-1.5708,-0.523599,7.17749e-08,-2.0944,1.96212e-07,1.5708,0.785398,-0.000735649,-0.000807188,0.000887981,0.00161165,-3.11981e-05,-6.12999e-05,0.00012751,0,0,0,0,0,0,0,-0.454395,-10.0385,-0.786069,21.666,1.40749,1.42385,-0.31658,-0.471905,-0.928796,-0.270836,3.17329,0.690997,-0.247355,-0.319882
1876150,1,-1.57037,-0.52299,0.000263614,-2.09662,-0.000695549,1.57115,0.78579,-1.5708,-0.523599,7.17749e-08,-2.0944,1.96212e-07,1.5708,0.785398,-0.000490433,-0.000538126,3.51752e-05,0.000517623,0.000420011,-4.08666e-05,0.000559724,0,0,0,0,0,0,0,-0.454395,-10.0385,-0.762265,21.6898,1.39559,1.42385,-0.329397,-0.472444,-0.927774,-0.271521,3.17288,0.690971,-0.247407,-0.319439
1876151,1,-1.57037,-0.522989,0.000262199,-2.09662,-0.000697673,1.57115,0.785789,-1.5708,-0.523599,7.17749e-08,-2.0944,1.96212e-07,1.5708,0.785398,0.000229857,0.000198062,-0.000626164,-0.000304532,-0.000160802,0.000210115,0.000135791,0,0,0,0,0,0,0,-0.478199,-10.0623,-0.734494,21.7176,1.40749,1.41745,-0.322988,-0.472349,-0.925094,-0.271355,3.17128,0.690946,-0.247569,-0.319073
1876152,1,-1.57037,-0.52299,0.000264326,-2.09662,-0.000694745,1.57115,0.785788,-1.5708,-0.523599,7.17749e-08,-2.0944,1.96212e-07,1.5708,0.785398,0.000153238,-0.000424771,0.000232171,0.000446592,-0.000107202,0.000377435,-0.000146832,0,0,0,0,0,0,0,-0.478199,-10.0385,-0.762265,21.6898,1.40749,1.41104,-0.31658,-0.471888,-0.923157,-0.270599,3.17012,0.69094,-0.24769,-0.318783
1876153,1,-1.57037,-0.522992,0.000260306,-2.09663,-0.000693159,1.57115,0.785786,-1.5708,-0.523599,7.17749e-08,-2.0944,1.96212e-07,1.5708,0.785398,0.000102159,-0.000932795,-0.000494833,-0.00146551,0.000131983,-0.000223094,-0.000809965,0,0,0,0,0,0,0,-0.478199,-10.0107,-0.734494,21.7652,1.40199,1.42385,-0.297354,-0.471476,-0.921393,-0.269884,3.16937,0.690938,-0.247765,-0.318562
1876154,1,-1.57037,-0.52299,0.000265365,-2.09662,-0.000693444,1.57115,0.785786,-1.5708,-0.523599,7.17749e-08,-2.0944,1.96212e-07,1.5708,0.785398,6.81057e-05,2.77509e-05,0.000876537,0.000786231,-0.000115462,-0.00014873,-0.000539976,0,0,0,0,0,0,0,-0.478199,-10.0385,-0.786069,21.6898,1.40749,1.42385,-0.297354,-0.471309,-0.919598,-0.269553,3.16901,0.690933,-0.247792,-0.318383
1876155,1,-1.57037,-0.52299,0.000264175,-2.09662,-0.00069592,1.57115,0.785788,-1.5708,-0.523599,7.17749e-08,-2.0944,1.96212e-07,1.5708,0.785398,-0.000511408,1.85006e-05,2.75462e-05,0.00108097,0.000126476,-9.9153e-05,0.000352092,0,0,0,0,0,0,0,-0.454395,-10.0385,-0.762265,21.666,1.40199,1.42385,-0.31658,-0.471451,-0.918005,-0.269771,3.16844,0.690902,-0.247866,-0.318212
1876156,1,-1.57037,-0.522989,0.000260255,-2.09662,-0.000693754,1.57115,0.785788,-1.5708,-0.523599,7.17749e-08,-2.0944,1.96212e-07,1.5708,0.785398,0.000215873,0.000569146,-0.00063125,0.000163832,8.43173e-05,-6.6102e-05,0.000234728,0,0,0,0,0,0,0,-0.478199,-10.0623,-0.734494,21.6898,1.40199,1.42385,-0.31658,-0.47136,-0.917124,-0.269711,3.16761,0.690865,-0.247998,-0.318034
1876157,1,-1.57037,-0.522992,0.000263678,-2.09662,-0.000693032,1.57115,0.785787,-1.5708,-0.523599,7.17749e-08,-2.0944,1.96212e-07,1.5708,0.785398,0.000143915,-0.000826995,0.000228781,-0.000540392,5.62115e-05,0.00043065,-0.000318232,0,0,0,0,0,0,0,-0.478199,-10.0107,-0.762265,21.7176,1.40199,1.41104,-0.303762,-0.470967,-0.917183,-0.269178,3.16728,0.690846,-0.24808,-0.317855
1876158,1,-1.57037,-0.522992,0.000265839,-2.09662,-0.000693401,1.57115,0.785788,-1.5708,-0.523599,7.17749e-08,-2.0944,1.96212e-07,1.5708,0.785398,-0.000460868,-0.00055133,0.000709332,-0.000917074,-0.000165976,-0.000424977,0.000262563,0,0,0,0,0,0,0,-0.454395,-10.0107,-0.786069,21.7414,1.40749,1.43026,-0.31658,-0.470875,-0.917123,-0.269145,3.16751,0.690826,-0.248076,-0.317679
1876159,1,-1.57037,-0.52299,0.000258583,-2.09662,-0.000693931,1.57115,0.785791,-1.5708,-0.523599,7.17749e-08,-2.0944,1.96212e-07,1.5708,0.785398,-0.000307246,0.00028206,-0.00129035,-5.45704e-05,-0.000314101,-4.5959e-05,0.00115839,0,0,0,0,0,0,0,-0.454395,-10.0385,-0.710691,21.7176,1.41298,1.42385,-0.34313,-0.470637,-0.917176,-0.269014,3.16827,0.690823,-0.247999,-0.317506
1876160,1,-1.57037,-0.52299,0.000263217,-2.09663,-0.000692684,1.57115,0.785791,-1.5708,-0.523599,7.17749e-08,-2.0944,1.96212e-07,1.5708,0.785398,-0.00020483,0.00018804,0.000903005,-0.00115,0.0001975,0.00020672,0.000772257,0,0,0,0,0,0,0,-0.454395,-10.0385,-0.786069,21.7652,1.40199,1.41745,-0.34313,-0.469892,-0.91856,-0.268188,3.16982,0.690857,-0.247857,-0.317354
1876161,1,-1.57037,-0.522989,0.00026151,-2.09662,-0.000693285,1.57116,0.78579,-1.5708,-0.523599,7.17749e-08,-2.0944,1.96212e-07,1.5708,0.785398,-0.000136554,0.000682172,-0.000604423,0.000346954,-7.17837e-05,0.000137813,0.000277479,0,0,0,0,0,0,0,-0.454395,-10.0623,-0.734494,21.7176,1.40749,1.41745,-0.336721,-0.469239,-0.921321,-0.267556,3.17202,0.690902,-0.247676,-0.317254
1876162,1,-1.57038,-0.522989,0.000264096,-2.09662,-0.000692672,1.57115,0.78579,-1.5708,-0.523599,7.17749e-08,-2.0944,1.96212e-07,1.5708,0.785398,-0.000647848,0.000454781,0.000246665,0.000231303,0.000155595,-0.000145484,0.000184986,0,0,0,0,0,0,0,-0.430592,-10.0623,-0.762265,21.7176,1.40199,1.42385,-0.336721,-0.468602,-0.924565,-0.267022,3.17409,0.690941,-0.247542,-0.317231
1876163,1,-1.57037,-0.522989,0.00026236,-2.09662,-0.000693281,1.57115,0.785791,-1.5708,-0.523599,7.17749e-08,-2.0944,1.96212e-07,1.5708,0.785398,0.000681725,0.000303188,-0.00048517,0.000154202,-9.97207e-05,-9.6989e-05,0.000360683,0,0,0,0,0,0,0,-0.478199,-10.0623,-0.734494,21.7176,1.40749,1.42385,-0.34313,-0.467922,-0.927397,-0.266456,3.17558,0.690965,-0.247487,-0.317289
1876164,1,-1.57037,-0.522987,0.000262249,-2.09662,-0.000692671,1.57115,0.78579,-1.5708,-0.523599,7.17749e-08,-2.0944,1.96212e-07,1.5708,0.785398,0.000454484,0.000851739,0.000326167,0.000752415,0.00013697,-0.000302018,3.09646e-06,0,0,0,0,0,0,0,-0.478199,-10.0901,-0.762265,21.6898,1.40199,1.43026,-0.336721,-0.467733,-0.929714,-0.266542,3.17655,0.69095,-0.247487,-0.31742
1876165,1,-1.57037,-0.522992,0.000265363,-2.09662,-0.000695866,1.57115,0.78579,-1.5708,-0.523599,7.17749e-08,-2.0944,1.96212e-07,1.5708,0.785398,-0.000253823,-0.00128821,0.000774257,0.00050161,9.13134e-05,3.60134e-05,2.06431e-06,0,0,0,0,0,0,0,-0.454395,-10.0107,-0.786069,21.6898,1.40199,1.42385,-0.336721,-0.468244,-0.930408,-0.267651,3.17651,0.690878,-0.24757,-0.31762
1876166,1,-1.57037,-0.522992,0.000262225,-2.09662,-0.000694956,1.57115,0.78579,-1.5708,-0.523599,7.17749e-08,-2.0944,1.96212e-07,1.5708,0.785398,0.000387597,-0.000858809,-0.000690255,0.000334407,-0.000346025,0.000261368,1.3762e-06,0,0,0,0,0,0,0,-0.478199,-10.0107,-0.734494,21.6898,1.41298,1.41745,-0.336721,-0.468963,-0.927698,-0.269133,3.17483,0.69077,-0.247758,-0.317881
1876167,1,-1.57038,-0.522992,0.000260715,-2.09662,-0.000693026,1.57115,0.78579,-1.5708,-0.523599,7.17749e-08,-2.0944,1.96212e-07,1.5708,0.785398,-0.000855226,-0.000572539,-0.00101698,0.00077975,0.000176217,0.000174245,-0.00027035,0,0,0,0,0,0,0,-0.430592,-10.0107,-0.710691,21.666,1.40199,1.41745,-0.329397,-0.468806,-0.922591,-0.269306,3.17203,0.690688,-0.248012,-0.318198
1876168,1,-1.57037,-0.522991,0.000258638,-2.09662,-0.00069401,1.57115,0.785787,-1.5708,-0.523599,7.17749e-08,-2.0944,1.96212e-07,1.5708,0.785398,0.000543473,0.000824733,-0.000677988,-0.000686593,-0.000289423,-0.000358554,-0.00112967,0,0,0,0,0,0,0,-0.478199,-10.0623,-0.710691,21.7176,1.41298,1.43026,-0.303762,-0.467558,-0.918545,-0.267797,3.1698,0.690677,-0.248203,-0.318551
1876169,1,-1.57037,-0.522991,0.000261747,-2.09662,-0.00069332,1.57115,0.785791,-1.5708,-0.523599,7.17749e-08,-2.0944,1.96212e-07,1.5708,0.785398,-0.000194497,-6.99001e-06,0.00010482,-0.000457728,1.0502e-05,-1.67731e-06,0.000704949,0,0,0,0,0,0,0,-0.454395,-10.0385,-0.734494,21.7176,1.40749,1.42385,-0.34313,-0.466269,-0.917754,-0.266148,3.16953,0.690715,-0.248208,-0.318901
1876170,1,-1.57037,-0.52299,0.000258425,-2.09662,-0.000695879,1.57115,0.78579,-1.5708,-0.523599,7.17749e-08,-2.0944,1.96212e-07,1.5708,0.785398,0.000427148,-4.66001e-06,-0.000486932,-0.000305152,0.000210452,0.000236241,0.000232607,0,0,0,0,0,0,0,-0.478199,-10.0385,-0.710691,21.7176,1.40199,1.41745,-0.336721,-0.465536,-0.918848,-0.265246,3.17053,0.690762,-0.248085,-0.319226
1876171,1,-1.57037,-0.522989,0.000263625,-2.09662,-0.000694961,1.57115,0.785789,-1.5708,-0.523599,7.17749e-08,-2.0944,1.96212e-07,1.5708,0.785398,0.000284765,0.000553705,0.000881805,0.000446179,-0.0002666,-7.98651e-05,-0.000353555,0,0,0,0,0,0,0,-0.478199,-10.0623,-0.762265,21.6898,1.41298,1.42385,-0.322988,-0.465517,-0.920253,-0.265321,3.17166,0.690784,-0.247956,-0.319534
1876172,1,-1.57037,-0.522989,0.000262202,-2.09662,-0.000694858,1.57115,0.785788,-1.5708,-0.523599,7.17749e-08,-2.0944,1.96212e-07,1.5708,0.785398,0.000189843,0.000369137,-6.17442e-05,0.000297453,-0.000381184,-0.000290602,-0.000473062,0,0,0,0,0,0,0,-0.478199,-10.0623,-0.734494,21.6898,1.41847,1.43026,-0.31658,-0.466278,-0.921945,-0.266491,3.17261,0.690771,-0.247863,-0.319833
1876173,1,-1.57038,-0.522987,0.000260248,-2.09662,-0.00069401,1.57115,0.785791,-1.5708,-0.523599,7.17749e-08,-2.0944,1.96212e-07,1.5708,0.785398,-0.000987062,0.000895705,-4.11628e-05,0.000755114,-5.0672e-05,4.3624e-05,0.000667969,0,0,0,0,0,0,0,-0.430592,-10.0901,-0.734494,21.666,1.41298,1.42385,-0.34313,-0.466936,-0.923955,-0.267514,3.17331,0.690769,-0.247808,-0.320115
1876174,1,-1.57037,-0.522985,0.000260056,-2.09662,-0.00069332,1.57115,0.78579,-1.5708,-0.523599,7.17749e-08,-2.0944,1.96212e-07,1.5708,0.785398,0.000455583,0.00115395,-0.000584254,-0.00125983,0.000169669,2.90827e-05,0.000207954,0,0,0,0,0,0,0,-0.478199,-10.1139,-0.710691,21.7414,1.40749,1.42385,-0.336721,-0.466854,-0.92728,-0.267448,3.17454,0.690833,-0.247704,-0.320381
1876175,1,-1.57038,-0.522989,0.000260549,-2.09662,-0.000693904,1.57115,0.785793,-1.5708,-0.523599,7.17749e-08,-2.0944,1.96212e-07,1.5708,0.785398,-0.000809902,-0.000437127,-0.000389503,0.00036654,-9.03377e-05,1.93885e-05,0.000850713,0,0,0,0,0,0,0,-0.430592,-10.0623,-0.710691,21.6898,1.41298,1.42385,-0.355947,-0.466222,-0.931353,-0.266512,3.17639,0.690957,-0.247518,-0.320644
1876176,1,-1.57037,-0.52299,0.000262202,-2.09662,-0.000691963,1.57115,0.785788,-1.5708,-0.523599,7.17749e-08,-2.0944,1.96212e-07,1.5708,0.785398,1.68773e-05,-0.00084823,0.000946758,-0.000405254,0.000584035,-0.000224433,-0.00089092,0,0,0,0,0,0,0,-0.454395,-10.0385,-0.762265,21.7176,1.39559,1.43026,-0.31658,-0.465606,-0.932938,-0.26562,3.17722,0.691077,-0.247383,-0.320928
1876177,1,-1.57038,-0.522989,0.000259598,-2.09663,-0.000692672,1.57115,0.78579,-1.5708,-0.523599,7.17749e-08,-2.0944,1.96212e-07,1.5708,0.785398,1.12515e-05,-8.67457e-06,-1.84423e-05,-0.00138379,0.000151998,8.77367e-05,0.000152038,0,0,0,0,0,0,0,-0.454395,-10.0623,-0.734494,21.7652,1.40199,1.42385,-0.336721,-0.465653,-0.932141,-0.265781,3.17725,0.691156,-0.247279,-0.321234
1876178,1,-1.57037,-0.522996,0.00026151,-2.09662,-0.000691959,1.57115,0.78579,-1.5708,-0.523599,7.17749e-08,-2.0944,1.96212e-07,1.5708,0.785398,0.000564313,-0.00232583,-1.22948e-05,0.000840709,0.000338691,5.84912e-05,0.000101359,0,0,0,0,0,0,0,-0.478199,-9.9631,-0.734494,21.6898,1.39559,1.42385,-0.336721,-0.46619,-0.929442,-0.266636,3.17666,0.691189,-0.247199,-0.321548
1876179,1,-1.57037,-0.52299,0.000261965,-2.09663,-0.000693891,1.57115,0.78579,-1.5708,-0.523599,7.17749e-08,-2.0944,1.96212e-07,1.5708,0.785398,-0.000180603,0.000212683,0.000641417,-0.00120277,-0.000418466,3.89941e-05,6.75726e-05,0,0,0,0,0,0,0,-0.454395,-10.0385,-0.762265,21.7652,1.41298,1.42385,-0.336721,-0.466942,-0.924444,-0.267767,3.17492,0.691167,-0.247215,-0.321863
1876180,1,-1.57037,-0.52299,0.000267218,-2.09663,-0.000692671,1.57116,0.785791,-1.5708,-0.523599,7.17749e-08,-2.0944,1.96212e-07,1.5708,0.785398,0.00043641,0.000141788,0.00163404,-0.000801843,0.000127924,0.000500714,0.000282407,0,0,0,0,0,0,0,-0.478199,-10.0385,-0.81384,21.7652,1.40199,1.41104,-0.34313,-0.4683,-0.920933,-0.269878,3.17408,0.691111,-0.247176,-0.322174
1876181,1,-1.57037,-0.522989,0.000260063,-2.09662,-0.000691958,1.57115,0.785788,-1.5708,-0.523599,7.17749e-08,-2.0944,1.96212e-07,1.5708,0.785398,-0.000265872,0.000651338,-0.000766682,0.00122868,0.000322641,9.64504e-05,-0.000795073,0,0,0,0,0,0,0,-0.454395,-10.0623,-0.734494,21.6898,1.39559,1.41745,-0.31658,-0.469895,-0.920362,-0.272434,3.17449,0.691047,-0.247085,-0.322485
1876182,1,-1.57037,-0.522992,0.000257864,-2.09662,-0.000694502,1.57115,0.78579,-1.5708,-0.523599,7.17749e-08,-2.0944,1.96212e-07,1.5708,0.785398,0.000379564,-0.000772201,-0.00106793,0.000819117,-0.000632616,-0.000410418,0.000215937,0,0,0,0,0,0,0,-0.478199,-10.0107,-0.710691,21.6898,1.41847,1.43026,-0.336721,-0.470323,-0.919843,-0.273203,3.17413,0.690997,-0.247132,-0.322805
1876183,1,-1.57037,-0.522994,0.000261307,-2.09662,-0.000695866,1.57115,0.785787,-1.5708,-0.523599,7.17749e-08,-2.0944,1.96212e-07,1.5708,0.785398,-0.000303769,-0.000514801,0.000494471,0.000546078,0.000188607,-3.62528e-05,-0.00107675,0,0,0,0,0,0,0,-0.454395,-10.0107,-0.762265,21.6898,1.40199,1.42385,-0.303762,-0.469653,-0.917558,-0.272264,3.17243,0.690958,-0.247323,-0.323121
1876184,1,-1.57038,-0.522993,0.000259299,-2.09662,-0.000694346,1.57115,0.78579,-1.5708,-0.523599,7.17749e-08,-2.0944,1.96212e-07,1.5708,0.785398,-0.000759325,-0.0003432,-0.000319967,0.000920864,-7.77123e-05,-0.000261527,0.000231606,0,0,0,0,0,0,0,-0.430592,-10.0107,-0.734494,21.666,1.40749,1.43026,-0.329397,-0.468718,-0.914047,-0.271016,3.17006,0.690918,-0.247571,-0.32341
1876185,1,-1.57037,-0.522995,0.000261229,-2.09662,-0.000693636,1.57115,0.785788,-1.5708,-0.523599,7.17749e-08,-2.0944,1.96212e-07,1.5708,0.785398,0.00125702,-0.0002288,0.000436303,-0.000592517,-5.18082e-05,0.000300366,-0.000320314,0,0,0,0,0,0,0,-0.50597,-10.0107,-0.762265,21.7176,1.40749,1.41745,-0.31658,-0.467971,-0.910912,-0.270107,3.168,0.69088,-0.247775,-0.323654
1876186,1,-1.57037,-0.522991,0.000261404,-2.09663,-0.000692789,1.57115,0.785791,-1.5708,-0.523599,7.17749e-08,-2.0944,1.96212e-07,1.5708,0.785398,0.0001884,0.00049708,-0.000358745,-0.00150863,0.000168912,-0.000274474,0.000769801,0,0,0,0,0,0,0,-0.478199,-10.0385,-0.734494,21.7652,1.40199,1.43026,-0.34313,-0.467907,-0.910133,-0.270107,3.16777,0.690853,-0.247785,-0.323844
1876187,1,-1.57037,-0.522987,0.000262112,-2.09662,-0.00069332,1.57115,0.785787,-1.5708,-0.523599,7.17749e-08,-2.0944,1.96212e-07,1.5708,0.785398,-0.000431212,0.00153781,-0.000239164,-0.000448945,-9.08427e-05,5.43765e-05,-0.000944861,0,0,0,0,0,0,0,-0.454395,-10.0901,-0.734494,21.7414,1.40749,1.42385,-0.303762,-0.467863,-0.913382,-0.270066,3.1702,0.690883,-0.247542,-0.323993
1876188,1,-1.57037,-0.522987,0.000262348,-2.09662,-0.000695879,1.57115,0.78579,-1.5708,-0.523599,7.17749e-08,-2.0944,1.96212e-07,1.5708,0.785398,-0.000287474,0.00102521,-0.000159442,0.000257515,0.000142889,0.00027361,0.000590796,0,0,0,0,0,0,0,-0.454395,-10.0901,-0.734494,21.7176,1.40199,1.41745,-0.336721,-0.467203,-0.919738,-0.269148,3.17407,0.690969,-0.247197,-0.324116
1876189,1,-1.57038,-0.52299,0.000263915,-2.09662,-0.000696224,1.57115,0.785787,-1.5708,-0.523599,7.17749e-08,-2.0944,1.96212e-07,1.5708,0.785398,-0.000748462,-0.000522954,0.00110013,0.000171677,0.000332618,0.000182407,-0.000826839,0,0,0,0,0,0,0,-0.430592,-10.0385,-0.786069,21.7176,1.39559,1.41745,-0.303762,-0.466498,-0.925443,-0.268278,3.17718,0.691038,-0.246946,-0.324214
1876190,1,-1.57037,-0.522989,0.000263691,-2.09662,-0.000694092,1.57115,0.785787,-1.5708,-0.523599,7.17749e-08,-2.0944,1.96212e-07,1.5708,0.785398,5.78376e-05,0.000208176,0.000176609,-0.000442361,-1.56135e-05,-0.000115755,-0.000313867,0,0,0,0,0,0,0,-0.454395,-10.0623,-0.762265,21.7414,1.40199,1.42385,-0.310171,-0.466281,-0.928268,-0.2683,3.1788,0.691048,-0.246827,-0.324284
1876191,1,-1.57037,-0.522987,0.000262043,-2.09662,-0.000693755,1.57115,0.785784,-1.5708,-0.523599,7.17749e-08,-2.0944,1.96212e-07,1.5708,0.785398,0.00059537,0.000788398,0.000117739,0.000911519,-0.00021386,-7.71697e-05,-0.00139604,0,0,0,0,0,0,0,-0.478199,-10.0901,-0.762265,21.6898,1.40749,1.42385,-0.278127,-0.46651,-0.929684,-0.269014,3.17968,0.691006,-0.246779,-0.324312
1876192,1,-1.57037,-0.522987,0.000260005,-2.09662,-0.000692828,1.57115,0.785787,-1.5708,-0.523599,7.17749e-08,-2.0944,1.96212e-07,1.5708,0.785398,-0.000159898,0.000525599,-0.00112793,0.00116449,6.08775e-05,-0.000288805,0.000256102,0,0,0,0,0,0,0,-0.454395,-10.0901,-0.710691,21.666,1.40199,1.43026,-0.310171,-0.466552,-0.930737,-0.269343,3.17984,0.69094,-0.246821,-0.324277
1876193,1,-1.57037,-0.522989,0.000262021,-2.09662,-0.000695919,1.57115,0.785788,-1.5708,-0.523599,7.17749e-08,-2.0944,1.96212e-07,1.5708,0.785398,0.000450213,-0.000299215,0.00045447,-0.000430098,4.0585e-05,-0.000192537,0.000408093,0,0,0,0,0,0,0,-0.478199,-10.0623,-0.762265,21.7176,1.40199,1.43026,-0.31658,-0.466141,-0.930906,-0.268913,3.17924,0.69087,-0.246929,-0.324164
1876194,1,-1.57037,-0.522989,0.000263617,-2.09662,-0.000693041,1.57115,0.785789,-1.5708,-0.523599,7.17749e-08,-2.0944,1.96212e-07,1.5708,0.785398,-0.00025667,-0.000199477,0.00030298,-0.000286732,0.000264416,0.000109001,0.000509421,0,0,0,0,0,0,0,-0.454395,-10.0623,-0.762265,21.7176,1.39559,1.42385,-0.322988,-0.465964,-0.930124,-0.268844,3.17856,0.690789,-0.246995,-0.32398
1876195,1,-1.57038,-0.522992,0.0002622,-2.09662,-0.000693031,1.57115,0.785785,-1.5708,-0.523599,7.17749e-08,-2.0944,1.96212e-07,1.5708,0.785398,-0.000171113,-0.00133941,-0.000447627,-0.000747967,-6.10819e-05,7.26673e-05,-0.00108454,0,0,0,0,0,0,0,-0.454395,-10.0107,-0.734494,21.7414,1.40199,1.42385,-0.284536,-0.465923,-0.92812,-0.269054,3.17786,0.690704,-0.247003,-0.323759
1876197,0.98,-1.57037,-0.52299,0.000262436,-2.09662,-0.000693321,1.57115,0.785786,-1.5708,-0.523599,7.17749e-08,-2.0944,1.96212e-07,1.5708,0.785398,-0.000106984,-0.000162217,-0.000415483,-0.00017776,-0.000230598,0.000507014,-0.000244659,0,0,0,0,0,0,0,-0.478199,-10.0385,-0.734494,21.7176,1.40749,1.41104,-0.297354,-0.466649,-0.920666,-0.27035,3.17508,0.690455,-0.247087,-0.323227
1876198,0.98,-1.57037,-0.522992,0.000264405,-2.09662,-0.000692684,1.57115,0.785787,-1.5708,-0.523599,7.17749e-08,-2.0944,1.96212e-07,1.5708,0.785398,-7.13227e-05,-0.000757759,0.000372625,-0.000118506,4.97185e-05,-0.000136708,0.000311612,0,0,0,0,0,0,0,-0.478199,-10.0107,-0.762265,21.7176,1.40199,1.42385,-0.310171,-0.467214,-0.91745,-0.271127,3.17373,0.690318,-0.247152,-0.322898
1876199,0.98,-1.57037,-0.522987,0.000262463,-2.09662,-0.000697091,1.57115,0.785787,-1.5708,-0.523599,7.17749e-08,-2.0944,1.96212e-07,1.5708,0.785398,-4.75485e-05,0.00135087,-0.000401197,-0.000635816,-0.000373755,-9.11388e-05,-2.96175e-05,0,0,0,0,0,0,0,-0.478199,-10.0901,-0.734494,21.7414,1.41298,1.42385,-0.303762,-0.467361,-0.915997,-0.271298,3.17338,0.690229,-0.247145,-0.322534
1876200,0.98,-1.57038,-0.52299,0.000264414,-2.09662,-0.000696221,1.57115,0.785788,-1.5708,-0.523599,7.17749e-08,-2.0944,1.96212e-07,1.5708,0.785398,-0.000588511,-0.000305848,0.000382149,0.000132934,0.00039509,-0.000298118,0.000454973,0,0,0,0,0,0,0,-0.454395,-10.0385,-0.762265,21.7176,1.39559,1.43026,-0.31658,-0.467176,-0.917168,-0.27099,3.17434,0.690188,-0.247045,-0.322146
1876201,0.98,-1.57037,-0.522989,0.000262465,-2.09662,-0.000693379,1.57115,0.785785,-1.5708,-0.523599,7.17749e-08,-2.0944,1.96212e-07,1.5708,0.785398,0.000164471,0.000352913,-0.000394848,0.000738237,0.000263393,3.86135e-05,-0.000646121,0,0,0,0,0,0,0,-0.478199,-10.0623,-0.734494,21.6898,1.39559,1.42385,-0.290945,-0.466779,-0.918779,-0.270377,3.17527,0.690161,-0.246966,-0.321753
1876202,0.98,-1.57037,-0.52299,0.000264415,-2.09662,-0.000693754,1.57115,0.785788,-1.5708,-0.523599,7.17749e-08,-2.0944,1.96212e-07,1.5708,0.785398,-0.000447164,-0.000321536,0.000386382,-0.000157456,-0.000265214,2.57423e-05,0.000518689,0,0,0,0,0,0,0,-0.454395,-10.0385,-0.762265,21.7176,1.40749,1.42385,-0.31658,-0.466384,-0.919412,-0.269752,3.17543,0.690118,-0.246965,-0.321361
1876203,0.98,-1.57037,-0.522989,0.000264415,-2.09662,-0.000693439,1.57115,0.78579,-1.5708,-0.523599,7.17749e-08,-2.0944,1.96212e-07,1.5708,0.785398,-0.00029811,0.000342454,0.000257588,-0.000661783,-0.000176809,0.00025452,0.00082051,-5.5511e-16,-4.4409e-16,-5.551e-17,-6.6613e-16,-4.4409e-16,-2.2204e-16,-4.4409e-16,-0.454395,-10.0623,-0.762265,21.7414,1.40749,1.41745,-0.329397,-0.466113,-0.919979,-0.269367,3.17568,0.690069,-0.246947,-0.320967
1876204,0.98,-1.57037,-0.522989,0.000264415,-2.09662,-0.000692723,1.57115,0.78579,-1.5708,-0.523599,7.17749e-08,-2.0944,1.96212e-07,1.5708,0.785398,0.000358072,0.000228303,0.000171725,0.000765237,8.55776e-05,0.000407039,0.000818274,1.8735e-16,3e-20,1.0713e-16,-3e-20,3.0341e-16,-4e-20,0,-0.478199,-10.0623,-0.762265,21.6898,1.40199,1.41104,-0.336721,-0.466116,-0.921012,-0.26944,3.17628,0.690017,-0.246901,-0.320586
1876205,0.98,-1.57037,-0.522989,0.000260335,-2.09662,-0.000693298,1.57115,0.785786,-1.5708,-0.523599,7.17749e-08,-2.0944,1.96212e-07,1.5708,0.785398,0.000238715,0.000152202,-0.00053513,-0.000696268,-0.000146399,-0.000440717,-0.000912546,1.8735e-16,3e-20,1.0713e-16,-3e-20,3.0341e-16,-4e-20,0,-0.478199,-10.0623,-0.734494,21.7414,1.40749,1.43026,-0.297354,-0.466291,-0.922232,-0.269706,3.17689,0.68996,-0.246872,-0.320253
1876206,0.98,-1.57037,-0.522989,0.000258415,-2.09662,-0.000692676,1.57115,0.78579,-1.5708,-0.523599,7.17749e-08,-2.0944,1.96212e-07,1.5708,0.785398,-0.000397669,0.000101468,-0.00147038,-0.000464178,0.000105851,0.000180906,0.000578431,1.8735e-16,3e-20,1.0713e-16,-3e-20,3.0341e-16,-4e-20,0,-0.454395,-10.0623,-0.686887,21.7414,1.40199,1.41745,-0.329397,-0.465838,-0.923705,-0.268929,3.1778,0.689946,-0.246814,-0.319981
1876207,0.98,-1.57037,-0.522992,0.000260099,-2.09662,-0.000692672,1.57115,0.785789,-1.5708,-0.523599,7.17749e-08,-2.0944,1.96212e-07,1.5708,0.785398,0.000291699,-0.00113878,0.000133372,0.00024736,7.05676e-05,-0.000116755,0.000148262,1.8735e-16,3e-20,1.0713e-16,-3e-20,3.0341e-16,-4e-20,0,-0.478199,-10.0107,-0.734494,21.7176,1.40199,1.42385,-0.322988,-0.464661,-0.924262,-0.266993,3.17846,0.68997,-0.246766,-0.31976
1876208,0.98,-1.57037,-0.522994,0.000261495,-2.09662,-0.000695867,1.57115,0.785792,-1.5708,-0.523599,7.17749e-08,-2.0944,1.96212e-07,1.5708,0.785398,0.000194466,-0.001316,0.000738529,0.000164906,4.7045e-05,-7.78365e-05,0.00108219,1.8735e-16,3e-20,1.0713e-16,-3e-20,3.0341e-16,-4e-20,0,-0.478199,-9.98691,-0.762265,21.7176,1.40199,1.42385,-0.349539,-0.464138,-0.921691,-0.266,3.1776,0.689937,-0.246844,-0.319581
1876209,0.98,-1.57037,-0.52299,0.000261311,-2.09662,-0.000693736,1.57115,0.78579,-1.5708,-0.523599,7.17749e-08,-2.0944,1.96212e-07,1.5708,0.785398,-0.000427168,0.000329093,0.000492353,0.000759552,3.13634e-05,-5.1891e-05,-2.45284e-05,1.8735e-16,3e-20,1.0713e-16,-3e-20,3.0341e-16,-4e-20,0,-0.454395,-10.0385,-0.762265,21.6898,1.40199,1.42385,-0.329397,-0.464706,-0.917183,-0.266686,3.17563,0.689829,-0.247028,-0.319453
1876210,0.98,-1.57037,-0.522987,0.000261431,-2.09662,-0.000693636,1.57115,0.785791,-1.5708,-0.523599,7.17749e-08,-2.0944,1.96212e-07,1.5708,0.785398,-0.000284778,0.00142582,-0.000321379,0.000506368,-0.000182542,0.000202765,0.000492274,1.8735e-16,3e-20,1.0713e-16,-3e-20,3.0341e-16,-4e-20,0,-0.454395,-10.0901,-0.734494,21.6898,1.40749,1.41745,-0.34313,-0.465346,-0.914773,-0.267566,3.17425,0.689724,-0.247199,-0.319394
1876211,0.98,-1.57037,-0.52299,0.000262121,-2.09662,-0.000695985,1.57115,0.785789,-1.5708,-0.523599,7.17749e-08,-2.0944,1.96212e-07,1.5708,0.785398,0.00101657,-0.000255878,-0.000214253,-0.000868847,8.17561e-05,-0.000102182,-0.000417803,1.8735e-16,3e-20,1.0713e-16,-3e-20,3.0341e-16,-4e-20,0,-0.50597,-10.0385,-0.734494,21.7414,1.40199,1.42385,-0.322988,-0.465689,-0.915728,-0.267962,3.17438,0.68966,-0.247262,-0.319406
1876212,0.98,-1.57037,-0.522989,0.000262169,-2.09662,-0.000698192,1.57115,0.78579,-1.5708,-0.523599,7.17749e-08,-2.0944,1.96212e-07,1.5708,0.785398,-0.00052871,0.000386226,0.000506779,0.00691117,-0.000352397,-0.00030548,-4.11761e-05,1.8735e-16,3e-20,1.0713e-16,-3e-20,3.0341e-16,-4e-20,0,-0.454395,-10.0623,-0.762265,21.6898,1.41298,1.43026,-0.329397,-0.466163,-0.915743,-0.268443,3.17323,0.689561,-0.247466,-0.319484
1876213,0.98,-1.57037,-0.52299,0.000261536,-2.09662,-0.0006973,1.57115,0.78579,-1.5708,-0.523599,7.17749e-08,-2.0944,1.96212e-07,1.5708,0.785398,0.000853952,-0.000299328,0.000337853,0.0044815,0.00017197,3.37053e-05,-2.74507e-05,1.8735e-16,3e-20,1.0713e-16,-3e-20,3.0341e-16,-4e-20,0,-0.50597,-10.0385,-0.762265,21.7176,1.40199,1.42385,-0.329397,-0.466983,-0.910668,-0.269397,3.16722,0.689339,-0.24818,-0.319615
1876214,0.98,-1.57038,-0.52299,0.000257705,-2.09663,-0.000694824,1.57115,0.785789,-1.5708,-0.523598,1.6104e-06,-2.0944,1.13052e-06,1.5708,0.7854,-8.0312e-05,-0.000199552,-0.000981191,0.00170998,-8.8804e-05,2.24702e-05,-0.000255659,0.000637422,0.000944869,0.00153863,-0.00157478,0.00093431,0.00251964,0.00218278,-0.478199,-10.0385,-0.710691,21.789,1.40749,1.42385,-0.322988,-0.467769,-0.902661,-0.270225,3.15871,0.689073,-0.249136,-0.319782
1876215,0.98,-1.57038,-0.522989,0.000261254,-2.09662,-0.000694406,1.57115,0.785793,-1.57079,-0.523596,4.68765e-06,-2.0944,2.99915e-06,1.5708,0.785405,-0.00116717,0.000423777,0.000552299,0.00310498,-0.000262653,1.49801e-05,0.00105026,0.00127485,0.00188968,0.00307725,-0.00314961,0.00186863,0.00503928,0.00436558,-0.430592,-10.0623,-0.762265,21.7176,1.41298,1.42385,-0.355947,-0.467796,-0.895878,-0.269942,3.15172,0.688894,-0.249909,-0.319972
1876216,0.98,-1.57037,-0.522985,0.000261231,-2.09662,-0.000693452,1.57115,0.785789,-1.57079,-0.523593,9.30354e-06,-2.0944,5.80211e-06,1.57081,0.785411,-0.000221298,0.00148894,0.000368199,0.00349733,2.83484e-05,-0.000227372,-0.000520527,0.00191228,0.00283438,0.00461589,-0.00472455,0.00280296,0.0075589,0.0065484,-0.454395,-10.1139,-0.762265,21.666,1.40749,1.43026,-0.322988,-0.467329,-0.891977,-0.269122,3.14684,0.688797,-0.250481,-0.320181
1876217,0.98,-1.57038,-0.522989,0.000263995,-2.09662,-0.000693338,1.57115,0.785794,-1.57079,-0.523589,1.54581e-05,-2.09441,9.53943e-06,1.57082,0.78542,-0.00135396,0.000625411,0.00184139,0.000636134,1.88989e-05,-0.000151581,0.000398967,0.00254971,0.00377892,0.00615453,-0.00629963,0.00373732,0.0100785,0.00873126,-0.402821,-9.9631,-0.710691,21.6144,1.40749,1.43026,-0.34313,-0.467245,-0.891645,-0.269158,3.1444,0.688747,-0.25082,-0.320412
1876218,0.98,-1.57037,-0.522994,0.000261088,-2.09662,-0.000695131,1.57115,0.785792,-1.57079,-0.523584,2.31512e-05,-2.09442,1.42111e-05,1.57083,0.785431,0.000502087,0.000475415,0.00116609,-0.00186403,-0.000597752,-0.000338413,-0.000954725,0.00318716,0.00472326,0.00769318,-0.0078749,0.0046717,0.0125981,0.0109142,-0.327442,-9.68539,-0.456784,21.4438,1.42397,1.43667,-0.310171,-0.468038,-0.895257,-0.270798,3.14582,0.688762,-0.25072,-0.320656
1876219,0.98,-1.57038,-0.522995,0.000270853,-2.09662,-0.000691922,1.57115,0.785792,-1.57078,-0.523579,3.23831e-05,-2.09443,1.98172e-05,1.57085,0.785444,-0.00152801,-0.000394035,0.00578811,-0.00423335,-0.000398502,-0.000700327,-0.000636483,0.00382463,0.00566735,0.00923184,-0.0094504,0.00560611,0.0151176,0.0130972,-0.101307,-9.35611,-0.282224,21.2693,1.42397,1.44949,-0.310171,-0.470594,-0.902343,-0.275395,3.15191,0.688836,-0.250027,-0.320891
1876220,0.98,-1.57038,-0.522988,0.000275287,-2.09662,-0.000689632,1.57115,0.785786,-1.57078,-0.523572,4.31536e-05,-2.09444,2.63578e-05,1.57087,0.785459,-0.00408357,0.0011482,0.00744154,-0.00261826,0.000141233,7.83341e-06,-0.00256055,0.00446211,0.00661115,0.0107705,-0.0110262,0.00654056,0.0176371,0.0152802,0.0494498,-9.1022,-0.0283176,20.9439,1.41298,1.43667,-0.252493,-0.475382,-0.911686,-0.284133,3.16152,0.688931,-0.248829,-0.321084
1876221,0.98,-1.57039,-0.522979,0.000289351,-2.09662,-0.000691819,1.57116,0.785793,-1.57077,-0.523565,5.54628e-05,-2.09445,3.38328e-05,1.57089,0.785477,-0.00655228,0.00308958,0.00790344,-0.00486037,-0.000753555,-0.000706855,-0.000282882,0.00509962,0.0075546,0.0123092,-0.0126023,0.00747505,0.0201565,0.0174634,0.227978,-8.87607,0.15021,20.7456,1.43587,1.4559,-0.290945,-0.480537,-0.923998,-0.29474,3.17338,0.689097,-0.247268,-0.321188
1876222,0.98,-1.57039,-0.522964,0.000302089,-2.09663,-0.000689767,1.57115,0.78579,-1.57077,-0.523556,6.93107e-05,-2.09447,4.22424e-05,1.57091,0.785496,-0.00558193,0.00321185,0.00954445,-0.0032622,0.00014189,-0.00118331,-0.00161274,0.00573715,0.00849767,0.0138479,-0.0141787,0.0084096,0.0226759,0.0196466,0.426342,-8.72531,0.277163,20.5472,1.41847,1.47512,-0.252493,-0.484235,-0.940051,-0.304402,3.18665,0.689379,-0.245407,-0.321155
1876223,0.98,-1.57039,-0.522952,0.000318929,-2.09663,-0.000692271,1.57115,0.785793,-1.57076,-0.523547,8.46974e-05,-2.09448,5.15866e-05,1.57093,0.785518,-0.00263566,0.00678311,0.01196,-0.00538939,-0.000753117,-0.00102623,-0.000125725,0.00637471,0.0094403,0.0153867,-0.0157556,0.0093442,0.0251952,0.02183,0.529491,-8.59836,0.352542,20.3489,1.44136,1.48153,-0.278127,-0.487884,-0.959664,-0.314672,3.2004,0.689674,-0.243283,-0.320943
1876224,0.98,-1.57039,-0.522944,0.00033444,-2.09664,-0.000694801,1.57116,0.785793,-1.57075,-0.523535,0.000102858,-2.0945,6.24021e-05,1.57097,0.785544,-0.00236624,0.00501335,0.0152045,-0.00539727,-0.00134979,-0.000446797,-0.00127061,0.00756229,0.0112452,0.0181604,-0.0188674,0.0108154,0.0302341,0.0254559,0.581066,-8.41983,0.479495,20.2259,1.46425,1.47512,-0.246084,-0.494032,-0.982351,-0.329031,3.2141,0.689846,-0.240885,-0.320524
1876225,0.98,-1.57039,-0.522935,0.000348585,-2.09664,-0.000697238,1.57116,0.785801,-1.57074,-0.523522,0.000123792,-2.09452,7.46889e-05,1.571,0.785573,-0.00521282,0.00375461,0.0147544,-0.00514591,-0.00171366,-0.000535224,0.00538148,0.00874992,0.013049,0.0209342,-0.0219802,0.0122868,0.0352728,0.0290821,0.755627,-8.2413,0.606448,20.0989,1.48622,1.48153,-0.303762,-0.501861,-1.00207,-0.346571,3.22468,0.6899,-0.238401,-0.319911
1876226,0.98,-1.57039,-0.522928,0.000366354,-2.09664,-0.000697847,1.57116,0.785802,-1.57073,-0.523507,0.0001475,-2.09455,8.84473e-05,1.57104,0.785606,-0.00136314,0.00606935,0.0150276,-0.00189272,-0.00134589,-0.00157752,0.00642921,0.00993763,0.0148515,0.023708,-0.0250942,0.0137584,0.0403113,0.0327085,0.807201,-8.06674,0.70563,19.9759,1.49172,1.51449,-0.258901,-0.508497,-1.01312,-0.363082,3.22833,0.689922,-0.236147,-0.319155
1876227,0.98,-1.57039,-0.522925,0.000382914,-2.09666,-0.000699169,1.57116,0.785806,-1.57072,-0.523491,0.000173982,-2.09458,0.000103677,1.57109,0.785642,-0.000327265,0.00786064,0.0167853,-0.0107396,-0.00133807,0.00218624,0.00858803,0.0111254,0.0166527,0.0264818,-0.0282096,0.0152302,0.0453498,0.0363353,0.934154,-7.76126,0.860354,19.9244,1.50362,1.55294,-0.246084,-0.513741,-1.01984,-0.377799,3.22738,0.690003,-0.233925,-0.318295
1876228,0.98,-1.57039,-0.522917,0.000403881,-2.09667,-0.000695362,1.57116,0.785805,-1.57071,-0.523472,0.000203237,-2.09461,0.00012038,1.57114,0.785682,4.29774e-05,0.00888433,0.0193145,-0.0118215,-0.000688596,0.000184489,0.00340557,0.0123133,0.0184523,0.0292557,-0.0313265,0.0167022,0.050388,0.0399624,1.08491,-7.43594,1.08649,19.6546,1.49812,1.5978,-0.161856,-0.518761,-1.03008,-0.392396,3.22824,0.690267,-0.231081,-0.31732
1876229,0.98,-1.57039,-0.522902,0.000428169,-2.09667,-0.000694297,1.57116,0.785821,-1.5707,-0.523452,0.000235267,-2.09464,0.000138554,1.57119,0.785725,0.00125094,0.0104304,0.0232944,-0.0121638,-0.000459064,-0.00195922,0.00828279,0.0135013,0.0202501,0.0320295,-0.034445,0.0181744,0.0554262,0.0435899,1.33485,-7.13046,1.3404,19.3293,1.49812,1.66189,-0.193899,-0.524508,-1.04505,-0.408608,3.23245,0.690717,-0.227348,-0.316163
1876230,0.98,-1.57038,-0.522882,0.000455134,-2.09669,-0.000689424,1.57117,0.785829,-1.57068,-0.52343,0.00027007,-2.09468,0.000158201,1.57125,0.785773,0.00535397,0.0148566,0.0254645,-0.0127707,0.000134767,0.00256754,0.0125987,0.0146894,0.0220461,0.0348034,-0.0375654,0.0196469,0.0604641,0.0472178,1.4618,-6.82895,1.64191,19.0317,1.48622,1.68844,-0.141714,-0.532532,-1.06391,-0.428709,3.23822,0.691206,-0.222843,-0.314739
1876231,0.98,-1.57038,-0.522861,0.000485497,-2.0967,-0.000682603,1.57118,0.785837,-1.57067,-0.523406,0.000307648,-2.09472,0.000179321,1.57132,0.785823,0.0056937,0.0150723,0.0251695,-0.0139049,0.000903647,0.00599124,0.0117518,0.0158776,0.02384,0.0375773,-0.0406877,0.0211198,0.0655018,0.0508462,1.68794,-6.52347,1.92359,18.635,1.46425,1.71408,-0.0840357,-0.542537,-1.08679,-0.451882,3.24423,0.691684,-0.217685,-0.313002
1876232,0.98,-1.57038,-0.522839,0.000522097,-2.09673,-0.000676625,1.57119,0.785847,-1.57065,-0.523381,0.000347999,-2.09476,0.000201914,1.57139,0.785878,0.0030899,0.0190155,0.0296573,-0.0170618,0.00104324,0.00877438,0.0109096,0.017066,0.0256317,0.0403513,-0.0438122,0.0225929,0.0705394,0.054475,1.91804,-6.24576,2.12592,18.4327,1.45235,1.7333,-0.0190333,-0.551624,-1.11263,-0.474004,3.24956,0.692243,-0.21189,-0.310905
1876233,0.98,-1.57037,-0.522816,0.000558919,-2.09675,-0.000671224,1.57121,0.785866,-1.57063,-0.523353,0.000391124,-2.09481,0.00022598,1.57146,0.785936,0.00307058,0.0224336,0.0300634,-0.0179911,0.00454196,0.0105752,0.0158785,0.0182545,0.027421,0.0431252,-0.0469389,0.0240664,0.0755767,0.0581043,2.0688,-5.99185,2.32825,18.1867,1.47524,1.75894,0.00660151,-0.557123,-1.14294,-0.491796,3.25496,0.692964,-0.2053,-0.308355
1876234,0.98,-1.57037,-0.522794,0.000595634,-2.09677,-0.000669145,1.57123,0.78588,-1.57061,-0.523323,0.000437929,-2.09486,0.000251876,1.57155,0.785999,0.00408466,0.0218353,0.0336188,-0.0185627,0.00216454,0.0110967,0.0174381,0.0198147,0.0297684,0.0468046,-0.0511228,0.025896,0.0822417,0.0628406,2.16798,-5.74191,2.50281,17.9367,1.50911,1.81021,0.09083,-0.55815,-1.17587,-0.504153,3.25915,0.693794,-0.197948,-0.305248
1876235,0.98,-1.57036,-0.522777,0.000640295,-2.09681,-0.000667722,1.57125,0.7859,-1.57059,-0.523291,0.000488413,-2.09492,0.000279602,1.57164,0.786066,0.00547689,0.0208551,0.036411,-0.0239052,0.00413218,0.0148398,0.0194449,0.021375,0.0321123,0.0504839,-0.0553103,0.0277261,0.0889065,0.0675776,2.24336,-5.4642,2.55438,17.8891,1.57137,1.89443,0.155832,-0.555851,-1.20355,-0.512614,3.2589,0.694631,-0.18999,-0.301483
1876236,0.98,-1.57035,-0.522755,0.000677766,-2.09684,-0.000667443,1.57128,0.785926,-1.57057,-0.523257,0.000542576,-2.09498,0.000309159,1.57173,0.786139,0.00736068,0.0211601,0.0359589,-0.0287003,0.00146775,0.0179332,0.0227948,0.0229355,0.0344523,0.0541632,-0.0595016,0.0295568,0.095571,0.0723153,2.27113,-5.2341,2.70514,17.7622,1.62264,1.97134,0.175059,-0.551004,-1.2216,-0.517989,3.25403,0.695539,-0.181286,-0.296947
1876237,0.98,-1.57034,-0.522733,0.000720633,-2.09687,-0.000661501,1.5713,0.785957,-1.57054,-0.52322,0.000600418,-2.09504,0.000340547,1.57183,0.786216,0.00924902,0.0246564,0.0395539,-0.0306638,0.00534738,0.0209932,0.025918,0.0244963,0.0367881,0.0578423,-0.063697,0.0313881,0.102235,0.0770537,2.27113,-5.00797,2.80829,17.5638,1.64461,2.03543,0.175059,-0.543518,-1.23216,-0.519655,3.24649,0.696689,-0.171577,-0.291545
1876238,0.98,-1.57033,-0.52271,0.000768906,-2.09691,-0.000651095,1.57134,0.785993,-1.57052,-0.523181,0.00066194,-2.09511,0.000373767,1.57194,0.786298,0.0111393,0.0259145,0.0442034,-0.0355439,0.009426,0.028053,0.0279031,0.0260573,0.0391194,0.0615213,-0.0678968,0.0332201,0.108899,0.081793,2.37031,-4.73026,2.93524,17.3893,1.63362,2.10043,0.175059,-0.535312,-1.23933,-0.520174,3.23783,0.698122,-0.16072,-0.285243
1876239,0.98,-1.57032,-0.522686,0.000818969,-2.09696,-0.000634724,1.57139,0.786033,-1.57049,-0.52314,0.00072714,-2.09518,0.00040882,1.57206,0.786384,0.0095231,0.0251995,0.0452359,-0.0388644,0.0142432,0.0353307,0.0289159,0.0276185,0.0414461,0.0652002,-0.0721012,0.0350527,0.115563,0.0865332,2.46949,-4.37717,3.16138,17.1909,1.57137,2.11325,0.187876,-0.527462,-1.24299,-0.521148,3.22777,0.699852,-0.148726,-0.278097
1876240,0.98,-1.5703,-0.52266,0.000864711,-2.097,-0.000620807,1.57145,0.786083,-1.57046,-0.523096,0.000796019,-2.09526,0.000445706,1.57218,0.786475,0.0102221,0.0260135,0.0440704,-0.0395954,0.0167664,0.0430355,0.0387111,0.02918,0.0437678,0.0688789,-0.0763106,0.0368861,0.122226,0.0912742,2.62422,-4.07169,3.49066,16.8933,1.532,2.05557,0.175059,-0.517013,-1.23845,-0.518113,3.21333,0.701952,-0.13587,-0.270241
1876241,0.98,-1.57029,-0.522624,0.000924134,-2.09705,-0.000605495,1.57151,0.786137,-1.57043,-0.52305,0.000868576,-2.09534,0.000484426,1.57231,0.786571,0.0122828,0.0289462,0.0499141,-0.0465547,0.0179003,0.0539403,0.0423885,0.0307417,0.0460842,0.0725575,-0.0805251,0.0387203,0.128889,0.0960162,2.7234,-3.86935,3.66919,16.7426,1.50911,1.98416,0.155832,-0.502558,-1.22535,-0.508644,3.19357,0.704369,-0.122376,-0.261803
1876242,0.98,-1.57027,-0.522594,0.000981251,-2.09712,-0.000585913,1.57159,0.786192,-1.5704,-0.523001,0.000944812,-2.09542,0.000524981,1.57244,0.786672,0.012507,0.0286899,0.0530691,-0.0539577,0.023288,0.0610576,0.0434021,0.0323038,0.0483951,0.0762359,-0.0847451,0.0405552,0.135551,0.100759,2.87416,-3.56784,3.89533,16.695,1.48622,1.93289,0.181467,-0.486698,-1.2087,-0.496457,3.1722,0.706931,-0.108115,-0.252894
1876243,0.98,-1.57026,-0.522559,0.00104038,-2.09718,-0.000573799,1.57167,0.786255,-1.57036,-0.522951,0.00102473,-2.09551,0.000567372,1.57259,0.786778,0.0138212,0.0334181,0.0557508,-0.0526406,0.0209287,0.0661696,0.0485393,0.0338661,0.0507002,0.0799141,-0.0889709,0.042391,0.142213,0.105503,2.97731,-3.33774,4.09766,16.5204,1.5146,1.88162,0.194285,-0.470807,-1.19129,-0.48359,3.15107,0.709477,-0.0931701,-0.243627
1876244,0.98,-1.57024,-0.522524,0.00109814,-2.09724,-0.000559038,1.57176,0.786319,-1.57033,-0.522897,0.00110881,-2.0956,0.000611807,1.57274,0.786889,0.014899,0.0338198,0.056355,-0.0580862,0.018254,0.0726062,0.052393,0.0356332,0.0532972,0.0840848,-0.093852,0.0444342,0.149702,0.110857,3.07649,-3.1116,4.35157,16.4728,1.57137,1.88803,0.213511,-0.453727,-1.17309,-0.468105,3.12873,0.711941,-0.0780156,-0.23409
1876245,0.98,-1.57021,-0.522491,0.00116723,-2.09732,-0.000540411,1.57186,0.786389,-1.57029,-0.522841,0.00119707,-2.0957,0.000658285,1.57289,0.787005,0.017465,0.0340533,0.058025,-0.0636208,0.0170855,0.0813283,0.0540477,0.0374006,0.055887,0.0882551,-0.0987404,0.0464783,0.15719,0.116212,3.10029,-2.88547,4.45471,16.4966,1.61073,1.92007,0.272104,-0.434189,-1.15244,-0.447735,3.10464,0.714397,-0.0629519,-0.22434
1876246,0.98,-1.57019,-0.522459,0.00124064,-2.09739,-0.000517943,1.57196,0.786462,-1.57025,-0.522783,0.00128949,-2.09581,0.000706808,1.57306,0.787126,0.0223843,0.0339207,0.0624741,-0.0675435,0.0162417,0.0870024,0.0595767,0.0391683,0.0584693,0.092425,-0.103636,0.0485236,0.164677,0.121569,3.12806,-2.65536,4.53009,16.4966,1.6501,1.97775,0.330698,-0.413613,-1.12604,-0.424089,3.07861,0.716871,-0.0481075,-0.214385
1876247,0.98,-1.57016,-0.522423,0.00130743,-2.09747,-0.000492364,1.57208,0.786547,-1.57021,-0.522722,0.00138609,-2.09592,0.000757378,1.57323,0.787253,0.0236054,0.034344,0.0662475,-0.0708904,0.0163211,0.0968881,0.0649295,0.0409363,0.0610436,0.0965945,-0.10854,0.0505699,0.172164,0.126926,3.12806,-2.45303,4.68085,16.3974,1.67299,2.0162,0.356333,-0.395073,-1.09058,-0.401488,3.04938,0.719294,-0.0336575,-0.204173
1876248,0.98,-1.57013,-0.522384,0.00137989,-2.09755,-0.000463815,1.5722,0.786644,-1.57017,-0.522658,0.00148685,-2.09603,0.000809996,1.57341,0.787386,0.0235753,0.0343146,0.0663883,-0.0742545,0.0218892,0.104066,0.0750586,0.0427047,0.0636096,0.100763,-0.113453,0.0526174,0.179651,0.132285,3.15187,-2.2269,4.83557,16.3459,1.67299,2.05557,0.316965,-0.378109,-1.04387,-0.379415,3.01549,0.721733,-0.0197368,-0.193647
1876249,0.98,-1.57011,-0.522345,0.00146248,-2.09764,-0.000428775,1.57233,0.786731,-1.57012,-0.522592,0.00159178,-2.09615,0.000864662,1.5736,0.787523,0.0237335,0.0336041,0.0737158,-0.0789438,0.0269821,0.110262,0.0788257,0.0444735,0.066167,0.104932,-0.118373,0.0546662,0.187137,0.137645,3.30262,-1.97299,4.93476,16.2467,1.64461,2.0812,0.394785,-0.360894,-0.984736,-0.355499,2.97634,0.724285,-0.0062941,-0.182808
1876250,0.98,-1.57008,-0.522297,0.00153825,-2.09773,-0.000391969,1.57247,0.786843,-1.57008,-0.522523,0.00170088,-2.09627,0.000921378,1.57379,0.787666,0.0258391,0.0381752,0.0761146,-0.0841023,0.0298846,0.120187,0.0912385,0.0462426,0.0687154,0.1091,-0.123303,0.0567162,0.194622,0.143007,3.378,-1.79843,5.16089,16.0483,1.63912,2.09402,0.330698,-0.344261,-0.916689,-0.331292,2.9341,0.726935,0.00696936,-0.17167
1876251,0.98,-1.57005,-0.522242,0.0016225,-2.09783,-0.000351142,1.57263,0.78695,-1.57003,-0.522452,0.00181415,-2.0964,0.000980146,1.57399,0.787815,0.0268031,0.0430394,0.0783546,-0.0892451,0.0318149,0.133676,0.0973302,0.0480122,0.0712545,0.113268,-0.128243,0.0587674,0.202107,0.14837,3.48115,-1.69528,5.36719,15.9253,1.63912,2.06838,0.343516,-0.328239,-0.850218,-0.306823,2.89378,0.72974,0.0204349,-0.160251
1876252,0.98,-1.57002,-0.52219,0.00171087,-2.09794,-0.000304354,1.57279,0.787074,-1.56998,-0.522378,0.00193158,-2.09653,0.00104097,1.5742,0.787968,0.0264213,0.0459979,0.0811374,-0.0948103,0.0336664,0.144218,0.103445,0.0497821,0.0737839,0.117434,-0.133192,0.0608201,0.209591,0.153735,3.63191,-1.56833,5.51795,15.8738,1.62813,2.02902,0.304148,-0.310888,-0.793946,-0.279174,2.85904,0.732827,0.0343137,-0.14862
1876253,0.98,-1.56999,-0.522136,0.00179209,-2.09805,-0.000257207,1.57297,0.787193,-1.56993,-0.522302,0.00205318,-2.09667,0.00110384,1.57442,0.788127,0.0317661,0.0487736,0.0838971,-0.0971067,0.0393254,0.152876,0.109661,0.0515524,0.0763033,0.121601,-0.138151,0.0628741,0.217075,0.159101,3.68348,-1.46915,5.77185,15.7508,1.62813,1.95211,0.362742,-0.291834,-0.748236,-0.247691,2.82951,0.736155,0.0485177,-0.136882
1876254,0.98,-1.56996,-0.522088,0.00188862,-2.09817,-0.000207559,1.57315,0.787329,-1.56987,-0.522223,0.0021792,-2.09681,0.00116882,1.57465,0.788292,0.0340999,0.0487295,0.0863729,-0.104381,0.0430643,0.167382,0.116387,0.0534197,0.078875,0.126015,-0.143417,0.0649819,0.224931,0.164744,3.80647,-1.29062,5.89881,15.727,1.63912,1.89443,0.349924,-0.272634,-0.708146,-0.214212,2.80247,0.739524,0.0627366,-0.125125
1876255,0.98,-1.56992,-0.522032,0.00199028,-2.09829,-0.000157992,1.57335,0.787469,-1.56982,-0.522142,0.00230963,-2.09696,0.00123591,1.57488,0.788463,0.0336997,0.0482524,0.0905317,-0.111194,0.0456125,0.176505,0.120333,0.0552875,0.0814356,0.130429,-0.148694,0.0670913,0.232786,0.170389,3.88581,-1.21524,5.92261,15.7508,1.662,1.90725,0.362742,-0.253663,-0.667622,-0.179343,2.77608,0.74286,0.0767141,-0.113397
1876256,0.98,-1.56988,-0.521978,0.00208928,-2.09841,-0.000106036,1.57355,0.78762,-1.56976,-0.522058,0.00244447,-2.09712,0.00130512,1.57512,0.788639,0.0384009,0.049624,0.0923928,-0.109461,0.0471924,0.182364,0.128957,0.0571556,0.0839845,0.134842,-0.153984,0.0692023,0.24064,0.176036,3.88581,-1.08829,5.97418,15.6516,1.69588,1.95211,0.316965,-0.234364,-0.620602,-0.142693,2.74752,0.746141,0.0901119,-0.101721
1876257,0.98,-1.56984,-0.521921,0.00218915,-2.09854,-4.77907e-05,1.57375,0.787778,-1.5697,-0.521971,0.00258372,-2.09728,0.00137643,1.57537,0.78882,0.0423918,0.0538569,0.0972867,-0.11567,0.050083,0.19125,0.13743,0.0590242,0.0865214,0.139254,-0.159285,0.071315,0.248494,0.181684,3.85804,-0.965302,6.10114,15.6516,1.68398,2.00338,0.337107,-0.215894,-0.565772,-0.105928,2.71452,0.749263,0.102643,-0.0901302
1876258,0.98,-1.56979,-0.521853,0.0022983,-2.09868,7.60024e-06,1.57397,0.787949,-1.56964,-0.521882,0.00272739,-2.09744,0.00144986,1.57562,0.789008,0.0434119,0.0598932,0.101197,-0.1201,0.0511424,0.203984,0.149398,0.0608932,0.0890459,0.143664,-0.164599,0.0734294,0.256348,0.187334,3.90962,-0.965302,6.12494,15.5762,1.70137,2.02261,0.310557,-0.199705,-0.51151,-0.0712802,2.68076,0.752262,0.114581,-0.0786682
1876259,0.98,-1.56975,-0.521791,0.00240897,-2.09881,7.07966e-05,1.5742,0.788114,-1.56958,-0.521791,0.00287546,-2.09761,0.00152541,1.57589,0.789201,0.0436532,0.0603667,0.104966,-0.123014,0.0533324,0.208159,0.152604,0.0627627,0.0915577,0.148074,-0.169926,0.0755456,0.2642,0.192986,3.985,-0.810577,6.22809,15.477,1.67848,2.06198,0.343516,-0.184978,-0.4639,-0.0380744,2.64947,0.755281,0.126273,-0.0673875
1876260,0.98,-1.56971,-0.521721,0.00252014,-2.09896,0.000133823,1.57443,0.788291,-1.56951,-0.521697,0.00302795,-2.09779,0.00160307,1.57616,0.789399,0.0445276,0.0647493,0.107919,-0.13062,0.0624067,0.218025,0.156193,0.0646326,0.0940563,0.152483,-0.175266,0.0776636,0.272052,0.198639,4.03657,-0.810577,6.32727,15.4532,1.69588,2.04916,0.343516,-0.169772,-0.421832,-0.00392731,2.62064,0.758409,0.137933,-0.056333
1876261,0.98,-1.56967,-0.521646,0.00264519,-2.09911,0.000198996,1.57469,0.788474,-1.56945,-0.5216,0.00318484,-2.09797,0.00168285,1.57644,0.789604,0.0402214,0.067812,0.111445,-0.137291,0.0605705,0.226167,0.166133,0.0665031,0.0965415,0.156891,-0.18062,0.0797835,0.279903,0.204294,4.15956,-0.810577,6.35108,15.3778,1.70687,1.99697,0.349924,-0.151598,-0.38716,0.0342603,2.59653,0.761793,0.149967,-0.0455216
1876262,0.98,-1.56963,-0.521571,0.00276542,-2.09927,0.000267742,1.57495,0.788663,-1.56938,-0.521501,0.00334613,-2.09815,0.00176476,1.57673,0.789813,0.0430503,0.071921,0.112498,-0.141209,0.063876,0.237078,0.171393,0.068374,0.0990127,0.161297,-0.185988,0.0819053,0.287753,0.209951,4.28651,-0.76297,6.45423,15.3778,1.71877,1.95211,0.323374,-0.127866,-0.36209,0.079826,2.57863,0.765605,0.162519,-0.0349509
1876263,0.98,-1.56958,-0.521493,0.00288571,-2.09943,0.000338425,1.57522,0.788857,-1.56931,-0.5214,0.00351184,-2.09834,0.00184879,1.57702,0.790029,0.0442435,0.0749957,0.114048,-0.146807,0.0666214,0.24573,0.174837,0.0702454,0.10147,0.165703,-0.191371,0.0840291,0.295602,0.21561,4.33809,-0.711395,6.5296,15.3263,1.72426,1.89443,0.316965,-0.0980569,-0.3454,0.133792,2.56556,0.769857,0.175348,-0.0246236
1876264,0.98,-1.56953,-0.521414,0.00301343,-2.09959,0.000413322,1.57549,0.789059,-1.56924,-0.521296,0.00368204,-2.09854,0.00193491,1.57733,0.79025,0.0479929,0.0739678,0.118324,-0.152309,0.0734353,0.256387,0.180199,0.0721608,0.103858,0.170203,-0.196851,0.0861192,0.3035,0.221306,4.38966,-0.659821,6.58118,15.2271,1.72426,1.84866,0.316965,-0.0641663,-0.331983,0.19363,2.55461,0.774395,0.188107,-0.0145603
1876265,0.98,-1.56948,-0.521335,0.00314567,-2.09976,0.000493938,1.57577,0.78927,-1.56916,-0.521189,0.00385674,-2.09874,0.00202312,1.57764,0.790477,0.0478432,0.0791102,0.123203,-0.158296,0.074423,0.262812,0.186366,0.0740768,0.106231,0.174701,-0.202347,0.0882113,0.311396,0.227004,4.43727,-0.608246,6.65656,15.2509,1.71236,1.84866,0.284922,-0.0292876,-0.317019,0.254673,2.54388,0.779026,0.200537,-0.00477956
1876266,0.98,-1.56943,-0.52125,0.00328163,-2.09994,0.000574698,1.57606,0.789482,-1.56909,-0.521081,0.00403594,-2.09895,0.00211342,1.57796,0.79071,0.0518649,0.0815754,0.125032,-0.163025,0.0793108,0.264551,0.193709,0.0759932,0.108589,0.179198,-0.207858,0.0903057,0.319292,0.232703,4.43727,-0.608246,6.70813,15.1279,1.71236,1.90725,0.265696,0.00492901,-0.302203,0.314304,2.5343,0.783661,0.212657,0.00470573
1876267,0.98,-1.56937,-0.521167,0.00343237,-2.10011,0.000654624,1.57635,0.789701,-1.56901,-0.52097,0.00421963,-2.09916,0.00220583,1.57828,0.790949,0.0541898,0.081537,0.134299,-0.169842,0.0777863,0.270918,0.202034,0.0779101,0.110931,0.183694,-0.213386,0.0924022,0.327186,0.238405,4.46504,-0.532867,6.68036,15.0525,1.72426,1.98416,0.219919,0.0364935,-0.287322,0.369605,2.52611,0.788179,0.22455,0.0138677
1876268,0.98,-1.56932,-0.521079,0.00357867,-2.1003,0.000739841,1.57665,0.789921,-1.56893,-0.520857,0.00440782,-2.09938,0.00230033,1.57862,0.791193,0.0534878,0.0822737,0.135561,-0.176578,0.0821503,0.277433,0.203965,0.0798276,0.113256,0.188187,-0.218931,0.094501,0.33508,0.244108,4.59199,-0.48526,6.75971,14.9811,1.71877,2.02261,0.265696,0.063918,-0.267831,0.418108,2.51782,0.792495,0.236242,0.0226501
1876269,0.98,-1.56927,-0.520987,0.00373304,-2.10049,0.000831349,1.57698,0.790153,-1.56885,-0.520741,0.0046005,-2.09961,0.00239693,1.57896,0.791442,0.0549631,0.0832198,0.139316,-0.182003,0.0848954,0.289711,0.215039,0.0817455,0.115565,0.19268,-0.224492,0.096602,0.342973,0.249813,4.6396,-0.457489,6.70813,14.9295,1.72426,1.99057,0.252878,0.0896537,-0.241006,0.463126,2.50801,0.796711,0.247741,0.0309823
1876270,0.98,-1.5692,-0.520886,0.00388091,-2.10069,0.000921555,1.5773,0.790389,-1.56876,-0.520623,0.00479767,-2.09984,0.00249563,1.57931,0.791698,0.057416,0.0863742,0.142934,-0.187841,0.0868487,0.299176,0.220737,0.083664,0.117857,0.19717,-0.230071,0.0987055,0.350865,0.25552,4.6396,-0.532867,6.83509,14.9533,1.73525,1.9457,0.323374,0.115621,-0.20746,0.5075,2.49586,0.800892,0.258991,0.0388495
1876271,0.98,-1.56914,-0.520783,0.00404183,-2.1009,0.0010134,1.57764,0.790634,-1.56868,-0.520503,0.00499933,-2.10007,0.00259645,1.57967,0.791959,0.0571153,0.0916841,0.146824,-0.194181,0.0878814,0.313653,0.226471,0.0855829,0.120132,0.201659,-0.235667,0.100811,0.358756,0.261229,4.71498,-0.608246,6.83509,14.9533,1.75813,1.93289,0.343516,0.14199,-0.173019,0.551429,2.48309,0.805087,0.270012,0.0463175
1876272,0.98,-1.56909,-0.520678,0.00420523,-2.10111,0.00110954,1.57799,0.790877,-1.56859,-0.520381,0.00520547,-2.10031,0.00269936,1.58004,0.792226,0.0551081,0.0973119,0.150625,-0.198029,0.0885882,0.331692,0.227715,0.0875025,0.122388,0.206145,-0.241282,0.10292,0.366646,0.266939,4.8697,-0.636017,6.91046,14.9057,1.78011,1.9393,0.36915,0.170266,-0.145697,0.596766,2.47218,0.809454,0.280748,0.0535043
1876273,0.98,-1.56902,-0.520572,0.00438587,-2.10132,0.00120377,1.57835,0.791139,-1.5685,-0.520256,0.0054161,-2.10056,0.0028044,1.58041,0.792499,0.0570198,0.0990306,0.157701,-0.207323,0.089302,0.335305,0.239645,0.0894225,0.124627,0.21063,-0.246915,0.10503,0.374535,0.272652,4.89351,-0.683624,6.80731,14.9295,1.803,1.89443,0.323374,0.200818,-0.129018,0.643561,2.46443,0.814084,0.291178,0.0605441
1876274,0.98,-1.56896,-0.520464,0.00455344,-2.10155,0.00130177,1.57872,0.791398,-1.56841,-0.520129,0.0056312,-2.10081,0.00291145,1.5808,0.792777,0.0575774,0.100299,0.160794,-0.210829,0.0913393,0.343004,0.248552,0.0913443,0.126725,0.215096,-0.252501,0.107059,0.38226,0.278247,4.94508,-0.735199,6.88269,14.8819,1.78652,1.82302,0.349924,0.231946,-0.119474,0.689145,2.45941,0.818907,0.301433,0.0675234
1876275,0.98,-1.56889,-0.520359,0.00472887,-2.10177,0.0014041,1.5791,0.791665,-1.56832,-0.520001,0.00585076,-2.10107,0.00302054,1.58119,0.793061,0.0626784,0.0995682,0.166331,-0.21834,0.0931385,0.352132,0.248933,0.0932667,0.128805,0.219559,-0.258106,0.109089,0.389984,0.283843,4.91731,-0.711395,6.93427,14.8819,1.75813,1.79739,0.343516,0.261932,-0.108988,0.731342,2.45393,0.823783,0.311351,0.0744628
1876276,0.98,-1.56882,-0.52025,0.00491277,-2.102,0.00150681,1.57948,0.791935,-1.56822,-0.51987,0.00607478,-2.10134,0.00313167,1.58158,0.79335,0.0660896,0.102268,0.174337,-0.223831,0.0941873,0.360187,0.253334,0.0951896,0.130866,0.22402,-0.26373,0.111122,0.397707,0.289442,4.91731,-0.683624,6.98584,14.8066,1.73525,1.85507,0.349924,0.287529,-0.0923492,0.765927,2.4458,0.828509,0.320682,0.0813846
1876277,0.98,-1.56874,-0.520137,0.00511543,-2.10225,0.00161111,1.57987,0.792213,-1.56812,-0.519737,0.00630326,-2.10161,0.00324482,1.58199,0.793645,0.0684835,0.10535,0.182141,-0.228268,0.0987844,0.371637,0.262836,0.0971129,0.132908,0.228479,-0.269374,0.113158,0.405429,0.295042,4.91731,-0.711395,6.96204,14.8304,1.72975,1.92007,0.304148,0.305214,-0.0705673,0.787956,2.43521,0.832855,0.329333,0.0883133
1876278,0.98,-1.56868,-0.520022,0.00531239,-2.10249,0.00171161,1.58027,0.792491,-1.56803,-0.519602,0.00653619,-2.10188,0.00336002,1.5824,0.793946,0.0673945,0.108365,0.189021,-0.234019,0.10021,0.380454,0.266161,0.0990369,0.13493,0.232936,-0.275038,0.115197,0.41315,0.300644,5.04426,-0.76297,6.96204,14.7788,1.76912,1.97775,0.343516,0.314949,-0.0467072,0.797182,2.42264,0.836731,0.3373,0.0952208
1876279,0.98,-1.5686,-0.519905,0.00551532,-2.10274,0.00181692,1.58068,0.792785,-1.56792,-0.519465,0.00677358,-2.10216,0.00347726,1.58282,0.794252,0.0695612,0.110579,0.190814,-0.241593,0.102424,0.389102,0.277035,0.100961,0.136932,0.23739,-0.280722,0.117238,0.420869,0.306247,5.04426,-0.810577,7.00965,14.7788,1.7975,1.95211,0.356333,0.320436,-0.0235054,0.798912,2.40949,0.840289,0.344859,0.102046
1876280,0.98,-1.56852,-0.51978,0.00572487,-2.103,0.00192855,1.5811,0.793076,-1.56782,-0.519326,0.00701543,-2.10245,0.00359654,1.58325,0.794564,0.0738233,0.112565,0.196184,-0.245734,0.104718,0.402746,0.277863,0.102886,0.138913,0.241842,-0.286427,0.119283,0.428588,0.311853,5.04426,-0.885956,7.03742,14.8304,1.80849,1.89443,0.375559,0.325019,-0.00158907,0.79855,2.39638,0.843722,0.352241,0.10876
1876281,0.98,-1.56844,-0.519651,0.00593858,-2.10326,0.00204283,1.58153,0.793384,-1.56772,-0.519185,0.00726172,-2.10274,0.00371787,1.58369,0.794882,0.0775512,0.119698,0.20018,-0.251265,0.10803,0.407054,0.287173,0.104812,0.140874,0.246291,-0.292154,0.12133,0.436305,0.31746,5.04426,-1.06448,7.06122,14.8304,1.78011,1.84866,0.297739,0.328845,0.0170161,0.797054,2.38365,0.847084,0.359496,0.115394
1876282,0.98,-1.56837,-0.519524,0.0061495,-2.10354,0.00215585,1.58197,0.793686,-1.56761,-0.519042,0.00751245,-2.10304,0.00384125,1.58413,0.795205,0.0752398,0.122698,0.202206,-0.260222,0.108856,0.417032,0.29337,0.106738,0.142814,0.250738,-0.297902,0.12338,0.444021,0.323069,5.11964,-1.16763,7.1128,14.9295,1.78652,1.74612,0.291331,0.333588,0.0257067,0.797079,2.37465,0.850531,0.366889,0.121947
1876283,0.98,-1.56829,-0.519396,0.00636912,-2.10381,0.00227564,1.58242,0.794007,-1.5675,-0.518898,0.00776764,-2.10334,0.00396668,1.58458,0.795533,0.0737413,0.127034,0.210761,-0.265711,0.109604,0.427298,0.300979,0.108664,0.144732,0.255182,-0.303671,0.125433,0.451736,0.328679,5.19502,-1.24301,7.18817,14.9533,1.7975,1.68844,0.226328,0.342575,0.0211104,0.802799,2.37199,0.854284,0.374543,0.128341
1876284,0.98,-1.5682,-0.519268,0.0066049,-2.10409,0.00239267,1.58286,0.794323,-1.56739,-0.518751,0.00802716,-2.10365,0.00409406,1.58504,0.795867,0.0730398,0.126117,0.218572,-0.266564,0.110489,0.431112,0.306165,0.110558,0.146471,0.259521,-0.309291,0.127375,0.459148,0.334072,5.24659,-1.24301,7.1128,14.9057,1.7975,1.70767,0.259287,0.355327,0.0098793,0.812525,2.37196,0.858255,0.38192,0.134473
1876285,0.98,-1.56811,-0.519136,0.00683837,-2.10438,0.00250401,1.5833,0.794638,-1.56728,-0.518603,0.00829101,-2.10397,0.00422338,1.58551,0.796207,0.0745453,0.125538,0.218389,-0.272698,0.10957,0.444357,0.310991,0.112452,0.148188,0.263857,-0.314932,0.129321,0.466559,0.339467,5.22279,-1.24301,7.18817,14.9295,1.83687,1.79739,0.337107,0.371096,0.00500226,0.825059,2.36717,0.862273,0.388223,0.140244
1876286,0.98,-1.56802,-0.518995,0.00706819,-2.10467,0.00261993,1.58376,0.794967,-1.56716,-0.518453,0.0085592,-2.10429,0.00435465,1.58598,0.796552,0.0793732,0.130273,0.221196,-0.278846,0.114459,0.446684,0.315041,0.114346,0.149884,0.26819,-0.320596,0.131269,0.473969,0.344864,5.17122,-1.31839,7.26355,14.8066,1.85976,1.91366,0.388376,0.391118,0.0106405,0.843259,2.35598,0.866372,0.393334,0.145638
1876287,0.98,-1.56792,-0.518855,0.00730848,-2.10497,0.00274312,1.58423,0.795307,-1.56705,-0.518301,0.00883172,-2.10461,0.00448787,1.58646,0.796902,0.0844598,0.130379,0.224435,-0.284787,0.119253,0.455411,0.325251,0.116241,0.151558,0.27252,-0.326282,0.133221,0.481378,0.350261,5.17122,-1.39377,7.26355,14.7788,1.85426,1.97775,0.434153,0.413976,0.021904,0.866426,2.34179,0.870553,0.397794,0.150776
1876288,0.98,-1.56783,-0.518711,0.00756431,-2.10527,0.00286646,1.58471,0.795655,-1.56693,-0.518148,0.00910857,-2.10494,0.00462305,1.58695,0.797258,0.0880426,0.131877,0.236226,-0.290016,0.122214,0.46757,0.327089,0.118136,0.153209,0.276847,-0.331991,0.135176,0.488785,0.35566,5.19502,-1.52072,7.18817,14.8066,1.85976,1.90084,0.434153,0.434514,0.0381944,0.887588,2.32522,0.874621,0.401951,0.15585
1876289,0.98,-1.56773,-0.518568,0.0078129,-2.10558,0.00299524,1.5852,0.79601,-1.56681,-0.517993,0.00938974,-2.10528,0.00476018,1.58745,0.797619,0.0924224,0.135998,0.238021,-0.296439,0.126134,0.474586,0.336812,0.120032,0.154838,0.281171,-0.337722,0.137134,0.496191,0.361061,5.14344,-1.64767,7.1128,14.8542,1.82039,1.83584,0.407602,0.448405,0.0584629,0.900231,2.30662,0.878427,0.405991,0.161031
1876290,0.98,-1.56763,-0.518423,0.00806445,-2.1059,0.00313067,1.58569,0.796373,-1.56669,-0.517837,0.00967523,-2.10563,0.00489927,1.58795,0.797985,0.0979805,0.137868,0.240238,-0.302133,0.128665,0.480046,0.342058,0.121928,0.156443,0.285492,-0.343478,0.139095,0.503595,0.366463,5.11964,-1.74686,7.1128,14.9057,1.78011,1.79739,0.362742,0.456573,0.077749,0.905945,2.28836,0.882038,0.410177,0.166396
1876291,0.98,-1.56752,-0.518272,0.00832513,-2.10621,0.0032638,1.58619,0.796741,-1.56656,-0.517679,0.00996504,-2.10597,0.00504033,1.58846,0.798357,0.102959,0.141605,0.251598,-0.306799,0.134,0.488138,0.34977,0.123825,0.158025,0.28981,-0.349257,0.141059,0.510998,0.371866,5.06807,-1.92538,7.1128,14.9295,1.78011,1.75253,0.330698,0.459264,0.0935256,0.905281,2.2716,0.885404,0.414545,0.171924
1876292,0.98,-1.56741,-0.518118,0.00859248,-2.10653,0.00340405,1.5867,0.79712,-1.56644,-0.517519,0.0102592,-2.10633,0.00518336,1.58898,0.798734,0.105135,0.14356,0.253481,-0.309833,0.133374,0.492271,0.361559,0.125722,0.159584,0.294124,-0.35506,0.143027,0.518399,0.377271,5.06807,-2.07614,7.06122,14.8542,1.78011,1.74612,0.291331,0.455028,0.106161,0.895652,2.25544,0.888342,0.41885,0.177531
1876293,0.98,-1.56729,-0.517967,0.00886297,-2.10686,0.00354535,1.58721,0.797488,-1.56631,-0.517358,0.0105576,-2.10669,0.00532836,1.58951,0.799117,0.109202,0.143755,0.262822,-0.313142,0.132489,0.500408,0.363577,0.12762,0.161118,0.298435,-0.360887,0.144997,0.525798,0.382677,4.94508,-2.17532,7.00965,14.8066,1.79201,1.75253,0.36915,0.445254,0.119559,0.878634,2.23706,0.890825,0.422682,0.183083
1876294,0.98,-1.56718,-0.51782,0.00912894,-2.10719,0.00368496,1.58774,0.797878,-1.56618,-0.517196,0.0108602,-2.10706,0.0054752,1.59004,0.799505,0.112268,0.143545,0.263664,-0.320936,0.132256,0.504611,0.364078,0.129457,0.162454,0.302578,-0.36649,0.146842,0.532805,0.387801,4.84193,-2.25467,7.03742,14.7312,1.7975,1.81021,0.381968,0.431898,0.138665,0.856927,2.21437,0.892941,0.42583,0.18849
1876295,0.98,-1.56706,-0.517667,0.00940723,-2.10753,0.00383134,1.58827,0.798262,-1.56605,-0.517032,0.0111669,-2.10743,0.00562389,1.59058,0.799898,0.113186,0.145468,0.263238,-0.32498,0.133147,0.513155,0.372627,0.131294,0.163768,0.306717,-0.372116,0.148689,0.539811,0.392926,4.79036,-2.30228,6.98584,14.6796,1.76363,1.86148,0.394785,0.419693,0.164027,0.837755,2.18808,0.894968,0.42844,0.193738
1876296,0.99,-1.56694,-0.517519,0.00968943,-2.10788,0.00398049,1.58882,0.798672,-1.56592,-0.516867,0.0114777,-2.10781,0.00577443,1.59113,0.800296,0.11525,0.148504,0.273373,-0.334579,0.13747,0.523723,0.382069,0.133132,0.165057,0.310852,-0.377767,0.150539,0.546815,0.398052,4.81813,-2.30228,6.91046,14.6796,1.74074,1.8038,0.310557,0.412118,0.190967,0.826299,2.16091,0.897122,0.430826,0.198857
1876297,1,-1.56682,-0.51736,0.00998033,-2.10823,0.00412843,1.58938,0.79908,-1.56578,-0.516701,0.0117927,-2.10819,0.00592682,1.59168,0.800699,0.118024,0.147344,0.279412,-0.340728,0.140607,0.531045,0.393835,0.13497,0.166322,0.314984,-0.383441,0.152393,0.553817,0.403179,4.79036,-2.37766,6.93427,14.6796,1.74074,1.72689,0.284922,0.406003,0.215708,0.817423,2.13555,0.899275,0.433306,0.203864
1876298,1,-1.5667,-0.517199,0.010283,-2.10858,0.0042832,1.58994,0.799483,-1.56564,-0.516533,0.0121118,-2.10858,0.00608107,1.59224,0.801107,0.117267,0.150179,0.282237,-0.346404,0.142874,0.536015,0.396169,0.136808,0.167563,0.319112,-0.389141,0.154251,0.560818,0.408307,4.89351,-2.4808,6.83509,14.6558,1.74074,1.68203,0.259287,0.399927,0.239137,0.808676,2.11196,0.901307,0.435924,0.208687
1876299,1,-1.56656,-0.517038,0.0105795,-2.10895,0.00443965,1.59051,0.799899,-1.56551,-0.516364,0.0124351,-2.10897,0.00623718,1.59281,0.801521,0.121733,0.153841,0.285145,-0.349872,0.149288,0.54212,0.397793,0.138647,0.168779,0.323237,-0.394865,0.156111,0.567817,0.413436,4.79036,-2.65536,6.80731,14.6558,1.74623,1.69485,0.252878,0.396358,0.260066,0.803716,2.0895,0.90326,0.438521,0.213214
1876300,1,-1.56642,-0.516873,0.0108792,-2.10931,0.00460009,1.59109,0.800318,-1.56537,-0.516194,0.0127624,-2.10937,0.00639516,1.59338,0.801939,0.125845,0.15614,0.286477,-0.351828,0.148241,0.552334,0.405543,0.140487,0.16997,0.327358,-0.400614,0.157976,0.574814,0.418566,4.6396,-2.83389,6.91046,14.5804,1.78011,1.69485,0.226328,0.396297,0.276747,0.804514,2.06679,0.905122,0.440759,0.217366
1876301,1,-1.5663,-0.516706,0.0111912,-2.10969,0.00476531,1.59168,0.800734,-1.56522,-0.516023,0.0130939,-2.10978,0.006555,1.59397,0.802363,0.123716,0.163506,0.29699,-0.363252,0.149596,0.562512,0.401536,0.142327,0.171136,0.331474,-0.406389,0.159843,0.581809,0.423696,4.71498,-3.01242,6.80731,14.7312,1.76363,1.62985,0.343516,0.398751,0.284764,0.809586,2.04528,0.906946,0.442583,0.221108
1876302,1,-1.56617,-0.516548,0.011507,-2.11007,0.00492086,1.59227,0.801175,-1.56508,-0.515851,0.0134295,-2.11019,0.00671672,1.59456,0.802792,0.123517,0.159353,0.30215,-0.36663,0.148419,0.572457,0.419914,0.144167,0.172277,0.335587,-0.412189,0.161714,0.588802,0.428827,4.74275,-3.01242,6.75971,14.755,1.803,1.58499,0.252878,0.402242,0.281191,0.815771,2.02791,0.908847,0.444208,0.224477
1876303,1,-1.56604,-0.516386,0.0118342,-2.11047,0.00508537,1.59286,0.801598,-1.56493,-0.515678,0.0137692,-2.11061,0.00688031,1.59515,0.803226,0.126693,0.159414,0.306215,-0.379093,0.154224,0.587852,0.417258,0.146008,0.173391,0.339696,-0.418015,0.163589,0.595793,0.433959,4.76655,-3.01242,6.70813,14.9057,1.78011,1.64266,0.304148,0.406218,0.274676,0.821867,2.01236,0.910846,0.445424,0.227535
1876304,1,-1.56591,-0.516226,0.012153,-2.11086,0.00524726,1.59346,0.802043,-1.56479,-0.515503,0.0141128,-2.11104,0.00704563,1.59575,0.803664,0.130063,0.156869,0.310719,-0.383225,0.158943,0.588087,0.42403,0.147767,0.174303,0.343592,-0.423562,0.165325,0.602333,0.438766,4.74275,-3.01242,6.70813,14.9057,1.75813,1.7333,0.278513,0.410127,0.27377,0.827574,1.9962,0.912893,0.446109,0.230323
1876305,1,-1.56576,-0.516058,0.012485,-2.11126,0.00541983,1.59408,0.802492,-1.56464,-0.515328,0.0144603,-2.11146,0.00721269,1.59636,0.804108,0.136494,0.159096,0.317043,-0.391738,0.163003,0.596653,0.436674,0.149526,0.175191,0.347484,-0.429134,0.167064,0.60887,0.443573,4.66737,-3.06003,6.68036,15.0287,1.71877,1.7333,0.278513,0.411618,0.280753,0.830075,1.97903,0.914817,0.446451,0.232886
1876306,1,-1.56562,-0.515889,0.0128139,-2.11167,0.00558972,1.59469,0.802936,-1.56448,-0.515152,0.0148116,-2.1119,0.0073815,1.59698,0.804556,0.141677,0.161123,0.323174,-0.400294,0.168867,0.599616,0.435775,0.151285,0.176053,0.351371,-0.43473,0.168806,0.615406,0.448381,4.59199,-3.1116,6.65656,15.1279,1.72975,1.70767,0.265696,0.407335,0.291157,0.824965,1.96332,0.91642,0.446888,0.235279
1876307,1,-1.56548,-0.51572,0.0131467,-2.11209,0.00576374,1.59532,0.803389,-1.56433,-0.514975,0.0151669,-2.11234,0.00755205,1.5976,0.80501,0.140044,0.163219,0.323782,-0.405332,0.169552,0.611359,0.440715,0.153045,0.17689,0.355255,-0.440352,0.170552,0.62194,0.453189,4.6158,-3.18698,6.65656,15.2033,1.71236,1.64907,0.284922,0.398432,0.298603,0.814003,1.952,0.917744,0.447752,0.237523
1876308,1,-1.56534,-0.515542,0.0134909,-2.11252,0.00594127,1.59594,0.803842,-1.56418,-0.514797,0.015526,-2.11279,0.00772435,1.59823,0.805468,0.138337,0.168597,0.325397,-0.415227,0.172256,0.615872,0.445098,0.154805,0.177702,0.359134,-0.445999,0.172302,0.628471,0.457997,4.66737,-3.31393,6.58118,15.4016,1.75264,1.72689,0.304148,0.392314,0.297773,0.807491,1.94672,0.91913,0.449082,0.239599
1876309,1,-1.56519,-0.515366,0.0138276,-2.11293,0.00611952,1.59655,0.804301,-1.56402,-0.514619,0.015889,-2.11324,0.00789841,1.59886,0.80593,0.143389,0.170236,0.33456,-0.417674,0.176242,0.616364,0.445593,0.156565,0.178488,0.363009,-0.451672,0.174055,0.635,0.462805,4.59199,-3.46469,6.58118,15.5008,1.72975,1.87521,0.323374,0.391807,0.28432,0.809035,1.94902,0.920717,0.450964,0.241538
1876310,1,-1.56504,-0.51519,0.0141725,-2.11337,0.00629258,1.59718,0.804774,-1.56386,-0.51444,0.0162559,-2.11369,0.00807422,1.5995,0.806398,0.144877,0.170277,0.333271,-0.424479,0.178039,0.619927,0.456501,0.158326,0.179247,0.366879,-0.457371,0.175812,0.641527,0.467613,4.59199,-3.56784,6.60498,15.6,1.76363,1.92007,0.330698,0.394063,0.26268,0.814579,1.95613,0.922317,0.453307,0.243412
1876311,1,-1.5649,-0.515013,0.0145256,-2.11381,0.00647546,1.59783,0.805242,-1.5637,-0.51426,0.0166267,-2.11416,0.00825179,1.60015,0.80687,0.145428,0.17085,0.339736,-0.42981,0.177874,0.627281,0.453655,0.160088,0.17998,0.370745,-0.463096,0.177572,0.648052,0.472422,4.71498,-3.69479,6.5296,15.6754,1.71236,1.88803,0.356333,0.399151,0.240578,0.824446,1.96409,0.923899,0.455987,0.245272
1876312,1,-1.56476,-0.514846,0.0148784,-2.11426,0.00665337,1.59848,0.805713,-1.56354,-0.514079,0.0170013,-2.11463,0.00843113,1.60081,0.807348,0.145574,0.171528,0.346349,-0.440021,0.180725,0.63779,0.45676,0.16185,0.180687,0.374607,-0.468848,0.179336,0.654574,0.47723,4.76655,-3.69479,6.55341,15.727,1.70687,1.82302,0.375559,0.406851,0.220744,0.837779,1.9723,0.925524,0.45907,0.247174
1876313,1,-1.5646,-0.514664,0.0152373,-2.11473,0.00683768,1.59915,0.806194,-1.56338,-0.513898,0.0173797,-2.1151,0.00861223,1.60147,0.80783,0.148137,0.174624,0.346408,-0.448939,0.183416,0.639564,0.47174,0.163612,0.181366,0.378464,-0.474626,0.181104,0.661094,0.482039,4.71498,-3.82175,6.55341,15.8499,1.67299,1.79098,0.316965,0.416404,0.199942,0.852932,1.9838,0.927216,0.462833,0.249181
1876314,1,-1.56445,-0.51449,0.0156001,-2.1152,0.00702447,1.59981,0.806671,-1.56321,-0.513716,0.0177618,-2.11558,0.00879495,1.60214,0.808316,0.149999,0.181273,0.355233,-0.455412,0.187735,0.646056,0.470676,0.165277,0.181853,0.38208,-0.480088,0.18272,0.667119,0.486492,4.66737,-3.89713,6.58118,15.9253,1.68398,1.75253,0.297739,0.427693,0.169966,0.869762,2.00306,0.928958,0.467577,0.251313
1876315,1,-1.5643,-0.514316,0.0159586,-2.11567,0.00720543,1.60047,0.807161,-1.56304,-0.513533,0.0181475,-2.11607,0.00897929,1.60281,0.808807,0.14884,0.178007,0.349491,-0.458623,0.191454,0.644244,0.483019,0.166942,0.182314,0.385691,-0.485576,0.184338,0.673141,0.490945,4.71498,-3.9725,6.60498,15.8738,1.71236,1.84866,0.213511,0.441906,0.129973,0.890239,2.02908,0.930685,0.473049,0.253513
1876316,1,-1.56414,-0.514135,0.0163272,-2.11615,0.00738767,1.60113,0.807647,-1.56288,-0.513351,0.0185368,-2.11656,0.00916525,1.60349,0.809303,0.1501,0.179169,0.353186,-0.475721,0.189188,0.653494,0.478851,0.168607,0.182749,0.389297,-0.491089,0.185961,0.679161,0.495398,4.81813,-4.07169,6.55341,15.8499,1.74623,1.84225,0.219919,0.463444,0.0871708,0.921165,2.05877,0.932539,0.478974,0.255633
1876317,1,-1.56398,-0.51395,0.0166939,-2.11664,0.0075648,1.60182,0.808139,-1.56271,-0.513168,0.0189297,-2.11705,0.00935284,1.60417,0.809802,0.153775,0.184388,0.351825,-0.483927,0.186933,0.666357,0.475965,0.170273,0.183159,0.392899,-0.496627,0.187586,0.685179,0.49985,4.81813,-4.22244,6.55341,15.7984,1.803,1.78457,0.213511,0.4936,0.0388327,0.96471,2.09573,0.934813,0.485674,0.257544
1876318,1,-1.56382,-0.513765,0.0170688,-2.11714,0.00775059,1.60252,0.808628,-1.56253,-0.512984,0.0193262,-2.11756,0.00954205,1.60486,0.810307,0.155242,0.184235,0.353743,-0.485806,0.187459,0.676607,0.487898,0.171939,0.183542,0.396496,-0.502191,0.189216,0.691194,0.504302,4.71498,-4.3494,6.5058,15.9253,1.803,1.70767,0.213511,0.530704,-0.0178624,1.01866,2.1396,0.937587,0.492874,0.259166
1876319,1,-1.56366,-0.513581,0.0174434,-2.11763,0.00793898,1.6032,0.809128,-1.56236,-0.5128,0.0197263,-2.11806,0.0097329,1.60556,0.810815,0.155125,0.184745,0.362389,-0.492671,0.188506,0.682947,0.486234,0.173606,0.183899,0.400088,-0.50778,0.190849,0.697206,0.508753,4.66737,-4.50412,6.45423,15.9729,1.78652,1.65548,0.200693,0.571662,-0.0742123,1.07819,2.18233,0.940668,0.499604,0.260452
1876320,1,-1.5635,-0.513399,0.0178137,-2.11814,0.00812957,1.6039,0.809642,-1.56218,-0.512616,0.02013,-2.11858,0.00992539,1.60626,0.811329,0.158302,0.185376,0.364516,-0.495931,0.189919,0.683538,0.493611,0.175273,0.18423,0.403676,-0.513396,0.192486,0.703216,0.513203,4.74275,-4.65488,6.43042,15.9491,1.75264,1.69485,0.149424,0.611827,-0.122895,1.13603,2.219,0.9438,0.505343,0.26141
1876321,1,-1.56334,-0.513219,0.0182023,-2.11864,0.00832735,1.60458,0.810152,-1.56201,-0.512431,0.0205372,-2.1191,0.0101195,1.60697,0.811846,0.157414,0.181511,0.369875,-0.4968,0.195184,0.694207,0.491861,0.17694,0.184533,0.407258,-0.519037,0.194127,0.709222,0.517653,4.84193,-4.78183,6.37885,15.8976,1.71236,1.77175,0.135691,0.649118,-0.156575,1.18914,2.24482,0.946757,0.50962,0.262022
1876322,1,-1.56317,-0.51304,0.0185772,-2.11915,0.00852657,1.6053,0.810667,-1.56183,-0.512247,0.0209481,-2.11962,0.0103153,1.60769,0.812368,0.160437,0.182215,0.376422,-0.503774,0.199256,0.697696,0.493,0.178607,0.18481,0.410836,-0.524705,0.195772,0.715226,0.522101,4.79036,-4.90482,6.47803,15.8738,1.67848,1.68203,0.162241,0.682385,-0.168357,1.23568,2.25545,0.949306,0.51207,0.262238
1876323,1,-1.56301,-0.512859,0.0189729,-2.11967,0.00871758,1.60601,0.811191,-1.56165,-0.512061,0.0213625,-2.12015,0.0105127,1.60841,0.812895,0.160935,0.182151,0.376953,-0.506073,0.201331,0.696596,0.505932,0.180275,0.18506,0.414408,-0.530399,0.19742,0.721227,0.526549,4.79036,-5.00797,6.47803,15.8976,1.6675,1.69485,0.162241,0.71122,-0.1609,1.27491,2.25276,0.951329,0.513032,0.262045
1876324,1,-1.56284,-0.512676,0.0193611,-2.12018,0.00891761,1.60671,0.811703,-1.56147,-0.511876,0.0217802,-2.12069,0.0107116,1.60914,0.813426,0.164372,0.179069,0.383127,-0.509288,0.198813,0.701134,0.503402,0.181836,0.185126,0.417726,-0.535747,0.198896,0.726707,0.53062,4.76655,-5.10715,6.5296,15.8738,1.64461,1.70126,0.175059,0.736825,-0.136833,1.30892,2.23841,0.95279,0.512787,0.261476
1876325,1,-1.56267,-0.512496,0.019764,-2.1207,0.00911127,1.60743,0.812227,-1.56128,-0.511691,0.0222012,-2.12123,0.010912,1.60987,0.81396,0.16348,0.180067,0.38916,-0.517605,0.196029,0.700714,0.515141,0.183398,0.185168,0.421038,-0.54112,0.200376,0.732183,0.534689,4.79036,-5.2103,6.5058,15.8261,1.64461,1.77816,0.219919,0.758876,-0.0976485,1.3373,2.2141,0.953681,0.511552,0.260613
1876326,1,-1.5625,-0.512315,0.0201704,-2.12124,0.00930374,1.60815,0.812751,-1.5611,-0.511506,0.0226256,-2.12178,0.0111138,1.61061,0.814499,0.162939,0.179106,0.392545,-0.522813,0.191553,0.709016,0.511886,0.184959,0.185183,0.424346,-0.546517,0.201859,0.737657,0.538757,4.81813,-5.26187,6.5058,15.9253,1.70137,1.79739,0.200693,0.778044,-0.0503351,1.36062,2.18509,0.954152,0.509879,0.259562
1876327,1,-1.56234,-0.512128,0.0205795,-2.12178,0.00950803,1.60887,0.813272,-1.56091,-0.511321,0.0230532,-2.12233,0.0113172,1.61135,0.815042,0.164683,0.180741,0.403773,-0.526292,0.203903,0.716141,0.511357,0.186521,0.185173,0.427648,-0.551939,0.203346,0.743128,0.542824,4.89351,-5.38882,6.40265,16.0245,1.69588,1.8038,0.291331,0.794407,-0.000334329,1.37873,2.15407,0.954274,0.508025,0.258429
1876328,1,-1.56216,-0.511942,0.0209818,-2.12232,0.00970065,1.60962,0.81381,-1.56072,-0.511136,0.0234842,-2.12288,0.011522,1.6121,0.815589,0.165449,0.181206,0.39703,-0.533727,0.198051,0.719501,0.515229,0.188083,0.185137,0.430946,-0.557386,0.204837,0.748596,0.546889,4.84193,-5.48801,6.40265,16.2229,1.75264,1.66189,0.265696,0.808579,0.0483755,1.3928,2.12234,0.954112,0.506131,0.257311
1876329,1,-1.56199,-0.511747,0.0213951,-2.12286,0.00989417,1.61036,0.814348,-1.56053,-0.510951,0.0239184,-2.12345,0.0117284,1.61285,0.81614,0.16923,0.183802,0.40713,-0.53467,0.195518,0.729014,0.518405,0.189646,0.185074,0.434238,-0.562858,0.206331,0.75406,0.550953,4.66737,-5.69034,6.40265,16.3459,1.75813,1.62344,0.194285,0.823696,0.0915588,1.40799,2.09176,0.953919,0.504289,0.256312
1876330,1,-1.56181,-0.51157,0.0218118,-2.12343,0.0100855,1.61111,0.814892,-1.56034,-0.510766,0.0243559,-2.12402,0.0119362,1.61361,0.816695,0.170581,0.1816,0.409675,-0.54564,0.19366,0.740513,0.521025,0.191209,0.184986,0.437525,-0.568355,0.20783,0.759522,0.555015,4.66737,-5.71414,6.25189,16.5958,1.76912,1.5914,0.226328,0.838461,0.128316,1.42269,2.0631,0.953816,0.502293,0.255489
1876331,1,-1.56163,-0.511383,0.0222301,-2.12399,0.0102795,1.61186,0.815436,-1.56015,-0.510581,0.0247967,-2.12459,0.0121455,1.61438,0.817254,0.172502,0.181702,0.410573,-0.553056,0.196429,0.734274,0.535128,0.192772,0.184871,0.440807,-0.573878,0.209332,0.76498,0.559075,4.6158,-5.81729,6.22809,16.7188,1.78011,1.71408,0.194285,0.852136,0.158901,1.43611,2.0389,0.953917,0.500283,0.254791
1876332,1,-1.56145,-0.511202,0.0226496,-2.12455,0.0104711,1.61261,0.815987,-1.55996,-0.510396,0.0252408,-2.12517,0.0123564,1.61515,0.817817,0.174944,0.182948,0.418527,-0.561464,0.197732,0.742076,0.534017,0.194335,0.184729,0.444083,-0.579425,0.210838,0.770435,0.563133,4.54042,-5.86887,6.17652,16.8418,1.82039,1.64266,0.194285,0.865472,0.181337,1.44955,2.02284,0.954322,0.498737,0.254159
1876333,1,-1.56127,-0.511016,0.0230735,-2.12513,0.0106808,1.61337,0.816544,-1.55976,-0.510211,0.0256882,-2.12575,0.0125687,1.61592,0.818384,0.177753,0.185596,0.421957,-0.564455,0.202631,0.738434,0.549034,0.195899,0.18456,0.447354,-0.584998,0.212347,0.775886,0.56719,4.54042,-5.94424,6.14875,16.9925,1.75813,1.64266,0.16865,0.876094,0.192928,1.45959,2.01623,0.954944,0.497836,0.253561
1876334,1,-1.56109,-0.510834,0.0235056,-2.1257,0.0108941,1.61413,0.817105,-1.55956,-0.510027,0.0261385,-2.12634,0.0127824,1.6167,0.818955,0.180258,0.182448,0.423456,-0.583661,0.20523,0.763555,0.555785,0.197351,0.184219,0.45036,-0.590198,0.213676,0.780801,0.570851,4.54042,-5.94424,6.12494,17.0163,1.71236,1.55935,0.116465,0.88365,0.192654,1.46591,2.02008,0.9558,0.497605,0.252934
1876335,1,-1.5609,-0.510659,0.0239388,-2.12629,0.0111033,1.6149,0.817662,-1.55936,-0.509843,0.0265919,-2.12694,0.0129974,1.61749,0.819529,0.186658,0.182835,0.426558,-0.588906,0.20747,0.763832,0.552847,0.198803,0.183854,0.453361,-0.595421,0.215008,0.785712,0.574511,4.48884,-5.91647,6.12494,17.1671,1.662,1.60421,0.16865,0.889107,0.181978,1.47039,2.03584,0.95696,0.498049,0.252192
1876336,1,-1.5607,-0.510465,0.0243734,-2.12689,0.0113087,1.61564,0.818233,-1.55916,-0.50966,0.0270483,-2.12754,0.0132137,1.61828,0.820108,0.18788,0.18469,0.424601,-0.587619,0.205934,0.748793,0.561967,0.200256,0.183464,0.456357,-0.600668,0.216343,0.790619,0.578168,4.43727,-6.095,6.14875,17.1155,1.69039,1.81021,0.16865,0.893684,0.165343,1.47534,2.05971,0.958249,0.498855,0.251282
1876337,1,-1.56052,-0.510273,0.0248269,-2.12748,0.0115094,1.6164,0.818793,-1.55896,-0.509477,0.0275076,-2.12815,0.0134314,1.61908,0.820689,0.186605,0.186024,0.434751,-0.590015,0.207699,0.749884,0.566521,0.201709,0.183049,0.459347,-0.605938,0.217683,0.795523,0.581823,4.48884,-6.27353,6.10114,17.1909,1.77461,1.97775,0.200693,0.899247,0.147629,1.48321,2.08468,0.959394,0.49961,0.250212
1876338,1,-1.56033,-0.51009,0.0252754,-2.1281,0.0117195,1.61718,0.819358,-1.55876,-0.509294,0.0279699,-2.12876,0.0136504,1.61988,0.821275,0.184026,0.185572,0.435786,-0.594977,0.207689,0.759164,0.56798,0.203162,0.182608,0.462332,-0.611231,0.219025,0.800424,0.585475,4.6158,-6.39651,5.94641,17.2901,1.78011,1.96493,0.323374,0.906576,0.131908,1.49389,2.10667,0.960332,0.500174,0.249032
1876339,1,-1.56013,-0.509905,0.0257212,-2.12872,0.0119367,1.61796,0.81993,-1.55855,-0.509112,0.0284352,-2.12937,0.0138708,1.62068,0.821864,0.194148,0.18503,0.433464,-0.604394,0.21185,0.774884,0.564116,0.204615,0.182142,0.465311,-0.616548,0.220372,0.805322,0.589125,4.51265,-6.52347,5.92261,17.4884,1.78011,1.90725,0.356333,0.916825,0.119242,1.50886,2.12529,0.961261,0.500687,0.24784
1876340,1,-1.55992,-0.509724,0.0261705,-2.12935,0.0121579,1.61876,0.820522,-1.55835,-0.508931,0.0289035,-2.13,0.0140925,1.62149,0.822457,0.198864,0.185644,0.444942,-0.616206,0.217199,0.784056,0.567263,0.206069,0.181651,0.468285,-0.621889,0.221723,0.810215,0.592772,4.38966,-6.67422,5.81946,17.6908,1.73525,1.76535,0.297739,0.926517,0.10666,1.52389,2.14446,0.962254,0.501615,0.246848
1876341,1,-1.55972,-0.509536,0.0266348,-2.12998,0.0123795,1.61956,0.821119,-1.55814,-0.508749,0.0293748,-2.13062,0.0143156,1.62231,0.823053,0.196765,0.18284,0.445992,-0.617771,0.216422,0.786546,0.57873,0.207523,0.181133,0.471254,-0.627253,0.223077,0.815105,0.596417,4.33809,-6.82895,5.6449,17.8376,1.68398,1.70126,0.24647,0.930928,0.0934295,1.53176,2.16641,0.963193,0.503146,0.246225
1876342,1,-1.55952,-0.509353,0.0270954,-2.13061,0.0125965,1.62034,0.821721,-1.55793,-0.508569,0.029849,-2.13126,0.01454,1.62313,0.823653,0.200776,0.180151,0.453624,-0.623996,0.217885,0.784282,0.582994,0.208977,0.18059,0.474216,-0.632642,0.224435,0.819991,0.600058,4.28651,-6.9559,5.56952,17.9605,1.70137,1.79098,0.135691,0.930884,0.0865565,1.53283,2.1872,0.963963,0.504805,0.245958
1876343,1,-1.55931,-0.509168,0.027551,-2.13124,0.0128095,1.62113,0.822326,-1.55772,-0.508389,0.0303262,-2.13189,0.0147658,1.62395,0.824257,0.203718,0.182341,0.453615,-0.625455,0.218538,0.783039,0.582873,0.210431,0.180021,0.477173,-0.638054,0.225797,0.824874,0.603697,4.28651,-7.13046,5.49018,17.8376,1.73525,1.82943,0.143015,0.927417,0.0893951,1.52857,2.20416,0.964437,0.506237,0.245909
1876344,1,-1.55911,-0.508984,0.0280271,-2.13188,0.0130346,1.62195,0.822925,-1.55751,-0.508209,0.030806,-2.13254,0.0149928,1.62478,0.824864,0.202772,0.182348,0.460182,-0.623388,0.224559,0.787843,0.580821,0.211773,0.179293,0.479856,-0.643067,0.226982,0.82921,0.606925,4.28651,-7.25742,5.36719,17.7146,1.74074,1.75253,0.200693,0.921886,0.0998875,1.52103,2.21561,0.964557,0.507159,0.245875
1876345,1,-1.55889,-0.5088,0.0284885,-2.13251,0.0132638,1.62274,0.823539,-1.5573,-0.508031,0.0312886,-2.13318,0.015221,1.62561,0.825474,0.210026,0.18282,0.469816,-0.617679,0.229505,0.790784,0.578022,0.213116,0.178541,0.482533,-0.648101,0.228171,0.833542,0.61015,4.08418,-7.38437,5.4148,17.5638,1.70687,1.81021,0.162241,0.912758,0.12067,1.50778,2.21557,0.964133,0.506821,0.245733
1876346,1,-1.55867,-0.508622,0.028963,-2.13315,0.0134935,1.62355,0.82415,-1.55708,-0.507853,0.0317738,-2.13384,0.0154504,1.62645,0.826087,0.212369,0.180232,0.46326,-0.623176,0.225354,0.791373,0.589949,0.214459,0.177765,0.485205,-0.653157,0.229363,0.83787,0.613372,3.985,-7.38437,5.4148,17.3416,1.6675,1.87521,0.240061,0.898542,0.155304,1.4872,2.20014,0.963057,0.504792,0.245455
1876347,1,-1.55846,-0.508442,0.0294507,-2.13378,0.0137277,1.62436,0.824766,-1.55687,-0.507676,0.0322616,-2.1345,0.0156809,1.62729,0.826704,0.215458,0.1797,0.475273,-0.628434,0.227009,0.796487,0.592757,0.215802,0.176966,0.487871,-0.658235,0.230559,0.842195,0.61659,4.06038,-7.43594,5.21247,17.0679,1.61623,1.8688,0.233652,0.882025,0.201095,1.46403,2.17325,0.961571,0.501619,0.245045
1876348,1,-1.55826,-0.508258,0.0299306,-2.13443,0.0139547,1.6252,0.82539,-1.55665,-0.5075,0.0327522,-2.13516,0.0159127,1.62814,0.827324,0.211869,0.179198,0.473512,-0.635809,0.225756,0.809833,0.591494,0.217145,0.176142,0.490532,-0.663334,0.231758,0.846516,0.619805,4.18733,-7.6105,5.08551,16.8695,1.63912,1.72048,0.226328,0.865227,0.251077,1.44068,2.14172,0.959925,0.498112,0.244569
1876349,1,-1.55805,-0.508085,0.0304199,-2.13507,0.0141922,1.62605,0.826009,-1.55643,-0.507325,0.0332454,-2.13583,0.0161456,1.62899,0.827947,0.212774,0.175931,0.475308,-0.636169,0.226907,0.815974,0.597303,0.218488,0.175294,0.493187,-0.668455,0.232961,0.850833,0.623016,4.15956,-7.68588,4.93476,16.6196,1.59975,1.6683,0.265696,0.852823,0.302453,1.42299,2.10752,0.958335,0.494428,0.244069
1876350,1,-1.55783,-0.507907,0.0309039,-2.13572,0.0144323,1.62687,0.82664,-1.55621,-0.50715,0.0337412,-2.1365,0.0163798,1.62985,0.828573,0.21458,0.180386,0.481742,-0.642358,0.231119,0.817072,0.604849,0.219832,0.174422,0.495837,-0.673598,0.234168,0.855146,0.626224,3.96119,-7.81284,4.83557,16.5204,1.60524,1.71408,0.16865,0.847005,0.35341,1.41358,2.07058,0.956817,0.490466,0.243572
1876351,1,-1.5576,-0.507731,0.0313846,-2.13638,0.0146685,1.62774,0.827269,-1.55599,-0.506977,0.0342397,-2.13718,0.0166152,1.63071,0.829203,0.221183,0.177865,0.48348,-0.647106,0.229464,0.826613,0.615069,0.221176,0.173526,0.498481,-0.678762,0.235379,0.859454,0.629428,3.78267,-7.91599,4.83557,16.5204,1.61073,1.61062,0.226328,0.843561,0.397695,1.40639,2.03395,0.95519,0.486457,0.243113
1876352,1,-1.55737,-0.507549,0.0318802,-2.13703,0.0149009,1.6286,0.827901,-1.55577,-0.506804,0.0347408,-2.13786,0.0168518,1.63157,0.829835,0.224794,0.177478,0.482449,-0.664449,0.230653,0.859276,0.618525,0.22252,0.172605,0.501119,-0.683948,0.236593,0.863759,0.632629,3.65571,-8.09055,4.73242,16.5204,1.6675,1.48153,0.155832,0.840132,0.431039,1.39892,2.00178,0.95351,0.482611,0.24266
1876353,1,-1.55716,-0.507374,0.0323806,-2.13769,0.0151403,1.62947,0.828533,-1.55554,-0.506633,0.0352445,-2.13855,0.0170896,1.63244,0.830471,0.220227,0.174959,0.495362,-0.667376,0.23537,0.858172,0.613517,0.223865,0.171659,0.503751,-0.689156,0.237812,0.868059,0.635825,3.70729,-8.16592,4.50629,16.5204,1.63912,1.54013,0.162241,0.836238,0.452648,1.39061,1.97687,0.951966,0.478932,0.242165
1876354,1,-1.55695,-0.507201,0.0328859,-2.13836,0.0153863,1.63033,0.829178,-1.55532,-0.506462,0.0357506,-2.13925,0.0173284,1.63331,0.83111,0.221466,0.175448,0.498131,-0.665029,0.239422,0.852222,0.624228,0.225092,0.170569,0.506097,-0.693941,0.238857,0.871807,0.638603,3.68348,-8.2175,4.40314,16.7188,1.59975,1.7333,0.135691,0.830321,0.46775,1.37827,1.95522,0.950446,0.475064,0.24159
1876355,1,-1.55671,-0.507031,0.0333929,-2.13904,0.0156382,1.63119,0.82982,-1.55509,-0.506293,0.0362591,-2.13995,0.0175684,1.63419,0.831751,0.226475,0.173358,0.504442,-0.670046,0.246043,0.857649,0.627345,0.22632,0.169457,0.508439,-0.698745,0.239906,0.875552,0.641376,3.50496,-8.14212,4.40314,16.9687,1.58235,1.81661,0.0587866,0.820656,0.483491,1.35947,1.93016,0.948644,0.470631,0.240885
1876356,1,-1.55648,-0.506856,0.0339059,-2.13972,0.0158907,1.63209,0.830473,-1.55486,-0.506124,0.0367699,-2.14065,0.0178093,1.63507,0.832395,0.22464,0.171922,0.502667,-0.679008,0.247732,0.866067,0.636478,0.227548,0.168322,0.510774,-0.703567,0.240959,0.879292,0.644145,3.42958,-8.1937,4.32776,17.1671,1.52651,1.74612,-0.0126246,0.808157,0.501002,1.33621,1.90175,0.946524,0.465935,0.239959
