shamilmamedov/beam_handling/data/vibration_suppression_ICRA/csZVIS_T1_0.56s.csv
duration, success rate, q[0], q[1], q[2], q[3], q[4], q[5], q[6],q_d[0], q_d[1], q_d[2], q_d[3], q_d[4], q_d[5], q_d[6],dq[0], dq[1], dq[2], dq[3], dq[4], dq[5], dq[6],dq_d[0], dq_d[1], dq_d[2], dq_d[3], dq_d[4], dq_d[5], dq_d[6],tau_J[0], tau_J[1], tau_J[2], tau_J[3], tau_J[4], tau_J[5], tau_J[6],tau_ext_hat_filtered[0], tau_ext_hat_filtered[1], tau_ext_hat_filtered[2], tau_ext_hat_filtered[3], tau_ext_hat_filtered[4], tau_ext_hat_filtered[5], tau_ext_hat_filtered[6]
3623748,0,-1.57085,-0.522794,-0.000370696,-2.09597,-1.57081,1.57157,0.785844,-1.5708,-0.523599,-4.63595e-08,-2.0944,-1.5708,1.5708,0.785399,-0.000156458,-0.000424942,-8.98262e-05,6.9665e-05,-0.000350747,0.000241898,0.000679023,0,0,0,0,0,0,0,-0.0497324,-10.2408,0.606448,21.0431,-0.735762,-0.604955,-0.252493,-0.0295417,-1.12932,0.420917,2.51774,-0.182123,-0.597115,-0.279088
3623749,1,-1.57085,-0.52279,-0.000369433,-2.09597,-1.57081,1.57157,0.785842,-1.5708,-0.523599,-4.63595e-08,-2.0944,-1.5708,1.5708,0.785399,-0.000661118,0.000923131,0.00058973,-0.000603171,-0.000233832,-7.60933e-05,-5.59444e-05,0,0,0,0,0,0,0,-0.0259286,-10.2924,0.578677,21.0709,-0.735762,-0.598546,-0.23876,-0.0295144,-1.13096,0.421577,2.51886,-0.18214,-0.597088,-0.278982
3623750,1,-1.57085,-0.522792,-0.000369661,-2.09596,-1.57081,1.57157,0.785844,-1.5708,-0.523599,-4.63595e-08,-2.0944,-1.5708,1.5708,0.785399,-0.000440745,-3.41933e-05,0.000393153,0.0002475,0.000251013,0.00018663,0.000708689,0,0,0,0,0,0,0,-0.0259286,-10.2646,0.578677,21.0431,-0.746748,-0.604955,-0.258901,-0.0297054,-1.13354,0.421827,2.52031,-0.182159,-0.597113,-0.278925
3623751,1,-1.57085,-0.522794,-0.000371686,-2.09597,-1.57081,1.57157,0.785841,-1.5708,-0.523599,-4.63595e-08,-2.0944,-1.5708,1.5708,0.785399,0.000262982,-0.000579607,-0.000387512,-0.00104143,0.000370793,-0.000350298,-0.000510885,0,0,0,0,0,0,0,-0.0497324,-10.2408,0.606448,21.0947,-0.752241,-0.592137,-0.232351,-0.0299963,-1.13573,0.421872,2.52159,-0.182159,-0.597153,-0.278926
3623752,1,-1.57085,-0.522792,-0.000369581,-2.09596,-1.57081,1.57157,0.785839,-1.5708,-0.523599,-4.63595e-08,-2.0944,-1.5708,1.5708,0.785399,-0.000938303,0.000170407,-0.000258341,0.00106895,4.37447e-05,3.82705e-06,-0.00105267,0,0,0,0,0,0,0,-0.00212494,-10.2646,0.606448,21.0193,-0.746748,-0.598546,-0.213125,-0.0299368,-1.13646,0.422417,2.52217,-0.182114,-0.597124,-0.278987
3623753,1,-1.57085,-0.522792,-0.00037101,-2.09596,-1.57081,1.57157,0.785845,-1.5708,-0.523599,-4.63595e-08,-2.0944,-1.5708,1.5708,0.785399,0.0011377,0.000113605,-0.000172227,0.000712636,-0.000377738,0.00023991,0.000247658,0,0,0,0,0,0,0,-0.0775034,-10.2646,0.606448,21.0193,-0.735762,-0.604955,-0.23876,-0.0296704,-1.13616,0.423282,2.52175,-0.182022,-0.597058,-0.279081
3623754,1,-1.57085,-0.52279,-0.000369538,-2.09597,-1.57081,1.57157,0.785843,-1.5708,-0.523599,-4.63595e-08,-2.0944,-1.5708,1.5708,0.785399,-0.000447957,0.00072535,0.000534796,-0.000731335,0.000358526,-7.74187e-05,0.000165105,0,0,0,0,0,0,0,-0.0259286,-10.2924,0.578677,21.0709,-0.752241,-0.598546,-0.23876,-0.0299382,-1.13626,0.423432,2.52119,-0.18194,-0.597087,-0.279172
3623755,1,-1.57085,-0.522792,-0.000371185,-2.09597,-1.57081,1.57157,0.785838,-1.5708,-0.523599,-4.63595e-08,-2.0944,-1.5708,1.5708,0.785399,-0.00085545,-0.000166047,-0.000849895,0.000162057,-0.000167884,-5.16125e-05,-0.00131408,0,0,0,0,0,0,0,-0.00212494,-10.2646,0.630252,21.0431,-0.741255,-0.598546,-0.200308,-0.0301962,-1.13752,0.423579,2.52144,-0.181893,-0.597132,-0.279248
3623756,1,-1.57085,-0.522792,-0.000372658,-2.09597,-1.57081,1.57157,0.785843,-1.5708,-0.523599,-4.63595e-08,-2.0944,-1.5708,1.5708,0.785399,0.00119294,-0.000110698,-0.000566597,0.000108038,9.15282e-05,-3.44083e-05,-0.000163979,0,0,0,0,0,0,0,-0.0775034,-10.2646,0.630252,21.0431,-0.746748,-0.598546,-0.219534,-0.0298352,-1.13842,0.424631,2.52167,-0.181831,-0.597079,-0.279308
3623757,1,-1.57085,-0.52279,-0.000369348,-2.09597,-1.57081,1.57157,0.785842,-1.5708,-0.523599,-4.63595e-08,-2.0944,-1.5708,1.5708,0.785399,0.000145678,0.000575815,0.000179081,-0.0011344,6.10188e-05,-2.29389e-05,-0.000821396,0,0,0,0,0,0,0,-0.0497324,-10.2924,0.606448,21.0947,-0.746748,-0.598546,-0.200308,-0.0297398,-1.13917,0.42544,2.52198,-0.181782,-0.597062,-0.279323
3623758,1,-1.57085,-0.522789,-0.000370932,-2.09597,-1.57081,1.57157,0.785845,-1.5708,-0.523599,-4.63595e-08,-2.0944,-1.5708,1.5708,0.785399,-0.000459693,0.000940689,0.000119387,-0.000756267,4.06792e-05,-1.52926e-05,0.00162254,0,0,0,0,0,0,0,-0.0259286,-10.3162,0.606448,21.0947,-0.746748,-0.598546,-0.258901,-0.030195,-1.14181,0.425524,2.52362,-0.181808,-0.597145,-0.279268
3623759,1,-1.57085,-0.52279,-0.00037146,-2.09597,-1.57081,1.57157,0.785839,-1.5708,-0.523599,-4.63595e-08,-2.0944,-1.5708,1.5708,0.785399,-0.000306462,7.03139e-05,7.95914e-05,5.26339e-05,0.00023057,-0.000247554,-0.000851086,0,0,0,0,0,0,0,-0.0259286,-10.2924,0.606448,21.0709,-0.752241,-0.592137,-0.206716,-0.0306387,-1.1456,0.425561,2.52597,-0.18187,-0.597237,-0.279157
3623760,1,-1.57085,-0.52279,-0.000371636,-2.09597,-1.57081,1.57157,0.785836,-1.5708,-0.523599,-4.63595e-08,-2.0944,-1.5708,1.5708,0.785399,0.000352504,4.68759e-05,5.30609e-05,0.000684703,-0.000253188,0.000309682,-0.00127947,0,0,0,0,0,0,0,-0.0497324,-10.2924,0.606448,21.0431,-0.741255,-0.604955,-0.18749,-0.0310592,-1.1479,0.425542,2.52725,-0.181897,-0.597308,-0.279025
3623761,1,-1.57085,-0.522792,-0.000368076,-2.09597,-1.57081,1.57157,0.785849,-1.5708,-0.523599,-4.63595e-08,-2.0944,-1.5708,1.5708,0.785399,0.000235003,-0.000618363,0.0012418,-0.000193145,3.46587e-05,0.000206455,0.0022666,0,0,0,0,0,0,0,-0.0497324,-10.2646,0.554873,21.0709,-0.746748,-0.604955,-0.271719,-0.0320508,-1.1477,0.424601,2.52696,-0.181887,-0.597438,-0.278869
3623762,1,-1.57085,-0.522792,-0.000367635,-2.09596,-1.57081,1.57157,0.785845,-1.5708,-0.523599,-4.63595e-08,-2.0944,-1.5708,1.5708,0.785399,-0.000956956,-0.000412242,0.000271055,0.00163447,2.31058e-05,-9.97225e-05,5.30023e-05,0,0,0,0,0,0,0,-0.00212494,-10.2646,0.578677,20.9955,-0.746748,-0.598546,-0.232351,-0.0335001,-1.14505,0.4228,2.5252,-0.181844,-0.597618,-0.278683
3623763,1,-1.57085,-0.522792,-0.000371011,-2.09597,-1.57081,1.57157,0.785839,-1.5708,-0.523599,-4.63595e-08,-2.0944,-1.5708,1.5708,0.785399,0.000475654,-0.000274828,-0.000468911,-0.0012304,0.000456213,-0.000303841,-0.00115146,0,0,0,0,0,0,0,-0.0497324,-10.2646,0.606448,21.0947,-0.75865,-0.592137,-0.200308,-0.0344162,-1.14115,0.421629,2.52274,-0.181768,-0.597709,-0.278508
3623764,1,-1.57085,-0.522792,-0.000369356,-2.09597,-1.57081,1.57157,0.785842,-1.5708,-0.523599,-4.63595e-08,-2.0944,-1.5708,1.5708,0.785399,-0.000796522,-0.000183219,-0.000312607,0.000386159,6.67833e-05,-0.00020256,0.000656514,0,0,0,0,0,0,0,-0.00212494,-10.2646,0.606448,21.0431,-0.752241,-0.592137,-0.23876,-0.034407,-1.13803,0.421829,2.52103,-0.181705,-0.597661,-0.27835
3623765,1,-1.57085,-0.52279,-0.000367316,-2.09597,-1.57081,1.57157,0.785844,-1.5708,-0.523599,-4.63595e-08,-2.0944,-1.5708,1.5708,0.785399,2.57976e-05,0.000527468,0.000998021,-0.000392175,-0.000362379,0.000339678,0.00118366,0,0,0,0,0,0,0,-0.0259286,-10.2924,0.554873,21.0709,-0.741255,-0.604955,-0.258901,-0.034085,-1.13644,0.42245,2.5203,-0.181689,-0.597581,-0.278187
3623766,1,-1.57086,-0.52279,-0.000371461,-2.09597,-1.57081,1.57157,0.785839,-1.5708,-0.523599,-4.63595e-08,-2.0944,-1.5708,1.5708,0.785399,-0.000539614,0.000351645,-0.000541079,-0.00026145,0.000165315,0.000463811,-0.00185575,0,0,0,0,0,0,0,-0.00212494,-10.2924,0.606448,21.0709,-0.752241,-0.611364,-0.18749,-0.0339469,-1.13675,0.422705,2.52054,-0.181728,-0.59756,-0.278035
3623767,1,-1.57085,-0.522794,-0.000373307,-2.09597,-1.57081,1.57157,0.785843,-1.5708,-0.523599,-4.63595e-08,-2.0944,-1.5708,1.5708,0.785399,0.000753882,-0.000971996,-0.000917531,0.00103213,-9.32404e-05,7.18482e-05,0.000661705,0,0,0,0,0,0,0,-0.0497324,-10.2408,0.630252,21.0193,-0.746748,-0.604955,-0.23876,-0.0335134,-1.13717,0.423389,2.52076,-0.181759,-0.59751,-0.277911
3623768,1,-1.57085,-0.522792,-0.000371695,-2.09597,-1.57081,1.57157,0.785846,-1.5708,-0.523599,-4.63595e-08,-2.0944,-1.5708,1.5708,0.785399,0.0011522,-9.11851e-05,-5.48754e-05,0.000131272,0.00014129,-0.00018946,0.00166184,0,0,0,0,0,0,0,-0.0775034,-10.2646,0.606448,21.0431,-0.752241,-0.598546,-0.271719,-0.0330223,-1.13562,0.424263,2.51973,-0.181745,-0.597447,-0.277797
3623769,1,-1.57085,-0.522792,-0.000368095,-2.09597,-1.57081,1.57157,0.785843,-1.5708,-0.523599,-4.63595e-08,-2.0944,-1.5708,1.5708,0.785399,0.00011852,-6.07901e-05,0.00116984,0.000644327,-0.000312708,-0.000363666,-0.000824887,0,0,0,0,0,0,0,-0.0497324,-10.2646,0.554873,21.0193,-0.741255,-0.592137,-0.219534,-0.0334816,-1.13342,0.423814,2.5182,-0.181746,-0.59753,-0.277702
3623770,1,-1.57085,-0.522792,-0.000369591,-2.09596,-1.57081,1.57157,0.785846,-1.5708,-0.523599,-4.63595e-08,-2.0944,-1.5708,1.5708,0.785399,-0.000477798,-4.05267e-05,-0.000426531,0.000429551,-0.000411922,0.000232274,0.000162152,0,0,0,0,0,0,0,-0.0259286,-10.2646,0.606448,21.0193,-0.735762,-0.604955,-0.23876,-0.0344487,-1.13172,0.422545,2.51679,-0.18177,-0.597697,-0.277653
3623771,1,-1.57085,-0.52279,-0.000367394,-2.09597,-1.57081,1.57157,0.785849,-1.5708,-0.523599,-4.63595e-08,-2.0944,-1.5708,1.5708,0.785399,0.00023828,0.000622596,0.000922072,-0.00147687,0.000132286,-8.25096e-05,0.00109145,0,0,0,0,0,0,0,-0.0497324,-10.2924,0.554873,21.0947,-0.746748,-0.598546,-0.26531,-0.0351725,-1.13156,0.42158,2.51635,-0.181818,-0.597839,-0.277638
3623772,1,-1.57085,-0.52279,-0.000371487,-2.09597,-1.57081,1.57157,0.785846,-1.5708,-0.523599,-4.63595e-08,-2.0944,-1.5708,1.5708,0.785399,-0.000397959,0.000415064,-0.000591711,-0.000427768,-0.00011526,0.000182353,-0.000493073,0,0,0,0,0,0,0,-0.0259286,-10.2924,0.606448,21.0709,-0.741255,-0.604955,-0.232351,-0.03568,-1.13408,0.420965,2.51784,-0.181919,-0.597971,-0.277653
3623773,1,-1.57085,-0.522792,-0.000369697,-2.09596,-1.57081,1.57157,0.785842,-1.5708,-0.523599,-4.63595e-08,-2.0944,-1.5708,1.5708,0.785399,0.000291506,-0.000372905,0.00025514,0.00147806,-7.68398e-05,0.000121568,-0.00175287,0,0,0,0,0,0,0,-0.0497324,-10.2646,0.578677,20.9955,-0.741255,-0.604955,-0.193899,-0.0358269,-1.13687,0.420889,2.51944,-0.181992,-0.598049,-0.277721
3623774,1,-1.57085,-0.52279,-0.000373369,-2.09597,-1.57081,1.57157,0.785847,-1.5708,-0.523599,-4.63595e-08,-2.0944,-1.5708,1.5708,0.785399,0.000194337,0.000401011,-0.00103633,0.000428561,-5.12265e-05,8.10456e-05,0.00171364,0,0,0,0,0,0,0,-0.0497324,-10.2924,0.630252,21.0193,-0.741255,-0.604955,-0.271719,-0.0355863,-1.13765,0.421403,2.5194,-0.181967,-0.598054,-0.277819
3623775,1,-1.57085,-0.52279,-0.000371716,-2.09597,-1.57081,1.57157,0.785841,-1.5708,-0.523599,-4.63595e-08,-2.0944,-1.5708,1.5708,0.785399,0.000129558,0.000267341,-0.000134077,-0.00147753,0.000610109,-0.000658046,-0.000552997,0,0,0,0,0,0,0,-0.0497324,-10.2924,0.606448,21.0947,-0.75865,-0.585729,-0.225942,-0.0350202,-1.13844,0.422516,2.51932,-0.181919,-0.598008,-0.277911
3623776,1,-1.57085,-0.52279,-0.000371722,-2.09597,-1.57081,1.57157,0.785838,-1.5708,-0.523599,-4.63595e-08,-2.0944,-1.5708,1.5708,0.785399,8.63722e-05,0.000178227,-8.93844e-05,0.000778217,-0.000237521,0.000273379,-0.00108074,0,0,0,0,0,0,0,-0.0497324,-10.2924,0.606448,21.0193,-0.741255,-0.604955,-0.206716,-0.0344298,-1.14035,0.423769,2.52021,-0.181905,-0.597958,-0.278004
3623777,1,-1.57085,-0.522792,-0.000369775,-2.09597,-1.57081,1.57157,0.785847,-1.5708,-0.523599,-4.63595e-08,-2.0944,-1.5708,1.5708,0.785399,-0.00105604,-0.000530796,0.000590024,-3.80004e-05,0.000248554,0.000182253,0.00121229,0,0,0,0,0,0,0,-0.00212494,-10.2646,0.578677,21.0431,-0.752241,-0.604955,-0.258901,-0.0340775,-1.14141,0.424593,2.52062,-0.181885,-0.597928,-0.278096
3623778,1,-1.57085,-0.522789,-0.000371724,-2.09597,-1.57081,1.57157,0.785845,-1.5708,-0.523599,-4.63595e-08,-2.0944,-1.5708,1.5708,0.785399,0.00105921,0.000852562,-0.000256264,-0.000674948,0.000165703,-0.000115857,-0.000175154,0,0,0,0,0,0,0,-0.0775034,-10.3162,0.606448,21.0709,-0.752241,-0.598546,-0.232351,-0.0340085,-1.14187,0.424917,2.52069,-0.181871,-0.597934,-0.27817
3623779,1,-1.57085,-0.52279,-0.000371264,-2.09597,-1.57081,1.57157,0.785842,-1.5708,-0.523599,-4.63595e-08,-2.0944,-1.5708,1.5708,0.785399,-0.000500286,1.15627e-05,-0.000727655,0.000199649,-0.000703334,-0.000314597,-0.00130356,0,0,0,0,0,0,0,-0.0259286,-10.2924,0.630252,21.0431,-0.730269,-0.592137,-0.200308,-0.0340196,-1.14329,0.425238,2.52135,-0.18189,-0.597959,-0.278238
3623780,1,-1.57085,-0.522792,-0.000367395,-2.09597,-1.57081,1.57157,0.785845,-1.5708,-0.523599,-4.63595e-08,-2.0944,-1.5708,1.5708,0.785399,0.000223288,-0.000641905,0.00127813,0.000133099,-0.000265439,2.76276e-05,8.03932e-05,0,0,0,0,0,0,0,-0.0497324,-10.2646,0.554873,21.0431,-0.735762,-0.598546,-0.225942,-0.0340554,-1.1441,0.425551,2.52162,-0.181895,-0.597975,-0.278297
3623781,1,-1.57085,-0.522792,-0.000373158,-2.09596,-1.57081,1.57157,0.785846,-1.5708,-0.523599,-4.63595e-08,-2.0944,-1.5708,1.5708,0.785399,-0.000407953,-0.000427937,-0.000911148,0.000645545,0.000433392,0.000493136,0.00151166,0,0,0,0,0,0,0,-0.0259286,-10.2646,0.630252,21.0193,-0.752241,-0.611364,-0.26531,-0.0343347,-1.14269,0.42539,2.52059,-0.181849,-0.597998,-0.278327
3623782,1,-1.57085,-0.522792,-0.000371646,-2.09596,-1.57081,1.57157,0.785839,-1.5708,-0.523599,-4.63595e-08,-2.0944,-1.5708,1.5708,0.785399,0.000284843,-0.000285291,-5.06201e-05,-0.000126449,0.000288928,0.000328758,-0.00116237,0,0,0,0,0,0,0,-0.0497324,-10.2646,0.606448,21.0431,-0.752241,-0.611364,-0.206716,-0.0343921,-1.14007,0.425554,2.51885,-0.181757,-0.597974,-0.278337
3623783,1,-1.57085,-0.522792,-0.000369568,-2.09596,-1.57081,1.57157,0.785843,-1.5708,-0.523599,-4.63595e-08,-2.0944,-1.5708,1.5708,0.785399,-0.000923729,-0.000190194,-3.37467e-05,-8.42992e-05,0.000192619,-0.000255546,0.000683151,0,0,0,0,0,0,0,-0.00212494,-10.2646,0.606448,21.0431,-0.752241,-0.598546,-0.246084,-0.034097,-1.13773,0.426253,2.51734,-0.181664,-0.597912,-0.278347
3623784,1,-1.57085,-0.522789,-0.000371006,-2.09596,-1.57081,1.57157,0.785846,-1.5708,-0.523599,-4.63595e-08,-2.0944,-1.5708,1.5708,0.785399,-5.90071e-05,0.00107963,-2.24978e-05,0.00105742,0.000128413,-0.000170364,0.000455434,0,0,0,0,0,0,0,-0.0259286,-10.3162,0.606448,20.9955,-0.752241,-0.598546,-0.246084,-0.0336588,-1.13672,0.427113,2.51638,-0.181602,-0.597862,-0.278353
3623785,1,-1.57085,-0.522792,-0.000369536,-2.09597,-1.57081,1.57157,0.785845,-1.5708,-0.523599,-4.63595e-08,-2.0944,-1.5708,1.5708,0.785399,0.000517474,-0.000486673,0.000634615,-0.000408674,8.56084e-05,0.000123783,-0.000205004,0,0,0,0,0,0,0,-0.0497324,-10.2646,0.578677,21.0431,-0.752241,-0.604955,-0.232351,-0.033601,-1.13706,0.4274,2.51582,-0.181585,-0.597902,-0.278363
3623786,1,-1.57085,-0.522794,-0.000369514,-2.09596,-1.57081,1.57157,0.785844,-1.5708,-0.523599,-4.63595e-08,-2.0944,-1.5708,1.5708,0.785399,-0.000211829,-0.00088126,-0.000226537,0.000841174,5.70723e-05,-0.000154837,-0.000611387,0,0,0,0,0,0,0,-0.0259286,-10.2408,0.606448,20.9955,-0.752241,-0.598546,-0.219534,-0.0341491,-1.13666,0.426768,2.51492,-0.181595,-0.598032,-0.278397
3623787,1,-1.57085,-0.522794,-0.000370528,-2.09596,-1.57081,1.57157,0.785846,-1.5708,-0.523599,-4.63595e-08,-2.0944,-1.5708,1.5708,0.785399,0.000415592,-0.000587507,-0.000707837,0.000560783,3.80482e-05,-0.000815302,0.00128783,0,0,0,0,0,0,0,-0.0497324,-10.2408,0.630252,20.9955,-0.752241,-0.57932,-0.26531,-0.0344488,-1.13408,0.426472,2.51294,-0.18158,-0.598096,-0.278447
3623788,1,-1.57085,-0.522792,-0.000368638,-2.09597,-1.57081,1.57157,0.785846,-1.5708,-0.523599,-4.63595e-08,-2.0944,-1.5708,1.5708,0.785399,-0.000836562,0.000165141,8.49209e-05,-0.000739769,0.000262724,-6.88165e-05,0.000146476,0,0,0,0,0,0,0,-0.00212494,-10.2646,0.606448,21.0431,-0.75865,-0.592137,-0.246084,-0.0341313,-1.13134,0.427105,2.51095,-0.181573,-0.598047,-0.278505
3623789,1,-1.57085,-0.522792,-0.000368747,-2.09597,-1.57081,1.57157,0.785842,-1.5708,-0.523599,-4.63595e-08,-2.0944,-1.5708,1.5708,0.785399,-8.96259e-07,0.000110094,0.000706228,-0.000493179,-0.00046911,0.000191481,-0.00159777,0,0,0,0,0,0,0,-0.0259286,-10.2646,0.578677,21.0431,-0.741255,-0.598546,-0.200308,-0.0337996,-1.13085,0.427723,2.51048,-0.181646,-0.597998,-0.278584
3623790,1,-1.57085,-0.522792,-0.000371382,-2.09596,-1.57081,1.57157,0.785844,-1.5708,-0.523599,-4.63595e-08,-2.0944,-1.5708,1.5708,0.785399,-5.97506e-07,7.33958e-05,-0.000178795,0.000228026,9.41608e-05,0.000127654,0.000630241,0,0,0,0,0,0,0,-0.0259286,-10.2646,0.606448,21.0193,-0.752241,-0.598546,-0.246084,-0.0339191,-1.1321,0.42762,2.51106,-0.181785,-0.59802,-0.278677
3623791,1,-1.57085,-0.522792,-0.00037115,-2.09597,-1.57081,1.57157,0.785844,-1.5708,-0.523599,-4.63595e-08,-2.0944,-1.5708,1.5708,0.785399,-3.98337e-07,4.89306e-05,-0.000676009,0.000152017,-0.000344127,-0.000152256,-0.000325825,0,0,0,0,0,0,0,-0.0259286,-10.2646,0.630252,21.0193,-0.741255,-0.592137,-0.225942,-0.0339762,-1.13361,0.42763,2.51159,-0.181921,-0.598025,-0.278762
3623792,1,-1.57085,-0.522796,-0.000366897,-2.09597,-1.57081,1.57157,0.78584,-1.5708,-0.523599,-4.63595e-08,-2.0944,-1.5708,1.5708,0.785399,-0.000557078,-0.00117381,0.000755753,-0.00110508,0.000414842,-0.000101504,-0.000691934,0,0,0,0,0,0,0,-0.00212494,-10.213,0.578677,21.0709,-0.75865,-0.592137,-0.213125,-0.0336983,-1.13437,0.428091,2.51184,-0.182036,-0.59796,-0.278832
3623793,1,-1.57085,-0.522792,-0.000368816,-2.09597,-1.57081,1.57157,0.785844,-1.5708,-0.523599,-4.63595e-08,-2.0944,-1.5708,1.5708,0.785399,0.000742239,0.000423889,0.000503836,-8.71068e-05,-0.000367699,0.000407048,0.000996773,0,0,0,0,0,0,0,-0.0497324,-10.2646,0.578677,21.0431,-0.741255,-0.604955,-0.252493,-0.0338689,-1.1345,0.427771,2.51213,-0.182166,-0.597946,-0.278882
3623794,1,-1.57085,-0.52279,-0.000366115,-2.09596,-1.57081,1.57157,0.785844,-1.5708,-0.523599,-4.63595e-08,-2.0944,-1.5708,1.5708,0.785399,-6.1986e-05,0.000932207,0.00144951,-5.80712e-05,-0.000245132,-0.000203352,-8.14702e-05,0,0,0,0,0,0,0,-0.0259286,-10.2924,0.53107,21.0431,-0.741255,-0.592137,-0.232351,-0.0350953,-1.13583,0.425833,2.51294,-0.18234,-0.598107,-0.278903
3623795,1,-1.57085,-0.522794,-0.000369669,-2.09597,-1.57081,1.57157,0.785842,-1.5708,-0.523599,-4.63595e-08,-2.0944,-1.5708,1.5708,0.785399,0.000515488,-0.000584955,-0.000147281,-0.000688328,4.00289e-05,0.000101791,-0.00124111,0,0,0,0,0,0,0,-0.0497324,-10.2408,0.578677,21.0709,-0.746748,-0.598546,-0.200308,-0.0368782,-1.1384,0.423023,2.51419,-0.182531,-0.598369,-0.278915
3623796,1,-1.57085,-0.522794,-0.00036761,-2.09597,-1.57081,1.57157,0.785846,-1.5708,-0.523599,-4.63595e-08,-2.0944,-1.5708,1.5708,0.785399,0.000343659,-0.00038997,-9.81874e-05,0.000190729,2.66859e-05,6.78605e-05,0.000359389,0,0,0,0,0,0,0,-0.0497324,-10.2408,0.578677,21.0431,-0.746748,-0.598546,-0.232351,-0.0382412,-1.13984,0.420807,2.51499,-0.18267,-0.598547,-0.278918
3623797,1,-1.57085,-0.522792,-0.000366923,-2.09597,-1.57081,1.57157,0.785845,-1.5708,-0.523599,-4.63595e-08,-2.0944,-1.5708,1.5708,0.785399,-0.000327706,0.000296832,-6.54582e-05,0.000683964,0.000221241,4.52404e-05,0.000985578,0,0,0,0,0,0,0,-0.0259286,-10.2646,0.578677,21.0193,-0.752241,-0.598546,-0.252493,-0.0387781,-1.13967,0.419797,2.51482,-0.18273,-0.598577,-0.278896
3623798,1,-1.57085,-0.52279,-0.000368643,-2.09597,-1.57081,1.57157,0.785838,-1.5708,-0.523599,-4.63595e-08,-2.0944,-1.5708,1.5708,0.785399,-0.000218471,0.000847502,-0.000693253,-0.00075045,0.000147494,-0.000207199,-0.00127573,0,0,0,0,0,0,0,-0.0259286,-10.2924,0.606448,21.0709,-0.752241,-0.592137,-0.200308,-0.0383859,-1.14003,0.42014,2.51466,-0.182752,-0.598475,-0.278852
3623799,1,-1.57085,-0.52279,-0.000368749,-2.09597,-1.57081,1.57157,0.785843,-1.5708,-0.523599,-4.63595e-08,-2.0944,-1.5708,1.5708,0.785399,0.000411165,0.000565001,0.000187445,-0.00105711,9.83294e-05,0.000336585,0.00108229,0,0,0,0,0,0,0,-0.0497324,-10.2924,0.578677,21.0947,-0.752241,-0.604955,-0.252493,-0.0374723,-1.14265,0.421315,2.5159,-0.182808,-0.598315,-0.278795
3623800,1,-1.57085,-0.522794,-0.000371382,-2.09596,-1.57081,1.57157,0.785845,-1.5708,-0.523599,-4.63595e-08,-2.0944,-1.5708,1.5708,0.785399,-0.000282702,-0.000829758,-0.00052465,0.000501685,-0.000341348,-1.29687e-05,0.00119625,0,0,0,0,0,0,0,-0.0259286,-10.2408,0.606448,21.0431,-0.741255,-0.598546,-0.26531,-0.0365964,-1.14542,0.422471,2.51753,-0.182884,-0.598164,-0.278728
3623801,1,-1.57085,-0.522792,-0.00037161,-2.09597,-1.57081,1.57157,0.785836,-1.5708,-0.523599,-4.63595e-08,-2.0944,-1.5708,1.5708,0.785399,-0.00074528,3.63971e-06,-0.000349767,-0.000315157,-2.41149e-05,-8.64578e-06,-0.00208472,0,0,0,0,0,0,0,-0.00212494,-10.2646,0.606448,21.0709,-0.746748,-0.598546,-0.18749,-0.0353829,-1.14575,0.424033,2.51792,-0.182905,-0.597941,-0.278686
3623802,1,-1.57085,-0.522794,-0.000369738,-2.09596,-1.57081,1.57157,0.785845,-1.5708,-0.523599,-4.63595e-08,-2.0944,-1.5708,1.5708,0.785399,0.000616771,-0.000554385,0.000416436,0.000439509,0.000187374,0.000231595,0.00050906,0,0,0,0,0,0,0,-0.0497324,-10.2408,0.578677,21.0431,-0.752241,-0.604955,-0.23876,-0.0341015,-1.14425,0.425601,2.51729,-0.182878,-0.597698,-0.278677
3623803,1,-1.57085,-0.52279,-0.000371712,-2.09597,-1.57081,1.57157,0.785846,-1.5708,-0.523599,-4.63595e-08,-2.0944,-1.5708,1.5708,0.785399,-0.000145632,0.000836836,-0.00037199,-0.000356608,-0.000281985,0.000629115,0.00132272,0,0,0,0,0,0,0,-0.0259286,-10.2924,0.606448,21.0709,-0.741255,-0.617772,-0.26531,-0.0334944,-1.14271,0.426196,2.51656,-0.18286,-0.597576,-0.278667
3623804,1,-1.57085,-0.522792,-0.00037172,-2.09597,-1.57081,1.57157,0.785843,-1.5708,-0.523599,-4.63595e-08,-2.0944,-1.5708,1.5708,0.785399,-9.70877e-05,-9.17236e-05,-0.000247993,0.000411875,1.54605e-05,-0.000292667,-0.000813609,0,0,0,0,0,0,0,-0.0259286,-10.2646,0.606448,21.0431,-0.746748,-0.598546,-0.219534,-0.0331004,-1.14222,0.426552,2.51627,-0.182858,-0.597526,-0.278656
3623805,1,-1.57085,-0.52279,-0.000371723,-2.09596,-1.57081,1.57157,0.785843,-1.5708,-0.523599,-4.63595e-08,-2.0944,-1.5708,1.5708,0.785399,-6.47251e-05,0.000588465,-0.000165329,0.000274584,0.000451116,0.000279606,-0.000779765,0,0,0,0,0,0,0,-0.0259286,-10.2924,0.606448,21.0431,-0.75865,-0.611364,-0.213125,-0.0325525,-1.1423,0.427171,2.51614,-0.18285,-0.597486,-0.27867
3623806,1,-1.57085,-0.522792,-0.000371724,-2.09597,-1.57081,1.57157,0.785848,-1.5708,-0.523599,-4.63595e-08,-2.0944,-1.5708,1.5708,0.785399,0.000513662,-0.000257304,-0.000110219,-0.000466558,-0.000140065,-0.000288314,0.00188765,0,0,0,0,0,0,0,-0.0497324,-10.2646,0.606448,21.0709,-0.746748,-0.598546,-0.278127,-0.0321891,-1.14248,0.427565,2.51606,-0.182848,-0.597499,-0.278693
3623807,1,-1.57085,-0.522794,-0.000369775,-2.09597,-1.57081,1.57157,0.785838,-1.5708,-0.523599,-4.63595e-08,-2.0944,-1.5708,1.5708,0.785399,-0.000214371,-0.000728348,0.000576134,0.000338575,-0.000296827,-0.000192209,-0.00162378,0,0,0,0,0,0,0,-0.0259286,-10.2408,0.578677,21.0431,-0.741255,-0.598546,-0.200308,-0.0322655,-1.14183,0.427326,2.51579,-0.182861,-0.597583,-0.278719
3623808,1,-1.57085,-0.522794,-0.000369594,-2.09597,-1.57081,1.57157,0.785843,-1.5708,-0.523599,-4.63595e-08,-2.0944,-1.5708,1.5708,0.785399,-0.000142914,-0.000485565,-0.000265524,0.000225717,0.000209016,-0.000365498,0.000612901,0,0,0,0,0,0,0,-0.0259286,-10.2408,0.606448,21.0431,-0.752241,-0.592137,-0.246084,-0.0325236,-1.13934,0.426738,2.51469,-0.182855,-0.597678,-0.278766
3623809,1,-1.57085,-0.522792,-0.000369065,-2.09596,-1.57081,1.57157,0.785845,-1.5708,-0.523599,-4.63595e-08,-2.0944,-1.5708,1.5708,0.785399,-9.52759e-05,0.000233102,0.000472598,0.00070729,-6.41064e-05,-6.30659e-06,0.00135804,0,0,0,0,0,0,0,-0.0259286,-10.2646,0.578677,21.0193,-0.746748,-0.598546,-0.271719,-0.0326816,-1.13619,0.426247,2.51311,-0.182826,-0.597747,-0.27882
3623810,1,-1.57085,-0.52279,-0.000371488,-2.09597,-1.57081,1.57157,0.785844,-1.5708,-0.523599,-4.63595e-08,-2.0944,-1.5708,1.5708,0.785399,-0.000620329,0.000805015,-0.000334549,-0.00129171,-0.000449639,-0.000241563,0.00043064,0,0,0,0,0,0,0,-0.00212494,-10.2924,0.606448,21.0947,-0.735762,-0.592137,-0.258901,-0.0326729,-1.13491,0.426019,2.51246,-0.182828,-0.597805,-0.278884
3623811,1,-1.57085,-0.52279,-0.000368026,-2.09597,-1.57081,1.57157,0.78584,-1.5708,-0.523599,-4.63595e-08,-2.0944,-1.5708,1.5708,0.785399,0.000700071,0.000536677,0.000983393,-0.000304329,0.000107142,-0.000161042,-0.00093361,0,0,0,0,0,0,0,-0.0497324,-10.2924,0.554873,21.0709,-0.746748,-0.592137,-0.225942,-0.0327696,-1.13677,0.42568,2.51372,-0.182897,-0.597898,-0.278991
3623812,1,-1.57085,-0.522794,-0.000371698,-2.09597,-1.57081,1.57157,0.785845,-1.5708,-0.523599,-4.63595e-08,-2.0944,-1.5708,1.5708,0.785399,-9.00979e-05,-0.000848641,-0.00055083,0.00100354,7.1428e-05,0.000367356,-0.000147689,0,0,0,0,0,0,0,-0.0259286,-10.2408,0.606448,21.0193,-0.746748,-0.604955,-0.23876,-0.0332765,-1.13885,0.424751,2.51513,-0.182966,-0.598037,-0.279155
3623813,1,-1.57085,-0.522789,-0.000369585,-2.09596,-1.57081,1.57157,0.785842,-1.5708,-0.523599,-4.63595e-08,-2.0944,-1.5708,1.5708,0.785399,0.000496747,0.00119748,-0.00036722,0.00122584,-0.000155832,-0.000229814,-0.000335818,0,0,0,0,0,0,0,-0.0497324,-10.3162,0.606448,20.9955,-0.741255,-0.592137,-0.232351,-0.0336048,-1.13896,0.42411,2.51496,-0.182948,-0.598112,-0.279355
3623814,1,-1.57085,-0.522792,-0.000369063,-2.09596,-1.57081,1.57157,0.785843,-1.5708,-0.523599,-4.63595e-08,-2.0944,-1.5708,1.5708,0.785399,-0.000782459,-0.000408108,0.0004048,-0.000296398,-0.000307338,0.000558868,0.000284748,0,0,0,0,0,0,0,-0.00212494,-10.2646,0.578677,21.0431,-0.735762,-0.611364,-0.246084,-0.0335193,-1.13871,0.424101,2.51417,-0.182882,-0.598114,-0.27956
3623815,1,-1.57085,-0.52279,-0.000371487,-2.09596,-1.57081,1.57157,0.785842,-1.5708,-0.523599,-4.63595e-08,-2.0944,-1.5708,1.5708,0.785399,0.000591984,0.000377542,-0.000379747,-0.000197599,-1.44177e-06,-0.000339498,-0.00103087,0,0,0,0,0,0,0,-0.0497324,-10.2924,0.606448,21.0431,-0.741255,-0.592137,-0.213125,-0.0333395,-1.13889,0.424202,2.51381,-0.182819,-0.5981,-0.279758
3623816,1,-1.57085,-0.522798,-0.000367566,-2.09597,-1.57081,1.57157,0.785841,-1.5708,-0.523599,-4.63595e-08,-2.0944,-1.5708,1.5708,0.785399,0.00104427,-0.00216116,0.000396449,-0.00133816,0.00040594,1.10267e-05,-0.00021253,0,0,0,0,0,0,0,-0.0775034,-10.1892,0.578677,21.0947,-0.752241,-0.598546,-0.225942,-0.033496,-1.13821,0.423853,2.51371,-0.182765,-0.598113,-0.27994
3623817,1,-1.57085,-0.522792,-0.000370988,-2.09597,-1.57081,1.57157,0.785848,-1.5708,-0.523599,-4.63595e-08,-2.0944,-1.5708,1.5708,0.785399,4.65661e-05,0.000322466,-0.000385314,0.000871132,6.71761e-05,-0.000230008,0.00131638,0,0,0,0,0,0,0,-0.0497324,-10.2646,0.606448,21.0193,-0.746748,-0.592137,-0.26531,-0.0341001,-1.13573,0.422936,2.5132,-0.182703,-0.598155,-0.280092
3623818,1,-1.57085,-0.522789,-0.00036953,-2.09596,-1.57081,1.57157,0.785843,-1.5708,-0.523599,-4.63595e-08,-2.0944,-1.5708,1.5708,0.785399,-0.000525768,0.0014214,0.000392738,0.000580755,-0.000158666,0.000321379,-0.00129256,0,0,0,0,0,0,0,-0.0259286,-10.3162,0.578677,21.0193,-0.741255,-0.604955,-0.206716,-0.0345217,-1.13405,0.422347,2.51264,-0.182629,-0.598171,-0.280212
3623819,1,-1.57085,-0.52279,-0.000373313,-2.09597,-1.57081,1.57157,0.785847,-1.5708,-0.523599,-4.63595e-08,-2.0944,-1.5708,1.5708,0.785399,-0.000350512,0.00039079,-0.000944601,-0.00137607,9.76729e-05,-0.000497824,0.000596359,0,0,0,0,0,0,0,-0.0259286,-10.2924,0.630252,21.0947,-0.746748,-0.585729,-0.246084,-0.0342816,-1.13573,0.422796,2.51336,-0.182581,-0.598121,-0.280308
3623820,1,-1.57085,-0.522794,-0.000369748,-2.09597,-1.57081,1.57157,0.785848,-1.5708,-0.523599,-4.63595e-08,-2.0944,-1.5708,1.5708,0.785399,-0.000233675,-0.000945899,0.000576692,0.000845859,-0.000341786,-0.000331883,0.000634931,0,0,0,0,0,0,0,-0.0259286,-10.2408,0.578677,21.0193,-0.735762,-0.585729,-0.252493,-0.0335076,-1.13809,0.424036,2.51464,-0.182544,-0.597985,-0.280382
3623821,1,-1.57086,-0.522794,-0.000369585,-2.09596,-1.57081,1.57157,0.785844,-1.5708,-0.523599,-4.63595e-08,-2.0944,-1.5708,1.5708,0.785399,-0.000155783,-0.000630599,-0.000265153,0.00112072,0.000179044,-0.000221255,-0.000797416,0,0,0,0,0,0,0,-0.0259286,-10.2408,0.606448,20.9955,-0.746748,-0.585729,-0.219534,-0.032771,-1.13724,0.425106,2.51413,-0.182441,-0.597799,-0.280456
3623822,1,-1.57085,-0.522792,-0.000371011,-2.09596,-1.57081,1.57157,0.785848,-1.5708,-0.523599,-4.63595e-08,-2.0944,-1.5708,1.5708,0.785399,-0.000660667,0.000136412,-0.000176768,0.000190333,0.000322813,8.98556e-05,0.000689093,0,0,0,0,0,0,0,-0.00212494,-10.2646,0.606448,21.0193,-0.752241,-0.592137,-0.252493,-0.0320456,-1.13413,0.426063,2.51205,-0.182276,-0.597569,-0.280544
3623823,1,-1.57085,-0.522792,-0.000371027,-2.09596,-1.57081,1.57157,0.785844,-1.5708,-0.523599,-4.63595e-08,-2.0944,-1.5708,1.5708,0.785399,-0.000440445,9.09416e-05,-0.000674658,-0.000429923,1.17582e-05,0.000534622,-0.000761308,0,0,0,0,0,0,0,-0.00212494,-10.2646,0.630252,21.0431,-0.746748,-0.604955,-0.219534,-0.0309425,-1.13205,0.427579,2.51055,-0.182125,-0.597277,-0.280629
3623824,1,-1.57085,-0.522792,-0.000367316,-2.09597,-1.57081,1.57157,0.785845,-1.5708,-0.523599,-4.63595e-08,-2.0944,-1.5708,1.5708,0.785399,0.000819994,6.06277e-05,0.00131347,-0.000936229,0.000652099,-0.000118303,-0.00027018,0,0,0,0,0,0,0,-0.0497324,-10.2646,0.554873,21.0709,-0.764143,-0.592137,-0.225942,-0.0302794,-1.13204,0.428489,2.51053,-0.182057,-0.59707,-0.280705
3623825,1,-1.57085,-0.522792,-0.000369331,-2.09597,-1.57081,1.57157,0.785845,-1.5708,-0.523599,-4.63595e-08,-2.0944,-1.5708,1.5708,0.785399,-0.000566961,4.04185e-05,-0.000330782,2.54611e-05,-6.07694e-06,0.00015849,0.000803224,0,0,0,0,0,0,0,-0.00212494,-10.2646,0.606448,21.0431,-0.752241,-0.598546,-0.252493,-0.0306796,-1.13331,0.427831,2.51151,-0.182082,-0.59704,-0.280762
3623826,1,-1.57085,-0.52279,-0.000370927,-2.09597,-1.57081,1.57157,0.785844,-1.5708,-0.523599,-4.63595e-08,-2.0944,-1.5708,1.5708,0.785399,0.00073565,0.00067656,-0.000220521,1.69741e-05,-4.05129e-06,0.000343019,-0.000447861,0,0,0,0,0,0,0,-0.0497324,-10.2924,0.606448,21.0431,-0.752241,-0.604955,-0.225942,-0.0312508,-1.13514,0.426934,2.51269,-0.182149,-0.597055,-0.280801
3623827,1,-1.57085,-0.522794,-0.000367839,-2.09596,-1.57081,1.57157,0.785841,-1.5708,-0.523599,-4.63595e-08,-2.0944,-1.5708,1.5708,0.785399,0.000490433,-0.000755386,0.00105941,0.000568128,-0.000409602,-0.000246039,-0.000535933,0,0,0,0,0,0,0,-0.0497324,-10.2408,0.554873,21.0193,-0.741255,-0.592137,-0.219534,-0.0320368,-1.13655,0.425758,2.51334,-0.182224,-0.597115,-0.280837
3623828,1,-1.57085,-0.522789,-0.000368017,-2.09597,-1.57081,1.57157,0.785847,-1.5708,-0.523599,-4.63595e-08,-2.0944,-1.5708,1.5708,0.785399,-0.000786668,0.00125965,0.000706275,-0.000827674,-0.000273068,0.000310692,0.000863414,0,0,0,0,0,0,0,-0.00212494,-10.3162,0.554873,21.0709,-0.741255,-0.604955,-0.252493,-0.0334128,-1.13754,0.423616,2.51364,-0.182322,-0.597275,-0.280863
3623829,1,-1.57085,-0.52279,-0.000373365,-2.09596,-1.57081,1.57157,0.785845,-1.5708,-0.523599,-4.63595e-08,-2.0944,-1.5708,1.5708,0.785399,0.000589178,0.000282953,-0.00129239,9.78313e-05,2.14052e-05,-0.000742308,-0.000170376,0,0,0,0,0,0,0,-0.0497324,-10.2924,0.630252,21.0431,-0.746748,-0.57932,-0.232351,-0.0343083,-1.13986,0.422129,2.51468,-0.182437,-0.597388,-0.280867
3623830,1,-1.57085,-0.522792,-0.000369766,-2.09597,-1.57081,1.57157,0.785841,-1.5708,-0.523599,-4.63595e-08,-2.0944,-1.5708,1.5708,0.785399,0.000392786,-0.000460979,0.000344834,-0.000584393,0.000217721,0.000454564,-0.00153774,0,0,0,0,0,0,0,-0.0497324,-10.2646,0.578677,21.0709,-0.752241,-0.604955,-0.193899,-0.0343824,-1.14236,0.421952,2.51594,-0.182528,-0.597374,-0.28087
3623831,1,-1.57085,-0.52279,-0.000369591,-2.09596,-1.57081,1.57157,0.785849,-1.5708,-0.523599,-4.63595e-08,-2.0944,-1.5708,1.5708,0.785399,-0.000294955,0.000342295,-0.000419725,0.00193045,-5.83034e-05,6.56837e-05,0.00138234,0,0,0,0,0,0,0,-0.0259286,-10.2924,0.606448,20.9717,-0.746748,-0.598546,-0.258901,-0.0342221,-1.14292,0.422145,2.51603,-0.182559,-0.597298,-0.280867
3623832,1,-1.57085,-0.52279,-0.000372684,-2.09596,-1.57081,1.57157,0.785849,-1.5708,-0.523599,-4.63595e-08,-2.0944,-1.5708,1.5708,0.785399,-0.000753449,0.000228197,-0.000836628,0.000173346,-3.88689e-05,4.37891e-05,0.00115892,0,0,0,0,0,0,0,-0.00212494,-10.2924,0.630252,21.0193,-0.746748,-0.598546,-0.26531,-0.0334284,-1.14208,0.423217,2.5148,-0.182519,-0.597119,-0.28084
3623833,1,-1.57085,-0.522792,-0.000369539,-2.09597,-1.57081,1.57157,0.785838,-1.5708,-0.523599,-4.63595e-08,-2.0944,-1.5708,1.5708,0.785399,0.00126094,-0.000497483,0.000648674,-0.00109086,-2.59126e-05,0.000266552,-0.00187224,0,0,0,0,0,0,0,-0.0775034,-10.2646,0.578677,21.0709,-0.746748,-0.604955,-0.193899,-0.0323886,-1.14116,0.424673,2.51358,-0.182474,-0.596909,-0.280817
3623834,1,-1.57085,-0.522794,-0.000369697,-2.09596,-1.57081,1.57157,0.785844,-1.5708,-0.523599,-4.63595e-08,-2.0944,-1.5708,1.5708,0.785399,0.000191012,-0.000888467,0.000432449,0.000479185,-0.000220726,-5.96578e-05,0.000921976,0,0,0,0,0,0,0,-0.0497324,-10.2408,0.578677,21.0193,-0.741255,-0.598546,-0.252493,-0.0324823,-1.13973,0.424519,2.5127,-0.182476,-0.596868,-0.280814
3623835,1,-1.57085,-0.522792,-0.000369568,-2.09597,-1.57081,1.57157,0.785846,-1.5708,-0.523599,-4.63595e-08,-2.0944,-1.5708,1.5708,0.785399,0.000127341,-3.54995e-05,-0.000361315,-0.00144378,-0.000350601,-3.97719e-05,0.000377292,0,0,0,0,0,0,0,-0.0497324,-10.2646,0.606448,21.0947,-0.735762,-0.598546,-0.246084,-0.033229,-1.13761,0.423442,2.51185,-0.182495,-0.596922,-0.280812
3623836,1,-1.57085,-0.522794,-0.000369057,-2.09597,-1.57081,1.57157,0.785838,-1.5708,-0.523599,-4.63595e-08,-2.0944,-1.5708,1.5708,0.785399,0.000734508,-0.000580478,0.000408738,-0.000405709,0.000376618,-2.65146e-05,-0.00168125,0,0,0,0,0,0,0,-0.0775034,-10.2408,0.578677,21.0709,-0.752241,-0.598546,-0.193899,-0.0339034,-1.13621,0.422573,2.51176,-0.182526,-0.596972,-0.28081
3623837,1,-1.57085,-0.522789,-0.000371025,-2.09597,-1.57081,1.57157,0.785841,-1.5708,-0.523599,-4.63595e-08,-2.0944,-1.5708,1.5708,0.785399,0.000489672,0.00137625,-0.000933934,-0.000827285,0.000251078,-0.000255035,0.000303319,0,0,0,0,0,0,0,-0.0775034,-10.3162,0.630252,21.0947,-0.752241,-0.592137,-0.232351,-0.0345916,-1.13669,0.4219,2.51281,-0.182578,-0.597037,-0.280804
3623838,1,-1.57085,-0.522792,-0.000370934,-2.09597,-1.57081,1.57157,0.785848,-1.5708,-0.523599,-4.63595e-08,-2.0944,-1.5708,1.5708,0.785399,-0.000323166,-0.000288924,-6.58108e-05,0.000654903,-3.60649e-05,0.000304694,0.00142292,0,0,0,0,0,0,0,-0.0497324,-10.2646,0.606448,21.0431,-0.746748,-0.604955,-0.26531,-0.034873,-1.13889,0.422051,2.51446,-0.182627,-0.597054,-0.280768
3623839,1,-1.57085,-0.522792,-0.000367842,-2.09597,-1.57081,1.57157,0.785838,-1.5708,-0.523599,-4.63595e-08,-2.0944,-1.5708,1.5708,0.785399,-0.00132907,-0.000192616,0.00116255,0.000436602,-2.40433e-05,-3.42294e-05,-0.00169625,0,0,0,0,0,0,0,-0.00212494,-10.2646,0.554873,21.0431,-0.746748,-0.598546,-0.193899,-0.0347597,-1.14015,0.422709,2.51515,-0.182626,-0.597004,-0.280719
3623840,1,-1.57085,-0.522792,-0.000369506,-2.09597,-1.57081,1.57157,0.785841,-1.5708,-0.523599,-4.63595e-08,-2.0944,-1.5708,1.5708,0.785399,0.000227579,-0.000128411,-0.000431391,-0.000358546,0.000187422,-2.28196e-05,-0.000893472,0,0,0,0,0,0,0,-0.0497324,-10.2646,0.606448,21.0709,-0.752241,-0.598546,-0.200308,-0.0346232,-1.13966,0.423181,2.51473,-0.182587,-0.596936,-0.280674
3623841,1,-1.57085,-0.52279,-0.000369036,-2.09596,-1.57081,1.57157,0.785851,-1.5708,-0.523599,-4.63595e-08,-2.0944,-1.5708,1.5708,0.785399,-0.000405093,0.000564007,0.00036202,0.000410583,-0.000485404,-0.000489931,0.00228657,0,0,0,0,0,0,0,-0.0259286,-10.2924,0.578677,21.0431,-0.735762,-0.585729,-0.278127,-0.034469,-1.13926,0.423655,2.51438,-0.182555,-0.59687,-0.280597
3623842,1,-1.57085,-0.522794,-0.000371478,-2.09596,-1.57081,1.57157,0.785841,-1.5708,-0.523599,-4.63595e-08,-2.0944,-1.5708,1.5708,0.785399,-0.000826874,-0.000830421,-0.000408267,0.000830534,8.32985e-05,0.000148097,-0.0015952,0,0,0,0,0,0,0,-0.00212494,-10.2408,0.606448,21.0193,-0.746748,-0.598546,-0.193899,-0.0340523,-1.13859,0.424482,2.51374,-0.182505,-0.596764,-0.280485
3623843,1,-1.57085,-0.522796,-0.000369693,-2.09597,-1.57081,1.57157,0.785843,-1.5708,-0.523599,-4.63595e-08,-2.0944,-1.5708,1.5708,0.785399,-0.000551249,-0.00120323,0.000377436,-0.00176636,-0.000147918,9.87315e-05,0.000598048,0,0,0,0,0,0,0,-0.00212494,-10.213,0.578677,21.1185,-0.741255,-0.598546,-0.23876,-0.0332404,-1.13629,0.425722,2.51251,-0.18242,-0.596577,-0.28037
3623844,1,-1.57085,-0.522792,-0.000371697,-2.09597,-1.57081,1.57157,0.785842,-1.5708,-0.523599,-4.63595e-08,-2.0944,-1.5708,1.5708,0.785399,0.00139574,0.000404274,-0.00039799,0.000585664,0.000308289,0.00030318,0.000398699,0,0,0,0,0,0,0,-0.0775034,-10.2646,0.606448,21.0431,-0.752241,-0.604955,-0.23876,-0.0327343,-1.13365,0.426477,2.51171,-0.182355,-0.596431,-0.280247
3623845,1,-1.57085,-0.522794,-0.000368096,-2.09597,-1.57081,1.57157,0.785844,-1.5708,-0.523599,-4.63595e-08,-2.0944,-1.5708,1.5708,0.785399,-0.000275934,-0.000287296,0.000941099,-0.000259171,-0.000201375,-3.5239e-05,-0.000208919,0,0,0,0,0,0,0,-0.0259286,-10.2408,0.554873,21.0709,-0.741255,-0.598546,-0.225942,-0.0331685,-1.13218,0.425948,2.51154,-0.182331,-0.596452,-0.280118
3623846,1,-1.57085,-0.52279,-0.000373392,-2.09597,-1.57081,1.57157,0.785841,-1.5708,-0.523599,-4.63595e-08,-2.0944,-1.5708,1.5708,0.785399,0.00157928,0.0010149,-0.00113584,-0.000172781,0.000272651,-0.000260852,-0.000376638,0,0,0,0,0,0,0,-0.101307,-10.2924,0.630252,21.0709,-0.752241,-0.592137,-0.219534,-0.0341589,-1.13235,0.424718,2.512,-0.182339,-0.596584,-0.279995
3623847,1,-1.57085,-0.522794,-0.000371723,-2.09597,-1.57081,1.57157,0.785845,-1.5708,-0.523599,-4.63595e-08,-2.0944,-1.5708,1.5708,0.785399,-0.000710383,-0.000529829,-0.000200414,-0.000115187,-2.16832e-05,6.34579e-05,0.00144433,0,0,0,0,0,0,0,-0.0259286,-10.2408,0.606448,21.0709,-0.746748,-0.598546,-0.26531,-0.0348354,-1.13387,0.42412,2.51314,-0.182359,-0.596681,-0.279873
3623848,1,-1.57085,-0.522794,-0.000369775,-2.09596,-1.57081,1.57157,0.785843,-1.5708,-0.523599,-4.63595e-08,-2.0944,-1.5708,1.5708,0.785399,-0.0010304,-0.000353219,0.000516005,0.000572823,-1.44555e-05,-0.000432413,0.000488168,0,0,0,0,0,0,0,-0.00212494,-10.2408,0.578677,21.0431,-0.746748,-0.585729,-0.252493,-0.0347627,-1.13447,0.424542,2.51378,-0.182347,-0.596649,-0.279765
3623849,1,-1.57085,-0.522792,-0.000369594,-2.09597,-1.57081,1.57157,0.78584,-1.5708,-0.523599,-4.63595e-08,-2.0944,-1.5708,1.5708,0.785399,0.00042669,0.000321332,-0.000305611,-0.000267732,-0.000213087,0.000186443,-0.00184469,-4.7184e-16,-2.66454e-15,-8.3267e-16,-1.44329e-15,-3.55271e-15,-4.996e-16,-1.9984e-15,-0.0497324,-10.2646,0.606448,21.0709,-0.741255,-0.598546,-0.193899,-0.0343724,-1.1339,0.425225,2.51375,-0.182307,-0.596551,-0.279701
3623850,1,-1.57085,-0.522792,-0.000371014,-2.09596,-1.57081,1.57157,0.785845,-1.5708,-0.523599,-4.63595e-08,-2.0944,-1.5708,1.5708,0.785399,-0.000829164,0.000214222,-0.00020374,0.00102794,0.000264843,0.000599013,0.000194358,-1.15e-18,-2.9595e-16,9.903e-17,2.9596e-16,-2.0002e-16,-1.17e-18,2.9597e-16,-0.00212494,-10.2646,0.606448,21.0193,-0.752241,-0.611364,-0.232351,-0.0339418,-1.13371,0.425949,2.51374,-0.182263,-0.596449,-0.279677
3623851,1,-1.57085,-0.522792,-0.000369539,-2.09597,-1.57081,1.57157,0.785842,-1.5708,-0.523599,-4.63595e-08,-2.0944,-1.5708,1.5708,0.785399,4.03606e-06,0.000142814,0.000513787,0.000685292,0.000413921,-7.53758e-05,-0.000107787,-1.15e-18,-2.9595e-16,9.903e-17,2.9596e-16,-2.0002e-16,-1.17e-18,2.9597e-16,-0.0259286,-10.2646,0.578677,21.0193,-0.75865,-0.598546,-0.225942,-0.0335159,-1.13358,0.426619,2.51342,-0.182206,-0.596361,-0.279654
3623852,1,-1.57085,-0.522792,-0.000367566,-2.09596,-1.57081,1.57157,0.785839,-1.5708,-0.523599,-4.63595e-08,-2.0944,-1.5708,1.5708,0.785399,0.000559503,9.52096e-05,0.000342525,0.000456861,0.000275947,-5.02506e-05,-0.000783935,-1.15e-18,-2.9595e-16,9.903e-17,2.9596e-16,-2.0002e-16,-1.17e-18,2.9597e-16,-0.0497324,-10.2646,0.578677,21.0193,-0.75865,-0.598546,-0.206716,-0.0336694,-1.13315,0.426359,2.51269,-0.182167,-0.596375,-0.279614
3623853,1,-1.57086,-0.522792,-0.000370988,-2.09597,-1.57081,1.57157,0.785848,-1.5708,-0.523599,-4.63595e-08,-2.0944,-1.5708,1.5708,0.785399,-0.000740622,6.34731e-05,-0.000421264,-0.000901852,-0.000460295,-0.000508218,0.00164752,-1.15e-18,-2.9595e-16,9.903e-17,2.9596e-16,-2.0002e-16,-1.17e-18,2.9597e-16,-0.00212494,-10.2646,0.606448,21.0709,-0.741255,-0.585729,-0.26531,-0.0341183,-1.13311,0.425652,2.51241,-0.182183,-0.596447,-0.279548
3623854,1,-1.57085,-0.522794,-0.00036953,-2.09596,-1.57081,1.57157,0.785846,-1.5708,-0.523599,-4.63595e-08,-2.0944,-1.5708,1.5708,0.785399,6.30639e-05,-0.000514497,0.000368771,4.83794e-05,-0.000103413,0.000135906,0.000115,-1.15e-18,-2.9595e-16,9.903e-17,2.9596e-16,-2.0002e-16,-1.17e-18,2.9597e-16,-0.0259286,-10.2408,0.578677,21.0431,-0.746748,-0.598546,-0.23876,-0.0341392,-1.13339,0.425519,2.51279,-0.182242,-0.596458,-0.279459
3623855,1,-1.57085,-0.522792,-0.000368023,-2.09596,-1.57081,1.57157,0.785842,-1.5708,-0.523599,-4.63595e-08,-2.0944,-1.5708,1.5708,0.785399,0.000598855,0.000213814,0.000802659,3.2253e-05,-6.8942e-05,0.000565322,-0.00134749,-1.15e-18,-2.9595e-16,9.903e-17,2.9596e-16,-2.0002e-16,-1.17e-18,2.9597e-16,-0.0497324,-10.2646,0.554873,21.0431,-0.746748,-0.611364,-0.200308,-0.0344732,-1.13331,0.424848,2.5132,-0.182323,-0.596512,-0.279384
3623856,1,-1.57085,-0.522794,-0.000369748,-2.09597,-1.57081,1.57157,0.785841,-1.5708,-0.523599,-4.63595e-08,-2.0944,-1.5708,1.5708,0.785399,-0.000157576,-0.000414269,-2.17057e-05,-0.00118492,-0.000249412,-9.78368e-05,-0.000186248,-1.15e-18,-2.9595e-16,9.903e-17,2.9596e-16,-2.0002e-16,-1.17e-18,2.9597e-16,-0.0259286,-10.2408,0.578677,21.0947,-0.741255,-0.598546,-0.219534,-0.0354588,-1.13334,0.42318,2.51379,-0.182426,-0.596672,-0.279325
3623857,1,-1.57086,-0.522792,-0.000369767,-2.09597,-1.57081,1.57157,0.785849,-1.5708,-0.523599,-4.63595e-08,-2.0944,-1.5708,1.5708,0.785399,-0.00131148,0.000280633,-1.44705e-05,0.000416477,3.7176e-05,-6.52245e-05,0.00180861,-1.15e-18,-2.9595e-16,9.903e-17,2.9596e-16,-2.0002e-16,-1.17e-18,2.9597e-16,0.0256461,-10.2646,0.578677,21.0431,-0.746748,-0.598546,-0.271719,-0.0358901,-1.13376,0.422221,2.51479,-0.182525,-0.596764,-0.279248
3623858,1,-1.57085,-0.52279,-0.000367642,-2.09596,-1.57081,1.57157,0.785844,-1.5708,-0.523599,-4.63595e-08,-2.0944,-1.5708,1.5708,0.785399,0.000332108,0.000836702,-9.64697e-06,0.00139127,-0.000178667,-4.3483e-05,-0.000727037,-1.15e-18,-2.9595e-16,9.903e-17,2.9596e-16,-2.0002e-16,-1.17e-18,2.9597e-16,-0.0259286,-10.2924,0.578677,20.9955,-0.741255,-0.598546,-0.219534,-0.0354024,-1.13436,0.422457,2.51539,-0.182573,-0.59674,-0.279161
3623859,1,-1.57085,-0.522792,-0.000369064,-2.09596,-1.57081,1.57157,0.785846,-1.5708,-0.523599,-4.63595e-08,-2.0944,-1.5708,1.5708,0.785399,0.000778218,-9.18124e-05,-6.43132e-06,0.000370705,0.00028779,0.00020837,0.000227386,-1.15e-18,-2.9595e-16,9.903e-17,2.9596e-16,-2.0002e-16,-1.17e-18,2.9597e-16,-0.0497324,-10.2646,0.578677,21.0193,-0.752241,-0.604955,-0.23876,-0.0349961,-1.13491,0.422553,2.51519,-0.182573,-0.596747,-0.279099
3623860,1,-1.57085,-0.52279,-0.000371487,-2.09597,-1.57081,1.57157,0.785849,-1.5708,-0.523598,-1.9435e-06,-2.09439,-1.5708,1.5708,0.785399,-3.80003e-05,0.000588406,-0.000653901,0.000247136,-1.15905e-05,-0.000335804,0.000897576,-0.000684739,0.000944797,-0.00189714,0.00104498,-0.00110453,0.00209388,7.5537e-05,-0.0259286,-10.2924,0.606448,21.0193,-0.746748,-0.592137,-0.258901,-0.0348478,-1.13534,0.422353,2.5147,-0.18256,-0.596798,-0.279065
3623861,1,-1.57085,-0.522792,-0.000369697,-2.09596,-1.57081,1.57157,0.785844,-1.5708,-0.523596,-5.7378e-06,-2.09439,-1.5708,1.5708,0.785399,-2.53335e-05,-0.000257343,0.00021368,0.00072157,-7.72701e-06,-0.00022387,0.000123666,-0.00136949,0.00188955,-0.00379429,0.00208991,-0.00220908,0.00418777,0.000151066,-0.0259286,-10.2646,0.578677,20.9955,-0.746748,-0.592137,-0.246084,-0.0344441,-1.13563,0.422546,2.51416,-0.182539,-0.596806,-0.279058
3623862,1,-1.57085,-0.522794,-0.000369749,-2.09597,-1.57081,1.57157,0.785842,-1.5708,-0.523593,-1.14293e-05,-2.09439,-1.5708,1.57081,0.785399,-1.6889e-05,-0.000728374,0.000142453,-7.57656e-05,-0.000208602,8.81126e-05,-0.00137562,-0.00205424,0.00283422,-0.00569146,0.00313478,-0.00331365,0.00628168,0.000226579,-0.0259286,-10.2408,0.578677,21.0193,-0.741255,-0.598546,-0.206716,-0.0340063,-1.13469,0.4227,2.51309,-0.1825,-0.596786,-0.2791
3623863,1,-1.57085,-0.522795,-0.000372818,-2.09597,-1.57081,1.57157,0.785849,-1.5708,-0.523589,-1.90179e-05,-2.09438,-1.57081,1.57082,0.7854,0.000545553,-0.00169201,-0.00461249,-0.00181375,0.000708643,0.000296101,0.00125306,-0.00273902,0.00377878,-0.00758865,0.00417954,-0.00441824,0.00837562,0.000302069,-0.0497324,-10.1892,0.53107,21.0947,-0.764143,-0.604955,-0.26531,-0.0325859,-1.13204,0.424429,2.51183,-0.182428,-0.596575,-0.279178
3623864,1,-1.57086,-0.522792,-0.000371408,-2.09596,-1.57081,1.57157,0.785849,-1.57081,-0.523585,-2.85038e-05,-2.09438,-1.57081,1.57083,0.7854,-0.00104602,-0.00233443,-0.001742,0.00631826,0.00108278,-3.99585e-05,0.000598014,-0.00342383,0.00472319,-0.00948586,0.00522417,-0.00552287,0.0104696,0.000377529,-0.125111,-10.1377,0.328738,21.0431,-0.780623,-0.598546,-0.258901,-0.0287314,-1.12509,0.429946,2.50833,-0.182207,-0.595934,-0.279285
3623865,1,-1.57085,-0.52279,-0.000382317,-2.09597,-1.57081,1.57157,0.785838,-1.57081,-0.523579,-3.98869e-05,-2.09437,-1.57082,1.57084,0.7854,-1.04849e-05,-0.00134672,-0.00358332,0.00353249,0.00116266,-2.6639e-05,-0.00224618,-0.00410866,0.0056674,-0.0113831,0.00626864,-0.00662755,0.0125636,0.000452952,-0.430592,-10.0107,0.15021,21.0947,-0.792525,-0.598546,-0.18749,-0.0232261,-1.11145,0.437728,2.49956,-0.181763,-0.594973,-0.279448
3623866,1,-1.57084,-0.522789,-0.000391027,-2.09596,-1.57081,1.57157,0.785844,-1.57082,-0.523572,-5.31673e-05,-2.09437,-1.57083,1.57085,0.785401,0.00138521,-0.000340531,-0.00377121,0.00275006,0.000775109,-1.77593e-05,0.000910044,-0.00479353,0.0066114,-0.0132804,0.00731291,-0.00773229,0.0146577,0.00052833,-0.656727,-9.88773,-0.0798923,21.0947,-0.792525,-0.598546,-0.252493,-0.0176476,-1.09612,0.445666,2.48876,-0.181288,-0.593949,-0.279645
3623867,1,-1.57085,-0.522782,-0.000404107,-2.09596,-1.57081,1.57157,0.785841,-1.57082,-0.523565,-6.83451e-05,-2.09436,-1.57084,1.57087,0.785402,-0.00127866,0.0021411,-0.00568117,0.00212967,0.000313288,0.000225519,-0.000139289,-0.00547845,0.00755514,-0.0151778,0.00835696,-0.00883708,0.0167519,0.000603657,-0.732105,-9.83615,-0.254453,21.0947,-0.787031,-0.604955,-0.232351,-0.0123035,-1.08633,0.453884,2.48117,-0.181002,-0.592909,-0.279808
3623868,1,-1.57084,-0.522777,-0.000422816,-2.09596,-1.57081,1.57158,0.785841,-1.57083,-0.523556,-8.54202e-05,-2.09435,-1.57085,1.57089,0.785402,-0.000725147,0.00447888,-0.00806004,0.00219881,-2.84999e-05,0.00956824,-0.0010423,-0.00616341,0.00849859,-0.0170752,0.00940076,-0.00994195,0.0188461,0.000678926,-0.910633,-9.80838,-0.381406,21.0709,-0.780623,-0.611364,-0.206716,-0.00638419,-1.08669,0.46394,2.47938,-0.180953,-0.59177,-0.27992
3623869,1,-1.57084,-0.522777,-0.000440617,-2.09596,-1.57081,1.57157,0.785845,-1.57083,-0.523547,-0.000104393,-2.09434,-1.57086,1.57091,0.785403,-0.00168704,0.000821759,-0.00922248,0.00107573,0.000218359,0.00714387,0.000254572,-0.00684843,0.00944171,-0.0189726,0.0104443,-0.0110469,0.0209405,0.000754128,-1.03362,-9.68539,-0.532163,21.0947,-0.787031,-0.611364,-0.232351,0.000314233,-1.09526,0.476344,2.48277,-0.181074,-0.590488,-0.279986
3623870,1,-1.57084,-0.522769,-0.000456724,-2.09596,-1.57081,1.57158,0.785848,-1.57084,-0.523535,-0.000127013,-2.09433,-1.57087,1.57094,0.785404,0.000895755,0.0029926,-0.0096476,0.00390484,0.000755924,0.00533637,0.0009157,-0.00798365,0.0113023,-0.0226197,0.0122543,-0.0129637,0.0252277,0.000875122,-1.16057,-9.63382,-0.710691,21.0947,-0.803511,-0.611364,-0.252493,0.00652797,-1.10472,0.489232,2.48778,-0.181268,-0.589067,-0.280009
3623871,1,-1.57084,-0.522765,-0.000470785,-2.09596,-1.57081,1.57158,0.785841,-1.57085,-0.523522,-0.00015328,-2.09431,-1.57089,1.57097,0.785405,0.00406135,-0.000313983,-0.00980402,0.0029522,0.00114821,0.00327584,-0.00179703,-0.00911901,0.013162,-0.026267,0.0140637,-0.0148807,0.0295151,0.000995979,-1.3391,-9.50687,-0.889218,21.0947,-0.820906,-0.592137,-0.18749,0.00947967,-1.10998,0.498652,2.49142,-0.181516,-0.587726,-0.280013
3623872,1,-1.57083,-0.52276,-0.000486573,-2.09596,-1.57081,1.57158,0.785846,-1.57086,-0.523507,-0.000183194,-2.0943,-1.5709,1.571,0.785406,0.00188627,0.00170339,-0.0102515,-9.01838e-05,0.00137582,0.00155721,0.000463492,-0.0102545,0.0150209,-0.0299145,0.0158722,-0.0167978,0.0338028,0.00111668,-1.46209,-9.43149,-1.06378,21.1939,-0.837385,-0.566503,-0.232351,0.00747916,-1.11037,0.502123,2.49414,-0.18191,-0.586615,-0.280005
3623873,1,-1.57084,-0.522755,-0.000506826,-2.09595,-1.57081,1.57157,0.785851,-1.57087,-0.52349,-0.000216756,-2.09428,-1.57092,1.57104,0.785407,0.000510008,0.00194455,-0.016136,0.000692987,0.00156148,5.95017e-05,0.00200442,-0.0113903,0.0168786,-0.0335621,0.0176798,-0.0187152,0.0380908,0.00123721,-1.58904,-9.30453,-1.24231,21.1701,-0.85478,-0.533544,-0.278127,0.00334566,-1.10949,0.503597,2.49874,-0.182514,-0.585283,-0.279947
3623874,1,-1.57084,-0.522753,-0.000528092,-2.09595,-1.57081,1.57157,0.785841,-1.57089,-0.523472,-0.000253966,-2.09426,-1.57094,1.57108,0.785409,-0.00335203,0.00300597,-0.0182785,0.00331713,0.0022956,-1.61424e-05,-0.00107122,-0.0125262,0.0187352,-0.0372101,0.0194864,-0.0206329,0.0423791,0.00135754,-1.7398,-9.0784,-1.52002,21.1939,-0.888655,-0.527135,-0.213125,0.00194882,-1.10875,0.51004,2.50508,-0.183203,-0.582967,-0.279857
3623875,1,-1.57085,-0.522743,-0.000557948,-2.09594,-1.57081,1.57158,0.785844,-1.5709,-0.523451,-0.000294825,-2.09424,-1.57096,1.57113,0.78541,-0.00424673,0.00575546,-0.021077,0.0025939,0.00278501,-0.000349318,0.000743915,-0.0136623,0.0205906,-0.0408582,0.0212918,-0.0225508,0.0466678,0.00147767,-1.9699,-8.92368,-1.77392,21.1939,-0.922529,-0.514318,-0.252493,0.00532487,-1.10856,0.524123,2.51211,-0.183905,-0.579341,-0.279781
3623876,1,-1.57085,-0.52273,-0.000594371,-2.09594,-1.57081,1.57158,0.78585,-1.57091,-0.523429,-0.000339331,-2.09421,-1.57099,1.57118,0.785412,-0.00427215,0.00853218,-0.0257131,0.00330954,0.00226357,0.00034396,0.00168274,-0.0147987,0.0224445,-0.0445067,0.0230961,-0.0244691,0.0509569,0.00159757,-2.21984,-8.80069,-2.02783,21.2693,-0.933516,-0.527135,-0.284536,0.012689,-1.1131,0.544803,2.52167,-0.18475,-0.574547,-0.279712
3623877,1,-1.57085,-0.522711,-0.000631494,-2.09593,-1.57082,1.57159,0.785843,-1.57093,-0.523404,-0.000387487,-2.09419,-1.57101,1.57123,0.785413,-0.0033102,0.0123439,-0.0284472,0.00652611,0.00150905,0.000543257,-0.00152303,-0.0159354,0.0242968,-0.0481554,0.0248989,-0.0263876,0.0552465,0.00171721,-2.39837,-8.74911,-2.33331,21.2455,-0.933516,-0.533544,-0.213125,0.022263,-1.12554,0.570029,2.53486,-0.185845,-0.568873,-0.279665
3623878,1,-1.57086,-0.522692,-0.000676085,-2.09592,-1.57082,1.5716,0.785845,-1.57095,-0.523378,-0.000439291,-2.09416,-1.57104,1.57129,0.785415,-0.00203899,0.0144184,-0.0315513,0.00868744,0.00141293,0.00439344,-0.000540636,-0.0170724,0.0261475,-0.0518045,0.0267004,-0.0283065,0.0595366,0.0018366,-2.6007,-8.67374,-2.58325,21.2177,-0.944502,-0.514318,-0.225942,0.0312401,-1.14547,0.596075,2.55033,-0.187211,-0.562759,-0.279666
3623879,1,-1.57086,-0.522678,-0.000721127,-2.09591,-1.57082,1.57161,0.785847,-1.57097,-0.52335,-0.000494745,-2.09413,-1.57107,1.57136,0.785417,-0.00226627,0.010972,-0.0372217,0.00833951,0.00138277,0.00170102,0.000385561,-0.0182097,0.0279965,-0.055454,0.0285003,-0.0302258,0.0638271,0.0019557,-2.75145,-8.52298,-2.81335,21.2693,-0.956404,-0.469457,-0.246084,0.0382128,-1.16666,0.620889,2.56534,-0.188775,-0.556355,-0.279702
3623880,1,-1.57087,-0.522658,-0.000767805,-2.0959,-1.57083,1.57162,0.785846,-1.57098,-0.52332,-0.000555429,-2.0941,-1.57111,1.57143,0.785419,-0.00345584,0.0133311,-0.0397856,0.00765783,-0.0028509,0.00445611,-0.000251586,-0.0196783,0.0304776,-0.0606839,0.0308454,-0.0328301,0.0702367,0.00210567,-2.85064,-8.44363,-3.01568,21.3446,-0.984785,-0.424596,-0.232351,0.0439517,-1.18211,0.645269,2.57823,-0.190455,-0.549412,-0.279751
3623881,1,-1.57087,-0.522645,-0.00081605,-2.09588,-1.57083,1.57163,0.785841,-1.57101,-0.523287,-0.000621343,-2.09407,-1.57114,1.5715,0.785422,-0.00482715,0.0127944,-0.0415876,0.00868764,-0.00572836,0.00516731,-0.00182924,-0.0211474,0.0329558,-0.0659144,0.0331879,-0.0354351,0.0766471,0.00225523,-2.92601,-8.26907,-3.19421,21.3684,-1.01866,-0.340367,-0.18749,0.0482153,-1.19094,0.668241,2.58968,-0.192263,-0.541918,-0.279799
3623882,1,-1.57088,-0.522632,-0.000869827,-2.09587,-1.57084,1.57163,0.785847,-1.57103,-0.523251,-0.000692489,-2.09403,-1.57118,1.57159,0.785424,-0.0063282,0.0124606,-0.0446645,0.00798652,-0.00284892,0.00521779,0.000679381,-0.0226171,0.0354309,-0.0711455,0.0355278,-0.0380406,0.0830583,0.00240433,-2.97759,-8.09055,-3.29339,21.4438,-1.06352,-0.237828,-0.23876,0.0501422,-1.19268,0.687802,2.5999,-0.19426,-0.533928,-0.279823
3623883,1,-1.57089,-0.522605,-0.000916996,-2.09586,-1.57084,1.57164,0.785842,-1.57105,-0.523213,-0.000768866,-2.094,-1.57122,1.57168,0.785426,-0.0102323,0.0153238,-0.0436445,0.0117382,-0.00586029,0.00561062,-0.000971233,-0.0240874,0.0379026,-0.0763772,0.0378646,-0.0406469,0.0894705,0.00255295,-3.02916,-8.03897,-3.5473,21.4914,-1.0974,-0.140783,-0.200308,0.04936,-1.18696,0.702586,2.60855,-0.196533,-0.525358,-0.279796
3623884,1,-1.57091,-0.522586,-0.000976052,-2.09584,-1.57085,1.57166,0.785839,-1.57108,-0.523173,-0.000850476,-2.09396,-1.57126,1.57177,0.785429,-0.0138563,0.0137857,-0.0490051,0.0115545,-0.00764663,0.0105075,-0.00159692,-0.0255584,0.0403707,-0.0816096,0.0401983,-0.0432538,0.0958836,0.00270105,-3.05297,-7.84061,-3.77343,21.5152,-1.14317,-0.0382434,-0.174673,0.0465335,-1.17444,0.712785,2.61518,-0.199107,-0.515994,-0.27971
3623885,1,-1.57092,-0.522559,-0.00103498,-2.09582,-1.57086,1.57168,0.785844,-1.57111,-0.52313,-0.000937318,-2.09391,-1.57131,1.57187,0.785432,-0.0118045,0.0182004,-0.0489318,0.0150258,-0.00440944,0.0101976,0.000596896,-0.0270301,0.0428349,-0.0868426,0.0425287,-0.0458615,0.102298,0.00284861,-3.2791,-7.73746,-4.07892,21.5152,-1.18803,0.0459851,-0.219534,0.0419801,-1.15609,0.718661,2.61985,-0.202036,-0.505659,-0.27955
3623886,1,-1.57093,-0.522527,-0.00110936,-2.0958,-1.57087,1.57171,0.785843,-1.57113,-0.523085,-0.00102939,-2.09387,-1.57136,1.57198,0.785435,-0.014355,0.0219794,-0.0566218,0.016562,-0.00743087,0.0162885,-7.67871e-05,-0.0285025,0.0452951,-0.0920764,0.0448554,-0.0484701,0.108713,0.0029956,-3.48143,-7.66208,-4.28125,21.5668,-1.21641,0.0844372,-0.206716,0.0350451,-1.1375,0.719697,2.6246,-0.205482,-0.494345,-0.279288
3623887,1,-1.57095,-0.522494,-0.00117756,-2.09578,-1.57088,1.57175,0.785839,-1.57116,-0.523037,-0.00112671,-2.09382,-1.57141,1.5721,0.785438,-0.0174219,0.0270142,-0.0595132,0.0181209,-0.00590238,0.0228286,-0.00123799,-0.0299758,0.047751,-0.097311,0.0471784,-0.0510794,0.11513,0.00314198,-3.50524,-7.55893,-4.61053,21.5906,-1.21641,0.0716198,-0.174673,0.0273345,-1.12613,0.718727,2.63254,-0.209545,-0.481806,-0.278927
3623888,1,-1.57097,-0.522458,-0.00125605,-2.09575,-1.5709,1.5718,0.78584,-1.5712,-0.522987,-0.00122925,-2.09377,-1.57146,1.57222,0.785441,-0.0152423,0.0317156,-0.0650522,0.0242649,-0.00914165,0.0328988,-0.000587965,-0.0314498,0.0502023,-0.102546,0.0494974,-0.0536897,0.121547,0.00328773,-3.70757,-7.48355,-4.83667,21.543,-1.22191,0.0395764,-0.181082,0.0194784,-1.12583,0.717028,2.64479,-0.214227,-0.468038,-0.278471
3623889,1,-1.57099,-0.52242,-0.00134148,-2.09573,-1.57093,1.57185,0.785836,-1.57123,-0.522934,-0.00133703,-2.09372,-1.57152,1.57235,0.785445,-0.0198537,0.0326545,-0.0717526,0.0259876,-0.0116834,0.040863,-0.000629336,-0.0329247,0.0526489,-0.107783,0.0518122,-0.0563008,0.127966,0.0034328,-3.78295,-7.43594,-5.039,21.6144,-1.22191,-0.0126087,-0.174673,0.0112896,-1.13387,0.714527,2.65898,-0.219376,-0.453206,-0.277916
3623890,1,-1.57101,-0.522392,-0.00142717,-2.0957,-1.57095,1.57192,0.785832,-1.57126,-0.522879,-0.00145134,-2.09367,-1.57158,1.57248,0.785448,-0.0208184,0.0316522,-0.0761555,0.0260021,-0.0123268,0.0514863,-0.0025897,-0.0348639,0.0554915,-0.114302,0.0544966,-0.0592605,0.135504,0.00360547,-3.96148,-7.18204,-5.2929,21.6144,-1.25578,-0.0702869,-0.116079,0.00436187,-1.14253,0.713275,2.67251,-0.224781,-0.437215,-0.277264
3623891,1,-1.57103,-0.522351,-0.00151779,-2.09567,-1.57097,1.57199,0.785832,-1.5713,-0.52282,-0.00157216,-2.09361,-1.57164,1.57263,0.785452,-0.0235365,0.0358676,-0.0800539,0.0283772,-0.0183421,0.0582031,-0.000777028,-0.0368042,0.0583277,-0.120823,0.0571752,-0.0622214,0.143043,0.00377737,-4.06066,-7.13046,-5.49524,21.6422,-1.26768,-0.0959217,-0.141714,-0.00149992,-1.14723,0.712561,2.68502,-0.230388,-0.42031,-0.276492
3623892,1,-1.57105,-0.522311,-0.00161412,-2.09564,-1.571,1.57207,0.785836,-1.57134,-0.522759,-0.0016995,-2.09355,-1.57171,1.57278,0.785456,-0.0228421,0.0371558,-0.0846564,0.0275271,-0.0214183,0.0657993,-9.39253e-06,-0.0387457,0.0611568,-0.127344,0.0598477,-0.0651838,0.150584,0.00394848,-4.13604,-7.00351,-5.62219,21.789,-1.31804,-0.0638782,-0.155447,-0.00813431,-1.14963,0.709654,2.69818,-0.236266,-0.403054,-0.275541
3623893,1,-1.57108,-0.522269,-0.00170976,-2.0956,-1.57103,1.57216,0.78583,-1.57138,-0.522695,-0.00183337,-2.09349,-1.57177,1.57293,0.78546,-0.0272092,0.0387807,-0.0896935,0.033188,-0.0248202,0.0718944,-0.0021764,-0.0406886,0.0639788,-0.133867,0.0625138,-0.0681476,0.158126,0.00411874,-4.13604,-6.90433,-5.85229,21.789,-1.34642,-0.0382434,-0.0968531,-0.0161752,-1.14955,0.703628,2.71202,-0.242426,-0.385734,-0.274398
3623894,1,-1.5711,-0.522224,-0.00180895,-2.09556,-1.57106,1.57226,0.785833,-1.57142,-0.522629,-0.00197376,-2.09342,-1.57184,1.5731,0.785465,-0.0288172,0.0398499,-0.0933697,0.0376036,-0.026417,0.0814544,-0.000738857,-0.0426328,0.066793,-0.140391,0.0651731,-0.0711129,0.165671,0.00428815,-4.31456,-6.80118,-6.15381,21.789,-1.39769,-0.0190174,-0.116079,-0.0250051,-1.14207,0.694967,2.72288,-0.248743,-0.368336,-0.273091
3623895,1,-1.57113,-0.522172,-0.00192027,-2.09552,-1.57109,1.57237,0.785833,-1.57147,-0.522559,-0.00212068,-2.09335,-1.57192,1.57327,0.785469,-0.0268997,0.0451384,-0.10122,0.0401543,-0.0326015,0.0945483,0.000456865,-0.0445785,0.0695993,-0.146917,0.0678253,-0.0740798,0.173217,0.00445664,-4.5169,-6.75357,-6.38391,21.8167,-1.44255,-0.0318348,-0.141714,-0.0350322,-1.12685,0.683128,2.72943,-0.255204,-0.351027,-0.271613
3623896,1,-1.57116,-0.522116,-0.00204323,-2.09547,-1.57114,1.5725,0.785833,-1.57151,-0.522487,-0.00227412,-2.09328,-1.572,1.57345,0.785474,-0.028401,0.0457393,-0.109392,0.041647,-0.038319,0.105366,-0.0004075,-0.0465256,0.0723973,-0.153443,0.0704701,-0.0770483,0.180765,0.00462421,-4.74303,-6.702,-6.63385,21.8644,-1.45994,-0.0702869,-0.122488,-0.0463293,-1.10861,0.668878,2.73429,-0.261911,-0.333944,-0.269966
3623897,1,-1.57119,-0.52206,-0.00216875,-2.09542,-1.57118,1.57263,0.785829,-1.57156,-0.522411,-0.00243409,-2.09321,-1.57208,1.57364,0.785478,-0.0306775,0.0492814,-0.116918,0.0448955,-0.0383241,0.118095,-0.00169582,-0.0484744,0.0751866,-0.159971,0.0731072,-0.0800186,0.188315,0.00479081,-4.92156,-6.65042,-6.93933,21.8167,-1.45994,-0.108739,-0.0840357,-0.0570895,-1.08913,0.655381,2.73911,-0.268909,-0.316867,-0.268184
3623898,0.99,-1.57122,-0.522,-0.00229775,-2.09537,-1.57123,1.57278,0.785835,-1.57161,-0.522333,-0.00260059,-2.09313,-1.57216,1.57384,0.785483,-0.0337275,0.0544837,-0.120192,0.0483844,-0.0386799,0.128625,0.000768324,-0.0504231,0.0779758,-0.166499,0.0757443,-0.0829889,0.195865,0.0049574,-5.04454,-6.57504,-7.16546,21.8644,-1.45354,-0.179235,-0.135305,-0.0669132,-1.07071,0.643055,2.74498,-0.276284,-0.299808,-0.266283
3623899,0.99,-1.57126,-0.521934,-0.00242473,-2.09532,-1.57129,1.57294,0.785832,-1.57166,-0.522253,-0.00277362,-2.09306,-1.57224,1.57404,0.785489,-0.0353798,0.0599361,-0.122325,0.051587,-0.0436689,0.140295,-0.000437219,-0.0523767,0.0807376,-0.173031,0.078357,-0.0859646,0.203422,0.00512095,-5.1953,-6.57504,-7.47094,21.8882,-1.44255,-0.225011,-0.10967,-0.0786302,-1.05869,0.627268,2.75378,-0.284186,-0.283346,-0.264253
3623900,0.99,-1.5713,-0.521874,-0.0025644,-2.09526,-1.57134,1.57311,0.785825,-1.57172,-0.522169,-0.00295333,-2.09297,-1.57233,1.57425,0.785494,-0.0369415,0.0585788,-0.126295,0.0505607,-0.0471081,0.14897,-0.00171563,-0.0543515,0.0837315,-0.179702,0.0811989,-0.0891579,0.211302,0.00530221,-5.32225,-6.47189,-7.67328,21.9159,-1.43706,-0.269872,-0.0712183,-0.0954791,-1.05334,0.602798,2.76626,-0.292664,-0.268082,-0.262114
3623901,0.99,-1.57133,-0.521808,-0.00270756,-2.0952,-1.5714,1.57329,0.78583,-1.57177,-0.522082,-0.0031397,-2.09289,-1.57243,1.57447,0.785499,-0.0390881,0.0621168,-0.130886,0.0556071,-0.0491254,0.154869,-0.00019432,-0.0563281,0.086715,-0.186376,0.0840315,-0.0923533,0.219184,0.00548224,-5.39763,-6.42429,-7.8518,21.8405,-1.44804,-0.301915,-0.0968531,-0.118061,-1.04868,0.568478,2.78075,-0.301596,-0.254091,-0.259881
3623902,0.99,-1.57136,-0.521736,-0.00286013,-2.09514,-1.57146,1.57347,0.785831,-1.57183,-0.521993,-0.00333275,-2.0928,-1.57252,1.5747,0.785505,-0.0378991,0.065834,-0.136005,0.0592734,-0.0496776,0.161595,0.00105725,-0.0583067,0.0896877,-0.193051,0.0868546,-0.0955509,0.227069,0.00566099,-5.59996,-6.42429,-8.02636,21.8882,-1.48192,-0.263463,-0.128897,-0.145773,-1.04155,0.52531,2.79509,-0.310822,-0.241273,-0.257549
3623903,0.99,-1.57141,-0.521665,-0.00301286,-2.09508,-1.57153,1.57366,0.785831,-1.57189,-0.5219,-0.00353248,-2.09271,-1.57262,1.57493,0.785511,-0.0413255,0.0684842,-0.141726,0.0602962,-0.0554026,0.170832,-7.24469e-06,-0.0602873,0.0926493,-0.199727,0.0896677,-0.0987507,0.234957,0.00583843,-5.62774,-6.42429,-8.18109,21.8882,-1.5048,-0.218602,-0.10967,-0.17787,-1.03327,0.474814,2.80916,-0.320262,-0.229549,-0.255139
3623904,0.99,-1.57145,-0.521592,-0.00317928,-2.09501,-1.5716,1.57387,0.785833,-1.57196,-0.521804,-0.00373889,-2.09262,-1.57272,1.57518,0.785517,-0.0432158,0.0690985,-0.146197,0.0646193,-0.0595988,0.187443,0.000469888,-0.06227,0.0955993,-0.206406,0.0924706,-0.101953,0.242847,0.00601451,-5.67534,-6.37271,-8.25647,21.8644,-1.52769,-0.199376,-0.122488,-0.213001,-1.02275,0.419086,2.82268,-0.329817,-0.21873,-0.252702
3623905,0.99,-1.57149,-0.521513,-0.00334525,-2.09494,-1.57167,1.57409,0.785838,-1.57202,-0.521706,-0.00395197,-2.09253,-1.57283,1.57543,0.785523,-0.0437629,0.0730126,-0.150699,0.0634314,-0.0678393,0.197732,0.00177132,-0.0642549,0.0985375,-0.213086,0.0952629,-0.105157,0.25074,0.00618918,-5.75072,-6.34891,-8.40722,21.8882,-1.54417,-0.212194,-0.161856,-0.251057,-1.0087,0.358306,2.8354,-0.339438,-0.208782,-0.250274
3623906,0.99,-1.57153,-0.521428,-0.0035183,-2.09486,-1.57175,1.57433,0.78583,-1.57209,-0.521604,-0.00417174,-2.09243,-1.57294,1.57569,0.785529,-0.0445382,0.0769069,-0.15684,0.0689411,-0.0695049,0.20606,-0.00051454,-0.066242,0.101463,-0.219768,0.0980442,-0.108364,0.258636,0.0063624,-5.8023,-6.34891,-8.51037,21.789,-1.55607,-0.250646,-0.116079,-0.292403,-0.994337,0.292262,2.84898,-0.349202,-0.199698,-0.247887
3623907,0.99,-1.57157,-0.521342,-0.00369945,-2.09478,-1.57183,1.57457,0.785834,-1.57215,-0.5215,-0.00439819,-2.09233,-1.57305,1.57595,0.785536,-0.0432288,0.0790741,-0.161784,0.0711135,-0.0712651,0.220554,0.00036905,-0.0682314,0.104376,-0.226452,0.100814,-0.111574,0.266535,0.00653413,-5.8023,-6.32114,-8.63733,21.7652,-1.54967,-0.250646,-0.135305,-0.337046,-0.981237,0.221323,2.86335,-0.359144,-0.191407,-0.245588
3623908,0.99,-1.57162,-0.521252,-0.00388516,-2.0947,-1.57192,1.57483,0.785838,-1.57222,-0.521393,-0.00463133,-2.09222,-1.57316,1.57623,0.785543,-0.0440843,0.0821422,-0.168734,0.0783129,-0.0773732,0.232757,0.00122938,-0.0702232,0.107277,-0.233138,0.103573,-0.114786,0.274436,0.00670432,-5.85387,-6.34891,-8.68493,21.7652,-1.53319,-0.295507,-0.161856,-0.385038,-0.966734,0.145631,2.87582,-0.369173,-0.183916,-0.243405
3623909,0.99,-1.57167,-0.521159,-0.00407304,-2.09461,-1.57202,1.57509,0.785834,-1.5723,-0.521282,-0.00487116,-2.09212,-1.57328,1.57651,0.78555,-0.0427737,0.0855932,-0.174101,0.0801289,-0.082223,0.24212,-0.000401118,-0.0722174,0.110163,-0.239826,0.106319,-0.118001,0.282341,0.00687291,-5.85387,-6.29733,-8.78808,21.789,-1.51579,-0.346776,-0.128897,-0.435683,-0.94929,0.0662547,2.88457,-0.379159,-0.177159,-0.241354
3623910,0.99,-1.57171,-0.521063,-0.0042723,-2.09452,-1.57211,1.57536,0.785831,-1.57237,-0.521169,-0.00511767,-2.09201,-1.5734,1.5768,0.785557,-0.04491,0.0890098,-0.183383,0.0850332,-0.08592,0.251684,-0.00145421,-0.0742208,0.113135,-0.24651,0.109164,-0.12125,0.290247,0.00705061,-5.98082,-6.27353,-8.78808,21.789,-1.49382,-0.340367,-0.0968531,-0.487075,-0.930265,-0.0139999,2.89026,-0.389014,-0.170892,-0.23944
3623911,0.99,-1.57176,-0.520961,-0.00447617,-2.09442,-1.57221,1.57564,0.785837,-1.57245,-0.521053,-0.00537086,-2.0919,-1.57353,1.5771,0.785564,-0.0459539,0.093159,-0.187646,0.0896306,-0.0877455,0.258557,0.00120067,-0.0762268,0.116093,-0.253195,0.111996,-0.124502,0.298155,0.00722661,-6.00463,-6.32114,-8.86346,21.7414,-1.49931,-0.333959,-0.155447,-0.536804,-0.911076,-0.0917603,2.89372,-0.398651,-0.164797,-0.237631
3623912,0.99,-1.57181,-0.520863,-0.00468761,-2.09433,-1.5723,1.57592,0.785837,-1.57253,-0.520934,-0.00563074,-2.09178,-1.57365,1.5774,0.785571,-0.0496982,0.0968305,-0.194548,0.0886815,-0.0931746,0.26746,0.000563086,-0.0782354,0.119037,-0.259883,0.114815,-0.127757,0.306067,0.00740088,-6.02843,-6.27353,-8.93884,21.7652,-1.51579,-0.289098,-0.149038,-0.583694,-0.894129,-0.165629,2.89685,-0.408073,-0.158713,-0.23588
3623913,0.99,-1.57186,-0.520754,-0.00490324,-2.09422,-1.57241,1.57621,0.785831,-1.57261,-0.520812,-0.00589732,-2.09166,-1.57378,1.57772,0.785579,-0.0482359,0.102149,-0.203575,0.0927505,-0.0966936,0.269441,-0.00155739,-0.0802469,0.121965,-0.266573,0.11762,-0.131015,0.313982,0.00757337,-6.10381,-6.32114,-8.99041,21.7176,-1.55607,-0.237828,-0.0968531,-0.626686,-0.883663,-0.233959,2.90326,-0.417354,-0.152431,-0.234177
3623914,0.99,-1.57191,-0.520644,-0.00512443,-2.09412,-1.57252,1.57651,0.785834,-1.57269,-0.520687,-0.00617058,-2.09154,-1.57392,1.57804,0.785587,-0.0467211,0.104413,-0.20979,0.0991116,-0.100033,0.282414,0.000148535,-0.0822611,0.124878,-0.273265,0.120412,-0.134276,0.321901,0.00774403,-6.20696,-6.29733,-9.06579,21.666,-1.58354,-0.244237,-0.128897,-0.66605,-0.879301,-0.296575,2.91235,-0.426478,-0.145849,-0.232524
3623915,0.99,-1.57197,-0.520529,-0.00535972,-2.09402,-1.57263,1.57682,0.785835,-1.57277,-0.52056,-0.00645054,-2.09142,-1.57406,1.57837,0.785594,-0.0486417,0.109779,-0.215745,0.0978773,-0.102458,0.287494,0.000336382,-0.0842782,0.127776,-0.27996,0.12319,-0.13754,0.329823,0.00791281,-6.17919,-6.29733,-9.06579,21.7176,-1.60643,-0.244237,-0.135305,-0.703955,-0.878862,-0.356372,2.92248,-0.435498,-0.139164,-0.230902
3623916,0.99,-1.57202,-0.520416,-0.00559218,-2.0939,-1.57274,1.57715,0.785836,-1.57286,-0.520429,-0.0067372,-2.09129,-1.5742,1.57871,0.785603,-0.0511473,0.109625,-0.217939,0.107313,-0.104268,0.300664,0.000461614,-0.0862983,0.130657,-0.286657,0.125953,-0.140808,0.337749,0.00807967,-6.23076,-6.24576,-9.11737,21.6144,-1.63481,-0.263463,-0.141714,-0.74212,-0.879738,-0.416425,2.93256,-0.444522,-0.132565,-0.229312
3623917,0.99,-1.57208,-0.520298,-0.00583326,-2.09378,-1.57286,1.57748,0.785833,-1.57295,-0.520295,-0.00703056,-2.09117,-1.57434,1.57905,0.785611,-0.0530356,0.109873,-0.226954,0.10976,-0.106998,0.319181,-0.000641693,-0.0883215,0.133522,-0.293356,0.128702,-0.14408,0.345679,0.00824454,-6.28234,-6.22195,-9.14117,21.5668,-1.62382,-0.301915,-0.116079,-0.781119,-0.872629,-0.478324,2.9373,-0.453443,-0.126127,-0.227803
3623918,0.99,-1.57214,-0.520173,-0.00608572,-2.09367,-1.57299,1.57783,0.785837,-1.57304,-0.520159,-0.00733061,-2.09103,-1.57449,1.57941,0.785619,-0.0552067,0.116974,-0.235336,0.10978,-0.11359,0.325669,0.000792908,-0.0903477,0.136371,-0.300058,0.131436,-0.147354,0.353612,0.00840738,-6.30614,-6.24576,-9.21655,21.5906,-1.61741,-0.340367,-0.149038,-0.818938,-0.856446,-0.538887,2.93671,-0.462223,-0.119655,-0.226384
3623919,0.99,-1.5722,-0.52004,-0.00635181,-2.09355,-1.57313,1.57818,0.785833,-1.57313,-0.52002,-0.00763738,-2.0909,-1.57464,1.57977,0.785628,-0.0571838,0.122316,-0.241136,0.113695,-0.119401,0.333324,-0.000692098,-0.0923771,0.139202,-0.306762,0.134154,-0.150633,0.361549,0.00856815,-6.43309,-6.37271,-9.16894,21.5906,-1.58995,-0.32755,-0.116079,-0.853383,-0.842797,-0.59428,2.93762,-0.471037,-0.112957,-0.225001
3623920,0.99,-1.57226,-0.519912,-0.00661882,-2.09342,-1.57327,1.57854,0.785834,-1.57322,-0.519878,-0.00795073,-2.09076,-1.57479,1.58014,0.785636,-0.0568787,0.123007,-0.249928,0.117275,-0.128348,0.339778,0.00817604,-0.0943705,0.14201,-0.31335,0.136873,-0.15382,0.369329,0.00873415,-6.53228,-6.37271,-9.19275,21.5668,-1.54967,-0.333959,-0.0968531,-0.884439,-0.835164,-0.644177,2.94144,-0.479888,-0.106059,-0.223634
3623921,0.99,-1.57233,-0.519787,-0.00689057,-2.0933,-1.57341,1.57891,0.785836,-1.57332,-0.519733,-0.00827067,-2.09062,-1.57495,1.58052,0.785645,-0.0619844,0.125594,-0.25188,0.119925,-0.128888,0.349335,0.00765398,-0.0963672,0.144801,-0.31994,0.139577,-0.157011,0.377113,0.00889809,-6.53228,-6.32114,-9.26812,21.543,-1.55607,-0.359594,-0.135305,-0.91319,-0.827529,-0.690216,2.94502,-0.488626,-0.0990435,-0.222282
3623922,0.99,-1.57241,-0.519651,-0.00717105,-2.09318,-1.57355,1.57929,0.785838,-1.57342,-0.519585,-0.0085972,-2.09048,-1.57511,1.5809,0.785654,-0.0620146,0.129812,-0.257479,0.118612,-0.134437,0.360357,0.00643298,-0.0983673,0.147574,-0.326532,0.142264,-0.160205,0.384901,0.00905994,-6.56005,-6.37271,-9.3197,21.666,-1.54967,-0.411779,-0.155447,-0.941951,-0.819318,-0.736073,2.94902,-0.49728,-0.0922668,-0.22092
3623923,0.99,-1.57247,-0.519518,-0.00746538,-2.09304,-1.57369,1.57967,0.785841,-1.57352,-0.519435,-0.00893032,-2.09034,-1.57527,1.58129,0.785664,-0.0602267,0.131936,-0.269885,0.124639,-0.136589,0.368493,0.00472691,-0.100371,0.150329,-0.333127,0.144935,-0.163404,0.392692,0.00921964,-6.65923,-6.37271,-9.26812,21.6144,-1.60094,-0.398961,-0.155447,-0.971625,-0.813219,-0.782487,2.9554,-0.505868,-0.085935,-0.219563
3623924,0.99,-1.57255,-0.519374,-0.00775513,-2.0929,-1.57384,1.58007,0.785841,-1.57362,-0.519282,-0.00927005,-2.09019,-1.57544,1.58169,0.785673,-0.0654207,0.135289,-0.273131,0.12808,-0.139204,0.374293,0.00324261,-0.102378,0.153065,-0.339724,0.147589,-0.166607,0.400488,0.00937714,-6.61162,-6.44809,-9.3435,21.6144,-1.62932,-0.386144,-0.149038,-1.00052,-0.806931,-0.826383,2.96202,-0.514231,-0.0797869,-0.218267
3623925,0.99,-1.57261,-0.519234,-0.00806756,-2.09276,-1.57399,1.58046,0.785845,-1.57373,-0.519126,-0.00961637,-2.09004,-1.57561,1.5821,0.785683,-0.0640306,0.135698,-0.285132,0.133848,-0.140575,0.379228,0.00359506,-0.104388,0.155782,-0.346324,0.150225,-0.169814,0.408287,0.0095324,-6.78618,-6.44809,-9.26812,21.6144,-1.66319,-0.373326,-0.181082,-1.02698,-0.795714,-0.865582,2.96533,-0.522265,-0.073482,-0.217078
3623926,0.99,-1.57269,-0.519088,-0.00838143,-2.09262,-1.57415,1.58087,0.785845,-1.57383,-0.518968,-0.0099693,-2.08989,-1.57578,1.58252,0.785692,-0.0668344,0.137502,-0.297735,0.136136,-0.15096,0.387231,0.0013948,-0.106402,0.15848,-0.352927,0.152845,-0.173025,0.416091,0.00968536,-6.80999,-6.49966,-9.16894,21.5668,-1.67967,-0.359594,-0.149038,-1.04813,-0.775332,-0.895565,2.96299,-0.529871,-0.0664716,-0.216027
3623927,0.99,-1.57277,-0.518937,-0.00869892,-2.09247,-1.57432,1.58129,0.785849,-1.57394,-0.518807,-0.0103288,-2.08973,-1.57596,1.58294,0.785702,-0.0730465,0.14184,-0.30462,0.141104,-0.155361,0.395801,0.00225533,-0.10842,0.161159,-0.359532,0.155446,-0.176241,0.423898,0.00983598,-6.78618,-6.55124,-9.16894,21.5152,-1.69157,-0.411779,-0.181082,-1.06066,-0.74648,-0.911157,2.95537,-0.537004,-0.0582416,-0.215115
3623928,0.99,-1.57286,-0.51878,-0.0090255,-2.09232,-1.57448,1.58171,0.785852,-1.57405,-0.518643,-0.010695,-2.08957,-1.57614,1.58337,0.785712,-0.0762055,0.148906,-0.311119,0.142607,-0.153968,0.401306,0.00137019,-0.110442,0.163817,-0.36614,0.15803,-0.179461,0.43171,0.0099842,-6.687,-6.62662,-9.0896,21.543,-1.69707,-0.437413,-0.174673,-1.06499,-0.717646,-0.913374,2.94658,-0.54391,-0.0489544,-0.214319
3623929,0.99,-1.57294,-0.518627,-0.00935742,-2.09217,-1.57465,1.58215,0.785852,-1.57416,-0.518476,-0.0110677,-2.08941,-1.57632,1.58381,0.785722,-0.0783932,0.151704,-0.316226,0.148398,-0.154856,0.405938,0.000516746,-0.112467,0.166455,-0.37275,0.160595,-0.182685,0.439525,0.01013,-6.7108,-6.59885,-9.04199,21.4914,-1.6577,-0.495092,-0.161856,-1.06487,-0.696555,-0.908111,2.94023,-0.550946,-0.0392621,-0.213633
3623930,0.99,-1.57303,-0.518464,-0.00969491,-2.09201,-1.57482,1.58259,0.785851,-1.57428,-0.518307,-0.0114469,-2.08925,-1.57651,1.58426,0.785732,-0.0809569,0.153563,-0.320707,0.148416,-0.159128,0.414317,-7.17202e-05,-0.114401,0.168987,-0.379158,0.163085,-0.185732,0.447119,0.0102798,-6.687,-6.702,-9.04199,21.5152,-1.63481,-0.539952,-0.149038,-1.06455,-0.682151,-0.902013,2.93617,-0.558262,-0.0298659,-0.213059
3623931,0.99,-1.57312,-0.518301,-0.0100428,-2.09185,-1.575,1.58303,0.785855,-1.57439,-0.518136,-0.0118324,-2.08908,-1.5767,1.58471,0.785743,-0.0826503,0.158021,-0.332316,0.149502,-0.164419,0.422728,0.00142022,-0.116339,0.171499,-0.385568,0.165556,-0.188783,0.454717,0.0104273,-6.687,-6.80118,-8.96661,21.4914,-1.56706,-0.514318,-0.18749,-1.06547,-0.672738,-0.897168,2.93495,-0.565837,-0.0211209,-0.212568
3623932,0.99,-1.57322,-0.518131,-0.0104028,-2.0917,-1.57517,1.58347,0.785854,-1.57451,-0.517962,-0.0122244,-2.08891,-1.57689,1.58518,0.785753,-0.0865856,0.162114,-0.342244,0.148539,-0.165111,0.421444,0.000504999,-0.11828,0.17399,-0.391981,0.168009,-0.19184,0.462319,0.0105725,-6.7108,-6.92813,-8.86346,21.543,-1.57255,-0.40537,-0.174673,-1.06464,-0.671824,-0.888636,2.93988,-0.573572,-0.0126899,-0.212118
3623933,0.99,-1.57332,-0.517965,-0.0107627,-2.09154,-1.57535,1.58392,0.785851,-1.57463,-0.517785,-0.0126228,-2.08874,-1.57708,1.58565,0.785764,-0.0934689,0.162714,-0.350179,0.151458,-0.164716,0.430181,-0.00157143,-0.120226,0.176461,-0.398396,0.170443,-0.194901,0.469925,0.0107153,-6.65923,-6.9559,-8.81189,21.5668,-1.59544,-0.301915,-0.122488,-1.05827,-0.67928,-0.870921,2.9516,-0.581284,-0.00390556,-0.211713
3623934,0.99,-1.57343,-0.517792,-0.0111277,-2.09136,-1.57553,1.58438,0.785855,-1.57476,-0.517606,-0.0130276,-2.08857,-1.57728,1.58612,0.785775,-0.0937789,0.167951,-0.353503,0.155897,-0.168378,0.439977,-4.57686e-05,-0.122176,0.17891,-0.404813,0.172857,-0.197967,0.477534,0.0108558,-6.58385,-7.05508,-8.76428,21.5152,-1.6577,-0.301915,-0.149038,-1.04751,-0.69031,-0.846328,2.96671,-0.588808,0.00523842,-0.211354
3623935,0.99,-1.57354,-0.517615,-0.0115037,-2.0912,-1.57572,1.58486,0.785857,-1.57488,-0.517425,-0.0134389,-2.0884,-1.57748,1.58661,0.785786,-0.100295,0.169208,-0.35852,0.160412,-0.172627,0.458905,0.000458088,-0.124129,0.181338,-0.411233,0.175252,-0.201038,0.485148,0.0109937,-6.50847,-7.18204,-8.73651,21.543,-1.68608,-0.40537,-0.161856,-1.03751,-0.701405,-0.822876,2.98122,-0.596098,0.0140509,-0.211016
3623936,0.99,-1.57364,-0.517441,-0.0118987,-2.09102,-1.57591,1.58534,0.785857,-1.57501,-0.517241,-0.0138565,-2.08822,-1.57769,1.5871,0.785797,-0.100087,0.171841,-0.371323,0.164856,-0.176355,0.464516,0.000315804,-0.126088,0.183745,-0.417655,0.177627,-0.204114,0.492765,0.0111292,-6.50847,-7.28122,-8.55798,21.5152,-1.69707,-0.482274,-0.161856,-1.02944,-0.708785,-0.80235,2.99177,-0.603094,0.0223731,-0.210695
3623937,0.99,-1.57375,-0.517261,-0.0122835,-2.09085,-1.5761,1.58583,0.785857,-1.57513,-0.517055,-0.0142806,-2.08804,-1.57789,1.5876,0.785808,-0.103435,0.174275,-0.368967,0.167859,-0.180677,0.47,-0.000764999,-0.12805,0.186129,-0.42408,0.179981,-0.207196,0.500386,0.0112621,-6.4569,-7.3566,-8.53418,21.5152,-1.67418,-0.463048,-0.135305,-1.02335,-0.710087,-0.784747,2.9968,-0.60984,0.0301984,-0.210405
3623938,0.99,-1.57387,-0.517073,-0.0126845,-2.09067,-1.57629,1.5863,0.785867,-1.57526,-0.516867,-0.0147111,-2.08786,-1.5781,1.58811,0.78582,-0.107525,0.177673,-0.379889,0.1667,-0.181796,0.478115,0.00237807,-0.130016,0.18849,-0.430507,0.182315,-0.210283,0.508012,0.0113923,-6.38152,-7.51132,-8.43499,21.5152,-1.68608,-0.418187,-0.213125,-1.02116,-0.708243,-0.773103,2.9988,-0.616587,0.0371658,-0.210128
3623939,0.99,-1.57399,-0.516887,-0.013089,-2.09049,-1.57649,1.5868,0.78586,-1.5754,-0.516676,-0.015148,-2.08767,-1.57832,1.58863,0.785831,-0.107428,0.178473,-0.382721,0.168544,-0.183313,0.483828,-0.00200452,-0.131987,0.190829,-0.436937,0.184628,-0.213375,0.515641,0.0115199,-6.43309,-7.5867,-8.4588,21.543,-1.69157,-0.379735,-0.116079,-1.02254,-0.706852,-0.766931,3.00145,-0.623521,0.0432673,-0.20986
3623940,0.99,-1.57411,-0.516694,-0.0135173,-2.09031,-1.57669,1.58731,0.785855,-1.57553,-0.516483,-0.0155912,-2.08748,-1.57853,1.58915,0.785843,-0.111306,0.180491,-0.395533,0.169628,-0.1846,0.490322,-0.00445263,-0.133842,0.192998,-0.44311,0.186806,-0.216234,0.522984,0.011652,-6.4569,-7.73746,-8.38342,21.5906,-1.69157,-0.379735,-0.0318506,-1.02577,-0.705503,-0.763286,3.00545,-0.630636,0.0488567,-0.209619
3623941,0.99,-1.57423,-0.516503,-0.0139432,-2.09013,-1.5769,1.58782,0.785859,-1.57566,-0.516288,-0.0160404,-2.0873,-1.57875,1.58968,0.785855,-0.113545,0.18509,-0.404641,0.173475,-0.186178,0.494028,-0.0019826,-0.135702,0.195145,-0.449286,0.188965,-0.219098,0.53033,0.0117817,-6.38152,-7.86441,-8.33185,21.6144,-1.67967,-0.353185,-0.0584009,-1.02689,-0.704504,-0.755886,3.01053,-0.637804,0.0546548,-0.209327
3623942,0.99,-1.57436,-0.516313,-0.0143716,-2.08995,-1.57711,1.58834,0.785864,-1.5758,-0.516091,-0.0164959,-2.0871,-1.57897,1.59022,0.785867,-0.117312,0.185878,-0.405905,0.177513,-0.186461,0.495229,-0.00108252,-0.137566,0.19727,-0.455464,0.191102,-0.221968,0.537679,0.011909,-6.33391,-7.88821,-8.33185,21.6144,-1.68608,-0.282689,-0.0648096,-1.02465,-0.704393,-0.742976,3.0156,-0.644952,0.0609682,-0.208852
3623943,0.99,-1.57449,-0.516118,-0.0148209,-2.08977,-1.57731,1.58886,0.785866,-1.57594,-0.515891,-0.0169576,-2.08691,-1.5792,1.59076,0.785879,-0.124907,0.189033,-0.418476,0.178698,-0.189579,0.50779,-0.000482933,-0.139434,0.199372,-0.461644,0.193219,-0.224844,0.545032,0.0120338,-6.23076,-7.88821,-8.15332,21.6898,-1.72545,-0.263463,-0.0712183,-1.01966,-0.703383,-0.726279,3.01909,-0.652028,0.0677859,-0.208127
3623944,0.99,-1.57462,-0.515922,-0.0152541,-2.08958,-1.57752,1.58942,0.785871,-1.57608,-0.51569,-0.0174254,-2.08672,-1.57943,1.59132,0.785891,-0.126202,0.187463,-0.42385,0.182082,-0.19801,0.522766,0.0013406,-0.141307,0.201451,-0.467825,0.195314,-0.227726,0.552388,0.0121561,-6.17919,-7.96359,-8.15332,21.666,-1.71995,-0.392553,-0.116079,-1.01018,-0.698904,-0.70357,3.02011,-0.658882,0.0753358,-0.20716
3623945,0.99,-1.57477,-0.515721,-0.0157006,-2.08939,-1.57773,1.58999,0.785878,-1.57623,-0.515486,-0.0178994,-2.08652,-1.57966,1.59187,0.785903,-0.132894,0.19246,-0.431424,0.182185,-0.204228,0.536617,0.00679376,-0.143184,0.203507,-0.474009,0.197387,-0.230613,0.559748,0.0122759,-6.00463,-8.03897,-8.12951,21.7414,-1.74193,-0.475866,-0.149038,-0.996932,-0.690086,-0.675843,3.01872,-0.665469,0.0833462,-0.205999
3623946,0.99,-1.5749,-0.515517,-0.0161673,-2.08919,-1.57795,1.59054,0.785874,-1.57637,-0.515281,-0.0183796,-2.08632,-1.57989,1.59244,0.785916,-0.133274,0.196775,-0.440816,0.186185,-0.209475,0.54232,0.00203742,-0.145066,0.205539,-0.480195,0.199438,-0.233507,0.567111,0.012393,-6.00463,-8.14212,-8.05414,21.6422,-1.74834,-0.443822,-0.0712183,-0.981001,-0.68277,-0.644583,3.01783,-0.671907,0.0913841,-0.204721
3623947,0.99,-1.57504,-0.515306,-0.0166401,-2.089,-1.57817,1.59109,0.785872,-1.57652,-0.515073,-0.018866,-2.08612,-1.58013,1.59302,0.785928,-0.133941,0.203678,-0.446234,0.190838,-0.21335,0.542661,0.000667787,-0.146953,0.207548,-0.486382,0.201468,-0.236407,0.574478,0.0125076,-6.00463,-8.26907,-8.00256,21.6898,-1.75932,-0.32755,-0.044668,-0.963506,-0.684344,-0.61107,3.01986,-0.678349,0.099122,-0.203379
3623948,0.99,-1.57518,-0.515094,-0.0171082,-2.0888,-1.5784,1.59165,0.785877,-1.57667,-0.514864,-0.0193585,-2.08591,-1.58037,1.5936,0.785941,-0.133999,0.200042,-0.45141,0.19089,-0.217381,0.546335,0.000902187,-0.148844,0.209532,-0.492572,0.203474,-0.239312,0.581848,0.0126194,-6.00463,-8.32065,-8.05414,21.666,-1.74193,-0.269872,-0.0510767,-0.947766,-0.693608,-0.580166,3.02375,-0.684924,0.10619,-0.201955
3623949,0.99,-1.57531,-0.514885,-0.017592,-2.0886,-1.57863,1.59224,0.78588,-1.57682,-0.514652,-0.0198573,-2.08571,-1.58061,1.59419,0.785953,-0.135268,0.203518,-0.459086,0.190215,-0.220482,0.558838,0.00497519,-0.15074,0.211492,-0.498763,0.205458,-0.242225,0.589221,0.0127286,-6.10381,-8.34445,-8.10571,21.666,-1.71995,-0.333959,-0.0382593,-0.936161,-0.704018,-0.555561,3.02824,-0.69171,0.112475,-0.200413
3623950,0.99,-1.57545,-0.514671,-0.0180703,-2.08841,-1.57886,1.59284,0.785881,-1.57697,-0.514439,-0.020362,-2.0855,-1.58085,1.59478,0.785966,-0.139153,0.206992,-0.466833,0.188133,-0.22107,0.571978,0.00288121,-0.152504,0.213234,-0.504664,0.207263,-0.244864,0.596265,0.0128438,-6.10381,-8.39603,-8.12951,21.7414,-1.74193,-0.392553,-0.0126246,-0.928231,-0.717357,-0.53642,3.03639,-0.698783,0.118088,-0.198724
3623951,0.99,-1.5756,-0.514456,-0.0185557,-2.08821,-1.57909,1.59343,0.785889,-1.57712,-0.514224,-0.0208725,-2.08529,-1.5811,1.59539,0.785979,-0.145034,0.208389,-0.472209,0.189974,-0.22501,0.579027,0.00800571,-0.154273,0.214953,-0.510567,0.209045,-0.24751,0.603312,0.0129568,-6.10381,-8.39603,-8.2287,21.789,-1.78221,-0.359594,-0.0382593,-0.921767,-0.737995,-0.519702,3.05114,-0.706146,0.123267,-0.196859
3623952,0.99,-1.57575,-0.514246,-0.0190347,-2.08801,-1.57933,1.59403,0.785895,-1.57728,-0.514007,-0.021389,-2.08508,-1.58135,1.596,0.785992,-0.147032,0.206439,-0.470803,0.19172,-0.234318,0.584546,0.0109105,-0.156046,0.216649,-0.516471,0.210805,-0.250163,0.610362,0.0130674,-6.08001,-8.39603,-8.35565,21.8405,-1.7932,-0.379735,-0.044668,-0.917439,-0.759768,-0.507484,3.06887,-0.71369,0.127938,-0.194815
3623953,0.99,-1.5759,-0.514028,-0.0195342,-2.08782,-1.57958,1.59465,0.785895,-1.57744,-0.513789,-0.0219114,-2.08487,-1.5816,1.59661,0.786005,-0.143568,0.209593,-0.480596,0.194642,-0.237591,0.601242,0.0102696,-0.157825,0.218321,-0.522376,0.212543,-0.252822,0.617413,0.0131755,-6.13158,-8.47141,-8.38342,21.9635,-1.78221,-0.411779,0.0258276,-0.919311,-0.774977,-0.506114,3.08455,-0.721346,0.131533,-0.192635
3623954,0.99,-1.57603,-0.51381,-0.0200537,-2.08762,-1.57982,1.59528,0.7859,-1.5776,-0.513569,-0.0224397,-2.08466,-1.58186,1.59724,0.786019,-0.140678,0.21288,-0.490322,0.194034,-0.235787,0.609507,0.00767715,-0.159608,0.219969,-0.528282,0.214257,-0.255487,0.624468,0.0132812,-6.33391,-8.57059,-8.28027,22.0627,-1.75932,-0.495092,0.0322363,-0.928677,-0.786098,-0.516066,3.09871,-0.729145,0.133786,-0.190337
3623955,0.99,-1.57619,-0.513587,-0.0205549,-2.08741,-1.58006,1.59591,0.785902,-1.57776,-0.513347,-0.0229738,-2.08444,-1.58212,1.59787,0.786032,-0.146831,0.214016,-0.490997,0.201394,-0.238396,0.615249,0.00833929,-0.161395,0.221592,-0.53419,0.215949,-0.25816,0.631525,0.0133844,-6.30614,-8.62216,-8.30804,21.9873,-1.75383,-0.450231,0.09083,-0.943988,-0.796556,-0.534318,3.11235,-0.737081,0.134889,-0.187884
3623956,0.99,-1.57635,-0.513357,-0.0210635,-2.08721,-1.58031,1.59653,0.785918,-1.57792,-0.513124,-0.0235139,-2.08422,-1.58238,1.59851,0.786046,-0.154809,0.216498,-0.497416,0.200252,-0.24321,0.617433,0.007967,-0.163188,0.223191,-0.540098,0.217618,-0.260839,0.638584,0.013485,-6.15538,-8.74911,-8.4588,22.0389,-1.78221,-0.32755,0.0523779,-0.962218,-0.804323,-0.557602,3.12363,-0.745006,0.135332,-0.185205
3623957,0.99,-1.57651,-0.513129,-0.021578,-2.08699,-1.58055,1.59717,0.78592,-1.57809,-0.512899,-0.02406,-2.084,-1.58264,1.59916,0.786059,-0.157398,0.219014,-0.498189,0.20439,-0.250305,0.62621,0.00785167,-0.164986,0.224766,-0.546008,0.219263,-0.263525,0.645646,0.0135831,-6.13158,-8.89987,-8.4826,22.0151,-1.81608,-0.289098,0.129282,-0.980545,-0.809923,-0.582918,3.13292,-0.752826,0.1356,-0.18223
3623958,0.99,-1.57666,-0.512903,-0.0221004,-2.08679,-1.5808,1.59784,0.78593,-1.57825,-0.512673,-0.0246119,-2.08378,-1.58291,1.59981,0.786073,-0.156723,0.221738,-0.505891,0.202908,-0.243642,0.635805,0.00617516,-0.166789,0.226315,-0.551919,0.220884,-0.266218,0.65271,0.0136785,-6.23076,-8.97525,-8.40722,22.1897,-1.83806,-0.321141,0.129282,-1.00011,-0.816781,-0.61191,3.14247,-0.760664,0.13563,-0.178922
3623959,0.99,-1.57682,-0.51268,-0.0226398,-2.08658,-1.58105,1.5985,0.785946,-1.57842,-0.512445,-0.0251697,-2.08356,-1.58318,1.60047,0.786087,-0.161577,0.220958,-0.515027,0.204017,-0.243675,0.651043,0.00695854,-0.168597,0.227838,-0.557831,0.222481,-0.268919,0.659777,0.0137711,-6.10381,-9.05063,-8.30804,22.2611,-1.84996,-0.437413,0.071604,-1.02063,-0.826118,-0.643388,3.15407,-0.768647,0.135562,-0.175265
3623960,0.99,-1.57699,-0.512455,-0.0231708,-2.08637,-1.5813,1.59917,0.785958,-1.57859,-0.512216,-0.0257331,-2.08334,-1.58345,1.60113,0.786101,-0.163901,0.223075,-0.51644,0.203026,-0.249401,0.650011,0.00588025,-0.170274,0.229109,-0.563438,0.223863,-0.271318,0.666468,0.0138725,-6.00463,-9.1022,-8.28027,22.2889,-1.83806,-0.392553,0.0523779,-1.03983,-0.836194,-0.673691,3.16817,-0.776787,0.135768,-0.171269
3623961,0.99,-1.57716,-0.512228,-0.0237152,-2.08615,-1.58157,1.59984,0.785965,-1.57877,-0.511986,-0.0263022,-2.08311,-1.58372,1.60181,0.786114,-0.165407,0.224392,-0.521273,0.204575,-0.25361,0.655936,0.0033676,-0.171955,0.230357,-0.569045,0.225222,-0.273724,0.67316,0.0139717,-5.92925,-9.15378,-8.10571,22.3603,-1.81608,-0.359594,0.0780126,-1.05875,-0.84653,-0.704631,3.18484,-0.785126,0.136066,-0.167007
3623962,0.99,-1.57734,-0.511992,-0.0242531,-2.08594,-1.58183,1.60052,0.785985,-1.57894,-0.511754,-0.0268768,-2.08288,-1.584,1.60249,0.786129,-0.167123,0.231287,-0.529502,0.208511,-0.2569,0.66328,0.00995077,-0.173642,0.23158,-0.574653,0.226558,-0.276138,0.679854,0.0140687,-5.8261,-9.30453,-8.12951,22.4356,-1.80418,-0.40537,0.00660151,-1.07806,-0.860398,-0.736934,3.20442,-0.793648,0.136277,-0.162572
3623963,0.99,-1.57752,-0.511756,-0.0248101,-2.08572,-1.58209,1.60123,0.785992,-1.57911,-0.511521,-0.0274571,-2.08266,-1.58428,1.60317,0.786143,-0.16758,0.231417,-0.542506,0.211129,-0.25414,0.670793,0.00941567,-0.175333,0.232779,-0.580261,0.227871,-0.278559,0.686549,0.0141633,-5.75072,-9.37991,-8.12951,22.388,-1.79869,-0.507909,0.071604,-1.09448,-0.880378,-0.764902,3.2263,-0.802169,0.136798,-0.158071
3623964,0.99,-1.57768,-0.511513,-0.0253813,-2.0855,-1.58235,1.60192,0.786003,-1.57929,-0.511288,-0.028043,-2.08243,-1.58456,1.60387,0.786157,-0.163286,0.233227,-0.548634,0.213719,-0.255435,0.672612,0.00617357,-0.17703,0.233953,-0.585869,0.229159,-0.280987,0.693245,0.0142556,-5.87767,-9.53067,-7.97876,22.4356,-1.81608,-0.507909,0.0972387,-1.10592,-0.903116,-0.784755,3.24828,-0.810508,0.137908,-0.153613
3623965,0.99,-1.57786,-0.511269,-0.0259472,-2.08528,-1.5826,1.60261,0.786016,-1.57947,-0.511052,-0.0286344,-2.0822,-1.58484,1.60457,0.786171,-0.16416,0.23845,-0.550666,0.220758,-0.256679,0.673736,0.00986876,-0.178732,0.235103,-0.591477,0.230424,-0.283423,0.699943,0.0143456,-5.8261,-9.7092,-7.95099,22.3603,-1.84447,-0.411779,0.0844213,-1.1161,-0.925722,-0.801939,3.26801,-0.818663,0.138995,-0.149225
3623966,0.99,-1.57804,-0.511031,-0.0265214,-2.08506,-1.58287,1.6033,0.786038,-1.57965,-0.510816,-0.0292315,-2.08196,-1.58513,1.60527,0.786186,-0.17257,0.238722,-0.555836,0.218263,-0.262241,0.677413,0.0151136,-0.180438,0.236227,-0.597085,0.231665,-0.285867,0.706641,0.0144331,-5.72692,-9.76077,-8.00256,22.388,-1.86644,-0.333959,0.00660151,-1.12741,-0.949277,-0.820911,3.28543,-0.82672,0.139641,-0.144865
3623967,0.99,-1.57822,-0.510792,-0.0271029,-2.08483,-1.58315,1.60401,0.786053,-1.57983,-0.510579,-0.0298342,-2.08173,-1.58542,1.60599,0.7862,-0.174256,0.240027,-0.566103,0.221326,-0.266507,0.68876,0.0172339,-0.18215,0.237327,-0.602693,0.232882,-0.288318,0.713341,0.0145181,-5.8023,-9.83615,-7.92718,22.3365,-1.90031,-0.359594,-0.0318506,-1.13612,-0.973005,-0.837146,3.30176,-0.834648,0.140427,-0.140543
3623968,0.99,-1.5784,-0.510552,-0.0276799,-2.08462,-1.58341,1.60473,0.786066,-1.58002,-0.51034,-0.0304425,-2.0815,-1.58571,1.60671,0.786215,-0.172049,0.236178,-0.563256,0.222612,-0.263827,0.697783,0.0172013,-0.183867,0.238401,-0.608301,0.234074,-0.290777,0.720041,0.0146006,-5.90545,-9.83615,-7.87561,22.3365,-1.96257,-0.411779,-0.0254419,-1.14286,-0.990996,-0.851716,3.31532,-0.842448,0.141363,-0.136383
3623969,0.99,-1.57858,-0.510318,-0.0282601,-2.08439,-1.58369,1.60544,0.78608,-1.5802,-0.510101,-0.0310564,-2.08126,-1.586,1.60743,0.78623,-0.173616,0.238037,-0.564045,0.221437,-0.269468,0.707698,0.0174288,-0.185589,0.23945,-0.613909,0.235242,-0.293244,0.726743,0.0146806,-5.87767,-9.76077,-7.97876,22.4118,-1.93419,-0.533544,-0.0254419,-1.15571,-0.998339,-0.87648,3.32443,-0.850384,0.141312,-0.132523
3623970,0.99,-1.57876,-0.510073,-0.0288434,-2.08416,-1.58398,1.60616,0.786092,-1.58039,-0.509861,-0.0316756,-2.08103,-1.5863,1.60817,0.786244,-0.173032,0.240041,-0.56708,0.225527,-0.274148,0.701442,0.0169188,-0.187192,0.240222,-0.619162,0.236169,-0.295398,0.732955,0.0147714,-5.92925,-9.83615,-7.95099,22.3127,-1.90581,-0.475866,-0.00621587,-1.17897,-0.998092,-0.917569,3.33087,-0.858717,0.139613,-0.129003
3623971,0.99,-1.57894,-0.509822,-0.0294416,-2.08394,-1.58427,1.60686,0.7861,-1.58058,-0.50962,-0.0323,-2.08079,-1.58659,1.60891,0.786259,-0.176751,0.2413,-0.579702,0.226162,-0.282654,0.720574,0.0155085,-0.1888,0.24097,-0.624415,0.237073,-0.29756,0.739168,0.0148602,-5.95305,-9.93533,-7.92718,22.2889,-1.86094,-0.386144,0.0459692,-1.20818,-0.994578,-0.967707,3.33589,-0.867325,0.136841,-0.125805
3623972,0.99,-1.57912,-0.509581,-0.0300389,-2.08371,-1.58456,1.60758,0.78611,-1.58077,-0.509378,-0.0329297,-2.08055,-1.58689,1.60965,0.786274,-0.17501,0.246553,-0.584493,0.227308,-0.283156,0.724377,0.0150426,-0.190412,0.241694,-0.629666,0.237954,-0.29973,0.74538,0.0149468,-6.02843,-9.98691,-8.07794,22.2135,-1.84447,-0.379735,0.0844213,-1.23706,-0.99299,-1.01657,3.34158,-0.875966,0.133808,-0.122859
3623973,0.99,-1.5793,-0.509331,-0.0306442,-2.08348,-1.58485,1.60833,0.786132,-1.58096,-0.509136,-0.0335646,-2.08031,-1.58719,1.6104,0.786289,-0.17601,0.246819,-0.583223,0.225088,-0.288548,0.724271,0.0185771,-0.19203,0.242394,-0.634916,0.238811,-0.301908,0.751592,0.0150313,-6.10381,-10.0901,-8.07794,22.1619,-1.82707,-0.431005,0.0194189,-1.26641,-0.999856,-1.06481,3.35167,-0.884695,0.130495,-0.12004
3623974,0.99,-1.57947,-0.509083,-0.0312746,-2.08326,-1.58514,1.60906,0.78614,-1.58115,-0.508893,-0.0342048,-2.08007,-1.5875,1.61116,0.786304,-0.177107,0.246703,-0.602134,0.224378,-0.285584,0.733763,0.0128969,-0.193652,0.24307,-0.640166,0.239644,-0.304094,0.757804,0.0151136,-6.20696,-10.1892,-7.95099,22.1897,-1.84996,-0.482274,0.0459692,-1.29605,-1.01487,-1.11216,3.36731,-0.893506,0.127165,-0.11725
3623975,0.99,-1.57966,-0.508851,-0.0318782,-2.08302,-1.58544,1.60981,0.786153,-1.58135,-0.508649,-0.0348502,-2.07983,-1.5878,1.61192,0.786319,-0.179805,0.242538,-0.605582,0.228564,-0.289405,0.730818,0.0144146,-0.195279,0.243721,-0.645414,0.240453,-0.306288,0.764016,0.0151937,-6.10381,-10.1139,-7.97876,22.1619,-1.86094,-0.533544,0.0459692,-1.31938,-1.02838,-1.14874,3.3841,-0.902024,0.124977,-0.114494
3623976,0.99,-1.57986,-0.508604,-0.0325093,-2.08279,-1.58574,1.61057,0.786171,-1.58155,-0.508405,-0.0355008,-2.07959,-1.58811,1.61269,0.786335,-0.186955,0.24561,-0.612852,0.229004,-0.291928,0.737597,0.017948,-0.196912,0.244347,-0.650661,0.241238,-0.308491,0.770227,0.0152714,-5.90545,-10.1654,-7.90338,22.1143,-1.87193,-0.560094,-0.0190333,-1.33312,-1.03156,-1.17045,3.39635,-0.909971,0.124451,-0.111793
3623977,0.99,-1.58004,-0.508362,-0.0331544,-2.08255,-1.58605,1.61133,0.786194,-1.58174,-0.50816,-0.0361567,-2.07935,-1.58842,1.61347,0.78635,-0.185251,0.242582,-0.622855,0.228198,-0.293411,0.749764,0.0210303,-0.19855,0.244949,-0.655907,0.241999,-0.310702,0.776437,0.0153467,-5.85387,-10.1139,-7.72485,22.0905,-1.90031,-0.533544,-0.103262,-1.33762,-1.02484,-1.17839,3.40388,-0.917367,0.125312,-0.109168
3623978,0.99,-1.58021,-0.50812,-0.0337912,-2.08232,-1.58635,1.61209,0.786199,-1.58195,-0.507914,-0.0368179,-2.07911,-1.58874,1.61425,0.786365,-0.181526,0.240293,-0.624213,0.234869,-0.299754,0.749858,0.0172108,-0.200192,0.245526,-0.661152,0.242735,-0.312921,0.782647,0.0154197,-5.98082,-10.1892,-7.54632,22.1143,-1.91771,-0.533544,-0.0254419,-1.33701,-1.006,-1.1784,3.40518,-0.924285,0.126746,-0.106735
3623979,0.99,-1.58041,-0.507877,-0.0344338,-2.08208,-1.58667,1.61287,0.786211,-1.58215,-0.507668,-0.0374843,-2.07886,-1.58905,1.61504,0.786381,-0.189081,0.24052,-0.631789,0.234195,-0.301465,0.757395,0.0169293,-0.20184,0.246077,-0.666395,0.243446,-0.315149,0.788855,0.0154902,-5.87767,-10.2408,-7.54632,22.0627,-1.87834,-0.585729,-0.00621587,-1.33609,-0.970989,-1.17778,3.39693,-0.930788,0.128027,-0.104614
3623980,0.99,-1.5806,-0.507636,-0.0350864,-2.08185,-1.58698,1.61364,0.786232,-1.58235,-0.507422,-0.0381554,-2.07862,-1.58937,1.61584,0.786397,-0.189409,0.240699,-0.6367,0.22926,-0.301423,0.766726,0.0183302,-0.2033,0.246349,-0.671111,0.243913,-0.317061,0.794463,0.0155744,-5.85387,-10.2646,-7.37176,22.0627,-1.88383,-0.604955,-0.0318506,-1.33457,-0.926671,-1.17627,3.3837,-0.937083,0.129109,-0.102788
3623981,0.99,-1.5808,-0.507387,-0.0357488,-2.08161,-1.58728,1.61444,0.786249,-1.58256,-0.507175,-0.0388312,-2.07837,-1.58969,1.61664,0.786412,-0.190876,0.242787,-0.645099,0.229539,-0.30689,0.773302,0.0200726,-0.204764,0.246598,-0.675824,0.244357,-0.318981,0.80007,0.0156565,-5.77849,-10.3678,-7.32019,22.0151,-1.86094,-0.617772,-0.077627,-1.33198,-0.884504,-1.17259,3.37344,-0.943431,0.129878,-0.101175
3623982,0.99,-1.58099,-0.507139,-0.0364288,-2.08137,-1.5876,1.61521,0.78627,-1.58276,-0.506928,-0.0395118,-2.07813,-1.59001,1.61744,0.786428,-0.191278,0.246589,-0.651206,0.233642,-0.310976,0.781134,0.0208104,-0.206234,0.246825,-0.680535,0.244779,-0.320909,0.805675,0.0157365,-5.72692,-10.4431,-7.16546,21.9159,-1.82707,-0.572911,-0.10967,-1.32882,-0.851674,-1.16673,3.36864,-0.949861,0.130126,-0.0997512
3623983,0.99,-1.58119,-0.506896,-0.0370938,-2.08112,-1.58792,1.616,0.786292,-1.58297,-0.506681,-0.040197,-2.07788,-1.59033,1.61825,0.786444,-0.192341,0.243896,-0.651587,0.240207,-0.314189,0.773955,0.0259573,-0.207707,0.247029,-0.685244,0.245179,-0.322845,0.811278,0.0158144,-5.62774,-10.4154,-7.09009,21.8167,-1.80418,-0.456639,-0.149038,-1.32666,-0.825588,-1.16127,3.36457,-0.95621,0.129692,-0.0985769
3623984,0.99,-1.5814,-0.506651,-0.0377887,-2.08087,-1.58824,1.61679,0.786307,-1.58318,-0.506434,-0.040887,-2.07764,-1.59066,1.61907,0.78646,-0.196312,0.241953,-0.668159,0.2369,-0.3138,0.794566,0.027264,-0.209186,0.24721,-0.689951,0.245555,-0.32479,0.816879,0.0158902,-5.57616,-10.4154,-6.78857,21.789,-1.84447,-0.398961,-0.10967,-1.32448,-0.796785,-1.15535,3.35543,-0.962227,0.128958,-0.0977583
3623985,0.99,-1.5816,-0.506406,-0.0384828,-2.08063,-1.58855,1.61759,0.786315,-1.58339,-0.506187,-0.0415816,-2.07739,-1.59098,1.61989,0.786476,-0.197954,0.243048,-0.670967,0.237615,-0.312784,0.801937,0.0211862,-0.210669,0.247368,-0.694657,0.245909,-0.326743,0.822478,0.0159637,-5.52459,-10.4908,-6.53467,21.7652,-1.91771,-0.353185,-0.00621587,-1.31792,-0.763356,-1.14243,3.34234,-0.967793,0.128696,-0.0973523
3623986,0.99,-1.58182,-0.506166,-0.0391709,-2.08038,-1.58886,1.61842,0.786334,-1.5836,-0.505939,-0.042281,-2.07715,-1.59131,1.62072,0.786492,-0.204154,0.244512,-0.666758,0.242132,-0.313413,0.807314,0.0211557,-0.212157,0.247503,-0.699359,0.24624,-0.328704,0.828076,0.0160349,-5.27465,-10.4669,-6.40771,21.7176,-1.96257,-0.418187,-0.0126246,-1.30959,-0.729526,-1.12667,3.3278,-0.973124,0.128645,-0.0972823
3623987,0.99,-1.58205,-0.505922,-0.0398743,-2.08013,-1.58919,1.61924,0.786357,-1.58381,-0.505692,-0.042985,-2.0769,-1.59164,1.62156,0.786508,-0.212699,0.240468,-0.673773,0.242843,-0.315137,0.815695,0.0229597,-0.21365,0.247615,-0.70406,0.246548,-0.330674,0.833671,0.0161038,-4.96917,-10.4908,-6.22918,21.6422,-1.96257,-0.488683,-0.0712183,-1.30288,-0.693485,-1.11453,3.30978,-0.978425,0.128463,-0.097388
3623988,0.99,-1.58225,-0.505679,-0.0405779,-2.07988,-1.58952,1.62006,0.786381,-1.58403,-0.505444,-0.0436938,-2.07665,-1.59198,1.62239,0.786524,-0.209525,0.241397,-0.674766,0.245698,-0.319109,0.815767,0.0239353,-0.215147,0.247703,-0.708758,0.246832,-0.332653,0.839264,0.0161704,-5.07232,-10.5423,-5.95147,21.6144,-1.90031,-0.450231,-0.128897,-1.29672,-0.650569,-1.10513,3.28604,-0.983752,0.128335,-0.0975639
3623989,0.99,-1.58248,-0.505436,-0.041299,-2.07963,-1.58984,1.62089,0.786396,-1.58425,-0.505196,-0.0444072,-2.07641,-1.59231,1.62324,0.78654,-0.21211,0.240578,-0.690142,0.246244,-0.321453,0.826699,0.0218828,-0.216649,0.247767,-0.713454,0.247092,-0.334641,0.844854,0.0162344,-4.99694,-10.5701,-5.72534,21.6422,-1.84996,-0.411779,-0.116079,-1.28985,-0.601695,-1.09556,3.25734,-0.98912,0.128358,-0.0978158
3623990,0.99,-1.5827,-0.50519,-0.042008,-2.07938,-1.59018,1.62173,0.786418,-1.58446,-0.504949,-0.0451248,-2.07616,-1.59265,1.62409,0.786556,-0.215098,0.241166,-0.696491,0.246278,-0.32774,0.830908,0.022581,-0.217919,0.247557,-0.717519,0.247107,-0.336279,0.849761,0.0163167,-4.86998,-10.6177,-5.77295,21.666,-1.79869,-0.507909,-0.155447,-1.2779,-0.551032,-1.07779,3.22647,-0.994381,0.129089,-0.0981977
3623991,0.99,-1.5829,-0.504936,-0.0427313,-2.07913,-1.59051,1.62256,0.786432,-1.58468,-0.504701,-0.0458463,-2.07591,-1.59298,1.62494,0.786573,-0.207992,0.24582,-0.702316,0.251056,-0.324202,0.835505,0.0187245,-0.219193,0.247327,-0.721581,0.247101,-0.337925,0.854665,0.016397,-5.09612,-10.7209,-5.64996,21.666,-1.84447,-0.533544,-0.0840357,-1.26089,-0.5047,-1.05066,3.19642,-0.999473,0.130463,-0.098753
3623992,0.99,-1.58312,-0.504689,-0.0434522,-2.07887,-1.59085,1.62338,0.786443,-1.5849,-0.504454,-0.046572,-2.07566,-1.59332,1.6258,0.786589,-0.207781,0.242121,-0.705231,0.251206,-0.327011,0.828856,0.0158325,-0.220471,0.247076,-0.72564,0.247075,-0.339578,0.859566,0.0164753,-5.1715,-10.7962,-5.72534,21.666,-1.85545,-0.398961,-0.00621587,-1.24537,-0.465748,-1.02313,3.16794,-1.00451,0.131513,-0.0994954
3623993,0.99,-1.58334,-0.504441,-0.0441656,-2.07861,-1.59119,1.62422,0.786467,-1.58513,-0.504207,-0.0473017,-2.07542,-1.59367,1.62667,0.786606,-0.214012,0.243459,-0.704953,0.252844,-0.33769,0.829986,0.0180602,-0.221753,0.246805,-0.729697,0.247028,-0.341241,0.864464,0.0165515,-5.11992,-10.8954,-5.8999,21.6144,-1.84996,-0.301915,-0.0382593,-1.23466,-0.430211,-1.00084,3.13958,-1.00952,0.131877,-0.100336
3623994,0.99,-1.58354,-0.504201,-0.0448992,-2.07836,-1.59154,1.62508,0.786491,-1.58535,-0.503961,-0.0480354,-2.07517,-1.59401,1.62754,0.786623,-0.208001,0.242476,-0.709638,0.252696,-0.338742,0.83364,0.0200997,-0.223039,0.246514,-0.73375,0.246961,-0.342911,0.869358,0.0166256,-5.47301,-10.9232,-5.8761,21.6144,-1.83256,-0.392553,-0.0840357,-1.23004,-0.396261,-0.9866,3.11133,-1.01453,0.131527,-0.101126
3623995,0.99,-1.58374,-0.503961,-0.0456406,-2.07811,-1.59189,1.62593,0.78651,-1.58557,-0.503715,-0.0487732,-2.07492,-1.59435,1.62841,0.786639,-0.205337,0.242542,-0.718613,0.251245,-0.342539,0.845875,0.0197606,-0.224329,0.246201,-0.7378,0.246874,-0.344589,0.87425,0.0166975,-5.67534,-10.9748,-5.80072,21.6422,-1.85545,-0.495092,-0.0840357,-1.23306,-0.36582,-0.981795,3.08512,-1.01962,0.130328,-0.101812
3623996,0.99,-1.58396,-0.503728,-0.0463626,-2.07785,-1.59223,1.6268,0.786528,-1.5858,-0.503469,-0.0495151,-2.07468,-1.5947,1.62929,0.786656,-0.208405,0.240728,-0.708295,0.254535,-0.341353,0.850372,0.0189479,-0.225624,0.245869,-0.741847,0.246765,-0.346276,0.879138,0.0167672,-5.65154,-10.947,-5.8999,21.6422,-1.87193,-0.533544,-0.0712183,-1.24635,-0.338381,-0.989704,3.06121,-1.02484,0.12784,-0.102436
3623997,0.99,-1.58418,-0.503488,-0.0470931,-2.0776,-1.59258,1.62765,0.786553,-1.58603,-0.503223,-0.050261,-2.07443,-1.59505,1.63017,0.786673,-0.215959,0.23722,-0.71329,0.25377,-0.342893,0.858362,0.0208781,-0.226923,0.245515,-0.745891,0.246636,-0.347972,0.884022,0.0168345,-5.50078,-10.9748,-6.02685,21.6422,-1.93419,-0.507909,-0.128897,-1.27158,-0.308403,-1.01418,3.0366,-1.03022,0.123699,-0.10305
