shamilmamedov/beam_handling/data/vibration_suppression_ICRA/OCP_T2_0.46s.csv
duration, success rate, q[0], q[1], q[2], q[3], q[4], q[5], q[6],q_d[0], q_d[1], q_d[2], q_d[3], q_d[4], q_d[5], q_d[6],dq[0], dq[1], dq[2], dq[3], dq[4], dq[5], dq[6],dq_d[0], dq_d[1], dq_d[2], dq_d[3], dq_d[4], dq_d[5], dq_d[6],tau_J[0], tau_J[1], tau_J[2], tau_J[3], tau_J[4], tau_J[5], tau_J[6],tau_ext_hat_filtered[0], tau_ext_hat_filtered[1], tau_ext_hat_filtered[2], tau_ext_hat_filtered[3], tau_ext_hat_filtered[4], tau_ext_hat_filtered[5], tau_ext_hat_filtered[6]
806559,0,-1.57061,-0.523274,0.000201236,-2.09518,-0.000290802,1.57037,0.785644,-1.5708,-0.523599,4.81062e-09,-2.0944,1.95346e-08,1.5708,0.785398,0.00137987,0.000892109,6.96513e-05,0.00191652,-0.000472115,-1.99527e-05,0.00087586,0,0,0,0,0,0,0,-0.529774,-10.0901,-1.09155,21.0431,1.45235,2.41537,-0.310171,-0.474333,-0.937309,-0.609126,2.57453,0.73025,0.743725,-0.286797
806560,1,-1.57061,-0.52328,0.000201236,-2.09519,-0.000288971,1.57037,0.785644,-1.5708,-0.523599,4.81062e-09,-2.0944,1.95346e-08,1.5708,0.785398,0.000363103,-0.0012613,4.64342e-05,7.12561e-05,0.000262448,0.000224057,0.000821265,0,0,0,0,0,0,0,-0.50597,-10.0107,-1.09155,21.0947,1.43587,2.40896,-0.31658,-0.474537,-0.937875,-0.609111,2.5742,0.730175,0.743643,-0.286851
806561,1,-1.57062,-0.523276,0.000202906,-2.09519,-0.000290191,1.57037,0.785639,-1.5708,-0.523599,4.81062e-09,-2.0944,1.95346e-08,1.5708,0.785398,-0.000407545,0.000365559,0.000587768,4.75041e-05,-0.000256806,-8.79875e-05,-0.00135136,0,0,0,0,0,0,0,-0.478199,-10.0623,-1.11535,21.0947,1.44686,2.41537,-0.26531,-0.475509,-0.936577,-0.610183,2.57289,0.730066,0.743487,-0.286935
806562,1,-1.57062,-0.523276,0.000201236,-2.09519,-0.000289581,1.57036,0.785634,-1.5708,-0.523599,4.81062e-09,-2.0944,1.95346e-08,1.5708,0.785398,-0.000828508,0.000243706,-0.000164967,3.16694e-05,1.35943e-05,-0.000329926,-0.00137563,0,0,0,0,0,0,0,-0.454395,-10.0623,-1.09155,21.0947,1.44136,2.42269,-0.252493,-0.47628,-0.935726,-0.611109,2.57207,0.729997,0.743398,-0.287054
806563,1,-1.57062,-0.523278,0.000197617,-2.09518,-0.000290191,1.57037,0.785639,-1.5708,-0.523599,4.81062e-09,-2.0944,1.95346e-08,1.5708,0.785398,4.47301e-06,-0.000394341,-0.0013164,0.000577925,-0.000208377,5.13169e-05,3.23521e-05,0,0,0,0,0,0,0,-0.478199,-10.0385,-1.03998,21.0709,1.44686,2.41537,-0.278127,-0.476117,-0.935625,-0.610733,2.57166,0.729986,0.743357,-0.287166
806564,1,-1.57062,-0.523278,0.000199287,-2.09519,-0.000290191,1.57037,0.785645,-1.5708,-0.523599,4.81062e-09,-2.0944,1.95346e-08,1.5708,0.785398,-0.00055383,-0.000262894,-0.00032079,-0.000171529,-0.00014941,3.42113e-05,0.00168308,0,0,0,0,0,0,0,-0.454395,-10.0385,-1.06378,21.0947,1.44686,2.41537,-0.322988,-0.475022,-0.934903,-0.60893,2.57094,0.730013,0.74331,-0.287232
806565,1,-1.57062,-0.523276,0.000202906,-2.09519,-0.000290191,1.57037,0.785643,-1.5708,-0.523599,4.81062e-09,-2.0944,1.95346e-08,1.5708,0.785398,0.000187592,0.000381549,0.000992566,0.000442459,-0.000107476,0.000260166,0.000647336,0,0,0,0,0,0,0,-0.478199,-10.0623,-1.11535,21.0709,1.44686,2.40896,-0.310171,-0.474177,-0.934159,-0.607518,2.57027,0.730028,0.743278,-0.287257
806566,1,-1.57061,-0.52328,0.000197157,-2.09518,-0.000290191,1.57037,0.785643,-1.5708,-0.523599,4.81062e-09,-2.0944,1.95346e-08,1.5708,0.785398,0.000774675,-0.00095206,-0.000544715,0.000294973,-7.75523e-05,-6.39146e-05,0.000194198,0,0,0,0,0,0,0,-0.50597,-10.0107,-1.06378,21.0709,1.44686,2.41537,-0.303762,-0.474448,-0.933379,-0.607761,2.56956,0.729992,0.743245,-0.287288
806567,1,-1.57062,-0.523276,0.000200066,-2.09519,-0.000292734,1.57036,0.785641,-1.5708,-0.523599,4.81062e-09,-2.0944,1.95346e-08,1.5708,0.785398,-0.000689975,0.000571719,0.000843282,-0.000916975,-0.000903838,-0.000313877,-0.000582611,0,0,0,0,0,0,0,-0.454395,-10.0623,-1.11535,21.1185,1.46974,2.42269,-0.284536,-0.475319,-0.932566,-0.608866,2.56902,0.729941,0.743241,-0.28736
806568,1,-1.57062,-0.523274,0.00019834,-2.09519,-0.000290191,1.57037,0.785645,-1.5708,-0.523599,4.81062e-09,-2.0944,1.95346e-08,1.5708,0.785398,9.68283e-05,0.00103076,-0.000644238,-0.00116813,0.000241832,0.000299375,0.00103575,0,0,0,0,0,0,0,-0.478199,-10.0901,-1.06378,21.1423,1.44686,2.40896,-0.322988,-0.476032,-0.934345,-0.60981,2.57024,0.729956,0.743409,-0.28747
806569,1,-1.57062,-0.523276,0.000198971,-2.09519,-0.000290802,1.57037,0.785644,-1.5708,-0.523599,4.81062e-09,-2.0944,1.95346e-08,1.5708,0.785398,-0.00049226,3.75595e-05,-0.000429492,-0.000221941,-4.47191e-05,-3.77757e-05,0.00021578,0,0,0,0,0,0,0,-0.454395,-10.0623,-1.06378,21.1185,1.45235,2.41537,-0.310171,-0.476113,-0.93877,-0.609853,2.57305,0.730059,0.743716,-0.287616
806570,1,-1.57062,-0.523276,0.000197511,-2.09519,-0.000289581,1.57037,0.785645,-1.5708,-0.523599,4.81062e-09,-2.0944,1.95346e-08,1.5708,0.785398,0.000228639,2.50397e-05,-0.00084314,0.000408852,0.000375221,0.000212175,0.000618571,0,0,0,0,0,0,0,-0.478199,-10.0623,-1.03998,21.0947,1.44136,2.40896,-0.322988,-0.475509,-0.942485,-0.608828,2.5753,0.730203,0.743961,-0.287815
806571,1,-1.57062,-0.523276,0.000199252,-2.09519,-0.000290802,1.57036,0.785641,-1.5708,-0.523599,4.81062e-09,-2.0944,1.95346e-08,1.5708,0.785398,0.000152426,1.66931e-05,-5.28127e-06,0.000272568,-0.000158154,-0.000367176,-0.000774414,0,0,0,0,0,0,0,-0.478199,-10.0623,-1.06378,21.0947,1.45235,2.42269,-0.290945,-0.474806,-0.944131,-0.607566,2.5761,0.730329,0.744058,-0.288079
806572,1,-1.57062,-0.523276,0.000202895,-2.09519,-0.000291412,1.57037,0.785638,-1.5708,-0.523599,4.81062e-09,-2.0944,1.95346e-08,1.5708,0.785398,0.000101617,1.11287e-05,0.00120291,-0.0003751,-0.000309937,0.000263842,-0.00170307,0,0,0,0,0,0,0,-0.478199,-10.0623,-1.11535,21.1185,1.45784,2.40896,-0.258901,-0.474896,-0.944586,-0.607466,2.57617,0.730408,0.744078,-0.288391
806573,1,-1.57062,-0.523276,0.000201232,-2.09519,-0.000290802,1.57036,0.785639,-1.5708,-0.523599,4.81062e-09,-2.0944,1.95346e-08,1.5708,0.785398,6.77448e-05,7.41916e-06,0.000245125,-0.000250067,-3.962e-06,-0.000332732,-0.000660663,0,0,0,0,0,0,0,-0.478199,-10.0623,-1.09155,21.1185,1.45235,2.42269,-0.271719,-0.476009,-0.944748,-0.608967,2.57626,0.730451,0.744103,-0.288706
806574,1,-1.57062,-0.523278,0.000197615,-2.09518,-0.000290191,1.57036,0.785644,-1.5708,-0.523599,4.81062e-09,-2.0944,1.95346e-08,1.5708,0.785398,4.51632e-05,-0.000551866,-0.00104301,0.000946913,0.000200218,-0.000221821,0.00122107,0,0,0,0,0,0,0,-0.478199,-10.0385,-1.03998,21.0709,1.44686,2.42269,-0.31658,-0.477025,-0.944084,-0.610325,2.57592,0.730501,0.744094,-0.288975
806575,1,-1.57061,-0.523278,0.000199287,-2.09519,-0.000290802,1.57036,0.785644,-1.5708,-0.523599,4.81062e-09,-2.0944,1.95346e-08,1.5708,0.785398,0.000679722,-0.000367911,-0.000138528,7.44632e-05,-7.04148e-05,-0.000147881,0.000576688,0,0,0,0,0,0,0,-0.50597,-10.0385,-1.06378,21.0947,1.45235,2.42269,-0.310171,-0.477319,-0.941803,-0.610472,2.57452,0.730565,0.743999,-0.289192
806576,1,-1.57062,-0.523276,0.000201236,-2.09519,-0.000290191,1.57037,0.785641,-1.5708,-0.523599,4.81062e-09,-2.0944,1.95346e-08,1.5708,0.785398,-0.000753277,0.000311538,0.000557262,4.96421e-05,0.000156175,0.00017268,-0.000564977,0,0,0,0,0,0,0,-0.454395,-10.0623,-1.09155,21.0947,1.44686,2.41537,-0.284536,-0.477499,-0.939312,-0.61039,2.57296,0.730634,0.743901,-0.289387
806577,1,-1.57062,-0.523276,0.000201236,-2.09519,-0.000290802,1.57037,0.785639,-1.5708,-0.523599,4.81062e-09,-2.0944,1.95346e-08,1.5708,0.785398,-0.000502185,0.000207692,0.000371508,3.30948e-05,-9.95831e-05,0.00011512,-0.000851369,0,0,0,0,0,0,0,-0.454395,-10.0623,-1.09155,21.0947,1.45235,2.41537,-0.271719,-0.477745,-0.938241,-0.610545,2.57215,0.73072,0.743879,-0.289579
806578,1,-1.57062,-0.523278,0.000201236,-2.09519,-0.000290191,1.57037,0.785638,-1.5708,-0.523599,4.81062e-09,-2.0944,1.95346e-08,1.5708,0.785398,-0.00033479,-0.000418351,0.000247672,-0.00109156,0.000136875,7.67468e-05,-0.0010423,0,0,0,0,0,0,0,-0.454395,-10.0385,-1.09155,21.1423,1.44686,2.41537,-0.258901,-0.477873,-0.938301,-0.610703,2.57215,0.730832,0.743942,-0.28975
806579,1,-1.57061,-0.523276,0.000202906,-2.09519,-0.00028836,1.57037,0.785637,-1.5708,-0.523599,4.81062e-09,-2.0944,1.95346e-08,1.5708,0.785398,0.000983232,0.000277912,0.000721927,-0.000170895,0.000701461,5.11645e-05,-0.000932224,0,0,0,0,0,0,0,-0.50597,-10.0623,-1.11535,21.1185,1.43038,2.41537,-0.252493,-0.478355,-0.938913,-0.611431,2.57284,0.730939,0.744087,-0.289866
806580,1,-1.57062,-0.523278,0.000201236,-2.09519,-0.000288971,1.57037,0.785641,-1.5708,-0.523599,4.81062e-09,-2.0944,1.95346e-08,1.5708,0.785398,-0.000550937,-0.000371538,-7.55275e-05,0.000442882,0.000264085,0.000271469,0.000802671,0,0,0,0,0,0,0,-0.454395,-10.0385,-1.09155,21.0947,1.43587,2.40896,-0.290945,-0.479285,-0.939424,-0.612802,2.57349,0.731,0.744221,-0.289893
806581,1,-1.57062,-0.523278,0.000197157,-2.09519,-0.000288971,1.57037,0.785644,-1.5708,-0.523599,4.81062e-09,-2.0944,1.95346e-08,1.5708,0.785398,-0.000367291,-0.000247692,-0.000699966,-0.000261557,0.000175978,-5.63799e-05,0.00148455,0,0,0,0,0,0,0,-0.454395,-10.0385,-1.06378,21.1185,1.43587,2.41537,-0.31658,-0.479538,-0.939043,-0.613215,2.57345,0.73104,0.744271,-0.289834
806582,1,-1.57061,-0.523278,0.000202196,-2.09518,-0.000290802,1.57037,0.785641,-1.5708,-0.523599,4.81062e-09,-2.0944,1.95346e-08,1.5708,0.785398,0.000961564,-0.000165128,0.000739782,0.00270249,-0.000493092,-3.75866e-05,-0.000197095,0,0,0,0,0,0,0,-0.50597,-10.0385,-1.11535,20.9955,1.45235,2.41537,-0.284536,-0.479234,-0.937269,-0.61282,2.57224,0.731034,0.744186,-0.289731
806583,1,-1.57061,-0.523274,0.000204618,-2.09519,-0.000291412,1.57036,0.785641,-1.5708,-0.523599,4.81062e-09,-2.0944,1.95346e-08,1.5708,0.785398,0.000641043,0.00109634,0.0011428,-0.00051839,-0.000532223,-0.000296325,-0.000131397,0,0,0,0,0,0,0,-0.50597,-10.0901,-1.14312,21.0947,1.45784,2.42269,-0.284536,-0.479922,-0.935343,-0.61386,2.57033,0.73093,0.743996,-0.28962
806584,1,-1.57062,-0.523278,0.000202827,-2.09518,-0.000289581,1.57037,0.785638,-1.5708,-0.523599,4.81062e-09,-2.0944,1.95346e-08,1.5708,0.785398,-0.000222251,-0.000475532,0.000112254,0.000211219,0.000255503,7.37173e-05,-0.00103703,0,0,0,0,0,0,0,-0.478199,-10.0385,-1.11535,21.0709,1.44136,2.41537,-0.258901,-0.481424,-0.935137,-0.61615,2.56934,0.730801,0.74389,-0.289512
806585,1,-1.57062,-0.523274,0.000204829,-2.09518,-0.000289581,1.57036,0.785643,-1.5708,-0.523599,4.81062e-09,-2.0944,1.95346e-08,1.5708,0.785398,-0.000148168,0.000889404,0.00072445,0.000790426,0.00017031,-0.000222122,0.000970157,0,0,0,0,0,0,0,-0.478199,-10.0901,-1.14312,21.0431,1.44136,2.42269,-0.303762,-0.482569,-0.93592,-0.618032,2.56909,0.730715,0.743879,-0.289401
806586,1,-1.57062,-0.523276,0.000199278,-2.09518,-0.000288971,1.57036,0.785643,-1.5708,-0.523599,4.81062e-09,-2.0944,1.95346e-08,1.5708,0.785398,-0.00065559,-5.66776e-05,-0.00137307,-0.000122663,0.000316972,-0.000148082,0.000646771,0,0,0,0,0,0,0,-0.454395,-10.0623,-1.06378,21.0709,1.43587,2.42269,-0.303762,-0.482631,-0.937087,-0.618415,2.56894,0.730684,0.743898,-0.289281
806587,1,-1.57062,-0.523276,0.000201233,-2.09519,-0.000290191,1.57037,0.785644,-1.5708,-0.523599,4.81062e-09,-2.0944,1.95346e-08,1.5708,0.785398,-0.00043706,-3.77851e-05,-0.000265768,-0.000638587,-0.0001956,0.000409905,0.000905899,0,0,0,0,0,0,0,-0.454395,-10.0623,-1.09155,21.0947,1.44686,2.40896,-0.31658,-0.481221,-0.938624,-0.616673,2.56919,0.730727,0.743992,-0.289177
806588,1,-1.57062,-0.523278,0.000199286,-2.09518,-0.000291412,1.57037,0.785639,-1.5708,-0.523599,4.81062e-09,-2.0944,1.95346e-08,1.5708,0.785398,-0.000291373,-0.000582002,-0.000826793,0.000131087,-0.000537312,0.000510629,-0.00105758,0,0,0,0,0,0,0,-0.454395,-10.0385,-1.06378,21.0709,1.45784,2.40255,-0.271719,-0.478961,-0.939555,-0.613717,2.56948,0.73081,0.744127,-0.28912
806589,1,-1.57061,-0.523276,0.000199287,-2.09519,-0.000291412,1.57037,0.78564,-1.5708,-0.523599,4.81062e-09,-2.0944,1.95346e-08,1.5708,0.785398,0.00101218,0.000168811,-0.000551195,-0.000469421,-0.000358216,0.00010306,-0.000467694,0,0,0,0,0,0,0,-0.50597,-10.0623,-1.06378,21.0947,1.45784,2.40896,-0.278127,-0.476842,-0.939706,-0.610902,2.56951,0.730888,0.744242,-0.28911
806590,1,-1.57062,-0.523278,0.000201236,-2.09518,-0.000289581,1.57037,0.785642,-1.5708,-0.523599,4.81062e-09,-2.0944,1.95346e-08,1.5708,0.785398,-0.000531641,-0.000444272,0.000282151,0.000243865,0.000371535,-0.000168652,0.000400281,0,0,0,0,0,0,0,-0.454395,-10.0385,-1.09155,21.0709,1.44136,2.41537,-0.297354,-0.475451,-0.939586,-0.60905,2.56942,0.730944,0.744331,-0.289116
806591,1,-1.57062,-0.523278,0.000202906,-2.09519,-0.000289581,1.57037,0.785644,-1.5708,-0.523599,4.81062e-09,-2.0944,1.95346e-08,1.5708,0.785398,-0.000354427,-0.000296181,0.000744912,-0.000394235,0.000247686,0.000124924,0.000741572,0,0,0,0,0,0,0,-0.454395,-10.0385,-1.11535,21.0947,1.44136,2.40896,-0.310171,-0.47488,-0.939004,-0.608489,2.5691,0.730972,0.744383,-0.289118
806592,1,-1.57062,-0.523278,0.000197617,-2.09518,-0.000290802,1.57037,0.785639,-1.5708,-0.523599,4.81062e-09,-2.0944,1.95346e-08,1.5708,0.785398,-0.000236285,-0.000197454,-0.00126663,0.000293988,-0.000241781,8.32829e-05,-0.000929773,0,0,0,0,0,0,0,-0.454395,-10.0385,-1.03998,21.0709,1.45235,2.40896,-0.271719,-0.474471,-0.938,-0.608276,2.56853,0.730995,0.744392,-0.289131
806593,1,-1.57062,-0.523278,0.000202906,-2.09518,-0.000291412,1.57037,0.785637,-1.5708,-0.523599,4.81062e-09,-2.0944,1.95346e-08,1.5708,0.785398,0.000399289,0.000425176,0.000918818,0.000845606,-0.00036464,-0.000181837,-0.00133193,0,0,0,0,0,0,0,-0.478199,-10.0623,-1.11535,21.0431,1.45784,2.41537,-0.252493,-0.473989,-0.93715,-0.607927,2.56773,0.731018,0.744346,-0.289161
806594,1,-1.57062,-0.523279,0.000197617,-2.09519,-0.000290191,1.57037,0.785638,-1.5708,-0.523599,4.81062e-09,-2.0944,1.95346e-08,1.5708,0.785398,0.000266192,-0.000273361,-0.00115069,-0.000642688,0.000163806,0.000590852,-0.000650591,0,0,0,0,0,0,0,-0.478199,-10.0385,-1.03998,21.0947,1.44686,2.39614,-0.258901,-0.473846,-0.936816,-0.607989,2.56692,0.731031,0.744267,-0.289174
806595,1,-1.57062,-0.523274,0.000204855,-2.09519,-0.000288971,1.57037,0.785641,-1.5708,-0.523599,4.81062e-09,-2.0944,1.95346e-08,1.5708,0.785398,-0.00037935,0.00102419,0.00164572,-0.000428459,0.000516103,-8.08165e-05,0.000515708,0,0,0,0,0,0,0,-0.454395,-10.0901,-1.14312,21.0947,1.43587,2.40896,-0.284536,-0.474078,-0.937868,-0.608581,2.56699,0.731058,0.744249,-0.289124
806596,1,-1.57062,-0.523278,0.000199287,-2.09519,-0.000290191,1.57037,0.785643,-1.5708,-0.523599,4.81062e-09,-2.0944,1.95346e-08,1.5708,0.785398,0.000303912,-0.000523636,-0.000758891,-0.000842451,-6.28331e-05,-5.38776e-05,0.00105588,0,0,0,0,0,0,0,-0.478199,-10.0385,-1.06378,21.1185,1.44686,2.40896,-0.303762,-0.474637,-0.940352,-0.609722,2.56813,0.731093,0.744315,-0.288999
806597,1,-1.57061,-0.523278,0.000201236,-2.09519,-0.000290802,1.57036,0.785641,-1.5708,-0.523599,4.81062e-09,-2.0944,1.95346e-08,1.5708,0.785398,0.000852221,-0.000349091,0.000143687,-0.000561634,-0.00024534,-0.000544545,0.000229204,0,0,0,0,0,0,0,-0.50597,-10.0385,-1.09155,21.1185,1.45235,2.42269,-0.290945,-0.475304,-0.942379,-0.610957,2.56943,0.731117,0.744396,-0.288835
806598,1,-1.57062,-0.523276,0.000201236,-2.09519,-0.000291412,1.57037,0.785641,-1.5708,-0.523599,4.81062e-09,-2.0944,1.95346e-08,1.5708,0.785398,-8.14659e-05,-0.00591144,9.57911e-05,0.000182389,-0.000367011,-9.17625e-05,0.000152802,0,0,0,0,0,0,0,-0.478199,-10.0623,-1.09155,21.0947,1.45784,2.41537,-0.290945,-0.476033,-0.938644,-0.612161,2.5683,0.731092,0.744305,-0.288679
806599,1,-1.57062,-0.523278,0.000202906,-2.09519,-0.000289581,1.57036,0.785639,-1.5708,-0.523599,4.81062e-09,-2.0944,1.95346e-08,1.5708,0.785398,-5.43106e-05,-0.0050174,0.000620673,-0.000435219,0.000365677,-0.000332442,-0.000610209,0,0,0,0,0,0,0,-0.478199,-10.0385,-1.11535,21.1185,1.44136,2.42269,-0.271719,-0.476908,-0.924052,-0.613605,2.56231,0.730986,0.743873,-0.288557
806600,1,-1.57062,-0.523276,0.000202906,-2.09519,-0.000290802,1.57037,0.785638,-1.5708,-0.523599,4.81062e-09,-2.0944,1.95346e-08,1.5708,0.785398,-3.62071e-05,-0.00317784,0.000413782,-0.000846958,-0.000163117,4.96391e-05,-0.000881524,0,0,0,0,0,0,0,-0.478199,-10.0623,-1.11535,21.1423,1.45235,2.41537,-0.258901,-0.47786,-0.903397,-0.615247,2.5538,0.730847,0.743283,-0.288459
806601,1,-1.57062,-0.523278,0.000201236,-2.09519,-0.000290802,1.57037,0.785641,-1.5708,-0.523599,4.81062e-09,-2.0944,1.95346e-08,1.5708,0.785398,-2.4138e-05,-0.00296766,-0.000280957,-7.82676e-06,-0.000108745,0.000507811,0.000599112,0,0,0,0,0,0,0,-0.478199,-10.0385,-1.09155,21.1185,1.45235,2.40255,-0.290945,-0.478611,-0.884747,-0.616615,2.54627,0.730743,0.742769,-0.288353
806602,1,-1.57062,-0.523273,0.000201236,-2.09518,-0.000290191,1.57037,0.785644,-1.5708,-0.523599,4.81062e-09,-2.0944,1.95346e-08,1.5708,0.785398,-1.6092e-05,-0.000434422,-0.000187305,0.00110841,0.000130954,-0.000136177,0.00134884,0,0,0,0,0,0,0,-0.478199,-10.1139,-1.09155,21.0709,1.44686,2.41537,-0.31658,-0.478752,-0.871474,-0.617029,2.54064,0.730696,0.742342,-0.288219
806603,1,-1.57062,-0.523274,0.000202906,-2.09519,-0.000290191,1.57037,0.785642,-1.5708,-0.523599,4.81062e-09,-2.0944,1.95346e-08,1.5708,0.785398,-1.0728e-05,-0.00101084,0.000431942,-0.000931498,8.73024e-05,0.000146574,0.000187153,0,0,0,0,0,0,0,-0.478199,-10.0901,-1.11535,21.1423,1.44686,2.40896,-0.297354,-0.47856,-0.86546,-0.616903,2.53771,0.730703,0.742055,-0.288078
806604,1,-1.57061,-0.523278,0.000201236,-2.09519,-0.000291412,1.57037,0.785637,-1.5708,-0.523599,4.81062e-09,-2.0944,1.95346e-08,1.5708,0.785398,0.000642461,-0.00200363,-0.000268851,0.000492625,-0.0003487,-0.000139643,-0.00153674,0,0,0,0,0,0,0,-0.50597,-10.0385,-1.09155,21.0947,1.45784,2.41537,-0.252493,-0.47853,-0.86484,-0.616975,2.5372,0.730744,0.741931,-0.287968
806605,1,-1.57062,-0.523276,0.000202906,-2.09518,-0.000290802,1.57037,0.785639,-1.5708,-0.523599,4.81062e-09,-2.0944,1.95346e-08,1.5708,0.785398,-0.000221306,-0.000871423,0.000377578,0.00153484,-2.90159e-05,0.000144264,-0.000549778,0,0,0,0,0,0,0,-0.478199,-10.0623,-1.11535,21.0431,1.45235,2.40896,-0.26531,-0.478671,-0.86574,-0.617236,2.53707,0.730787,0.741808,-0.287888
806606,1,-1.57062,-0.523276,0.000197617,-2.09519,-0.000291412,1.57037,0.785643,-1.5708,-0.523599,4.81062e-09,-2.0944,1.95346e-08,1.5708,0.785398,-0.000704349,-0.000650311,-0.00151152,-0.000183198,-0.000222795,9.61758e-05,0.00105763,0,0,0,0,0,0,0,-0.454395,-10.0623,-1.03998,21.0947,1.45784,2.40896,-0.303762,-0.478187,-0.86811,-0.616554,2.53706,0.730867,0.741658,-0.287799
806607,1,-1.57062,-0.523276,0.000201236,-2.09519,-0.000290191,1.57037,0.785644,-1.5708,-0.523599,4.81062e-09,-2.0944,1.95346e-08,1.5708,0.785398,8.72459e-05,-0.000485562,0.000198747,-0.000122132,0.000258371,-0.000173242,0.000942449,0,0,0,0,0,0,0,-0.478199,-10.0623,-1.09155,21.0947,1.44686,2.41537,-0.310171,-0.476752,-0.873323,-0.61446,2.53846,0.73103,0.741623,-0.287688
806608,1,-1.57061,-0.523276,0.000195946,-2.09519,-0.000290191,1.57037,0.78564,-1.5708,-0.523599,4.81062e-09,-2.0944,1.95346e-08,1.5708,0.785398,0.000707777,-0.000362724,-0.00163074,-8.14211e-05,0.000172248,0.000121864,-0.000558496,0,0,0,0,0,0,0,-0.50597,-10.0623,-1.01617,21.0947,1.44686,2.40896,-0.278127,-0.4752,-0.880856,-0.612061,2.54131,0.731238,0.741726,-0.287584
806609,1,-1.57062,-0.523278,0.000204855,-2.09519,-0.000290802,1.57037,0.785639,-1.5708,-0.523599,4.81062e-09,-2.0944,1.95346e-08,1.5708,0.785398,-0.000177762,-0.00082789,0.0018825,-5.42808e-05,-8.86189e-05,-0.000156116,-0.000609689,0,0,0,0,0,0,0,-0.478199,-10.0385,-1.14312,21.0947,1.45235,2.41537,-0.271719,-0.474409,-0.88912,-0.61065,2.54471,0.731426,0.74189,-0.287508
806610,1,-1.57062,-0.523276,0.000199287,-2.09518,-0.000290802,1.57037,0.785637,-1.5708,-0.523599,4.81062e-09,-2.0944,1.95346e-08,1.5708,0.785398,-0.000118508,-1.70612e-05,-0.000601037,0.000520625,-5.90793e-05,0.000133282,-0.00111854,0,0,0,0,0,0,0,-0.478199,-10.0623,-1.06378,21.0709,1.45235,2.40896,-0.252493,-0.474619,-0.897053,-0.610761,2.54801,0.73157,0.742051,-0.287442
806611,1,-1.57062,-0.523278,0.000199287,-2.09519,-0.000289581,1.57037,0.785638,-1.5708,-0.523599,4.81062e-09,-2.0944,1.95346e-08,1.5708,0.785398,-0.000635817,-0.000584646,-0.000400692,-0.000209729,0.000367515,-0.000148505,-0.000508332,0,0,0,0,0,0,0,-0.454395,-10.0385,-1.06378,21.0947,1.44136,2.41537,-0.258901,-0.474735,-0.904625,-0.61078,2.55107,0.731715,0.742194,-0.287358
806612,1,-1.57062,-0.523274,0.000199287,-2.09519,-0.000290802,1.57036,0.785644,-1.5708,-0.523599,4.81062e-09,-2.0944,1.95346e-08,1.5708,0.785398,0.000132934,0.000804317,-0.000267128,-0.000139819,-0.000161891,-0.00037027,0.00179734,0,0,0,0,0,0,0,-0.478199,-10.0901,-1.06378,21.0947,1.45235,2.42269,-0.31658,-0.474192,-0.912603,-0.609796,2.55441,0.73189,0.742373,-0.287227
806613,1,-1.57062,-0.523274,0.000197617,-2.09518,-0.000290802,1.57037,0.785644,-1.5708,-0.523599,4.81062e-09,-2.0944,1.95346e-08,1.5708,0.785398,-0.000468189,0.000526953,-0.000734897,0.000463599,-0.000107927,0.000261779,0.00119823,0,0,0,0,0,0,0,-0.454395,-10.0901,-1.03998,21.0709,1.45235,2.40896,-0.31658,-0.473385,-0.921736,-0.608375,2.55829,0.732074,0.742605,-0.287052
806614,1,-1.57062,-0.523276,0.000202906,-2.09519,-0.000289581,1.57036,0.785641,-1.5708,-0.523599,4.81062e-09,-2.0944,1.95346e-08,1.5708,0.785398,0.000244686,-0.000305256,0.00127331,-0.000247746,0.000334949,-0.000334107,-0.000150617,0,0,0,0,0,0,0,-0.478199,-10.0623,-1.11535,21.0947,1.44136,2.42269,-0.290945,-0.47288,-0.930714,-0.607388,2.562,0.732229,0.742829,-0.286889
806615,1,-1.57062,-0.523276,0.000202906,-2.09519,-0.000290191,1.57037,0.785639,-1.5708,-0.523599,4.81062e-09,-2.0944,1.95346e-08,1.5708,0.785398,0.000163124,-0.000208712,0.000848871,-0.000165164,1.98491e-05,0.000285888,-0.000812488,0,0,0,0,0,0,0,-0.478199,-10.0623,-1.11535,21.0947,1.44686,2.40896,-0.271719,-0.473629,-0.937838,-0.608333,2.56499,0.732309,0.743026,-0.286778
806616,1,-1.57062,-0.523278,0.000199287,-2.09519,-0.000290191,1.57037,0.78564,-1.5708,-0.523599,4.81062e-09,-2.0944,1.95346e-08,1.5708,0.785398,0.000108749,-0.000699859,-0.000640512,-0.000110109,1.32327e-05,-4.67666e-05,-0.0003043,0,0,0,0,0,0,0,-0.478199,-10.0385,-1.06378,21.0947,1.44686,2.41537,-0.278127,-0.475041,-0.942769,-0.610293,2.56717,0.732336,0.743188,-0.286712
806617,1,-1.57061,-0.523276,0.000199287,-2.09518,-0.000290802,1.57036,0.785645,-1.5708,-0.523599,4.81062e-09,-2.0944,1.95346e-08,1.5708,0.785398,0.000722113,8.73095e-05,-0.000427008,0.000483406,-0.000194629,-0.000302445,0.00145865,0,0,0,0,0,0,0,-0.50597,-10.0623,-1.06378,21.0709,1.45235,2.42269,-0.322988,-0.475923,-0.945857,-0.611364,2.56844,0.732359,0.743294,-0.286668
806618,1,-1.57062,-0.523274,0.000201236,-2.09519,-0.000290802,1.57037,0.785642,-1.5708,-0.523599,4.81062e-09,-2.0944,1.95346e-08,1.5708,0.785398,-0.000168205,0.000705623,0.000364942,-0.000234541,-0.000129752,0.000306996,2.29949e-05,0,0,0,0,0,0,0,-0.478199,-10.0901,-1.09155,21.0947,1.45235,2.40896,-0.297354,-0.476438,-0.948816,-0.611776,2.5695,0.732383,0.743381,-0.286641
806619,1,-1.57062,-0.523278,0.000199287,-2.09519,-0.000290191,1.57037,0.785639,-1.5708,-0.523599,4.81062e-09,-2.0944,1.95346e-08,1.5708,0.785398,-0.000668948,-0.000180846,-0.000406319,-0.000156361,0.000116949,-3.26948e-05,-0.000934106,0,0,0,0,0,0,0,-0.454395,-10.0623,-1.06378,21.0947,1.44686,2.41537,-0.271719,-0.476638,-0.952587,-0.611765,2.57094,0.732431,0.743504,-0.286655
806620,1,-1.57062,-0.523279,0.000197617,-2.09519,-0.000290191,1.57037,0.78564,-1.5708,-0.523599,4.81062e-09,-2.0944,1.95346e-08,1.5708,0.785398,-0.00100278,-0.000678612,-0.000827691,-0.000104241,7.79659e-05,0.000215562,-0.000385378,0,0,0,0,0,0,0,-0.430592,-10.0385,-1.03998,21.0947,1.44686,2.40896,-0.278127,-0.475837,-0.955493,-0.610388,2.57209,0.73253,0.743622,-0.286715
806621,1,-1.57062,-0.523278,0.000197617,-2.09519,-0.000290802,1.57037,0.78564,-1.5708,-0.523599,4.81062e-09,-2.0944,1.95346e-08,1.5708,0.785398,-0.000111706,-0.000453335,-0.000551794,-6.94938e-05,-0.000151473,-9.36507e-05,-0.000256919,0,0,0,0,0,0,0,-0.454395,-10.0385,-1.03998,21.0947,1.45235,2.41537,-0.278127,-0.47408,-0.95641,-0.60766,2.57239,0.732659,0.743683,-0.286788
806622,0.984127,-1.57061,-0.523276,0.000202906,-2.09519,-0.000290191,1.57037,0.785641,-1.5708,-0.523599,4.81062e-09,-2.0944,1.95346e-08,1.5708,0.785398,0.00113195,0.000253893,0.00139537,-0.00115995,0.000102468,0.000174925,0.000303439,0,0,0,0,0,0,0,-0.50597,-10.0623,-1.11535,21.1423,1.44686,2.40896,-0.290945,-0.473063,-0.956901,-0.605998,2.57274,0.732751,0.743755,-0.286838
806623,0.984375,-1.57062,-0.523278,0.000201236,-2.09519,-0.000290191,1.57037,0.785644,-1.5708,-0.523599,4.81062e-09,-2.0944,1.95346e-08,1.5708,0.785398,0.000105023,-0.000388071,0.000373438,-0.00021649,6.83122e-05,0.000116617,0.000914369,0,0,0,0,0,0,0,-0.478199,-10.0385,-1.09155,21.1185,1.44686,2.40896,-0.310171,-0.47392,-0.958167,-0.607066,2.57384,0.732762,0.743886,-0.286853
806624,0.984615,-1.57061,-0.523276,0.000201236,-2.09518,-0.000290802,1.57037,0.785641,-1.5708,-0.523599,4.81062e-09,-2.0944,1.95346e-08,1.5708,0.785398,0.000719629,0.000297707,0.000248959,0.000969297,-0.000157909,7.77445e-05,-0.000102497,0,0,0,0,0,0,0,-0.50597,-10.0623,-1.09155,21.0709,1.45235,2.40896,-0.290945,-0.475652,-0.959178,-0.609403,2.57467,0.732719,0.743961,-0.28686
806625,0.984848,-1.57062,-0.523276,0.000199287,-2.09518,-0.000291412,1.57036,0.785637,-1.5708,-0.523599,4.81062e-09,-2.0944,1.95346e-08,1.5708,0.785398,-0.000169861,0.000198178,-0.000483641,0.000646198,-0.000308723,-0.000456797,-0.00149249,0,0,0,0,0,0,0,-0.478199,-10.0623,-1.06378,21.0709,1.45784,2.42269,-0.252493,-0.477043,-0.9595,-0.611169,2.57454,0.732665,0.743904,-0.286888
806626,0.985075,-1.57062,-0.523274,0.000201236,-2.09519,-0.000290191,1.57037,0.785638,-1.5708,-0.523599,4.81062e-09,-2.0944,1.95346e-08,1.5708,0.785398,-0.000113241,0.000781513,0.000327186,-0.000682825,0.000201086,0.000204095,-0.000757631,0,0,0,0,0,0,0,-0.478199,-10.0901,-1.09155,21.1185,1.44686,2.40896,-0.258901,-0.477697,-0.960483,-0.61183,2.57449,0.732655,0.743834,-0.286924
806627,0.985294,-1.57062,-0.523278,0.000201236,-2.09518,-0.000290802,1.57037,0.785644,-1.5708,-0.523599,4.81062e-09,-2.0944,1.95346e-08,1.5708,0.785398,-7.54937e-05,-0.000685582,0.000218124,0.000658407,-6.93935e-05,-0.000101295,0.00139378,0,0,0,0,0,0,0,-0.478199,-10.0385,-1.09155,21.0709,1.45235,2.41537,-0.310171,-0.477966,-0.96196,-0.611979,2.57484,0.732684,0.743808,-0.286924
806628,0.985507,-1.57062,-0.523278,0.000199287,-2.09518,-0.000290802,1.57036,0.785643,-1.5708,-0.523599,4.81062e-09,-2.0944,1.95346e-08,1.5708,0.785398,-5.03292e-05,-0.000457179,-0.000504198,0.000438938,-4.62623e-05,-0.000338798,0.00069183,0,0,0,0,0,0,0,-0.478199,-10.0385,-1.06378,21.0709,1.45235,2.42269,-0.303762,-0.478012,-0.961632,-0.611825,2.57432,0.732713,0.743723,-0.28688
806629,0.985714,-1.57061,-0.523278,0.000201236,-2.09519,-0.000290191,1.57037,0.78564,-1.5708,-0.523599,4.81062e-09,-2.0944,1.95346e-08,1.5708,0.785398,0.00061606,-0.000304879,0.000313482,-0.000264187,0.000172609,0.000282761,-0.000488215,0,0,0,0,0,0,0,-0.50597,-10.0385,-1.09155,21.0947,1.44686,2.40896,-0.278127,-0.477907,-0.959597,-0.611396,2.57299,0.732741,0.74359,-0.286832
806630,0.985915,-1.57062,-0.523273,0.000202906,-2.09519,-0.000292124,1.57036,0.785639,-1.5708,-0.523599,4.81062e-09,-2.0944,1.95346e-08,1.5708,0.785398,-0.000238906,0.00155992,0.0007658,-0.000176124,-0.000529187,-0.000320119,-0.000800195,0,0,0,0,0,0,0,-0.478199,-10.1139,-1.11535,21.0947,1.46425,2.42269,-0.26531,-0.478224,-0.958995,-0.61157,2.57256,0.732775,0.743549,-0.286798
806631,0.986111,-1.57062,-0.523276,0.000199287,-2.09519,-0.000289581,1.57037,0.785638,-1.5708,-0.523599,4.81062e-09,-2.0944,1.95346e-08,1.5708,0.785398,-0.000159271,-0.000166534,-0.000695893,-0.000117416,0.000494919,5.78548e-05,-0.000770822,0,0,0,0,0,0,0,-0.478199,-10.0623,-1.06378,21.0947,1.44136,2.41537,-0.258901,-0.478611,-0.960984,-0.611897,2.57348,0.732844,0.743631,-0.286761
806632,0.986301,-1.57061,-0.523276,0.000202906,-2.09518,-0.000289581,1.57037,0.785642,-1.5708,-0.523599,4.81062e-09,-2.0944,1.95346e-08,1.5708,0.785398,0.000543433,-0.000111062,0.000742498,0.000478534,0.000329946,3.85699e-05,0.000910272,0,0,0,0,0,0,0,-0.50597,-10.0623,-1.11535,21.0709,1.44136,2.41537,-0.297354,-0.478754,-0.962857,-0.611859,2.57429,0.73293,0.743717,-0.286698
806633,0.986486,-1.57062,-0.523276,0.000201236,-2.09519,-0.000289581,1.57036,0.785641,-1.5708,-0.523599,4.81062e-09,-2.0944,1.95346e-08,1.5708,0.785398,-0.000287325,-7.40707e-05,-6.18136e-05,-0.000794601,0.000219964,-0.000245554,0.00013213,0,0,0,0,0,0,0,-0.478199,-10.0623,-1.09155,21.1185,1.44136,2.42269,-0.284536,-0.479098,-0.963331,-0.612103,2.57446,0.732988,0.74377,-0.286599
806634,0.986667,-1.57062,-0.523276,0.000202906,-2.09519,-0.000291412,1.57037,0.785644,-1.5708,-0.523599,4.81062e-09,-2.0944,1.95346e-08,1.5708,0.785398,-0.00019155,-4.94025e-05,0.000515603,2.7078e-05,-0.000463709,0.000107565,0.00127488,0,0,0,0,0,0,0,-0.478199,-10.0623,-1.11535,21.0947,1.45784,2.41537,-0.31658,-0.479449,-0.963473,-0.612428,2.57468,0.733033,0.743852,-0.286482
806635,0.986842,-1.57062,-0.523276,0.000202906,-2.09519,-0.000291412,1.57036,0.785638,-1.5708,-0.523599,4.81062e-09,-2.0944,1.95346e-08,1.5708,0.785398,-0.0001277,-3.29515e-05,0.000343735,1.8052e-05,-0.000309139,-0.000199558,-0.00128631,0,0,0,0,0,0,0,-0.478199,-10.0623,-1.11535,21.0947,1.45784,2.42269,-0.258901,-0.47969,-0.963368,-0.612702,2.57483,0.733071,0.74394,-0.286379
806636,0.987013,-1.57062,-0.523276,0.000202906,-2.09519,-0.000289581,1.57037,0.785643,-1.5708,-0.523599,4.81062e-09,-2.0944,1.95346e-08,1.5708,0.785398,-8.51333e-05,-2.198e-05,0.000229157,1.20347e-05,0.000404259,0.000375588,0.000803973,0,0,0,0,0,0,0,-0.478199,-10.0623,-1.11535,21.0947,1.44136,2.40896,-0.303762,-0.479951,-0.962899,-0.613094,2.57468,0.733101,0.744001,-0.286304
806637,0.987179,-1.57062,-0.523278,0.000201236,-2.09519,-0.000290191,1.57037,0.785642,-1.5708,-0.523599,4.81062e-09,-2.0944,1.95346e-08,1.5708,0.785398,-5.67555e-05,-0.000571475,-0.000404041,8.02311e-06,6.60553e-05,1.3033e-05,0.000298623,0,0,0,0,0,0,0,-0.478199,-10.0385,-1.09155,21.0947,1.44686,2.41537,-0.297354,-0.479971,-0.961859,-0.61317,2.57417,0.733136,0.744034,-0.286251
806638,0.987342,-1.57062,-0.523278,0.000202906,-2.09519,-0.000290191,1.57036,0.785644,-1.5708,-0.523599,4.81062e-09,-2.0944,1.95346e-08,1.5708,0.785398,-3.7837e-05,-0.00038099,0.000287451,5.34874e-06,4.40369e-05,-0.000262579,0.0006738,0,0,0,0,0,0,0,-0.478199,-10.0385,-1.11535,21.0947,1.44686,2.42269,-0.310171,-0.479693,-0.959893,-0.612828,2.57321,0.733169,0.744035,-0.286224
806639,0.9875,-1.57062,-0.523276,0.000201236,-2.09519,-0.000289581,1.57036,0.785641,-1.5708,-0.523599,4.81062e-09,-2.0944,1.95346e-08,1.5708,0.785398,-2.52247e-05,0.000302813,-0.000365178,-0.000553246,0.000232808,-0.000175052,-0.000262877,0,0,0,0,0,0,0,-0.478199,-10.0623,-1.09155,21.1185,1.44136,2.42269,-0.290945,-0.479311,-0.958105,-0.612369,2.57246,0.733201,0.74406,-0.286239
806640,0.987654,-1.57061,-0.523274,0.000199287,-2.09518,-0.000290802,1.57037,0.785637,-1.5708,-0.523599,4.81062e-09,-2.0944,1.95346e-08,1.5708,0.785398,0.000632797,0.000851486,-0.000893066,0.000744793,-0.000251695,0.000154566,-0.0015994,0,0,0,0,0,0,0,-0.50597,-10.0901,-1.06378,21.0709,1.45235,2.41537,-0.252493,-0.478731,-0.958035,-0.611563,2.57248,0.733243,0.744144,-0.286301
806641,0.987805,-1.57062,-0.523278,0.000201236,-2.09519,-0.000290802,1.57037,0.785641,-1.5708,-0.523599,4.81062e-09,-2.0944,1.95346e-08,1.5708,0.785398,-0.000227749,-0.000638772,5.42368e-05,-6.02832e-05,-0.000167797,0.000340403,0.000120525,0,0,0,0,0,0,0,-0.478199,-10.0385,-1.09155,21.0947,1.45235,2.40896,-0.284536,-0.477984,-0.958717,-0.610404,2.57259,0.733283,0.744217,-0.286383
806642,0.987952,-1.57061,-0.523274,0.000204855,-2.09519,-0.000290191,1.57036,0.785643,-1.5708,-0.523599,4.81062e-09,-2.0944,1.95346e-08,1.5708,0.785398,0.000497781,0.000780576,0.00124258,-4.01888e-05,9.15859e-05,-0.000281691,0.000792427,0,0,0,0,0,0,0,-0.50597,-10.0901,-1.14312,21.0947,1.44686,2.42269,-0.303762,-0.477856,-0.959063,-0.610182,2.57248,0.733287,0.744267,-0.286442
806643,0.988095,-1.57062,-0.523274,0.000201236,-2.09518,-0.000291412,1.57037,0.785644,-1.5708,-0.523599,4.81062e-09,-2.0944,1.95346e-08,1.5708,0.785398,-0.000874571,0.000520382,-0.000378037,0.000530019,-0.000345844,8.34733e-05,0.001003,0,0,0,0,0,0,0,-0.454395,-10.0901,-1.09155,21.0709,1.45784,2.41537,-0.31658,-0.478387,-0.960068,-0.611044,2.5727,0.733266,0.744335,-0.286473
806644,0.988235,-1.57062,-0.523276,0.000199287,-2.09519,-0.000289581,1.57037,0.785637,-1.5708,-0.523599,4.81062e-09,-2.0944,1.95346e-08,1.5708,0.785398,-0.00113986,-0.000302694,-0.000901638,-0.000203466,0.000379789,0.000293008,-0.00170492,0,0,0,0,0,0,0,-0.430592,-10.0623,-1.06378,21.0947,1.44136,2.40896,-0.252493,-0.478012,-0.961327,-0.610695,2.57291,0.733294,0.744396,-0.286521
806645,0.988372,-1.57062,-0.523276,0.000199287,-2.09518,-0.000288971,1.57037,0.785638,-1.5708,-0.523599,4.81062e-09,-2.0944,1.95346e-08,1.5708,0.785398,-0.000203094,-0.000201797,-0.000601092,0.000421168,0.000456643,-4.20204e-05,-0.000899255,0,0,0,0,0,0,0,-0.454395,-10.0623,-1.06378,21.0709,1.43587,2.41537,-0.258901,-0.476286,-0.9614,-0.608433,2.57256,0.733383,0.744421,-0.286599
806646,0.988506,-1.57062,-0.523274,0.000199287,-2.09519,-0.000290191,1.57037,0.78564,-1.5708,-0.523599,4.81062e-09,-2.0944,1.95346e-08,1.5708,0.785398,0.000421416,0.000515082,-0.000400728,-0.000832845,-0.000102472,0.000209345,0.000112573,0,0,0,0,0,0,0,-0.478199,-10.0901,-1.06378,21.1185,1.44686,2.40896,-0.278127,-0.474484,-0.961105,-0.606011,2.57217,0.733468,0.74445,-0.286656
806647,0.988636,-1.57062,-0.523278,0.000201236,-2.09519,-0.000290802,1.57036,0.78564,-1.5708,-0.523599,4.81062e-09,-2.0944,1.95346e-08,1.5708,0.785398,-0.000275868,-0.000863038,0.000382462,-0.00111204,-0.000271765,-0.000369063,7.50489e-05,0,0,0,0,0,0,0,-0.454395,-10.0385,-1.09155,21.1423,1.45235,2.42269,-0.278127,-0.473476,-0.961426,-0.604715,2.57258,0.733514,0.744559,-0.286651
806648,0.988764,-1.57062,-0.523273,0.000204855,-2.09519,-0.000290802,1.57037,0.785641,-1.5708,-0.523599,4.81062e-09,-2.0944,1.95346e-08,1.5708,0.785398,0.0003729,0.00118788,0.0014614,0.000372263,-0.000181177,0.000499943,0.00052475,0,0,0,0,0,0,0,-0.478199,-10.1139,-1.14312,21.0947,1.45235,2.40255,-0.290945,-0.473715,-0.962143,-0.605348,2.57355,0.733499,0.744714,-0.286584
806649,0.988889,-1.57062,-0.523276,0.000201236,-2.09519,-0.000288971,1.57036,0.785642,-1.5708,-0.523599,4.81062e-09,-2.0944,1.95346e-08,1.5708,0.785398,0.0002486,-0.000414507,-0.000232159,0.000248175,0.000489567,-0.00041269,0.000587193,0,0,0,0,0,0,0,-0.478199,-10.0623,-1.09155,21.0947,1.43587,2.42269,-0.297354,-0.475064,-0.963015,-0.6077,2.5743,0.733416,0.744808,-0.286477
806650,0.989011,-1.57062,-0.52328,0.000201236,-2.09518,-0.000292124,1.57037,0.78564,-1.5708,-0.523599,4.81062e-09,-2.0944,1.95346e-08,1.5708,0.785398,-0.000947891,-0.00148276,-0.000154773,0.00137188,-0.000724783,0.0002335,-0.000320615,0,0,0,0,0,0,0,-0.430592,-10.0107,-1.09155,21.0431,1.46425,2.40896,-0.278127,-0.476128,-0.961521,-0.609671,2.57337,0.733307,0.744729,-0.28637
806651,0.98913,-1.57061,-0.523276,0.000202906,-2.09519,-0.000290191,1.57037,0.78564,-1.5708,-0.523599,4.81062e-09,-2.0944,1.95346e-08,1.5708,0.785398,0.00113131,0.000217916,0.00045363,-0.000848654,0.000161071,-8.16924e-05,-0.000213743,0,0,0,0,0,0,0,-0.50597,-10.0623,-1.11535,21.1185,1.44686,2.41537,-0.278127,-0.476589,-0.957333,-0.610797,2.57094,0.733199,0.744518,-0.286281
806652,0.989247,-1.57061,-0.523276,0.000199287,-2.09518,-0.000290802,1.57037,0.785644,-1.5708,-0.523599,4.81062e-09,-2.0944,1.95346e-08,1.5708,0.785398,0.00131102,0.000145277,-0.000904006,0.000547855,-9.60697e-05,-5.44616e-05,0.0010443,0,0,0,0,0,0,0,-0.529774,-10.0623,-1.06378,21.0709,1.45235,2.41537,-0.310171,-0.477358,-0.954212,-0.612226,2.56918,0.733099,0.744366,-0.286196
806653,0.989362,-1.57062,-0.523278,0.000201236,-2.09519,-0.000290802,1.57037,0.785643,-1.5708,-0.523599,4.81062e-09,-2.0944,1.95346e-08,1.5708,0.785398,-0.000332413,-0.00045996,4.69434e-05,-0.000191576,-6.40464e-05,0.000201051,0.00045884,0,0,0,0,0,0,0,-0.478199,-10.0385,-1.09155,21.0947,1.45235,2.40896,-0.303762,-0.478127,-0.952645,-0.613425,2.56826,0.733026,0.744281,-0.286121
806654,0.989474,-1.57062,-0.523274,0.000202906,-2.09519,-0.000290802,1.57037,0.785641,-1.5708,-0.523599,4.81062e-09,-2.0944,1.95346e-08,1.5708,0.785398,-0.00077842,0.000899786,0.000588108,-0.000127717,-4.26976e-05,-0.000103325,-0.000406183,0,0,0,0,0,0,0,-0.454395,-10.0901,-1.11535,21.0947,1.45235,2.41537,-0.284536,-0.478375,-0.952101,-0.6139,2.56788,0.733005,0.744238,-0.286084
806655,0.989583,-1.57062,-0.52328,0.000202906,-2.09519,-0.000290802,1.57037,0.785636,-1.5708,-0.523599,4.81062e-09,-2.0944,1.95346e-08,1.5708,0.785398,3.7865e-05,-0.00125618,0.000392072,-0.000641957,-2.84651e-05,-6.88832e-05,-0.00196621,0,0,0,0,0,0,0,-0.478199,-10.0107,-1.11535,21.1185,1.45235,2.41537,-0.23876,-0.478453,-0.952479,-0.614308,2.56819,0.73303,0.744261,-0.286091
806656,0.989691,-1.57062,-0.523276,0.000201236,-2.09519,-0.000290802,1.57036,0.785642,-1.5708,-0.523599,4.81062e-09,-2.0944,1.95346e-08,1.5708,0.785398,-0.000531569,0.000368971,-0.000295431,-0.000427971,-1.89767e-05,-0.000317189,0.000859332,0,0,0,0,0,0,0,-0.454395,-10.0623,-1.09155,21.1185,1.45235,2.42269,-0.297354,-0.478413,-0.952578,-0.61463,2.56871,0.733083,0.744322,-0.286108
806657,0.989796,-1.57062,-0.523274,0.000199287,-2.09519,-0.000288971,1.57037,0.785644,-1.5708,-0.523599,4.81062e-09,-2.0944,1.95346e-08,1.5708,0.785398,-0.000354379,0.000895594,-0.000846568,0.000271498,0.0005977,5.98077e-05,0.00128497,0,0,0,0,0,0,0,-0.454395,-10.0901,-1.06378,21.0947,1.43587,2.41537,-0.31658,-0.47766,-0.953523,-0.613897,2.56964,0.733182,0.744416,-0.2861
806658,0.989899,-1.57062,-0.523278,0.000202906,-2.09518,-0.000291412,1.57037,0.785642,-1.5708,-0.523599,4.81062e-09,-2.0944,1.95346e-08,1.5708,0.785398,0.000320559,-0.000609363,0.000642047,0.000737811,-0.000415335,3.98718e-05,0.000144567,0,0,0,0,0,0,0,-0.478199,-10.0385,-1.11535,21.0709,1.45784,2.41537,-0.297354,-0.476553,-0.95505,-0.612607,2.57041,0.733283,0.744471,-0.286081
806659,0.99,-1.57062,-0.523274,0.000204855,-2.09519,-0.000290802,1.57037,0.78564,-1.5708,-0.523599,4.81062e-09,-2.0944,1.95346e-08,1.5708,0.785398,0.000213706,0.000800184,0.00107765,-0.00062175,-7.34396e-05,0.00026394,-0.000615699,0,0,0,0,0,0,0,-0.478199,-10.0901,-1.14312,21.1185,1.45235,2.40896,-0.278127,-0.476425,-0.955854,-0.61278,2.5706,0.733318,0.744465,-0.286087
806660,0.99,-1.57061,-0.523276,0.000202906,-2.09519,-0.000291412,1.57037,0.785639,-1.5708,-0.523599,4.81062e-09,-2.0944,1.95346e-08,1.5708,0.785398,0.000792084,-0.000116158,6.88164e-05,-0.00162093,-0.00025241,-6.13988e-05,-0.000647825,0,0,0,0,0,0,0,-0.50597,-10.0623,-1.11535,21.1701,1.45784,2.41537,-0.271719,-0.47745,-0.957525,-0.614685,2.57167,0.733322,0.744551,-0.286117
806661,0.99,-1.57061,-0.523276,0.000201236,-2.09519,-0.000290191,1.57036,0.785641,-1.5708,-0.523599,4.81062e-09,-2.0944,1.95346e-08,1.5708,0.785398,0.000528056,-7.74387e-05,-0.000510934,0.000125809,0.000238628,-0.0003122,0.000280193,0,0,0,0,0,0,0,-0.50597,-10.0623,-1.09155,21.1185,1.44686,2.42269,-0.290945,-0.478637,-0.959812,-0.616728,2.5736,0.733346,0.744734,-0.286152
806662,0.99,-1.57062,-0.523274,0.000201236,-2.09519,-0.000292124,1.57037,0.785641,-1.5708,-0.523599,4.81062e-09,-2.0944,1.95346e-08,1.5708,0.785398,-0.000297576,0.000597988,-0.000340623,8.38724e-05,-0.000485175,0.000300493,0.000186796,0,0,0,0,0,0,0,-0.478199,-10.0901,-1.09155,21.1185,1.46425,2.40896,-0.290945,-0.479125,-0.961385,-0.617613,2.57507,0.733401,0.744869,-0.286182
806663,0.99,-1.57062,-0.523274,0.000201236,-2.09519,-0.000291412,1.57037,0.785643,-1.5708,-0.523599,4.81062e-09,-2.0944,1.95346e-08,1.5708,0.785398,-0.000755196,0.000398659,-0.000227082,0.000612727,-8.6091e-05,-3.70303e-05,0.000599248,0,0,0,0,0,0,0,-0.454395,-10.0901,-1.09155,21.0947,1.45784,2.41537,-0.303762,-0.478628,-0.962642,-0.617056,2.57585,0.733496,0.744907,-0.286211
806664,0.99,-1.57062,-0.523276,0.000201236,-2.09519,-0.000289581,1.57036,0.785638,-1.5708,-0.523599,4.81062e-09,-2.0944,1.95346e-08,1.5708,0.785398,5.3348e-05,-0.000383841,-0.000151388,0.000408485,0.000552958,-0.000533313,-0.00126201,0,0,0,0,0,0,0,-0.478199,-10.0623,-1.09155,21.0947,1.44136,2.4291,-0.258901,-0.477554,-0.963017,-0.615712,2.5758,0.733616,0.744855,-0.286251
806665,0.99,-1.57061,-0.523278,0.000199287,-2.09518,-0.000289581,1.57037,0.78564,-1.5708,-0.523599,4.81062e-09,-2.0944,1.95346e-08,1.5708,0.785398,0.000685179,-0.000812706,-0.000750539,0.000829135,0.000368638,0.000390443,-0.000129266,0,0,0,0,0,0,0,-0.50597,-10.0385,-1.06378,21.0709,1.44136,2.40896,-0.278127,-0.476576,-0.961065,-0.614424,2.57442,0.733714,0.744698,-0.286301
806666,0.99,-1.57062,-0.523274,0.000202906,-2.09519,-0.000290802,1.57037,0.785639,-1.5708,-0.523599,4.81062e-09,-2.0944,1.95346e-08,1.5708,0.785398,-0.000192828,0.000664622,0.000706066,-4.05529e-06,-0.000161142,0.000260295,-0.000560895,0,0,0,0,0,0,0,-0.478199,-10.0901,-1.11535,21.0947,1.45235,2.40896,-0.26531,-0.476093,-0.957866,-0.61373,2.57235,0.733771,0.744496,-0.286331
806667,0.99,-1.57062,-0.523276,0.000199287,-2.09519,-0.000290191,1.57037,0.785643,-1.5708,-0.523599,4.81062e-09,-2.0944,1.95346e-08,1.5708,0.785398,-0.000128552,-0.000206533,-0.000735715,-2.70352e-06,9.60224e-05,-6.38287e-05,0.00105022,0,0,0,0,0,0,0,-0.478199,-10.0623,-1.06378,21.0947,1.44686,2.41537,-0.303762,-0.475919,-0.955832,-0.613472,2.57097,0.733816,0.744356,-0.286318
806668,0.99,-1.57062,-0.523274,0.000202906,-2.09518,-0.000290802,1.57037,0.785644,-1.5708,-0.523599,4.81062e-09,-2.0944,1.95346e-08,1.5708,0.785398,-8.57011e-05,0.000511925,0.000715949,0.00055501,-0.000139436,-4.25524e-05,0.00117487,0,0,0,0,0,0,0,-0.478199,-10.0901,-1.11535,21.0709,1.45235,2.41537,-0.31658,-0.475776,-0.955036,-0.613272,2.57031,0.73386,0.744281,-0.286271
806669,0.99,-1.57062,-0.523278,0.000199287,-2.09519,-0.000289581,1.57037,0.785641,-1.5708,-0.523599,4.81062e-09,-2.0944,1.95346e-08,1.5708,0.785398,-0.000613946,-0.000865142,-0.000729126,-0.000743618,0.000313944,-2.83683e-05,-0.00040355,0,0,0,0,0,0,0,-0.454395,-10.0385,-1.06378,21.1185,1.44136,2.41537,-0.284536,-0.475589,-0.954446,-0.613033,2.5699,0.733902,0.744237,-0.286229
806670,0.99,-1.57061,-0.523278,0.000201236,-2.09518,-0.000290191,1.57037,0.785638,-1.5708,-0.523599,4.81062e-09,-2.0944,1.95346e-08,1.5708,0.785398,0.000797128,-0.000576762,0.00645943,0.000617879,5.84548e-06,-1.89122e-05,-0.00121847,0,0,0,0,0,0,0,-0.50597,-10.0385,-1.09155,21.0709,1.44686,2.41537,-0.258901,-0.477097,-0.952858,-0.615526,2.56932,0.733856,0.744202,-0.286213
806671,0.99,-1.57062,-0.523276,0.000199287,-2.09519,-0.000290802,1.57036,0.785638,-1.5708,-0.523597,2.50481e-06,-2.0944,1.09802e-06,1.5708,0.785403,-0.000118195,0.000172304,0.00418133,-0.000144893,-0.000199554,-0.000521234,-0.000812313,0.000810794,0.001875,0.0025,-0.003125,0.00107849,0.005,0.005,-0.478199,-10.0623,-1.06378,21.0947,1.45235,2.4291,-0.258901,-0.482699,-0.950455,-0.624505,2.56851,0.733604,0.744153,-0.286189
806672,0.99,-1.57062,-0.523276,0.000199287,-2.09519,-0.000290191,1.57036,0.785641,-1.57079,-0.523593,7.50481e-06,-2.0944,3.25499e-06,1.57081,0.785413,-7.87965e-05,0.00011487,0.00318105,-0.000653407,7.04148e-05,-0.000110131,0.000645253,0.00162159,0.00375,0.005,-0.00625,0.00215697,0.01,0.01,-0.478199,-10.0623,-1.06378,21.1185,1.44686,2.42269,-0.290945,-0.490498,-0.949264,-0.636964,2.56845,0.733252,0.744173,-0.286123
806673,0.99,-1.57061,-0.523273,0.000201236,-2.09519,-0.000290191,1.57037,0.785644,-1.57079,-0.523587,1.50048e-05,-2.09441,6.49045e-06,1.57083,0.785428,0.000597082,0.00128301,0.00306543,-0.000435605,4.69432e-05,0.000197847,0.00114225,0.00243238,0.005625,0.0075,-0.009375,0.00323546,0.015,0.015,-0.50597,-10.1139,-1.09155,21.1185,1.44686,2.41537,-0.310171,-0.497662,-0.950707,-0.648321,2.56984,0.73295,0.744334,-0.286014
806674,0.99,-1.57061,-0.523277,0.00019723,-2.09519,-0.000290802,1.57036,0.785645,-1.57079,-0.52358,2.50048e-05,-2.09443,1.08044e-05,1.57085,0.785448,0.00234717,0.000643881,0.00437981,-0.00200876,-0.000172155,-0.000139369,0.00970974,0.00324318,0.0075,0.01,-0.0125,0.00431395,0.02,0.02,-0.454395,-9.83615,-0.913022,20.9201,1.45235,2.42269,-0.297354,-0.504668,-0.95523,-0.659044,2.57301,0.732673,0.744658,-0.285892
806675,0.99,-1.57062,-0.523283,0.000198268,-2.09519,-0.000289539,1.57036,0.785643,-1.57078,-0.523571,3.75048e-05,-2.09444,1.61968e-05,1.57087,0.785473,-0.00097773,0.000549106,0.00537002,-0.0019865,-0.00075903,-0.00104235,0.00977417,0.00405397,0.009375,0.0125,-0.015625,0.00539243,0.025,0.025,-0.204456,-9.28073,-0.583737,20.5234,1.46974,2.44833,-0.23876,-0.512189,-0.961809,-0.670266,2.57784,0.73239,0.745163,-0.285799
806676,0.99,-1.57063,-0.523283,0.000214525,-2.09519,-0.000287151,1.57037,0.785634,-1.57078,-0.523559,5.25048e-05,-2.09446,2.26677e-05,1.5709,0.785503,-0.00585436,0.000198409,0.00783022,-6.36136e-05,-6.52105e-05,-0.00188169,0.00762119,0.00486476,0.01125,0.015,-0.01875,0.00647092,0.03,0.03,0.176403,-8.67374,-0.306028,20.0235,1.45784,2.48037,-0.116079,-0.518599,-0.967565,-0.680358,2.58245,0.732162,0.745739,-0.285734
806677,0.99,-1.57063,-0.52327,0.000228439,-2.09519,-0.000285575,1.57037,0.785636,-1.57077,-0.523546,7.00048e-05,-2.09448,3.02172e-05,1.57094,0.785538,-0.00280919,0.00225333,0.00929574,0.00159514,0.000363427,-0.000305027,0.00525504,0.00567556,0.013125,0.0175,-0.021875,0.0075494,0.035,0.035,0.426342,-8.26907,-0.000546589,19.48,1.44686,2.45474,-0.0904444,-0.523089,-0.970246,-0.688675,2.58418,0.731988,0.746208,-0.28558
806678,0.99,-1.57063,-0.523251,0.000240551,-2.09521,-0.000282261,1.57038,0.785642,-1.57077,-0.523531,9.00048e-05,-2.09451,3.8845e-05,1.57098,0.785578,-0.00258247,0.00557532,0.00996267,-0.000625062,0.000242285,0.000746085,0.00956905,0.00648635,0.015,0.02,-0.025,0.00862789,0.04,0.04,0.628673,-7.93979,0.328738,19.0555,1.44686,2.4291,-0.103262,-0.527058,-0.972951,-0.697011,2.5835,0.731792,0.74667,-0.285123
806679,0.99,-1.57063,-0.523233,0.000263477,-2.09522,-0.000279936,1.5704,0.785642,-1.57076,-0.523514,0.000112505,-2.09454,4.85514e-05,1.57102,0.785623,-0.00406317,0.0117805,0.014159,-0.00592286,0.000568424,0.00543543,0.0115799,0.00729715,0.016875,0.0225,-0.028125,0.00970638,0.045,0.045,0.906383,-7.63828,0.503299,18.6588,1.43587,2.42269,-0.0904444,-0.531177,-0.985967,-0.706333,2.58603,0.731631,0.747673,-0.284189
806680,0.99,-1.57063,-0.523217,0.000286569,-2.09524,-0.000280746,1.57042,0.785648,-1.57075,-0.523496,0.000137505,-2.09457,5.93363e-05,1.57107,0.785673,-0.0032689,0.0125967,0.0167005,-0.00613254,-0.00107911,0.0101741,0.0129239,0.00810794,0.01875,0.025,-0.03125,0.0107849,0.05,0.05,1.10871,-7.30899,0.70563,18.2343,1.47524,2.38333,-0.077627,-0.53574,-1.01626,-0.717559,2.59582,0.731572,0.749579,-0.28271
806681,0.99,-1.57063,-0.523207,0.000311578,-2.09526,-0.0002845,1.57045,0.785654,-1.57074,-0.523473,0.000167505,-2.0946,7.18996e-05,1.57113,0.785731,-0.000439425,0.0113972,0.0227662,-0.0110666,-0.00343208,0.0140771,0.0138993,0.00954331,0.0225,0.03,-0.0375,0.0125633,0.06,0.0578037,1.21186,-6.90433,0.860354,18.0121,1.54848,2.33206,-0.0584009,-0.542642,-1.05748,-0.733753,2.60982,0.731493,0.752154,-0.280672
806682,0.99,-1.57063,-0.523197,0.00033639,-2.09529,-0.000286192,1.57047,0.785667,-1.57073,-0.523447,0.000202505,-2.09465,8.62414e-05,1.5712,0.785797,-0.000191409,0.0106521,0.0210268,-0.0167732,-0.00333922,0.0194591,0.010596,0.0109787,0.02625,0.035,-0.04375,0.0143418,0.07,0.0656074,1.38642,-6.49966,1.01111,17.8891,1.57686,2.33847,-0.0584009,-0.552666,-1.09963,-0.755976,2.62425,0.731379,0.75516,-0.278088
806683,0.99,-1.57063,-0.523188,0.000366793,-2.09531,-0.000288859,1.57051,0.785683,-1.57072,-0.523417,0.000242505,-2.0947,0.000102362,1.57128,0.78587,0.00230708,0.0105873,0.0270321,-0.0182685,-0.0032773,0.0225811,0.0160485,0.0124141,0.03,0.04,-0.05,0.0161203,0.08,0.073411,1.4618,-6.1188,1.11029,17.663,1.60524,2.37051,-0.0190333,-0.564393,-1.13679,-0.781922,2.63704,0.731378,0.758444,-0.275
806684,0.99,-1.57062,-0.523178,0.000392359,-2.09534,-0.000286721,1.57055,0.785698,-1.5707,-0.523383,0.000287505,-2.09475,0.00012026,1.57137,0.785951,0.00712402,0.0160487,0.0260677,-0.0243448,-0.00259177,0.0327451,0.0179676,0.0138494,0.03375,0.045,-0.05625,0.0178987,0.09,0.0812147,1.53718,-5.56339,1.43958,17.3893,1.61623,2.45474,0.0780126,-0.577831,-1.16973,-0.811206,2.64805,0.731572,0.761891,-0.271444
806685,0.99,-1.57062,-0.523159,0.000421489,-2.09537,-0.000281796,1.5706,0.785719,-1.57069,-0.523346,0.000337505,-2.09482,0.000139938,1.57147,0.78604,0.00774156,0.017546,0.0283573,-0.0303482,-0.0015244,0.0406715,0.0199879,0.0152848,0.0375,0.05,-0.0625,0.0196772,0.1,0.0890184,1.86647,-4.88101,1.92359,16.8933,1.61073,2.53805,0.16865,-0.592445,-1.2056,-0.842418,2.66069,0.732118,0.765723,-0.2674
806686,0.99,-1.57062,-0.523141,0.000469518,-2.09542,-0.000266438,1.57067,0.785752,-1.57067,-0.523304,0.000392505,-2.09489,0.000161393,1.57158,0.786137,0.00317351,0.0149428,0.0354411,-0.037206,0.00149296,0.0490591,0.0265661,0.0167202,0.04125,0.055,-0.06875,0.0214556,0.11,0.0968221,2.29493,-4.02011,2.32825,16.3697,1.54299,2.55728,0.252878,-0.606278,-1.24389,-0.873018,2.6757,0.733163,0.770172,-0.262778
806687,0.99,-1.57061,-0.523107,0.000515029,-2.09546,-0.000254893,1.57075,0.785791,-1.57065,-0.523259,0.000452505,-2.09496,0.000184627,1.5717,0.786242,0.00495946,0.019093,0.035685,-0.0391986,0.0064541,0.0577205,0.0315119,0.0181555,0.045,0.06,-0.075,0.0232341,0.12,0.104626,2.64802,-3.38931,2.83209,15.6992,1.5201,2.51242,0.337107,-0.617654,-1.27772,-0.901408,2.6897,0.734652,0.775204,-0.257437
806688,0.99,-1.5706,-0.523065,0.000563232,-2.09552,-0.000236668,1.57084,0.785852,-1.57064,-0.523211,0.000517505,-2.09504,0.00020964,1.57183,0.786354,0.00462379,0.0263282,0.040381,-0.0479009,0.00550079,0.0698667,0.0422638,0.0195909,0.04875,0.065,-0.08125,0.0250126,0.13,0.112429,2.94954,-2.81009,3.28833,15.1517,1.49812,2.4291,0.343516,-0.625083,-1.31092,-0.925405,2.70306,0.736496,0.780919,-0.25121
806689,0.99,-1.57059,-0.523024,0.000620128,-2.09558,-0.000218056,1.57095,0.785913,-1.57061,-0.523158,0.000587505,-2.09513,0.000236431,1.57197,0.786474,0.00370547,0.032405,0.0438768,-0.0540501,0.00992263,0.0832703,0.0532371,0.0210263,0.0525,0.07,-0.0875,0.026791,0.14,0.120233,3.27882,-2.25467,3.61762,14.7312,1.46425,2.33847,0.407602,-0.627871,-1.35504,-0.943928,2.72051,0.738655,0.787615,-0.243956
806690,0.99,-1.57057,-0.522983,0.000671201,-2.09566,-0.000204655,1.57108,0.785988,-1.57059,-0.523102,0.000662505,-2.09522,0.000265,1.57212,0.786602,0.00784042,0.0342292,0.0482813,-0.0622646,0.00943665,0.0954884,0.0615324,0.0224616,0.05625,0.075,-0.09375,0.0285695,0.15,0.128037,3.40577,-1.72305,3.99848,14.4574,1.532,2.20297,0.459788,-0.626668,-1.41294,-0.957875,2.74331,0.740994,0.79525,-0.235613
806691,0.99,-1.57056,-0.522949,0.00073304,-2.09574,-0.000194966,1.57122,0.786065,-1.57057,-0.52304,0.000745005,-2.09533,0.000295825,1.57228,0.78674,0.0107685,0.0310273,0.0507305,-0.0663662,0.00378431,0.106519,0.0668531,0.0243713,0.061731,0.0825,-0.103016,0.030825,0.162953,0.137296,3.53273,-1.13986,4.27619,14.2591,1.62264,2.13247,0.550425,-0.623201,-1.47236,-0.969156,2.76562,0.743276,0.803169,-0.226155
806692,0.99,-1.57054,-0.52292,0.000806634,-2.09583,-0.000184955,1.57136,0.786162,-1.57054,-0.522973,0.000835005,-2.09544,0.000328906,1.57246,0.786886,0.00825587,0.031934,0.0560347,-0.0689507,0.00475539,0.122005,0.0739359,0.026281,0.0672119,0.09,-0.112282,0.0330805,0.175905,0.146556,3.70729,-0.560638,4.40314,14.0607,1.70687,2.12606,0.544016,-0.617559,-1.51533,-0.977545,2.77794,0.745411,0.810287,-0.215566
806693,0.99,-1.57052,-0.522887,0.00087746,-2.09592,-0.000173286,1.57152,0.78627,-1.57051,-0.5229,0.000932505,-2.09556,0.000364242,1.57265,0.787042,0.0129996,0.0331413,0.0640934,-0.0767819,0.00729036,0.131374,0.0848351,0.0281907,0.0726929,0.0975,-0.121548,0.035336,0.188858,0.155816,3.73109,-0.00125125,4.60547,13.9853,1.74623,2.17733,0.52479,-0.610497,-1.53399,-0.984313,2.77577,0.747432,0.815921,-0.203837
806694,0.99,-1.57049,-0.522854,0.000951331,-2.096,-0.000156435,1.57168,0.786391,-1.57048,-0.522822,0.0010375,-2.09569,0.000401834,1.57285,0.787207,0.0179486,0.0357105,0.0695298,-0.0810856,0.00910433,0.13922,0.0938825,0.0301004,0.0781739,0.105,-0.130815,0.0375915,0.201811,0.165075,3.68348,0.7565,4.95856,13.6124,1.78652,2.22219,0.472605,-0.606135,-1.53113,-0.995177,2.76144,0.749339,0.820213,-0.191019
806695,0.99,-1.57047,-0.522808,0.0010365,-2.09611,-0.000128303,1.57185,0.786528,-1.57045,-0.522738,0.00115,-2.09583,0.000441681,1.57307,0.787381,0.0197823,0.0399594,0.075808,-0.0901058,0.019435,0.149009,0.110411,0.03201,0.0836548,0.1125,-0.140081,0.0398471,0.214764,0.174335,3.83424,1.56583,5.36719,13.1879,1.71236,2.2936,0.414011,-0.607128,-1.51333,-1.01316,2.73951,0.7512,0.82368,-0.177277
806696,0.99,-1.57044,-0.522758,0.0011307,-2.09622,-9.43593e-05,1.57204,0.786669,-1.57042,-0.522649,0.00127,-2.09598,0.000483783,1.57329,0.787565,0.0221038,0.0409793,0.0781372,-0.0952299,0.0267629,0.163829,0.119262,0.0339197,0.0891358,0.12,-0.149347,0.0421026,0.227716,0.183595,4.08418,2.47433,5.87104,12.5452,1.63912,2.2872,0.434153,-0.612011,-1.48572,-1.03522,2.71328,0.753168,0.82678,-0.162901
806697,0.99,-1.57041,-0.522689,0.00122987,-2.09634,-5.90127e-05,1.57225,0.786832,-1.57038,-0.522555,0.0013975,-2.09614,0.000528141,1.57353,0.787758,0.0228301,0.0502137,0.0827923,-0.103653,0.0307656,0.178844,0.133721,0.0358294,0.0946168,0.1275,-0.158613,0.0443581,0.240669,0.192854,4.38966,3.18051,6.37885,11.9223,1.59975,2.18374,0.375559,-0.617267,-1.45292,-1.05545,2.68483,0.755372,0.829809,-0.148194
806698,0.99,-1.57038,-0.522613,0.00132549,-2.09647,-1.8748e-05,1.57249,0.786999,-1.57034,-0.522455,0.0015325,-2.09631,0.000574755,1.57379,0.78796,0.0250098,0.0580812,0.0855992,-0.111616,0.0337255,0.196207,0.147212,0.0377391,0.100098,0.135,-0.167879,0.0466136,0.253622,0.202114,4.6396,3.83908,6.96204,11.3749,1.56038,2.03543,0.375559,-0.619717,-1.42601,-1.06874,2.65887,0.757911,0.833153,-0.133391
806699,0.99,-1.57035,-0.522532,0.00144256,-2.09662,2.19353e-05,1.57274,0.787181,-1.5703,-0.522349,0.001675,-2.09648,0.000623624,1.57405,0.788171,0.0254121,0.0631369,0.0958083,-0.123557,0.0354085,0.212993,0.162001,0.0396488,0.105579,0.1425,-0.177145,0.0488691,0.266575,0.211374,4.94508,4.3945,7.33893,10.9543,1.532,1.89443,0.381968,-0.618817,-1.41334,-1.07439,2.63971,0.760747,0.837076,-0.118679
806700,0.99,-1.57033,-0.52246,0.0015523,-2.09677,6.01979e-05,1.57299,0.787374,-1.57026,-0.522238,0.001825,-2.09667,0.000674749,1.57433,0.788392,0.025856,0.0653168,0.10088,-0.136434,0.0383626,0.230624,0.170131,0.0415585,0.11106,0.15,-0.186411,0.0511246,0.279527,0.220633,5.24659,5.0015,7.82294,10.6052,1.58785,1.75253,0.434153,-0.615786,-1.41258,-1.07472,2.62796,0.763726,0.841521,-0.10419
806701,0.99,-1.57029,-0.522384,0.00167195,-2.09693,9.81284e-05,1.57328,0.78757,-1.57022,-0.52212,0.00198408,-2.09687,0.000728474,1.57463,0.788623,0.0295277,0.0703602,0.106469,-0.143666,0.0399678,0.247369,0.180538,0.0438196,0.117464,0.159073,-0.197443,0.0537252,0.293928,0.230528,5.42115,5.58469,8.2276,10.3791,1.6675,1.62344,0.531199,-0.610706,-1.41634,-1.07008,2.62094,0.766722,0.846055,-0.0899807
806702,0.99,-1.57026,-0.522312,0.00180936,-2.09711,0.000140738,1.57356,0.787782,-1.57017,-0.521997,0.00215222,-2.09708,0.0007848,1.57494,0.788863,0.0306878,0.0720487,0.115482,-0.155749,0.0417157,0.260948,0.188328,0.0460808,0.123869,0.168145,-0.208475,0.0563258,0.308329,0.240422,5.65126,6.23929,8.42993,10.2085,1.74074,1.60421,0.628245,-0.60404,-1.41717,-1.06104,2.61443,0.76965,0.850028,-0.0759926
806703,0.99,-1.57022,-0.522233,0.00194221,-2.09728,0.000188433,1.57385,0.788007,-1.57012,-0.521866,0.00232944,-2.0973,0.000843726,1.57526,0.789113,0.0332145,0.0731101,0.117437,-0.160564,0.0491,0.273087,0.202232,0.048342,0.130273,0.177218,-0.219507,0.0589263,0.322729,0.250316,5.67506,6.79471,8.68384,9.98233,1.78011,1.6683,0.653879,-0.595856,-1.40588,-1.04773,2.60345,0.772513,0.852823,-0.0620635
806704,0.99,-1.57017,-0.522149,0.00207845,-2.09746,0.0002384,1.57416,0.788248,-1.57007,-0.52173,0.00251573,-2.09753,0.000905253,1.5756,0.789373,0.0387499,0.0786386,0.122419,-0.167631,0.050415,0.277508,0.213689,0.0506032,0.136678,0.18629,-0.230539,0.0615269,0.33713,0.26021,5.65126,7.4017,9.03693,9.68479,1.803,1.7333,0.601694,-0.584695,-1.37511,-1.02754,2.58317,0.775392,0.854019,-0.048006
806705,0.99,-1.57012,-0.522057,0.00221923,-2.09765,0.000296652,1.57448,0.788494,-1.57002,-0.521587,0.00271109,-2.09777,0.00096938,1.57595,0.789644,0.0414515,0.0818354,0.131004,-0.179961,0.0538263,0.291596,0.220937,0.0528644,0.143082,0.195363,-0.241571,0.0641275,0.351531,0.270104,5.80201,8.06027,9.4654,9.31186,1.75264,1.77175,0.621836,-0.571576,-1.32665,-1.00146,2.55432,0.778381,0.85387,-0.033684
806706,0.99,-1.57008,-0.521955,0.00237412,-2.09786,0.000362667,1.57482,0.788746,-1.56997,-0.521437,0.00291553,-2.09802,0.00103611,1.57631,0.789924,0.0409291,0.0879653,0.140206,-0.188133,0.0568727,0.304452,0.233336,0.0551256,0.149487,0.204435,-0.252603,0.0667281,0.365931,0.279999,6.07972,8.69107,9.92163,8.83976,1.69039,1.7333,0.588877,-0.558797,-1.26634,-0.97314,2.52089,0.78157,0.85297,-0.0190703
806707,0.99,-1.57003,-0.521841,0.0025365,-2.09808,0.000427675,1.57518,0.789019,-1.56991,-0.521281,0.00312904,-2.09828,0.00110544,1.57669,0.790213,0.0420557,0.0943982,0.147145,-0.197692,0.0579,0.320865,0.247456,0.0573868,0.155891,0.213508,-0.263635,0.0693286,0.380332,0.289893,6.30586,9.24649,10.3779,8.46683,1.65651,1.66189,0.518381,-0.546279,-1.19937,-0.943041,2.48512,0.784992,0.851643,-0.00422467
806708,0.99,-1.56999,-0.521727,0.00269712,-2.0983,0.000497918,1.57555,0.789301,-1.56985,-0.521119,0.00335162,-2.09856,0.00117737,1.57709,0.790513,0.0425187,0.102146,0.152447,-0.203856,0.0637647,0.334349,0.255049,0.059648,0.162296,0.222581,-0.274667,0.0719292,0.394732,0.299787,6.55976,9.80588,10.8341,8.09391,1.61073,1.54653,0.44697,-0.531869,-1.13023,-0.908093,2.44755,0.788618,0.84995,0.0107178
806709,0.99,-1.56994,-0.521603,0.00287568,-2.09855,0.000570727,1.57594,0.789584,-1.56979,-0.52095,0.00358327,-2.09884,0.0012519,1.5775,0.790823,0.0422812,0.109408,0.160519,-0.214568,0.0673725,0.348421,0.26824,0.0619092,0.1687,0.231653,-0.285699,0.0745298,0.409133,0.309681,6.83351,10.2859,11.2388,7.82016,1.58235,1.43667,0.388376,-0.513317,-1.06224,-0.864933,2.40851,0.792363,0.847876,0.0255422
806710,0.99,-1.5699,-0.521474,0.00306068,-2.0988,0.000640602,1.57634,0.78988,-1.56972,-0.520775,0.003824,-2.09914,0.00132903,1.57792,0.791143,0.0396819,0.1155,0.16748,-0.226471,0.0723271,0.364124,0.275607,0.0641704,0.175105,0.240726,-0.296731,0.0771304,0.423534,0.319575,7.08741,10.7382,11.6196,7.598,1.62264,1.32131,0.394785,-0.489069,-0.99794,-0.811707,2.3698,0.796162,0.845505,0.0399997
806711,0.99,-1.56985,-0.521343,0.00325711,-2.09906,0.000710924,1.57676,0.790184,-1.56966,-0.520593,0.00407458,-2.09945,0.00140902,1.57836,0.791472,0.0432205,0.116798,0.177671,-0.23638,0.0712175,0.382928,0.28599,0.0666811,0.181804,0.250584,-0.30855,0.0799956,0.438465,0.329604,7.23817,11.1944,11.9211,7.39963,1.67299,1.26272,0.414011,-0.45949,-0.933362,-0.749448,2.33098,0.799914,0.842659,0.0538838
806712,0.99,-1.5698,-0.52121,0.00346411,-2.09933,0.000786794,1.57719,0.790491,-1.56959,-0.520405,0.00433502,-2.09977,0.00149188,1.57881,0.791812,0.0445086,0.12389,0.187918,-0.245719,0.0710079,0.395433,0.289668,0.0691918,0.188503,0.260442,-0.320369,0.0828608,0.453397,0.339632,7.4405,11.6507,12.0997,7.22507,1.70687,1.26272,0.531199,-0.428032,-0.860763,-0.683349,2.28882,0.803442,0.838859,0.0671109
806713,0.99,-1.56975,-0.521067,0.00366694,-2.09961,0.000865776,1.57763,0.790822,-1.56951,-0.52021,0.00460532,-2.1001,0.00157761,1.57928,0.792161,0.0485218,0.128616,0.192905,-0.257614,0.070638,0.4112,0.302421,0.0717025,0.195202,0.2703,-0.332187,0.085726,0.468328,0.34966,7.51588,12.0038,12.3774,7.07431,1.75264,1.34054,0.52479,-0.396853,-0.779078,-0.616393,2.24301,0.806743,0.833963,0.0797414
806714,0.99,-1.56969,-0.520924,0.00389108,-2.0999,0.000950713,1.57807,0.791156,-1.56944,-0.520008,0.00488548,-2.10045,0.0016662,1.57976,0.792521,0.0530502,0.135407,0.203553,-0.269262,0.0718885,0.420064,0.313054,0.0742132,0.201902,0.280158,-0.344006,0.0885912,0.48326,0.359688,7.51588,12.456,12.6075,6.89975,1.75813,1.48794,0.491831,-0.366419,-0.691627,-0.548854,2.19606,0.809948,0.828287,0.0919318
806715,0.99,-1.56964,-0.520776,0.00411619,-2.10021,0.0010393,1.57853,0.791507,-1.56936,-0.519799,0.0051755,-2.1008,0.00175766,1.58026,0.792891,0.0491124,0.14082,0.214954,-0.280255,0.0786125,0.43238,0.324016,0.0767239,0.208601,0.290017,-0.355825,0.0914564,0.498191,0.369716,7.81739,12.9123,12.909,6.70139,1.73525,1.5209,0.485422,-0.337724,-0.600871,-0.482473,2.15005,0.813125,0.822341,0.103811
806716,0.99,-1.56959,-0.520619,0.00435414,-2.10052,0.00112296,1.57903,0.791854,-1.56928,-0.519584,0.00547537,-2.10117,0.00185198,1.58078,0.793271,0.0502631,0.142788,0.224401,-0.2928,0.0817787,0.450982,0.330507,0.0792346,0.2153,0.299875,-0.367644,0.0943216,0.513123,0.379745,8.0951,13.3169,13.2383,6.42765,1.75813,1.43026,0.537607,-0.310041,-0.504528,-0.417142,2.10422,0.816337,0.816459,0.115402
806717,0.99,-1.56954,-0.520442,0.00460664,-2.10085,0.00120922,1.57954,0.792209,-1.5692,-0.519362,0.00578511,-2.10155,0.00194916,1.5813,0.79366,0.0485555,0.154024,0.235691,-0.301253,0.0848863,0.468931,0.34067,0.0817453,0.221999,0.309733,-0.379463,0.0971868,0.528055,0.389773,8.34901,13.5708,13.6429,6.1301,1.75813,1.34054,0.582468,-0.281914,-0.401057,-0.351393,2.05707,0.819645,0.810673,0.126718
806718,0.99,-1.56949,-0.520266,0.00486419,-2.10119,0.00130058,1.58005,0.792586,-1.56912,-0.519133,0.0061047,-2.10194,0.00204922,1.58185,0.79406,0.050873,0.162179,0.24398,-0.318247,0.088996,0.483499,0.352889,0.084256,0.228699,0.319591,-0.391282,0.100052,0.542986,0.399801,8.7021,13.8247,13.9484,5.85636,1.71236,1.34695,0.550425,-0.252454,-0.29921,-0.284174,2.01195,0.823144,0.805213,0.13784
806719,0.99,-1.56943,-0.520074,0.00512647,-2.10154,0.00139071,1.58058,0.792969,-1.56903,-0.518898,0.00643415,-2.10234,0.00215213,1.5824,0.79447,0.0544687,0.171424,0.248179,-0.330473,0.0894159,0.494562,0.360175,0.0867667,0.235398,0.329449,-0.403101,0.102917,0.557918,0.409829,8.87666,14.0509,14.3293,5.6818,1.73525,1.32772,0.518381,-0.219981,-0.209379,-0.212559,1.97463,0.826976,0.800594,0.14886
806720,0.99,-1.56937,-0.519885,0.00540423,-2.10191,0.00148115,1.58113,0.793363,-1.56894,-0.518656,0.00677345,-2.10276,0.00225792,1.58298,0.79489,0.0600527,0.180911,0.255961,-0.343338,0.0891573,0.516654,0.365464,0.0892774,0.242097,0.339308,-0.414919,0.105782,0.572849,0.419857,9.05519,14.2532,14.6586,5.53501,1.77461,1.21786,0.531199,-0.183168,-0.135531,-0.133691,1.947,0.831189,0.796976,0.1598
806721,0.99,-1.56931,-0.519688,0.00568949,-2.10229,0.00158108,1.58171,0.793762,-1.56885,-0.518407,0.00712275,-2.10319,0.00236678,1.58356,0.79532,0.0549829,0.184636,0.266562,-0.357749,0.0909933,0.534893,0.385415,0.0919514,0.248614,0.349298,-0.426774,0.108859,0.587752,0.429715,9.3567,14.5071,14.7855,5.45963,1.76363,1.05673,0.511057,-0.141668,-0.0742809,-0.0471959,1.92665,0.835756,0.793995,0.170617
806722,1,-1.56925,-0.519481,0.00599066,-2.10268,0.00168114,1.5823,0.794174,-1.56876,-0.518152,0.00748204,-2.10362,0.00247871,1.58417,0.795759,0.0585522,0.192472,0.277772,-0.369038,0.0906515,0.555824,0.392929,0.0946255,0.25513,0.359288,-0.438628,0.111936,0.602655,0.439572,9.48365,14.6817,14.9879,5.36045,1.79201,0.941371,0.49824,-0.0956544,-0.0171769,0.0454291,1.90923,0.840621,0.791036,0.181253
806723,1,-1.56918,-0.519275,0.00630085,-2.10308,0.00178778,1.58288,0.794606,-1.56866,-0.51789,0.00785132,-2.10407,0.00259373,1.58479,0.796209,0.0617869,0.196344,0.287532,-0.38488,0.0964743,0.565681,0.404554,0.0972995,0.261647,0.369278,-0.450483,0.115013,0.617558,0.449429,9.55903,14.9356,15.1624,5.20969,1.77461,0.99264,0.453379,-0.0474943,0.0421146,0.140111,1.89181,0.845618,0.787611,0.191669
806724,1,-1.56912,-0.519054,0.00663221,-2.10349,0.00189558,1.58347,0.795048,-1.56856,-0.517622,0.00823058,-2.10454,0.00271182,1.58542,0.796668,0.0632022,0.203377,0.301395,-0.39133,0.100511,0.571153,0.414852,0.0999735,0.268164,0.379268,-0.462337,0.11809,0.632461,0.459287,9.68599,15.011,15.1902,5.0629,1.78011,1.18582,0.375559,-0.000497994,0.108409,0.231984,1.87211,0.850483,0.783479,0.201816
806725,1,-1.56905,-0.518827,0.00696756,-2.10391,0.00200272,1.58407,0.7955,-1.56846,-0.517347,0.00861984,-2.10501,0.00283298,1.58607,0.797137,0.0639968,0.211762,0.311375,-0.402141,0.101762,0.581943,0.427722,0.102648,0.27468,0.389258,-0.474192,0.121167,0.647364,0.469144,9.81294,15.0863,15.3647,4.86057,1.83138,1.25631,0.375559,0.0440026,0.184176,0.318778,1.84727,0.855023,0.778523,0.211597
806726,1,-1.56898,-0.518584,0.00730369,-2.10434,0.00211015,1.58471,0.795961,-1.56835,-0.517066,0.00901909,-2.1055,0.00295723,1.58673,0.797616,0.0679031,0.224418,0.320876,-0.414179,0.1014,0.6042,0.436816,0.105322,0.281197,0.399248,-0.486046,0.124245,0.662267,0.479002,9.93989,15.011,15.4441,4.78916,1.92201,1.21145,0.42042,0.0869089,0.262727,0.401722,1.8187,0.85932,0.773005,0.220883
806727,1,-1.5689,-0.518329,0.00766778,-2.10479,0.00223176,1.58537,0.796423,-1.56824,-0.516778,0.00942833,-2.10599,0.00308455,1.5874,0.798105,0.0714173,0.230472,0.337083,-0.42199,0.105453,0.621165,0.447094,0.107996,0.287713,0.409238,-0.4979,0.127322,0.677169,0.488859,10.0391,14.9078,15.4917,4.68998,1.89913,1.108,0.511057,0.127273,0.337437,0.479573,1.78832,0.863497,0.767158,0.229621
806728,1,-1.56882,-0.518071,0.00803545,-2.10525,0.00235317,1.58603,0.796909,-1.56813,-0.516484,0.00984755,-2.1065,0.00321495,1.5881,0.798604,0.0745438,0.237668,0.347258,-0.432194,0.108217,0.633328,0.458722,0.11067,0.29423,0.419228,-0.509755,0.130399,0.692072,0.498716,10.1145,14.8324,15.5195,4.68998,1.88265,1.05032,0.485422,0.162376,0.412245,0.548269,1.75318,0.867502,0.760793,0.237885
806729,1,-1.56874,-0.517801,0.00840949,-2.1057,0.00247924,1.5867,0.7974,-1.56802,-0.516183,0.0102768,-2.10703,0.00334842,1.5888,0.799112,0.0781531,0.250299,0.356254,-0.44133,0.111654,0.64661,0.4719,0.113344,0.300747,0.429218,-0.521609,0.133476,0.706975,0.508574,10.2652,14.7055,15.6187,4.56302,1.82588,1.11441,0.453379,0.193198,0.488053,0.609345,1.71262,0.87139,0.753887,0.245808
806730,1,-1.56865,-0.517524,0.00879873,-2.10617,0.00260418,1.5874,0.797916,-1.5679,-0.515876,0.010716,-2.10756,0.00348498,1.58953,0.799631,0.0819373,0.256004,0.364672,-0.443628,0.112417,0.665523,0.482351,0.116018,0.307263,0.439208,-0.533464,0.136553,0.721878,0.518431,10.3684,14.6063,15.6464,4.31705,1.80849,1.08877,0.407602,0.223117,0.563294,0.668129,1.6659,0.875235,0.74625,0.253463
806731,1,-1.56856,-0.517245,0.0091959,-2.10665,0.00273387,1.58812,0.798429,-1.56778,-0.515563,0.0111652,-2.1081,0.00362478,1.59026,0.800158,0.0860675,0.262704,0.380367,-0.453287,0.119083,0.677606,0.487317,0.118781,0.313249,0.449198,-0.544794,0.139802,0.73641,0.527932,10.416,14.5309,15.6702,4.1901,1.75813,0.979823,0.453379,0.252447,0.645016,0.725083,1.60793,0.878844,0.737376,0.260841
806732,1,-1.56846,-0.516956,0.00961072,-2.10715,0.00286923,1.58886,0.798948,-1.56766,-0.515244,0.0116244,-2.10866,0.00376783,1.59101,0.800696,0.0944752,0.268386,0.390736,-0.466365,0.122548,0.694606,0.498716,0.121545,0.319234,0.459188,-0.556124,0.143051,0.750941,0.537433,10.3684,14.5309,15.7218,4.06711,1.74623,0.876368,0.472605,0.277755,0.73734,0.775046,1.53847,0.881944,0.72738,0.267934
806733,1,-1.56836,-0.51666,0.0100404,-2.10766,0.00301219,1.58961,0.799485,-1.56754,-0.514918,0.0120935,-2.10923,0.00391413,1.59178,0.801243,0.0980967,0.277664,0.402762,-0.479901,0.126577,0.71051,0.506658,0.124309,0.325219,0.469178,-0.567454,0.146301,0.765473,0.546934,10.293,14.4793,15.7456,3.94413,1.69588,0.850734,0.427744,0.297021,0.835046,0.815257,1.4637,0.884468,0.716856,0.274781
806734,1,-1.56825,-0.516353,0.0104807,-2.10817,0.00315446,1.59036,0.800035,-1.56741,-0.514587,0.0125727,-2.10981,0.00406368,1.59256,0.801799,0.0986755,0.283384,0.415382,-0.485436,0.132637,0.722801,0.523559,0.127072,0.331205,0.479168,-0.578784,0.14955,0.780004,0.556435,10.293,14.3524,15.6187,3.76957,1.69039,0.941371,0.356333,0.311874,0.93384,0.847959,1.38695,0.886452,0.705972,0.281412
806735,1,-1.56815,-0.516025,0.0109447,-2.1087,0.00330531,1.59114,0.800596,-1.56728,-0.51425,0.0130619,-2.1104,0.00421648,1.59335,0.802365,0.0989029,0.296539,0.432694,-0.496119,0.136079,0.736997,0.536083,0.129836,0.33719,0.489158,-0.590114,0.152799,0.794536,0.565936,10.293,13.9755,15.5195,3.64261,1.70687,1.03109,0.291331,0.323958,1.03136,0.87473,1.30811,0.887854,0.694611,0.287779
806736,1,-1.56804,-0.5157,0.0114053,-2.10923,0.00345658,1.59193,0.80116,-1.56715,-0.513907,0.013561,-2.111,0.00437253,1.59416,0.802941,0.102023,0.306348,0.445054,-0.51936,0.142622,0.755128,0.544679,0.132599,0.343176,0.499148,-0.601445,0.156048,0.809068,0.575437,10.416,13.5708,15.4679,3.61881,1.75264,0.934962,0.330698,0.333196,1.11546,0.894717,1.23453,0.888791,0.683551,0.293781
806737,1,-1.56793,-0.515371,0.0118868,-2.1098,0.00361552,1.59276,0.80172,-1.56701,-0.513558,0.0140702,-2.11161,0.00453182,1.59499,0.803526,0.105161,0.313371,0.451718,-0.529336,0.144169,0.777096,0.547354,0.135363,0.349161,0.509138,-0.612775,0.159298,0.823599,0.584938,10.416,13.2654,15.3925,3.76957,1.76912,0.799464,0.388376,0.341562,1.17615,0.911002,1.17432,0.889617,0.673733,0.299308
806738,1,-1.5678,-0.515035,0.0123713,-2.11038,0.00377579,1.59358,0.802314,-1.56687,-0.513203,0.0145893,-2.11224,0.00469437,1.59582,0.80412,0.111368,0.32824,0.464932,-0.540454,0.151136,0.793681,0.563312,0.138127,0.355146,0.519128,-0.624105,0.162547,0.838131,0.594439,10.3684,13.0392,15.3647,3.94413,1.75813,0.708827,0.310557,0.351639,1.21395,0.928179,1.12613,0.890541,0.664941,0.304337
806739,1,-1.56767,-0.514689,0.0128683,-2.11096,0.00393488,1.59443,0.802913,-1.56673,-0.512841,0.0151184,-2.11287,0.00486017,1.59668,0.804724,0.118608,0.335575,0.471611,-0.553067,0.156089,0.808254,0.57714,0.14089,0.361132,0.529118,-0.635435,0.165796,0.852662,0.60394,10.2136,12.7853,15.3409,4.06711,1.75264,0.676783,0.213511,0.36283,1.22924,0.946277,1.08748,0.891526,0.656672,0.308917
806740,1,-1.56754,-0.514331,0.0133891,-2.11156,0.00409971,1.59529,0.803518,-1.56659,-0.512474,0.0156575,-2.11352,0.00502921,1.59754,0.805337,0.121207,0.342001,0.48788,-0.568786,0.158206,0.821894,0.58232,0.143654,0.367117,0.539108,-0.646765,0.169046,0.867194,0.613441,10.293,12.4838,15.1902,4.26548,1.78011,0.676783,0.213511,0.373549,1.22705,0.963517,1.05688,0.892519,0.648687,0.313024
806741,1,-1.56742,-0.513962,0.0138925,-2.11216,0.00426615,1.59613,0.80413,-1.56644,-0.512102,0.0162066,-2.11417,0.00520165,1.59842,0.80596,0.120604,0.349966,0.493418,-0.587594,0.165501,0.823721,0.590464,0.146444,0.372333,0.549098,-0.657173,0.172433,0.881143,0.622473,10.3684,12.0553,15.2378,4.34085,1.76363,0.805873,0.259287,0.384913,1.21299,0.981094,1.03501,0.893654,0.641197,0.316556
806742,1,-1.56729,-0.513595,0.01442,-2.11279,0.00444242,1.59701,0.804744,-1.56629,-0.511724,0.0167657,-2.11484,0.00537747,1.59932,0.806591,0.121933,0.356823,0.501023,-0.59673,0.167616,0.838628,0.60415,0.149234,0.377548,0.559088,-0.667581,0.175819,0.895092,0.631505,10.3684,11.8252,15.2894,4.46384,1.73525,0.934962,0.323374,0.40242,1.18942,1.00647,1.02246,0.895207,0.634479,0.319442
806743,1,-1.56715,-0.513209,0.0149582,-2.11344,0.00463483,1.59788,0.805387,-1.56614,-0.511342,0.0173348,-2.11552,0.00555667,1.60023,0.807232,0.126565,0.366799,0.512206,-0.610689,0.176021,0.851752,0.613844,0.152023,0.382763,0.569078,-0.677988,0.179206,0.909041,0.640537,10.4675,11.5475,15.3647,4.6384,1.64461,1.05032,0.284922,0.428658,1.16,1.04349,1.01557,0.897193,0.628302,0.321738
806744,1,-1.567,-0.512833,0.015493,-2.1141,0.00481823,1.59879,0.806027,-1.56599,-0.510954,0.0179138,-2.11621,0.00573926,1.60115,0.807882,0.135214,0.367312,0.519853,-0.63935,0.175604,0.867091,0.617478,0.154813,0.387979,0.579068,-0.688396,0.182593,0.92299,0.649569,10.3684,11.2936,15.3647,4.91214,1.60524,1.01187,0.349924,0.459838,1.12584,1.08724,1.01528,0.899432,0.623049,0.323601
806745,1,-1.56685,-0.512438,0.0160443,-2.11478,0.00499813,1.59973,0.806661,-1.56583,-0.510561,0.0185029,-2.11691,0.00592524,1.60209,0.80854,0.13703,0.375068,0.523888,-0.651,0.177838,0.87888,0.621627,0.157603,0.393194,0.589058,-0.698804,0.18598,0.936939,0.658601,10.3168,10.8413,15.3925,5.33664,1.61623,0.921229,0.381968,0.494449,1.08837,1.13635,1.02505,0.901874,0.61948,0.325173
806746,1,-1.56672,-0.512043,0.0166047,-2.11548,0.00518501,1.60065,0.807327,-1.56567,-0.510162,0.0191019,-2.11762,0.00611461,1.60304,0.809208,0.136468,0.384595,0.545883,-0.660862,0.179795,0.893148,0.637182,0.160393,0.39841,0.599048,-0.709212,0.189367,0.950887,0.667633,10.4913,10.3851,15.3171,5.7056,1.62813,0.986232,0.330698,0.532216,1.04981,1.1901,1.04179,0.904324,0.617267,0.326598
806747,1,-1.56658,-0.511645,0.0171773,-2.11618,0.00537055,1.60159,0.807986,-1.56551,-0.509759,0.019711,-2.11834,0.00630736,1.604,0.809884,0.134888,0.388384,0.551981,-0.676779,0.181268,0.904604,0.646052,0.163183,0.403625,0.609038,-0.719619,0.192753,0.964836,0.676665,10.5945,10.0558,15.2894,6.1063,1.64461,1.02468,0.291331,0.571085,1.01188,1.24404,1.06075,0.906507,0.61566,0.327999
806748,1,-1.56642,-0.511228,0.0177556,-2.1169,0.00555522,1.60256,0.808667,-1.56534,-0.50935,0.02033,-2.11907,0.0065035,1.60498,0.81057,0.144991,0.396709,0.554568,-0.687001,0.183474,0.921044,0.651087,0.165972,0.408841,0.619028,-0.730027,0.19614,0.978785,0.685697,10.4675,9.62735,15.4679,6.42765,1.75264,1.01187,0.213511,0.613085,0.977165,1.30118,1.07959,0.908451,0.614287,0.329372
806749,1,-1.56627,-0.510816,0.0183439,-2.11762,0.00575755,1.60352,0.809346,-1.56517,-0.508936,0.020959,-2.11981,0.00670303,1.60598,0.811265,0.148855,0.401705,0.565286,-0.695133,0.190638,0.934322,0.656432,0.168762,0.414056,0.629018,-0.740435,0.199527,0.992734,0.694729,10.4913,9.24649,15.5671,6.65378,1.72975,0.960597,0.226328,0.659408,0.948806,1.36488,1.09486,0.910178,0.612679,0.330618
806750,1,-1.56612,-0.510393,0.0189605,-2.11835,0.00596852,1.6045,0.810025,-1.565,-0.508516,0.021598,-2.12056,0.00690595,1.60698,0.811969,0.145704,0.408277,0.583197,-0.705902,0.196279,0.939283,0.665544,0.171552,0.419271,0.639008,-0.750843,0.202914,1.00668,0.703761,10.6461,8.84183,15.4679,6.80057,1.69588,0.967006,0.240061,0.706358,0.930277,1.42981,1.10321,0.911559,0.610422,0.331631
806751,1,-1.56595,-0.509972,0.0195745,-2.11909,0.00617375,1.60548,0.81073,-1.56483,-0.508093,0.0222469,-2.12132,0.00711235,1.608,0.812681,0.152179,0.417846,0.588251,-0.717307,0.199585,0.954283,0.673391,0.174314,0.423572,0.648853,-0.760066,0.206403,1.01992,0.712255,10.5707,8.54031,15.5949,6.82438,1.67848,0.979823,0.16865,0.751671,0.91872,1.49175,1.10629,0.912597,0.607605,0.332361
806752,1,-1.56579,-0.509545,0.0201965,-2.11984,0.00638133,1.60647,0.811429,-1.56465,-0.507665,0.0229056,-2.12209,0.00732224,1.60904,0.813402,0.15509,0.419438,0.594161,-0.725765,0.203375,0.961885,0.676423,0.177076,0.427872,0.658699,-0.76929,0.209893,1.03315,0.72075,10.5707,8.36179,15.5195,6.95133,1.62813,1.09518,0.135691,0.79725,0.911464,1.55398,1.10559,0.913416,0.604296,0.332768
806753,1,-1.56563,-0.509106,0.0208366,-2.12061,0.0065906,1.60748,0.812145,-1.56447,-0.507233,0.0235741,-2.12287,0.00753563,1.61008,0.814131,0.155133,0.423161,0.602848,-0.733144,0.204212,0.975249,0.690523,0.179838,0.432172,0.668545,-0.778513,0.213383,1.04638,0.729244,10.6461,8.08408,15.4917,7.05051,1.61623,1.14096,0.122873,0.846396,0.916251,1.62199,1.09675,0.914057,0.600153,0.332757
806754,1,-1.56546,-0.508669,0.0214722,-2.12137,0.00679286,1.60849,0.812875,-1.56429,-0.506796,0.0242525,-2.12365,0.0077525,1.61114,0.814869,0.16806,0.425148,0.61719,-0.752278,0.203278,0.988768,0.702157,0.1826,0.436472,0.678391,-0.787737,0.216872,1.05962,0.737739,10.5429,7.70718,15.5671,7.22507,1.65651,1.20504,0.0972387,0.896318,0.938396,1.69186,1.07857,0.914376,0.595255,0.332262
806755,1,-1.56529,-0.508225,0.0221154,-2.12216,0.00700877,1.60954,0.81359,-1.5641,-0.506355,0.0249408,-2.12445,0.00797286,1.61221,0.815615,0.169379,0.430233,0.627846,-0.760897,0.209203,1.00395,0.703263,0.185362,0.440773,0.688236,-0.79696,0.220362,1.07285,0.746233,10.5707,7.27475,15.6702,7.57022,1.65651,1.08877,0.162241,0.939733,0.974563,1.75327,1.05559,0.914182,0.590227,0.331286
806756,1,-1.56511,-0.507761,0.0227896,-2.12296,0.00722851,1.61058,0.814321,-1.56391,-0.50591,0.0256388,-2.12526,0.00819671,1.6133,0.81637,0.17081,0.438578,0.642102,-0.769576,0.212694,1.03268,0.708158,0.188124,0.445073,0.698082,-0.806184,0.223851,1.08609,0.754728,10.5707,6.66776,15.6187,8.0701,1.67848,1.0375,0.207102,0.974875,1.01884,1.80325,1.02971,0.913476,0.585113,0.32986
806757,1,-1.56493,-0.507314,0.0234641,-2.12378,0.00744003,1.61165,0.815062,-1.56372,-0.505461,0.0263468,-2.12607,0.00842405,1.6144,0.817133,0.172861,0.442677,0.646632,-0.784031,0.210505,1.04235,0.726363,0.190886,0.449373,0.707928,-0.815407,0.227341,1.09932,0.763222,10.5429,6.26706,15.5671,8.61759,1.70687,1.07595,0.284922,1.00577,1.06409,1.84707,1.0026,0.912512,0.579699,0.328068
806758,1,-1.56475,-0.506857,0.0241565,-2.1246,0.00765228,1.61274,0.815802,-1.56353,-0.505007,0.0270645,-2.1269,0.00865488,1.61551,0.817904,0.17377,0.4465,0.653003,-0.795023,0.212001,1.05153,0.729996,0.193648,0.453673,0.717774,-0.824631,0.23083,1.11255,0.771717,10.5191,5.81082,15.5671,8.99051,1.76363,1.05032,0.362742,1.0389,1.10618,1.89417,0.978062,0.911685,0.574273,0.326066
806759,1,-1.56456,-0.506405,0.0248582,-2.12543,0.00787215,1.61383,0.816569,-1.56333,-0.504549,0.0277922,-2.12773,0.0088892,1.61664,0.818685,0.177456,0.451721,0.665944,-0.810178,0.219258,1.06799,0.743303,0.19641,0.457974,0.727619,-0.833854,0.23432,1.12579,0.780211,10.5191,5.55692,15.4441,9.46262,1.76363,0.902003,0.278513,1.07701,1.14365,1.94866,0.959227,0.911223,0.569197,0.32408
806760,1,-1.56437,-0.505935,0.0255721,-2.12629,0.00810955,1.61494,0.817339,-1.56313,-0.504087,0.0285296,-2.12857,0.00912701,1.61778,0.819473,0.181467,0.453659,0.683853,-0.823459,0.223637,1.07932,0.747597,0.199172,0.462274,0.737465,-0.843078,0.23781,1.13902,0.788706,10.4675,5.2554,15.3647,9.93473,1.69588,0.831508,0.200693,1.11419,1.17566,2.00172,0.948588,0.911002,0.564595,0.32233
806761,1,-1.56416,-0.505457,0.0262939,-2.12715,0.00834286,1.61605,0.818116,-1.56293,-0.503622,0.0292765,-2.12942,0.00936838,1.61893,0.82027,0.191117,0.456167,0.69493,-0.83424,0.226582,1.08969,0.756635,0.201861,0.465593,0.746901,-0.85097,0.241365,1.15146,0.796621,10.2414,4.92612,15.3647,10.2085,1.75264,1.0375,0.175059,1.14213,1.20597,2.04144,0.945736,0.910701,0.560216,0.320883
806762,1,-1.56396,-0.504977,0.0270097,-2.12802,0.00857928,1.61713,0.818896,-1.56273,-0.503153,0.0300329,-2.13028,0.0096133,1.62009,0.821075,0.195875,0.463096,0.707296,-0.844569,0.227587,1.09435,0.763406,0.20455,0.468912,0.756336,-0.858862,0.24492,1.16389,0.804536,10.1145,4.49765,15.3647,10.5298,1.72426,1.33413,0.194285,1.15734,1.23659,2.06362,0.949359,0.910106,0.555797,0.319646
806763,1,-1.56376,-0.50448,0.0277638,-2.1289,0.00882511,1.61826,0.819673,-1.56252,-0.50268,0.0307986,-2.13115,0.00986177,1.62127,0.821887,0.200971,0.473507,0.718202,-0.849553,0.228772,1.10428,0.767224,0.207238,0.472231,0.765771,-0.866754,0.248475,1.17632,0.812452,10.0629,4.06522,15.214,10.7282,1.67848,1.44308,0.297739,1.16131,1.26101,2.0711,0.960259,0.909246,0.551523,0.318509
806764,1,-1.56355,-0.503991,0.0285052,-2.1298,0.00907526,1.6194,0.820485,-1.56231,-0.502205,0.0315738,-2.13202,0.0101138,1.62246,0.822707,0.199316,0.473134,0.736968,-0.857995,0.234904,1.11426,0.776172,0.209927,0.475549,0.775207,-0.874646,0.25203,1.18876,0.820367,10.1145,3.63675,15.1624,11.1249,1.61623,1.40463,0.181467,1.15627,1.27752,2.06679,0.976272,0.908123,0.547561,0.317448
806765,1,-1.56335,-0.503492,0.0292748,-2.13071,0.00933001,1.62057,0.821296,-1.5621,-0.501726,0.0323585,-2.13291,0.0103694,1.62366,0.823536,0.199071,0.480556,0.745475,-0.871742,0.240711,1.1206,0.788561,0.212616,0.478868,0.784642,-0.882538,0.255585,1.20119,0.828283,10.1383,3.00595,14.9879,11.6724,1.5201,1.37258,0.0523779,1.14545,1.29049,2.05436,0.995258,0.906722,0.544211,0.316464
806766,1,-1.56314,-0.50299,0.0300438,-2.13162,0.00958953,1.62176,0.822135,-1.56188,-0.501244,0.0331526,-2.1338,0.0106285,1.62487,0.824372,0.204413,0.48783,0.748056,-0.876824,0.242765,1.13405,0.796942,0.215305,0.482187,0.794078,-0.89043,0.25914,1.21362,0.836198,10.0391,2.42276,14.9125,12.0691,1.46974,1.22427,-0.044668,1.13616,1.29647,2.04411,1.01964,0.905186,0.541906,0.315412
806767,1,-1.56293,-0.50249,0.0308095,-2.13251,0.00983404,1.62293,0.822989,-1.56166,-0.500758,0.0339561,-2.1347,0.0108912,1.6261,0.825216,0.208025,0.490861,0.753562,-0.88392,0.240753,1.14335,0.814592,0.217994,0.485506,0.803513,-0.898322,0.262695,1.22606,0.844114,9.9637,1.91891,14.8847,12.2715,1.52651,1.23709,-0.181082,1.13533,1.29385,2.04703,1.04852,0.903554,0.540328,0.314002
806768,1,-1.56272,-0.501981,0.0315988,-2.13342,0.0100872,1.62413,0.823813,-1.56144,-0.500269,0.034769,-2.1356,0.0111575,1.62734,0.826068,0.207467,0.490448,0.759635,-0.88945,0.244301,1.15166,0.817409,0.220683,0.488825,0.812949,-0.906214,0.26625,1.23849,0.852029,10.0391,1.36349,14.734,12.2715,1.58235,1.25631,-0.077627,1.14623,1.29224,2.06832,1.07596,0.901723,0.538641,0.311893
806769,1,-1.5625,-0.50147,0.0324068,-2.13432,0.0103336,1.62532,0.824651,-1.56122,-0.499777,0.0355914,-2.13652,0.0114273,1.62859,0.826928,0.20954,0.507063,0.766282,-0.890209,0.245124,1.16475,0.814709,0.223371,0.492144,0.822384,-0.914106,0.269805,1.25093,0.859944,10.0153,0.804108,14.6308,12.0215,1.69588,1.3085,0.155832,1.17021,1.29346,2.10949,1.09903,0.899719,0.536298,0.308853
806770,1,-1.56227,-0.50095,0.0332118,-2.13521,0.0105876,1.62654,0.825508,-1.56099,-0.499282,0.0364232,-2.13744,0.0117006,1.62985,0.827796,0.214646,0.509899,0.776241,-0.887352,0.247559,1.17519,0.841174,0.22606,0.495463,0.831819,-0.921998,0.27336,1.26336,0.86786,9.83674,0.375641,14.5832,11.724,1.76912,1.4559,0.265696,1.20487,1.29,2.16664,1.11651,0.897558,0.532859,0.304977
806771,1,-1.56205,-0.500424,0.0340445,-2.13612,0.0108717,1.62779,0.826345,-1.56076,-0.498784,0.0372639,-2.13837,0.0119776,1.63113,0.828671,0.215436,0.511584,0.783933,-0.891702,0.254311,1.18983,0.84098,0.228639,0.497801,0.840654,-0.928506,0.27694,1.27494,0.875171,9.88832,-0.0290222,14.48,11.597,1.69588,1.43026,0.459788,1.24521,1.28767,2.23259,1.12229,0.89519,0.527804,0.300652
806772,1,-1.56182,-0.499904,0.0348669,-2.13703,0.0111469,1.62903,0.827227,-1.56053,-0.498284,0.0381134,-2.1393,0.0122581,1.63241,0.829553,0.222785,0.513621,0.789768,-0.915517,0.259374,1.20504,0.846155,0.231218,0.500138,0.849488,-0.935014,0.280519,1.28651,0.882482,9.76136,-0.457489,14.3015,11.474,1.62813,1.42385,0.388376,1.28827,1.29112,2.30309,1.11835,0.892866,0.521834,0.296401
806773,1,-1.56159,-0.499373,0.0357135,-2.13797,0.0114348,1.6303,0.828115,-1.5603,-0.497781,0.0389717,-2.14024,0.0125422,1.63371,0.830443,0.22234,0.516415,0.804542,-0.920394,0.269515,1.21724,0.86241,0.233797,0.502476,0.858322,-0.941522,0.284099,1.29809,0.889794,9.66218,-0.838348,14.0992,11.6248,1.50911,1.4559,0.194285,1.33097,1.29327,2.37343,1.11527,0.890829,0.51646,0.292712
806774,1,-1.56135,-0.498824,0.0365927,-2.13892,0.0117256,1.6316,0.829006,-1.56006,-0.497277,0.0398388,-2.14119,0.0128299,1.63502,0.83134,0.227014,0.521712,0.822032,-0.919608,0.275153,1.24124,0.868857,0.236376,0.504813,0.867157,-0.94803,0.287679,1.30967,0.897105,9.61061,-1.44534,13.7223,11.7994,1.44136,1.27554,0.129282,1.36699,1.29454,2.43365,1.11184,0.888707,0.511605,0.289765
806775,1,-1.56111,-0.498271,0.0374636,-2.13987,0.0120181,1.63291,0.829896,-1.55982,-0.496769,0.0407148,-2.14215,0.0131211,1.63634,0.832245,0.229371,0.531884,0.835556,-0.938059,0.287172,1.26293,0.891592,0.238955,0.507151,0.875991,-0.954539,0.291258,1.32124,0.904416,9.48365,-2.33005,13.4684,12.3191,1.41298,1.21786,0.00660151,1.39024,1.29085,2.47413,1.10653,0.886004,0.506778,0.287397
806776,1,-1.56085,-0.497713,0.0383393,-2.14083,0.0123165,1.63424,0.830782,-1.55958,-0.49626,0.0415997,-2.14311,0.013416,1.63767,0.833157,0.238734,0.540446,0.849237,-0.945329,0.286449,1.28161,0.881344,0.241534,0.509489,0.884826,-0.961047,0.294838,1.33282,0.911727,9.15437,-3.18698,13.2383,12.692,1.37911,1.18582,0.0651953,1.39805,1.26494,2.49065,1.1095,0.882612,0.502565,0.285321
806777,1,-1.56059,-0.497166,0.0392176,-2.14182,0.0126135,1.63555,0.831691,-1.55934,-0.495748,0.0424933,-2.14407,0.0137144,1.63902,0.834076,0.246028,0.542028,0.863151,-0.95379,0.291895,1.2902,0.887041,0.244113,0.511826,0.89366,-0.967555,0.298418,1.34439,0.919038,8.80128,-3.82175,13.0637,13.1165,1.40199,1.37258,0.0523779,1.38838,1.21189,2.48086,1.12485,0.878425,0.499136,0.283288
806778,1,-1.56034,-0.496625,0.0401197,-2.14279,0.0129102,1.63686,0.832602,-1.55909,-0.495234,0.0433958,-2.14505,0.0140164,1.64037,0.835002,0.245271,0.538796,0.877574,-0.958968,0.293874,1.28943,0.89362,0.246692,0.514164,0.902494,-0.974063,0.301997,1.35597,0.926349,8.82905,-4.27402,12.8852,13.4378,1.41298,1.69485,-0.044668,1.36144,1.1477,2.44574,1.14549,0.873254,0.496013,0.281139
806779,1,-1.56011,-0.496092,0.0410414,-2.14379,0.0132224,1.63823,0.833499,-1.55884,-0.494717,0.0443071,-2.14603,0.014322,1.64174,0.835936,0.239622,0.535339,0.885685,-0.968142,0.300821,1.31181,0.892422,0.249271,0.516501,0.911329,-0.980571,0.305577,1.36755,0.933661,9.07899,-4.50412,12.8098,13.8623,1.39559,1.74612,0.110056,1.32494,1.09315,2.39601,1.16232,0.867249,0.492838,0.278706
806780,1,-1.55987,-0.495564,0.0419519,-2.14478,0.0135296,1.63958,0.834423,-1.55859,-0.494199,0.0452273,-2.14702,0.0146311,1.64312,0.836877,0.239397,0.533802,0.892974,-0.969739,0.300516,1.32443,0.891172,0.25185,0.518839,0.920163,-0.987079,0.309157,1.37912,0.940972,9.20594,-4.62711,12.6591,14.2075,1.40199,1.76535,0.16865,1.29056,1.0618,2.34773,1.16819,0.860817,0.48932,0.275852
806781,1,-1.5596,-0.495015,0.0428659,-2.14579,0.0138533,1.64096,0.835335,-1.55834,-0.493678,0.0461556,-2.14801,0.0149438,1.64451,0.837824,0.247541,0.534826,0.899298,-0.979152,0.303941,1.33939,0.902102,0.25429,0.520249,0.928268,-0.99223,0.312717,1.3898,0.947663,9.13057,-5.00797,12.6829,14.4812,1.31136,1.79098,0.278513,1.26409,1.05588,2.30951,1.16114,0.854193,0.485463,0.272661
806782,1,-1.55935,-0.494469,0.0437777,-2.1468,0.0141669,1.64233,0.836252,-1.55808,-0.493157,0.0470919,-2.14901,0.0152601,1.64591,0.838779,0.247851,0.540021,0.924594,-0.981333,0.302548,1.34969,0.905891,0.256731,0.52166,0.936373,-0.99738,0.316277,1.40048,0.954355,9.15437,-5.38882,12.6313,14.5566,1.32784,1.78457,0.434153,1.24044,1.06645,2.27426,1.14577,0.847258,0.481741,0.269426
806783,1,-1.5591,-0.493915,0.0446958,-2.14781,0.0144824,1.64372,0.837194,-1.55782,-0.492634,0.0480364,-2.15001,0.0155799,1.64732,0.83974,0.247974,0.542242,0.920253,-0.992787,0.310489,1.35582,0.918506,0.259171,0.52307,0.944479,-1.00253,0.319836,1.41116,0.961046,9.18214,-5.69034,12.7582,14.8066,1.36171,1.84225,0.36915,1.21652,1.08011,2.23693,1.12948,0.83995,0.478847,0.266513
806784,1,-1.55885,-0.493361,0.0456402,-2.14883,0.0147941,1.64514,0.838149,-1.55756,-0.492109,0.048989,-2.15102,0.0159033,1.64874,0.840707,0.246158,0.542136,0.921251,-0.986731,0.309591,1.37452,0.920776,0.261612,0.524481,0.952584,-1.00768,0.323396,1.42184,0.967738,9.40828,-6.04343,12.6591,14.9811,1.44136,1.77816,0.304148,1.20324,1.09278,2.21333,1.1132,0.832612,0.47681,0.264169
806785,1,-1.5586,-0.492819,0.0465751,-2.14986,0.0151049,1.64655,0.839123,-1.55729,-0.491583,0.0499497,-2.15203,0.0162303,1.65018,0.841682,0.243675,0.539683,0.927269,-1.00116,0.306703,1.39114,0.938733,0.264052,0.525891,0.960689,-1.01283,0.326956,1.43252,0.974429,9.53523,-6.44809,12.5043,15.5524,1.47524,1.60421,0.240061,1.21105,1.1107,2.21872,1.09224,0.825655,0.474965,0.262429
806786,1,-1.55834,-0.492268,0.0475332,-2.15089,0.0154195,1.64797,0.840104,-1.55703,-0.491056,0.0509185,-2.15305,0.0165608,1.65162,0.842663,0.247137,0.540045,0.936172,-1.00838,0.31258,1.39479,0.951314,0.266493,0.527301,0.968794,-1.01798,0.330516,1.44319,0.981121,9.3567,-6.85275,12.3774,16.0483,1.54299,1.57858,-0.0190333,1.23847,1.13466,2.25039,1.06933,0.819301,0.473398,0.261196
806787,1,-1.55806,-0.491726,0.0485132,-2.15195,0.0157633,1.64939,0.841078,-1.55676,-0.490527,0.0518954,-2.15407,0.0168949,1.65307,0.843651,0.256412,0.549951,0.949158,-1.02165,0.31847,1.40286,0.956577,0.268933,0.528712,0.976899,-1.02313,0.334076,1.45387,0.987812,9.13057,-7.20584,12.1512,16.5958,1.45784,1.52731,-0.0254419,1.27503,1.1512,2.29323,1.05569,0.813519,0.472984,0.260258
806788,1,-1.55779,-0.491176,0.0494835,-2.15301,0.0160913,1.65083,0.842079,-1.55649,-0.489997,0.0528804,-2.1551,0.0172325,1.65454,0.844645,0.258334,0.548837,0.959024,-1.03064,0.319841,1.41289,0.980637,0.271374,0.530122,0.985005,-1.02828,0.337636,1.46455,0.994504,8.97981,-7.6105,11.9211,17.3893,1.43587,1.61062,-0.10967,1.30943,1.14516,2.33154,1.06136,0.808174,0.474313,0.259266
806789,1,-1.55753,-0.49062,0.0504698,-2.15408,0.0164109,1.65229,0.843062,-1.55621,-0.489466,0.0538735,-2.15613,0.0175737,1.65601,0.845646,0.256735,0.547197,0.963225,-1.03701,0.316302,1.42585,0.976479,0.273814,0.531533,0.99311,-1.03343,0.341196,1.47523,1.0012,8.92823,-7.99136,11.7188,17.9129,1.5201,1.55294,-0.0840357,1.34039,1.12012,2.36359,1.08541,0.80326,0.47694,0.257839
806790,1,-1.55725,-0.490067,0.0514684,-2.15515,0.0167317,1.65376,0.844074,-1.55594,-0.488933,0.0548747,-2.15717,0.0179185,1.6575,0.846654,0.271063,0.549172,0.974872,-1.04906,0.326473,1.43737,0.989014,0.276255,0.532943,1.00122,-1.03858,0.344755,1.48591,1.00789,8.7021,-8.36826,11.3657,18.4604,1.60524,1.41104,-0.0190333,1.36855,1.08628,2.39094,1.12293,0.798741,0.480149,0.255729
806791,1,-1.55696,-0.489508,0.0524863,-2.15625,0.0170635,1.65521,0.84511,-1.55566,-0.488399,0.0558832,-2.15821,0.0182667,1.659,0.847668,0.273093,0.550793,0.988035,-1.06128,0.329675,1.43264,0.992889,0.278535,0.533523,1.00851,-1.04246,0.348248,1.49566,1.01395,8.49977,-8.77292,11.1118,18.9325,1.62264,1.68203,-0.246084,1.38714,1.04236,2.40486,1.17659,0.794464,0.484107,0.252911
806792,1,-1.55667,-0.48893,0.0535081,-2.15734,0.0174023,1.65667,0.84613,-1.55538,-0.487865,0.056899,-2.15926,0.0186185,1.6605,0.848688,0.277847,0.557812,0.998363,-1.06241,0.333796,1.43038,0.995054,0.280816,0.534103,1.01581,-1.04634,0.35174,1.5054,1.02001,8.14668,-9.25296,10.9849,19.1785,1.58785,1.90084,-0.18749,1.39223,0.982753,2.39961,1.24964,0.790417,0.489175,0.249422
806793,1,-1.55639,-0.48835,0.0545143,-2.15841,0.0177294,1.65815,0.847176,-1.5551,-0.48733,0.0579222,-2.16031,0.0189737,1.66202,0.849714,0.283483,0.567919,0.999873,-1.06141,0.33382,1.44847,1.00816,0.283097,0.534684,1.02311,-1.05022,0.355232,1.51515,1.02607,7.97212,-9.83615,10.9611,19.1309,1.63362,1.83584,-0.213125,1.38774,0.902426,2.38094,1.33883,0.786708,0.495021,0.245172
806794,1,-1.55612,-0.487768,0.0555642,-2.15949,0.0180905,1.65967,0.848197,-1.55481,-0.486795,0.0589526,-2.16136,0.0193324,1.66354,0.850746,0.275104,0.568885,1.00739,-1.05942,0.344241,1.46363,1.00943,0.285378,0.535264,1.03041,-1.0541,0.358725,1.5249,1.03214,8.19825,-10.4431,10.608,19.1071,1.50911,1.68203,-0.122488,1.38266,0.803171,2.3621,1.43517,0.783481,0.500662,0.240048
806795,1,-1.55584,-0.487199,0.0565995,-2.16055,0.0184635,1.66119,0.849229,-1.55452,-0.486259,0.0599903,-2.16242,0.0196946,1.66508,0.851785,0.271548,0.568341,1.01513,-1.05157,0.3488,1.48292,1.00251,0.287658,0.535844,1.03771,-1.05798,0.362217,1.53465,1.0382,8.22206,-10.9748,10.2271,18.881,1.35072,1.37258,0.071604,1.38574,0.701755,2.35481,1.52395,0.780758,0.504588,0.234054
806796,1,-1.55553,-0.486615,0.0576324,-2.16158,0.0188285,1.66269,0.850289,-1.55423,-0.485723,0.0610353,-2.16348,0.0200603,1.66662,0.852829,0.288259,0.569809,1.0181,-1.04047,0.353778,1.48124,1.01728,0.289939,0.536424,1.04501,-1.06185,0.365709,1.5444,1.04426,7.81739,-11.5778,10.2271,18.4604,1.26009,1.55935,-0.128897,1.39645,0.619082,2.35869,1.58936,0.778025,0.505135,0.227429
806797,1,-1.55522,-0.486054,0.0587001,-2.16264,0.0192062,1.66422,0.851344,-1.55394,-0.485186,0.0620876,-2.16455,0.0204296,1.66817,0.853879,0.290312,0.56729,1.0324,-1.04365,0.361824,1.49063,1.03081,0.29222,0.537004,1.05231,-1.06573,0.369202,1.55415,1.05032,7.54365,-11.9071,9.84626,18.3335,1.16945,1.66189,-0.149038,1.40559,0.56525,2.36237,1.62495,0.774464,0.501706,0.220515
806798,1,-1.55494,-0.485499,0.0597583,-2.16368,0.019571,1.66574,0.852407,-1.55365,-0.484648,0.0631472,-2.16562,0.0208022,1.66974,0.854936,0.285706,0.564701,1.03534,-1.04344,0.3589,1.49823,1.03102,0.2945,0.537584,1.05961,-1.06961,0.372694,1.56389,1.05638,7.54365,-12.1848,9.51697,18.1351,1.20333,1.75253,-0.181082,1.40983,0.540319,2.36091,1.63445,0.769754,0.495032,0.213433
806799,1,-1.55463,-0.484931,0.0608404,-2.16475,0.019923,1.66731,0.853445,-1.55335,-0.48411,0.0642141,-2.16669,0.0211784,1.67131,0.855998,0.295215,0.562711,1.04452,-1.04588,0.356167,1.51611,1.03555,0.296781,0.538165,1.06691,-1.07349,0.376186,1.57364,1.06245,7.4167,-12.4903,9.21546,18.0637,1.3846,1.64907,-0.128897,1.41236,0.540919,2.35785,1.62327,0.764051,0.48607,0.206149
806800,1,-1.55431,-0.484377,0.0619428,-2.16583,0.0202964,1.66887,0.854484,-1.55305,-0.483571,0.0652883,-2.16777,0.0215581,1.6729,0.857067,0.302536,0.558074,1.06212,-1.05138,0.359718,1.52928,1.02789,0.299062,0.538745,1.07421,-1.07737,0.379679,1.58339,1.06851,7.13899,-12.7442,8.80683,18.3097,1.44136,1.52731,0.155832,1.40717,0.563563,2.3448,1.59627,0.757412,0.475613,0.198708
806801,1,-1.55398,-0.483814,0.0630418,-2.16689,0.0206793,1.67042,0.855535,-1.55275,-0.483033,0.066369,-2.16885,0.0219412,1.67449,0.858141,0.311441,0.559904,1.07035,-1.0606,0.363526,1.53263,1.05554,0.301168,0.538624,1.08066,-1.08011,0.383053,1.59218,1.07394,6.71052,-12.9425,8.32679,18.3612,1.46425,1.79739,0.175059,1.38445,0.599712,2.3079,1.5622,0.749969,0.464748,0.191342
806802,1,-1.55363,-0.483239,0.0641542,-2.16798,0.0210704,1.67201,0.856599,-1.55245,-0.482494,0.0674561,-2.16993,0.0223276,1.67609,0.85922,0.322426,0.559194,1.07864,-1.05816,0.368822,1.54492,1.05176,0.303273,0.538503,1.08712,-1.08286,0.386428,1.60098,1.07936,6.17891,-13.1726,8.10065,18.3335,1.40199,1.98416,0.226328,1.34203,0.637655,2.24441,1.52908,0.742031,0.45439,0.184436
806803,1,-1.55332,-0.482665,0.0652757,-2.16906,0.0214522,1.67359,0.85767,-1.55214,-0.481956,0.0685497,-2.17102,0.0227174,1.6777,0.860305,0.323256,0.565871,1.09865,-1.06841,0.371553,1.55611,1.05481,0.305379,0.538382,1.09358,-1.0856,0.389803,1.60977,1.08479,6.1551,-13.5773,7.77137,18.3612,1.39009,1.97775,0.24647,1.28003,0.666421,2.1546,1.50155,0.733858,0.445159,0.17835
806804,1,-1.55301,-0.48209,0.0664085,-2.17016,0.0218594,1.6752,0.858751,-1.55183,-0.481418,0.0696497,-2.17211,0.0231106,1.67932,0.861395,0.318528,0.566332,1.10018,-1.07191,0.385564,1.56533,1.06188,0.307484,0.538261,1.10003,-1.08834,0.393177,1.61856,1.09022,6.32966,-13.982,7.44208,18.6072,1.31136,1.99057,0.09083,1.20412,0.673367,2.04502,1.48598,0.725815,0.43797,0.173282
806805,1,-1.55269,-0.481535,0.0675356,-2.17126,0.0222688,1.67681,0.859823,-1.55152,-0.480879,0.0707562,-2.1732,0.0235071,1.68094,0.862491,0.316903,0.571748,1.10232,-1.07197,0.392967,1.58016,1.06787,0.30959,0.53814,1.10649,-1.09108,0.396552,1.62735,1.09564,6.32966,-14.2835,7.33893,18.8056,1.18135,1.89443,0.0780126,1.13011,0.65294,1.93646,1.48356,0.718302,0.433092,0.169159
806806,1,-1.55236,-0.480987,0.0686375,-2.17236,0.0226832,1.67842,0.860908,-1.55121,-0.480341,0.0718691,-2.17429,0.023907,1.68258,0.863592,0.321095,0.563907,1.10565,-1.09111,0.400035,1.58359,1.08772,0.311696,0.538019,1.11294,-1.09383,0.399926,1.63615,1.10107,5.97657,-14.4858,7.33893,19.0555,0.994585,2.00979,-0.00621587,1.06971,0.608472,1.84494,1.49321,0.711461,0.430477,0.165718
806807,1,-1.55202,-0.480451,0.0697579,-2.17345,0.0231139,1.68006,0.861988,-1.5509,-0.479804,0.0729885,-2.17539,0.0243103,1.68423,0.864698,0.324395,0.551772,1.10164,-1.08992,0.408247,1.59469,1.08622,0.313801,0.537898,1.1194,-1.09657,0.403301,1.64494,1.1065,5.82582,-14.4342,7.26355,19.3531,0.830705,2.11965,-0.0510767,1.02554,0.557328,1.77514,1.51104,0.705044,0.429954,0.162653
806808,1,-1.55171,-0.479926,0.0708789,-2.17456,0.023537,1.68169,0.863069,-1.55058,-0.479266,0.0741144,-2.17649,0.024717,1.68588,0.86581,0.322329,0.545399,1.11275,-1.10959,0.420636,1.60437,1.08384,0.315907,0.537777,1.12586,-1.09931,0.406676,1.65373,1.11192,5.9012,-14.3112,7.21198,19.6784,0.819719,2.10684,0.0587866,0.99685,0.521208,1.72736,1.52947,0.698531,0.430973,0.159674
806809,1,-1.5514,-0.479396,0.0720162,-2.17566,0.0239374,1.68335,0.864146,-1.55026,-0.478728,0.0752467,-2.17759,0.0251271,1.68754,0.866927,0.317967,0.538321,1.11758,-1.10957,0.413298,1.60906,1.08307,0.318013,0.537656,1.13231,-1.10205,0.41005,1.66252,1.11735,6.10353,-14.2319,7.21198,19.9244,0.955217,2.15811,0.16865,0.980819,0.505762,1.69726,1.5476,0.691516,0.433484,0.156631
806810,1,-1.55109,-0.478858,0.0731602,-2.17678,0.0243523,1.68497,0.865235,-1.54994,-0.478191,0.0763855,-2.17869,0.0255405,1.68921,0.86805,0.315057,0.537467,1.11771,-1.10911,0.413648,1.61596,1.075,0.320118,0.537535,1.13877,-1.1048,0.413425,1.67131,1.12278,6.30586,-14.1565,7.21198,20.2735,1.08522,2.25515,0.284922,0.978321,0.510384,1.68523,1.56291,0.683886,0.437012,0.153588
806811,1,-1.55076,-0.478317,0.0742968,-2.17789,0.0247462,1.68662,0.86632,-1.54962,-0.477654,0.0775299,-2.1798,0.0259571,1.69089,0.869178,0.314415,0.538262,1.12948,-1.11296,0.404051,1.62084,1.078,0.322038,0.536864,1.14438,-1.10657,0.416631,1.67913,1.12757,6.20668,-14.2835,7.1366,20.6226,1.24361,2.33847,0.375559,0.990032,0.528728,1.69167,1.57344,0.675794,0.441009,0.150789
806812,1,-1.55041,-0.47776,0.0754364,-2.17903,0.0251357,1.68829,0.867464,-1.5493,-0.477117,0.0786798,-2.18091,0.026377,1.69258,0.87031,0.323314,0.545115,1.12738,-1.11986,0.398393,1.62884,1.09366,0.323957,0.536193,1.14999,-1.10834,0.419836,1.68694,1.13235,5.95277,-14.589,7.29132,20.9439,1.47524,2.35769,0.0972387,1.01082,0.542458,1.70922,1.58745,0.667617,0.446045,0.14858
806813,1,-1.5501,-0.477208,0.0765951,-2.18018,0.0255585,1.68996,0.868603,-1.54897,-0.476582,0.0798354,-2.18202,0.0268,1.69427,0.871447,0.315136,0.549337,1.16752,-1.12973,0.403987,1.63815,1.10595,0.325877,0.535522,1.15559,-1.11011,0.423042,1.69475,1.13714,6.17891,-14.8389,7.1128,21.4438,1.47524,2.24234,-0.0190333,1.02867,0.530693,1.72061,1.61744,0.659746,0.453201,0.147162
806814,1,-1.54979,-0.476648,0.0777869,-2.18133,0.0259736,1.69169,0.869725,-1.54864,-0.476047,0.0809966,-2.18313,0.0272263,1.69598,0.872589,0.31089,0.549999,1.17282,-1.12862,0.404642,1.66558,1.11178,0.327796,0.534851,1.1612,-1.11189,0.426247,1.70257,1.14193,6.35743,-15.2436,6.65656,21.9397,1.42397,1.75894,-0.103262,1.03144,0.486992,1.70723,1.66748,0.652461,0.462557,0.146349
806815,1,-1.54944,-0.476096,0.0789578,-2.18249,0.02639,1.69346,0.870885,-1.54831,-0.475513,0.0821635,-2.18424,0.0276557,1.69769,0.873736,0.322518,0.546424,1.16797,-1.13235,0.406439,1.69023,1.1329,0.329715,0.53418,1.16681,-1.11366,0.429453,1.71038,1.14672,6.02815,-15.6244,6.5296,22.4872,1.43587,1.16018,-0.322988,1.02256,0.424156,1.67452,1.72845,0.64603,0.47241,0.14565
806816,1,-1.54909,-0.475557,0.0801221,-2.18363,0.026811,1.69512,0.872049,-1.54798,-0.474979,0.0833359,-2.18536,0.0280884,1.6994,0.874887,0.329488,0.550615,1.17192,-1.15535,0.410929,1.67884,1.13625,0.331635,0.533509,1.17242,-1.11543,0.432658,1.71819,1.1515,5.49653,-15.9021,6.32727,23.0823,1.37361,1.35977,-0.491445,1.0107,0.347075,1.63718,1.80049,0.640715,0.481864,0.144541
806817,1,-1.54875,-0.475018,0.0813008,-2.18477,0.0272296,1.69678,0.873203,-1.54765,-0.474447,0.0845139,-2.18648,0.0285242,1.70113,0.876044,0.334161,0.543437,1.16511,-1.14508,0.412556,1.67062,1.14053,0.333554,0.532838,1.17802,-1.11721,0.435864,1.726,1.15629,5.34578,-16.0767,6.22809,23.1061,1.35072,1.98416,-0.627859,1.00033,0.25438,1.60331,1.88972,0.63657,0.490993,0.142512
806818,1,-1.54843,-0.474477,0.0825021,-2.18589,0.0276521,1.69846,0.874373,-1.54731,-0.473914,0.0856975,-2.1876,0.0289633,1.70286,0.877205,0.328415,0.544279,1.17342,-1.13152,0.416351,1.67464,1.14101,0.335474,0.532167,1.18363,-1.11898,0.439069,1.73382,1.16108,5.44893,-16.3306,5.99799,22.8839,1.3846,2.24234,-0.666311,0.996785,0.165412,1.58174,1.9806,0.633196,0.498125,0.139027
