shamilmamedov/beam_handling/data/vibration_suppression_ICRA/OCP_T3_0.99s.csv
duration, success rate, q[0], q[1], q[2], q[3], q[4], q[5], q[6],q_d[0], q_d[1], q_d[2], q_d[3], q_d[4], q_d[5], q_d[6],dq[0], dq[1], dq[2], dq[3], dq[4], dq[5], dq[6],dq_d[0], dq_d[1], dq_d[2], dq_d[3], dq_d[4], dq_d[5], dq_d[6],tau_J[0], tau_J[1], tau_J[2], tau_J[3], tau_J[4], tau_J[5], tau_J[6],tau_ext_hat_filtered[0], tau_ext_hat_filtered[1], tau_ext_hat_filtered[2], tau_ext_hat_filtered[3], tau_ext_hat_filtered[4], tau_ext_hat_filtered[5], tau_ext_hat_filtered[6]
3212197,0,-1.57091,-0.523198,0.000216309,-2.0959,1.56974,1.57017,0.785851,-1.5708,-0.523599,4.49865e-08,-2.09439,1.5708,1.5708,0.785398,-0.000416128,-0.000283973,0.00111195,0.000748801,-2.66755e-05,0.000121041,-0.00155859,0,0,0,0,0,0,0,0.0494498,-9.80838,-0.532163,20.8963,1.43587,0.483607,-0.322988,0.0545176,-0.714501,-0.0951653,2.36905,0.86626,0.485097,-0.308552
3212198,1,-1.57091,-0.523198,0.000212968,-2.0959,1.56974,1.57017,0.785859,-1.5708,-0.523599,4.49865e-08,-2.09439,1.5708,1.5708,0.785398,-0.000277419,-0.000189315,-0.000372327,0.00170563,0.000185667,-0.000394024,0.0016058,0,0,0,0,0,0,0,0.0494498,-9.80838,-0.484555,20.8448,1.43038,0.496425,-0.394399,0.0534694,-0.713594,-0.0961075,2.36904,0.866278,0.485205,-0.308753
3212199,1,-1.57091,-0.523191,0.000214639,-2.0959,1.56974,1.57017,0.785858,-1.5708,-0.523599,4.49865e-08,-2.09439,1.5708,1.5708,0.785398,-0.000741758,0.00228664,0.000308594,0.00113708,-7.96726e-05,-0.000262683,0.000833174,0,0,0,0,0,0,0,0.0732535,-9.91153,-0.508359,20.8448,1.43587,0.496425,-0.387991,0.0529781,-0.712697,-0.0962412,2.36792,0.866229,0.485226,-0.308925
3212200,1,-1.57091,-0.523195,0.000211019,-2.0959,1.56974,1.57017,0.78585,-1.5708,-0.523599,4.49865e-08,-2.09439,1.5708,1.5708,0.785398,-0.00114412,0.000318002,-0.0010007,-0.00100518,-0.000256566,6.22372e-05,-0.00232677,0,0,0,0,0,0,0,0.101024,-9.85995,-0.456784,20.9201,1.44136,0.490016,-0.310171,0.0535328,-0.71518,-0.0949017,2.36809,0.866192,0.485068,-0.309108
3212201,1,-1.57091,-0.523196,0.000214639,-2.0959,1.56974,1.57017,0.785856,-1.5708,-0.523599,4.49865e-08,-2.09439,1.5708,1.5708,0.785398,-0.000113132,-0.000344811,0.000539295,-0.000670121,3.24068e-05,0.00027885,0.000381602,0,0,0,0,0,0,0,0.0732535,-9.83615,-0.508359,20.9201,1.43587,0.483607,-0.362356,0.0548462,-0.719307,-0.092585,2.36971,0.866203,0.48482,-0.30931
3212202,1,-1.57091,-0.523195,0.000216309,-2.0959,1.56974,1.57017,0.785858,-1.5708,-0.523599,4.49865e-08,-2.09439,1.5708,1.5708,0.785398,0.0010382,0.000326938,0.000916342,0.00131649,2.16045e-05,-5.14587e-05,0.000966478,0,0,0,0,0,0,0,0.0256461,-9.85995,-0.532163,20.8448,1.43587,0.490016,-0.381582,0.0552857,-0.721773,-0.0916853,2.37091,0.866249,0.484755,-0.309484
3212203,1,-1.57091,-0.523198,0.000216309,-2.0959,1.56974,1.57017,0.785856,-1.5708,-0.523599,4.49865e-08,-2.09439,1.5708,1.5708,0.785398,-0.000421489,-0.000988467,0.00690431,-0.00144239,0.000217854,0.000203053,-6.7758e-05,0,0,0,0,0,0,0,0.0732535,-9.80838,-0.532163,20.9439,1.43038,0.483607,-0.362356,0.0524517,-0.722022,-0.0960918,2.37107,0.866402,0.485223,-0.30962
3212204,1,-1.57091,-0.523196,0.000214639,-2.0959,1.56974,1.57017,0.785852,-1.5708,-0.523599,4.49865e-08,-2.09439,1.5708,1.5708,0.785398,0.000275819,-9.36413e-06,0.00457051,-0.000404781,0.000382595,-0.000339349,-0.00126588,0,0,0,0,0,0,0,0.0494498,-9.83615,-0.508359,20.9201,1.42397,0.496425,-0.329397,0.0454113,-0.72104,-0.107611,2.37117,0.866748,0.486352,-0.309747
3212205,1,-1.57091,-0.523195,0.000211019,-2.0959,1.56974,1.57017,0.785856,-1.5708,-0.523599,4.49865e-08,-2.09439,1.5708,1.5708,0.785398,0.000740692,0.000550569,0.00223392,0.00084377,1.77041e-05,0.000248485,0.000376786,0,0,0,0,0,0,0,0.0256461,-9.85995,-0.456784,20.8725,1.43038,0.483607,-0.362356,0.0367833,-0.720197,-0.12186,2.37146,0.867164,0.487726,-0.309865
3212206,1,-1.5709,-0.523196,0.000211019,-2.0959,1.56974,1.57017,0.785855,-1.5708,-0.523599,4.49865e-08,-2.09439,1.5708,1.5708,0.785398,0.000493794,-0.000189766,0.00178428,-0.000551111,0.000249162,-0.000309061,1.3832e-05,0,0,0,0,0,0,0,0.0256461,-9.83615,-0.456784,20.9201,1.42397,0.496425,-0.355947,0.0297337,-0.719874,-0.133378,2.37156,0.867473,0.488854,-0.309955
3212207,1,-1.57091,-0.523195,0.000214639,-2.0959,1.56973,1.57017,0.785856,-1.5708,-0.523599,4.49865e-08,-2.09439,1.5708,1.5708,0.785398,-0.000784428,0.000430301,0.0026172,0.000189405,-0.000478152,3.13182e-05,0.000483939,0,0,0,0,0,0,0,0.0732535,-9.85995,-0.508359,20.8963,1.44136,0.490016,-0.368765,0.0250304,-0.719951,-0.140969,2.37171,0.867659,0.489626,-0.310019
3212208,1,-1.57091,-0.523196,0.000218258,-2.0959,1.56974,1.57017,0.785852,-1.5708,-0.523599,4.49865e-08,-2.09439,1.5708,1.5708,0.785398,3.38602e-05,-0.000269944,0.00311717,-0.000430542,-0.000115318,2.08788e-05,-0.00113544,0,0,0,0,0,0,0,0.0494498,-9.83615,-0.559934,20.9201,1.43587,0.490016,-0.329397,0.0219385,-0.720292,-0.145993,2.37201,0.867775,0.490155,-0.31007
3212209,1,-1.57091,-0.523196,0.000214639,-2.0959,1.56973,1.57017,0.785858,-1.5708,-0.523599,4.49865e-08,-2.09439,1.5708,1.5708,0.785398,2.25734e-05,-0.000179963,0.00099614,0.000826596,-0.000280329,1.39192e-05,0.00117582,0,0,0,0,0,0,0,0.0494498,-9.83615,-0.508359,20.8725,1.44136,0.490016,-0.381582,0.0200163,-0.719953,-0.149131,2.37186,0.867826,0.490521,-0.310108
3212210,1,-1.57091,-0.523196,0.000216309,-2.0959,1.56974,1.57017,0.785855,-1.5708,-0.523599,4.49865e-08,-2.09439,1.5708,1.5708,0.785398,-0.00119138,-0.000119975,0.00131425,-5.74804e-06,0.000220015,9.27947e-06,-0.000165554,0,0,0,0,0,0,0,0.101024,-9.83615,-0.532163,20.8963,1.43038,0.490016,-0.355947,0.0199984,-0.718553,-0.14923,2.37093,0.867773,0.490618,-0.310131
3212211,1,-1.57091,-0.523193,0.000212968,-2.0959,1.56974,1.57017,0.78585,-1.5708,-0.523599,4.49865e-08,-2.09439,1.5708,1.5708,0.785398,-0.000144637,0.00112644,-0.000167454,-0.000560644,-5.67738e-05,0.000243545,-0.00180579,0,0,0,0,0,0,0,0.0732535,-9.88773,-0.484555,20.9201,1.43587,0.483607,-0.310171,0.0222778,-0.718201,-0.145789,2.37043,0.867654,0.490365,-0.310157
3212212,1,-1.57091,-0.523194,0.000216309,-2.0959,1.56974,1.57017,0.785856,-1.5708,-0.523599,4.49865e-08,-2.09439,1.5708,1.5708,0.785398,0.000460387,-0.000455464,0.00105449,-0.000930575,-3.78492e-05,0.000162364,0.00072892,0,0,0,0,0,0,0,0.0494498,-9.83615,-0.532163,20.9439,1.43587,0.483607,-0.362356,0.025841,-0.720063,-0.140332,2.37133,0.867539,0.489903,-0.310177
3212213,1,-1.5709,-0.523195,0.000214639,-2.0959,1.56974,1.57017,0.785859,-1.5708,-0.523599,4.49865e-08,-2.09439,1.5708,1.5708,0.785398,0.00151335,-0.000303643,0.000185561,0.000493241,0.000178218,0.000108242,0.00167274,0,0,0,0,0,0,0,-0.00212494,-9.83615,-0.508359,20.8963,1.43038,0.483607,-0.394399,0.0291439,-0.721565,-0.135095,2.3723,0.867429,0.489481,-0.310154
3212214,1,-1.57091,-0.523198,0.000214639,-2.0959,1.56973,1.57017,0.78585,-1.5708,-0.523599,4.49865e-08,-2.09439,1.5708,1.5708,0.785398,0.000359286,-0.000852043,0.000153241,-0.000227985,-0.00049154,0.00030952,-0.00176705,0,0,0,0,0,0,0,0.0256461,-9.80838,-0.508359,20.9201,1.44686,0.477198,-0.31658,0.0318742,-0.720692,-0.130506,2.37201,0.867284,0.489153,-0.310107
3212215,1,-1.57091,-0.523194,0.000214639,-2.0959,1.56974,1.57017,0.785852,-1.5708,-0.523599,4.49865e-08,-2.09439,1.5708,1.5708,0.785398,-0.000317288,0.000638398,0.000124311,0.000404822,0.000282658,-0.000268371,-0.000703319,0,0,0,0,0,0,0,0.0494498,-9.85995,-0.508359,20.8963,1.43038,0.490016,-0.329397,0.0347739,-0.718799,-0.125577,2.37105,0.867112,0.488781,-0.310066
3212216,1,-1.57091,-0.523196,0.000214639,-2.0959,1.56974,1.57017,0.785857,-1.5708,-0.523599,4.49865e-08,-2.09439,1.5708,1.5708,0.785398,-0.000211525,-0.000131214,9.94868e-05,-0.000843742,-1.50116e-05,5.8445e-05,0.00122654,0,0,0,0,0,0,0,0.0494498,-9.83615,-0.508359,20.9439,1.43587,0.483607,-0.375173,0.0381154,-0.718048,-0.120056,2.37061,0.866955,0.488303,-0.310005
3212217,1,-1.57091,-0.523198,0.000214639,-2.0959,1.56974,1.57017,0.785855,-1.5708,-0.523599,4.49865e-08,-2.09439,1.5708,1.5708,0.785398,-0.00134744,-0.00073709,7.8784e-05,0.000551129,-1.00077e-05,3.89633e-05,0.000105618,0,0,0,0,0,0,0,0.101024,-9.80838,-0.508359,20.8963,1.43587,0.483607,-0.355947,0.0418611,-0.717636,-0.114082,2.37046,0.866806,0.487742,-0.309908
3212218,1,-1.57091,-0.523196,0.000212968,-2.0959,1.56974,1.57017,0.785852,-1.5708,-0.523599,4.49865e-08,-2.09439,1.5708,1.5708,0.785398,-0.000248681,-0.000491393,-0.000494945,-0.000189393,-6.67182e-06,0.000263335,-0.000912932,0,0,0,0,0,0,0,0.0732535,-9.80838,-0.484555,20.9201,1.43587,0.477198,-0.329397,0.0460202,-0.715787,-0.107664,2.36961,0.866628,0.487125,-0.309802
3212219,1,-1.57091,-0.523197,0.000214639,-2.0959,1.56974,1.57017,0.785855,-1.5708,-0.523599,4.49865e-08,-2.09439,1.5708,1.5708,0.785398,-0.000165787,-0.000327595,0.000233857,0.00163698,-0.000207898,-0.000299162,0.000374723,0,0,0,0,0,0,0,0.0732535,-9.80838,-0.508359,20.8448,1.44136,0.490016,-0.355947,0.0500216,-0.71267,-0.101567,2.36787,0.866431,0.486536,-0.30969
3212220,1,-1.57091,-0.523196,0.000212968,-2.0959,1.56974,1.57017,0.785856,-1.5708,-0.523599,4.49865e-08,-2.09439,1.5708,1.5708,0.785398,-0.000760139,0.000431217,-0.000395651,0.00109132,-0.000138599,3.79179e-05,0.000487174,0,0,0,0,0,0,0,0.101024,-9.83615,-0.484555,20.8448,1.44136,0.483607,-0.362356,0.0534604,-0.709267,-0.0963868,2.36541,0.866231,0.486025,-0.309558
3212221,1,-1.57091,-0.523198,0.000218258,-2.0959,1.56974,1.57017,0.785853,-1.5708,-0.523599,4.49865e-08,-2.09439,1.5708,1.5708,0.785398,0.000142855,-0.000362136,0.00150341,-0.000478881,0.000314502,-0.00021208,-0.000387294,0,0,0,0,0,0,0,0.0732535,-9.80838,-0.559934,20.8963,1.43038,0.490016,-0.34313,0.0560515,-0.706919,-0.0926668,2.36329,0.866091,0.485631,-0.309417
3212222,1,-1.57091,-0.523194,0.000212968,-2.0959,1.56974,1.57017,0.785855,-1.5708,-0.523599,4.49865e-08,-2.09439,1.5708,1.5708,0.785398,0.000652048,0.000965002,-0.000758006,-0.000319254,0.000209668,0.000333331,0.000216522,0,0,0,0,0,0,0,0.0494498,-9.85995,-0.484555,20.8963,1.43038,0.477198,-0.355947,0.0574204,-0.706925,-0.0909435,2.36281,0.866075,0.485409,-0.309286
3212223,1,-1.57091,-0.523196,0.000212968,-2.0959,1.56974,1.57017,0.785855,-1.5708,-0.523599,4.49865e-08,-2.09439,1.5708,1.5708,0.785398,0.000991511,8.65227e-05,-0.00050312,-0.000769648,0.000377137,-0.000252497,0.000144348,0,0,0,0,0,0,0,0.0256461,-9.83615,-0.484555,20.9201,1.42397,0.490016,-0.355947,0.0582252,-0.709612,-0.0899915,2.36417,0.866141,0.48525,-0.309166
3212224,1,-1.57091,-0.523196,0.000212968,-2.0959,1.56974,1.57017,0.785859,-1.5708,-0.523599,4.49865e-08,-2.09439,1.5708,1.5708,0.785398,0.000104195,5.76818e-05,-0.00033375,0.000600525,-0.000392835,-0.000168331,0.00152039,0,0,0,0,0,0,0,0.0494498,-9.83615,-0.484555,20.8725,1.44136,0.490016,-0.394399,0.0590036,-0.713021,-0.0889148,2.36607,0.866207,0.485089,-0.309056
3212225,1,-1.57091,-0.523198,0.000214639,-2.0959,1.56974,1.57017,0.78585,-1.5708,-0.523599,4.49865e-08,-2.09439,1.5708,1.5708,0.785398,-0.00113696,-0.000611159,0.000335559,-0.000156462,0.000145011,0.000125138,-0.00186863,0,0,0,0,0,0,0,0.101024,-9.80838,-0.508359,20.8963,1.43038,0.483607,-0.31658,0.0599045,-0.714788,-0.0876966,2.36706,0.866227,0.484928,-0.308972
3212226,1,-1.57091,-0.523198,0.000209349,-2.0959,1.56974,1.57017,0.785855,-1.5708,-0.523599,4.49865e-08,-2.09439,1.5708,1.5708,0.785398,0.00100526,-0.00040744,-0.0015386,-0.000104308,0.000334033,-0.000153934,0.000212312,0,0,0,0,0,0,0,0.0256461,-9.80838,-0.432981,20.8963,1.42397,0.490016,-0.355947,0.0611919,-0.714627,-0.0859565,2.36708,0.866199,0.484739,-0.308925
3212227,0.99,-1.57091,-0.523196,0.000212968,-2.0959,1.56974,1.57017,0.78586,-1.5708,-0.523599,4.49865e-08,-2.09439,1.5708,1.5708,0.785398,0.000113363,0.000377988,0.000181397,-0.00118316,-1.46703e-05,-0.000102622,0.00180305,0,0,0,0,0,0,0,0.0494498,-9.83615,-0.484555,20.9439,1.43038,0.490016,-0.400808,0.0625109,-0.714404,-0.0840172,2.36731,0.866162,0.484555,-0.308889
3212228,0.99,-1.57091,-0.523196,0.000214639,-2.0959,1.56974,1.57017,0.785859,-1.5708,-0.523599,4.49865e-08,-2.09439,1.5708,1.5708,0.785398,7.55756e-05,0.000251992,0.000678269,-0.000788775,-0.000213231,-0.000305774,-0.000222118,0,0,0,0,0,0,0,0.0494498,-9.83615,-0.508359,20.9439,1.43587,0.496425,-0.362356,0.0630725,-0.716041,-0.0831567,2.36885,0.866183,0.48447,-0.308868
3212229,0.99,-1.57091,-0.5232,0.000212968,-2.0959,1.56974,1.57017,0.785854,-1.5708,-0.523599,4.49865e-08,-2.09439,1.5708,1.5708,0.785398,-0.000506428,-0.00103843,-0.000104238,3.0962e-05,0.000298656,3.35097e-05,-0.000860155,0,0,0,0,0,0,0,0.0732535,-9.78458,-0.484555,20.9201,1.42397,0.490016,-0.34313,0.0629414,-0.71777,-0.0834207,2.37062,0.86623,0.484498,-0.308896
3212230,0.99,-1.57091,-0.523196,0.000211019,-2.0959,1.56974,1.57017,0.785856,-1.5708,-0.523599,4.49865e-08,-2.09439,1.5708,1.5708,0.785398,0.000219193,0.000514138,-0.00071881,2.06413e-05,-0.000241706,2.23398e-05,0.00013864,0,0,0,0,0,0,0,0.0494498,-9.83615,-0.456784,20.9201,1.43587,0.490016,-0.362356,0.0630173,-0.717785,-0.0833462,2.37131,0.866221,0.484528,-0.308965
3212231,0.99,-1.57091,-0.523194,0.000216309,-2.0959,1.56974,1.57017,0.785855,-1.5708,-0.523599,4.49865e-08,-2.09439,1.5708,1.5708,0.785398,0.000146129,0.000342759,0.00128425,1.37609e-05,-0.000568038,-0.000222466,-0.000144932,0,0,0,0,0,0,0,0.0494498,-9.83615,-0.532163,20.9201,1.44686,0.496425,-0.355947,0.0630271,-0.717855,-0.083299,2.37173,0.86619,0.484574,-0.309046
3212232,0.99,-1.57091,-0.523197,0.000214179,-2.0959,1.56974,1.57017,0.785858,-1.5708,-0.523599,4.49865e-08,-2.09439,1.5708,1.5708,0.785398,9.74192e-05,-0.000421108,0.000856335,0.0011228,2.82089e-05,0.000563766,0.000852814,0,0,0,0,0,0,0,0.0494498,-9.80838,-0.532163,20.8725,1.43587,0.477198,-0.381582,0.0620336,-0.717884,-0.0848042,2.37179,0.866184,0.484773,-0.309127
3212233,0.99,-1.57091,-0.523194,0.000213929,-2.0959,1.56974,1.57017,0.78585,-1.5708,-0.523599,4.49865e-08,-2.09439,1.5708,1.5708,0.785398,-0.000491866,0.000925687,1.42032e-05,0.00019172,0.000222256,0.000138485,-0.00183896,0,0,0,0,0,0,0,0.0732535,-9.85995,-0.508359,20.8963,1.43038,0.483607,-0.31658,0.0606569,-0.717143,-0.0869712,2.37108,0.866182,0.485035,-0.309214
3212234,0.99,-1.5709,-0.523198,0.000212732,-2.0959,1.56974,1.57017,0.785851,-1.5708,-0.523599,4.49865e-08,-2.09439,1.5708,1.5708,0.785398,0.00143533,-0.000589301,-0.000547249,-0.000985811,-5.52795e-05,-0.000145035,-0.000988611,0,0,0,0,0,0,0,-0.00212494,-9.80838,-0.484555,20.9439,1.43587,0.490016,-0.322988,0.0597557,-0.717031,-0.0883535,2.37076,0.866186,0.485215,-0.309307
3212235,0.99,-1.57091,-0.523196,0.000212889,-2.0959,1.56974,1.57017,0.785858,-1.5708,-0.523599,4.49865e-08,-2.09439,1.5708,1.5708,0.785398,-0.000249541,0.000256747,-0.000364763,-0.000100395,-3.6853e-05,0.000140669,0.00174842,0,0,0,0,0,0,0,0.0494498,-9.83615,-0.484555,20.9201,1.43587,0.483607,-0.387991,0.0592805,-0.717443,-0.0888907,2.37121,0.866202,0.48532,-0.309364
3212236,0.99,-1.57091,-0.523195,0.000210993,-2.0959,1.56974,1.57017,0.785854,-1.5708,-0.523599,4.49865e-08,-2.09439,1.5708,1.5708,0.785398,-0.000166361,0.000727976,-0.000892736,0.00169631,0.000416241,-0.000380939,-0.000258538,0,0,0,0,0,0,0,0.0494498,-9.85995,-0.456784,20.8448,1.42397,0.496425,-0.349539,0.0595334,-0.717789,-0.0881823,2.37148,0.866178,0.485303,-0.309367
3212237,0.99,-1.57091,-0.523192,0.0002163,-2.0959,1.56974,1.57017,0.785852,-1.5708,-0.523599,4.49865e-08,-2.09439,1.5708,1.5708,0.785398,0.000445905,0.000485318,0.00116812,-7.55541e-05,0.000277494,-1.66002e-05,-0.000918344,0,0,0,0,0,0,0,0.0256461,-9.85995,-0.532163,20.8963,1.42397,0.490016,-0.329397,0.0599949,-0.718337,-0.0871064,2.37124,0.866121,0.485238,-0.309346
3212238,0.99,-1.57091,-0.523194,0.000214636,-2.0959,1.56974,1.57017,0.785858,-1.5708,-0.523599,4.49865e-08,-2.09439,1.5708,1.5708,0.785398,-0.000816354,0.000323545,0.000221964,-5.03694e-05,-0.000255814,-1.10668e-05,0.00132055,0,0,0,0,0,0,0,0.0732535,-9.85995,-0.508359,20.8963,1.43587,0.490016,-0.381582,0.0597549,-0.719431,-0.087167,2.37125,0.866097,0.485271,-0.309312
3212239,0.99,-1.57091,-0.523196,0.000211019,-2.0959,1.56974,1.57017,0.785856,-1.5708,-0.523599,4.49865e-08,-2.09439,1.5708,1.5708,0.785398,-0.00119385,-0.000341115,-0.00105843,-0.0011472,3.29081e-05,0.000229981,0.000405649,0,0,0,0,0,0,0,0.101024,-9.83615,-0.456784,20.9439,1.43038,0.483607,-0.368765,0.0599689,-0.720832,-0.0867083,2.37191,0.86608,0.485243,-0.309263
3212240,0.99,-1.57091,-0.523196,0.000214638,-2.0959,1.56974,1.57017,0.785851,-1.5708,-0.523599,4.49865e-08,-2.09439,1.5708,1.5708,0.785398,0.000410526,-0.00022741,0.000500824,0.000905634,-0.000181512,0.000153321,-0.00142499,0,0,0,0,0,0,0,0.0494498,-9.83615,-0.508359,20.8725,1.43587,0.483607,-0.322988,0.0610801,-0.721285,-0.084976,2.37243,0.866026,0.485101,-0.309227
3212241,0.99,-1.57091,-0.523194,0.000214639,-2.0959,1.56974,1.57017,0.785858,-1.5708,-0.523599,4.49865e-08,-2.09439,1.5708,1.5708,0.785398,0.000273684,0.000405205,0.000333895,-0.00106668,-0.000121008,-0.000135145,0.00122015,0,0,0,0,0,0,0,0.0494498,-9.85995,-0.508359,20.9439,1.43587,0.490016,-0.381582,0.0615421,-0.720944,-0.0842206,2.37258,0.865979,0.48507,-0.309204
3212242,0.99,-1.57091,-0.523193,0.000216309,-2.0959,1.56974,1.57017,0.785858,-1.5708,-0.523599,4.49865e-08,-2.09439,1.5708,1.5708,0.785398,0.000739268,0.000919751,0.000779418,0.00160893,-8.06719e-05,0.000147262,0.000813431,0,0,0,0,0,0,0,0.0256461,-9.88773,-0.532163,20.8448,1.43587,0.483607,-0.381582,0.0607331,-0.721408,-0.0853659,2.3729,0.865981,0.485213,-0.309178
3212243,0.99,-1.57091,-0.523195,0.000212968,-2.0959,1.56973,1.57017,0.785855,-1.5708,-0.523599,4.49865e-08,-2.09439,1.5708,1.5708,0.785398,-6.39667e-05,-3.64468e-05,-0.000594005,0.00107262,-0.000257232,9.81748e-05,-0.00139049,0,0,0,0,0,0,0,0.0494498,-9.85995,-0.484555,20.8448,1.44136,0.483607,-0.329397,0.0594489,-0.721887,-0.0871776,2.37257,0.865976,0.485411,-0.309169
3212244,0.99,-1.57091,-0.523196,0.000214639,-2.0959,1.56974,1.57017,0.785853,-1.5708,-0.523599,4.49865e-08,-2.09439,1.5708,1.5708,0.785398,-0.000599456,-0.00058111,0.000160814,-0.00104816,0.000235413,-0.000171909,-0.000926995,0,0,0,0,0,0,0,0.0732535,-9.83615,-0.508359,20.9201,1.43038,0.490016,-0.329397,0.0587641,-0.72104,-0.0880808,2.37131,0.865931,0.485526,-0.309191
3212245,0.99,-1.57091,-0.523195,0.000210838,-2.0959,1.56973,1.57017,0.785857,-1.5708,-0.523599,4.49865e-08,-2.09439,1.5708,1.5708,0.785398,-0.000399638,0.000169405,-0.000449599,0.000414852,-0.000453409,-0.000114606,0.000840065,0,0,0,0,0,0,0,0.0732535,-9.85995,-0.484555,20.8725,1.44686,0.490016,-0.368765,0.0589376,-0.719697,-0.0877884,2.37026,0.865887,0.485525,-0.309209
3212246,0.99,-1.57091,-0.523198,0.000212258,-2.0959,1.56974,1.57017,0.785856,-1.5708,-0.523599,4.49865e-08,-2.09439,1.5708,1.5708,0.785398,0.000290387,-0.00109349,-0.000299729,0.000276568,0.000104628,-7.6404e-05,0.000560044,0,0,0,0,0,0,0,0.0494498,-9.80838,-0.484555,20.8725,1.43587,0.490016,-0.368765,0.0595398,-0.717716,-0.0868845,2.36904,0.865839,0.485472,-0.309198
3212247,0.99,-1.57091,-0.523196,0.000216072,-2.0959,1.56974,1.57017,0.785853,-1.5708,-0.523599,4.49865e-08,-2.09439,1.5708,1.5708,0.785398,-0.000363221,-7.93787e-05,0.000913806,-0.000372433,0.000714012,-5.0936e-05,-0.000576073,0,0,0,0,0,0,0,0.0732535,-9.83615,-0.532163,20.8963,1.41847,0.490016,-0.34313,0.059885,-0.714713,-0.0863853,2.36732,0.865799,0.48548,-0.309176
3212248,0.99,-1.57091,-0.523196,0.000212889,-2.0959,1.56974,1.57017,0.785853,-1.5708,-0.523599,4.49865e-08,-2.09439,1.5708,1.5708,0.785398,0.000314665,-5.29191e-05,-0.000504418,0.000308523,-0.000168252,-0.000271316,-0.000384049,0,0,0,0,0,0,0,0.0494498,-9.83615,-0.484555,20.8725,1.43587,0.496425,-0.34313,0.0597307,-0.712232,-0.0867157,2.36595,0.8658,0.485569,-0.30916
3212249,0.99,-1.57091,-0.523198,0.000214612,-2.0959,1.56974,1.57017,0.785856,-1.5708,-0.523599,4.49865e-08,-2.09439,1.5708,1.5708,0.785398,0.000209777,-0.000684893,0.000220535,0.000205682,-0.000112168,5.64814e-05,0.000693403,0,0,0,0,0,0,0,0.0494498,-9.80838,-0.508359,20.8725,1.43587,0.490016,-0.368765,0.0594279,-0.710358,-0.0872646,2.36479,0.865806,0.485684,-0.309138
3212250,0.99,-1.57091,-0.523193,0.00021296,-2.0959,1.56974,1.57017,0.785857,-1.5708,-0.523599,4.49865e-08,-2.09439,1.5708,1.5708,0.785398,0.000139851,0.00139944,-0.000409788,-0.000976503,-0.000278229,0.000749731,0.000699628,0,0,0,0,0,0,0,0.0494498,-9.88773,-0.484555,20.9201,1.44136,0.47079,-0.375173,0.0591771,-0.709907,-0.0877036,2.36436,0.865827,0.485779,-0.309107
3212251,0.99,-1.57091,-0.523196,0.000212965,-2.0959,1.56973,1.57017,0.78585,-1.5708,-0.523599,4.49865e-08,-2.09439,1.5708,1.5708,0.785398,-0.000463578,-0.000273463,-0.000273191,-9.41897e-05,-0.000388937,-0.000212256,-0.00170372,0,0,0,0,0,0,0,0.0732535,-9.83615,-0.484555,20.8963,1.44686,0.490016,-0.31658,0.0592998,-0.712347,-0.0875979,2.36555,0.865898,0.485779,-0.30909
3212252,0.99,-1.57091,-0.523195,0.000212507,-2.0959,1.56974,1.57017,0.785853,-1.5708,-0.523599,4.49865e-08,-2.09439,1.5708,1.5708,0.785398,0.00024776,0.000374503,0.000374685,0.000494019,0.00014761,9.58549e-05,-0.000389828,0,0,0,0,0,0,0,0.0494498,-9.85995,-0.508359,20.8725,1.43587,0.483607,-0.336721,0.0596217,-0.715322,-0.0872173,2.36691,0.865983,0.485732,-0.309084
3212253,0.99,-1.57091,-0.523198,0.000212258,-2.0959,1.56974,1.57017,0.785858,-1.5708,-0.523599,4.49865e-08,-2.09439,1.5708,1.5708,0.785398,0.000165173,-0.000956757,-0.000307022,0.00097896,9.84066e-05,-0.000173456,0.00163899,0,0,0,0,0,0,0,0.0494498,-9.80838,-0.484555,20.8448,1.43587,0.490016,-0.387991,0.0596222,-0.71612,-0.0872932,2.36678,0.866038,0.485745,-0.309048
3212254,0.99,-1.57091,-0.523194,0.000214402,-2.0959,1.56974,1.57017,0.785857,-1.5708,-0.523599,4.49865e-08,-2.09439,1.5708,1.5708,0.785398,-0.000446696,1.17759e-05,0.000352131,-0.000553786,6.56044e-05,0.000121722,-0.000331496,0,0,0,0,0,0,0,0.0732535,-9.83615,-0.508359,20.8963,1.43587,0.483607,-0.349539,0.0594685,-0.714829,-0.087578,2.36541,0.866065,0.485797,-0.308981
3212255,0.99,-1.5709,-0.523193,0.00021456,-2.0959,1.56973,1.57017,0.785852,-1.5708,-0.523599,4.49865e-08,-2.09439,1.5708,1.5708,0.785398,0.00146544,7.8506e-06,0.000234754,-0.000369191,-0.000566615,-0.000156211,-0.00120434,0,0,0,0,0,0,0,-0.00212494,-9.83615,-0.508359,20.8963,1.45235,0.490016,-0.322988,0.0589534,-0.713797,-0.0884014,2.36446,0.866132,0.485897,-0.30892
3212256,0.99,-1.57091,-0.523193,0.000214612,-2.0959,1.56974,1.57017,0.785855,-1.5708,-0.523599,4.49865e-08,-2.09439,1.5708,1.5708,0.785398,-0.000229466,5.23373e-06,0.000156503,-0.000802939,0.000232608,-0.0003415,0.000417809,0,0,0,0,0,0,0,0.0494498,-9.83615,-0.508359,20.9201,1.43587,0.496425,-0.355947,0.0578063,-0.714288,-0.0901011,2.36467,0.866276,0.486071,-0.308862
3212257,0.99,-1.57091,-0.523195,0.00021463,-2.0959,1.56974,1.57017,0.785857,-1.5708,-0.523599,4.49865e-08,-2.09439,1.5708,1.5708,0.785398,-0.000709789,3.48916e-06,0.000104336,-0.000535293,0.000155072,0.000247051,0.000990616,0,0,0,0,0,0,0,0.0732535,-9.83615,-0.508359,20.9201,1.43587,0.483607,-0.375173,0.0568902,-0.715727,-0.0914674,2.36564,0.866453,0.4862,-0.308784
3212258,0.99,-1.57091,-0.523196,0.000214636,-2.0959,1.56974,1.57017,0.785856,-1.5708,-0.523599,4.49865e-08,-2.09439,1.5708,1.5708,0.785398,-0.000473193,2.3261e-06,6.95571e-05,0.00019995,0.000306832,0.000164701,0.000423052,0,0,0,0,0,0,0,0.0732535,-9.83615,-0.508359,20.8963,1.43038,0.483607,-0.368765,0.0567884,-0.717305,-0.0917334,2.36669,0.866615,0.486207,-0.308698
3212259,0.99,-1.57091,-0.523194,0.000214638,-2.0959,1.56974,1.57017,0.785851,-1.5708,-0.523599,4.49865e-08,-2.09439,1.5708,1.5708,0.785398,0.00024135,0.000558363,4.63715e-05,0.00133973,1.10406e-06,0.000109801,-0.00141339,0,0,0,0,0,0,0,0.0494498,-9.85995,-0.508359,20.8448,1.43587,0.483607,-0.322988,0.0570483,-0.718273,-0.0915004,2.36694,0.866728,0.486159,-0.308632
3212260,0.99,-1.57091,-0.523196,0.000211019,-2.0959,1.56974,1.57017,0.785852,-1.5708,-0.523599,4.49865e-08,-2.09439,1.5708,1.5708,0.785398,0.0001609,-0.00018457,-0.00117551,-0.000870087,7.36041e-07,-0.000164159,-0.000704899,0,0,0,0,0,0,0,0.0494498,-9.83615,-0.456784,20.9201,1.43587,0.490016,-0.329397,0.0574961,-0.718854,-0.0908877,2.36654,0.866793,0.486081,-0.308585
3212261,0.99,-1.57091,-0.523196,0.000214639,-2.0959,1.56974,1.57017,0.785858,-1.5708,-0.523599,4.49865e-08,-2.09439,1.5708,1.5708,0.785398,-0.000449545,-0.000123047,0.000422752,0.000533566,0.0004413,0.00012792,0.00146285,0,0,0,0,0,0,0,0.0732535,-9.83615,-0.508359,20.8725,1.42397,0.483607,-0.381582,0.0582587,-0.719163,-0.0897131,2.36612,0.866829,0.485958,-0.308523
3212262,0.99,-1.57091,-0.523195,0.000212968,-2.0959,1.56974,1.57017,0.785856,-1.5708,-0.523599,4.49865e-08,-2.09439,1.5708,1.5708,0.785398,-0.000299697,0.000474781,-0.000274978,-0.000201101,5.68412e-05,8.528e-05,0.000263155,0,0,0,0,0,0,0,0.0732535,-9.85995,-0.484555,20.8963,1.43038,0.483607,-0.362356,0.0590474,-0.719336,-0.0885568,2.36575,0.866852,0.485833,-0.308436
3212263,0.99,-1.57091,-0.523198,0.000216309,-2.0959,1.56974,1.57017,0.785852,-1.5708,-0.523599,4.49865e-08,-2.09439,1.5708,1.5708,0.785398,0.000913826,-0.000889905,0.000930306,-0.00069088,-0.000165556,-0.000180506,-0.00104527,0,0,0,0,0,0,0,0.0256461,-9.80838,-0.532163,20.9201,1.43587,0.490016,-0.329397,0.0591975,-0.719521,-0.0884279,2.36559,0.866887,0.485803,-0.308354
3212264,0.98,-1.57091,-0.523195,0.000214639,-2.0959,1.56974,1.57017,0.785852,-1.5708,-0.523599,4.49865e-08,-2.09439,1.5708,1.5708,0.785398,-0.000504407,0.000613156,6.33918e-05,-0.000460586,9.30796e-05,0.000117022,-0.000696844,0,0,0,0,0,0,0,0.0732535,-9.85995,-0.508359,20.9201,1.43038,0.483607,-0.329397,0.0584711,-0.719709,-0.0896541,2.36584,0.866955,0.485906,-0.308287
3212265,0.98,-1.57091,-0.523195,0.000212968,-2.0959,1.56974,1.57017,0.785858,-1.5708,-0.523599,4.49865e-08,-2.09439,1.5708,1.5708,0.785398,-0.000336271,0.00040877,-0.000514551,0.000806566,-0.000141397,-0.000396703,0.00146822,0,0,0,0,0,0,0,0.0732535,-9.85995,-0.484555,20.8725,1.43587,0.496425,-0.381582,0.0579484,-0.720608,-0.0906245,2.36641,0.867009,0.48597,-0.308204
3212266,0.98,-1.57091,-0.5232,0.000214639,-2.0959,1.56974,1.57017,0.78586,-1.5708,-0.523599,4.49865e-08,-2.09439,1.5708,1.5708,0.785398,-0.000873795,-0.00149072,0.000213778,-0.000575913,-0.000297715,-0.000264469,0.00169089,0,0,0,0,0,0,0,0.101024,-9.78458,-0.508359,20.9201,1.44136,0.496425,-0.400808,0.0582892,-0.720735,-0.0903647,2.36636,0.866993,0.485919,-0.3081
3212267,0.98,-1.57091,-0.523196,0.000214179,-2.0959,1.56974,1.57017,0.785853,-1.5708,-0.523599,4.49865e-08,-2.09439,1.5708,1.5708,0.785398,0.000623896,0.00021261,0.000699331,-0.000383942,-0.000198477,6.10464e-05,-0.00100897,0,0,0,0,0,0,0,0.0494498,-9.83615,-0.532163,20.9201,1.44136,0.490016,-0.34313,0.0585821,-0.719039,-0.0902956,2.36564,0.866956,0.48592,-0.308021
3212268,0.98,-1.57091,-0.523198,0.000212258,-2.0959,1.56974,1.57017,0.785852,-1.5708,-0.523599,4.49865e-08,-2.09439,1.5708,1.5708,0.785398,0.000415931,-0.000507874,-0.000647403,0.000300851,0.000274583,4.06976e-05,-0.00118127,0,0,0,0,0,0,0,0.0494498,-9.80838,-0.484555,20.8963,1.43038,0.490016,-0.329397,0.0582851,-0.717148,-0.0911268,2.36498,0.866951,0.486035,-0.308007
3212269,0.98,-1.57091,-0.523195,0.000214402,-2.0959,1.56973,1.57017,0.785859,-1.5708,-0.523599,4.49865e-08,-2.09439,1.5708,1.5708,0.785398,0.000834099,0.000867843,0.00012521,0.000200567,-0.000630747,-0.000210227,0.00161998,0,0,0,0,0,0,0,0.0256461,-9.85995,-0.508359,20.8963,1.45235,0.496425,-0.394399,0.0577684,-0.71605,-0.0921489,2.36449,0.866959,0.486186,-0.308027
3212270,0.98,-1.57091,-0.523198,0.00021456,-2.0959,1.56973,1.57017,0.785857,-1.5708,-0.523599,4.49865e-08,-2.09439,1.5708,1.5708,0.785398,-0.000557558,-0.000627864,8.34731e-05,0.000133711,-1.35968e-05,0.000334566,0.000367911,0,0,0,0,0,0,0,0.0732535,-9.80838,-0.508359,20.8963,1.44136,0.483607,-0.375173,0.0572747,-0.715749,-0.0930718,2.36419,0.866979,0.486328,-0.308058
3212271,0.98,-1.57091,-0.523196,0.000214612,-2.0959,1.56973,1.57017,0.78585,-1.5708,-0.523599,4.49865e-08,-2.09439,1.5708,1.5708,0.785398,-0.000371705,-0.000418576,5.56487e-05,-0.00102448,-9.06452e-06,-1.43147e-05,-0.00192486,0,0,0,0,0,0,0,0.0732535,-9.80838,-0.508359,20.9439,1.44136,0.490016,-0.31658,0.0571246,-0.715278,-0.093575,2.36402,0.86702,0.486428,-0.308125
3212272,0.98,-1.57091,-0.523197,0.000211011,-2.0959,1.56973,1.57017,0.785856,-1.5708,-0.523599,4.49865e-08,-2.09439,1.5708,1.5708,0.785398,0.000309008,-0.000279051,-0.00116933,-0.000126177,-0.000209494,-9.54312e-06,0.000412178,0,0,0,0,0,0,0,0.0494498,-9.80838,-0.456784,20.9201,1.44686,0.490016,-0.362356,0.0576257,-0.714501,-0.0931277,2.36411,0.867076,0.486443,-0.308225
3212273,0.98,-1.57091,-0.523192,0.000214636,-2.0959,1.56974,1.57017,0.785856,-1.5708,-0.523599,4.49865e-08,-2.09439,1.5708,1.5708,0.785398,0.000206006,0.00167001,0.000426875,0.000472694,0.000470689,0.000230997,0.000274785,0,0,0,0,0,0,0,0.0494498,-9.88773,-0.508359,20.8963,1.43038,0.483607,-0.362356,0.0583988,-0.715079,-0.0921554,2.3648,0.867156,0.486398,-0.308318
3212274,0.98,-1.57091,-0.523196,0.000214638,-2.0959,1.56974,1.57017,0.785856,-1.5708,-0.523599,4.49865e-08,-2.09439,1.5708,1.5708,0.785398,-0.00106909,-9.30885e-05,0.000284583,-0.000241683,0.000313793,-0.00032072,0.000420549,0,0,0,0,0,0,0,0.101024,-9.83615,-0.508359,20.9201,1.43038,0.496425,-0.368765,0.0589422,-0.717661,-0.0915448,2.36614,0.867274,0.486355,-0.308394
3212275,0.98,-1.57091,-0.523198,0.000214638,-2.0959,1.56974,1.57017,0.785853,-1.5708,-0.523599,4.49865e-08,-2.09439,1.5708,1.5708,0.785398,0.0004937,-0.000711673,0.000189722,0.00039569,0.000446554,2.35456e-05,-0.00066907,0,0,0,0,0,0,0,0.0494498,-9.80838,-0.508359,20.8963,1.42397,0.490016,-0.34313,0.0592008,-0.719482,-0.0914809,2.36705,0.86739,0.486364,-0.308469
3212276,0.98,-1.57091,-0.523198,0.000218258,-2.0959,1.56974,1.57017,0.785854,-1.5708,-0.523599,4.49865e-08,-2.09439,1.5708,1.5708,0.785398,0.000329133,-0.000474449,0.00133291,0.000263794,-0.000143107,0.000253056,-0.000208688,0,0,0,0,0,0,0,0.0494498,-9.80838,-0.559934,20.8963,1.43587,0.483607,-0.349539,0.0586873,-0.718388,-0.09262,2.36655,0.867471,0.486528,-0.308544
3212277,0.98,-1.57091,-0.523198,0.000211019,-2.0959,1.56974,1.57017,0.785858,-1.5708,-0.523599,4.49865e-08,-2.09439,1.5708,1.5708,0.785398,-0.00033739,-0.000873111,-0.00152425,0.000732674,0.000108046,0.000168704,0.00104767,0,0,0,0,0,0,0,0.0732535,-9.78458,-0.456784,20.8725,1.43038,0.483607,-0.381582,0.0578675,-0.715023,-0.0942061,2.36485,0.867495,0.48676,-0.308605
3212278,0.98,-1.57091,-0.523195,0.000214639,-2.0959,1.56974,1.57017,0.785855,-1.5708,-0.523599,4.49865e-08,-2.09439,1.5708,1.5708,0.785398,-0.000224926,0.000624352,0.000190261,0.00048845,7.20307e-05,0.000349828,-0.000250989,0,0,0,0,0,0,0,0.0732535,-9.83615,-0.508359,20.8725,1.43038,0.477198,-0.355947,0.0580731,-0.71119,-0.0941987,2.36273,0.867439,0.486829,-0.308659
3212279,0.98,-1.57091,-0.523198,0.000214639,-2.0959,1.56974,1.57017,0.78585,-1.5708,-0.523599,4.49865e-08,-2.09439,1.5708,1.5708,0.785398,0.000406861,-0.000233379,0.000126841,0.000975247,4.80205e-05,-0.000241499,-0.00162539,0,0,0,0,0,0,0,0.0494498,-9.80838,-0.508359,20.8448,1.43038,0.490016,-0.31658,0.0586553,-0.708545,-0.0936063,2.36094,0.867358,0.486808,-0.308724
3212280,0.98,-1.57091,-0.523194,0.000216309,-2.0959,1.56974,1.57017,0.78586,-1.5708,-0.523599,4.49865e-08,-2.09439,1.5708,1.5708,0.785398,-0.000285571,0.00105084,0.000641373,-0.00166989,3.20136e-05,-0.000398358,0.00227334,0,0,0,0,0,0,0,0.0732535,-9.85995,-0.532163,20.9439,1.43038,0.496425,-0.407217,0.0586368,-0.708215,-0.0939747,2.36047,0.867332,0.486838,-0.308787
3212281,0.98,-1.57091,-0.523196,0.000214639,-2.0959,1.56974,1.57017,0.785855,-1.5708,-0.523599,4.49865e-08,-2.09439,1.5708,1.5708,0.785398,-0.000190381,0.000143748,-0.00012923,3.67133e-07,2.13424e-05,0.000446505,-0.000383311,0,0,0,0,0,0,0,0.0732535,-9.83615,-0.508359,20.8963,1.43038,0.477198,-0.355947,0.0583988,-0.710929,-0.0947893,2.36209,0.867377,0.486864,-0.308841
3212282,0.98,-1.57091,-0.523196,0.000212968,-2.0959,1.56974,1.57017,0.785851,-1.5708,-0.523599,4.49865e-08,-2.09439,1.5708,1.5708,0.785398,-0.000126921,9.58319e-05,-0.000642965,-0.000556567,-0.000189222,6.03108e-05,-0.00147624,0,0,0,0,0,0,0,0.0732535,-9.83615,-0.484555,20.9201,1.43587,0.483607,-0.322988,0.0586405,-0.714655,-0.0949349,2.36452,0.867424,0.486806,-0.308914
3212283,0.98,-1.57091,-0.523195,0.000216309,-2.0959,1.56974,1.57017,0.785854,-1.5708,-0.523599,4.49865e-08,-2.09439,1.5708,1.5708,0.785398,-8.46137e-05,0.0006207,0.00068498,-0.000371045,-0.000126148,4.02072e-05,-8.1816e-07,0,0,0,0,0,0,0,0.0732535,-9.85995,-0.532163,20.9201,1.43587,0.483607,-0.349539,0.0592199,-0.718042,-0.0945785,2.36681,0.867446,0.486695,-0.308997
3212284,0.98,-1.57091,-0.523196,0.000212968,-2.0959,1.56974,1.57017,0.785856,-1.5708,-0.523599,4.49865e-08,-2.09439,1.5708,1.5708,0.785398,0.00105721,-0.000143012,-0.00065697,0.000866261,-8.40988e-05,2.68048e-05,0.000711531,0,0,0,0,0,0,0,0.0256461,-9.83615,-0.484555,20.8725,1.43587,0.483607,-0.368765,0.0594323,-0.720809,-0.0947362,2.36862,0.867455,0.486635,-0.309049
3212285,0.98,-1.57091,-0.523195,0.000214639,-2.0959,1.56974,1.57017,0.785852,-1.5708,-0.523599,4.49865e-08,-2.09439,1.5708,1.5708,0.785398,0.000147998,0.000461471,0.000118832,2.06952e-05,0.000147385,1.78699e-05,-0.000983708,0,0,0,0,0,0,0,0.0494498,-9.85995,-0.508359,20.8963,1.43038,0.483607,-0.329397,0.0592681,-0.722084,-0.0953011,2.36926,0.867427,0.486631,-0.309065
3212286,0.98,-1.57091,-0.523196,0.000214639,-2.0959,1.56974,1.57017,0.785853,-1.5708,-0.523599,4.49865e-08,-2.09439,1.5708,1.5708,0.785398,9.86653e-05,-0.000249165,7.92211e-05,1.37968e-05,-0.000105194,1.19132e-05,-0.000384538,0,0,0,0,0,0,0,0.0494498,-9.83615,-0.508359,20.8963,1.43587,0.483607,-0.336721,0.0589978,-0.722407,-0.095935,2.36925,0.867381,0.486638,-0.309057
3212287,0.98,-1.57091,-0.523195,0.000211019,-2.0959,1.56974,1.57017,0.785855,-1.5708,-0.523599,4.49865e-08,-2.09439,1.5708,1.5708,0.785398,0.000622589,0.000390702,-0.00115361,0.00056601,0.000133321,-0.000229417,0.000455718,0,0,0,0,0,0,0,0.0256461,-9.85995,-0.456784,20.8725,1.43038,0.490016,-0.355947,0.0589153,-0.722166,-0.0961907,2.36892,0.867317,0.486611,-0.309013
3212288,0.98,-1.57091,-0.523198,0.000214639,-2.0959,1.56974,1.57017,0.785858,-1.5708,-0.523599,4.49865e-08,-2.09439,1.5708,1.5708,0.785398,-0.00134818,-0.000945958,0.000437351,-0.000179472,0.00032624,-0.000152945,0.00149061,0,0,0,0,0,0,0,0.101024,-9.80838,-0.508359,20.8963,1.42397,0.490016,-0.387991,0.0593805,-0.720912,-0.0955203,2.36801,0.867211,0.486505,-0.308927
3212289,0.98,-1.57091,-0.523195,0.000216309,-2.0959,1.56974,1.57017,0.785853,-1.5708,-0.523599,4.49865e-08,-2.09439,1.5708,1.5708,0.785398,0.00030764,0.000575787,0.00084838,-0.000119648,-0.000426767,0.000372755,-0.000905134,0,0,0,0,0,0,0,0.0494498,-9.85995,-0.532163,20.8963,1.44136,0.477198,-0.336721,0.0598415,-0.719092,-0.094973,2.36697,0.867107,0.486407,-0.308832
3212290,0.98,-1.57091,-0.523198,0.000214639,-2.0959,1.56974,1.57017,0.78585,-1.5708,-0.523599,4.49865e-08,-2.09439,1.5708,1.5708,0.785398,0.000205093,-0.000822568,8.7744e-06,-0.00119339,0.000359749,1.11443e-05,-0.00158677,0,0,0,0,0,0,0,0.0494498,-9.80838,-0.508359,20.9439,1.42397,0.483607,-0.310171,0.0595804,-0.71792,-0.0956182,2.36662,0.867064,0.486413,-0.308757
3212291,0.98,-1.57091,-0.523195,0.000214639,-2.0959,1.56973,1.57017,0.785856,-1.5708,-0.523599,4.49865e-08,-2.09439,1.5708,1.5708,0.785398,0.000136729,0.000658047,5.8496e-06,0.000874843,-0.000607878,7.42954e-06,0.00111229,0,0,0,0,0,0,0,0.0494498,-9.85995,-0.508359,20.8725,1.44686,0.483607,-0.368765,0.0589857,-0.717352,-0.0967079,2.36676,0.867049,0.486458,-0.308677
3212292,0.98,-1.57091,-0.523195,0.000216309,-2.0959,1.56974,1.57017,0.785858,-1.5708,-0.523599,4.49865e-08,-2.09439,1.5708,1.5708,0.785398,9.11526e-05,0.000438698,0.000560712,2.64167e-05,-0.000201801,-0.000232406,0.00145361,0,0,0,0,0,0,0,0.0494498,-9.85995,-0.532163,20.8963,1.44136,0.490016,-0.387991,0.058365,-0.717459,-0.0977803,2.3669,0.867028,0.486486,-0.30856
3212293,0.98,-1.57091,-0.523193,0.000214639,-2.0959,1.56974,1.57017,0.785853,-1.5708,-0.523599,4.49865e-08,-2.09439,1.5708,1.5708,0.785398,6.07684e-05,0.000942079,-0.000183004,1.76111e-05,6.89162e-05,8.24217e-05,-0.000929801,0,0,0,0,0,0,0,0.0494498,-9.88773,-0.508359,20.8963,1.43587,0.483607,-0.336721,0.0577052,-0.71905,-0.0988981,2.36745,0.867029,0.486492,-0.308438
3212294,0.98,-1.57091,-0.523195,0.000211019,-2.0959,1.56974,1.57017,0.785853,-1.5708,-0.523599,4.49865e-08,-2.09439,1.5708,1.5708,0.785398,4.05123e-05,-2.1561e-05,-0.00132843,1.17408e-05,4.59441e-05,-0.000182411,-0.000619867,0,0,0,0,0,0,0,0.0494498,-9.85995,-0.456784,20.8963,1.43587,0.490016,-0.336721,0.0576833,-0.72156,-0.098963,2.36837,0.867036,0.486394,-0.30835
3212295,0.98,-1.57091,-0.523195,0.000212968,-2.0959,1.56974,1.57017,0.785858,-1.5708,-0.523599,4.49865e-08,-2.09439,1.5708,1.5708,0.785398,-0.000529804,-1.4374e-05,-0.000236005,7.82718e-06,0.000471439,0.000115751,0.00148563,0,0,0,0,0,0,0,0.0732535,-9.85995,-0.484555,20.8963,1.42397,0.483607,-0.387991,0.0586925,-0.723337,-0.0973431,2.36892,0.867001,0.486157,-0.30828
3212296,0.98,-1.57091,-0.523192,0.000216309,-2.0959,1.56973,1.57017,0.785853,-1.5708,-0.523599,4.49865e-08,-2.09439,1.5708,1.5708,0.785398,0.000203609,-9.58265e-06,0.000956287,5.21812e-06,-0.000329967,-0.000160191,-0.000908454,0,0,0,0,0,0,0,0.0494498,-9.85995,-0.532163,20.8963,1.44136,0.490016,-0.336721,0.0596504,-0.72386,-0.095815,2.36891,0.866958,0.485951,-0.308214
3212297,0.98,-1.57091,-0.523199,0.000214639,-2.0959,1.56973,1.57017,0.785853,-1.5708,-0.523599,4.49865e-08,-2.09439,1.5708,1.5708,0.785398,-0.000421072,-0.00176963,8.07128e-05,3.47875e-06,-0.000219978,-0.000106794,-0.000605636,0,0,0,0,0,0,0,0.0732535,-9.78458,-0.508359,20.8963,1.44136,0.490016,-0.336721,0.0596898,-0.722279,-0.0957792,2.36799,0.866929,0.485919,-0.308164
3212298,0.98,-1.57091,-0.523198,0.000216309,-2.0959,1.56974,1.57017,0.78585,-1.5708,-0.523599,4.49865e-08,-2.09439,1.5708,1.5708,0.785398,-0.000280715,-0.000622939,0.00061062,-0.000554493,5.67983e-05,0.000166163,-0.0013871,0,0,0,0,0,0,0,0.0732535,-9.80838,-0.532163,20.9201,1.43587,0.483607,-0.310171,0.0593047,-0.717963,-0.0964949,2.36599,0.866894,0.486,-0.308115
3212299,0.98,-1.57091,-0.523198,0.000211019,-2.0959,1.56974,1.57017,0.785856,-1.5708,-0.523599,4.49865e-08,-2.09439,1.5708,1.5708,0.785398,0.000369669,-0.000415293,-0.00135616,0.00018715,0.000478675,-0.000126584,0.0012454,0,0,0,0,0,0,0,0.0494498,-9.80838,-0.456784,20.8963,1.42397,0.490016,-0.368765,0.0591856,-0.71314,-0.0968178,2.36393,0.866856,0.486061,-0.308033
3212300,0.98,-1.57091,-0.523192,0.000214639,-2.0959,1.56974,1.57017,0.785856,-1.5708,-0.523599,4.49865e-08,-2.09439,1.5708,1.5708,0.785398,-0.000310366,0.000929564,0.000302321,0.00133119,-0.000121693,0.000390329,0.00083027,0,0,0,0,0,0,0,0.0732535,-9.85995,-0.508359,20.8448,1.43587,0.477198,-0.368765,0.0595834,-0.709941,-0.0962523,2.36228,0.866799,0.486027,-0.307901
3212301,0.98,-1.57091,-0.523195,0.000212968,-2.0959,1.56973,1.57017,0.78585,-1.5708,-0.523599,4.49865e-08,-2.09439,1.5708,1.5708,0.785398,0.000349901,6.28975e-05,-0.000355265,-0.000318964,-0.00048803,-0.000214499,-0.00137927,0,0,0,0,0,0,0,0.0494498,-9.83615,-0.484555,20.8963,1.44686,0.490016,-0.31658,0.0600634,-0.709,-0.0955223,2.36124,0.866748,0.485945,-0.307749
3212302,0.98,-1.57091,-0.523194,0.000214639,-2.0959,1.56974,1.57017,0.785853,-1.5708,-0.523599,4.49865e-08,-2.09439,1.5708,1.5708,0.785398,0.000233267,0.000598744,0.000319969,-0.000212643,0.000284999,0.000331719,6.3833e-05,0,0,0,0,0,0,0,0.0494498,-9.85995,-0.508359,20.8963,1.43038,0.477198,-0.34313,0.0601434,-0.710214,-0.0953951,2.36132,0.866755,0.485895,-0.3076
3212303,0.98,-1.57091,-0.523196,0.000216309,-2.0959,1.56973,1.57017,0.785857,-1.5708,-0.523599,4.49865e-08,-2.09439,1.5708,1.5708,0.785398,-0.0004013,-0.00015765,0.000770124,-0.000698574,-0.000420353,-1.62131e-05,0.00122935,0,0,0,0,0,0,0,0.0732535,-9.83615,-0.532163,20.9201,1.44686,0.483607,-0.375173,0.0597205,-0.71278,-0.0960882,2.36248,0.866833,0.485903,-0.307435
3212304,0.98,-1.57091,-0.523198,0.000212968,-2.0959,1.56974,1.57017,0.785852,-1.5708,-0.523599,4.49865e-08,-2.09439,1.5708,1.5708,0.785398,-0.000267534,-0.000754714,-0.000600208,-0.000465716,0.000126666,-1.08087e-05,-0.000875854,0,0,0,0,0,0,0,0.0732535,-9.80838,-0.484555,20.9201,1.43587,0.483607,-0.329397,0.0592576,-0.714899,-0.0969621,2.36382,0.866937,0.485918,-0.307259
3212305,0.98,-1.57091,-0.523198,0.000214639,-2.0959,1.56973,1.57017,0.785853,-1.5708,-0.523599,4.49865e-08,-2.09439,1.5708,1.5708,0.785398,0.000378456,-0.000503142,0.000156674,0.000803147,-0.000322457,-0.000244565,-7.52766e-05,0,0,0,0,0,0,0,0.0494498,-9.80838,-0.508359,20.8725,1.44686,0.490016,-0.34313,0.0591578,-0.714824,-0.0972842,2.36416,0.867004,0.485903,-0.307089
3212306,0.98,-1.57091,-0.523195,0.000218258,-2.0959,1.56974,1.57017,0.785858,-1.5708,-0.523599,4.49865e-08,-2.09439,1.5708,1.5708,0.785398,0.000252304,0.000870998,0.00131087,-0.000578193,0.000632739,7.43158e-05,0.000424533,0,0,0,0,0,0,0,0.0494498,-9.85995,-0.559934,20.9201,1.42397,0.483607,-0.355947,0.0586194,-0.714027,-0.0982484,2.36391,0.867074,0.485958,-0.306917
3212307,0.98,-1.57091,-0.523196,0.000212968,-2.0959,1.56974,1.57017,0.785857,-1.5708,-0.523599,4.49865e-08,-2.09439,1.5708,1.5708,0.785398,0.000725015,2.38531e-05,-0.000889321,0.00017135,0.000184467,4.95438e-05,0.00075774,0,0,0,0,0,0,0,0.0256461,-9.83615,-0.484555,20.8963,1.43038,0.483607,-0.368765,0.0574651,-0.714837,-0.100131,2.36435,0.867193,0.486082,-0.306742
3212308,0.98,-1.57091,-0.523198,0.000214639,-2.0959,1.56974,1.57017,0.785857,-1.5708,-0.523599,4.49865e-08,-2.09439,1.5708,1.5708,0.785398,0.000483343,-0.000633712,-3.60689e-05,0.000114233,0.000563788,3.30292e-05,-0.000444276,0,0,0,0,0,0,0,0.0256461,-9.80838,-0.508359,20.8963,1.41847,0.483607,-0.34313,0.0565832,-0.71569,-0.101446,2.36478,0.867282,0.486158,-0.306584
3212309,0.98,-1.57091,-0.523195,0.000214639,-2.0959,1.56974,1.57017,0.785855,-1.5708,-0.5236,1.47005e-06,-2.09439,1.5708,1.57079,0.785402,-0.000791395,0.000783951,-2.40459e-05,0.000632968,-6.49511e-05,-0.000215339,-0.000296184,-0.00216283,-0.00132306,0.00142507,0.000226714,-0.00109209,-0.0012295,0.0036888,0.0732535,-9.85995,-0.508359,20.8725,1.43038,0.490016,-0.34313,0.0562818,-0.715514,-0.101791,2.3645,0.867297,0.486149,-0.306454
3212310,0.98,-1.57091,-0.523196,0.000216309,-2.0959,1.56974,1.57017,0.785854,-1.5708,-0.523603,4.32019e-06,-2.09439,1.57079,1.57079,0.785409,2.92152e-05,-0.000683792,0.000540781,0.000421978,-4.33007e-05,0.000331158,-0.000197456,-0.00432566,-0.00264612,0.00285013,0.000453429,-0.00218418,-0.00245899,0.00737761,0.0494498,-9.80838,-0.532163,20.8725,1.43038,0.477198,-0.34313,0.0563285,-0.715085,-0.101699,2.36386,0.867263,0.486083,-0.306341
3212311,0.98,-1.57091,-0.523197,0.000212968,-2.0959,1.56973,1.57017,0.78586,-1.57081,-0.523607,8.59539e-06,-2.09439,1.57079,1.57079,0.78542,1.94768e-05,-0.000455861,-0.000753103,-0.000832305,-0.000435768,-0.000253946,0.00200459,-0.00648849,-0.00396918,0.0042752,0.000680143,-0.00327627,-0.00368849,0.0110664,0.0494498,-9.80838,-0.484555,20.9201,1.44136,0.490016,-0.400808,0.0565205,-0.713934,-0.101437,2.363,0.867195,0.485999,-0.306231
3212312,0.98,-1.57091,-0.523192,0.000214639,-2.09589,1.56974,1.57017,0.785852,-1.57082,-0.523612,1.42957e-05,-2.09439,1.57079,1.57078,0.785435,0.000569796,0.000705466,0.00642087,0.00383759,0.000116389,6.80618e-05,-0.0022579,-0.00865132,-0.00529224,0.00570027,0.000906858,-0.00436836,-0.00491799,0.0147552,0.0256461,-9.98691,-0.508359,20.8725,1.43038,0.483607,-0.303762,0.054995,-0.711832,-0.103944,2.36145,0.867159,0.486175,-0.306132
3212313,0.98,-1.57091,-0.523189,0.00021194,-2.0959,1.56974,1.57017,0.785854,-1.57083,-0.523619,2.1421e-05,-2.09439,1.57078,1.57078,0.785454,0.00102948,-0.000126577,0.00566904,0.000829458,7.75926e-05,0.000757451,0.00713226,-0.0108142,-0.0066153,0.00712533,0.00113357,-0.00546045,-0.00614748,0.018444,-0.00212494,-10.2408,-0.409177,21.0947,1.43038,0.464381,-0.310171,0.0488089,-0.708877,-0.113969,2.35855,0.867257,0.487034,-0.306051
3212314,0.98,-1.57091,-0.523192,0.000217621,-2.09591,1.56974,1.57017,0.785856,-1.57084,-0.523627,2.99714e-05,-2.09439,1.57077,1.57077,0.785476,0.00179994,-0.000634823,0.00444207,-0.000163569,0.000289087,0.0014544,0.00498014,-0.012977,-0.00793836,0.0085504,0.00136029,-0.00655254,-0.00737698,0.0221328,-0.0497324,-10.5185,-0.409177,21.2693,1.42397,0.438746,-0.297354,0.0387831,-0.705958,-0.129971,2.35568,0.867499,0.488431,-0.305953
3212315,0.98,-1.57092,-0.5232,0.000220157,-2.0959,1.56974,1.57017,0.785856,-1.57086,-0.523636,3.99468e-05,-2.09439,1.57077,1.57076,0.785501,-0.00300733,-0.00247098,0.00225199,-0.00127762,-4.4634e-05,0.000494884,0.00218359,-0.0151398,-0.00926142,0.00997547,0.001587,-0.00764463,-0.00860648,0.0258216,-0.00212494,-10.7447,-0.357602,21.3446,1.43038,0.451564,-0.252493,0.0294868,-0.703259,-0.14459,2.35417,0.867746,0.489671,-0.305784
3212316,0.98,-1.57092,-0.523205,0.000228782,-2.09591,1.56974,1.57017,0.785855,-1.57087,-0.523646,5.13474e-05,-2.09439,1.57076,1.57075,0.785531,-0.00487634,-0.00331763,0.00441263,-0.00328261,0.000614504,0.000567282,0.00134086,-0.0173026,-0.0105845,0.0114005,0.00181372,-0.00873672,-0.00983598,0.0295104,-0.0259286,-10.9986,-0.329831,21.4676,1.41298,0.445155,-0.23876,0.024519,-0.699928,-0.152591,2.35415,0.86788,0.490229,-0.305488
3212317,0.98,-1.57093,-0.523219,0.000233226,-2.09591,1.56974,1.57017,0.785862,-1.57089,-0.523658,6.4173e-05,-2.09438,1.57075,1.57074,0.785564,-0.00730512,-0.00386399,0.00554005,-0.000348576,0.000409669,0.00109026,0.00335936,-0.0194655,-0.0119075,0.0128256,0.00204043,-0.00982881,-0.0110655,0.0331992,-0.00212494,-11.1255,-0.282224,21.543,1.41298,0.425929,-0.297354,0.0237547,-0.695617,-0.154536,2.35508,0.867887,0.490123,-0.304988
3212318,0.98,-1.57093,-0.523237,0.000242395,-2.09591,1.56974,1.57017,0.785859,-1.57092,-0.523672,7.84236e-05,-2.09438,1.57074,1.57073,0.785601,-0.00686881,-0.00799037,0.00371659,0.000602641,0.000476563,0.000726843,0.00127427,-0.0216283,-0.0132306,0.0142507,0.00226714,-0.0109209,-0.012295,0.036888,-0.0775034,-11.2247,-0.254453,21.666,1.40749,0.425929,-0.26531,0.025964,-0.686517,-0.152057,2.35367,0.867655,0.489553,-0.304242
3212319,0.98,-1.57094,-0.523246,0.000250822,-2.09591,1.56974,1.57017,0.785859,-1.57094,-0.523687,9.52071e-05,-2.09438,1.57072,1.57071,0.785644,-0.0072247,-0.00533968,0.00560734,0.00397074,0.000114258,0.00119664,-0.000205074,-0.0254558,-0.0155804,0.0167834,0.0026699,-0.0126539,-0.0142469,0.042744,-0.125111,-11.427,-0.230649,21.666,1.41298,0.406703,-0.232351,0.0301202,-0.669896,-0.14604,2.3472,0.867072,0.488666,-0.30327
3212320,0.98,-1.57095,-0.523259,0.000255289,-2.09591,1.56974,1.57017,0.78586,-1.57097,-0.523705,0.000114523,-2.09438,1.57071,1.5707,0.785692,-0.00616065,-0.00576676,0.00579915,0.00282654,0.000720432,0.00103512,-0.000961565,-0.0292833,-0.0179302,0.0193162,0.00307265,-0.0143869,-0.0161988,0.0485999,-0.101307,-11.5302,-0.155271,21.6898,1.39559,0.400294,-0.206716,0.0340907,-0.65111,-0.139206,2.33771,0.866252,0.487675,-0.302087
3212321,0.98,-1.57096,-0.523263,0.000268274,-2.09591,1.56973,1.57017,0.78587,-1.571,-0.523725,0.000136372,-2.09437,1.57069,1.57068,0.785747,-0.00678167,-0.00557006,0.00892454,0.00178689,3.94787e-05,0.0011648,0.00436939,-0.0331108,-0.0202801,0.0218489,0.0034754,-0.0161198,-0.0181508,0.0544559,-0.152882,-11.7801,-0.202878,21.7176,1.40749,0.387477,-0.225942,0.0356637,-0.636799,-0.134716,2.32933,0.865412,0.486804,-0.300677
3212322,0.98,-1.57096,-0.523277,0.000274721,-2.09591,1.56974,1.57017,0.785876,-1.57104,-0.523748,0.000160754,-2.09437,1.57068,1.57066,0.785807,-0.00706451,-0.00662891,0.00819041,0.00434163,0.000467129,0.00199723,0.00661608,-0.0369384,-0.0226299,0.0243816,0.00387815,-0.0178528,-0.0201027,0.0603118,-0.204456,-11.9825,-0.1275,21.7414,1.39559,0.354518,-0.200308,0.0340561,-0.628397,-0.133779,2.32346,0.86463,0.486134,-0.299028
3212323,0.98,-1.57098,-0.523287,0.000289286,-2.09591,1.56974,1.57017,0.785878,-1.57108,-0.523773,0.000187668,-2.09436,1.57066,1.57064,0.785873,-0.00811387,-0.00780085,0.00951713,0.00492373,0.00156603,0.00323036,0.00572698,-0.0407659,-0.0249797,0.0269144,0.0042809,-0.0195858,-0.0220546,0.0661677,-0.22826,-12.3117,-0.1275,21.9397,1.36171,0.303248,-0.103262,0.030245,-0.623189,-0.134869,2.31818,0.863803,0.485509,-0.297141
3212324,0.98,-1.57099,-0.523301,0.000308873,-2.09592,1.56974,1.57017,0.78589,-1.57113,-0.5238,0.000217115,-2.09436,1.57063,1.57061,0.785945,-0.0121654,-0.00837066,0.0142609,0.000396974,0.00206127,0.00286565,0.00828973,-0.0445934,-0.0273295,0.0294471,0.00468365,-0.0213188,-0.0240066,0.0720237,-0.252064,-12.6648,-0.155271,22.2373,1.33425,0.284022,-0.0840357,0.0247767,-0.62107,-0.137528,2.31409,0.862941,0.484804,-0.294987
3212325,0.98,-1.57101,-0.523326,0.000325587,-2.09592,1.56974,1.57017,0.785903,-1.57117,-0.52383,0.000249095,-2.09436,1.57061,1.57059,0.786023,-0.0143858,-0.015107,0.01326,-0.00212038,0.00242534,0.00380931,0.009568,-0.0484209,-0.0296794,0.0319799,0.0050864,-0.0230517,-0.0259585,0.0778796,-0.303639,-12.8949,-0.1275,22.511,1.30586,0.232753,-0.0510767,0.0181904,-0.621796,-0.141621,2.31352,0.862107,0.483916,-0.292482
3212326,0.98,-1.57103,-0.523355,0.000345051,-2.09592,1.56974,1.57017,0.785914,-1.57123,-0.523862,0.000283608,-2.09435,1.57059,1.57056,0.786107,-0.0168926,-0.0206517,0.0158476,-0.00154989,0.00287151,0.00348897,0.00782003,-0.0522484,-0.0320292,0.0345126,0.00548915,-0.0247847,-0.0279104,0.0837356,-0.327442,-13.0973,-0.103696,22.6856,1.27199,0.207118,0.0523779,0.0119197,-0.616469,-0.145054,2.31353,0.861082,0.482691,-0.289527
3212327,0.99,-1.57106,-0.523383,0.00036914,-2.09593,1.56973,1.57017,0.785924,-1.57128,-0.523896,0.000320653,-2.09434,1.57056,1.57053,0.786197,-0.0178183,-0.0211332,0.0183528,-0.00413325,0.00110054,-0.00260096,0.0106983,-0.0560759,-0.034379,0.0370454,0.0058919,-0.0265177,-0.0298623,0.0895915,-0.379017,-13.3234,-0.103696,22.8601,1.29396,0.213527,0.16865,0.00540479,-0.600252,-0.148436,2.31163,0.859699,0.481234,-0.286016
3212328,0.99,-1.57109,-0.523419,0.000388924,-2.09592,1.56973,1.57016,0.785947,-1.57134,-0.523933,0.000360231,-2.09434,1.57053,1.5705,0.786292,-0.0222522,-0.0267796,0.0184281,-0.00313165,0.000733691,-0.00700786,0.0160143,-0.0599034,-0.0367288,0.0395781,0.00629466,-0.0282507,-0.0318143,0.0954474,-0.402821,-13.4503,-0.0283176,22.9077,1.29396,0.219935,0.200693,-0.00217086,-0.576377,-0.152808,2.30899,0.857937,0.479652,-0.281782
3212329,0.99,-1.57112,-0.523449,0.000418588,-2.09592,1.56972,1.57016,0.785974,-1.57141,-0.523973,0.000403199,-2.09433,1.5705,1.57046,0.786395,-0.0239882,-0.0290286,0.0235193,-0.000946074,-0.00466351,-0.00511479,0.018454,-0.0649955,-0.0398685,0.042968,0.0068329,-0.0303503,-0.0341797,0.102543,-0.50597,-13.6527,-0.0283176,23.0069,1.30586,0.213527,0.272104,-0.0105433,-0.544338,-0.157757,2.30419,0.855729,0.477913,-0.276635
3212330,0.99,-1.57115,-0.523483,0.000451451,-2.09592,1.56971,1.57015,0.786012,-1.57148,-0.524016,0.000449557,-2.09432,1.57047,1.57043,0.786504,-0.0271274,-0.0319769,0.0278726,-0.00173674,-0.00860184,-0.00246198,0.0264587,-0.0700875,-0.0430081,0.0463579,0.00737114,-0.03245,-0.0365452,0.109638,-0.529774,-13.8034,-0.0521213,23.0823,1.31685,0.174159,0.291331,-0.0211829,-0.504685,-0.165764,2.29623,0.853183,0.476147,-0.270429
3212331,0.99,-1.5712,-0.52351,0.000481665,-2.09592,1.5697,1.57014,0.786053,-1.57155,-0.524062,0.000499305,-2.09432,1.57043,1.57039,0.786621,-0.0293801,-0.0316783,0.0261076,-0.00298496,-0.0057759,-0.00107452,0.0323994,-0.0751796,-0.0461477,0.0497478,0.00790939,-0.0345497,-0.0389107,0.116734,-0.557545,-14.0573,-0.000546589,23.1815,1.29946,0.148524,0.304148,-0.0339841,-0.464709,-0.17657,2.28855,0.850487,0.474186,-0.263109
3212332,0.99,-1.57124,-0.523538,0.000516839,-2.09593,1.5697,1.57013,0.786108,-1.57163,-0.524111,0.000552443,-2.09431,1.5704,1.57035,0.786745,-0.0329756,-0.033665,0.0286726,-0.00514677,-0.00751958,-0.00521266,0.0386828,-0.0802716,-0.0492873,0.0531376,0.00844763,-0.0366493,-0.0412762,0.123829,-0.632923,-14.3589,0.0232571,23.3322,1.25459,0.135707,0.278513,-0.0462661,-0.433199,-0.185615,2.28586,0.847707,0.471541,-0.254707
3212333,0.99,-1.57129,-0.52357,0.000557278,-2.09593,1.56969,1.57012,0.786179,-1.57172,-0.524164,0.00060897,-2.0943,1.57036,1.5703,0.786876,-0.0407131,-0.0346242,0.0338205,-0.000301162,-0.00859817,-0.00313125,0.0491094,-0.0853636,-0.0524269,0.0565275,0.00898587,-0.038749,-0.0436417,0.130925,-0.632923,-14.6881,0.0470608,23.479,1.20333,0.110072,0.200693,-0.0569576,-0.412884,-0.191462,2.28891,0.84483,0.468059,-0.245314
3212334,0.99,-1.57136,-0.523607,0.000603453,-2.09592,1.56968,1.57011,0.78625,-1.57181,-0.524219,0.000668887,-2.09429,1.57032,1.57026,0.787014,-0.0477148,-0.0328512,0.0375967,-0.000340294,-0.00955321,-0.00510057,0.0566319,-0.0904557,-0.0555665,0.0599174,0.00952412,-0.0408487,-0.0460071,0.13802,-0.581349,-14.9936,0.0748318,23.6536,1.15297,0.0523938,0.233652,-0.0658391,-0.404177,-0.194675,2.29605,0.841775,0.463698,-0.235107
3212335,0.99,-1.57141,-0.52365,0.000658873,-2.09592,1.56967,1.5701,0.786318,-1.5719,-0.524278,0.000732195,-2.09428,1.57028,1.57021,0.787159,-0.0502497,-0.0355147,0.0431212,0.000103047,-0.00729364,-0.00617516,0.0643577,-0.0955477,-0.0587061,0.0633073,0.0100624,-0.0429483,-0.0483726,0.145116,-0.632923,-15.2713,-0.000546589,23.8044,1.14748,-0.0190174,0.337107,-0.0737677,-0.409387,-0.196953,2.30778,0.838501,0.458564,-0.224327
3212336,0.99,-1.57148,-0.523704,0.000706973,-2.09592,1.56964,1.57008,0.786414,-1.572,-0.52434,0.000798892,-2.09427,1.57023,1.57016,0.787311,-0.0560551,-0.041094,0.0458593,-0.000179211,-0.0157638,-0.00878729,0.0746653,-0.10064,-0.0618457,0.0666972,0.0106006,-0.045048,-0.0507381,0.152211,-0.656727,-15.3943,0.0986355,23.852,1.15846,-0.0446521,0.316965,-0.0827177,-0.423641,-0.201099,2.32279,0.83494,0.453004,-0.213121
3212337,0.99,-1.57156,-0.523767,0.000763857,-2.09592,1.56962,1.57006,0.786514,-1.57211,-0.524405,0.000868979,-2.09426,1.57018,1.57011,0.78747,-0.0597587,-0.0497623,0.0497938,-0.00355348,-0.0224554,-0.0121117,0.0846681,-0.105732,-0.0649853,0.070087,0.0111388,-0.0471476,-0.0531036,0.159307,-0.708302,-15.4459,0.126407,24.0265,1.18135,-0.0318348,0.356333,-0.0932453,-0.434927,-0.207748,2.33722,0.830989,0.447205,-0.201515
3212338,0.99,-1.57163,-0.523823,0.000823948,-2.09592,1.56959,1.57003,0.786627,-1.57222,-0.524473,0.000942456,-2.09424,1.57013,1.57005,0.787637,-0.0653351,-0.0505706,0.0533891,-0.00188202,-0.0225657,-0.0189418,0.0929224,-0.110824,-0.0681249,0.0734769,0.0116771,-0.0492473,-0.0554691,0.166402,-0.78368,-15.5966,0.126407,24.0265,1.20973,-0.0254261,0.375559,-0.105388,-0.436713,-0.21668,2.34936,0.826639,0.441272,-0.189528
3212339,0.99,-1.57172,-0.523884,0.000888538,-2.09591,1.56956,1.57001,0.786749,-1.57234,-0.524545,0.00101998,-2.09423,1.57008,1.56999,0.787811,-0.0738135,-0.0526457,0.0567707,0.000224168,-0.0231972,-0.0175849,0.102606,-0.116859,-0.0718648,0.0775266,0.0123184,-0.0515474,-0.05806,0.174172,-0.807484,-15.676,0.0986355,23.9789,1.25459,-0.0638782,0.401194,-0.11801,-0.432609,-0.226053,2.35981,0.82191,0.435038,-0.177194
3212340,0.99,-1.57181,-0.523939,0.00095054,-2.09591,1.56953,1.56998,0.786891,-1.57246,-0.524621,0.00110156,-2.09422,1.57003,1.56993,0.787993,-0.0801087,-0.0546027,0.057304,0.00194801,-0.0267967,-0.0221683,0.121888,-0.122894,-0.0756047,0.0815763,0.0129597,-0.0538474,-0.060651,0.181942,-0.831288,-15.8506,0.15021,24.0543,1.26009,-0.0831043,0.330698,-0.127982,-0.427756,-0.231134,2.36907,0.816797,0.427977,-0.164542
3212341,0.99,-1.5719,-0.523994,0.00101613,-2.0959,1.5695,1.56994,0.787033,-1.57259,-0.5247,0.00118718,-2.09421,1.56997,1.56987,0.788183,-0.0879682,-0.0553238,0.0571852,0.00504028,-0.0284585,-0.0262491,0.125531,-0.128929,-0.0793446,0.0856261,0.013601,-0.0561475,-0.0632419,0.189711,-0.859058,-16.0767,0.225589,24.0543,1.23171,-0.0831043,0.316965,-0.132073,-0.425122,-0.226677,2.37719,0.811303,0.419584,-0.151635
3212342,0.99,-1.572,-0.524052,0.00108773,-2.0959,1.56947,1.56991,0.787195,-1.57272,-0.524783,0.00127686,-2.09419,1.56991,1.5698,0.78838,-0.0921179,-0.0547463,0.0605065,0.00425419,-0.029075,-0.028725,0.134573,-0.134964,-0.0830845,0.0896758,0.0142423,-0.0584475,-0.0658329,0.197481,-0.831288,-16.3584,0.300967,24.1773,1.18685,-0.0959217,0.259287,-0.12947,-0.430025,-0.210982,2.38615,0.805551,0.409714,-0.138599
3212343,0.99,-1.57212,-0.524118,0.00116467,-2.09589,1.56944,1.56987,0.787371,-1.57287,-0.52487,0.00137059,-2.09418,1.56985,1.56973,0.788585,-0.0989953,-0.0602304,0.0672443,0.00125126,-0.0334067,-0.0300569,0.145558,-0.140998,-0.0868244,0.0937255,0.0148836,-0.0607476,-0.0684238,0.205251,-0.755909,-16.5329,0.328738,24.2765,1.1136,-0.121556,0.200693,-0.12352,-0.446416,-0.189141,2.3993,0.799833,0.398863,-0.125602
3212344,0.99,-1.57223,-0.524185,0.00124682,-2.09588,1.5694,1.56983,0.78756,-1.57301,-0.52496,0.00146836,-2.09416,1.56979,1.56966,0.788798,-0.100369,-0.0617218,0.0725243,0.00281096,-0.0387751,-0.0311267,0.157031,-0.147033,-0.0905642,0.0977752,0.0155249,-0.0630476,-0.0710148,0.21302,-0.708302,-16.8106,0.352542,24.3518,1.09072,-0.147191,0.162241,-0.119562,-0.471908,-0.169551,2.41735,0.794365,0.387879,-0.112831
3212345,0.99,-1.57236,-0.524268,0.00133275,-2.09587,1.56937,1.56978,0.787751,-1.57317,-0.525055,0.00157019,-2.09415,1.56972,1.56959,0.789019,-0.107571,-0.0703801,0.0763757,0.00327902,-0.0377246,-0.0374582,0.165883,-0.153068,-0.0943041,0.101825,0.0161662,-0.0653477,-0.0736057,0.22079,-0.656727,-16.9138,0.376346,24.451,1.05684,-0.1536,0.233652,-0.12075,-0.498585,-0.157038,2.43659,0.789023,0.377376,-0.100474
3212346,0.99,-1.57248,-0.524351,0.00142178,-2.09587,1.56932,1.56973,0.787955,-1.57333,-0.525153,0.00167606,-2.09413,1.56966,1.56951,0.789248,-0.116966,-0.0760891,0.0790667,0.00510038,-0.0385084,-0.0421807,0.177382,-0.159103,-0.098044,0.105875,0.0168075,-0.0676477,-0.0761967,0.22856,-0.680531,-17.0407,0.404117,24.4986,1.07332,-0.1536,0.291331,-0.125193,-0.514999,-0.149053,2.45096,0.783381,0.367326,-0.0886516
3212347,0.99,-1.57262,-0.52444,0.00151481,-2.09586,1.56928,1.56968,0.788173,-1.57349,-0.525255,0.00178599,-2.09411,1.56959,1.56943,0.789484,-0.122192,-0.08125,0.0807102,0.00593718,-0.0397214,-0.0461719,0.188658,-0.165138,-0.101784,0.109924,0.0174488,-0.0699478,-0.0787876,0.236329,-0.680531,-17.1161,0.451724,24.5502,1.09621,-0.147191,0.284922,-0.128862,-0.515091,-0.13989,2.45709,0.77708,0.357308,-0.0773487
3212348,0.99,-1.57276,-0.524531,0.00160937,-2.09585,1.56922,1.56963,0.788395,-1.57366,-0.52536,0.00189996,-2.09409,1.56951,1.56935,0.789728,-0.131192,-0.0845659,0.0823847,0.00731136,-0.0471779,-0.0477926,0.201004,-0.171173,-0.105524,0.113974,0.0180901,-0.0722478,-0.0813786,0.244099,-0.732105,-17.2153,0.503299,24.574,1.18135,-0.172826,0.310557,-0.129052,-0.501823,-0.125442,2.45603,0.770068,0.34691,-0.0664653
3212349,0.99,-1.57291,-0.524622,0.00170285,-2.09584,1.56916,1.56957,0.788626,-1.57384,-0.52547,0.00201849,-2.09407,1.56944,1.56927,0.78998,-0.136281,-0.0837317,0.0857729,0.0104906,-0.0511943,-0.0488123,0.20702,-0.177892,-0.109712,0.118529,0.0188085,-0.0746477,-0.0840806,0.252198,-0.732105,-17.3185,0.578677,24.4986,1.22621,-0.205785,0.381968,-0.124687,-0.484188,-0.104076,2.4514,0.76257,0.335833,-0.0558996
3212350,0.99,-1.57307,-0.524711,0.00180821,-2.09583,1.56911,1.56951,0.788876,-1.57402,-0.525584,0.00214157,-2.09405,1.56936,1.56918,0.790241,-0.144144,-0.083905,0.09332,0.0116238,-0.0522904,-0.0554216,0.21695,-0.184612,-0.113901,0.123083,0.0195269,-0.0770476,-0.0867826,0.260298,-0.680531,-17.5208,0.578677,24.5978,1.22621,-0.212194,0.343516,-0.117987,-0.474064,-0.0792556,2.4479,0.755029,0.324238,-0.0455366
3212351,0.99,-1.57324,-0.5248,0.00191595,-2.09582,1.56905,1.56944,0.789137,-1.57422,-0.525702,0.00226921,-2.09403,1.56928,1.56909,0.790509,-0.150012,-0.0867647,0.0982166,0.0119615,-0.0509384,-0.0559873,0.230068,-0.191331,-0.11809,0.127637,0.0202454,-0.0794475,-0.0894846,0.268397,-0.632923,-17.7469,0.606448,24.5978,1.16945,-0.205785,0.252878,-0.112604,-0.478065,-0.0567468,2.44878,0.747858,0.312608,-0.0352688
3212352,0.99,-1.5734,-0.524894,0.00202772,-2.09582,1.569,1.56938,0.789397,-1.57441,-0.525824,0.0024014,-2.09401,1.5692,1.569,0.790786,-0.15486,-0.0888499,0.104542,0.00877844,-0.0548963,-0.0610115,0.236079,-0.19805,-0.122278,0.132192,0.0209638,-0.0818474,-0.0921866,0.276496,-0.708302,-17.9731,0.658023,24.7486,1.10719,-0.205785,0.24647,-0.110929,-0.497121,-0.0402726,2.45605,0.741302,0.301324,-0.0250983
3212353,0.99,-1.57358,-0.524989,0.00214547,-2.09581,1.56894,1.56931,0.789669,-1.57462,-0.52595,0.00253815,-2.09399,1.56912,1.56891,0.79107,-0.162604,-0.0901011,0.107463,0.00771231,-0.0568512,-0.0633185,0.254507,-0.204769,-0.126467,0.136746,0.0216822,-0.0842472,-0.0948886,0.284595,-0.732105,-18.227,0.681826,24.8478,1.00557,-0.237828,0.187876,-0.113364,-0.532869,-0.0303487,2.47238,0.73545,0.290481,-0.0151381
3212354,0.99,-1.57377,-0.525093,0.00227263,-2.0958,1.56888,1.56924,0.78995,-1.57483,-0.526081,0.00267945,-2.09397,1.56903,1.56881,0.791363,-0.17112,-0.0938104,0.115781,0.00742648,-0.0611972,-0.0692301,0.264247,-0.211489,-0.130656,0.141301,0.0224006,-0.0866471,-0.0975906,0.292694,-0.656727,-18.5047,0.681826,24.9231,0.983598,-0.289098,0.149424,-0.118736,-0.584873,-0.0253268,2.49827,0.730149,0.279954,-0.00552241
3212355,0.99,-1.57396,-0.525212,0.0024007,-2.09579,1.56881,1.56916,0.790245,-1.57505,-0.526216,0.0028253,-2.09395,1.56894,1.56871,0.791664,-0.178642,-0.103883,0.118293,0.00681974,-0.0653156,-0.0705537,0.275253,-0.218208,-0.134844,0.145855,0.023119,-0.089047,-0.100293,0.300794,-0.656727,-18.6078,0.70563,25.0223,0.989092,-0.301915,0.143015,-0.125969,-0.642573,-0.0238018,2.52867,0.725008,0.269703,0.00362933
3212356,0.99,-1.57417,-0.525335,0.00253297,-2.09578,1.56873,1.56907,0.790535,-1.57527,-0.526355,0.00297571,-2.09392,1.56885,1.5686,0.791972,-0.185817,-0.109961,0.121267,0.00754502,-0.0650168,-0.073278,0.279994,-0.224927,-0.139033,0.15041,0.0238375,-0.0914469,-0.102995,0.308893,-0.732105,-18.6316,0.681826,25.0699,1.03395,-0.263463,0.226328,-0.132947,-0.690644,-0.0223453,2.55607,0.719539,0.259535,0.0122182
3212357,0.99,-1.57437,-0.525455,0.00267025,-2.09577,1.56865,1.56899,0.790843,-1.5755,-0.526498,0.00313068,-2.0939,1.56876,1.5685,0.792289,-0.193151,-0.111512,0.12942,0.00901071,-0.0694223,-0.080751,0.284429,-0.231646,-0.143221,0.154964,0.0245559,-0.0938468,-0.105697,0.316992,-0.831288,-18.7586,0.681826,25.1969,1.07332,-0.205785,0.252878,-0.138986,-0.725251,-0.0196485,2.57766,0.713551,0.249381,0.0202348
3212358,0.99,-1.57459,-0.525588,0.00281355,-2.09576,1.56857,1.5689,0.791155,-1.57574,-0.526646,0.0032902,-2.09387,1.56866,1.56839,0.792615,-0.199505,-0.121879,0.132804,0.00769943,-0.0736082,-0.0835053,0.295673,-0.238365,-0.14741,0.159519,0.0252743,-0.0962467,-0.108399,0.325091,-0.78368,-18.7308,0.658023,25.3199,1.14748,-0.218602,0.297739,-0.146013,-0.748629,-0.0185402,2.59398,0.707189,0.239577,0.0277882
3212359,0.99,-1.57481,-0.525715,0.00295922,-2.09575,1.56848,1.56882,0.79148,-1.57599,-0.526798,0.00345465,-2.09385,1.56856,1.56828,0.792948,-0.20659,-0.124501,0.137261,0.0101758,-0.0758923,-0.0887364,0.308019,-0.245561,-0.151926,0.164456,0.0260491,-0.0986858,-0.111142,0.33331,-0.78368,-18.8102,0.681826,25.2961,1.20333,-0.269872,0.252878,-0.154394,-0.759046,-0.0192124,2.60438,0.700574,0.230282,0.0350293
3212360,0.99,-1.57504,-0.52584,0.00311061,-2.09574,1.56839,1.56873,0.791808,-1.57624,-0.526954,0.00362405,-2.09382,1.56846,1.56817,0.793289,-0.213913,-0.124802,0.141247,0.0101534,-0.0799907,-0.0883105,0.314039,-0.252757,-0.156442,0.169394,0.0268239,-0.101125,-0.113886,0.341529,-0.831288,-18.9609,0.681826,25.3437,1.19783,-0.321141,0.24647,-0.162928,-0.763006,-0.0196361,2.61141,0.693924,0.221243,0.0420714
3212361,0.99,-1.57529,-0.525972,0.00325953,-2.09573,1.5683,1.56863,0.792142,-1.5765,-0.527115,0.00379838,-2.09379,1.56836,1.56805,0.793639,-0.221283,-0.126519,0.14691,0.00978806,-0.0823732,-0.0902917,0.32261,-0.259952,-0.160959,0.174331,0.0275987,-0.103564,-0.116629,0.349748,-0.78368,-19.0601,0.70563,25.3952,1.15846,-0.314733,0.207102,-0.170865,-0.77406,-0.0188542,2.62114,0.687624,0.212083,0.0489519
3212362,0.99,-1.57552,-0.526107,0.00340883,-2.09572,1.5682,1.56854,0.792492,-1.57677,-0.52728,0.00397765,-2.09376,1.56825,1.56793,0.793997,-0.229087,-0.127602,0.149941,0.00589513,-0.083786,-0.0949215,0.328192,-0.267148,-0.165475,0.179269,0.0283735,-0.106003,-0.119372,0.357966,-0.78368,-19.1632,0.781009,25.4706,1.1136,-0.346776,0.143015,-0.17777,-0.801738,-0.0163933,2.63911,0.681957,0.20255,0.0556417
3212363,0.99,-1.57578,-0.526249,0.00356772,-2.09571,1.56811,1.56843,0.792848,-1.57704,-0.52745,0.00416185,-2.09373,1.56814,1.56781,0.794363,-0.23852,-0.133711,0.155384,0.00599099,-0.0896866,-0.0956757,0.335274,-0.274344,-0.169991,0.184206,0.0291483,-0.108442,-0.122116,0.366185,-0.732105,-19.314,0.860354,25.542,1.05684,-0.32755,0.155832,-0.182708,-0.847286,-0.0110339,2.66715,0.676948,0.19248,0.0620637
3212364,1,-1.57605,-0.5264,0.00373907,-2.0957,1.56801,1.56834,0.793203,-1.57732,-0.527625,0.004351,-2.0937,1.56803,1.56768,0.794738,-0.25173,-0.141229,0.162711,0.00548184,-0.0895048,-0.0940393,0.338921,-0.281539,-0.174507,0.189144,0.0299231,-0.110882,-0.124859,0.374404,-0.581349,-19.3378,0.80878,25.6452,1.01747,-0.353185,0.194285,-0.184584,-0.900347,-0.00183544,2.7006,0.672342,0.181799,0.0681304
3212365,1,-1.57631,-0.526552,0.00390946,-2.0957,1.56791,1.56824,0.793568,-1.57761,-0.527804,0.00454508,-2.09367,1.56792,1.56755,0.79512,-0.254401,-0.145173,0.164432,0.00403845,-0.0876441,-0.0974941,0.341863,-0.288735,-0.179023,0.194082,0.0306979,-0.113321,-0.127603,0.382623,-0.581349,-19.4132,0.907962,25.792,1.02846,-0.392553,0.226328,-0.183258,-0.950653,0.0110792,2.73431,0.667804,0.170613,0.0738107
3212366,1,-1.57659,-0.526712,0.00408168,-2.09568,1.56781,1.56812,0.793947,-1.57791,-0.527988,0.0047441,-2.09364,1.5678,1.56742,0.795511,-0.260016,-0.151544,0.162185,0.00689209,-0.0945987,-0.102778,0.356264,-0.29593,-0.18354,0.199019,0.0314727,-0.11576,-0.130346,0.390841,-0.557545,-19.4925,0.935733,25.792,1.03945,-0.359594,0.226328,-0.178528,-0.994711,0.0292689,2.76597,0.663006,0.158977,0.0791534
3212367,1,-1.57687,-0.52688,0.00426646,-2.09567,1.5677,1.568,0.794324,-1.57821,-0.528176,0.00494805,-2.09361,1.56768,1.56729,0.79591,-0.266056,-0.154421,0.168239,0.0102361,-0.100308,-0.107841,0.355788,-0.303126,-0.188056,0.203957,0.0322475,-0.118199,-0.13309,0.39906,-0.605152,-19.5163,0.860354,25.8435,1.05684,-0.295507,0.213511,-0.170303,-1.0301,0.0540494,2.79271,0.657709,0.14694,0.0842612
3212368,1,-1.57716,-0.527047,0.00444291,-2.09565,1.56759,1.5679,0.794701,-1.57852,-0.528368,0.00515695,-2.09358,1.56756,1.56716,0.796318,-0.271802,-0.157843,0.171816,0.0106088,-0.100884,-0.111975,0.363867,-0.310322,-0.192572,0.208894,0.0330223,-0.120638,-0.135833,0.407279,-0.605152,-19.6155,0.959536,25.8673,1.1136,-0.340367,0.304148,-0.16087,-1.05852,0.0818375,2.81402,0.651988,0.134898,0.0892191
3212369,1,-1.57746,-0.527219,0.00463233,-2.09564,1.56747,1.56778,0.795096,-1.57884,-0.528565,0.00537107,-2.09354,1.56744,1.56702,0.796733,-0.28012,-0.161741,0.176494,0.00917753,-0.105707,-0.114611,0.374656,-0.317827,-0.197319,0.214119,0.0338369,-0.12308,-0.138576,0.415489,-0.581349,-19.6671,0.98334,25.9665,1.16945,-0.398961,0.323374,-0.152137,-1.08549,0.109193,2.83317,0.646102,0.123173,0.0940859
3212370,1,-1.57778,-0.527394,0.00483146,-2.09563,1.56735,1.56767,0.795509,-1.57917,-0.528768,0.00559041,-2.09351,1.56731,1.56688,0.797157,-0.288205,-0.165472,0.184813,0.00792049,-0.113076,-0.116489,0.379193,-0.325331,-0.202066,0.219344,0.0346515,-0.125523,-0.141319,0.423699,-0.478199,-19.794,0.935733,26.0657,1.19783,-0.450231,0.304148,-0.144907,-1.11559,0.134058,2.85404,0.640407,0.111836,0.098963
3212371,1,-1.57809,-0.527572,0.00502122,-2.09562,1.56724,1.56754,0.79593,-1.5795,-0.528974,0.00581498,-2.09347,1.56719,1.56673,0.797589,-0.295833,-0.1695,0.183174,0.00847323,-0.116575,-0.120811,0.400748,-0.332836,-0.206813,0.224569,0.0354661,-0.127965,-0.144062,0.43191,-0.529774,-19.8972,0.98334,26.1173,1.15297,-0.443822,0.219919,-0.138661,-1.1508,0.156645,2.87857,0.635157,0.100701,0.103943
3212372,1,-1.57841,-0.527754,0.00521896,-2.0956,1.56712,1.56741,0.796357,-1.57984,-0.529186,0.00604477,-2.09344,1.56706,1.56658,0.798029,-0.309939,-0.17268,0.186108,0.0099116,-0.11905,-0.123899,0.406786,-0.340341,-0.21156,0.229794,0.0362807,-0.130407,-0.146804,0.44012,-0.529774,-19.9964,1.08649,26.1173,1.1136,-0.437413,0.200693,-0.12855,-1.19075,0.184209,2.90606,0.630224,0.0889723,0.109002
3212373,1,-1.57875,-0.527937,0.00543642,-2.09559,1.567,1.56729,0.796791,-1.58019,-0.529402,0.00627979,-2.0934,1.56692,1.56644,0.798477,-0.319073,-0.176065,0.197149,0.0120308,-0.11933,-0.125713,0.4153,-0.347846,-0.216307,0.235019,0.0370953,-0.132849,-0.149547,0.44833,-0.454395,-20.1749,1.08649,26.1887,1.02297,-0.443822,0.213511,-0.112486,-1.23439,0.219229,2.93485,0.625464,0.076315,0.114032
3212374,1,-1.57911,-0.528127,0.00565805,-2.09558,1.56688,1.56716,0.797229,-1.58054,-0.529623,0.00652004,-2.09336,1.56679,1.56628,0.798934,-0.330092,-0.180781,0.202113,0.0111918,-0.125938,-0.125709,0.423423,-0.355351,-0.221054,0.240244,0.0379099,-0.135291,-0.15229,0.456541,-0.204456,-20.2741,1.08649,26.2403,0.983598,-0.482274,0.194285,-0.0941075,-1.28049,0.255361,2.96395,0.620917,0.0632641,0.118937
3212375,1,-1.57945,-0.528327,0.00587957,-2.09556,1.56674,1.56703,0.797692,-1.5809,-0.529849,0.00676551,-2.09332,1.56665,1.56613,0.799398,-0.335718,-0.186481,0.20791,0.0137277,-0.12977,-0.125714,0.435137,-0.362856,-0.225801,0.245469,0.0387245,-0.137734,-0.155033,0.464751,-0.176685,-20.401,1.13806,26.2879,1.02297,-0.527135,0.181467,-0.0759399,-1.32605,0.288748,2.99222,0.616488,0.0502025,0.123657
3212376,1,-1.57981,-0.52853,0.0061017,-2.09554,1.56662,1.56689,0.79815,-1.58127,-0.53008,0.0070162,-2.09328,1.56651,1.56597,0.799871,-0.341938,-0.196647,0.213405,0.0157336,-0.130231,-0.128685,0.444258,-0.370361,-0.230548,0.250694,0.0395391,-0.140176,-0.157775,0.472961,-0.176685,-20.5002,1.28882,26.3395,1.01747,-0.495092,0.240061,-0.0597894,-1.36221,0.317249,3.01522,0.611905,0.0374888,0.128157
3212377,1,-1.58017,-0.528743,0.00633693,-2.09553,1.56649,1.56674,0.798617,-1.58165,-0.530315,0.00727212,-2.09324,1.56637,1.56581,0.800352,-0.356602,-0.200911,0.220923,0.0135875,-0.129298,-0.131442,0.452648,-0.377866,-0.235295,0.255919,0.0403537,-0.142618,-0.160518,0.481172,-0.101307,-20.528,1.28882,26.4148,0.983598,-0.431005,0.213511,-0.0462476,-1.38218,0.34006,3.03003,0.606992,0.0253457,0.132424
3212378,1,-1.58054,-0.52896,0.00656242,-2.09552,1.56636,1.56661,0.799095,-1.58204,-0.530555,0.00753326,-2.0932,1.56622,1.56565,0.800842,-0.365315,-0.20611,0.222897,0.0143219,-0.132169,-0.133349,0.456316,-0.385371,-0.240042,0.261144,0.0411683,-0.14506,-0.163261,0.489382,-0.0775034,-20.5796,1.43958,26.514,1.03395,-0.507909,0.213511,-0.0323007,-1.39083,0.361324,3.03999,0.601752,0.0133954,0.136482
3212379,1,-1.58093,-0.529175,0.00679625,-2.09549,1.56622,1.56648,0.799581,-1.58243,-0.5308,0.00779984,-2.09316,1.56608,1.56548,0.801339,-0.370176,-0.206751,0.231766,0.0156544,-0.134924,-0.133135,0.468486,-0.393051,-0.244942,0.266581,0.0420095,-0.147484,-0.165977,0.497506,-0.00212494,-20.6549,1.56653,26.4624,1.09621,-0.63059,0.149424,-0.0171447,-1.39792,0.382668,3.04973,0.596314,0.00147666,0.140357
3212380,1,-1.58132,-0.529391,0.00705354,-2.09547,1.56609,1.56633,0.800077,-1.58283,-0.53105,0.00807186,-2.09312,1.56593,1.56531,0.801845,-0.376553,-0.205736,0.241979,0.0134535,-0.133474,-0.136443,0.474468,-0.400731,-0.249842,0.272018,0.0428506,-0.149908,-0.168694,0.50563,0.200207,-20.7819,1.54273,26.5378,1.07973,-0.669042,0.135691,-0.00565277,-1.41649,0.397344,3.06518,0.591116,-0.00990134,0.144032
3212381,1,-1.58171,-0.529613,0.00730769,-2.09545,1.56595,1.56617,0.800592,-1.58324,-0.531304,0.00834932,-2.09307,1.56577,1.56514,0.802359,-0.383309,-0.209198,0.24756,0.0136404,-0.137927,-0.141569,0.487447,-0.408411,-0.254743,0.277455,0.0436918,-0.152331,-0.17141,0.513754,0.124828,-20.8811,1.5943,26.5378,1.07332,-0.643407,0.038645,-0.0017477,-1.457,0.399558,3.09178,0.5866,-0.0203815,0.14744
3212382,1,-1.5821,-0.529837,0.00755923,-2.09543,1.56581,1.56602,0.801096,-1.58366,-0.531564,0.00863221,-2.09303,1.56562,1.56497,0.802881,-0.386879,-0.218127,0.250809,0.0154944,-0.140785,-0.143919,0.492582,-0.416091,-0.259643,0.282892,0.044533,-0.154755,-0.174126,0.521878,0.0732535,-20.9803,1.69348,26.5894,1.06783,-0.636998,0.038645,-0.00450953,-1.51263,0.391299,3.12623,0.582686,-0.0300955,0.15049
3212383,1,-1.58252,-0.530073,0.00782817,-2.09541,1.56566,1.56587,0.801616,-1.58408,-0.531829,0.00892054,-2.09298,1.56546,1.56479,0.803411,-0.396616,-0.22217,0.255863,0.0169289,-0.142203,-0.150483,0.492151,-0.423772,-0.264543,0.288329,0.0453741,-0.157179,-0.176843,0.530002,0.176403,-21.0318,1.66968,26.637,1.03945,-0.636998,0.0322363,-0.0109634,-1.56843,0.377967,3.1606,0.579001,-0.0393268,0.153079
3212384,1,-1.58294,-0.530309,0.0080977,-2.09539,1.56552,1.56571,0.802128,-1.58451,-0.532098,0.00921431,-2.09294,1.5653,1.56461,0.803949,-0.397251,-0.225629,0.255465,0.0169645,-0.144264,-0.154416,0.503877,-0.431452,-0.269443,0.293767,0.0462153,-0.159602,-0.179559,0.538126,0.176403,-21.0834,1.61811,26.7362,1.03395,-0.662633,0.116465,-0.0180902,-1.62035,0.364947,3.19239,0.575309,-0.0484314,0.155133
3212385,1,-1.58335,-0.530558,0.00837003,-2.09537,1.56537,1.56555,0.802667,-1.58495,-0.532372,0.00951351,-2.09289,1.56514,1.56443,0.804495,-0.405589,-0.23376,0.261344,0.0179307,-0.14551,-0.157286,0.512423,-0.439132,-0.274344,0.299204,0.0470565,-0.162026,-0.182276,0.54625,0.0732535,-21.0318,1.64191,26.7878,1.00557,-0.688268,0.103647,-0.0241996,-1.66839,0.355422,3.22172,0.57148,-0.0576346,0.156661
3212386,1,-1.58378,-0.530809,0.00865904,-2.09534,1.56522,1.56538,0.803212,-1.5854,-0.532652,0.00981815,-2.09284,1.56498,1.56424,0.805049,-0.406615,-0.238412,0.270117,0.0195605,-0.147077,-0.158256,0.520685,-0.446812,-0.279244,0.304641,0.0478976,-0.16445,-0.184992,0.554374,-0.125111,-21.0318,1.61811,26.8116,1.00557,-0.624181,0.122873,-0.0312984,-1.70816,0.346076,3.24674,0.567483,-0.0666265,0.157774
3212387,1,-1.58422,-0.531062,0.00895502,-2.09533,1.56507,1.5652,0.803749,-1.58585,-0.532936,0.0101282,-2.09279,1.56481,1.56405,0.805612,-0.417494,-0.243172,0.279653,0.0191578,-0.147553,-0.163244,0.523935,-0.454492,-0.284144,0.310078,0.0487388,-0.166873,-0.187708,0.562498,-0.204456,-20.9803,1.46735,26.9107,0.989092,-0.553685,0.207102,-0.0434643,-1.73934,0.32989,3.26756,0.563465,-0.0748252,0.158603
3212388,1,-1.58466,-0.531312,0.0092534,-2.0953,1.56491,1.56503,0.804301,-1.58631,-0.533225,0.0104437,-2.09274,1.56464,1.56386,0.806183,-0.425701,-0.245966,0.285132,0.0208961,-0.154663,-0.168106,0.529534,-0.462172,-0.289045,0.315515,0.0495799,-0.169297,-0.190425,0.570621,-0.252064,-21.0596,1.3642,26.9107,1.04585,-0.560094,0.278513,-0.0608801,-1.767,0.305726,3.28692,0.559551,-0.082178,0.159288
3212389,1,-1.5851,-0.531571,0.00955433,-2.09526,1.56475,1.56486,0.804864,-1.58678,-0.533519,0.0107648,-2.09269,1.56447,1.56367,0.806761,-0.427674,-0.256669,0.291729,0.0233656,-0.155663,-0.172362,0.554023,-0.46992,-0.294036,0.321105,0.0504371,-0.171689,-0.193099,0.578612,-0.454395,-21.135,1.31262,26.8631,1.09621,-0.572911,0.252878,-0.0822418,-1.78993,0.275624,3.30414,0.555668,-0.0887493,0.160023
3212390,1,-1.58554,-0.531841,0.00986493,-2.09524,1.56459,1.56467,0.805452,-1.58726,-0.533818,0.0110915,-2.09264,1.56429,1.56348,0.807348,-0.434974,-0.261411,0.297575,0.021331,-0.156252,-0.178749,0.566307,-0.477668,-0.299028,0.326694,0.0512942,-0.174082,-0.195774,0.586602,-0.581349,-21.1588,1.21344,26.9623,1.02297,-0.5015,0.233652,-0.108236,-1.80171,0.239441,3.31642,0.55174,-0.0943001,0.160982
3212391,1,-1.58599,-0.532118,0.0101845,-2.09521,1.56443,1.56449,0.806035,-1.58775,-0.534122,0.0114238,-2.09259,1.56412,1.56328,0.807942,-0.435672,-0.26893,0.3075,0.0225664,-0.153457,-0.182763,0.572118,-0.485416,-0.30402,0.332284,0.0521514,-0.176474,-0.198448,0.594592,-0.732105,-21.135,1.13806,26.9623,0.983598,-0.450231,0.175059,-0.140603,-1.80231,0.195149,3.32461,0.547877,-0.0985201,0.162238
3212392,1,-1.58646,-0.532394,0.0105013,-2.09518,1.56427,1.5643,0.806609,-1.58824,-0.534431,0.0117617,-2.09254,1.56394,1.56308,0.808545,-0.438409,-0.270508,0.308256,0.0234296,-0.15683,-0.184849,0.574769,-0.493164,-0.309012,0.337874,0.0530085,-0.178867,-0.201123,0.602582,-0.807484,-21.1588,1.21344,26.9623,0.966203,-0.539952,0.187876,-0.180658,-1.79705,0.141614,3.33111,0.544161,-0.101245,0.163768
3212393,1,-1.58693,-0.532676,0.0108376,-2.09515,1.56411,1.56411,0.807212,-1.58874,-0.534745,0.0121052,-2.09248,1.56376,1.56287,0.809155,-0.44995,-0.270602,0.315803,0.0277086,-0.160199,-0.185391,0.58053,-0.500912,-0.314004,0.343463,0.0538657,-0.181259,-0.203798,0.610572,-0.78368,-21.2104,1.13806,26.9345,0.943315,-0.553685,0.110056,-0.224924,-1.79602,0.0845312,3.33919,0.540519,-0.103171,0.165488
3212394,1,-1.58742,-0.532961,0.0111823,-2.09511,1.56394,1.56391,0.807816,-1.58925,-0.535064,0.0124542,-2.09243,1.56357,1.56267,0.809774,-0.456889,-0.276367,0.326487,0.0302004,-0.161636,-0.192001,0.58076,-0.50866,-0.318995,0.349053,0.0547228,-0.183652,-0.206472,0.618562,-0.807484,-21.3095,1.13806,26.9345,0.909441,-0.527135,0.103647,-0.270012,-1.8056,0.0279545,3.35017,0.536884,-0.104977,0.167295
3212395,0.99,-1.58789,-0.533255,0.0115173,-2.09507,1.56377,1.56371,0.808414,-1.58977,-0.535388,0.0128089,-2.09237,1.56339,1.56246,0.810401,-0.474487,-0.281643,0.329646,0.0336385,-0.164273,-0.196056,0.585151,-0.516408,-0.323987,0.354642,0.05558,-0.186044,-0.209147,0.626552,-0.859058,-21.3611,1.18964,26.8631,0.926836,-0.5015,0.162241,-0.313565,-1.8208,-0.0260471,3.36099,0.533066,-0.106979,0.169071
3212396,0.99,-1.5884,-0.533563,0.0118709,-2.09504,1.5636,1.5635,0.809038,-1.59029,-0.535717,0.0131691,-2.09232,1.5632,1.56224,0.811035,-0.481289,-0.285778,0.336388,0.0329167,-0.165776,-0.200363,0.593999,-0.524157,-0.328979,0.360232,0.0564371,-0.188437,-0.211821,0.634542,-0.755909,-21.3849,1.18964,26.9107,0.926836,-0.456639,0.122873,-0.350781,-1.83734,-0.0709642,3.37007,0.528823,-0.109804,0.17072
3212397,0.99,-1.58892,-0.533873,0.0122311,-2.09501,1.56342,1.5633,0.809666,-1.59082,-0.536051,0.0135349,-2.09226,1.56301,1.56203,0.811678,-0.494167,-0.293379,0.344988,0.0323124,-0.172765,-0.199733,0.608531,-0.531905,-0.333971,0.365822,0.0572942,-0.190829,-0.214496,0.642532,-0.557545,-21.3849,1.13806,26.9861,0.937822,-0.520726,0.0972387,-0.380717,-1.85494,-0.105639,3.37899,0.524205,-0.113556,0.172212
3212398,0.99,-1.58943,-0.534186,0.0125826,-2.09497,1.56323,1.56309,0.81031,-1.59136,-0.53639,0.0139063,-2.0922,1.56281,1.56181,0.812328,-0.499803,-0.297604,0.347231,0.0371984,-0.177413,-0.199688,0.615387,-0.539653,-0.338963,0.371411,0.0581514,-0.193222,-0.21717,0.650523,-0.478199,-21.4365,1.31262,26.9623,0.955217,-0.572911,0.09083,-0.404551,-1.87106,-0.131944,3.38738,0.519309,-0.11804,0.173521
3212399,0.99,-1.58995,-0.534502,0.0129496,-2.09492,1.56305,1.56288,0.810961,-1.59191,-0.536734,0.0142834,-2.09214,1.56262,1.56159,0.812987,-0.502047,-0.304648,0.352314,0.0385922,-0.175841,-0.199434,0.627846,-0.547383,-0.343996,0.377105,0.0590161,-0.195575,-0.219794,0.65835,-0.50597,-21.4643,1.3642,26.8869,0.955217,-0.636998,0.103647,-0.42337,-1.88206,-0.150664,3.39255,0.514075,-0.123135,0.174611
3212400,0.99,-1.59048,-0.53482,0.0133102,-2.09488,1.56286,1.56266,0.811605,-1.59246,-0.537083,0.0146662,-2.09208,1.56242,1.56137,0.813653,-0.512912,-0.309477,0.355989,0.036416,-0.177823,-0.202426,0.630923,-0.555113,-0.34903,0.3828,0.0598807,-0.197929,-0.222417,0.666177,-0.454395,-21.5119,1.41577,26.9623,0.926836,-0.604955,0.149424,-0.438637,-1.88792,-0.163161,3.39475,0.508548,-0.128695,0.175454
3212401,0.99,-1.59102,-0.535153,0.0136827,-2.09484,1.56267,1.56244,0.812281,-1.59303,-0.537437,0.0150547,-2.09202,1.56222,1.56115,0.814327,-0.521643,-0.313314,0.363419,0.0380039,-0.182029,-0.209223,0.644266,-0.562844,-0.354064,0.388494,0.0607454,-0.200283,-0.22504,0.674005,-0.379017,-21.5119,1.54273,26.9107,0.96071,-0.592137,0.0972387,-0.450077,-1.8936,-0.169488,3.39768,0.502903,-0.134815,0.176074
3212402,0.99,-1.59157,-0.535485,0.0140595,-2.0948,1.56248,1.56222,0.81295,-1.5936,-0.537796,0.0154489,-2.09196,1.56202,1.56092,0.815009,-0.530825,-0.323912,0.361219,0.0378044,-0.185039,-0.212852,0.65767,-0.570574,-0.359098,0.394188,0.06161,-0.202637,-0.227664,0.681832,-0.279835,-21.4881,1.56653,26.9107,0.994585,-0.611364,0.110056,-0.456017,-1.89921,-0.167427,3.40181,0.497133,-0.141682,0.176522
3212403,0.99,-1.59214,-0.535818,0.0144388,-2.09475,1.56228,1.562,0.813623,-1.59418,-0.53816,0.0158488,-2.0919,1.56181,1.56069,0.815698,-0.541825,-0.32356,0.371083,0.0370606,-0.190561,-0.215656,0.656106,-0.578304,-0.364132,0.399882,0.0624747,-0.20499,-0.230287,0.68966,-0.0497324,-21.5396,1.69348,26.9345,0.971697,-0.624181,0.116465,-0.454646,-1.90381,-0.154363,3.40686,0.491238,-0.149502,0.176821
3212404,0.99,-1.5927,-0.536158,0.0148209,-2.09471,1.56209,1.56177,0.814299,-1.59476,-0.538529,0.0162544,-2.09183,1.56161,1.56045,0.816396,-0.545648,-0.327521,0.375127,0.0396112,-0.192532,-0.217303,0.659101,-0.586035,-0.369165,0.405576,0.0633394,-0.207344,-0.23291,0.697487,-0.00212494,-21.5396,1.79663,26.9623,0.909441,-0.656224,0.16865,-0.44807,-1.91543,-0.134172,3.4163,0.485538,-0.158037,0.176996
3212405,0.99,-1.59328,-0.536507,0.0152049,-2.09466,1.56189,1.56154,0.814982,-1.59536,-0.538904,0.0166656,-2.09177,1.5614,1.56022,0.817101,-0.552266,-0.334971,0.382971,0.0424201,-0.193373,-0.220481,0.662625,-0.593765,-0.374199,0.411271,0.064204,-0.209698,-0.235534,0.705314,0.0732535,-21.4881,1.99897,26.9623,0.836199,-0.617772,0.240061,-0.440892,-1.93464,-0.113933,3.42904,0.480155,-0.166615,0.177117
3212406,0.99,-1.59388,-0.536868,0.0156013,-2.09461,1.56169,1.5613,0.815686,-1.59596,-0.539283,0.0170826,-2.0917,1.56118,1.55998,0.817814,-0.570856,-0.337203,0.387955,0.0470769,-0.200457,-0.226036,0.665378,-0.601495,-0.379233,0.416965,0.0650687,-0.212052,-0.238157,0.713142,0.32716,-21.4127,2.09815,26.9861,0.825212,-0.598546,0.233652,-0.433172,-1.95447,-0.0942006,3.44024,0.47483,-0.17512,0.17731
3212407,0.99,-1.59448,-0.537227,0.0160053,-2.09456,1.56149,1.56108,0.8164,-1.59657,-0.539667,0.0175053,-2.09164,1.56097,1.55974,0.818535,-0.582765,-0.351915,0.392688,0.048032,-0.199399,-0.224619,0.689751,-0.609226,-0.384267,0.422659,0.0659334,-0.214405,-0.24078,0.720969,0.553295,-21.3849,2.17353,26.9861,0.847185,-0.636998,0.175059,-0.419824,-1.96685,-0.0685193,3.4455,0.469138,-0.184143,0.177703
3212408,0.99,-1.59508,-0.5376,0.0163955,-2.09451,1.56128,1.56084,0.817108,-1.59718,-0.540056,0.0179336,-2.09157,1.56075,1.5595,0.819264,-0.586994,-0.354597,0.39317,0.0516996,-0.203355,-0.227911,0.694198,-0.616956,-0.389301,0.428353,0.066798,-0.216759,-0.243404,0.728797,0.680248,-21.2619,2.35205,26.9861,0.903948,-0.662633,0.207102,-0.397906,-1.96262,-0.0322931,3.44103,0.462717,-0.193967,0.178333
3212409,0.99,-1.59569,-0.537975,0.0168016,-2.09447,1.56108,1.5606,0.817837,-1.59781,-0.540451,0.0183677,-2.0915,1.56053,1.55925,0.82,-0.592281,-0.360564,0.40157,0.0494635,-0.20943,-0.227156,0.703093,-0.624601,-0.394337,0.434113,0.0676635,-0.21907,-0.24597,0.736444,0.656444,-21.2342,2.4552,27.0615,0.915849,-0.681859,0.0972387,-0.370391,-1.94576,0.0110052,3.42978,0.455744,-0.204185,0.179168
3212410,0.99,-1.59632,-0.538352,0.0172121,-2.09441,1.56087,1.56037,0.818551,-1.59844,-0.54085,0.0188076,-2.09144,1.56031,1.559,0.820744,-0.602282,-0.365845,0.407551,0.0520444,-0.211831,-0.229808,0.706248,-0.632246,-0.399373,0.439872,0.0685289,-0.22138,-0.248536,0.744091,0.656444,-21.1826,2.4552,26.9623,0.870073,-0.72672,0.110056,-0.341835,-1.92567,0.0544877,3.41768,0.44872,-0.214235,0.180142
3212411,0.99,-1.59694,-0.538736,0.0176211,-2.09435,1.56065,1.56013,0.819269,-1.59908,-0.541254,0.0192532,-2.09137,1.56009,1.55875,0.821496,-0.613157,-0.371173,0.408938,0.0524351,-0.211856,-0.230007,0.70234,-0.63989,-0.40441,0.445632,0.0693943,-0.223691,-0.251103,0.751738,0.704052,-21.1826,2.55438,26.9107,0.86458,-0.830175,0.187876,-0.311916,-1.90568,0.0983462,3.40678,0.441807,-0.224242,0.181132
3212412,0.99,-1.59759,-0.539129,0.0180337,-2.0943,1.56044,1.5599,0.820018,-1.59973,-0.541664,0.0197046,-2.0913,1.55986,1.5585,0.822256,-0.614682,-0.374913,0.413933,0.0546694,-0.207755,-0.227383,0.708668,-0.647535,-0.409446,0.451392,0.0702597,-0.226001,-0.253669,0.759385,0.755627,-21.0834,2.65753,26.8869,0.903948,-0.887853,0.116465,-0.278822,-1.88853,0.146013,3.39784,0.434928,-0.234654,0.182057
3212413,0.99,-1.59823,-0.539505,0.0184596,-2.09424,1.56022,1.55965,0.82078,-1.60038,-0.542078,0.0201618,-2.09123,1.55963,1.55824,0.823023,-0.624678,-0.376082,0.422238,0.052041,-0.208326,-0.235953,0.725075,-0.65518,-0.414482,0.457151,0.0711251,-0.228312,-0.256236,0.767032,0.88258,-21.1826,2.68134,26.9345,0.915849,-0.772496,-0.0840357,-0.245462,-1.88096,0.193754,3.39417,0.428232,-0.245293,0.182902
3212414,0.99,-1.59889,-0.539902,0.0188856,-2.09418,1.56001,1.55939,0.82154,-1.60105,-0.542498,0.0206247,-2.09115,1.5594,1.55798,0.823797,-0.636108,-0.3821,0.421954,0.0573141,-0.206768,-0.242232,0.735787,-0.662825,-0.419518,0.462911,0.0719905,-0.230623,-0.258802,0.77468,0.934154,-21.1826,2.83209,26.8116,0.881059,-0.662633,-0.135305,-0.212394,-1.88746,0.240546,3.39794,0.421823,-0.256134,0.183541
3212415,0.99,-1.59955,-0.540297,0.0193142,-2.09412,1.55979,1.55914,0.8223,-1.60172,-0.542922,0.0210934,-2.09108,1.55917,1.55772,0.82458,-0.637349,-0.386721,0.415085,0.0588166,-0.212207,-0.248273,0.739119,-0.67047,-0.424555,0.468671,0.0728559,-0.232933,-0.261369,0.782327,0.858776,-21.2104,2.98682,26.7878,0.86458,-0.636998,-0.141714,-0.1743,-1.90274,0.295516,3.4053,0.415357,-0.267759,0.183706
3212416,0.99,-1.60021,-0.540703,0.019759,-2.09406,1.55957,1.5589,0.823072,-1.60239,-0.543352,0.0215678,-2.09101,1.55894,1.55746,0.82537,-0.647533,-0.393267,0.423933,0.0590814,-0.212413,-0.241663,0.744658,-0.678114,-0.429591,0.47443,0.0737214,-0.235244,-0.263935,0.789974,0.831005,-21.2342,2.98682,26.8116,0.773943,-0.785314,-0.0648096,-0.128786,-1.92062,0.363772,3.41269,0.408619,-0.280315,0.183163
3212417,0.99,-1.60088,-0.541123,0.020215,-2.094,1.55935,1.55866,0.823859,-1.60308,-0.543787,0.022048,-2.09093,1.5587,1.55719,0.826167,-0.653394,-0.400757,0.432891,0.0554097,-0.217127,-0.239133,0.754216,-0.685759,-0.434627,0.48019,0.0745868,-0.237554,-0.266501,0.797621,0.77943,-21.1588,3.03443,26.8631,0.784929,-0.887853,-0.0584009,-0.080661,-1.93842,0.437127,3.42065,0.401873,-0.293065,0.181837
3212418,0.99,-1.60157,-0.541546,0.0206651,-2.09394,1.55912,1.55841,0.824631,-1.60377,-0.544226,0.0225339,-2.09086,1.55846,1.55692,0.826972,-0.659732,-0.409056,0.43867,0.0565961,-0.220264,-0.245951,0.760063,-0.693404,-0.439664,0.48595,0.0754522,-0.239865,-0.269068,0.805268,0.731823,-21.0834,3.11377,26.8869,0.81331,-0.862218,0.0972387,-0.0364823,-1.95227,0.504517,3.42939,0.395363,-0.305118,0.179815
3212419,0.99,-1.60226,-0.541969,0.0211295,-2.09388,1.55889,1.55813,0.825422,-1.60447,-0.544671,0.0230257,-2.09078,1.55822,1.55665,0.827785,-0.668418,-0.410723,0.445582,0.0547833,-0.215348,-0.261848,0.764848,-0.70091,-0.444671,0.491742,0.0763129,-0.24213,-0.271574,0.812725,0.628673,-21.1588,3.0622,27.0337,0.825212,-0.643407,0.187876,0.000514584,-1.96217,0.56119,3.43934,0.389106,-0.316019,0.177312
3212420,0.99,-1.60297,-0.542394,0.0215963,-2.09382,1.55866,1.55785,0.826221,-1.60518,-0.545121,0.0235232,-2.0907,1.55797,1.55638,0.828605,-0.682465,-0.414314,0.449344,0.0571009,-0.218731,-0.271684,0.774707,-0.708416,-0.449678,0.497535,0.0771736,-0.244394,-0.27408,0.820181,0.731823,-21.1826,3.0622,27.0337,0.841692,-0.5015,0.252878,0.0318403,-1.97561,0.60945,3.45328,0.383064,-0.325896,0.174652
3212421,0.99,-1.60367,-0.542817,0.0220657,-2.09375,1.55842,1.55759,0.827027,-1.6059,-0.545575,0.0240265,-2.09063,1.55772,1.5561,0.829433,-0.695943,-0.417137,0.454213,0.0591443,-0.22614,-0.266848,0.778933,-0.715922,-0.454685,0.503327,0.0780344,-0.246659,-0.276586,0.827637,0.77943,-21.3373,3.11377,27.0099,0.853594,-0.553685,0.252878,0.0630102,-1.99824,0.65707,3.47237,0.377163,-0.335426,0.172194
3212422,0.99,-1.60439,-0.543251,0.0225456,-2.09369,1.55819,1.55735,0.827852,-1.60662,-0.546035,0.0245357,-2.09055,1.55748,1.55582,0.830268,-0.705948,-0.423222,0.461673,0.0596508,-0.223932,-0.26034,0.791585,-0.723428,-0.459692,0.509119,0.0788951,-0.248924,-0.279092,0.835094,0.807201,-21.4643,3.13758,27.0337,0.779436,-0.694677,0.194285,0.0978541,-2.02947,0.709112,3.49511,0.371379,-0.345125,0.170215
3212423,0.99,-1.60511,-0.543687,0.0230166,-2.09362,1.55796,1.55709,0.828666,-1.60735,-0.5465,0.0250506,-2.09047,1.55722,1.55554,0.831111,-0.709113,-0.427664,0.469337,0.0611072,-0.226065,-0.259964,0.800365,-0.730934,-0.464699,0.514912,0.0797558,-0.251189,-0.281598,0.84255,0.680248,-21.4881,3.23676,27.0099,0.706194,-0.842992,0.149424,0.13367,-2.06581,0.761537,3.51961,0.365782,-0.354638,0.168833
3212424,0.99,-1.60583,-0.544123,0.0234964,-2.09355,1.55773,1.55682,0.829514,-1.60809,-0.54697,0.0255713,-2.09039,1.55697,1.55525,0.831961,-0.714671,-0.426305,0.471559,0.0690411,-0.231715,-0.261723,0.803784,-0.73844,-0.469706,0.520704,0.0806165,-0.253453,-0.284104,0.850006,0.680248,-21.5396,3.46686,26.9345,0.632951,-0.842992,0.071604,0.165879,-2.10703,0.808731,3.54425,0.360332,-0.363517,0.168019
3212425,0.99,-1.60658,-0.544569,0.0239835,-2.09348,1.55748,1.55653,0.830372,-1.60884,-0.547444,0.0260978,-2.0903,1.55672,1.55497,0.832818,-0.723071,-0.439678,0.482611,0.0715628,-0.237759,-0.270703,0.816671,-0.745946,-0.474713,0.526497,0.0814773,-0.255718,-0.28661,0.857463,0.906383,-21.4365,3.61762,26.8869,0.661333,-0.75327,-0.0712183,0.192039,-2.14854,0.848301,3.56474,0.354757,-0.371611,0.167652
3212426,0.99,-1.60735,-0.545021,0.0244807,-2.0934,1.55722,1.55625,0.831227,-1.60959,-0.547924,0.0266301,-2.09022,1.55646,1.55468,0.833683,-0.740905,-0.443964,0.489011,0.070821,-0.241776,-0.270539,0.833638,-0.753452,-0.47972,0.532289,0.082338,-0.257983,-0.289116,0.864919,1.25947,-21.3849,3.693,26.8116,0.71718,-0.688268,-0.122488,0.212544,-2.17894,0.880312,3.57664,0.348791,-0.378918,0.167478
3212427,0.99,-1.60811,-0.545483,0.0249908,-2.09333,1.55697,1.55597,0.832069,-1.61035,-0.548409,0.0271681,-2.09014,1.5562,1.55439,0.834555,-0.739405,-0.44739,0.492611,0.0724151,-0.242554,-0.272844,0.834787,-0.760958,-0.484727,0.538082,0.0831987,-0.260247,-0.291622,0.872375,1.4618,-21.3095,3.81995,26.7878,0.779436,-0.707494,-0.0648096,0.230169,-2.19964,0.908179,3.58275,0.342452,-0.385753,0.167142
3212428,0.99,-1.60886,-0.545943,0.0255026,-2.09325,1.55671,1.55569,0.832922,-1.61112,-0.548898,0.027712,-2.09005,1.55593,1.55409,0.835435,-0.739888,-0.452664,0.495531,0.0743398,-0.242784,-0.273485,0.840664,-0.768464,-0.489734,0.543874,0.0840594,-0.262512,-0.294128,0.879831,1.36262,-21.2619,3.81995,26.7362,0.779436,-0.746862,-0.044668,0.244466,-2.21816,0.932405,3.58714,0.335928,-0.391964,0.166383
3212429,0.99,-1.60961,-0.546423,0.0260257,-2.09318,1.55646,1.55541,0.833795,-1.6119,-0.549393,0.0282617,-2.08997,1.55567,1.5538,0.836322,-0.741717,-0.461889,0.50478,0.0767039,-0.247729,-0.272168,0.843844,-0.77579,-0.494687,0.549671,0.0849111,-0.264729,-0.296571,0.88709,1.18409,-21.1072,3.74457,26.76,0.757463,-0.849401,-0.044668,0.251942,-2.23178,0.948782,3.58844,0.329395,-0.396912,0.165147
3212430,0.99,-1.61037,-0.546905,0.0265542,-2.09311,1.5562,1.55514,0.834682,-1.61268,-0.549893,0.0288171,-2.08988,1.5554,1.5535,0.837217,-0.74598,-0.46607,0.51377,0.077773,-0.25372,-0.271897,0.8455,-0.783116,-0.499639,0.555468,0.0857628,-0.266946,-0.299014,0.89435,1.00953,-21.0834,3.74457,26.8354,0.807817,-0.933629,-0.0254419,0.249451,-2.23564,0.951929,3.58472,0.323084,-0.400147,0.163497
3212431,0.99,-1.61114,-0.547386,0.0270865,-2.09302,1.55592,1.55485,0.835562,-1.61347,-0.550397,0.0293784,-2.0898,1.55513,1.5532,0.838118,-0.768894,-0.471037,0.519633,0.0817039,-0.256939,-0.274668,0.853237,-0.790441,-0.504592,0.561265,0.0866144,-0.269163,-0.301457,0.901609,0.88258,-20.9803,3.61762,26.76,0.847185,-0.92722,0.0130102,0.240388,-2.23213,0.945158,3.57722,0.317107,-0.402394,0.161508
3212432,0.99,-1.61193,-0.547873,0.0276326,-2.09295,1.55566,1.55455,0.836455,-1.61427,-0.550907,0.0299455,-2.08971,1.55486,1.55289,0.839027,-0.779293,-0.474876,0.529325,0.0790022,-0.258841,-0.281024,0.863284,-0.797767,-0.509544,0.567062,0.0874661,-0.27138,-0.303901,0.908868,0.906383,-20.9565,3.39148,26.9107,0.853594,-0.817357,0.0587866,0.233286,-2.22788,0.939267,3.56945,0.311449,-0.40515,0.159259
3212433,0.99,-1.61272,-0.548367,0.0281816,-2.09288,1.55539,1.55425,0.837352,-1.61507,-0.551421,0.0305183,-2.08962,1.55459,1.55259,0.839943,-0.783576,-0.483164,0.529153,0.0787851,-0.263394,-0.285612,0.892441,-0.805093,-0.514497,0.572859,0.0883177,-0.273597,-0.306344,0.916127,0.831005,-20.9049,3.33991,26.8869,0.819719,-0.701085,0.09083,0.230977,-2.22666,0.938626,3.56499,0.306177,-0.408904,0.156853
3212434,0.99,-1.6135,-0.548878,0.0287345,-2.09279,1.55512,1.55394,0.838256,-1.61589,-0.551941,0.031097,-2.08953,1.55431,1.55228,0.840867,-0.788917,-0.488488,0.537299,0.0790549,-0.265416,-0.288892,0.880935,-0.812419,-0.519449,0.578656,0.0891694,-0.275814,-0.308787,0.923386,0.680248,-20.7541,3.36371,26.8354,0.740068,-0.57932,0.149424,0.231422,-2.22654,0.942051,3.56421,0.3013,-0.41322,0.154436
3212435,0.99,-1.61431,-0.549397,0.0293076,-2.09272,1.55487,1.55364,0.839189,-1.6167,-0.552465,0.0316814,-2.08944,1.55404,1.55197,0.841797,-0.79615,-0.49904,0.546851,0.0782753,-0.264675,-0.293374,0.896301,-0.819745,-0.524401,0.584453,0.090021,-0.278031,-0.311231,0.930645,0.680248,-20.5796,3.23676,26.8354,0.592668,-0.527135,0.122873,0.230505,-2.22225,0.944115,3.56487,0.296783,-0.417174,0.152192
3212436,0.99,-1.61512,-0.549917,0.0298618,-2.09263,1.55459,1.55335,0.8401,-1.61753,-0.552995,0.0322717,-2.08935,1.55375,1.55165,0.842735,-0.800687,-0.507078,0.550655,0.083569,-0.259584,-0.294523,0.903092,-0.827071,-0.529354,0.590249,0.0908727,-0.280248,-0.313674,0.937904,0.60487,-20.3772,3.39148,26.7124,0.576189,-0.636998,0.122873,0.224893,-2.20533,0.940087,3.56219,0.292325,-0.419897,0.150264
3212437,0.99,-1.61593,-0.550453,0.0304348,-2.09254,1.55431,1.55305,0.841024,-1.61837,-0.553529,0.0328677,-2.08926,1.55347,1.55134,0.84368,-0.811134,-0.509827,0.554539,0.0857577,-0.255572,-0.30582,0.901793,-0.834396,-0.534306,0.596046,0.0917243,-0.282465,-0.316117,0.945163,0.704052,-20.1233,3.46686,26.6608,0.632951,-0.713903,0.175059,0.216171,-2.17315,0.933201,3.55258,0.287363,-0.421435,0.148709
3212438,0.99,-1.61677,-0.550985,0.0310078,-2.09245,1.55404,1.55273,0.841982,-1.61921,-0.554068,0.0334696,-2.08917,1.55319,1.55102,0.844633,-0.820739,-0.518419,0.553183,0.0875257,-0.258183,-0.312861,0.909306,-0.841722,-0.539259,0.601843,0.092576,-0.284682,-0.318561,0.952422,0.831005,-19.921,3.39148,26.5894,0.643938,-0.624181,0.00660151,0.209852,-2.13134,0.9324,3.53727,0.28152,-0.422655,0.147543
3212439,0.99,-1.61759,-0.55153,0.0315828,-2.09236,1.55376,1.55241,0.842925,-1.62006,-0.554612,0.0340772,-2.08907,1.5529,1.5507,0.845592,-0.829807,-0.527115,0.558917,0.0894888,-0.266888,-0.311781,0.915032,-0.848836,-0.544136,0.60762,0.093415,-0.28685,-0.32094,0.95948,0.858776,-19.7425,3.54224,26.4902,0.706194,-0.566503,-0.0510767,0.210582,-2.08001,0.944681,3.5166,0.274713,-0.424405,0.146725
3212440,0.99,-1.61844,-0.552077,0.0321691,-2.09227,1.55347,1.5521,0.843882,-1.62091,-0.555161,0.0346906,-2.08898,1.55261,1.55037,0.846559,-0.838327,-0.528794,0.570625,0.0867644,-0.274222,-0.310453,0.924626,-0.85595,-0.549013,0.613396,0.094254,-0.289018,-0.323319,0.966538,0.934154,-19.6433,3.64539,26.4386,0.791338,-0.649816,-0.044668,0.216629,-2.02227,0.965836,3.49342,0.267392,-0.426597,0.146066
3212441,0.99,-1.61931,-0.552622,0.0327461,-2.09218,1.55319,1.55179,0.844834,-1.62178,-0.555715,0.0353098,-2.08888,1.55232,1.55005,0.847532,-0.849199,-0.533644,0.576581,0.0910077,-0.27537,-0.306693,0.930846,-0.863064,-0.553891,0.619172,0.095093,-0.291185,-0.325698,0.973596,1.21186,-19.5401,3.76837,26.3871,0.784929,-0.80454,-0.0190333,0.223923,-1.96945,0.987562,3.474,0.260266,-0.428812,0.145327
3212442,0.99,-1.62017,-0.553181,0.0333415,-2.09209,1.55291,1.55147,0.845797,-1.62265,-0.556274,0.0359347,-2.08879,1.55203,1.54972,0.848513,-0.855444,-0.543339,0.583662,0.0893863,-0.284532,-0.307432,0.932697,-0.870179,-0.558768,0.624948,0.095932,-0.293353,-0.328077,0.980653,1.438,-19.4132,3.89533,26.4148,0.779436,-0.887853,0.0780126,0.231311,-1.92284,1.00739,3.4587,0.253648,-0.43104,0.144378
3212443,0.99,-1.62104,-0.553732,0.0339473,-2.092,1.55263,1.55115,0.846783,-1.62352,-0.556838,0.0365654,-2.08869,1.55173,1.54939,0.849501,-0.861013,-0.55313,0.586706,0.093412,-0.283665,-0.313827,0.956817,-0.877293,-0.563645,0.630725,0.096771,-0.295521,-0.330457,0.987711,1.64033,-19.3378,4.02228,26.3633,0.734575,-0.817357,0.110056,0.238189,-1.8718,1.02506,3.44249,0.247473,-0.433266,0.143238
3212444,0.99,-1.62193,-0.55429,0.0345502,-2.09191,1.55234,1.5508,0.847758,-1.62441,-0.557406,0.0372019,-2.08859,1.55143,1.54906,0.850496,-0.877141,-0.556349,0.601594,0.0928738,-0.284416,-0.323723,0.96316,-0.884407,-0.568523,0.636501,0.09761,-0.297689,-0.332836,0.994769,1.81489,-19.314,4.14923,26.3156,0.638445,-0.701085,0.135691,0.243766,-1.8114,1.03897,3.42283,0.241635,-0.435329,0.142028
3212445,0.99,-1.6228,-0.554854,0.0351675,-2.09182,1.55205,1.55047,0.84875,-1.6253,-0.55798,0.0378442,-2.0885,1.55113,1.54872,0.851497,-0.871325,-0.556346,0.602124,0.0933799,-0.283194,-0.328811,0.966589,-0.891521,-0.5734,0.642277,0.0984491,-0.299856,-0.335215,1.00183,1.84266,-19.3656,4.14923,26.3395,0.60457,-0.669042,0.155832,0.246455,-1.75317,1.04584,3.40503,0.236252,-0.436901,0.140899
3212446,0.99,-1.62369,-0.55541,0.0357759,-2.09171,1.55175,1.55015,0.84973,-1.6262,-0.558558,0.0384923,-2.0884,1.55083,1.54838,0.852506,-0.869796,-0.557163,0.597122,0.0978685,-0.289096,-0.322843,0.969773,-0.898635,-0.578278,0.648053,0.0992881,-0.302024,-0.337594,1.00889,1.84266,-19.4409,4.14923,26.2165,0.632951,-0.759679,0.219919,0.246352,-1.71262,1.04815,3.39532,0.231261,-0.438037,0.139976
3212447,0.99,-1.62457,-0.555984,0.0364063,-2.09161,1.55146,1.54982,0.850746,-1.6271,-0.559141,0.0391461,-2.0883,1.55053,1.54804,0.853522,-0.873849,-0.558593,0.60582,0.0975794,-0.294965,-0.324617,0.974128,-0.905749,-0.583155,0.653829,0.100127,-0.304192,-0.339973,1.01594,1.79109,-19.4648,4.09766,26.2403,0.672319,-0.823766,0.0972387,0.245812,-1.69681,1.0518,3.39548,0.226454,-0.43923,0.139371
3212448,0.99,-1.62546,-0.556563,0.0370526,-2.09151,1.55116,1.54949,0.851773,-1.62802,-0.559729,0.0398057,-2.0882,1.55022,1.5477,0.854545,-0.871584,-0.563752,0.620751,0.0973908,-0.29573,-0.323182,0.980476,-0.912863,-0.588032,0.659606,0.100966,-0.30636,-0.342352,1.023,1.56495,-19.4925,3.99848,26.1411,0.643938,-0.842992,0.0258276,0.240451,-1.70506,1.04885,3.40583,0.222062,-0.439876,0.139145
3212449,0.99,-1.62635,-0.557136,0.0376969,-2.09141,1.55086,1.54915,0.85279,-1.62894,-0.560322,0.040471,-2.08809,1.54991,1.54736,0.855575,-0.880133,-0.564287,0.634362,0.0981812,-0.291708,-0.327672,0.992813,-0.919742,-0.592818,0.665338,0.10179,-0.308477,-0.344666,1.02986,1.41023,-19.4925,3.89533,26.1173,0.632951,-0.810948,-0.0648096,0.222025,-1.73325,1.02439,3.42572,0.218456,-0.43874,0.139198
3212450,0.99,-1.62727,-0.557719,0.0383572,-2.0913,1.55055,1.54882,0.853811,-1.62986,-0.560919,0.0411421,-2.08799,1.5496,1.54701,0.856612,-0.890774,-0.566587,0.64671,0.105894,-0.293924,-0.331579,1.00003,-0.926621,-0.597604,0.67107,0.102613,-0.310594,-0.34698,1.03671,1.438,-19.4925,3.79615,26.0419,0.615556,-0.785314,0.00660151,0.189623,-1.77778,0.975113,3.45227,0.215597,-0.435699,0.139302
3212451,0.99,-1.6282,-0.558296,0.0390096,-2.09119,1.55024,1.54847,0.854823,-1.6308,-0.561522,0.0418189,-2.08789,1.54929,1.54666,0.857655,-0.896684,-0.571402,0.64612,0.106537,-0.299946,-0.33431,1.02188,-0.9335,-0.602389,0.676803,0.103436,-0.312711,-0.349294,1.04356,1.38642,-19.5679,3.64539,25.9427,0.661333,-0.759679,0.116465,0.150007,-1.83231,0.911307,3.48034,0.213044,-0.43177,0.139246
3212452,0.99,-1.62912,-0.55888,0.0396709,-2.09109,1.54992,1.54811,0.855866,-1.63174,-0.562129,0.0425015,-2.08778,1.54898,1.54631,0.858706,-0.911812,-0.574708,0.651291,0.104532,-0.30651,-0.339545,1.02002,-0.940379,-0.607175,0.682535,0.10426,-0.314828,-0.351608,1.05042,1.36262,-19.6671,3.64539,25.9427,0.688799,-0.649816,0.0972387,0.113413,-1.89249,0.849865,3.50854,0.210404,-0.428461,0.138979
