shamilmamedov/beam_handling/data/vibration_suppression_ICRA/OCP_T2_0.62s.csv
duration, success rate, q[0], q[1], q[2], q[3], q[4], q[5], q[6],q_d[0], q_d[1], q_d[2], q_d[3], q_d[4], q_d[5], q_d[6],dq[0], dq[1], dq[2], dq[3], dq[4], dq[5], dq[6],dq_d[0], dq_d[1], dq_d[2], dq_d[3], dq_d[4], dq_d[5], dq_d[6],tau_J[0], tau_J[1], tau_J[2], tau_J[3], tau_J[4], tau_J[5], tau_J[6],tau_ext_hat_filtered[0], tau_ext_hat_filtered[1], tau_ext_hat_filtered[2], tau_ext_hat_filtered[3], tau_ext_hat_filtered[4], tau_ext_hat_filtered[5], tau_ext_hat_filtered[6]
2459329,0,-1.57032,-0.522875,0.000500491,-2.09674,-0.00066647,1.5711,0.785881,-1.5708,-0.523599,3.41263e-08,-2.0944,9.6547e-08,1.5708,0.785398,-0.000521542,0.00026097,0.000192969,0.000571856,-0.000199807,3.27749e-05,-0.000234953,0,0,0,0,0,0,0,-0.557545,-10.1377,-1.06378,21.7414,1.42397,1.48794,-0.290945,-0.578447,-0.979833,-0.577853,3.22273,0.701273,-0.187511,-0.311519
2459330,1,-1.57032,-0.52288,0.000499958,-2.09674,-0.000665779,1.5711,0.785881,-1.5708,-0.523599,3.41263e-08,-2.0944,9.6547e-08,1.5708,0.785398,-0.000347695,-0.00158926,0.000128646,0.000381237,7.02462e-05,0.000259209,-0.000156636,0,0,0,0,0,0,0,-0.557545,-10.0623,-1.06378,21.7414,1.41847,1.48153,-0.290945,-0.577737,-0.979079,-0.576941,3.22197,0.701286,-0.187556,-0.311356
2459331,1,-1.57032,-0.522875,0.000500241,-2.09674,-0.000665753,1.5711,0.785879,-1.5708,-0.523599,3.41263e-08,-2.0944,9.6547e-08,1.5708,0.785398,0.000881827,0.000703733,-0.000471048,0.000254158,4.68308e-05,0.000410165,0.000132935,0,0,0,0,0,0,0,-0.605152,-10.1377,-1.03998,21.7414,1.41847,1.47512,-0.297354,-0.577253,-0.975961,-0.576377,3.22002,0.701284,-0.187675,-0.311144
2459332,1,-1.57032,-0.522872,0.000500431,-2.09674,-0.000665744,1.5711,0.785885,-1.5708,-0.523599,3.41263e-08,-2.0944,9.6547e-08,1.5708,0.785398,0.000587885,0.000469155,0.00024278,-0.000387373,3.12205e-05,0.000273443,0.00154669,0,0,0,0,0,0,0,-0.605152,-10.1377,-1.06378,21.7652,1.41847,1.47512,-0.336721,-0.577289,-0.973968,-0.576428,3.21869,0.70128,-0.187739,-0.310887
2459333,1,-1.57032,-0.522877,0.000504018,-2.09674,-0.000666351,1.5711,0.785881,-1.5708,-0.523599,3.41263e-08,-2.0944,9.6547e-08,1.5708,0.785398,-0.000721701,-0.000800854,0.000811467,0.000298563,-0.000182637,-0.000292422,-0.000426938,0,0,0,0,0,0,0,-0.557545,-10.0901,-1.09155,21.7414,1.42397,1.48794,-0.297354,-0.577861,-0.973412,-0.577239,3.21824,0.701278,-0.187732,-0.310611
2459334,1,-1.57032,-0.522878,0.000500944,-2.09674,-0.00066574,1.5711,0.785884,-1.5708,-0.523599,3.41263e-08,-2.0944,9.6547e-08,1.5708,0.785398,0.00063249,-0.000533903,-0.000665448,-0.00035777,8.16926e-05,-0.000194948,0.000427451,0,0,0,0,0,0,0,-0.605152,-10.0901,-1.03998,21.7652,1.41847,1.48794,-0.31658,-0.578472,-0.97184,-0.578184,3.21751,0.701282,-0.187736,-0.310358
2459335,1,-1.57032,-0.522875,0.000506416,-2.09674,-0.000668325,1.5711,0.785881,-1.5708,-0.523599,3.41263e-08,-2.0944,9.6547e-08,1.5708,0.785398,-0.000135152,0.000757689,0.00131961,0.000318299,0.000257912,-0.000129966,0.000522326,0,0,0,0,0,0,0,-0.581349,-10.1377,-1.11535,21.7414,1.41298,1.48794,-0.322988,-0.579101,-0.970228,-0.579155,3.21685,0.701298,-0.187726,-0.31014
2459336,1,-1.57032,-0.522874,0.000500727,-2.09674,-0.000666194,1.5711,0.785887,-1.5708,-0.523599,3.41263e-08,-2.0944,9.6547e-08,1.5708,0.785398,0.000466711,-5.16861e-05,-0.000326689,-0.000344613,0.000171942,0.000150715,0.00133156,0,0,0,0,0,0,0,-0.605152,-10.1139,-1.06378,21.7652,1.41298,1.48153,-0.349539,-0.580033,-0.970207,-0.58057,3.2169,0.701313,-0.187664,-0.309959
2459337,1,-1.57032,-0.522877,0.000500037,-2.09675,-0.000664874,1.5711,0.785884,-1.5708,-0.523599,3.41263e-08,-2.0944,9.6547e-08,1.5708,0.785398,-0.000802483,-0.000591269,-0.000217792,-0.000786554,0.000318078,-0.000136882,-0.000332995,0,0,0,0,0,0,0,-0.557545,-10.0901,-1.06378,21.789,1.40749,1.48794,-0.31658,-0.580569,-0.970799,-0.581412,3.21741,0.701352,-0.187551,-0.309846
2459338,1,-1.57032,-0.522874,0.000498596,-2.09674,-0.00066718,1.5711,0.785885,-1.5708,-0.523599,3.41263e-08,-2.0944,9.6547e-08,1.5708,0.785398,-0.000534989,0.000719444,-0.00125882,0.000589255,-0.000635658,0.000620822,1.53621e-05,0,0,0,0,0,0,0,-0.557545,-10.1377,-1.01617,21.7414,1.43038,1.46871,-0.322988,-0.579785,-0.971357,-0.580331,3.21799,0.701448,-0.187425,-0.309827
2459339,1,-1.57032,-0.522878,0.000504059,-2.09674,-0.000664558,1.5711,0.785884,-1.5708,-0.523599,3.41263e-08,-2.0944,9.6547e-08,1.5708,0.785398,-0.000356659,-0.000633994,0.00148084,-0.000163976,0.000423938,-6.08365e-05,0.000756227,0,0,0,0,0,0,0,-0.557545,-10.0901,-1.11535,21.7652,1.40749,1.48153,-0.34313,-0.578387,-0.971899,-0.578426,3.21832,0.701555,-0.187349,-0.309889
2459340,1,-1.57032,-0.522875,0.000500401,-2.09675,-0.000665142,1.5711,0.785886,-1.5708,-0.523599,3.41263e-08,-2.0944,9.6547e-08,1.5708,0.785398,-0.000237773,0.000690961,-0.000776013,-0.000666129,7.9175e-05,-0.000277917,0.000504151,0,0,0,0,0,0,0,-0.557545,-10.1377,-1.03998,21.789,1.41298,1.48794,-0.34313,-0.577504,-0.972544,-0.577397,3.2187,0.701628,-0.187287,-0.310014
2459341,1,-1.57032,-0.522875,0.000500945,-2.09675,-0.000668329,1.5711,0.785887,-1.5708,-0.523599,3.41263e-08,-2.0944,9.6547e-08,1.5708,0.785398,0.000955109,0.000460641,-0.000517342,-0.0010937,5.27833e-05,0.00028944,0.000336101,0,0,0,0,0,0,0,-0.605152,-10.1377,-1.03998,21.8167,1.41298,1.47512,-0.34313,-0.576883,-0.974734,-0.576714,3.22019,0.701696,-0.187131,-0.310212
2459342,1,-1.57032,-0.522874,0.000504746,-2.09674,-0.000666806,1.5711,0.785886,-1.5708,-0.523599,3.41263e-08,-2.0944,9.6547e-08,1.5708,0.785398,7.99272e-05,-0.000249718,0.000861531,0.000477293,-0.000168262,-0.000281758,-1.32918e-05,0,0,0,0,0,0,0,-0.581349,-10.1139,-1.09155,21.7652,1.41847,1.48794,-0.336721,-0.576709,-0.977686,-0.576558,3.22221,0.701736,-0.186942,-0.31049
2459343,1,-1.57032,-0.522876,0.000502857,-2.09674,-0.000669901,1.5711,0.785879,-1.5708,-0.523599,3.41263e-08,-2.0944,9.6547e-08,1.5708,0.785398,5.32848e-05,-0.000166479,-7.52598e-05,0.000875007,-0.000315625,4.95204e-05,-0.00146692,0,0,0,0,0,0,0,-0.581349,-10.1139,-1.06378,21.7414,1.42397,1.48153,-0.297354,-0.577255,-0.978692,-0.577469,3.22292,0.701704,-0.186895,-0.310842
2459344,1,-1.57032,-0.522876,0.000501207,-2.09674,-0.000666923,1.5711,0.785877,-1.5708,-0.523599,3.41263e-08,-2.0944,9.6547e-08,1.5708,0.785398,-0.000521289,-0.000110986,-0.000606985,0.000583338,-6.96611e-06,-0.000204345,-0.00121531,0,0,0,0,0,0,0,-0.557545,-10.1139,-1.03998,21.7414,1.41847,1.48794,-0.290945,-0.577544,-0.977568,-0.578043,3.22204,0.701652,-0.187012,-0.311245
2459345,1,-1.57032,-0.522876,0.000502702,-2.09675,-0.000666134,1.5711,0.785878,-1.5708,-0.523599,3.41263e-08,-2.0944,9.6547e-08,1.5708,0.785398,0.000209286,-7.39906e-05,0.000801769,-0.000724732,-4.64407e-06,-0.00013623,-0.000335487,0,0,0,0,0,0,0,-0.581349,-10.1139,-1.09155,21.789,1.41847,1.48794,-0.303762,-0.577405,-0.976025,-0.578024,3.2209,0.701624,-0.187146,-0.311637
2459346,1,-1.57032,-0.52288,0.000504125,-2.09675,-0.000665871,1.5711,0.785877,-1.5708,-0.523599,3.41263e-08,-2.0944,9.6547e-08,1.5708,0.785398,0.000139524,-0.00125575,0.000534513,-0.00113277,-3.09605e-06,-9.08201e-05,-0.000461017,0,0,0,0,0,0,0,-0.581349,-10.0623,-1.09155,21.8167,1.41847,1.48794,-0.297354,-0.57779,-0.974619,-0.578844,3.22047,0.701599,-0.187174,-0.311964
2459347,1,-1.57032,-0.522872,0.00050265,-2.09675,-0.000663952,1.5711,0.785875,-1.5708,-0.523599,3.41263e-08,-2.0944,9.6547e-08,1.5708,0.785398,0.000649828,0.000926069,-0.000293272,-0.000755179,0.000608288,0.000176812,-0.00101942,0,0,0,0,0,0,0,-0.605152,-10.1377,-1.06378,21.8167,1.40199,1.48153,-0.278127,-0.578707,-0.973811,-0.580445,3.22103,0.70158,-0.187076,-0.312209
2459348,1,-1.57032,-0.522873,0.000500678,-2.09674,-0.000666364,1.5711,0.785878,-1.5708,-0.523599,3.41263e-08,-2.0944,9.6547e-08,1.5708,0.785398,-0.00133002,6.05675e-05,-0.000195515,0.000702973,-0.000408277,0.000117875,0.000269821,0,0,0,0,0,0,0,-0.529774,-10.1139,-1.06378,21.7652,1.42397,1.48153,-0.303762,-0.579105,-0.974547,-0.581262,3.22229,0.701593,-0.186933,-0.312364
2459349,1,-1.57032,-0.522875,0.000502151,-2.09675,-0.000667719,1.5711,0.785877,-1.5708,-0.523599,3.41263e-08,-2.0944,9.6547e-08,1.5708,0.785398,0.000319746,4.03784e-05,-0.000130343,-8.81631e-05,0.000338167,7.85832e-05,-0.00124427,0,0,0,0,0,0,0,-0.581349,-10.1139,-1.06378,21.789,1.40749,1.48153,-0.26531,-0.578605,-0.975626,-0.580825,3.22322,0.701627,-0.186857,-0.312423
2459350,1,-1.57032,-0.522874,0.000500511,-2.09674,-0.000666806,1.5711,0.785879,-1.5708,-0.523599,3.41263e-08,-2.0944,9.6547e-08,1.5708,0.785398,0.000769976,2.69189e-05,-8.68954e-05,0.000498037,-0.000181456,0.000527107,-0.000354797,0,0,0,0,0,0,0,-0.605152,-10.1139,-1.06378,21.7652,1.41847,1.46871,-0.278127,-0.578109,-0.975976,-0.580361,3.22349,0.701634,-0.186867,-0.312383
2459351,1,-1.57032,-0.522874,0.000498295,-2.09675,-0.00066807,1.5711,0.785882,-1.5708,-0.523599,3.41263e-08,-2.0944,9.6547e-08,1.5708,0.785398,-4.34945e-05,0.000574758,-0.000614742,-0.000224788,0.00028593,-0.000360672,0.000712904,0,0,0,0,0,0,0,-0.581349,-10.1377,-1.03998,21.789,1.40749,1.48794,-0.303762,-0.57794,-0.976388,-0.580231,3.22368,0.701611,-0.186906,-0.31223
2459352,1,-1.57032,-0.522872,0.000496442,-2.09675,-0.000666923,1.5711,0.78588,-1.5708,-0.523599,3.41263e-08,-2.0944,9.6547e-08,1.5708,0.785398,-2.89963e-05,0.00103279,-0.00096664,-0.000149858,-0.000216281,-3.08931e-06,-0.000236807,0,0,0,0,0,0,0,-0.581349,-10.1654,-1.01617,21.789,1.41847,1.48153,-0.284536,-0.577328,-0.978277,-0.579335,3.22463,0.70161,-0.186898,-0.311978
2459353,1,-1.57032,-0.522872,0.000500182,-2.09675,-0.000666134,1.5711,0.785881,-1.5708,-0.523599,3.41263e-08,-2.0944,9.6547e-08,1.5708,0.785398,-0.000576143,3.891e-05,-8.76148e-05,-9.99056e-05,-0.000144187,-2.05954e-06,7.94874e-05,0,0,0,0,0,0,0,-0.557545,-10.1377,-1.03998,21.789,1.41847,1.48153,-0.290945,-0.576121,-0.981428,-0.577513,3.22629,0.701644,-0.186835,-0.311658
2459354,1,-1.57032,-0.522874,0.000500412,-2.09674,-0.000665871,1.5711,0.785879,-1.5708,-0.523599,3.41263e-08,-2.0944,9.6547e-08,1.5708,0.785398,0.000172717,2.594e-05,0.000498402,0.000490208,-9.61249e-05,-1.37303e-06,-0.000659085,0,0,0,0,0,0,0,-0.581349,-10.1377,-1.06378,21.7652,1.41847,1.48153,-0.271719,-0.575156,-0.983678,-0.576081,3.22753,0.701659,-0.186811,-0.311286
2459355,1,-1.57032,-0.522878,0.000499932,-2.09675,-0.000666394,1.5711,0.785885,-1.5708,-0.523599,3.41263e-08,-2.0944,9.6547e-08,1.5708,0.785398,0.000671956,-0.00109633,0.000332268,-0.000230006,-0.000267534,-0.000238274,0.00145948,0,0,0,0,0,0,0,-0.605152,-10.0901,-1.06378,21.789,1.42397,1.48794,-0.322988,-0.575256,-0.98352,-0.576211,3.22763,0.701608,-0.186876,-0.310865
2459356,1,-1.57032,-0.522878,0.000501902,-2.09675,-0.000665144,1.5711,0.785884,-1.5708,-0.523599,3.41263e-08,-2.0944,9.6547e-08,1.5708,0.785398,0.000447971,-0.000730887,0.000221512,-0.000153338,0.000228545,-0.00015885,0.000735629,0,0,0,0,0,0,0,-0.605152,-10.0901,-1.06378,21.789,1.41298,1.48794,-0.31658,-0.576347,-0.980887,-0.5777,3.22678,0.701504,-0.186991,-0.310412
2459357,1,-1.57032,-0.522875,0.000500889,-2.09674,-0.000666397,1.5711,0.785883,-1.5708,-0.523599,3.41263e-08,-2.0944,9.6547e-08,1.5708,0.785398,-0.00146459,0.000626366,-0.000409137,0.000454587,0.000796623,-0.000377167,0.00025306,0,0,0,0,0,0,0,-0.529774,-10.1377,-1.03998,21.7652,1.39559,1.49526,-0.310171,-0.577236,-0.977803,-0.578869,3.22581,0.701417,-0.187097,-0.309975
2459358,1,-1.57032,-0.522876,0.000501108,-2.09675,-0.000666196,1.5711,0.785881,-1.5708,-0.523599,3.41263e-08,-2.0944,9.6547e-08,1.5708,0.785398,-0.00032678,-0.000139235,-0.000272758,-0.000903368,-0.000113178,0.000257182,0.000406066,0,0,0,0,0,0,0,-0.557545,-10.1139,-1.03998,21.8167,1.41298,1.48153,-0.31658,-0.576947,-0.976464,-0.578399,3.22561,0.701397,-0.187127,-0.309594
2459359,1,-1.57032,-0.522876,0.00050072,-2.09674,-0.000669901,1.5711,0.785887,-1.5708,-0.523599,3.41263e-08,-2.0944,9.6547e-08,1.5708,0.785398,0.000338959,-9.28231e-05,0.000374973,0.000604181,-0.000482353,-6.59045e-05,0.00149141,0,0,0,0,0,0,0,-0.581349,-10.1139,-1.06378,21.7652,1.42397,1.48794,-0.349539,-0.576294,-0.97628,-0.57744,3.22604,0.70139,-0.187092,-0.309275
2459360,1,-1.57032,-0.522878,0.000501983,-2.09674,-0.000666313,1.5711,0.785885,-1.5708,-0.523599,3.41263e-08,-2.0944,9.6547e-08,1.5708,0.785398,0.000225973,-0.000618694,0.000899596,0.000402787,8.53325e-05,0.000430782,0.00024829,0,0,0,0,0,0,0,-0.581349,-10.0901,-1.09155,21.7652,1.41298,1.47512,-0.329397,-0.576538,-0.97535,-0.577791,3.22595,0.701316,-0.187102,-0.309032
2459361,1,-1.57032,-0.522875,0.000499806,-2.09674,-0.00066933,1.5711,0.785884,-1.5708,-0.523599,3.41263e-08,-2.0944,9.6547e-08,1.5708,0.785398,0.00070746,0.000701161,-4.98832e-05,0.000268525,-0.000146562,-0.00018753,0.000911512,0,0,0,0,0,0,0,-0.605152,-10.1377,-1.06378,21.7652,1.41847,1.48794,-0.349539,-0.577679,-0.973987,-0.579441,3.2254,0.701185,-0.187165,-0.308892
2459362,1,-1.57032,-0.522876,0.00050186,-2.09674,-0.000666936,1.5711,0.785883,-1.5708,-0.523599,3.41263e-08,-2.0944,9.6547e-08,1.5708,0.785398,-0.000641984,-8.93711e-05,-3.32555e-05,0.000179016,-9.77081e-05,0.000112339,-0.000613028,0,0,0,0,0,0,0,-0.557545,-10.1139,-1.06378,21.7652,1.41847,1.48153,-0.31658,-0.578749,-0.973692,-0.580958,3.22526,0.701069,-0.187198,-0.308872
2459363,1,-1.57032,-0.522876,0.000500875,-2.09674,-0.000666138,1.5711,0.785883,-1.5708,-0.523599,3.41263e-08,-2.0944,9.6547e-08,1.5708,0.785398,-0.0010776,-5.95808e-05,-0.000578982,0.000119344,-6.51388e-05,-0.000162466,0.0003373,0,0,0,0,0,0,0,-0.529774,-10.1139,-1.03998,21.7652,1.41847,1.48794,-0.336721,-0.5787,-0.974013,-0.580921,3.22542,0.701024,-0.1872,-0.308972
2459364,1,-1.57032,-0.52288,0.000502773,-2.09674,-0.000665872,1.5711,0.785876,-1.5708,-0.523599,3.41263e-08,-2.0944,9.6547e-08,1.5708,0.785398,-6.87881e-05,-0.00124615,0.000170824,7.95629e-05,-4.34258e-05,0.000129048,-0.00170791,0,0,0,0,0,0,0,-0.557545,-10.0623,-1.06378,21.7652,1.41847,1.48153,-0.284536,-0.577658,-0.973321,-0.57957,3.22519,0.701035,-0.187211,-0.309169
2459365,1,-1.57032,-0.522876,0.000500719,-2.09674,-0.000665784,1.5711,0.785884,-1.5708,-0.523599,3.41263e-08,-2.0944,9.6547e-08,1.5708,0.785398,0.000510953,0.000375662,0.000113883,5.30419e-05,-2.89506e-05,-0.000422594,0.000522904,0,0,0,0,0,0,0,-0.581349,-10.1139,-1.06378,21.7652,1.41847,1.49526,-0.329397,-0.576845,-0.971608,-0.578601,3.22462,0.701041,-0.187229,-0.309418
2459366,1,-1.57032,-0.522876,0.000502165,-2.09674,-0.000666365,1.5711,0.785884,-1.5708,-0.523599,3.41263e-08,-2.0944,9.6547e-08,1.5708,0.785398,-0.000216176,0.000250441,7.59217e-05,3.53613e-05,-0.000222751,0.000226897,0.000111243,0,0,0,0,0,0,0,-0.557545,-10.1139,-1.06378,21.7652,1.42397,1.48153,-0.322988,-0.576665,-0.970909,-0.578554,3.22457,0.701035,-0.187197,-0.309671
2459367,1,-1.57032,-0.522875,0.000502647,-2.09674,-0.000663913,1.5711,0.78588,-1.5708,-0.523599,3.41263e-08,-2.0944,9.6547e-08,1.5708,0.785398,-0.000793732,0.000723773,5.06144e-05,0.000580386,0.000665301,0.000151265,-0.00134999,0,0,0,0,0,0,0,-0.529774,-10.1377,-1.06378,21.7414,1.40199,1.48153,-0.284536,-0.576447,-0.972039,-0.578535,3.22522,0.701051,-0.187115,-0.309923
2459368,1,-1.57032,-0.522876,0.000501137,-2.09674,-0.000665131,1.5711,0.785875,-1.5708,-0.523599,3.41263e-08,-2.0944,9.6547e-08,1.5708,0.785398,0.000677271,-7.42968e-05,-0.000523069,-0.000169888,3.66333e-05,0.000100843,-0.00161207,0,0,0,0,0,0,0,-0.581349,-10.1139,-1.03998,21.7652,1.41298,1.48153,-0.26531,-0.575927,-0.974031,-0.578148,3.22608,0.70109,-0.187021,-0.310164
2459369,1,-1.57032,-0.522876,0.000504349,-2.09674,-0.000664519,1.5711,0.78588,-1.5708,-0.523599,3.41263e-08,-2.0944,9.6547e-08,1.5708,0.785398,-0.000105298,-4.95312e-05,0.00141453,0.000443553,0.000227873,-0.00017013,0.000824157,0,0,0,0,0,0,0,-0.557545,-10.1139,-1.11535,21.7414,1.40749,1.48794,-0.31658,-0.575816,-0.975662,-0.57838,3.22676,0.701098,-0.186937,-0.310346
2459370,1,-1.57032,-0.522876,0.000498367,-2.09674,-0.000665129,1.5711,0.785875,-1.5708,-0.523599,3.41263e-08,-2.0944,9.6547e-08,1.5708,0.785398,-7.01984e-05,-0.000589833,-0.000820221,-0.00026111,-5.15354e-05,0.000123939,-0.000874715,0,0,0,0,0,0,0,-0.557545,-10.0901,-1.03998,21.7652,1.41298,1.48153,-0.278127,-0.576196,-0.976096,-0.579414,3.22696,0.701057,-0.18688,-0.310435
2459371,1,-1.57032,-0.522877,0.000500267,-2.09674,-0.00066635,1.5711,0.785875,-1.5708,-0.523599,3.41263e-08,-2.0944,9.6547e-08,1.5708,0.785398,0.00106682,-0.00104284,-0.000546814,-0.000174073,-0.000441258,8.26258e-05,-0.000583144,0,0,0,0,0,0,0,-0.605152,-10.0623,-1.03998,21.7652,1.42397,1.48153,-0.278127,-0.57627,-0.974955,-0.579957,3.22661,0.701008,-0.186848,-0.310443
2459372,1,-1.57032,-0.522875,0.000502571,-2.09674,-0.00066635,1.5711,0.785877,-1.5708,-0.523599,3.41263e-08,-2.0944,9.6547e-08,1.5708,0.785398,-0.000402407,0.000511202,0.000192269,0.000440763,-0.000294172,0.000529802,0.000323314,0,0,0,0,0,0,0,-0.557545,-10.1139,-1.06378,21.7414,1.42397,1.46871,-0.297354,-0.576078,-0.973051,-0.579983,3.22595,0.700961,-0.186839,-0.310369
2459373,1,-1.57032,-0.522872,0.000498981,-2.09675,-0.000664519,1.5711,0.785876,-1.5708,-0.523599,3.41263e-08,-2.0944,9.6547e-08,1.5708,0.785398,0.000845352,0.000897613,-0.000428632,-0.000819782,0.000414237,-0.000358876,-0.000259175,0,0,0,0,0,0,0,-0.605152,-10.1377,-1.03998,21.789,1.40749,1.48794,-0.284536,-0.575935,-0.973085,-0.580028,3.22613,0.700932,-0.186789,-0.310205
2459374,1,-1.57032,-0.522873,0.000504091,-2.09674,-0.000664519,1.5711,0.78588,-1.5708,-0.523599,3.41263e-08,-2.0944,9.6547e-08,1.5708,0.785398,0.00121318,4.15969e-05,0.000920671,0.000567103,0.000276158,-1.89148e-06,6.45757e-05,0,0,0,0,0,0,0,-0.632923,-10.1139,-1.09155,21.7414,1.40749,1.48153,-0.290945,-0.576405,-0.975451,-0.580839,3.22743,0.700901,-0.186668,-0.309963
2459375,1,-1.57032,-0.522877,0.000502457,-2.09675,-0.000668325,1.5711,0.78588,-1.5708,-0.523599,3.41263e-08,-2.0944,9.6547e-08,1.5708,0.785398,0.000159174,-0.000529081,0.000613781,-0.00138517,-1.93452e-05,-1.26099e-06,0.000992486,0,0,0,0,0,0,0,-0.605152,-10.0901,-1.09155,21.8167,1.41298,1.48153,-0.31658,-0.577937,-0.977649,-0.583088,3.2288,0.700821,-0.186544,-0.30966
2459376,1,-1.57032,-0.522877,0.000500424,-2.09674,-0.000666805,1.5711,0.78588,-1.5708,-0.523599,3.41263e-08,-2.0944,9.6547e-08,1.5708,0.785398,0.000106116,-0.00100233,-0.000797239,0.000839792,-0.000216347,-8.4066e-07,0.000899016,0,0,0,0,0,0,0,-0.605152,-10.0623,-1.03998,21.7414,1.41847,1.48153,-0.322988,-0.579411,-0.977852,-0.5852,3.22941,0.70073,-0.186473,-0.309327
2459377,1,-1.57033,-0.522874,0.000500953,-2.09675,-0.000666094,1.5711,0.785884,-1.5708,-0.523599,3.41263e-08,-2.0944,9.6547e-08,1.5708,0.785398,-0.00224931,0.00109501,-0.000531493,-0.00120338,-0.000144232,0.000236799,0.000836703,0,0,0,0,0,0,0,-0.50597,-10.1377,-1.03998,21.8167,1.41847,1.47512,-0.329397,-0.579181,-0.977251,-0.584823,3.22961,0.700713,-0.186446,-0.309017
2459378,1,-1.57032,-0.522874,0.000499458,-2.09674,-0.00066718,1.5711,0.785883,-1.5708,-0.523599,3.41263e-08,-2.0944,9.6547e-08,1.5708,0.785398,0.000820513,0.00073001,-0.00091114,0.000404175,-0.000536964,0.000157866,0.00106643,0,0,0,0,0,0,0,-0.605152,-10.1377,-1.01617,21.7652,1.43038,1.47512,-0.34313,-0.577267,-0.97884,-0.582009,3.23073,0.700797,-0.186374,-0.308766
2459379,1,-1.57032,-0.522878,0.000501188,-2.09674,-0.000665168,1.5711,0.785883,-1.5708,-0.523599,3.41263e-08,-2.0944,9.6547e-08,1.5708,0.785398,-0.000566615,-0.000626951,-5.06149e-05,0.00026945,0.000286284,-0.000640741,0.000948311,0,0,0,0,0,0,0,-0.557545,-10.0901,-1.03998,21.7652,1.41298,1.49526,-0.349539,-0.575186,-0.981201,-0.578842,3.23199,0.700899,-0.186323,-0.308601
2459380,1,-1.57032,-0.52288,0.000499077,-2.09674,-0.000665142,1.5711,0.78588,-1.5708,-0.523599,3.41263e-08,-2.0944,9.6547e-08,1.5708,0.785398,0.000179068,-0.00106758,-3.37433e-05,0.000179633,0.000190856,0.000318824,-0.000351137,0,0,0,0,0,0,0,-0.581349,-10.0623,-1.03998,21.7652,1.41298,1.47512,-0.322988,-0.573806,-0.980777,-0.576608,3.23174,0.700952,-0.186406,-0.308551
2459381,1,-1.57032,-0.522878,0.000504123,-2.09674,-0.000667719,1.5711,0.785886,-1.5708,-0.523599,3.41263e-08,-2.0944,9.6547e-08,1.5708,0.785398,0.000676191,-6.21067e-05,0.00118393,0.000119755,0.000330688,-2.48094e-05,0.000749253,0,0,0,0,0,0,0,-0.605152,-10.0901,-1.09155,21.7652,1.40749,1.48153,-0.349539,-0.573658,-0.977971,-0.576154,3.23037,0.700939,-0.186573,-0.30862
2459382,1,-1.57032,-0.522876,0.000499309,-2.09674,-0.000667416,1.5711,0.785884,-1.5708,-0.523599,3.41263e-08,-2.0944,9.6547e-08,1.5708,0.785398,-0.00066283,0.000515407,-0.000973951,7.9837e-05,-0.000389893,-0.000525166,-0.000483842,0,0,0,0,0,0,0,-0.557545,-10.1139,-1.01617,21.7652,1.42397,1.49526,-0.322988,-0.574367,-0.975703,-0.576922,3.22927,0.70089,-0.186719,-0.308792
2459383,1,-1.57032,-0.522874,0.000501138,-2.09674,-0.000666095,1.5711,0.78588,-1.5708,-0.523599,3.41263e-08,-2.0944,9.6547e-08,1.5708,0.785398,-0.000441887,0.000343605,-9.24887e-05,5.32247e-05,-5.64781e-05,-0.000350111,-0.000797279,0,0,0,0,0,0,0,-0.557545,-10.1139,-1.03998,21.7652,1.41847,1.49526,-0.310171,-0.574424,-0.975478,-0.576736,3.22914,0.700886,-0.186781,-0.309059
2459384,1,-1.57032,-0.522873,0.00050481,-2.09674,-0.00066718,1.5711,0.785876,-1.5708,-0.523599,3.41263e-08,-2.0944,9.6547e-08,1.5708,0.785398,-0.000294591,0.00022907,0.00114477,0.000592295,-0.000478462,3.78603e-05,-0.00243039,0,0,0,0,0,0,0,-0.557545,-10.1139,-1.09155,21.7414,1.43038,1.48794,-0.258901,-0.574171,-0.976336,-0.576181,3.22944,0.700912,-0.186792,-0.309385
2459385,1,-1.57032,-0.522877,0.000499078,-2.09674,-0.000664558,1.5711,0.78588,-1.5708,-0.523599,3.41263e-08,-2.0944,9.6547e-08,1.5708,0.785398,0.000360418,-0.000404099,-0.000443248,-0.000161949,0.000528736,0.000499958,0.00051597,0,0,0,0,0,0,0,-0.581349,-10.0901,-1.03998,21.7652,1.40749,1.47512,-0.31658,-0.574513,-0.976802,-0.576589,3.22945,0.700919,-0.186806,-0.309702
2459386,1,-1.57032,-0.522878,0.000500044,-2.09674,-0.000665142,1.5711,0.785875,-1.5708,-0.523599,3.41263e-08,-2.0944,9.6547e-08,1.5708,0.785398,-0.000316533,-0.000269399,0.000261313,-0.000107966,0.00014904,0.000333305,-0.00108017,0,0,0,0,0,0,0,-0.557545,-10.0901,-1.06378,21.7652,1.41298,1.47512,-0.278127,-0.574994,-0.97635,-0.577201,3.22915,0.700926,-0.186819,-0.309956
2459387,1,-1.57032,-0.52288,0.000498139,-2.09674,-0.000665133,1.5711,0.785876,-1.5708,-0.523599,3.41263e-08,-2.0944,9.6547e-08,1.5708,0.785398,0.00034579,-0.000829213,-0.000382603,0.00104165,9.93602e-05,-0.000252514,-0.000245398,0,0,0,0,0,0,0,-0.581349,-10.0623,-1.03998,21.7176,1.41298,1.48794,-0.290945,-0.575276,-0.974566,-0.577512,3.22822,0.700931,-0.186871,-0.310132
2459388,1,-1.57032,-0.522876,0.00049806,-2.09674,-0.000667063,1.5711,0.785876,-1.5708,-0.523599,3.41263e-08,-2.0944,9.6547e-08,1.5708,0.785398,-0.000326285,0.000653617,-0.000255069,0.000137619,-0.00057802,-0.000168343,-0.000163599,0,0,0,0,0,0,0,-0.557545,-10.1139,-1.03998,21.7414,1.43038,1.48794,-0.290945,-0.57527,-0.972087,-0.577388,3.22673,0.700927,-0.186978,-0.310219
2459389,1,-1.57032,-0.522876,0.000499705,-2.09675,-0.00066635,1.5711,0.785879,-1.5708,-0.523599,3.41263e-08,-2.0944,9.6547e-08,1.5708,0.785398,-0.000217524,0.000435745,0.000386766,-0.00102188,-0.000147988,0.00012513,-0.000346425,0,0,0,0,0,0,0,-0.557545,-10.1139,-1.06378,21.789,1.42397,1.48153,-0.284536,-0.575008,-0.971605,-0.57694,3.22632,0.700955,-0.18699,-0.310211
2459390,1,-1.57032,-0.522876,0.000499696,-2.09674,-0.000668935,1.5711,0.785881,-1.5708,-0.523599,3.41263e-08,-2.0944,9.6547e-08,1.5708,0.785398,-0.000145016,0.000290496,0.000257844,0.000432372,0.000104792,8.34202e-05,6.40913e-06,0,0,0,0,0,0,0,-0.557545,-10.1139,-1.06378,21.7414,1.41847,1.48153,-0.290945,-0.574876,-0.97347,-0.576803,3.22736,0.701017,-0.186866,-0.310111
2459391,1,-1.57032,-0.522882,0.000498023,-2.09674,-0.000667415,1.5711,0.785884,-1.5708,-0.523599,3.41263e-08,-2.0944,9.6547e-08,1.5708,0.785398,0.000460135,-0.00156957,-0.000384916,-0.000268564,-0.000133589,5.56135e-05,0.000953709,0,0,0,0,0,0,0,-0.581349,-10.0385,-1.03998,21.7652,1.42397,1.48153,-0.31658,-0.574941,-0.974372,-0.576998,3.228,0.701076,-0.186767,-0.309936
2459392,1,-1.57032,-0.522874,0.000501823,-2.09674,-0.000666094,1.5711,0.785885,-1.5708,-0.523599,3.41263e-08,-2.0944,9.6547e-08,1.5708,0.785398,-0.000250055,0.000716855,0.000300201,0.000377769,0.000114391,3.70757e-05,0.00111052,0,0,0,0,0,0,0,-0.557545,-10.1139,-1.06378,21.7414,1.41847,1.48153,-0.329397,-0.575025,-0.973252,-0.577203,3.22762,0.701125,-0.186749,-0.309711
2459393,1,-1.57032,-0.522875,0.000499192,-2.09674,-0.000666468,1.5711,0.785883,-1.5708,-0.523599,3.41263e-08,-2.0944,9.6547e-08,1.5708,0.785398,0.00094692,-7.89083e-05,-0.00091349,0.000251846,-0.00012719,0.000262076,0.00101162,0,0,0,0,0,0,0,-0.605152,-10.0901,-1.01617,21.7414,1.42397,1.47512,-0.336721,-0.575045,-0.972346,-0.577254,3.22716,0.701181,-0.186757,-0.30948
2459394,1,-1.57032,-0.522873,0.000501099,-2.09674,-0.000665779,1.5711,0.78588,-1.5708,-0.523599,3.41263e-08,-2.0944,9.6547e-08,1.5708,0.785398,7.44682e-05,0.000504206,-5.21812e-05,0.000167897,0.000118657,-0.000300001,-7.15743e-05,0,0,0,0,0,0,0,-0.581349,-10.1139,-1.03998,21.7414,1.41847,1.48794,-0.31658,-0.574964,-0.972466,-0.577013,3.22695,0.701252,-0.186767,-0.309295
2459395,1,-1.57032,-0.522874,0.000504797,-2.09674,-0.000665142,1.5711,0.785886,-1.5708,-0.523599,3.41263e-08,-2.0944,9.6547e-08,1.5708,0.785398,4.96455e-05,0.00089295,0.00117164,0.000668744,0.000282555,3.73586e-05,0.000935628,0,0,0,0,0,0,0,-0.581349,-10.1377,-1.09155,21.7176,1.41298,1.48153,-0.34313,-0.575206,-0.973637,-0.577211,3.22707,0.70132,-0.186767,-0.309178
2459396,1,-1.57032,-0.522878,0.000502874,-2.09675,-0.000668329,1.5711,0.785886,-1.5708,-0.523599,3.41263e-08,-2.0944,9.6547e-08,1.5708,0.785398,-0.000523715,-0.000518324,0.000131478,-0.00122461,0.00018837,-0.000212453,0.000623752,0,0,0,0,0,0,0,-0.557545,-10.0901,-1.06378,21.789,1.41298,1.48794,-0.34313,-0.575918,-0.975573,-0.578233,3.22763,0.701378,-0.186726,-0.309138
2459397,1,-1.57032,-0.522876,0.000502701,-2.09674,-0.000666196,1.5711,0.785882,-1.5708,-0.523599,3.41263e-08,-2.0944,9.6547e-08,1.5708,0.785398,0.000207669,0.000211262,0.000737266,0.000854031,0.00012558,0.000333082,-0.00104223,0,0,0,0,0,0,0,-0.581349,-10.1139,-1.09155,21.7176,1.41298,1.47512,-0.303762,-0.576678,-0.976916,-0.579447,3.22819,0.701434,-0.186657,-0.309192
2459398,1,-1.57032,-0.522878,0.000504125,-2.09675,-0.000665485,1.5711,0.785884,-1.5708,-0.523599,3.41263e-08,-2.0944,9.6547e-08,1.5708,0.785398,-0.000418366,-0.00041597,0.000491511,-0.00110108,8.37201e-05,0.000222055,0.000763244,0,0,0,0,0,0,0,-0.557545,-10.0901,-1.09155,21.789,1.41298,1.47512,-0.34313,-0.57744,-0.977287,-0.580756,3.22839,0.701473,-0.18661,-0.309335
2459399,1,-1.57032,-0.522878,0.00050265,-2.09674,-0.000665858,1.5711,0.785885,-1.5708,-0.523599,3.41263e-08,-2.0944,9.6547e-08,1.5708,0.785398,0.000277901,-0.000277314,-0.00032194,-0.000177242,-0.000147637,-0.000326681,0.00027147,0,0,0,0,0,0,0,-0.581349,-10.0901,-1.06378,21.7652,1.41847,1.48794,-0.336721,-0.577977,-0.977097,-0.581798,3.22853,0.701507,-0.186558,-0.309541
2459400,1,-1.57032,-0.522876,0.000500678,-2.09674,-0.000665169,1.5711,0.785884,-1.5708,-0.523599,3.41263e-08,-2.0944,9.6547e-08,1.5708,0.785398,0.000742079,0.000371936,-0.000214627,-0.000118162,0.000105026,-0.000217788,-0.000327646,0,0,0,0,0,0,0,-0.605152,-10.1139,-1.06378,21.7652,1.41298,1.48794,-0.322988,-0.578127,-0.976868,-0.582197,3.22879,0.701543,-0.186496,-0.309806
2459401,1,-1.57032,-0.522875,0.00050002,-2.09674,-0.000670271,1.5711,0.785882,-1.5708,-0.523599,3.41263e-08,-2.0944,9.6547e-08,1.5708,0.785398,0.00049472,0.000804769,-0.000143084,-7.87744e-05,-0.000574243,9.21673e-05,1.89282e-05,0,0,0,0,0,0,0,-0.605152,-10.1377,-1.06378,21.7652,1.43038,1.48153,-0.329397,-0.578216,-0.977674,-0.582349,3.22934,0.70157,-0.186428,-0.310124
2459402,1,-1.57032,-0.522876,0.000499801,-2.09675,-0.000666809,1.5711,0.785881,-1.5708,-0.523599,3.41263e-08,-2.0944,9.6547e-08,1.5708,0.785398,0.000329813,-2.0299e-05,-9.53897e-05,-0.000609328,5.79809e-05,6.14448e-05,1.26188e-05,0,0,0,0,0,0,0,-0.605152,-10.1139,-1.06378,21.789,1.41847,1.48153,-0.329397,-0.578328,-0.979626,-0.582424,3.23035,0.701601,-0.186337,-0.310478
2459403,1,-1.57032,-0.522882,0.000500188,-2.09674,-0.000665486,1.5711,0.785876,-1.5708,-0.523599,3.41263e-08,-2.0944,9.6547e-08,1.5708,0.785398,-0.000336937,-0.00177677,-0.000620405,0.000707405,0.000242104,0.000278322,-0.0016531,0,0,0,0,0,0,0,-0.581349,-10.0385,-1.03998,21.7414,1.41298,1.47512,-0.284536,-0.578132,-0.979758,-0.581992,3.23047,0.701642,-0.186317,-0.310861
2459404,1,-1.57032,-0.522876,0.000502545,-2.09674,-0.000666469,1.5711,0.785877,-1.5708,-0.523599,3.41263e-08,-2.0944,9.6547e-08,1.5708,0.785398,-0.000224624,0.000578724,0.000143209,0.00102842,-0.000245498,-0.00028917,-0.000627349,0,0,0,0,0,0,0,-0.581349,-10.1139,-1.06378,21.7176,1.42397,1.48794,-0.297354,-0.577449,-0.976606,-0.580833,3.22865,0.70168,-0.186472,-0.31125
2459405,1,-1.57032,-0.522875,0.000500643,-2.09674,-0.000665779,1.5711,0.785875,-1.5708,-0.523599,3.41263e-08,-2.0944,9.6547e-08,1.5708,0.785398,0.000407062,0.000942628,9.54724e-05,-0.000428014,3.97851e-05,0.000281938,-0.00113031,0,0,0,0,0,0,0,-0.605152,-10.1377,-1.06378,21.7652,1.41847,1.47512,-0.278127,-0.576847,-0.97416,-0.579783,3.22678,0.701714,-0.186662,-0.311588
2459406,1,-1.57032,-0.522876,0.000504088,-2.09675,-0.000666363,1.5711,0.78588,-1.5708,-0.523599,3.41263e-08,-2.0944,9.6547e-08,1.5708,0.785398,-0.000285437,7.16068e-05,0.000713262,-0.000842154,-0.000176927,-4.94002e-05,-0.000278822,0,0,0,0,0,0,0,-0.581349,-10.1139,-1.09155,21.789,1.42397,1.48153,-0.290945,-0.576853,-0.974874,-0.579621,3.2267,0.701761,-0.186705,-0.311829
2459407,1,-1.57032,-0.522876,0.000500508,-2.09674,-0.000665744,1.5711,0.78588,-1.5708,-0.523599,3.41263e-08,-2.0944,9.6547e-08,1.5708,0.785398,-0.000190291,4.77378e-05,-0.000174106,0.000552188,8.54991e-05,-3.29335e-05,-0.00042324,0,0,0,0,0,0,0,-0.581349,-10.1139,-1.06378,21.7414,1.41847,1.48153,-0.284536,-0.577161,-0.976536,-0.579948,3.22744,0.701822,-0.186668,-0.311958
2459408,1,-1.57032,-0.522876,0.000504043,-2.09675,-0.000669547,1.5711,0.785884,-1.5708,-0.523599,3.41263e-08,-2.0944,9.6547e-08,1.5708,0.785398,-0.000126861,-0.000524987,0.000533543,-0.000745499,-0.000146451,-0.000259315,0.000904635,0,0,0,0,0,0,0,-0.581349,-10.0901,-1.09155,21.789,1.42397,1.48794,-0.31658,-0.57741,-0.977165,-0.580234,3.22777,0.701886,-0.18666,-0.311977
2459409,1,-1.57032,-0.522876,0.000500493,-2.09675,-0.000669391,1.5711,0.785881,-1.5708,-0.523599,3.41263e-08,-2.0944,9.6547e-08,1.5708,0.785398,0.00167866,0.000206821,-0.000293918,-0.000496999,0.000309267,6.44825e-05,-0.000346346,0,0,0,0,0,0,0,-0.656727,-10.1139,-1.06378,21.789,1.41298,1.48153,-0.290945,-0.578005,-0.977146,-0.580946,3.22803,0.701937,-0.186641,-0.311903
2459410,1,-1.57032,-0.522872,0.000502089,-2.09674,-0.00066655,1.5711,0.785881,-1.5708,-0.523599,3.41263e-08,-2.0944,9.6547e-08,1.5708,0.785398,-8.73166e-05,0.00134431,-0.000195946,0.000225479,0.000206178,4.29884e-05,0.000718538,0,0,0,0,0,0,0,-0.605152,-10.1654,-1.06378,21.7652,1.41298,1.48153,-0.31658,-0.578986,-0.9783,-0.582004,3.22891,0.701981,-0.186573,-0.311765
2459411,1,-1.57032,-0.522876,0.000502621,-2.09675,-0.000666213,1.5711,0.78588,-1.5708,-0.523599,3.41263e-08,-2.0944,9.6547e-08,1.5708,0.785398,-0.00117183,-0.000310222,-0.00013063,-0.000406493,-6.59985e-05,2.86589e-05,0.000716385,0,0,0,0,0,0,0,-0.557545,-10.1139,-1.06378,21.789,1.41847,1.48153,-0.322988,-0.579367,-0.980723,-0.582133,3.23017,0.702054,-0.186497,-0.311592
2459412,1,-1.57032,-0.522876,0.000502799,-2.09674,-0.000665897,1.5711,0.785883,-1.5708,-0.523599,3.41263e-08,-2.0944,9.6547e-08,1.5708,0.785398,-0.000224411,-0.000206814,-8.70869e-05,0.000842629,-4.3999e-05,0.000493824,0.00047759,0,0,0,0,0,0,0,-0.581349,-10.1139,-1.06378,21.7414,1.41847,1.46871,-0.322988,-0.578825,-0.981941,-0.581047,3.23065,0.702148,-0.186498,-0.311419
2459413,1,-1.57032,-0.522873,0.000504347,-2.09674,-0.000664571,1.5711,0.785884,-1.5708,-0.523599,3.41263e-08,-2.0944,9.6547e-08,1.5708,0.785398,0.000407204,0.00106855,0.00114837,0.000561753,0.000377568,-0.000382861,8.10342e-05,0,0,0,0,0,0,0,-0.605152,-10.1654,-1.11535,21.7414,1.40749,1.48794,-0.31658,-0.578532,-0.981768,-0.580404,3.23009,0.702199,-0.186613,-0.311272
2459414,1,-1.57032,-0.522876,0.000500037,-2.09674,-0.000666367,1.5711,0.785885,-1.5708,-0.523599,3.41263e-08,-2.0944,9.6547e-08,1.5708,0.785398,-0.000285342,-0.000494059,-0.000440847,-0.00018231,-0.000358639,-0.000255241,0.000528741,0,0,0,0,0,0,0,-0.581349,-10.1139,-1.06378,21.7652,1.42397,1.48794,-0.329397,-0.579006,-0.98171,-0.580907,3.2294,0.702197,-0.186754,-0.311162
2459415,1,-1.57032,-0.522876,0.000500267,-2.09675,-0.000665745,1.5711,0.785882,-1.5708,-0.523599,3.41263e-08,-2.0944,9.6547e-08,1.5708,0.785398,-0.00074704,-0.000329373,-0.00085071,-0.000678352,-3.56424e-05,-0.00017016,0.000352494,0,0,0,0,0,0,0,-0.557545,-10.1139,-1.03998,21.789,1.41847,1.48794,-0.329397,-0.578959,-0.981271,-0.580673,3.22889,0.702216,-0.186846,-0.311104
2459416,1,-1.57032,-0.522875,0.00050044,-2.09674,-0.000666352,1.5711,0.785887,-1.5708,-0.523599,3.41263e-08,-2.0944,9.6547e-08,1.5708,0.785398,5.87852e-05,0.00033723,-1.03281e-05,0.0012182,-0.000227212,0.000123919,0.000980981,0,0,0,0,0,0,0,-0.581349,-10.1377,-1.06378,21.7176,1.42397,1.48153,-0.349539,-0.57801,-0.98021,-0.579137,3.22825,0.702273,-0.18692,-0.311109
2459417,1,-1.57032,-0.522871,0.000499941,-2.09674,-0.00066635,1.5711,0.785881,-1.5708,-0.523599,3.41263e-08,-2.0944,9.6547e-08,1.5708,0.785398,-0.00116724,0.000874434,-6.88542e-06,-0.00030149,-0.000151475,8.26124e-05,-0.000329357,0,0,0,0,0,0,0,-0.529774,-10.1654,-1.06378,21.7652,1.42397,1.48153,-0.322988,-0.576942,-0.97983,-0.577511,3.22762,0.702335,-0.187002,-0.311186
2459418,1,-1.57032,-0.522877,0.000500235,-2.09674,-0.00066635,1.5711,0.785883,-1.5708,-0.523599,3.41263e-08,-2.0944,9.6547e-08,1.5708,0.785398,-0.000128543,-0.0018299,-0.000561402,-0.000200993,-0.000100983,-0.000453551,0.000526414,0,0,0,0,0,0,0,-0.557545,-10.0623,-1.03998,21.7652,1.42397,1.49526,-0.34313,-0.57581,-0.979516,-0.575932,3.22708,0.702412,-0.18706,-0.311341
2459419,1,-1.57032,-0.522877,0.00050043,-2.09674,-0.000668935,1.5711,0.785883,-1.5708,-0.523599,3.41263e-08,-2.0944,9.6547e-08,1.5708,0.785398,0.00102793,-0.000570317,0.000182544,0.000422816,0.000136128,0.000206259,-0.000632401,0,0,0,0,0,0,0,-0.605152,-10.0901,-1.06378,21.7414,1.41847,1.48153,-0.31658,-0.575074,-0.976801,-0.574941,3.22569,0.702468,-0.187142,-0.31157
2459420,1,-1.57032,-0.522878,0.000498727,-2.09674,-0.00066939,1.5711,0.785881,-1.5708,-0.523599,3.41263e-08,-2.0944,9.6547e-08,1.5708,0.785398,0.000685286,-0.000380211,-0.000991928,-0.000274934,0.000294203,-9.98531e-05,-0.000184242,0,0,0,0,0,0,0,-0.605152,-10.0901,-1.01617,21.7652,1.41298,1.48794,-0.322988,-0.575223,-0.972707,-0.575075,3.22369,0.702479,-0.187249,-0.311854
2459421,1,-1.57032,-0.522876,0.000500944,-2.09675,-0.00066716,1.5711,0.785883,-1.5708,-0.523599,3.41263e-08,-2.0944,9.6547e-08,1.5708,0.785398,-9.99549e-05,0.000303338,-0.000104473,-0.00138972,-7.31532e-06,0.00017079,-0.000360187,0,0,0,0,0,0,0,-0.581349,-10.1139,-1.03998,21.8167,1.41847,1.48153,-0.31658,-0.575598,-0.970471,-0.575379,3.22285,0.702506,-0.187241,-0.312168
2459422,1,-1.57032,-0.522875,0.000501126,-2.09674,-0.000666823,1.5711,0.78588,-1.5708,-0.523599,3.41263e-08,-2.0944,9.6547e-08,1.5708,0.785398,0.000490175,0.000759037,-6.96489e-05,0.000279949,-0.000208327,0.00011386,-0.000240125,0,0,0,0,0,0,0,-0.605152,-10.1377,-1.03998,21.7652,1.42397,1.48153,-0.31658,-0.57596,-0.971324,-0.575612,3.2238,0.702567,-0.187079,-0.312487
2459423,1,-1.57032,-0.522878,0.000499056,-2.09674,-0.000666508,1.5711,0.785875,-1.5708,-0.523599,3.41263e-08,-2.0944,9.6547e-08,1.5708,0.785398,-0.000230028,-0.000607599,-4.64326e-05,0.000186633,-0.000138885,7.59068e-05,-0.0018216,0,0,0,0,0,0,0,-0.581349,-10.0901,-1.03998,21.7652,1.42397,1.48153,-0.271719,-0.576508,-0.973309,-0.576087,3.22508,0.702623,-0.186919,-0.312794
2459424,1,-1.57032,-0.522876,0.000502167,-2.09674,-0.000666402,1.5711,0.785878,-1.5708,-0.523599,3.41263e-08,-2.0944,9.6547e-08,1.5708,0.785398,0.00040346,0.000151746,0.000525857,0.000124422,-9.259e-05,-0.000186754,-0.0012144,0,0,0,0,0,0,0,-0.605152,-10.1139,-1.06378,21.7652,1.42397,1.48794,-0.271719,-0.57729,-0.974204,-0.576882,3.22554,0.702657,-0.186852,-0.313059
2459425,1,-1.57032,-0.522876,0.000500977,-2.09674,-0.000665147,1.5711,0.785879,-1.5708,-0.523599,3.41263e-08,-2.0944,9.6547e-08,1.5708,0.785398,-0.000287839,0.000101164,-0.000206241,0.00063976,0.000345174,-0.00039577,-0.000572239,0,0,0,0,0,0,0,-0.581349,-10.1139,-1.03998,21.7414,1.41298,1.49526,-0.278127,-0.578264,-0.974428,-0.577938,3.22547,0.702677,-0.186841,-0.313232
2459426,1,-1.57032,-0.522878,0.000502807,-2.09674,-0.000665135,1.5711,0.785877,-1.5708,-0.523599,3.41263e-08,-2.0944,9.6547e-08,1.5708,0.785398,-0.000191893,-0.000489369,0.000419318,-0.000130305,0.000230116,7.42048e-06,-0.000144134,0,0,0,0,0,0,0,-0.581349,-10.0901,-1.06378,21.7652,1.41298,1.48794,-0.284536,-0.579079,-0.974264,-0.578753,3.22508,0.7027,-0.186854,-0.313276
2459427,1,-1.57032,-0.522876,0.00050481,-2.09674,-0.000665741,1.5711,0.785877,-1.5708,-0.523599,3.41263e-08,-2.0944,9.6547e-08,1.5708,0.785398,-0.000127928,0.000230566,0.000929159,0.000469942,-5.00397e-05,0.000242306,-0.000808166,0,0,0,0,0,0,0,-0.581349,-10.1139,-1.09155,21.7414,1.41847,1.48153,-0.26531,-0.579949,-0.973627,-0.579714,3.22447,0.702711,-0.186871,-0.313187
2459428,1,-1.57032,-0.522876,0.000501208,-2.09674,-0.000667062,1.5711,0.785882,-1.5708,-0.523599,3.41263e-08,-2.0944,9.6547e-08,1.5708,0.785398,0.000471526,0.00015371,-0.000586986,0.000870106,-0.000474169,0.000398896,0.000885376,0,0,0,0,0,0,0,-0.605152,-10.1139,-1.03998,21.7176,1.43038,1.47512,-0.303762,-0.580996,-0.973061,-0.580954,3.22372,0.702699,-0.186906,-0.31297
2459429,1,-1.57032,-0.522878,0.000501214,-2.09674,-0.00066574,1.5711,0.785877,-1.5708,-0.523599,3.41263e-08,-2.0944,9.6547e-08,1.5708,0.785398,-0.000242461,-0.000454338,-0.000391324,2.3259e-05,0.000124697,2.85719e-05,-0.000121826,0,0,0,0,0,0,0,-0.581349,-10.0901,-1.03998,21.7414,1.41847,1.48153,-0.284536,-0.581547,-0.972388,-0.58137,3.22271,0.702701,-0.186973,-0.312647
2459430,1,-1.57032,-0.522878,0.000504835,-2.09674,-0.000664519,1.5711,0.785883,-1.5708,-0.523599,3.41263e-08,-2.0944,9.6547e-08,1.5708,0.785398,-0.000718453,-0.000952506,0.000945543,1.5506e-05,0.000490032,-0.000489578,0.00110558,0,0,0,0,0,0,0,-0.557545,-10.0623,-1.09155,21.7414,1.40749,1.49526,-0.31658,-0.581588,-0.970805,-0.58106,3.22146,0.702727,-0.187039,-0.312253
2459431,1,-1.57032,-0.522868,0.000502705,-2.09675,-0.000665739,1.5711,0.785881,-1.5708,-0.523599,3.41263e-08,-2.0944,9.6547e-08,1.5708,0.785398,-0.000478968,0.00233466,0.000630362,-0.0017529,-8.0213e-05,-5.51182e-05,0.000974411,0,0,0,0,0,0,0,-0.557545,-10.1892,-1.09155,21.8167,1.41847,1.48794,-0.322988,-0.581724,-0.97092,-0.581115,3.22159,0.702776,-0.186955,-0.311819
2459432,1,-1.57032,-0.522875,0.000502177,-2.09674,-0.000665739,1.5711,0.785885,-1.5708,-0.523599,3.41263e-08,-2.0944,9.6547e-08,1.5708,0.785398,-0.000319312,-0.000206798,-0.000229373,0.000594637,-5.34753e-05,-3.67455e-05,0.00115823,0,0,0,0,0,0,0,-0.557545,-10.1139,-1.06378,21.7414,1.41847,1.48794,-0.336721,-0.581836,-0.974996,-0.581327,3.224,0.702858,-0.18667,-0.311386
2459433,1,-1.57032,-0.522876,0.00050098,-2.09674,-0.000665739,1.5711,0.78588,-1.5708,-0.523599,3.41263e-08,-2.0944,9.6547e-08,1.5708,0.785398,0.000900749,-0.000137865,-0.000709727,0.00160285,-3.56502e-05,-0.000295764,2.61703e-05,0,0,0,0,0,0,0,-0.605152,-10.1139,-1.03998,21.6898,1.41847,1.49526,-0.31658,-0.5816,-0.978456,-0.58101,3.22564,0.702921,-0.186465,-0.311015
2459434,1,-1.57032,-0.522875,0.000501138,-2.09674,-0.00066635,1.5711,0.785883,-1.5708,-0.523599,3.41263e-08,-2.0944,9.6547e-08,1.5708,0.785398,0.00125011,0.000464902,-0.000473151,-0.000137859,-0.000227217,0.00031145,0.00100079,0,0,0,0,0,0,0,-0.632923,-10.1377,-1.03998,21.7414,1.42397,1.48153,-0.34313,-0.58142,-0.979168,-0.580547,3.22526,0.702926,-0.186442,-0.310735
2459435,1,-1.57032,-0.522875,0.00050481,-2.09675,-0.000669546,1.5711,0.785886,-1.5708,-0.523599,3.41263e-08,-2.0944,9.6547e-08,1.5708,0.785398,-0.000373017,0.000309934,0.000890992,-0.00120553,-0.000151478,0.000444992,0.000904553,0,0,0,0,0,0,0,-0.581349,-10.1377,-1.09155,21.789,1.42397,1.47512,-0.349539,-0.581753,-0.980276,-0.580705,3.22522,0.702918,-0.186369,-0.31055
2459436,1,-1.57032,-0.522878,0.000499538,-2.09674,-0.000667415,1.5711,0.78588,-1.5708,-0.523599,3.41263e-08,-2.0944,9.6547e-08,1.5708,0.785398,0.000308134,-0.000907001,-0.00116924,0.000309937,-0.000100985,-0.000449324,-0.000855027,0,0,0,0,0,0,0,-0.605152,-10.0901,-1.01617,21.7414,1.42397,1.49526,-0.310171,-0.582146,-0.981623,-0.580993,3.22583,0.70294,-0.186207,-0.310479
2459437,0.99,-1.57032,-0.522872,0.000502703,-2.09674,-0.000665484,1.5711,0.785884,-1.5708,-0.523599,3.41263e-08,-2.0944,9.6547e-08,1.5708,0.785398,0.000205423,0.000508957,0.000983742,-0.000350187,0.000339577,-2.82818e-05,0.0011254,0,0,0,0,0,0,0,-0.605152,-10.1377,-1.09155,21.7652,1.41298,1.48794,-0.355947,-0.582337,-0.981758,-0.580975,3.22599,0.70298,-0.186068,-0.310524
2459438,0.99,-1.57032,-0.522874,0.000500506,-2.09674,-0.000666468,1.5711,0.785885,-1.5708,-0.523599,3.41263e-08,-2.0944,9.6547e-08,1.5708,0.785398,-0.000419864,0.000339304,-0.000550598,0.000880166,-0.000180516,0.000693222,3.8192e-05,0,0,0,0,0,0,0,-0.581349,-10.1377,-1.03998,21.7176,1.42397,1.46871,-0.336721,-0.582589,-0.981822,-0.581039,3.22585,0.703018,-0.185972,-0.310665
2459439,0.99,-1.57032,-0.52288,0.00050098,-2.09675,-0.000663236,1.5711,0.785886,-1.5708,-0.523599,3.41263e-08,-2.0944,9.6547e-08,1.5708,0.785398,0.000276903,-0.00153703,-0.000367065,-0.00108366,0.000930817,-0.000249929,0.00026282,0,0,0,0,0,0,0,-0.605152,-10.0623,-1.03998,21.789,1.39559,1.48794,-0.34313,-0.582539,-0.981303,-0.580645,3.22529,0.703067,-0.185926,-0.310903
2459440,0.99,-1.57032,-0.522876,0.000500678,-2.09674,-0.000665142,1.5711,0.785887,-1.5708,-0.523599,3.41263e-08,-2.0944,9.6547e-08,1.5708,0.785398,-0.000929022,0.000181736,0.000312102,0.000391185,-2.37154e-05,-0.000437886,0.000412572,0,0,0,0,0,0,0,-0.557545,-10.1139,-1.06378,21.7414,1.41298,1.49526,-0.349539,-0.582133,-0.97928,-0.579713,3.22425,0.703116,-0.185906,-0.311233
2459441,0.99,-1.57032,-0.522876,0.00049835,-2.09674,-0.000665133,1.5711,0.785881,-1.5708,-0.523598,1.78645e-06,-2.0944,1.25923e-06,1.5708,0.785401,-6.2536e-05,0.000121157,-0.000348744,0.00026079,-1.58102e-05,0.000216702,-0.000708296,0.000219593,0.000684248,0.00175232,-0.00150289,0.00116268,0.003793,0.00248083,-0.581349,-10.1139,-1.03998,21.7414,1.41298,1.48153,-0.322988,-0.581599,-0.977415,-0.578662,3.22325,0.703146,-0.185893,-0.311643
2459442,0.99,-1.57032,-0.52288,0.000498591,-2.09674,-0.00066513,1.5711,0.785878,-1.5708,-0.523597,5.2911e-06,-2.0944,3.58459e-06,1.57081,0.785406,0.000515121,-0.00112565,-0.000789308,-0.000382952,-1.05402e-05,0.000144468,-0.00142163,0.000439186,0.0013685,0.00350465,-0.00300578,0.00232536,0.00758601,0.00496167,-0.605152,-10.0623,-1.01617,21.7652,1.41298,1.48153,-0.297354,-0.580968,-0.97583,-0.577417,3.22222,0.703152,-0.185897,-0.312117
2459443,0.99,-1.57032,-0.522874,0.000504518,-2.09675,-0.00066513,1.5711,0.785878,-1.57079,-0.523595,1.05481e-05,-2.0944,7.07263e-06,1.57082,0.785413,0.000343414,0.00045599,0.00123703,-0.00146173,-7.02677e-06,0.00057103,-0.000710396,0.00065878,0.00205274,0.00525697,-0.00450867,0.00348804,0.011379,0.0074425,-0.605152,-10.1139,-1.09155,21.8167,1.41298,1.46871,-0.303762,-0.580904,-0.974535,-0.576885,3.22173,0.703124,-0.185848,-0.312606
2459444,0.99,-1.57032,-0.522874,0.000500082,-2.09674,-0.000667062,1.5711,0.785878,-1.57079,-0.523592,1.75574e-05,-2.09441,1.17234e-05,1.57083,0.785423,0.00530953,0.00170872,0.000978367,-0.00105906,-0.000648944,-0.00033139,-0.000473598,0.000878373,0.00273699,0.00700929,-0.00601156,0.00465072,0.015172,0.00992333,-0.557545,-10.0385,-0.964597,21.6898,1.43038,1.48794,-0.303762,-0.583297,-0.976555,-0.579677,3.22344,0.703007,-0.185628,-0.313039
2459445,0.99,-1.57032,-0.522877,0.000501828,-2.09674,-0.000667672,1.5711,0.78588,-1.57079,-0.523588,2.6319e-05,-2.09442,1.75368e-05,1.57085,0.785435,0.00535043,0.000340027,0.00302736,-0.000777626,-0.00063608,-0.00191635,-0.00173989,0.00109797,0.00342124,0.00876162,-0.00751445,0.0058134,0.018965,0.0124042,-0.478199,-9.85995,-0.786069,21.543,1.43587,1.53372,-0.26531,-0.590108,-0.982216,-0.588345,3.22727,0.702708,-0.185254,-0.313366
2459446,0.99,-1.57033,-0.52288,0.000505631,-2.09674,-0.000665697,1.5711,0.785875,-1.57079,-0.523584,3.68329e-05,-2.09443,2.45128e-05,1.57088,0.78545,0.00221611,-0.000145497,0.00370197,-0.000439701,-0.000830954,-0.00246436,-0.00333006,0.00131756,0.00410549,0.0105139,-0.00901734,0.00697609,0.022758,0.014885,-0.252064,-9.55844,-0.559934,21.3922,1.44686,1.56576,-0.206716,-0.60049,-0.98744,-0.601989,3.23099,0.70225,-0.184844,-0.313568
2459447,0.99,-1.57033,-0.522877,0.000518653,-2.09674,-0.000665853,1.5711,0.785881,-1.57079,-0.52358,4.90992e-05,-2.09444,3.26516e-05,1.5709,0.785468,0.00186043,-0.00085893,0.00314647,0.00191358,-0.000960871,-0.00211762,-0.00076198,0.00153715,0.00478973,0.0122663,-0.0105202,0.00813877,0.026551,0.0173658,-0.101307,-9.35611,-0.409177,21.1423,1.45784,1.57858,-0.246084,-0.611091,-0.988257,-0.616322,3.232,0.701769,-0.184526,-0.313601
2459448,0.99,-1.57033,-0.522865,0.000524826,-2.09674,-0.00066621,1.5711,0.785875,-1.57079,-0.523574,6.31178e-05,-2.09445,4.19531e-05,1.57093,0.785488,0.00172264,0.00229054,0.00455425,0.000968245,-0.000877939,-0.0028359,-0.00244077,0.00175675,0.00547398,0.0140186,-0.0120231,0.00930145,0.030344,0.0198467,0.0494498,-9.30453,-0.202878,20.9955,1.46425,1.61703,-0.193899,-0.619802,-0.985323,-0.62841,3.22983,0.701368,-0.184272,-0.313404
2459449,0.99,-1.57033,-0.522857,0.000541794,-2.09674,-0.000664769,1.5711,0.785881,-1.57079,-0.523568,7.88887e-05,-2.09446,5.24172e-05,1.57097,0.78551,0.00356013,0.00266804,0.00515129,-0.00221446,-0.000144483,-0.00236532,0.000305602,0.00197634,0.00615823,0.0157709,-0.013526,0.0104641,0.034137,0.0223275,0.124828,-9.17758,-0.103696,20.9439,1.45235,1.62985,-0.246084,-0.62701,-0.984642,-0.638759,3.2279,0.701108,-0.183669,-0.312929
2459450,0.99,-1.57033,-0.522845,0.000555774,-2.09674,-0.000666052,1.5711,0.785879,-1.57078,-0.523561,9.64119e-05,-2.09448,6.4044e-05,1.571,0.785535,0.000344768,0.00536837,0.00785446,0.00174912,-0.000537132,-0.00157688,-0.00054225,0.00219593,0.00684248,0.0175232,-0.0150289,0.0116268,0.03793,0.0248083,0.251781,-9.15378,0.0232571,20.7694,1.46425,1.62985,-0.225942,-0.633279,-0.989787,-0.648326,3.2282,0.701002,-0.182457,-0.312161
2459451,0.99,-1.57034,-0.522843,0.000575159,-2.09675,-0.00066909,1.57111,0.785885,-1.57078,-0.523553,0.000117018,-2.0945,7.7504e-05,1.57105,0.785563,-0.00138445,0.00418977,0.0112192,0.000522686,-0.00137534,-0.00152597,0.000621844,0.00258286,0.00804153,0.0206057,-0.0176677,0.01346,0.0438998,0.0287123,0.350963,-9.00302,0.0986355,20.7694,1.49172,1.64266,-0.252493,-0.638366,-0.998421,-0.657401,3.22851,0.701013,-0.180819,-0.311134
2459452,0.99,-1.57034,-0.522837,0.000587718,-2.09675,-0.000670408,1.57111,0.785882,-1.57078,-0.523544,0.000140706,-2.09452,9.27971e-05,1.5711,0.785596,-0.0028065,0.00194385,0.0118579,0.000811759,-0.0013577,-0.00196675,-0.00199294,0.00296978,0.00924059,0.0236882,-0.0203066,0.0152931,0.0498695,0.0326162,0.454113,-8.92368,0.249392,20.5988,1.50362,1.6683,-0.18749,-0.641851,-1.00457,-0.66587,3.22602,0.701124,-0.178934,-0.309907
2459453,0.99,-1.57034,-0.522837,0.000608855,-2.09676,-0.000671628,1.57112,0.785887,-1.57078,-0.523533,0.000167476,-2.09454,0.000109923,1.57115,0.785632,-0.000824396,0.000585041,0.0147088,-0.00155438,-0.00131204,-0.00205715,0.00419676,0.0033567,0.0104397,0.0267707,-0.0229454,0.0171263,0.0558393,0.0365201,0.426342,-8.72531,0.300967,20.5234,1.5146,1.68844,-0.219534,-0.644035,-1.00264,-0.673976,3.21922,0.701326,-0.176818,-0.308516
2459454,0.99,-1.57034,-0.522834,0.000627834,-2.09676,-0.000670364,1.57112,0.785892,-1.57077,-0.523522,0.00019733,-2.09456,0.000128883,1.57122,0.785673,-0.00145828,0.00331952,0.017246,-0.00457021,-0.00151895,0.0011435,0.00700854,0.00374362,0.0116387,0.0298531,-0.0255842,0.0189594,0.0618091,0.0404241,0.477917,-8.54678,0.451724,20.3727,1.532,1.74612,-0.206716,-0.64645,-0.994849,-0.683511,3.21034,0.701617,-0.174242,-0.306959
2459455,0.99,-1.57034,-0.52283,0.000652855,-2.09677,-0.000667934,1.57113,0.785897,-1.57077,-0.523509,0.000230265,-2.09459,0.000149675,1.57128,0.785717,0.000123561,0.00435893,0.0188973,-0.00308811,-0.00162299,0.00381671,0.0093741,0.00413055,0.0128378,0.0329356,-0.0282231,0.0207926,0.0677788,0.044328,0.581066,-8.32065,0.630252,20.1981,1.54848,1.79739,-0.200308,-0.650103,-0.987805,-0.695506,3.20251,0.702036,-0.170999,-0.305236
2459456,0.99,-1.57035,-0.52282,0.000681,-2.09678,-0.000668446,1.57114,0.785897,-1.57076,-0.523495,0.000266283,-2.09462,0.000172301,1.57136,0.785765,-0.00162164,0.00205643,0.0225831,-0.00438868,-0.00172625,0.00576716,0.00858246,0.00451747,0.0140368,0.0360181,-0.0308619,0.0226257,0.0737486,0.048232,0.807201,-8.09055,0.832583,19.8529,1.56587,1.85507,-0.122488,-0.655034,-0.980967,-0.709672,3.19441,0.702588,-0.167226,-0.303366
2459457,0.99,-1.57035,-0.52281,0.000702476,-2.09679,-0.000666608,1.57116,0.785904,-1.57076,-0.52348,0.000305384,-2.09466,0.00019676,1.57144,0.785818,-0.00226354,0.00366115,0.0214748,-0.00980356,0.00337125,0.0121229,0.00718602,0.00490439,0.0152359,0.0391006,-0.0335008,0.0244589,0.0797183,0.0521359,1.00953,-7.86441,1.21344,19.6784,1.58235,1.90725,-0.135305,-0.659842,-0.971935,-0.723872,3.18513,0.703354,-0.162875,-0.301338
2459458,0.99,-1.57035,-0.522795,0.000738434,-2.0968,-0.000666707,1.57118,0.785911,-1.57075,-0.523463,0.000347567,-2.09469,0.000223052,1.57152,0.785874,-0.00135834,0.00605772,0.0221856,-0.0113437,0.00694147,0.0179549,0.00842795,0.00529131,0.0164349,0.042183,-0.0361396,0.026292,0.0856881,0.0560398,1.16029,-7.68588,1.41577,19.4046,1.59426,1.93289,-0.0968531,-0.662018,-0.965283,-0.734125,3.17754,0.704515,-0.15758,-0.29911
2459459,0.99,-1.57035,-0.522779,0.000775042,-2.09682,-0.000662392,1.5712,0.785917,-1.57075,-0.523446,0.000392832,-2.09473,0.000251177,1.57161,0.785934,-0.001196,0.00789984,0.0257678,-0.0113361,0.00557804,0.0215246,0.00829227,0.00567824,0.017634,0.0452655,-0.0387784,0.0281251,0.0916578,0.0599438,1.33485,-7.51132,1.61811,19.2063,1.58785,1.97775,-0.0254419,-0.661244,-0.964993,-0.739631,3.17254,0.706101,-0.151238,-0.296625
2459460,0.99,-1.57035,-0.52276,0.000810197,-2.09684,-0.00066186,1.57124,0.785924,-1.57074,-0.523427,0.00044118,-2.09477,0.000281135,1.57171,0.785997,-0.000335762,0.0109143,0.0277351,-0.0128807,0.00296495,0.0249475,0.00871744,0.00606516,0.0188331,0.048348,-0.0414173,0.0299583,0.0976276,0.0638477,1.48561,-7.40817,1.84424,19.0793,1.62264,2.00338,0.0322363,-0.658942,-0.971479,-0.742555,3.16884,0.70803,-0.143947,-0.293797
2459461,0.99,-1.57035,-0.52275,0.000852385,-2.09686,-0.000662794,1.57128,0.785933,-1.57073,-0.523406,0.000493604,-2.09482,0.000313296,1.57182,0.786066,0.00197087,0.00948711,0.0285514,-0.0153831,0.000512752,0.0284405,0.00942897,0.00657744,0.0204134,0.0524236,-0.044901,0.0321611,0.104789,0.06853,1.56495,-7.15427,1.97119,19.0079,1.67299,2.00338,0.0844213,-0.655734,-0.983109,-0.743763,3.16543,0.710275,-0.13572,-0.290504
2459462,0.99,-1.57035,-0.522732,0.000896727,-2.09689,-0.000663741,1.57133,0.785945,-1.57073,-0.523384,0.000550103,-2.09487,0.00034766,1.57193,0.786139,-0.000636023,0.0116323,0.0289023,-0.0200249,-0.00125623,0.0307393,0.00998563,0.00708972,0.0219937,0.0564993,-0.0483847,0.034364,0.11195,0.0732122,1.68794,-7.03128,2.09815,18.9325,1.72426,2.00979,0.135691,-0.650294,-0.997092,-0.741239,3.16209,0.712936,-0.126475,-0.286625
2459463,0.99,-1.57035,-0.522722,0.000938168,-2.09691,-0.000662726,1.57138,0.785958,-1.57072,-0.523361,0.000610678,-2.09492,0.000384227,1.57205,0.786217,-0.00149206,0.0112643,0.0310803,-0.0214445,-0.00186649,0.0413945,0.00937624,0.00760201,0.0235741,0.0605749,-0.0518684,0.0365668,0.119111,0.0778945,1.76332,-6.82895,2.27667,18.9087,1.75813,2.02902,0.213511,-0.640312,-1.01208,-0.731978,3.15904,0.716204,-0.116228,-0.282065
2459464,0.99,-1.57034,-0.522706,0.000987729,-2.09694,-0.000657183,1.57144,0.785984,-1.57071,-0.523336,0.000675329,-2.09497,0.000422997,1.57217,0.7863,-0.000473314,0.0115325,0.0369239,-0.0240134,0.00282183,0.0490225,0.0117897,0.00811429,0.0251544,0.0646506,-0.0553522,0.0387696,0.126272,0.0825768,1.76332,-6.65042,2.40363,18.8333,1.78011,2.05557,0.219919,-0.626803,-1.02494,-0.717912,3.15447,0.720061,-0.105335,-0.276729
2459465,0.99,-1.57034,-0.522692,0.00103627,-2.09697,-0.000651325,1.57151,0.786013,-1.5707,-0.523309,0.000744055,-2.09503,0.000463969,1.57231,0.786387,0.00124744,0.0100463,0.0415057,-0.0232325,0.00240069,0.0548453,0.017024,0.00862657,0.0267347,0.0687262,-0.0588359,0.0409724,0.133433,0.087259,1.84266,-6.39651,2.65753,18.635,1.78011,2.0812,0.240061,-0.614198,-1.02994,-0.705576,3.14498,0.724258,-0.094252,-0.270529
2459466,0.99,-1.57034,-0.522671,0.00109515,-2.09701,-0.00064176,1.57159,0.786045,-1.57069,-0.52328,0.000816857,-2.09509,0.000507144,1.57245,0.786479,-9.11421e-05,0.0141171,0.0470098,-0.024494,0.0071096,0.0590702,0.0217576,0.00913885,0.0283151,0.0728019,-0.0623196,0.0431753,0.140594,0.0919413,2.04103,-6.22195,2.83209,18.508,1.76912,2.11325,0.240061,-0.605417,-1.02521,-0.699089,3.12894,0.728602,-0.0832036,-0.263441
2459467,0.99,-1.57033,-0.522647,0.00114855,-2.09705,-0.000629392,1.57168,0.786084,-1.57068,-0.523251,0.000893734,-2.09516,0.000552523,1.5726,0.786575,0.00257804,0.0169823,0.0510609,-0.0276957,0.0100933,0.068699,0.0249019,0.00965113,0.0298954,0.0768775,-0.0658033,0.0453781,0.147755,0.0966236,2.0926,-6.04343,3.13758,18.3335,1.76912,2.09402,0.24647,-0.60107,-1.01703,-0.699139,3.10915,0.733055,-0.072014,-0.255503
2459468,0.99,-1.57032,-0.522627,0.00121089,-2.09709,-0.000618877,1.57177,0.786128,-1.57067,-0.523219,0.000974688,-2.09523,0.000600103,1.57275,0.786677,0.00312472,0.0185771,0.0558133,-0.034301,0.00763158,0.0801075,0.0311922,0.0101634,0.0314757,0.0809531,-0.0692871,0.0475809,0.154916,0.101306,2.19575,-5.84109,3.36371,18.2105,1.76912,2.07479,0.259287,-0.601208,-1.01298,-0.705431,3.09051,0.737662,-0.0603284,-0.246792
2459469,0.99,-1.57032,-0.522609,0.00127936,-2.09714,-0.000599436,1.57188,0.786182,-1.57066,-0.523186,0.00105972,-2.0953,0.000649887,1.57291,0.786783,0.00115112,0.019157,0.0584227,-0.0388103,0.0115046,0.088667,0.0370062,0.0106757,0.0330561,0.0850288,-0.0727708,0.0497837,0.162077,0.105988,2.27113,-5.61496,3.51844,18.0637,1.74074,2.06198,0.259287,-0.604074,-1.0151,-0.715154,3.07593,0.742538,-0.0479485,-0.237419
2459470,0.99,-1.57032,-0.522584,0.00134682,-2.09719,-0.000584377,1.572,0.786235,-1.57065,-0.523151,0.00114882,-2.09538,0.000701874,1.57308,0.786893,0.00220785,0.0212851,0.0597489,-0.0413707,0.0178439,0.096533,0.0431265,0.011188,0.0346364,0.0891044,-0.0762545,0.0519866,0.169238,0.11067,2.37031,-5.4642,3.693,18.0121,1.76912,2.0162,0.310557,-0.606167,-1.02163,-0.722892,3.06507,0.74774,-0.0349464,-0.227521
2459471,0.99,-1.57031,-0.522568,0.00141367,-2.09725,-0.000566091,1.57213,0.786302,-1.57064,-0.523115,0.00124273,-2.09546,0.000756249,1.57326,0.787009,0.00409169,0.0200035,0.0612439,-0.0418644,0.0168884,0.105772,0.0493407,0.0117919,0.0364932,0.0939044,-0.0803528,0.0543749,0.17699,0.115738,2.42189,-5.18649,3.84772,17.9129,1.803,2.00338,0.323374,-0.605261,-1.02743,-0.7247,3.05423,0.753174,-0.0217552,-0.21721
2459472,0.99,-1.57031,-0.522546,0.00148392,-2.09731,-0.000540176,1.57226,0.786371,-1.57063,-0.523077,0.00134143,-2.09554,0.000813012,1.57344,0.78713,0.00558572,0.0220416,0.0658706,-0.0471484,0.0219911,0.115716,0.0543833,0.0123958,0.0383501,0.0987044,-0.0844512,0.0567632,0.184742,0.120806,2.46949,-5.03177,3.97467,17.8891,1.80849,2.02902,0.330698,-0.601759,-1.02739,-0.720674,3.04017,0.758717,-0.00882184,-0.206535
2459473,0.99,-1.5703,-0.522526,0.00156087,-2.09738,-0.000515924,1.5724,0.786448,-1.57061,-0.523036,0.00144493,-2.09563,0.000872163,1.57364,0.787256,0.00459134,0.0230553,0.0701461,-0.0523297,0.0255155,0.123209,0.0608824,0.0129997,0.0402069,0.103504,-0.0885495,0.0591516,0.192493,0.125873,2.46949,-4.85721,4.07386,17.9129,1.84236,2.06198,0.36915,-0.597127,-1.02273,-0.713145,3.02441,0.764336,0.00390065,-0.195517
2459474,0.99,-1.57029,-0.522502,0.00163792,-2.09744,-0.000485537,1.57255,0.78653,-1.5706,-0.522994,0.00155324,-2.09573,0.000933703,1.57384,0.787387,0.0067595,0.0235702,0.0714525,-0.0564516,0.0282827,0.132783,0.0656922,0.0136036,0.0420638,0.108304,-0.0926478,0.0615399,0.200245,0.130941,2.46949,-4.67868,4.22461,17.8376,1.85426,2.11965,0.42042,-0.591558,-1.0159,-0.702613,3.00935,0.770089,0.0166324,-0.184189
2459475,0.99,-1.57028,-0.522475,0.0017264,-2.09751,-0.000451232,1.57271,0.786623,-1.57059,-0.52295,0.00166634,-2.09582,0.000997632,1.57405,0.787523,0.00885728,0.0240583,0.0764218,-0.0603412,0.0310606,0.139929,0.0751871,0.0142075,0.0439206,0.113104,-0.0967462,0.0639282,0.207996,0.136008,2.57264,-4.50412,4.35157,17.79,1.87074,2.17733,0.42042,-0.585326,-1.00583,-0.689217,2.99484,0.775993,0.0294082,-0.172553
2459476,0.99,-1.57027,-0.522447,0.00181451,-2.09758,-0.000411789,1.57287,0.786723,-1.57057,-0.522905,0.00178425,-2.09592,0.00106395,1.57426,0.787664,0.00729699,0.0249256,0.0823046,-0.0593836,0.0334774,0.147657,0.0812047,0.0148114,0.0457775,0.117904,-0.100844,0.0663166,0.215748,0.141076,2.6996,-4.3494,4.53009,17.5876,1.85426,2.17733,0.459788,-0.579894,-0.989688,-0.675182,2.97863,0.781956,0.0420938,-0.160587
2459477,0.99,-1.57026,-0.522415,0.00190796,-2.09766,-0.000373686,1.57305,0.786836,-1.57056,-0.522857,0.00190695,-2.09603,0.00113265,1.57448,0.78781,0.00841434,0.0255644,0.0836343,-0.0648836,0.0345812,0.157792,0.0932695,0.0154153,0.0476343,0.122704,-0.104943,0.0687049,0.223499,0.146143,2.7234,-4.19864,4.70862,17.4884,1.85426,2.18374,0.42042,-0.575012,-0.965358,-0.660607,2.95845,0.787948,0.0545427,-0.148292
2459478,0.99,-1.57026,-0.522385,0.00200941,-2.09774,-0.000323898,1.57324,0.786947,-1.57054,-0.522807,0.00203446,-2.09614,0.00120375,1.57472,0.787961,0.0076181,0.0254511,0.0881073,-0.0677763,0.0370131,0.170828,0.0948702,0.0160192,0.0494912,0.127504,-0.109041,0.0710932,0.231251,0.151211,2.82258,-4.02011,4.85938,17.3416,1.83687,2.17092,0.440561,-0.568884,-0.93306,-0.643009,2.93438,0.794052,0.0667889,-0.135705
2459479,0.99,-1.57025,-0.52236,0.00210666,-2.09783,-0.000273547,1.57344,0.787073,-1.57052,-0.522756,0.00216676,-2.09625,0.00127723,1.57495,0.788118,0.00866981,0.0242005,0.0880385,-0.0742137,0.037983,0.180762,0.106839,0.0166231,0.051348,0.132304,-0.113139,0.0734815,0.239002,0.156278,2.85035,-3.79398,5.03791,17.2425,1.8149,2.1517,0.42042,-0.559919,-0.89257,-0.619971,2.90705,0.80034,0.0789047,-0.122901
2459480,0.99,-1.57024,-0.522328,0.00221132,-2.09792,-0.000226187,1.57365,0.787204,-1.57051,-0.522703,0.00230387,-2.09637,0.0013531,1.5752,0.788279,0.00836334,0.0277591,0.0916426,-0.0796437,0.0374312,0.18844,0.114612,0.017227,0.0532049,0.137104,-0.117238,0.0758699,0.246754,0.161346,2.92573,-3.61942,5.16089,17.1671,1.84877,2.11325,0.42042,-0.546768,-0.846715,-0.589356,2.8788,0.806868,0.0911264,-0.109966
2459481,0.99,-1.57024,-0.522291,0.00231855,-2.09801,-0.000172628,1.57387,0.787349,-1.57049,-0.522648,0.00244628,-2.09649,0.00143143,1.57546,0.788445,0.00745841,0.032638,0.0955428,-0.0827687,0.0412995,0.195184,0.125357,0.0178954,0.0552565,0.142415,-0.121769,0.0783306,0.254729,0.166559,3.02491,-3.54007,5.26404,17.0679,1.86525,2.06198,0.394785,-0.529365,-0.804438,-0.551178,2.85409,0.813644,0.10379,-0.096973
2459482,0.99,-1.57023,-0.52226,0.00243599,-2.09811,-0.000112619,1.57409,0.787493,-1.57047,-0.52259,0.002594,-2.09662,0.00151222,1.57572,0.788617,0.00603631,0.0336748,0.0998241,-0.0904267,0.0498695,0.202463,0.128851,0.0185638,0.057308,0.147725,-0.1263,0.0807913,0.262705,0.171773,3.02491,-3.36551,5.28784,17.0679,1.86525,2.06838,0.42042,-0.508591,-0.772529,-0.507182,2.83582,0.82061,0.117048,-0.084005
2459483,0.99,-1.57022,-0.522226,0.00255155,-2.09822,-5.10704e-05,1.57432,0.787648,-1.57045,-0.522531,0.00274704,-2.09675,0.00159547,1.57599,0.788794,0.00554647,0.0358409,0.101292,-0.0920495,0.0530812,0.211622,0.139583,0.0192321,0.0593596,0.153035,-0.130832,0.083252,0.270681,0.176986,3.12806,-3.23856,5.39099,17.0163,1.86525,2.10684,0.414011,-0.484578,-0.750036,-0.457857,2.82348,0.827715,0.130761,-0.0711516
2459484,0.99,-1.57021,-0.522185,0.00266517,-2.09832,1.10334e-05,1.57456,0.787812,-1.57043,-0.52247,0.00290538,-2.09688,0.00168118,1.57627,0.788976,0.00705502,0.0386422,0.103572,-0.0979012,0.0576464,0.219228,0.147284,0.0199005,0.0614112,0.158345,-0.135363,0.0857127,0.278656,0.182199,3.15187,-3.16318,5.56952,16.8933,1.89363,2.13247,0.434153,-0.457071,-0.733769,-0.402692,2.81482,0.834921,0.144622,-0.0584741
2459485,0.99,-1.5702,-0.522143,0.00279568,-2.09843,7.9502e-05,1.57481,0.787991,-1.57041,-0.522406,0.00306904,-2.09702,0.00176936,1.57655,0.789164,0.0100655,0.0430189,0.107812,-0.104365,0.0569344,0.229609,0.156482,0.0205689,0.0634628,0.163655,-0.139894,0.0881734,0.286632,0.187413,3.22725,-3.06003,5.6449,16.8418,1.90462,2.14529,0.362742,-0.427717,-0.725253,-0.343746,2.81054,0.842191,0.158648,-0.0459821
2459486,0.99,-1.5702,-0.522101,0.00292347,-2.09854,0.000155695,1.57507,0.788166,-1.57039,-0.522341,0.003238,-2.09717,0.00185999,1.57685,0.789356,0.00634636,0.0459317,0.113044,-0.103844,0.0637922,0.24148,0.160253,0.0212373,0.0655144,0.168965,-0.144425,0.0906341,0.294607,0.192626,3.42958,-2.93704,5.74408,16.7188,1.88814,2.13888,0.356333,-0.398669,-0.725709,-0.284345,2.81066,0.849479,0.172789,-0.0336921
2459487,0.99,-1.57019,-0.522059,0.0030496,-2.09867,0.000229073,1.57534,0.78835,-1.57037,-0.522273,0.00341228,-2.09731,0.00195309,1.57715,0.789554,0.0116117,0.0440876,0.119075,-0.108684,0.0658535,0.248486,0.164847,0.0219056,0.067566,0.174275,-0.148957,0.0930948,0.302583,0.197839,3.42958,-2.78232,5.92261,16.6712,1.91103,2.10043,0.349924,-0.371715,-0.727753,-0.227682,2.81004,0.856624,0.186576,-0.021679
2459488,0.99,-1.57018,-0.522011,0.00318899,-2.09879,0.000311861,1.57561,0.78854,-1.57034,-0.522203,0.00359186,-2.09747,0.00204864,1.57746,0.789757,0.00875095,0.0446902,0.125433,-0.111313,0.0711886,0.256487,0.171079,0.022574,0.0696176,0.179585,-0.153488,0.0955555,0.310558,0.203053,3.58033,-2.70694,6.02179,16.5958,1.88265,2.10684,0.337107,-0.349141,-0.721163,-0.177513,2.80381,0.863421,0.199691,-0.0100187
2459489,0.99,-1.57017,-0.521965,0.00333642,-2.09892,0.0003941,1.57589,0.788734,-1.57032,-0.522132,0.00377676,-2.09763,0.00214666,1.57778,0.789966,0.00854969,0.0444724,0.131388,-0.113796,0.0716081,0.263344,0.175394,0.0232424,0.0716692,0.184895,-0.158019,0.0980162,0.318534,0.208266,3.65571,-2.60776,6.07337,16.5442,1.89913,2.10043,0.337107,-0.330962,-0.700604,-0.134432,2.78979,0.869826,0.212012,0.00123719
2459490,0.99,-1.57017,-0.521919,0.00348503,-2.09905,0.0004803,1.57618,0.788938,-1.5703,-0.522058,0.00396697,-2.09779,0.00224713,1.57811,0.790179,0.00646739,0.0435304,0.135711,-0.119364,0.0763044,0.27181,0.185273,0.0239108,0.0737208,0.190206,-0.16255,0.100477,0.326509,0.213479,3.80647,-2.4808,6.25189,16.3697,1.92201,2.11965,0.297739,-0.315035,-0.664316,-0.0958508,2.7675,0.875914,0.223513,0.0120465
2459491,0.99,-1.57017,-0.521867,0.00364573,-2.09919,0.00056999,1.57648,0.789142,-1.57027,-0.521982,0.00416282,-2.09796,0.00235007,1.57844,0.790398,0.00636874,0.0478693,0.142732,-0.126778,0.0779487,0.279718,0.193486,0.0246217,0.0759037,0.195855,-0.167371,0.10294,0.334485,0.218692,3.90962,-2.42923,6.2757,16.3221,1.92751,2.11965,0.323374,-0.299767,-0.617103,-0.0597283,2.74067,0.881827,0.234557,0.0223789
2459492,0.99,-1.57016,-0.521819,0.00379896,-2.09933,0.000662642,1.57679,0.789352,-1.57025,-0.521904,0.00436433,-2.09813,0.00245548,1.57878,0.790622,0.00791004,0.0486192,0.14968,-0.130047,0.0874141,0.291139,0.195364,0.0253327,0.0780865,0.201505,-0.172193,0.105403,0.342461,0.223905,3.93342,-2.27847,6.35108,16.3221,1.91103,2.09402,0.284922,-0.285982,-0.567646,-0.0273623,2.71424,0.887622,0.245561,0.0322283
2459493,0.99,-1.57015,-0.521759,0.00396064,-2.09947,0.000759417,1.57712,0.789569,-1.57022,-0.521824,0.00457148,-2.09831,0.00256334,1.57914,0.790851,0.00888803,0.052882,0.152715,-0.135074,0.091064,0.299403,0.202264,0.0260437,0.0802694,0.207154,-0.177014,0.107867,0.350437,0.229118,3.96119,-2.27847,6.37885,16.2983,1.91652,2.05557,0.278513,-0.27467,-0.520376,0.000122105,2.6896,0.893253,0.25657,0.0415999
2459494,0.99,-1.57014,-0.521704,0.00412494,-2.09963,0.000861575,1.57745,0.789791,-1.5702,-0.521741,0.00478428,-2.09849,0.00267367,1.57949,0.791085,0.00963959,0.0534407,0.161914,-0.141435,0.0916013,0.309138,0.208097,0.0267547,0.0824522,0.212804,-0.181835,0.11033,0.358413,0.234331,3.985,-2.17532,6.45423,16.2705,1.92201,2.05557,0.278513,-0.265644,-0.477591,0.0232905,2.66764,0.898735,0.267583,0.0504917
2459495,0.99,-1.57013,-0.521642,0.0043093,-2.09978,0.000969945,1.57778,0.790014,-1.57017,-0.521657,0.00500274,-2.09867,0.00278647,1.57986,0.791325,0.00766093,0.0550722,0.169079,-0.149492,0.0924961,0.31459,0.209117,0.0274657,0.0846351,0.218453,-0.186656,0.112793,0.366389,0.239544,4.11195,-2.12772,6.45423,16.1475,1.91652,2.11325,0.291331,-0.259407,-0.440143,0.0410748,2.65009,0.904122,0.278742,0.0589183
2459496,0.99,-1.57013,-0.521584,0.0044895,-2.09994,0.00107815,1.57813,0.790255,-1.57014,-0.52157,0.00522684,-2.09887,0.00290172,1.58023,0.791569,0.00637519,0.0544974,0.168418,-0.15034,0.0948624,0.324849,0.216825,0.0281767,0.086818,0.224103,-0.191477,0.115256,0.374365,0.244758,4.2389,-2.00076,6.55341,16.0245,1.92751,2.13247,0.291331,-0.253225,-0.404596,0.0572707,2.63554,0.909538,0.289964,0.0668907
2459497,0.99,-1.57012,-0.521518,0.00466459,-2.10011,0.00118619,1.57849,0.790494,-1.57011,-0.521481,0.00545659,-2.09906,0.00301944,1.58062,0.791819,0.00990314,0.0584999,0.167069,-0.15277,0.0941103,0.335519,0.22092,0.0288877,0.0890008,0.229752,-0.196299,0.117719,0.382341,0.249971,4.31428,-1.92538,6.70813,15.9729,1.9449,2.0812,0.356333,-0.241094,-0.366254,0.0814977,2.61926,0.915149,0.300791,0.0744056
2459498,0.99,-1.57011,-0.521452,0.00485764,-2.10028,0.00129636,1.57887,0.790737,-1.57008,-0.52139,0.00569199,-2.09926,0.00313963,1.58101,0.792075,0.00934631,0.0609116,0.172899,-0.157384,0.0985951,0.346788,0.226987,0.0295987,0.0911837,0.235402,-0.20112,0.120183,0.390317,0.255184,4.38966,-1.82224,6.78351,15.8976,1.9449,2.03543,0.343516,-0.220819,-0.325902,0.117808,2.59947,0.921006,0.31098,0.0815204
2459499,0.99,-1.57011,-0.521381,0.00505954,-2.10045,0.00140851,1.57924,0.790982,-1.57005,-0.521296,0.00593305,-2.09947,0.00326227,1.58141,0.792335,0.00701708,0.0645224,0.189397,-0.164554,0.102266,0.359642,0.228444,0.0303097,0.0933666,0.241052,-0.205941,0.122646,0.398293,0.260397,4.54042,-1.79843,6.88269,15.8738,1.92751,2.0162,0.388376,-0.197324,-0.288347,0.158086,2.57896,0.926945,0.320702,0.0883755
2459500,0.99,-1.5701,-0.521305,0.00526829,-2.10064,0.00152454,1.57963,0.791241,-1.57002,-0.521201,0.00617975,-2.09968,0.00338738,1.58181,0.792601,0.00467398,0.0637077,0.194103,-0.172031,0.104741,0.363086,0.232431,0.0310206,0.0955494,0.246701,-0.210762,0.125109,0.406269,0.26561,4.59199,-1.77066,6.93427,15.7984,1.933,2.04183,0.310557,-0.176374,-0.255644,0.192197,2.56089,0.932771,0.330266,0.0951154
2459501,0.99,-1.57009,-0.521228,0.00548079,-2.10082,0.00164331,1.58004,0.791497,-1.56999,-0.521103,0.0064323,-2.09989,0.00351491,1.58223,0.792871,0.00667095,0.0696284,0.200891,-0.177175,0.104444,0.372014,0.237582,0.0317566,0.0978145,0.252554,-0.215761,0.127532,0.414109,0.270734,4.74275,-1.77066,7.00965,15.6992,1.933,2.0162,0.337107,-0.158308,-0.228507,0.219343,2.54719,0.938488,0.339952,0.101805
2459502,0.99,-1.57009,-0.521151,0.00569845,-2.10101,0.00176219,1.58044,0.791764,-1.56996,-0.521003,0.00669071,-2.10012,0.00364487,1.58265,0.793147,0.00704332,0.0739639,0.2072,-0.17899,0.106397,0.38369,0.243616,0.0324926,0.10008,0.258407,-0.22076,0.129954,0.421948,0.275857,4.81813,-1.74686,7.03742,15.6516,1.93849,1.99057,0.316965,-0.142214,-0.210027,0.241537,2.53817,0.94411,0.349719,0.108434
2459503,0.99,-1.57007,-0.521076,0.00592764,-2.1012,0.00188572,1.58086,0.792033,-1.56992,-0.520901,0.00695497,-2.10034,0.00377724,1.58308,0.793428,0.00761626,0.0746735,0.211507,-0.184257,0.108042,0.390524,0.253436,0.0332286,0.102345,0.264261,-0.225759,0.132376,0.429788,0.280981,4.74275,-1.6199,7.06122,15.6238,1.933,1.98416,0.278513,-0.127354,-0.199301,0.260361,2.53143,0.94959,0.359226,0.11496
2459504,0.99,-1.57006,-0.520994,0.00615483,-2.1014,0.00201104,1.58129,0.792302,-1.56989,-0.520796,0.00722508,-2.10057,0.00391204,1.58351,0.793714,0.0117098,0.077268,0.217449,-0.190832,0.121042,0.412945,0.256592,0.0339646,0.10461,0.270114,-0.230758,0.134799,0.437628,0.286105,4.76655,-1.56833,7.1366,15.5762,1.9504,1.96493,0.310557,-0.113104,-0.191308,0.277342,2.52438,0.95487,0.368196,0.121314
2459505,0.99,-1.57005,-0.520909,0.00638488,-2.10161,0.0021405,1.58172,0.792579,-1.56985,-0.520689,0.00750105,-2.10081,0.00404926,1.58396,0.794005,0.0109509,0.0783655,0.223969,-0.191761,0.122903,0.423135,0.260787,0.0347006,0.106875,0.275967,-0.235757,0.137221,0.445468,0.291229,4.81813,-1.49295,7.23975,15.5008,1.97237,1.95211,0.278513,-0.100345,-0.181677,0.29182,2.51465,0.959846,0.376315,0.127429
2459506,0.99,-1.57004,-0.520822,0.00664081,-2.10181,0.00227263,1.58217,0.792867,-1.56982,-0.52058,0.00778287,-2.10105,0.00418891,1.58441,0.794302,0.00862315,0.0794342,0.23733,-0.195716,0.122845,0.431425,0.265218,0.0354366,0.10914,0.28182,-0.240756,0.139643,0.453308,0.296353,4.94508,-1.41757,7.23975,15.4254,1.98427,1.90725,0.265696,-0.0902187,-0.165168,0.301717,2.49896,0.964447,0.383265,0.13329
2459507,0.99,-1.57003,-0.520728,0.00689276,-2.10203,0.00240472,1.58261,0.793163,-1.56978,-0.520469,0.00807054,-2.10129,0.00433097,1.58487,0.794603,0.00985762,0.0851536,0.240609,-0.205612,0.125719,0.432501,0.27462,0.0361726,0.111405,0.287674,-0.245755,0.142066,0.461148,0.301477,4.94508,-1.41757,7.26355,15.4016,1.97237,1.88803,0.187876,-0.0830352,-0.144197,0.305862,2.47989,0.968786,0.389459,0.1389
2459508,0.99,-1.57001,-0.520634,0.00715264,-2.10225,0.00253582,1.58307,0.793449,-1.56974,-0.520355,0.00836407,-2.10155,0.00447546,1.58534,0.79491,0.00971582,0.0849234,0.245333,-0.208631,0.12764,0.435732,0.282776,0.0369086,0.11367,0.293527,-0.250754,0.144488,0.468988,0.3066,4.99269,-1.36996,7.31513,15.3025,1.96138,1.91366,0.226328,-0.0762832,-0.125789,0.308248,2.46323,0.973105,0.395638,0.144202
2459509,0.99,-1.57,-0.520532,0.0074199,-2.10248,0.0026692,1.58353,0.793756,-1.56971,-0.520239,0.00866345,-2.1018,0.00462237,1.58582,0.795222,0.0111632,0.0903541,0.253173,-0.212213,0.127063,0.444987,0.290816,0.0376446,0.115935,0.29938,-0.255753,0.14691,0.476828,0.311724,4.96888,-1.41757,7.33893,15.2509,1.95589,1.90725,0.175059,-0.0679043,-0.110032,0.312435,2.44886,0.977486,0.401843,0.149108
2459510,0.99,-1.56997,-0.520435,0.00768656,-2.10271,0.00280492,1.584,0.794055,-1.56967,-0.520121,0.00896868,-2.10206,0.0047717,1.58631,0.795538,0.0127505,0.0892616,0.255581,-0.217756,0.127789,0.456336,0.298732,0.0383806,0.1182,0.305233,-0.260752,0.149333,0.484668,0.316848,4.91731,-1.39377,7.3667,15.2033,1.96687,1.90084,0.233652,-0.0579076,-0.0943216,0.318813,2.43429,0.981886,0.407745,0.153573
2459511,0.99,-1.56995,-0.520333,0.00796127,-2.10294,0.00294644,1.58449,0.794362,-1.56963,-0.52,0.00927987,-2.10233,0.00492339,1.5868,0.79586,0.0131302,0.0948047,0.264176,-0.223444,0.131972,0.465184,0.30082,0.0391275,0.12051,0.311182,-0.265841,0.151687,0.492288,0.321829,4.89351,-1.36996,7.33893,15.2033,1.96687,1.85507,0.252878,-0.0462247,-0.0780019,0.32792,2.41904,0.986311,0.413254,0.15759
2459512,0.99,-1.56993,-0.520234,0.00823819,-2.10319,0.00309264,1.58497,0.794668,-1.56959,-0.519877,0.009597,-2.1026,0.00507743,1.5873,0.796187,0.0177934,0.0977638,0.273386,-0.229284,0.137639,0.475296,0.303161,0.0398743,0.12282,0.317131,-0.27093,0.154041,0.499909,0.326809,4.81813,-1.29062,7.39051,15.1795,1.93849,1.88162,0.349924,-0.0356872,-0.0645299,0.335811,2.40504,0.990656,0.418516,0.161239
2459513,0.99,-1.56991,-0.520126,0.00853346,-2.10343,0.0032432,1.58547,0.794991,-1.56955,-0.519752,0.00992008,-2.10287,0.00523383,1.58781,0.796519,0.018858,0.101658,0.275654,-0.239111,0.140995,0.477074,0.309074,0.0406212,0.125129,0.32308,-0.276019,0.156395,0.507529,0.331789,4.84193,-1.29062,7.33893,15.1517,1.933,1.9393,0.323374,-0.0288915,-0.0588759,0.339106,2.39577,0.994837,0.423904,0.164678
2459514,0.99,-1.56988,-0.520024,0.00882836,-2.10369,0.00340245,1.58597,0.795322,-1.56951,-0.519625,0.0102491,-2.10316,0.00539257,1.58832,0.796856,0.0219991,0.100482,0.279107,-0.247247,0.147293,0.485051,0.316759,0.041368,0.127439,0.329029,-0.281108,0.158749,0.51515,0.33677,4.76655,-1.24301,7.31513,15.2271,1.92751,1.93289,0.343516,-0.0235299,-0.0611832,0.341884,2.39337,0.998956,0.429844,0.168055
2459515,0.98,-1.56985,-0.519914,0.0091247,-2.10395,0.00355886,1.58648,0.795658,-1.56947,-0.519495,0.0105841,-2.10344,0.00555368,1.58884,0.797197,0.0225404,0.103333,0.284248,-0.249825,0.147463,0.491429,0.32438,0.0421148,0.129749,0.334977,-0.286197,0.161104,0.52277,0.34175,4.76655,-1.21524,7.33893,15.1795,1.9449,1.92648,0.337107,-0.0170144,-0.0654166,0.34826,2.39511,1.00304,0.436254,0.171457
2459516,0.98,-1.56982,-0.519797,0.00943024,-2.10421,0.00371964,1.587,0.795987,-1.56942,-0.519363,0.010925,-2.10373,0.00571714,1.58937,0.797544,0.0273891,0.106133,0.286944,-0.256726,0.148776,0.495469,0.322539,0.0428617,0.132058,0.340926,-0.291285,0.163458,0.530391,0.346731,4.71498,-1.21524,7.31513,15.1795,1.92201,1.92007,0.394785,-0.00883494,-0.0675276,0.359075,2.39738,1.00705,0.442804,0.174942
2459517,0.98,-1.56979,-0.519682,0.00974394,-2.10447,0.00388359,1.58752,0.796333,-1.56938,-0.519229,0.0112719,-2.10403,0.00588295,1.58991,0.797896,0.0284009,0.111867,0.298355,-0.257862,0.158602,0.513422,0.332088,0.0436085,0.134368,0.346875,-0.296374,0.165812,0.538011,0.351711,4.6396,-1.24301,7.26355,15.0287,1.89913,1.9457,0.381968,-0.000944547,-0.0693884,0.371399,2.39916,1.01089,0.449251,0.178576
2459518,0.98,-1.56975,-0.51956,0.0100657,-2.10475,0.00405179,1.58805,0.796678,-1.56933,-0.519092,0.0116247,-2.10433,0.00605111,1.59046,0.798253,0.0322078,0.113682,0.299658,-0.266001,0.162,0.516263,0.327557,0.0443554,0.136678,0.352824,-0.301463,0.168166,0.545632,0.356692,4.56422,-1.31839,7.33893,15.0287,1.87624,1.97134,0.356333,0.00417555,-0.0730297,0.381319,2.39992,1.01439,0.455386,0.182416
2459519,0.98,-1.56973,-0.519444,0.0104037,-2.10503,0.00422647,1.5886,0.797032,-1.56929,-0.518953,0.0119835,-2.10464,0.00622163,1.59101,0.798614,0.031381,0.114763,0.311466,-0.272439,0.168474,0.524368,0.335408,0.0451022,0.138987,0.358773,-0.306552,0.17052,0.553252,0.361672,4.6396,-1.26682,7.26355,15.0525,1.86525,1.95211,0.349924,0.00614487,-0.0776199,0.387997,2.40011,1.01751,0.461382,0.186473
2459520,0.98,-1.5697,-0.519328,0.0107407,-2.10532,0.00439995,1.58916,0.797401,-1.56924,-0.518812,0.0123482,-2.10495,0.00639451,1.59157,0.798981,0.0323292,0.114624,0.321023,-0.276799,0.173535,0.531818,0.344702,0.045849,0.141297,0.364722,-0.311641,0.172875,0.560873,0.366652,4.66737,-1.13986,7.29132,15.0803,1.85976,1.91366,0.278513,0.00356006,-0.0782399,0.388591,2.3986,1.02015,0.467323,0.190703
2459521,0.98,-1.56966,-0.519208,0.0110873,-2.10561,0.00457844,1.58973,0.797766,-1.5692,-0.518668,0.0127189,-2.10527,0.00656965,1.59214,0.799352,0.0343076,0.11524,0.326288,-0.280558,0.175587,0.541065,0.3535,0.0465953,0.143622,0.370681,-0.316751,0.175143,0.568223,0.371456,4.6396,-1.04068,7.23975,15.1041,1.89363,1.85507,0.291331,-0.00441751,-0.0683619,0.381274,2.39179,1.02218,0.472869,0.195004
2459522,0.98,-1.56962,-0.519084,0.0114335,-2.10591,0.00476505,1.5903,0.798138,-1.56915,-0.518522,0.0130955,-2.10559,0.00674706,1.59271,0.799729,0.0358663,0.120293,0.33099,-0.28594,0.17768,0.551234,0.359679,0.0473416,0.145947,0.376639,-0.321861,0.177412,0.575573,0.37626,4.6158,-0.989105,7.3667,15.1279,1.88265,1.87521,0.284922,-0.0152809,-0.048061,0.369926,2.37899,1.0237,0.477784,0.19924
2459523,0.98,-1.56958,-0.518943,0.0117941,-2.10621,0.00494509,1.59087,0.798513,-1.5691,-0.518374,0.0134781,-2.10591,0.00692675,1.5933,0.80011,0.0367892,0.124291,0.337835,-0.287799,0.175597,0.557573,0.359377,0.0480879,0.148272,0.382598,-0.326971,0.179681,0.582923,0.381064,4.59199,-1.08829,7.31513,15.0525,1.88265,1.92007,0.272104,-0.0262777,-0.024222,0.35879,2.36281,1.02497,0.482075,0.203328
2459524,0.98,-1.56954,-0.518807,0.0121581,-2.1065,0.00512852,1.59146,0.798896,-1.56905,-0.518223,0.0138667,-2.10625,0.0071087,1.59389,0.800496,0.0357248,0.129915,0.345049,-0.288458,0.177674,0.564005,0.362825,0.0488342,0.150597,0.388557,-0.332081,0.18195,0.590273,0.385869,4.6396,-1.16763,7.31513,14.9295,1.89363,1.90725,0.297739,-0.0361289,-0.00185646,0.349575,2.34429,1.0261,0.485713,0.207234
2459525,0.98,-1.5695,-0.518671,0.0125228,-2.10681,0.00531029,1.59205,0.79928,-1.569,-0.51807,0.0142612,-2.10658,0.00729291,1.59449,0.800886,0.0434857,0.12984,0.346383,-0.293757,0.180041,0.570904,0.36627,0.0495805,0.152923,0.394515,-0.337191,0.184218,0.597624,0.390673,4.59199,-1.21524,7.33893,14.9057,1.90462,1.86148,0.304148,-0.0444374,0.0192775,0.343188,2.32264,1.02714,0.48868,0.210936
2459526,0.98,-1.56946,-0.518533,0.0128975,-2.10713,0.00550213,1.59265,0.799662,-1.56895,-0.517915,0.0146617,-2.10693,0.0074794,1.59509,0.801282,0.040261,0.130999,0.355022,-0.299789,0.184279,0.578398,0.372339,0.0503268,0.155248,0.400474,-0.342301,0.186487,0.604974,0.395477,4.66737,-1.19144,7.29132,14.8819,1.84877,1.86148,0.316965,-0.0511708,0.0429093,0.340238,2.29758,1.0281,0.491124,0.214437
2459527,0.98,-1.56942,-0.518404,0.0132843,-2.10744,0.00570275,1.59326,0.800064,-1.5689,-0.517757,0.0150681,-2.10727,0.00766816,1.5957,0.801682,0.0429197,0.130344,0.362604,-0.305489,0.190483,0.584064,0.381582,0.0510731,0.157573,0.406433,-0.347411,0.188756,0.612324,0.400281,4.66737,-1.08829,7.33893,14.8304,1.83687,1.86148,0.323374,-0.0569554,0.0728151,0.339268,2.2695,1.02896,0.493221,0.217759
2459528,0.98,-1.56938,-0.518262,0.0136605,-2.10777,0.00590458,1.59387,0.800478,-1.56885,-0.517598,0.0154805,-2.10763,0.00785918,1.59632,0.802087,0.0431832,0.135031,0.367791,-0.310607,0.195991,0.599852,0.389027,0.0518194,0.159898,0.412391,-0.352521,0.191024,0.619674,0.405085,4.71498,-1.06448,7.41431,14.8304,1.7975,1.81661,0.252878,-0.0625676,0.1088,0.338531,2.2393,1.02967,0.495037,0.220936
2459529,0.98,-1.56934,-0.518115,0.0140561,-2.10809,0.00610463,1.5945,0.800878,-1.5688,-0.517435,0.0158988,-2.10798,0.00805247,1.59695,0.802497,0.0429965,0.139849,0.372473,-0.314673,0.198101,0.605731,0.389312,0.0525657,0.162223,0.41835,-0.357631,0.193293,0.627024,0.409889,4.79036,-1.08829,7.41431,14.6796,1.7975,1.76535,0.291331,-0.0666324,0.144554,0.339942,2.20932,1.03025,0.496618,0.223971
2459530,0.98,-1.5693,-0.51797,0.0144347,-2.10843,0.00629918,1.59513,0.801285,-1.56874,-0.517271,0.0163231,-2.10835,0.00824804,1.59758,0.802912,0.0400228,0.143564,0.380744,-0.322598,0.194495,0.611446,0.397009,0.053312,0.164548,0.424309,-0.362741,0.195562,0.634374,0.414693,4.8697,-1.11606,7.54126,14.632,1.82588,1.72689,0.36915,-0.0668644,0.172548,0.346311,2.18311,1.03084,0.498191,0.226846
2459531,0.98,-1.56924,-0.517823,0.0148378,-2.10876,0.00650246,1.59575,0.801692,-1.56869,-0.517104,0.0167534,-2.10871,0.00844577,1.59823,0.803331,0.0447903,0.145183,0.390716,-0.332041,0.189298,0.610719,0.394987,0.0540486,0.166867,0.430209,-0.367818,0.197734,0.641423,0.4193,4.79036,-1.11606,7.64441,14.5328,1.7975,1.81661,0.394785,-0.0647819,0.189356,0.354765,2.16444,1.0315,0.50019,0.22963
2459532,0.98,-1.5692,-0.51767,0.0152512,-2.1091,0.00670781,1.59639,0.802113,-1.56864,-0.516935,0.0171895,-2.10909,0.00864568,1.59887,0.803755,0.0411039,0.147951,0.397286,-0.336039,0.194169,0.614046,0.398861,0.0547853,0.169185,0.436109,-0.372895,0.199906,0.648472,0.423908,4.8697,-1.16763,7.62061,14.4574,1.78652,1.92007,0.394785,-0.0633892,0.196414,0.360839,2.15421,1.03217,0.50287,0.232471
2459533,0.98,-1.56916,-0.517516,0.0156562,-2.10944,0.00691079,1.59703,0.802552,-1.56858,-0.516763,0.0176315,-2.10947,0.00884775,1.59953,0.804183,0.0412778,0.149296,0.399965,-0.338281,0.197528,0.625892,0.412528,0.0555219,0.171503,0.44201,-0.377972,0.202078,0.65552,0.428515,4.96888,-1.19144,7.71979,14.3821,1.78011,1.93289,0.356333,-0.0607091,0.199797,0.367771,2.14752,1.03279,0.505878,0.235441
2459534,0.98,-1.56912,-0.517352,0.0160759,-2.1098,0.00711815,1.5977,0.80298,-1.56852,-0.516589,0.0180794,-2.10985,0.009052,1.60019,0.804616,0.0409033,0.151969,0.403217,-0.344398,0.19821,0.636748,0.414359,0.0562586,0.173822,0.44791,-0.383049,0.20425,0.662569,0.433123,5.09584,-1.29062,7.64441,14.4812,1.8149,1.82943,0.343516,-0.0524343,0.205283,0.382458,2.13866,1.03337,0.508702,0.238521
2459535,0.98,-1.56908,-0.517193,0.0164916,-2.11016,0.00733168,1.59837,0.803415,-1.56847,-0.516413,0.0185332,-2.11024,0.00925843,1.60086,0.805054,0.0425205,0.15215,0.41512,-0.34737,0.206048,0.660072,0.417262,0.0569952,0.17614,0.45381,-0.388126,0.206423,0.669618,0.43773,5.14344,-1.31839,7.69599,14.5566,1.76363,1.73971,0.349924,-0.0392518,0.2164,0.404116,2.12447,1.03387,0.510953,0.241663
2459536,0.98,-1.56902,-0.517034,0.0169205,-2.11053,0.00753522,1.59904,0.803851,-1.56841,-0.516235,0.0189929,-2.11063,0.00946702,1.60154,0.805497,0.0471602,0.153656,0.418774,-0.349513,0.20518,0.662044,0.412082,0.0577318,0.178459,0.459711,-0.393203,0.208595,0.676666,0.442338,5.04426,-1.29062,7.64441,14.6082,1.79201,1.81021,0.381968,-0.0260538,0.237629,0.425565,2.10181,1.03404,0.512144,0.244837
2459537,0.99,-1.56897,-0.516868,0.0173445,-2.1109,0.00774219,1.59973,0.804293,-1.56835,-0.516054,0.0194585,-2.11103,0.00967779,1.60222,0.805943,0.0466291,0.158846,0.412816,-0.35861,0.204766,0.665198,0.423927,0.0584685,0.180777,0.465611,-0.39828,0.210767,0.683715,0.446945,4.96888,-1.31839,7.71979,14.7074,1.8149,1.82302,0.394785,-0.0110974,0.26618,0.450034,2.07274,1.03398,0.512475,0.248025
2459538,0.99,-1.56893,-0.516697,0.0177674,-2.11128,0.00794192,1.60041,0.804753,-1.56829,-0.515871,0.01993,-2.11143,0.00989073,1.60291,0.806395,0.0457925,0.165529,0.415838,-0.362669,0.202959,0.66931,0.431663,0.0592051,0.183095,0.471511,-0.403357,0.212939,0.690764,0.451553,5.04426,-1.41757,7.77137,14.7312,1.88265,1.81021,0.343516,0.01359,0.289018,0.489753,2.04563,1.0342,0.512851,0.251216
2459539,0.99,-1.56889,-0.516527,0.0182106,-2.11167,0.00815995,1.60111,0.805212,-1.56823,-0.515686,0.0204074,-2.11184,0.0101058,1.60361,0.806851,0.0441482,0.164109,0.420018,-0.369044,0.204637,0.675557,0.438759,0.0599417,0.185414,0.477411,-0.408434,0.215111,0.697812,0.456161,5.17122,-1.39377,7.82294,14.8542,1.86525,1.8038,0.284922,0.0504251,0.300841,0.547918,2.0242,1.03497,0.51368,0.254403
2459540,0.99,-1.56884,-0.516354,0.0186573,-2.11206,0.00838594,1.60182,0.805674,-1.56817,-0.515498,0.0208908,-2.11225,0.0103231,1.60432,0.807312,0.0454883,0.165154,0.428491,-0.37624,0.215659,0.686935,0.442839,0.0606784,0.187732,0.483312,-0.413511,0.217283,0.704861,0.460768,5.19502,-1.44534,7.92212,14.9533,1.83138,1.77816,0.297739,0.0949211,0.309006,0.61731,2.00603,1.03616,0.51479,0.25752
2459541,0.99,-1.5688,-0.516182,0.0191072,-2.11246,0.0086139,1.60252,0.80614,-1.56811,-0.515308,0.0213799,-2.11267,0.0105425,1.60503,0.807777,0.0474801,0.170117,0.434529,-0.385326,0.216813,0.693344,0.45272,0.061398,0.190026,0.489099,-0.418512,0.219351,0.711589,0.465167,5.17122,-1.41757,7.94593,15.1041,1.74074,1.79098,0.226328,0.140602,0.315776,0.688091,1.9916,1.03751,0.516203,0.26048
2459542,0.99,-1.56874,-0.516002,0.0195711,-2.11285,0.00883472,1.60324,0.806605,-1.56805,-0.515115,0.0218747,-2.1131,0.0107639,1.60575,0.808247,0.0493626,0.171711,0.447338,-0.38966,0.215317,0.693985,0.45586,0.0621177,0.19232,0.494887,-0.423513,0.22142,0.718317,0.469566,5.11964,-1.41757,7.9737,15.1279,1.70137,1.78457,0.207102,0.181319,0.317214,0.751073,1.98378,1.03876,0.518147,0.263232
2459543,0.99,-1.5687,-0.515821,0.0200322,-2.11327,0.00905265,1.60395,0.80708,-1.56798,-0.514921,0.0223754,-2.11352,0.0109874,1.60647,0.808721,0.047631,0.176663,0.45041,-0.399169,0.217268,0.704097,0.462385,0.0628374,0.194614,0.500675,-0.428515,0.223488,0.725045,0.473965,5.19502,-1.44534,8.04908,15.2033,1.71236,1.79739,0.16865,0.214442,0.311716,0.802181,1.98362,1.03973,0.520698,0.265706
2459544,0.99,-1.56866,-0.515634,0.0205055,-2.11367,0.00927397,1.60466,0.807557,-1.56792,-0.514724,0.0228819,-2.11396,0.0112129,1.6072,0.809199,0.0454655,0.179228,0.451738,-0.398396,0.218525,0.703617,0.462693,0.0635571,0.196908,0.506462,-0.433516,0.225556,0.731773,0.478364,5.32197,-1.44534,8.07288,15.1517,1.72975,1.88162,0.162241,0.24487,0.29947,0.848685,1.98979,1.04046,0.523681,0.267778
2459545,0.99,-1.56861,-0.515446,0.0209847,-2.11409,0.00950061,1.60541,0.808032,-1.56786,-0.514525,0.0233941,-2.1144,0.0114406,1.60794,0.809682,0.0474874,0.182031,0.459556,-0.406728,0.219413,0.714106,0.463472,0.0642768,0.199202,0.51225,-0.438518,0.227624,0.738501,0.482763,5.29817,-1.46915,8.02527,15.0803,1.76912,1.83584,0.226328,0.277441,0.283854,0.898003,1.99869,1.04102,0.526758,0.269348
2459546,0.99,-1.56855,-0.515249,0.0214574,-2.11453,0.00972527,1.60612,0.808522,-1.56779,-0.514323,0.0239122,-2.11484,0.0116703,1.60869,0.810169,0.0517911,0.185982,0.457132,-0.414528,0.215588,0.717641,0.471456,0.0649965,0.201497,0.518038,-0.443519,0.229693,0.74523,0.487161,5.14344,-1.56833,8.07288,15.0803,1.79201,1.89443,0.187876,0.312113,0.265438,0.950667,2.01017,1.04145,0.530001,0.270419
2459547,0.99,-1.56849,-0.515058,0.0219532,-2.11497,0.0099474,1.60687,0.808998,-1.56773,-0.514119,0.024436,-2.11529,0.011902,1.60944,0.810661,0.0511801,0.189711,0.466836,-0.42235,0.217589,0.728717,0.472515,0.0657162,0.203791,0.523825,-0.448521,0.231761,0.751958,0.49156,5.14344,-1.56833,7.9737,15.1279,1.7975,1.79739,0.240061,0.348344,0.24057,1.00646,2.02714,1.04191,0.533748,0.271069
2459548,0.99,-1.56845,-0.514861,0.0224458,-2.11541,0.0101693,1.6076,0.809493,-1.56766,-0.513913,0.0249656,-2.11574,0.0121358,1.6102,0.811156,0.0528411,0.190736,0.481073,-0.424954,0.228025,0.734126,0.478983,0.0664359,0.206085,0.529613,-0.453522,0.233829,0.758686,0.495959,5.19502,-1.6199,7.92212,15.1041,1.79201,1.81021,0.226328,0.381332,0.211345,1.05791,2.04809,1.04226,0.537859,0.271396
2459549,0.99,-1.5684,-0.514659,0.0229416,-2.11586,0.010392,1.60835,0.809985,-1.56759,-0.513705,0.025501,-2.1162,0.0123717,1.61096,0.811657,0.0503669,0.191946,0.491983,-0.436095,0.221347,0.734853,0.474587,0.0671556,0.208379,0.535401,-0.458523,0.235898,0.765414,0.500358,5.2704,-1.72305,7.94593,15.0049,1.83138,1.79098,0.240061,0.404443,0.183944,1.09422,2.0699,1.04221,0.54209,0.271524
2459550,0.99,-1.56834,-0.514461,0.0234504,-2.11631,0.0106301,1.60911,0.810484,-1.56752,-0.513494,0.0260422,-2.11666,0.0126097,1.61173,0.812162,0.0545499,0.195185,0.494248,-0.440275,0.22916,0.739794,0.475129,0.0678753,0.210673,0.541188,-0.463525,0.237966,0.772142,0.504757,5.22279,-1.77066,7.94593,15.0049,1.80849,1.78457,0.252878,0.417783,0.15983,1.11512,2.09271,1.04186,0.546545,0.27155
2459551,0.99,-1.56828,-0.514263,0.0239573,-2.11677,0.0108683,1.60987,0.81099,-1.56746,-0.513281,0.026589,-2.11713,0.0128496,1.61251,0.812671,0.053373,0.199104,0.492353,-0.442642,0.229549,0.749476,0.481179,0.0685723,0.212929,0.54682,-0.468417,0.239926,0.778538,0.50894,5.22279,-1.74686,7.9975,15.0049,1.78011,1.73971,0.24647,0.428282,0.138035,1.13166,2.11508,1.04149,0.550992,0.2715
2459552,0.99,-1.56822,-0.514052,0.0244797,-2.11723,0.0111083,1.61064,0.811502,-1.56739,-0.513066,0.0271415,-2.11761,0.0130915,1.6133,0.813184,0.0563678,0.203141,0.499959,-0.446556,0.233539,0.748735,0.488786,0.0692693,0.215185,0.552452,-0.473308,0.241885,0.784934,0.513123,5.19502,-1.77066,8.04908,14.9295,1.76363,1.74612,0.175059,0.442027,0.118117,1.15363,2.13406,1.04125,0.554964,0.271379
2459553,0.99,-1.56816,-0.513841,0.0250095,-2.11769,0.0113539,1.61142,0.811999,-1.56732,-0.512849,0.0276995,-2.11808,0.0133354,1.61409,0.813701,0.0546796,0.204985,0.519154,-0.451449,0.245304,0.770137,0.493538,0.0699663,0.217441,0.558084,-0.4782,0.243845,0.791329,0.517305,5.19502,-1.87381,7.94593,14.8304,1.73525,1.70126,0.200693,0.454908,0.100557,1.1746,2.14838,1.04087,0.558191,0.271201
2459554,0.99,-1.56811,-0.513631,0.0255539,-2.11816,0.0115956,1.6122,0.812515,-1.56725,-0.512629,0.0282633,-2.11857,0.0135812,1.61489,0.814222,0.0538666,0.203873,0.520756,-0.456226,0.246429,0.77801,0.505238,0.0706633,0.219697,0.563716,-0.483092,0.245805,0.797725,0.521488,5.32197,-1.89761,7.77137,14.7312,1.69588,1.63626,0.135691,0.461262,0.0904319,1.18538,2.15567,1.04002,0.56029,0.270926
2459555,0.99,-1.56804,-0.513418,0.0260918,-2.11863,0.0118429,1.613,0.813028,-1.56717,-0.512407,0.0288326,-2.11905,0.0138289,1.61569,0.814748,0.0596721,0.208718,0.527676,-0.462535,0.246047,0.783057,0.502665,0.0713603,0.221953,0.569347,-0.487984,0.247764,0.804121,0.525671,5.17122,-2.00076,7.79517,14.755,1.70687,1.56576,0.122873,0.462911,0.0903285,1.18876,2.15533,1.03876,0.561181,0.270489
2459556,0.99,-1.56798,-0.513201,0.0266348,-2.11911,0.0120888,1.6138,0.81355,-1.5671,-0.512183,0.0294076,-2.11955,0.0140787,1.6165,0.815278,0.0629521,0.211441,0.540018,-0.460248,0.244634,0.790874,0.509713,0.0720573,0.224209,0.574979,-0.492875,0.249724,0.810517,0.529854,5.04426,-2.07614,7.71979,14.6558,1.73525,1.39822,0.122873,0.459139,0.0972936,1.18432,2.14847,1.03702,0.560922,0.269857
2459557,0.99,-1.56791,-0.512981,0.0271858,-2.11959,0.0123347,1.6146,0.814073,-1.56703,-0.511956,0.0299882,-2.12005,0.0143303,1.61732,0.815812,0.0630701,0.211237,0.537863,-0.465391,0.244558,0.794017,0.516166,0.0727542,0.226465,0.580611,-0.497767,0.251684,0.816913,0.534037,5.02046,-2.20309,7.64441,14.6796,1.73525,1.39822,0.0322363,0.449715,0.112561,1.17208,2.13306,1.03476,0.55916,0.268983
2459558,0.99,-1.56785,-0.512759,0.0277559,-2.12007,0.0125855,1.6154,0.814593,-1.56696,-0.511728,0.0305744,-2.12055,0.014584,1.61814,0.81635,0.0622919,0.217524,0.549921,-0.469273,0.249266,0.794636,0.522547,0.0734512,0.22872,0.586243,-0.502659,0.253643,0.823308,0.538219,5.04426,-2.33005,7.51746,14.5566,1.74074,1.48794,0.110056,0.439659,0.135111,1.1594,2.11003,1.03222,0.555892,0.267781
2459559,0.99,-1.56779,-0.512532,0.0283194,-2.12055,0.0128272,1.61619,0.815117,-1.56688,-0.511497,0.0311663,-2.12106,0.0148396,1.61897,0.816893,0.0623231,0.221303,0.557801,-0.472341,0.246349,0.796752,0.524594,0.0741482,0.230976,0.591875,-0.507551,0.255603,0.829704,0.542402,5.04426,-2.42923,7.46588,14.4574,1.78652,1.64907,0.175059,0.430047,0.156679,1.14712,2.08451,1.02957,0.551617,0.266213
2459560,0.99,-1.56772,-0.512303,0.0288953,-2.12103,0.0130859,1.617,0.815652,-1.56681,-0.511264,0.0317638,-2.12157,0.0150971,1.61981,0.817439,0.0647425,0.222042,0.556573,-0.477372,0.250515,0.795264,0.524241,0.0748452,0.233232,0.597506,-0.512442,0.257563,0.8361,0.546585,5.06807,-2.42923,7.41431,14.4574,1.78011,1.73971,0.233652,0.421634,0.173946,1.13611,2.05873,1.02695,0.546803,0.264346
2459561,0.99,-1.56766,-0.512076,0.0294674,-2.12153,0.0133495,1.61783,0.816181,-1.56673,-0.511028,0.0323668,-2.12208,0.0153566,1.62065,0.81799,0.0635596,0.2234,0.565296,-0.481473,0.256608,0.807153,0.520582,0.075515,0.235439,0.602948,-0.517197,0.259411,0.842157,0.550547,5.09584,-2.45303,7.41431,14.5328,1.70687,1.67471,0.36915,0.417612,0.190529,1.13142,2.03161,1.02455,0.541794,0.262325
2459562,0.99,-1.56758,-0.511843,0.0300424,-2.12203,0.0136097,1.61866,0.816722,-1.56666,-0.51079,0.0329752,-2.12261,0.0156178,1.6215,0.818544,0.0683754,0.22402,0.56057,-0.483707,0.254494,0.813844,0.521484,0.0761847,0.237645,0.608389,-0.521951,0.261259,0.848213,0.55451,5.02046,-2.4808,7.49366,14.6558,1.68398,1.63626,0.330698,0.419846,0.211244,1.1361,2.00061,1.02243,0.536604,0.260368
2459563,0.99,-1.56752,-0.511609,0.0306352,-2.12253,0.0138807,1.61951,0.817277,-1.56658,-0.510551,0.033589,-2.12313,0.0158809,1.62235,0.819103,0.0676164,0.228165,0.567575,-0.48871,0.261632,0.820311,0.529507,0.0768545,0.239851,0.613831,-0.526705,0.263107,0.854269,0.558472,5.11964,-2.50461,7.39051,14.6796,1.59975,1.56576,0.278513,0.429829,0.237034,1.15283,1.96487,1.02057,0.531179,0.258706
2459564,0.99,-1.56745,-0.511371,0.0312207,-2.12304,0.0141374,1.62034,0.817831,-1.5665,-0.510309,0.0342083,-2.12367,0.0161459,1.62321,0.819665,0.0648364,0.232069,0.572691,-0.497674,0.260768,0.825289,0.539076,0.0775242,0.242057,0.619272,-0.53146,0.264955,0.860326,0.562434,5.19502,-2.55618,7.41431,14.8066,1.62813,1.61703,0.252878,0.447343,0.260963,1.18074,1.92925,1.01893,0.52592,0.257456
2459565,0.99,-1.56738,-0.511125,0.0318134,-2.12356,0.0143942,1.6212,0.818383,-1.56642,-0.510064,0.034833,-2.1242,0.0164127,1.62408,0.820232,0.0680055,0.235267,0.574958,-0.503611,0.261415,0.830715,0.547762,0.078194,0.244264,0.624713,-0.536214,0.266803,0.866382,0.566396,5.17122,-2.63156,7.46588,14.8819,1.73525,1.58499,0.213511,0.47134,0.275082,1.21727,1.90009,1.01746,0.521355,0.256596
2459566,0.99,-1.56731,-0.510886,0.0324058,-2.12408,0.0146571,1.62205,0.818933,-1.56634,-0.509818,0.0354631,-2.12474,0.0166813,1.62495,0.820802,0.0662662,0.236666,0.594861,-0.504091,0.269325,0.839661,0.546571,0.0788637,0.24647,0.630155,-0.540969,0.268651,0.872439,0.570359,5.19502,-2.65536,7.44208,14.9811,1.75813,1.46231,0.24647,0.496665,0.280946,1.25441,1.87686,1.01591,0.517353,0.256044
2459567,0.99,-1.56725,-0.510642,0.0330192,-2.12461,0.0149226,1.62291,0.819489,-1.56626,-0.509569,0.0360987,-2.12529,0.0169518,1.62583,0.821376,0.0686753,0.235956,0.599226,-0.512902,0.268499,0.838783,0.543384,0.0795335,0.248676,0.635596,-0.545723,0.2705,0.878495,0.574321,5.19502,-2.63156,7.3667,15.1279,1.74623,1.53372,0.240061,0.515272,0.286737,1.27988,1.85528,1.01402,0.513445,0.255735
2459568,0.99,-1.56717,-0.510398,0.0336489,-2.12514,0.0151902,1.62377,0.82006,-1.56618,-0.509318,0.0367398,-2.12584,0.0172242,1.62671,0.821955,0.072386,0.244577,0.608944,-0.518262,0.269217,0.845647,0.548989,0.0802033,0.250883,0.641037,-0.550477,0.272348,0.884552,0.578283,5.09584,-2.63156,7.26355,15.2271,1.74074,1.66189,0.213511,0.524565,0.291755,1.29012,1.83704,1.01187,0.50974,0.255634
2459569,0.99,-1.56709,-0.510151,0.034276,-2.12568,0.015455,1.62463,0.820648,-1.5661,-0.509065,0.0373862,-2.12639,0.0174984,1.6276,0.822537,0.0736799,0.243747,0.620721,-0.523062,0.272853,0.857665,0.557022,0.080873,0.253089,0.646479,-0.555232,0.274196,0.890608,0.582246,5.06807,-2.65536,7.1128,15.2509,1.74074,1.64266,0.110056,0.523682,0.290468,1.28434,1.82521,1.00955,0.506421,0.255702
2459570,0.99,-1.56702,-0.509897,0.0349197,-2.12622,0.0157406,1.62551,0.82123,-1.56602,-0.50881,0.0380382,-2.12695,0.0177744,1.6285,0.823123,0.0745954,0.246732,0.619308,-0.528576,0.276624,0.85333,0.556774,0.0815428,0.255295,0.65192,-0.559986,0.276044,0.896665,0.586208,5.04426,-2.70694,6.91046,15.3263,1.69039,1.65548,0.0194189,0.514587,0.285766,1.26572,1.81795,1.00713,0.503406,0.255806
2459571,0.99,-1.56694,-0.509647,0.0355518,-2.12678,0.0160236,1.62639,0.821821,-1.56594,-0.508552,0.0386953,-2.12752,0.0180522,1.6294,0.823713,0.0776982,0.246543,0.63619,-0.536369,0.281243,0.871176,0.562078,0.0821817,0.257442,0.657143,-0.56458,0.277779,0.902377,0.589947,4.91731,-2.78232,6.78351,15.4532,1.62264,1.75253,0.0194189,0.500703,0.281972,1.23955,1.81364,1.00468,0.500751,0.25572
2459572,0.99,-1.56685,-0.509389,0.0361971,-2.12734,0.0162944,1.62726,0.822411,-1.56586,-0.508293,0.0393577,-2.12809,0.0183317,1.63031,0.824307,0.0807333,0.245621,0.638112,-0.538733,0.276614,0.87145,0.568525,0.0828207,0.259588,0.662367,-0.569174,0.279513,0.90809,0.593686,4.74275,-2.8577,6.68036,15.5246,1.62264,1.86148,0.0459692,0.480856,0.28426,1.20419,1.80992,1.00206,0.498313,0.25523
2459573,0.99,-1.56676,-0.509126,0.0368618,-2.12791,0.0165708,1.62816,0.823011,-1.56577,-0.508031,0.0400253,-2.12866,0.018613,1.63123,0.824904,0.081165,0.252393,0.643784,-0.546735,0.273632,0.886592,0.577728,0.0834597,0.261735,0.66759,-0.573768,0.281248,0.913803,0.597425,4.6396,-2.96085,6.55341,15.727,1.64461,1.8038,0.103647,0.45728,0.293449,1.16315,1.80563,0.999268,0.496058,0.254212
2459574,0.99,-1.56668,-0.508866,0.0375257,-2.12849,0.0168479,1.62906,0.823614,-1.56569,-0.507767,0.0406981,-2.12924,0.0188959,1.63215,0.825505,0.0824653,0.253667,0.650743,-0.552718,0.274447,0.889871,0.57707,0.0840987,0.263882,0.672813,-0.578362,0.282983,0.919516,0.601164,4.6158,-3.03622,6.40265,15.8738,1.68398,1.71408,0.149424,0.434305,0.301201,1.12285,1.80455,0.996508,0.494416,0.252682
2459575,0.99,-1.5666,-0.508603,0.0382035,-2.12907,0.0171284,1.62997,0.824204,-1.5656,-0.507501,0.0413761,-2.12982,0.0191807,1.63307,0.82611,0.0840565,0.253554,0.653805,-0.560091,0.275655,0.894191,0.581127,0.0847377,0.266028,0.678036,-0.582956,0.284718,0.925229,0.604903,4.59199,-3.0878,6.25189,15.9491,1.70137,1.8038,0.259287,0.413381,0.305337,1.08548,1.80855,0.993871,0.493648,0.250771
2459576,0.99,-1.56651,-0.50834,0.0388806,-2.12966,0.0174098,1.63088,0.824808,-1.56552,-0.507233,0.0420594,-2.13041,0.0194671,1.634,0.826719,0.0871261,0.26217,0.657387,-0.569846,0.28028,0.894579,0.584059,0.0853767,0.268175,0.683259,-0.58755,0.286452,0.930941,0.608642,4.48884,-3.21475,6.14875,16.0999,1.68398,1.8688,0.36915,0.396069,0.303185,1.05361,1.82012,0.991479,0.494057,0.248686
2459577,0.99,-1.56642,-0.508071,0.0395559,-2.13026,0.0176959,1.63179,0.825418,-1.56543,-0.506963,0.0427479,-2.131,0.0197553,1.63494,0.827331,0.0893417,0.261285,0.662118,-0.576959,0.282375,0.902278,0.588539,0.0860157,0.270322,0.688483,-0.592144,0.288187,0.936654,0.612381,4.38966,-3.31393,6.02179,16.2229,1.64461,1.8688,0.407602,0.382942,0.287757,1.02822,1.84344,0.989446,0.496068,0.24672
2459578,0.99,-1.56633,-0.507801,0.0402379,-2.13085,0.0179866,1.63273,0.826019,-1.56535,-0.50669,0.0434416,-2.1316,0.0200452,1.63588,0.827947,0.0900056,0.262778,0.664259,-0.584821,0.286804,0.909444,0.593619,0.0866546,0.272468,0.693706,-0.596738,0.289922,0.942367,0.61612,4.31428,-3.36551,6.14875,16.2983,1.62813,1.79098,0.434153,0.374082,0.26279,1.00952,1.87653,0.987749,0.49952,0.245166
2459579,0.99,-1.56625,-0.507538,0.0409343,-2.13146,0.0182848,1.63366,0.826632,-1.56526,-0.506416,0.0441405,-2.1322,0.0203369,1.63683,0.828567,0.0874132,0.265367,0.680871,-0.586925,0.2914,0.912304,0.595316,0.0872936,0.274615,0.698929,-0.601331,0.291656,0.94808,0.619859,4.38966,-3.33774,6.12494,16.2705,1.59426,1.81021,0.414011,0.367714,0.235921,0.994449,1.91426,0.986188,0.503856,0.244252
2459580,0.99,-1.56617,-0.507255,0.0416405,-2.13205,0.0185911,1.63459,0.827248,-1.56517,-0.506139,0.0448446,-2.13281,0.0206303,1.63778,0.829191,0.0850527,0.267187,0.683349,-0.599773,0.292326,0.918187,0.587811,0.0879326,0.276762,0.704152,-0.605925,0.293391,0.953793,0.623598,4.48884,-3.46469,6.10114,16.1713,1.50362,1.86148,0.330698,0.3611,0.208606,0.977995,1.95506,0.98459,0.508804,0.244113
2459581,0.99,-1.56609,-0.506973,0.0423518,-2.13265,0.0188987,1.63553,0.827872,-1.56508,-0.50586,0.0455538,-2.13342,0.0209253,1.63874,0.829818,0.0820604,0.271698,0.690465,-0.596877,0.29927,0.923863,0.595795,0.0885381,0.27884,0.709135,-0.610339,0.295012,0.959159,0.627112,4.51265,-3.56784,6.02179,16.0245,1.43587,1.98416,0.272104,0.356341,0.179827,0.962698,1.99837,0.982936,0.514203,0.244715
2459582,0.99,-1.566,-0.506689,0.0430532,-2.13326,0.0192039,1.63646,0.828497,-1.56499,-0.505579,0.0462679,-2.13403,0.0212219,1.63971,0.830448,0.086018,0.278297,0.694067,-0.595219,0.300511,0.923079,0.604353,0.0891436,0.280917,0.714117,-0.614753,0.296632,0.964526,0.630627,4.41346,-3.66702,5.99799,15.7746,1.40199,2.04183,0.175059,0.355616,0.150206,0.952125,2.03908,0.980976,0.519481,0.245854
2459583,0.99,-1.5659,-0.506407,0.0437651,-2.13387,0.0195071,1.63743,0.82912,-1.5649,-0.505296,0.046987,-2.13465,0.0215202,1.64068,0.831083,0.0876612,0.278197,0.693242,-0.59862,0.292303,0.933001,0.611534,0.0897491,0.282995,0.7191,-0.619166,0.298253,0.969892,0.634141,4.33809,-3.69479,5.94641,15.6754,1.47524,2.00338,0.0972387,0.359286,0.122505,0.94796,2.07165,0.978426,0.524181,0.247254
2459584,0.99,-1.56582,-0.506129,0.0444663,-2.13448,0.0198027,1.6384,0.829755,-1.56481,-0.505011,0.0477111,-2.13527,0.02182,1.64165,0.83172,0.0848033,0.278118,0.705989,-0.601265,0.296538,0.969681,0.613959,0.0903546,0.285073,0.724082,-0.62358,0.299873,0.975259,0.637655,4.43727,-3.7186,5.99799,15.5008,1.50362,1.82302,0.0194189,0.367217,0.103881,0.950558,2.0918,0.975269,0.52785,0.248592
