shamilmamedov/beam_handling/data/param_estimation_ICRA/ocp_Xup_35cm_0.57s_2.csv
duration, success rate, q[0], q[1], q[2], q[3], q[4], q[5], q[6],q_d[0], q_d[1], q_d[2], q_d[3], q_d[4], q_d[5], q_d[6],dq[0], dq[1], dq[2], dq[3], dq[4], dq[5], dq[6],dq_d[0], dq_d[1], dq_d[2], dq_d[3], dq_d[4], dq_d[5], dq_d[6],tau_J[0], tau_J[1], tau_J[2], tau_J[3], tau_J[4], tau_J[5], tau_J[6],tau_ext_hat_filtered[0], tau_ext_hat_filtered[1], tau_ext_hat_filtered[2], tau_ext_hat_filtered[3], tau_ext_hat_filtered[4], tau_ext_hat_filtered[5], tau_ext_hat_filtered[6]
4975565,0,-1.57037,-0.522867,0.000129878,-2.09583,1.57082,1.5717,0.785063,-1.5708,-0.523599,6.97311e-08,-2.0944,1.5708,1.5708,0.785397,-0.000248058,-0.000869139,-0.000491944,0.000292333,0.000233904,0.000112711,0.000993026,0,0,0,0,0,0,0,-0.430592,-10.1139,-0.484555,20.821,0.706194,-0.681859,0.0844213,-0.433395,-1.01573,-0.093585,2.30665,0.144786,-0.679034,0.151043
4975566,1,-1.57037,-0.522863,0.000129878,-2.09583,1.57082,1.5717,0.78506,-1.5708,-0.523599,6.97311e-08,-2.0944,1.5708,1.5708,0.785397,-0.000165372,0.000627,-0.000327963,-0.000361923,0.000359387,7.51407e-05,-0.000287418,0,0,0,0,0,0,0,-0.430592,-10.1654,-0.484555,20.8448,0.700701,-0.681859,0.110056,-0.43275,-1.01382,-0.0926504,2.3057,0.144804,-0.679117,0.151024
4975567,1,-1.57037,-0.522865,0.000131548,-2.09583,1.57082,1.5717,0.785064,-1.5708,-0.523599,6.97311e-08,-2.0944,1.5708,1.5708,0.785397,0.000446564,-0.000231614,0.00033817,-0.000241282,-0.000608119,5.00938e-05,0.00123254,0,0,0,0,0,0,0,-0.454395,-10.1377,-0.508359,20.8448,0.723589,-0.681859,0.071604,-0.432231,-1.01299,-0.0918829,2.30534,0.144837,-0.679194,0.15101
4975568,1,-1.57037,-0.522865,0.000131548,-2.09583,1.57082,1.5717,0.785059,-1.5708,-0.523599,6.97311e-08,-2.0944,1.5708,1.5708,0.785397,-0.000259103,-0.000154409,0.000225447,0.000952769,0.000645748,3.33959e-05,-0.00107718,0,0,0,0,0,0,0,-0.430592,-10.1377,-0.508359,20.7972,0.695207,-0.681859,0.122873,-0.432363,-1.01241,-0.0920956,2.305,0.144884,-0.679181,0.150985
4975569,1,-1.57037,-0.522865,0.000129878,-2.09583,1.57082,1.5717,0.78506,-1.5708,-0.523599,6.97311e-08,-2.0944,1.5708,1.5708,0.785397,-0.000172735,-0.00010294,-0.000406514,7.83675e-05,0.000430499,2.22639e-05,-0.0002434,0,0,0,0,0,0,0,-0.430592,-10.1377,-0.484555,20.821,0.695207,-0.681859,0.110056,-0.432647,-1.0109,-0.0925406,2.30387,0.144899,-0.679141,0.150941
4975570,1,-1.57037,-0.522863,0.000129878,-2.09583,1.57082,1.5717,0.785059,-1.5708,-0.523599,6.97311e-08,-2.0944,1.5708,1.5708,0.785397,-0.000115157,0.000580988,-0.000271009,5.2245e-05,-0.000119902,-0.000459875,-0.000399626,0,0,0,0,0,0,0,-0.430592,-10.1654,-0.484555,20.821,0.706194,-0.669042,0.116465,-0.432549,-1.00988,-0.0923903,2.30284,0.144881,-0.679164,0.150891
4975571,1,-1.57037,-0.522863,0.000131548,-2.09583,1.57082,1.5717,0.785063,-1.5708,-0.523599,6.97311e-08,-2.0944,1.5708,1.5708,0.785397,0.000480041,0.000387325,0.000376139,3.483e-05,-0.000283385,0.000405493,0.000920377,0,0,0,0,0,0,0,-0.454395,-10.1654,-0.508359,20.821,0.711687,-0.688268,0.0844213,-0.43251,-1.01053,-0.0923002,2.30268,0.144868,-0.679195,0.150858
4975572,1,-1.57037,-0.522863,0.000129878,-2.09583,1.57082,1.5717,0.785064,-1.5708,-0.523599,6.97311e-08,-2.0944,1.5708,1.5708,0.785397,-0.000236785,0.000258217,-0.000306053,-0.000533592,-0.000629733,-0.000204389,0.0010883,0,0,0,0,0,0,0,-0.430592,-10.1654,-0.484555,20.8448,0.723589,-0.67545,0.071604,-0.432828,-1.01244,-0.0927403,2.30329,0.144876,-0.679185,0.15084
4975573,1,-1.57036,-0.522863,0.000131548,-2.09583,1.57082,1.5717,0.785058,-1.5708,-0.523599,6.97311e-08,-2.0944,1.5708,1.5708,0.785397,0.000955767,0.000172144,0.000352777,0.000201084,0.000224438,0.000338459,-0.0014107,0,0,0,0,0,0,0,-0.478199,-10.1654,-0.508359,20.821,0.706194,-0.688268,0.129282,-0.433396,-1.01466,-0.0935182,2.3042,0.144905,-0.67914,0.150806
4975574,1,-1.57037,-0.522867,0.000129878,-2.09583,1.57082,1.5717,0.785063,-1.5708,-0.523599,6.97311e-08,-2.0944,1.5708,1.5708,0.785397,-0.000476446,-0.00109166,-0.000321627,-0.000422756,0.000149625,-1.17199e-05,0.000721049,0,0,0,0,0,0,0,-0.430592,-10.1139,-0.484555,20.8448,0.706194,-0.681859,0.0844213,-0.434131,-1.01556,-0.0944706,2.30454,0.14493,-0.679057,0.150742
4975575,1,-1.57037,-0.522863,0.000129878,-2.09583,1.57082,1.5717,0.785059,-1.5708,-0.523599,6.97311e-08,-2.0944,1.5708,1.5708,0.785397,-0.00031763,0.000478651,-0.000214418,0.000831787,-0.0001037,0.000229546,-0.000706095,0,0,0,0,0,0,0,-0.430592,-10.1654,-0.484555,20.7972,0.711687,-0.688268,0.116465,-0.434431,-1.01458,-0.0947439,2.30389,0.144914,-0.679026,0.150665
4975576,1,-1.57037,-0.522867,0.000129878,-2.09583,1.57081,1.5717,0.785059,-1.5708,-0.523599,6.97311e-08,-2.0944,1.5708,1.5708,0.785397,-0.000861368,-0.000887325,-0.000142945,-2.28755e-06,-6.91335e-05,-0.000321687,-0.00047073,0,0,0,0,0,0,0,-0.402821,-10.1139,-0.484555,20.821,0.711687,-0.67545,0.116465,-0.434011,-1.0127,-0.0939795,2.30256,0.144854,-0.679102,0.150587
4975577,1,-1.57037,-0.522863,0.000131548,-2.09583,1.57082,1.5717,0.785065,-1.5708,-0.523599,6.97311e-08,-2.0944,1.5708,1.5708,0.785397,7.53689e-05,0.000614876,0.000461515,-0.000558337,-4.6089e-05,0.00026026,0.00158505,0,0,0,0,0,0,0,-0.430592,-10.1654,-0.508359,20.8448,0.711687,-0.688268,0.0651953,-0.433459,-1.01104,-0.0931073,2.30136,0.144803,-0.679205,0.15052
4975578,1,-1.57037,-0.522865,0.000131548,-2.09584,1.57081,1.5717,0.785058,-1.5708,-0.523599,6.97311e-08,-2.0944,1.5708,1.5708,0.785397,0.000607058,-0.000239697,0.000307677,-0.00102184,0.000172725,-0.000301211,-0.00131689,0,0,0,0,0,0,0,-0.454395,-10.1377,-0.508359,20.8725,0.706194,-0.67545,0.129282,-0.433576,-1.01108,-0.0932948,2.30141,0.14483,-0.679223,0.150459
4975579,1,-1.57037,-0.522865,0.000129878,-2.09583,1.57082,1.5717,0.785063,-1.5708,-0.523599,6.97311e-08,-2.0944,1.5708,1.5708,0.785397,-0.00135853,-0.000159798,-0.000351694,-3.16118e-05,-0.000291751,3.65513e-05,0.000783587,0,0,0,0,0,0,0,-0.379017,-10.1377,-0.484555,20.8448,0.71718,-0.681859,0.0844213,-0.433959,-1.01212,-0.0939175,2.30228,0.144902,-0.679207,0.15039
4975580,1,-1.57037,-0.522867,0.000133219,-2.09583,1.57082,1.5717,0.785063,-1.5708,-0.523599,6.97311e-08,-2.0944,1.5708,1.5708,0.785397,0.000857549,-0.000663344,0.000879161,-0.000670688,-0.000194501,2.43675e-05,0.000522391,0,0,0,0,0,0,0,-0.454395,-10.1139,-0.532163,20.8725,0.71718,-0.681859,0.0844213,-0.434122,-1.01238,-0.0943071,2.30286,0.144961,-0.679208,0.150319
4975581,1,-1.57037,-0.522861,0.000129878,-2.09584,1.57082,1.5717,0.785057,-1.5708,-0.523599,6.97311e-08,-2.0944,1.5708,1.5708,0.785397,0.00112851,0.00132101,-0.000527516,-0.000447126,0.000277234,1.6245e-05,-0.00155061,0,0,0,0,0,0,0,-0.478199,-10.1892,-0.484555,20.8725,0.706194,-0.681859,0.135691,-0.434842,-1.01303,-0.0954954,2.30365,0.145051,-0.679127,0.150239
4975582,1,-1.57037,-0.522867,0.000131548,-2.09583,1.57082,1.5717,0.785066,-1.5708,-0.523599,6.97311e-08,-2.0944,1.5708,1.5708,0.785397,-0.000361283,-0.000882565,0.000205134,0.000908342,-0.000222079,0.000248189,0.00181457,0,0,0,0,0,0,0,-0.430592,-10.1139,-0.508359,20.821,0.71718,-0.688268,0.0587866,-0.435859,-1.01442,-0.0969851,2.30458,0.145152,-0.679016,0.150149
4975583,1,-1.57037,-0.522863,0.000129878,-2.09583,1.57082,1.5717,0.785059,-1.5708,-0.523599,6.97311e-08,-2.0944,1.5708,1.5708,0.785397,-0.000240855,0.000618049,-0.000420056,0.000605561,-0.000148052,-7.18996e-05,-0.00116388,0,0,0,0,0,0,0,-0.430592,-10.1654,-0.484555,20.821,0.71718,-0.681859,0.122873,-0.436264,-1.0145,-0.0975334,2.30433,0.14519,-0.678997,0.150062
4975584,1,-1.57037,-0.522865,0.000129878,-2.09583,1.57082,1.5717,0.785059,-1.5708,-0.523599,6.97311e-08,-2.0944,1.5708,1.5708,0.785397,-0.00016057,-0.000237581,-0.000280037,-0.000153104,0.000104749,-4.79331e-05,-0.000775919,0,0,0,0,0,0,0,-0.430592,-10.1377,-0.484555,20.8448,0.711687,-0.681859,0.122873,-0.435957,-1.01381,-0.0970334,2.30342,0.145189,-0.679086,0.149969
4975585,1,-1.57037,-0.522865,0.000129878,-2.09583,1.57082,1.5717,0.785062,-1.5708,-0.523599,6.97311e-08,-2.0944,1.5708,1.5708,0.785397,-0.000107047,-0.000158388,-0.000186691,-0.000751684,0.000680184,0.000205404,0.000669516,0,0,0,0,0,0,0,-0.430592,-10.1377,-0.484555,20.8725,0.695207,-0.688268,0.09083,-0.435267,-1.01348,-0.0959582,2.30296,0.145202,-0.679237,0.149879
4975586,1,-1.57037,-0.522865,0.000131548,-2.09583,1.57082,1.5717,0.785058,-1.5708,-0.523599,6.97311e-08,-2.0944,1.5708,1.5708,0.785397,-0.00127779,-0.000105592,0.000432351,-0.000501122,-0.000156895,-0.000337782,-0.00097781,0,0,0,0,0,0,0,-0.379017,-10.1377,-0.508359,20.8725,0.711687,-0.67545,0.129282,-0.434451,-1.01345,-0.0948007,2.30316,0.145241,-0.679403,0.149816
4975587,1,-1.57037,-0.522867,0.000131548,-2.09583,1.57081,1.5717,0.785064,-1.5708,-0.523599,6.97311e-08,-2.0944,1.5708,1.5708,0.785397,0.000911378,-0.000627206,0.000288234,0.000872344,-0.000104597,1.21708e-05,0.00148436,0,0,0,0,0,0,0,-0.454395,-10.1139,-0.508359,20.821,0.711687,-0.681859,0.071604,-0.433937,-1.01285,-0.0942389,2.30321,0.145278,-0.679513,0.149783
4975588,1,-1.57036,-0.522865,0.000129878,-2.09584,1.57081,1.5717,0.785063,-1.5708,-0.523599,6.97311e-08,-2.0944,1.5708,1.5708,0.785397,0.0011644,0.000138674,-0.000364656,-0.000624863,0.000133719,8.11388e-06,0.000514854,0,0,0,0,0,0,0,-0.478199,-10.1377,-0.484555,20.8725,0.706194,-0.681859,0.0844213,-0.434284,-1.01123,-0.0948808,2.30262,0.1453,-0.679479,0.149775
4975589,1,-1.57037,-0.522867,0.000131548,-2.09583,1.57082,1.5717,0.785059,-1.5708,-0.523599,6.97311e-08,-2.0944,1.5708,1.5708,0.785397,-0.000337359,-0.000464362,0.000313708,0.000789851,0.000292597,5.40925e-06,-0.00108092,0,0,0,0,0,0,0,-0.430592,-10.1139,-0.508359,20.821,0.700701,-0.681859,0.122873,-0.435126,-1.00955,-0.0960985,2.30193,0.145316,-0.67937,0.149756
4975590,1,-1.57037,-0.522865,0.000131548,-2.09583,1.57082,1.5717,0.785063,-1.5708,-0.523599,6.97311e-08,-2.0944,1.5708,1.5708,0.785397,-0.000224906,0.000247237,0.000209139,-3.02449e-05,-0.000211837,3.60617e-06,0.000703542,0,0,0,0,0,0,0,-0.430592,-10.1377,-0.508359,20.8448,0.711687,-0.681859,0.0844213,-0.435792,-1.00796,-0.0970776,2.30118,0.145311,-0.679291,0.149713
4975591,1,-1.57037,-0.522865,0.000127929,-2.09583,1.57081,1.5717,0.785056,-1.5708,-0.523599,6.97311e-08,-2.0944,1.5708,1.5708,0.785397,-0.000149937,0.000164825,-0.001067,0.000536649,-0.000344675,2.40411e-06,-0.00170111,0,0,0,0,0,0,0,-0.430592,-10.1377,-0.456784,20.821,0.71718,-0.681859,0.143015,-0.435822,-1.00701,-0.097147,2.3006,0.14528,-0.679318,0.149661
4975592,1,-1.57037,-0.522865,0.000127929,-2.09584,1.57081,1.5717,0.785063,-1.5708,-0.523599,6.97311e-08,-2.0944,1.5708,1.5708,0.785397,-9.99583e-05,0.000109883,-0.000711333,-0.00140547,0.000177118,-0.000235756,0.00103606,0,0,0,0,0,0,0,-0.430592,-10.1377,-0.456784,20.8963,0.706194,-0.67545,0.0844213,-0.434914,-1.00745,-0.095726,2.30088,0.145238,-0.679497,0.149613
4975593,1,-1.57036,-0.522861,0.000129878,-2.09583,1.57082,1.5717,0.785063,-1.5708,-0.523599,6.97311e-08,-2.0944,1.5708,1.5708,0.785397,0.00104699,0.00127968,0.000175392,0.000826256,0.000321529,8.01881e-05,0.00069071,0,0,0,0,0,0,0,-0.478199,-10.1892,-0.484555,20.821,0.700701,-0.681859,0.0844213,-0.433933,-1.00977,-0.0940619,2.30234,0.14523,-0.679702,0.149585
4975594,1,-1.57037,-0.522865,0.000129878,-2.09583,1.57082,1.5717,0.78506,-1.5708,-0.523599,6.97311e-08,-2.0944,1.5708,1.5708,0.785397,0.000141178,-0.000353305,0.000116928,-0.000655588,1.09022e-05,5.34588e-05,-0.000488963,0,0,0,0,0,0,0,-0.454395,-10.1377,-0.484555,20.8725,0.706194,-0.681859,0.110056,-0.433894,-1.01308,-0.093689,2.30424,0.145263,-0.679775,0.149565
4975595,1,-1.57037,-0.522863,0.000131548,-2.09583,1.57082,1.5717,0.785062,-1.5708,-0.523599,6.97311e-08,-2.0944,1.5708,1.5708,0.785397,-0.00111231,0.000414077,0.000634764,-0.000437059,-0.000196182,3.56392e-05,0.000386102,0,0,0,0,0,0,0,-0.402821,-10.1654,-0.508359,20.8725,0.711687,-0.681859,0.09083,-0.434352,-1.01586,-0.0941032,2.30601,0.145308,-0.679767,0.149532
4975596,1,-1.57037,-0.522863,0.000127929,-2.09583,1.57082,1.5717,0.785059,-1.5708,-0.523599,6.97311e-08,-2.0944,1.5708,1.5708,0.785397,-0.000741538,0.000276052,-0.00078325,0.000358241,7.26622e-05,2.37594e-05,-0.000692035,0,0,0,0,0,0,0,-0.402821,-10.1654,-0.456784,20.8448,0.706194,-0.681859,0.116465,-0.434261,-1.0181,-0.0938545,2.30761,0.145332,-0.679831,0.149487
4975597,1,-1.57037,-0.522865,0.000127929,-2.09583,1.57082,1.5717,0.785062,-1.5708,-0.523599,6.97311e-08,-2.0944,1.5708,1.5708,0.785397,-0.000494359,-0.00046558,-0.000522167,-0.000410786,-0.00035846,0.000253199,0.000488079,0,0,0,0,0,0,0,-0.402821,-10.1377,-0.456784,20.8725,0.71718,-0.688268,0.09083,-0.433196,-1.01934,-0.0921936,2.30859,0.145296,-0.680023,0.149435
4975598,1,-1.57037,-0.522867,0.000131548,-2.09583,1.57082,1.5717,0.785061,-1.5708,-0.523599,6.97311e-08,-2.0944,1.5708,1.5708,0.785397,0.000320041,-0.000867198,0.000858315,-0.000273858,-3.55225e-05,-0.000543278,8.80273e-05,0,0,0,0,0,0,0,-0.430592,-10.1139,-0.508359,20.8725,0.711687,-0.669042,0.0972387,-0.432168,-1.01854,-0.0905829,2.30868,0.145232,-0.680176,0.149387
4975599,1,-1.57037,-0.522867,0.000129878,-2.09583,1.57082,1.5717,0.785061,-1.5708,-0.523599,6.97311e-08,-2.0944,1.5708,1.5708,0.785397,0.000770173,-0.000578132,1.53979e-05,0.000467042,-2.36817e-05,0.000112533,5.86849e-05,0,0,0,0,0,0,0,-0.454395,-10.1139,-0.484555,20.8448,0.711687,-0.681859,0.0972387,-0.432375,-1.01552,-0.0908087,2.30779,0.145185,-0.680104,0.149341
4975600,1,-1.57037,-0.522863,0.000133219,-2.09583,1.57081,1.5717,0.785062,-1.5708,-0.523599,6.97311e-08,-2.0944,1.5708,1.5708,0.785397,-4.33633e-05,0.000821004,0.00112389,0.000311361,-1.57878e-05,-0.000162337,0.000276482,0,0,0,0,0,0,0,-0.430592,-10.1654,-0.532163,20.8448,0.711687,-0.67545,0.09083,-0.433655,-1.01219,-0.0926257,2.30652,0.145169,-0.679861,0.149288
4975601,1,-1.57037,-0.522865,0.000129878,-2.09583,1.57082,1.5717,0.785058,-1.5708,-0.523599,6.97311e-08,-2.0944,1.5708,1.5708,0.785397,-2.89089e-05,-0.000102278,-0.000364364,0.000207574,0.000192925,0.000366493,-0.00123983,0,0,0,0,0,0,0,-0.430592,-10.1377,-0.484555,20.8448,0.706194,-0.688268,0.129282,-0.435114,-1.01052,-0.0947696,2.30578,0.145187,-0.679607,0.149222
4975602,1,-1.57036,-0.522863,0.000129878,-2.09584,1.57082,1.5717,0.785062,-1.5708,-0.523599,6.97311e-08,-2.0944,1.5708,1.5708,0.785397,0.00109435,0.000581429,-0.00024291,-0.000511231,-7.48336e-05,-0.000230389,0.000597599,0,0,0,0,0,0,0,-0.478199,-10.1654,-0.484555,20.8725,0.711687,-0.67545,0.09083,-0.436141,-1.01048,-0.0962248,2.30585,0.145221,-0.679434,0.14915
4975603,1,-1.57037,-0.522865,0.000131548,-2.09583,1.57081,1.5717,0.785064,-1.5708,-0.523599,6.97311e-08,-2.0944,1.5708,1.5708,0.785397,-0.000384056,-0.000261995,0.000394872,0.000308793,-4.98891e-05,0.000321125,0.00111048,0,0,0,0,0,0,0,-0.430592,-10.1377,-0.508359,20.8448,0.711687,-0.688268,0.071604,-0.436879,-1.01128,-0.0971461,2.30648,0.145262,-0.679318,0.14909
4975604,1,-1.57037,-0.522865,0.000131548,-2.09583,1.57081,1.5717,0.785057,-1.5708,-0.523599,6.97311e-08,-2.0944,1.5708,1.5708,0.785397,0.000300774,-0.000174663,0.000263248,0.000205862,-0.00023671,-2.32755e-05,-0.00163327,0,0,0,0,0,0,0,-0.454395,-10.1377,-0.508359,20.8448,0.71718,-0.681859,0.135691,-0.437537,-1.01148,-0.0979723,2.30681,0.145294,-0.679216,0.149033
4975605,1,-1.57037,-0.522865,0.000129878,-2.09583,1.57082,1.5717,0.785063,-1.5708,-0.523599,6.97311e-08,-2.0944,1.5708,1.5708,0.785397,0.000200516,-0.000116442,-0.000381313,0.000694053,0.000249094,-1.5517e-05,0.000810024,0,0,0,0,0,0,0,-0.454395,-10.1377,-0.484555,20.821,0.706194,-0.681859,0.0844213,-0.438007,-1.01047,-0.0985126,2.30637,0.145301,-0.67914,0.148965
4975606,0.99,-1.57037,-0.522867,0.000129878,-2.09583,1.57082,1.5717,0.785059,-1.5708,-0.523599,6.97311e-08,-2.0944,1.5708,1.5708,0.785397,0.000133677,-0.00063444,-0.000254209,0.000462702,-3.73876e-05,-0.000485063,-0.000884138,0,0,0,0,0,0,0,-0.454395,-10.1139,-0.484555,20.821,0.711687,-0.669042,0.122873,-0.438114,-1.00836,-0.0983963,2.30518,0.145268,-0.679117,0.148905
4975607,0.99,-1.57037,-0.522867,0.000131548,-2.09583,1.57082,1.5717,0.785063,-1.5708,-0.523599,6.97311e-08,-2.0944,1.5708,1.5708,0.785397,-0.000467694,-0.00042296,0.000387339,0.00086528,0.000178525,0.000388702,0.000834728,0,0,0,0,0,0,0,-0.430592,-10.1139,-0.508359,20.7972,0.706194,-0.688268,0.0844213,-0.437928,-1.00504,-0.0978016,2.30323,0.145201,-0.679128,0.148861
4975608,0.99,-1.57036,-0.522867,0.000127929,-2.09584,1.57082,1.5717,0.785063,-1.5708,-0.523599,6.97311e-08,-2.0944,1.5708,1.5708,0.785397,0.000801828,-0.000281973,-0.0009482,-0.0017432,0.000119017,2.17756e-05,0.000556486,0,0,0,0,0,0,0,-0.478199,-10.1139,-0.456784,20.8963,0.706194,-0.681859,0.0844213,-0.4376,-1.00201,-0.0969793,2.30169,0.145148,-0.679163,0.148828
4975609,0.99,-1.57037,-0.522863,0.000129878,-2.09583,1.57082,1.5717,0.785062,-1.5708,-0.523599,6.97311e-08,-2.0944,1.5708,1.5708,0.785397,-0.00122869,0.00101844,1.74809e-05,4.4295e-05,7.93447e-05,-0.000222842,0.000133631,0,0,0,0,0,0,0,-0.402821,-10.1654,-0.484555,20.8448,0.706194,-0.67545,0.09083,-0.436899,-1.00185,-0.0955521,2.30213,0.145148,-0.679286,0.148782
4975610,0.99,-1.57037,-0.522865,0.000129878,-2.09583,1.57082,1.5717,0.785064,-1.5708,-0.523599,6.97311e-08,-2.0944,1.5708,1.5708,0.785397,-0.000819124,2.93485e-05,1.16539e-05,2.953e-05,0.000256347,8.87977e-05,0.000801164,0,0,0,0,0,0,0,-0.402821,-10.1377,-0.484555,20.8448,0.700701,-0.681859,0.071604,-0.435694,-1.00432,-0.0934717,2.30397,0.145175,-0.679516,0.148705
4975611,0.99,-1.57037,-0.522863,0.000131548,-2.09583,1.57082,1.5717,0.785061,-1.5708,-0.523599,6.97311e-08,-2.0944,1.5708,1.5708,0.785397,0.000660343,0.00066918,0.000564581,0.000576499,-0.000439454,-0.000415519,-0.000652685,0,0,0,0,0,0,0,-0.454395,-10.1654,-0.508359,20.821,0.71718,-0.669042,0.103647,-0.434774,-1.00723,-0.0919458,2.30566,0.145197,-0.679703,0.148591
4975612,0.99,-1.57037,-0.522865,0.000129878,-2.09583,1.57082,1.5717,0.785057,-1.5708,-0.523599,6.97311e-08,-2.0944,1.5708,1.5708,0.785397,-0.000116583,-0.000203494,-0.000180424,0.000384332,0.000317383,-3.9654e-05,-0.00162192,0,0,0,0,0,0,0,-0.430592,-10.1377,-0.484555,20.821,0.700701,-0.67545,0.135691,-0.434756,-1.00939,-0.0917575,2.30664,0.145213,-0.679733,0.14844
4975613,0.99,-1.57037,-0.522863,0.000131548,-2.09583,1.57082,1.5717,0.785064,-1.5708,-0.523599,6.97311e-08,-2.0944,1.5708,1.5708,0.785397,-0.000727336,0.000513951,0.000436529,0.00201946,-0.000195313,-2.6436e-05,0.00105495,0,0,0,0,0,0,0,-0.402821,-10.1654,-0.508359,20.7456,0.711687,-0.67545,0.0780126,-0.434983,-1.01006,-0.0919589,2.30637,0.145187,-0.679693,0.148285
4975614,0.99,-1.57037,-0.522861,0.000129878,-2.09583,1.57082,1.5717,0.785059,-1.5708,-0.523599,6.97311e-08,-2.0944,1.5708,1.5708,0.785397,0.000721535,0.000899446,-0.000265793,-0.000416932,-0.000130208,0.000219735,-0.000720852,0,0,0,0,0,0,0,-0.454395,-10.1892,-0.484555,20.821,0.711687,-0.681859,0.116465,-0.435108,-1.01043,-0.0920733,2.30548,0.145131,-0.67965,0.148156
4975615,0.99,-1.57037,-0.522863,0.000127929,-2.09584,1.57082,1.5717,0.785064,-1.5708,-0.523599,6.97311e-08,-2.0944,1.5708,1.5708,0.785397,0.000481023,4.28187e-05,-0.000826809,-0.00148438,0.000116645,-9.0869e-05,0.00118094,0,0,0,0,0,0,0,-0.454395,-10.1654,-0.456784,20.8725,0.706194,-0.67545,0.071604,-0.435212,-1.01267,-0.0920899,2.30592,0.145123,-0.679611,0.148045
4975616,0.99,-1.57037,-0.522863,0.000129878,-2.09583,1.57082,1.5717,0.785063,-1.5708,-0.523599,6.97311e-08,-2.0944,1.5708,1.5708,0.785397,-0.00023613,2.85458e-05,9.84079e-05,-0.000339973,-0.000125687,-6.05793e-05,0.000312578,0,0,0,0,0,0,0,-0.430592,-10.1654,-0.484555,20.8448,0.711687,-0.67545,0.0844213,-0.435124,-1.01596,-0.0917201,2.30773,0.14516,-0.679593,0.147936
4975617,0.99,-1.57037,-0.522863,0.000127929,-2.09583,1.57082,1.5717,0.785056,-1.5708,-0.523599,6.97311e-08,-2.0944,1.5708,1.5708,0.785397,0.000399392,1.90306e-05,-0.000584009,0.000330163,-0.000524601,0.000196973,-0.00196175,0,0,0,0,0,0,0,-0.454395,-10.1654,-0.456784,20.821,0.723589,-0.681859,0.143015,-0.434907,-1.01826,-0.0911295,2.30921,0.14519,-0.679574,0.147815
4975618,0.99,-1.57037,-0.522865,0.000133219,-2.09583,1.57082,1.5717,0.785064,-1.5708,-0.523599,6.97311e-08,-2.0944,1.5708,1.5708,0.785397,0.000266261,-0.000636927,0.0013739,0.000220109,0.000294526,0.000131315,0.00109966,0,0,0,0,0,0,0,-0.454395,-10.1377,-0.532163,20.821,0.706194,-0.681859,0.0780126,-0.435169,-1.01847,-0.0912427,2.30935,0.145204,-0.679462,0.147693
4975619,0.99,-1.57037,-0.522865,0.000129878,-2.09583,1.57082,1.5717,0.785057,-1.5708,-0.523599,6.97311e-08,-2.0944,1.5708,1.5708,0.785397,0.000177508,-0.000424618,-0.000197691,-0.000410073,-7.09986e-06,-0.000149816,-0.00140312,0,0,0,0,0,0,0,-0.454395,-10.1377,-0.484555,20.8448,0.711687,-0.67545,0.135691,-0.43624,-1.01669,-0.0925898,2.30838,0.145228,-0.679212,0.147598
4975620,0.99,-1.57037,-0.522865,0.000129878,-2.09583,1.57082,1.5717,0.785061,-1.5708,-0.523599,6.97311e-08,-2.0944,1.5708,1.5708,0.785397,0.000118338,-0.000283079,-0.000131794,-0.000273382,0.000198717,0.000137482,0.000488739,0,0,0,0,0,0,0,-0.454395,-10.1377,-0.484555,20.8448,0.706194,-0.681859,0.0972387,-0.437314,-1.0143,-0.093913,2.30723,0.145257,-0.678963,0.147534
4975621,0.99,-1.57037,-0.522865,0.000131548,-2.09583,1.57081,1.5717,0.785062,-1.5708,-0.523599,6.97311e-08,-2.0944,1.5708,1.5708,0.785397,-0.00112753,-0.000188719,0.000468949,-0.000182255,-7.09723e-05,9.16546e-05,0.000563185,0,0,0,0,0,0,0,-0.402821,-10.1377,-0.508359,20.8448,0.711687,-0.681859,0.09083,-0.43776,-1.01232,-0.09431,2.30636,0.145277,-0.678821,0.147509
4975622,0.99,-1.57037,-0.522863,0.000131548,-2.09583,1.57082,1.5717,0.785057,-1.5708,-0.523599,6.97311e-08,-2.0944,1.5708,1.5708,0.785397,-0.000102075,0.000523801,0.000312633,-0.000121503,0.000563037,-0.000176256,-0.00128606,0,0,0,0,0,0,0,-0.430592,-10.1654,-0.508359,20.8448,0.695207,-0.67545,0.135691,-0.437797,-1.01139,-0.0942463,2.30595,0.145302,-0.678763,0.147512
4975623,0.99,-1.57037,-0.522867,0.000131548,-2.09583,1.57081,1.5717,0.785064,-1.5708,-0.523599,6.97311e-08,-2.0944,1.5708,1.5708,0.785397,-6.80501e-05,-0.000857225,0.000208422,-8.1002e-05,-0.000234994,0.000357214,0.00151622,0,0,0,0,0,0,0,-0.430592,-10.1139,-0.508359,20.8448,0.711687,-0.688268,0.071604,-0.437826,-1.01112,-0.0942716,2.30578,0.145326,-0.678719,0.147537
4975624,0.99,-1.57036,-0.522863,0.000129878,-2.09583,1.57081,1.5717,0.785066,-1.5708,-0.523599,6.97311e-08,-2.0944,1.5708,1.5708,0.785397,0.00106826,0.000634943,-0.000417864,-5.40013e-05,-0.000156663,7.8371e-07,0.00148553,0,0,0,0,0,0,0,-0.478199,-10.1654,-0.484555,20.8448,0.711687,-0.681859,0.0587866,-0.438044,-1.01074,-0.0945252,2.30552,0.145329,-0.678656,0.147584
4975625,0.99,-1.57037,-0.522867,0.000133219,-2.09583,1.57082,1.5717,0.785059,-1.5708,-0.523599,6.97311e-08,-2.0944,1.5708,1.5708,0.785397,-0.000401452,-0.000783131,0.000835048,0.000520811,-0.000104442,5.22473e-07,-0.00138324,0,0,0,0,0,0,0,-0.430592,-10.1139,-0.532163,20.821,0.711687,-0.681859,0.122873,-0.438528,-1.01024,-0.0950985,2.30507,0.145315,-0.678568,0.147612
4975626,0.99,-1.57036,-0.522865,0.000129878,-2.09583,1.57082,1.5717,0.785062,-1.5708,-0.523599,6.97311e-08,-2.0944,1.5708,1.5708,0.785397,0.000845989,3.47247e-05,-0.000556925,-0.000209605,0.000133823,-0.000237011,0.000264637,0,0,0,0,0,0,0,-0.478199,-10.1377,-0.484555,20.8448,0.706194,-0.67545,0.09083,-0.439184,-1.0091,-0.0959165,2.3042,0.145289,-0.678461,0.147592
4975627,0.99,-1.57037,-0.522869,0.000129878,-2.09584,1.57082,1.5717,0.785059,-1.5708,-0.523599,6.97311e-08,-2.0944,1.5708,1.5708,0.785397,-0.000549631,-0.000533662,-0.000371284,-0.00134616,8.92152e-05,0.000316711,-0.000773011,0,0,0,0,0,0,0,-0.430592,-10.1139,-0.484555,20.8963,0.706194,-0.688268,0.116465,-0.439441,-1.00813,-0.0960927,2.30372,0.145263,-0.678423,0.14754
4975628,0.99,-1.57036,-0.522864,0.000129878,-2.09583,1.57082,1.5717,0.785058,-1.5708,-0.523599,6.97311e-08,-2.0944,1.5708,1.5708,0.785397,0.000747203,0.000850651,-0.000247522,0.000308984,-0.000347424,0.000211141,-0.000990058,0,0,0,0,0,0,0,-0.478199,-10.1654,-0.484555,20.8448,0.71718,-0.688268,0.129282,-0.439144,-1.00864,-0.0953796,2.30434,0.145253,-0.678496,0.147478
4975629,0.99,-1.57037,-0.522862,0.000129878,-2.09583,1.57082,1.5717,0.785065,-1.5708,-0.523599,6.97311e-08,-2.0944,1.5708,1.5708,0.785397,0.000498135,0.00112391,-0.000165015,0.000762802,-2.81657e-05,-0.000333958,0.00171355,0,0,0,0,0,0,0,-0.478199,-10.1892,-0.484555,20.821,0.711687,-0.67545,0.0651953,-0.438949,-1.01096,-0.0947079,2.30555,0.145259,-0.678601,0.147438
4975630,0.99,-1.57037,-0.522867,0.000129878,-2.09583,1.57082,1.5717,0.785059,-1.5708,-0.523599,6.97311e-08,-2.0944,1.5708,1.5708,0.785397,-0.00143115,-0.00101396,-0.00011001,0.000508534,-1.87771e-05,-0.000222638,-0.000993863,0,0,0,0,0,0,0,-0.402821,-10.1139,-0.484555,20.821,0.711687,-0.67545,0.122873,-0.438749,-1.01315,-0.0939648,2.30614,0.14524,-0.678728,0.147431
4975631,0.99,-1.57037,-0.522865,0.000131548,-2.09583,1.57082,1.5717,0.785064,-1.5708,-0.523599,6.97311e-08,-2.0944,1.5708,1.5708,0.785397,-0.000954098,-0.000119163,0.000483472,0.000895835,-1.25181e-05,8.89334e-05,0.000998937,0,0,0,0,0,0,0,-0.402821,-10.1377,-0.508359,20.7972,0.711687,-0.681859,0.0780126,-0.438011,-1.01255,-0.0925829,2.30513,0.145164,-0.678904,0.147435
4975632,0.99,-1.57037,-0.522865,0.000127929,-2.09583,1.57082,1.5717,0.785061,-1.5708,-0.523599,6.97311e-08,-2.0944,1.5708,1.5708,0.785397,0.00057036,-7.94421e-05,-0.000884111,0.000597223,-0.000211796,0.000296648,-4.61189e-05,0,0,0,0,0,0,0,-0.454395,-10.1377,-0.456784,20.7972,0.71718,-0.688268,0.0972387,-0.437066,-1.01014,-0.0910067,2.30307,0.145062,-0.679083,0.147439
4975633,0.99,-1.57037,-0.522865,0.000129878,-2.09583,1.57082,1.5717,0.785056,-1.5708,-0.523599,6.97311e-08,-2.0944,1.5708,1.5708,0.785397,-0.000826186,-5.29614e-05,6.02065e-05,-0.00136509,0.000265704,-3.95937e-05,-0.00172617,0,0,0,0,0,0,0,-0.402821,-10.1377,-0.484555,20.8725,0.706194,-0.681859,0.143015,-0.436161,-1.00845,-0.0894581,2.30163,0.144997,-0.679254,0.147428
4975634,0.99,-1.57037,-0.522861,0.000131548,-2.09583,1.57082,1.5717,0.785064,-1.5708,-0.523599,6.97311e-08,-2.0944,1.5708,1.5708,0.785397,9.88235e-05,0.00117112,0.00059695,-0.000910059,-2.63147e-05,-0.000501114,0.00149408,0,0,0,0,0,0,0,-0.430592,-10.1892,-0.508359,20.8725,0.711687,-0.669042,0.071604,-0.435566,-1.00963,-0.0884602,2.30235,0.145041,-0.679395,0.14741
4975635,0.99,-1.57037,-0.522867,0.000131548,-2.09583,1.57082,1.5717,0.785058,-1.5708,-0.523599,6.97311e-08,-2.0944,1.5708,1.5708,0.785397,6.58823e-05,-0.000982492,0.000397966,4.29077e-05,0.000389358,-0.000334076,-0.00114018,0,0,0,0,0,0,0,-0.430592,-10.1139,-0.508359,20.8448,0.700701,-0.669042,0.129282,-0.435805,-1.01258,-0.0888481,2.30439,0.14517,-0.679411,0.147411
4975636,0.99,-1.57037,-0.522865,0.000129878,-2.09583,1.57082,1.5717,0.785061,-1.5708,-0.523599,6.97311e-08,-2.0944,1.5708,1.5708,0.785397,0.000600733,-9.81829e-05,-0.000291501,0.000585417,5.61214e-05,1.46417e-05,0.000426676,0,0,0,0,0,0,0,-0.454395,-10.1377,-0.484555,20.821,0.706194,-0.67545,0.0972387,-0.436636,-1.01352,-0.0901186,2.30527,0.145269,-0.67929,0.147432
4975637,0.99,-1.57037,-0.522867,0.000131548,-2.09584,1.57081,1.5717,0.785061,-1.5708,-0.523599,6.97311e-08,-2.0944,1.5708,1.5708,0.785397,-0.000805937,-0.000622267,0.000362478,-0.00137296,-0.000369487,0.00024712,0.000284451,0,0,0,0,0,0,0,-0.402821,-10.1139,-0.508359,20.8963,0.71718,-0.681859,0.0972387,-0.43736,-1.01255,-0.0912295,2.30511,0.145313,-0.679139,0.147474
4975638,0.99,-1.57037,-0.522865,0.000131548,-2.09583,1.57081,1.5717,0.785059,-1.5708,-0.523599,6.97311e-08,-2.0944,1.5708,1.5708,0.785397,0.000112323,0.000141967,0.000241652,0.000291119,-0.000483683,-0.000309971,-0.000759802,0,0,0,0,0,0,0,-0.430592,-10.1377,-0.508359,20.8448,0.723589,-0.669042,0.122873,-0.437792,-1.01167,-0.092041,2.30522,0.145356,-0.679012,0.147529
4975639,0.99,-1.57037,-0.522867,0.000131548,-2.09583,1.57081,1.5717,0.785064,-1.5708,-0.523599,6.97311e-08,-2.0944,1.5708,1.5708,0.785397,7.48818e-05,-0.000462167,0.000161101,0.00019408,0.000118354,0.00026807,0.00139234,0,0,0,0,0,0,0,-0.430592,-10.1139,-0.508359,20.8448,0.711687,-0.681859,0.071604,-0.4382,-1.01075,-0.0929205,2.30523,0.145399,-0.678872,0.147593
4975640,0.99,-1.57037,-0.522865,0.000131548,-2.09583,1.57082,1.5717,0.78506,-1.5708,-0.523599,6.97311e-08,-2.0944,1.5708,1.5708,0.785397,0.000606733,0.0002487,0.000107401,0.000129386,0.000282353,-5.86453e-05,-0.000495929,0,0,0,0,0,0,0,-0.454395,-10.1377,-0.508359,20.8448,0.706194,-0.67545,0.110056,-0.438745,-1.00954,-0.0939942,2.30479,0.145436,-0.6787,0.147662
4975641,0.99,-1.57037,-0.52286,0.000129878,-2.09583,1.57082,1.5717,0.785063,-1.5708,-0.523599,6.97311e-08,-2.0944,1.5708,1.5708,0.785397,0.000404489,0.00192904,-0.000485211,-0.000563356,0.000595136,-3.90969e-05,0.000618816,0,0,0,0,0,0,0,-0.454395,-10.213,-0.484555,20.8725,0.695207,-0.67545,0.0844213,-0.439264,-1.01054,-0.0949568,2.30532,0.145504,-0.678552,0.147714
4975642,0.99,-1.57037,-0.522867,0.000127929,-2.09583,1.57082,1.5717,0.785061,-1.5708,-0.523599,6.97311e-08,-2.0944,1.5708,1.5708,0.785397,-0.000287153,-0.00103402,-0.000973088,0.000830855,-0.000417044,-0.000500782,-6.21736e-05,0,0,0,0,0,0,0,-0.430592,-10.1139,-0.456784,20.821,0.71718,-0.662633,0.0972387,-0.439147,-1.01362,-0.0948502,2.30676,0.145565,-0.67852,0.147738
4975643,0.99,-1.57037,-0.522863,0.000131548,-2.09584,1.57082,1.5717,0.785061,-1.5708,-0.523599,6.97311e-08,-2.0944,1.5708,1.5708,0.785397,-0.000191435,0.000517076,0.0005577,-0.00120933,-7.45791e-05,0.000140863,-0.000278808,0,0,0,0,0,0,0,-0.430592,-10.1654,-0.508359,20.8963,0.711687,-0.67545,0.103647,-0.43839,-1.01549,-0.0937561,2.30768,0.145571,-0.678557,0.147736
4975644,0.99,-1.57037,-0.522867,0.000131548,-2.09583,1.57082,1.5717,0.785064,-1.5708,-0.523599,6.97311e-08,-2.0944,1.5708,1.5708,0.785397,0.000429188,-0.000861708,0.0003718,0.000400203,-4.97194e-05,0.000568626,0.000763564,0,0,0,0,0,0,0,-0.454395,-10.1139,-0.508359,20.8448,0.711687,-0.688268,0.0780126,-0.438005,-1.01597,-0.0933017,2.3082,0.145583,-0.678509,0.14771
4975645,0.99,-1.57037,-0.522865,0.000129878,-2.09583,1.57082,1.5717,0.785059,-1.5708,-0.523599,6.97311e-08,-2.0944,1.5708,1.5708,0.785397,-0.000270686,-1.76603e-05,-0.000308945,0.000823614,-3.31463e-05,-0.000332992,-0.00115247,0,0,0,0,0,0,0,-0.430592,-10.1377,-0.484555,20.821,0.711687,-0.669042,0.122873,-0.438113,-1.01476,-0.093607,2.30783,0.145583,-0.678367,0.147667
4975646,0.99,-1.57037,-0.522863,0.000131548,-2.09583,1.57082,1.5717,0.785064,-1.5708,-0.523599,6.97311e-08,-2.0944,1.5708,1.5708,0.785397,-0.000830071,0.00063784,0.000350849,-7.73604e-06,0.000181353,1.53639e-05,0.000893199,0,0,0,0,0,0,0,-0.402821,-10.1654,-0.508359,20.8448,0.706194,-0.67545,0.0780126,-0.437964,-1.0129,-0.0935471,2.30678,0.14555,-0.678261,0.147608
4975647,0.99,-1.57037,-0.522863,0.000129878,-2.09583,1.57082,1.5717,0.785062,-1.5708,-0.523599,6.97311e-08,-2.0944,1.5708,1.5708,0.785397,0.000653045,0.000425227,-0.000322913,-5.15736e-06,0.000324353,0.000247602,-0.00106605,0,0,0,0,0,0,0,-0.454395,-10.1654,-0.484555,20.8448,0.700701,-0.681859,0.122873,-0.437564,-1.01279,-0.0931663,2.30651,0.145536,-0.678214,0.147541
4975648,0.99,-1.57037,-0.522865,0.000129878,-2.09583,1.57082,1.5717,0.785059,-1.5708,-0.523599,6.97311e-08,-2.0944,1.5708,1.5708,0.785397,0.000435363,-0.000366129,-0.000215275,0.000553374,-0.000190666,0.000165068,-0.000948057,0,0,0,0,0,0,0,-0.454395,-10.1377,-0.484555,20.821,0.711687,-0.681859,0.129282,-0.437344,-1.01331,-0.0929651,2.30657,0.145531,-0.67815,0.147474
4975649,0.99,-1.57036,-0.522865,0.000129878,-2.09583,1.57082,1.5717,0.785063,-1.5708,-0.523599,6.97311e-08,-2.0944,1.5708,1.5708,0.785397,0.000847054,-0.000244086,-0.000143517,0.000368916,-0.000330561,-0.000127314,0.000792116,0,0,0,0,0,0,0,-0.478199,-10.1377,-0.484555,20.821,0.71718,-0.67545,0.09083,-0.437495,-1.0125,-0.093136,2.30591,0.145497,-0.678027,0.147436
4975650,0.99,-1.57037,-0.522865,0.000129878,-2.09583,1.57082,1.5717,0.785057,-1.5708,-0.523599,6.97311e-08,-2.0944,1.5708,1.5708,0.785397,-0.000548921,-0.000162724,-9.56779e-05,0.000245944,-1.69236e-05,0.000152483,-0.00113344,0,0,0,0,0,0,0,-0.430592,-10.1377,-0.484555,20.821,0.711687,-0.681859,0.135691,-0.4378,-1.01063,-0.0934269,2.3047,0.145445,-0.677887,0.147445
4975651,0.99,-1.57037,-0.522861,0.000131548,-2.09583,1.57081,1.5717,0.785064,-1.5708,-0.523599,6.97311e-08,-2.0944,1.5708,1.5708,0.785397,-0.000365947,0.00109794,0.000493027,0.000163963,-1.12824e-05,-0.000373062,0.00138061,0,0,0,0,0,0,0,-0.430592,-10.1892,-0.508359,20.821,0.711687,-0.669042,0.0780126,-0.437914,-1.00971,-0.0934772,2.30395,0.145414,-0.677803,0.147496
4975652,0.99,-1.57037,-0.522863,0.000129878,-2.09583,1.57082,1.5717,0.785063,-1.5708,-0.523599,6.97311e-08,-2.0944,1.5708,1.5708,0.785397,0.000312847,0.00017515,-0.000228127,-0.000447504,-0.000448331,0.00022601,0.000683046,0,0,0,0,0,0,0,-0.454395,-10.1654,-0.484555,20.8448,0.723589,-0.681859,0.0844213,-0.437979,-1.01106,-0.0935242,2.3044,0.145438,-0.677761,0.147578
4975653,0.99,-1.57037,-0.522867,0.000127929,-2.09583,1.57081,1.5717,0.785059,-1.5708,-0.523599,6.97311e-08,-2.0944,1.5708,1.5708,0.785397,-0.000997861,-0.00108966,-0.000801699,0.000815288,0.000345373,-8.66859e-05,-0.000731431,0,0,0,0,0,0,0,-0.402821,-10.1139,-0.456784,20.7972,0.706194,-0.67545,0.116465,-0.437658,-1.01215,-0.0929616,2.30481,0.145461,-0.677776,0.14766
4975654,0.99,-1.57037,-0.522863,0.000131548,-2.09583,1.57082,1.5717,0.785062,-1.5708,-0.523599,6.97311e-08,-2.0944,1.5708,1.5708,0.785397,-1.56269e-05,0.000479986,0.00067196,-0.00121971,2.67979e-05,0.000416927,0.000461815,0,0,0,0,0,0,0,-0.430592,-10.1654,-0.508359,20.8725,0.711687,-0.688268,0.09083,-0.436807,-1.01159,-0.0916166,2.3045,0.145462,-0.677849,0.147718
4975655,0.99,-1.57037,-0.522865,0.000129878,-2.09583,1.57082,1.5717,0.785058,-1.5708,-0.523599,6.97311e-08,-2.0944,1.5708,1.5708,0.785397,-1.04179e-05,-0.000329623,-0.000108839,-0.000163528,-0.000185585,-0.000196766,-0.00111628,0,0,0,0,0,0,0,-0.430592,-10.1377,-0.484555,20.8448,0.71718,-0.67545,0.129282,-0.436292,-1.0116,-0.0908531,2.3048,0.145515,-0.677877,0.14776
4975656,0.99,-1.57037,-0.522867,0.000127929,-2.09583,1.57082,1.5717,0.785064,-1.5708,-0.523599,6.97311e-08,-2.0944,1.5708,1.5708,0.785397,-6.94528e-06,-0.000776561,-0.000722173,0.000447794,7.9727e-05,0.000106181,0.00115469,0,0,0,0,0,0,0,-0.430592,-10.1139,-0.456784,20.821,0.711687,-0.681859,0.0780126,-0.436026,-1.01129,-0.0904368,2.305,0.145578,-0.677869,0.147801
4975657,0.99,-1.57037,-0.522863,0.000129878,-2.09583,1.57082,1.5717,0.785063,-1.5708,-0.523599,6.97311e-08,-2.0944,1.5708,1.5708,0.785397,-0.000654244,0.000688719,0.000168165,-0.000258283,0.000460052,-0.000166571,0.000532432,0,0,0,0,0,0,0,-0.402821,-10.1654,-0.484555,20.8448,0.700701,-0.67545,0.0844213,-0.435454,-1.01008,-0.0895159,2.30451,0.145605,-0.677902,0.147847
4975658,0.99,-1.57037,-0.522861,0.000133679,-2.09583,1.57082,1.5717,0.785061,-1.5708,-0.523599,6.97311e-08,-2.0944,1.5708,1.5708,0.785397,-0.000436163,0.00101596,0.000668922,-0.000172189,-0.000100199,0.00036367,-0.000357122,0,0,0,0,0,0,0,-0.402821,-10.1892,-0.508359,20.8448,0.711687,-0.688268,0.103647,-0.434931,-1.01094,-0.0888009,2.3049,0.145665,-0.677956,0.147875
4975659,0.99,-1.57037,-0.522861,0.000132258,-2.09583,1.57082,1.5717,0.785062,-1.5708,-0.523599,6.97311e-08,-2.0944,1.5708,1.5708,0.785397,-0.000847587,0.000677305,0.000445948,-0.000114792,-0.00027025,-0.00046963,0.000236637,0,0,0,0,0,0,0,-0.379017,-10.1892,-0.508359,20.8448,0.71718,-0.669042,0.09083,-0.434757,-1.01449,-0.0888585,2.30655,0.145782,-0.67799,0.147868
4975660,0.99,-1.57037,-0.522865,0.000128166,-2.09584,1.57082,1.5717,0.785057,-1.5708,-0.523599,6.97311e-08,-2.0944,1.5708,1.5708,0.785397,-8.24613e-06,-0.000754889,-0.000909127,-0.000726142,2.32837e-05,0.000161631,-0.00150375,0,0,0,0,0,0,0,-0.402821,-10.1377,-0.456784,20.8725,0.711687,-0.681859,0.135691,-0.434438,-1.01805,-0.0888565,2.30829,0.145897,-0.678033,0.147834
4975661,0.99,-1.57037,-0.522867,0.000131627,-2.09583,1.57082,1.5717,0.785062,-1.5708,-0.523599,6.97311e-08,-2.0944,1.5708,1.5708,0.785397,0.000644117,-0.00106007,0.000600341,0.000722331,1.55225e-05,0.000107754,0.000659009,0,0,0,0,0,0,0,-0.430592,-10.1139,-0.508359,20.821,0.711687,-0.681859,0.09083,-0.434032,-1.0185,-0.0887104,2.30863,0.145955,-0.678035,0.147797
4975662,0.99,-1.57037,-0.522863,0.000129904,-2.09584,1.57082,1.5717,0.785061,-1.5708,-0.523599,6.97311e-08,-2.0944,1.5708,1.5708,0.785397,0.000429411,0.000499712,-0.000156585,-0.00128168,1.03483e-05,0.000309195,0.000201981,0,0,0,0,0,0,0,-0.430592,-10.1654,-0.484555,20.8963,0.711687,-0.688268,0.0972387,-0.43423,-1.01669,-0.0894295,2.30792,0.145994,-0.677914,0.147781
4975663,0.99,-1.57037,-0.522865,0.000129886,-2.09583,1.57082,1.5717,0.785063,-1.5708,-0.523599,6.97311e-08,-2.0944,1.5708,1.5708,0.785397,0.000286274,-0.000316473,-0.00010439,0.00146559,6.89889e-06,-0.000505947,0.000609372,0,0,0,0,0,0,0,-0.430592,-10.1377,-0.484555,20.7972,0.711687,-0.669042,0.0844213,-0.434762,-1.01528,-0.0906192,2.30734,0.146042,-0.677755,0.147781
4975664,0.99,-1.57037,-0.522865,0.000129881,-2.09583,1.57082,1.5717,0.785064,-1.5708,-0.523599,6.97311e-08,-2.0944,1.5708,1.5708,0.785397,0.000747661,-0.000210982,-6.95931e-05,0.000420251,0.00020805,-0.000812016,0.000880966,0,0,0,0,0,0,0,-0.454395,-10.1377,-0.484555,20.821,0.706194,-0.656224,0.071604,-0.435305,-1.01333,-0.0917364,2.30605,0.146051,-0.677593,0.147776
4975665,0.99,-1.57037,-0.522865,0.000129879,-2.09583,1.57082,1.5717,0.785056,-1.5708,-0.523599,6.97311e-08,-2.0944,1.5708,1.5708,0.785397,0.000498441,-0.000140655,-4.63954e-05,-0.000276645,0.0001387,0.000645451,-0.00205755,0,0,0,0,0,0,0,-0.454395,-10.1377,-0.484555,20.8448,0.706194,-0.688268,0.143015,-0.435982,-1.01081,-0.0929411,2.30425,0.146036,-0.677398,0.147743
4975666,0.99,-1.57037,-0.522865,0.000129878,-2.09583,1.57082,1.5717,0.785061,-1.5708,-0.523599,6.97311e-08,-2.0944,1.5708,1.5708,0.785397,0.000332294,-9.37697e-05,-3.09303e-05,0.000372382,-0.000110984,-4.44173e-05,0.000323723,0,0,0,0,0,0,0,-0.454395,-10.1377,-0.484555,20.821,0.711687,-0.67545,0.0972387,-0.43662,-1.00903,-0.0940107,2.303,0.146037,-0.677209,0.14768
4975667,0.99,-1.57037,-0.522865,0.000131548,-2.09584,1.57082,1.5717,0.785059,-1.5708,-0.523599,6.97311e-08,-2.0944,1.5708,1.5708,0.785397,-0.000335283,-6.25132e-05,0.000536192,-0.000958171,-0.00027744,-0.00026697,-0.000496261,0,0,0,0,0,0,0,-0.430592,-10.1377,-0.508359,20.8725,0.71718,-0.669042,0.116465,-0.437119,-1.0082,-0.0948703,2.30247,0.146057,-0.677053,0.147626
4975668,0.99,-1.57037,-0.522863,0.000129878,-2.09583,1.57082,1.5717,0.78506,-1.5708,-0.523599,6.97311e-08,-2.0944,1.5708,1.5708,0.785397,-0.000873136,0.000607939,-0.000199351,1.08332e-05,0.000425392,0.000296738,-9.34819e-05,0,0,0,0,0,0,0,-0.402821,-10.1654,-0.484555,20.8448,0.700701,-0.681859,0.110056,-0.437188,-1.00895,-0.095184,2.30302,0.146105,-0.676978,0.147598
4975669,0.99,-1.57037,-0.522867,0.000127929,-2.09583,1.57082,1.5717,0.785065,-1.5708,-0.523599,6.97311e-08,-2.0944,1.5708,1.5708,0.785397,0.000624335,-0.000801134,-0.000782514,7.2221e-06,-0.000123307,0.000197825,0.00159919,0,0,0,0,0,0,0,-0.454395,-10.1139,-0.456784,20.8448,0.711687,-0.681859,0.0651953,-0.436495,-1.01028,-0.0943572,2.30391,0.146133,-0.677024,0.1476
4975670,0.99,-1.57037,-0.522863,0.000131548,-2.09583,1.57082,1.5717,0.785057,-1.5708,-0.523599,6.97311e-08,-2.0944,1.5708,1.5708,0.785397,-0.000140588,0.000672337,0.00068475,0.000561627,-0.000285655,-0.000105476,-0.00154482,0,0,0,0,0,0,0,-0.430592,-10.1654,-0.508359,20.821,0.71718,-0.67545,0.135691,-0.435682,-1.01078,-0.0932225,2.30418,0.146121,-0.677086,0.14762
4975671,0.99,-1.57036,-0.522865,0.000131548,-2.09583,1.57082,1.5717,0.785064,-1.5708,-0.523599,6.97311e-08,-2.0944,1.5708,1.5708,0.785397,0.0010199,-0.000201389,0.0004565,-0.000182394,0.000216464,-7.03171e-05,0.00110635,0,0,0,0,0,0,0,-0.478199,-10.1377,-0.508359,20.8448,0.706194,-0.67545,0.0780126,-0.43574,-1.01114,-0.0933259,2.30421,0.146127,-0.677027,0.14764
4975672,0.99,-1.57036,-0.522861,0.000129878,-2.09583,1.57082,1.5717,0.785061,-1.5708,-0.523599,6.97311e-08,-2.0944,1.5708,1.5708,0.785397,0.00132955,0.00107217,-0.000252479,-0.000121596,-0.000262591,-4.6878e-05,2.54898e-05,0,0,0,0,0,0,0,-0.50597,-10.1892,-0.484555,20.8448,0.71718,-0.67545,0.0972387,-0.436802,-1.0125,-0.0947772,2.30475,0.14618,-0.676842,0.147661
4975673,0.99,-1.57036,-0.522861,0.000129878,-2.09584,1.57082,1.5717,0.78506,-1.5708,-0.523599,6.97311e-08,-2.0944,1.5708,1.5708,0.785397,0.00023675,0.000714778,-0.000168319,-0.000730678,-0.000175061,-0.000268611,-0.000457725,0,0,0,0,0,0,0,-0.478199,-10.1892,-0.484555,20.8725,0.71718,-0.669042,0.110056,-0.43811,-1.01583,-0.0963378,2.3064,0.146276,-0.676656,0.147671
4975674,0.99,-1.57037,-0.522865,0.000131548,-2.09583,1.57082,1.5717,0.785066,-1.5708,-0.523599,6.97311e-08,-2.0944,1.5708,1.5708,0.785397,-0.000398978,-0.000729908,0.000444599,0.000162495,0.000290194,0.000295644,0.00159372,0,0,0,0,0,0,0,-0.454395,-10.1377,-0.508359,20.8448,0.706194,-0.681859,0.0587866,-0.438997,-1.01945,-0.0971585,2.30835,0.146374,-0.676548,0.147665
4975675,0.99,-1.57037,-0.522863,0.000131548,-2.09583,1.57081,1.5717,0.785059,-1.5708,-0.523599,6.97311e-08,-2.0944,1.5708,1.5708,0.785397,-0.000822798,0.000163009,0.000296399,0.00010833,-9.98802e-06,-4.0263e-05,-0.00131111,0,0,0,0,0,0,0,-0.430592,-10.1654,-0.508359,20.8448,0.711687,-0.67545,0.122873,-0.439348,-1.02073,-0.0972422,2.30913,0.146428,-0.676501,0.147639
4975676,0.99,-1.57037,-0.522865,0.000126258,-2.09583,1.57082,1.5717,0.78506,-1.5708,-0.523599,6.97311e-08,-2.0944,1.5708,1.5708,0.785397,8.28027e-06,-0.000540941,-0.00156564,0.00183546,-6.65868e-06,0.000210517,-0.000399354,0,0,0,0,0,0,0,-0.454395,-10.1377,-0.432981,20.7694,0.711687,-0.681859,0.110056,-0.43882,-1.01949,-0.0959957,2.30823,0.146393,-0.676567,0.147585
4975677,0.99,-1.57037,-0.522865,0.000129878,-2.09583,1.57081,1.5717,0.785059,-1.57079,-0.523597,2.18163e-06,-2.09439,1.5708,1.5708,0.785398,5.52018e-06,-0.000360628,0.000162667,1.72127e-05,-4.43912e-06,0.000140345,-0.000503595,0.00362557,0.001875,0.00211189,0.0026176,0.00132141,0.005,0.000469724,-0.454395,-10.1377,-0.484555,20.821,0.711687,-0.681859,0.116465,-0.437531,-1.01615,-0.0934289,2.30575,0.146267,-0.676737,0.147526
4975678,0.99,-1.57037,-0.522863,0.000129878,-2.09583,1.57082,1.5717,0.785058,-1.57079,-0.523593,6.40542e-06,-2.09439,1.5708,1.57081,0.785399,-0.000553132,0.000409196,0.000108445,-0.00119495,-0.00020641,-0.000143796,-0.000810448,0.00725114,0.00375,0.00422379,0.00523521,0.00264281,0.01,0.000939449,-0.430592,-10.1654,-0.484555,20.8725,0.71718,-0.67545,0.129282,-0.436433,-1.01331,-0.0911008,2.30377,0.146172,-0.67689,0.147489
4975679,0.99,-1.57037,-0.522865,0.000129878,-2.09583,1.57082,1.5717,0.785064,-1.57077,-0.523587,1.27411e-05,-2.09438,1.5708,1.57083,0.7854,-0.00101837,-0.000376817,7.22965e-05,-0.00014702,0.000472745,0.000616213,0.00135857,0.0108767,0.005625,0.00633568,0.00785281,0.00396422,0.015,0.00140917,-0.402821,-10.1377,-0.484555,20.8448,0.700701,-0.694677,0.0780126,-0.43561,-1.01282,-0.0893374,2.30361,0.146168,-0.677032,0.147491
4975680,0.99,-1.57037,-0.522868,0.000131621,-2.09583,1.57082,1.5717,0.785059,-1.57076,-0.52358,2.11887e-05,-2.09437,1.57081,1.57085,0.785402,0.00129757,0.000584279,0.00333254,-0.000747627,0.000315163,-6.39093e-05,-0.000518438,0.0145023,0.0075,0.00844758,0.0104704,0.00528562,0.02,0.0018789,-0.355213,-10.0385,-0.357602,20.8725,0.700701,-0.681859,0.116465,-0.436039,-1.01366,-0.0896817,2.30444,0.146255,-0.67701,0.147534
4975681,0.99,-1.57037,-0.522867,0.000130211,-2.09584,1.57082,1.5717,0.785059,-1.57074,-0.523571,3.17482e-05,-2.09436,1.57082,1.57087,0.785404,0.0016137,0.000792115,0.00589867,-0.000892231,-0.000196792,-0.000517324,-0.000582985,0.0181279,0.009375,0.0105595,0.013088,0.00660703,0.025,0.00234862,-0.101307,-9.91153,0.0470608,21.0193,0.711687,-0.669042,0.122873,-0.440676,-1.01619,-0.0966925,2.30641,0.146536,-0.676387,0.147604
4975682,0.99,-1.57037,-0.522871,0.000142307,-2.09584,1.57082,1.5717,0.785057,-1.57072,-0.523559,4.44195e-05,-2.09434,1.57082,1.5709,0.785407,-0.00259737,-0.00181539,0.00936799,-0.00176593,7.22557e-05,-0.000344883,-0.000863374,0.0217534,0.01125,0.0126714,0.0157056,0.00792843,0.03,0.00281835,0.350963,-9.65762,0.42792,21.2177,0.706194,-0.669042,0.135691,-0.450189,-1.0188,-0.111855,2.3092,0.147052,-0.674999,0.147705
4975683,0.99,-1.57037,-0.522865,0.000157319,-2.09583,1.57082,1.5717,0.785056,-1.57069,-0.523546,5.92028e-05,-2.09432,1.57083,1.57094,0.78541,-0.00196311,-0.00160667,0.010327,0.00229335,0.000251621,-0.000229922,-0.00108421,0.025379,0.013125,0.0147833,0.0183232,0.00924984,0.035,0.00328807,0.807201,-9.48306,0.884158,21.2177,0.700701,-0.669042,0.149424,-0.462314,-1.01617,-0.13232,2.31019,0.147662,-0.673023,0.147864
4975684,0.99,-1.57037,-0.522858,0.000177017,-2.09582,1.57082,1.5717,0.785061,-1.57067,-0.523531,7.60979e-05,-2.0943,1.57084,1.57098,0.785414,-0.00358601,-0.000165485,0.0127957,0.00463467,0.000608557,-0.00039064,0.000972615,0.0290046,0.015,0.0168952,0.0209408,0.0105712,0.04,0.00375779,1.23567,-9.35611,1.31262,21.2455,0.688799,-0.662633,0.103647,-0.474809,-1.00604,-0.154918,2.30711,0.148203,-0.670646,0.148119
4975685,0.99,-1.57037,-0.522845,0.000204767,-2.09582,1.57082,1.5717,0.785054,-1.57063,-0.523514,9.5105e-05,-2.09428,1.57086,1.57102,0.785418,-0.000137795,0.00257651,0.0158072,0.00446385,0.000812606,-0.000972504,-0.00152173,0.0326301,0.016875,0.0190071,0.0235584,0.0118926,0.045,0.00422752,1.61256,-9.30453,1.66968,21.3446,0.677812,-0.643407,0.162241,-0.487149,-0.992984,-0.179008,2.30178,0.148708,-0.667844,0.148477
4975686,0.99,-1.57036,-0.522837,0.00023122,-2.09581,1.57082,1.57171,0.785064,-1.5706,-0.523496,0.000116224,-2.09425,1.57087,1.57107,0.785423,0.00133342,0.00397512,0.0189715,0.00840717,-0.000712874,-0.000173618,0.00234245,0.0362557,0.01875,0.0211189,0.026176,0.0132141,0.05,0.00469724,2.04103,-9.22916,1.99897,21.416,0.711687,-0.656224,0.071604,-0.500427,-0.982425,-0.206363,2.29725,0.149319,-0.664355,0.148925
4975687,0.99,-1.57036,-0.522828,0.000256409,-2.0958,1.57082,1.57172,0.785059,-1.57055,-0.523473,0.000141251,-2.09422,1.57088,1.57113,0.785428,0.00438618,0.00367544,0.0220641,0.00551064,-0.00132296,0.00154577,-9.98808e-05,0.0429127,0.0225,0.0250268,0.0308254,0.0153369,0.06,0.0053676,2.39412,-9.1022,2.30048,21.4676,0.734575,-0.701085,0.116465,-0.515228,-0.975016,-0.238106,2.29463,0.150123,-0.65996,0.149444
4975688,0.99,-1.57034,-0.522821,0.000283867,-2.09579,1.57082,1.57172,0.785061,-1.5705,-0.523447,0.000170185,-2.09418,1.5709,1.5712,0.785434,0.00516781,0.00675793,0.0219155,0.00542354,-0.00128887,0.000793153,0.000408131,0.0495696,0.02625,0.0289346,0.0354747,0.0174597,0.07,0.00603795,2.67183,-8.97525,2.55438,21.5668,0.745561,-0.694677,0.103647,-0.529869,-0.97208,-0.272091,2.29634,0.151212,-0.654815,0.149974
4975689,0.99,-1.57032,-0.522813,0.000308838,-2.09578,1.57082,1.57173,0.78507,-1.57045,-0.523417,0.000203028,-2.09414,1.57092,1.57128,0.785441,0.0122577,0.00592434,0.0217409,0.0095188,-0.000655799,0.0040077,0.00240832,0.0562265,0.03,0.0328424,0.040124,0.0195825,0.08,0.00670831,2.79878,-8.8483,2.80829,21.6144,0.740068,-0.662633,0.0459692,-0.541694,-0.973709,-0.304188,2.30282,0.152549,-0.649282,0.150471
4975690,0.99,-1.5703,-0.522803,0.000336213,-2.09577,1.57082,1.57174,0.785062,-1.57039,-0.523383,0.000239778,-2.0941,1.57094,1.57137,0.785449,0.0192488,0.00733398,0.0265574,0.00777098,-0.000437199,0.00691045,-0.00148012,0.0628834,0.03375,0.0367502,0.0447734,0.0217053,0.09,0.00737866,2.97731,-8.67374,3.13758,21.7414,0.740068,-0.636998,0.129282,-0.551649,-0.975726,-0.335227,2.31144,0.154086,-0.64321,0.150907
4975691,0.99,-1.57027,-0.52279,0.000371514,-2.09575,1.57082,1.57175,0.785065,-1.57032,-0.523346,0.000280436,-2.09405,1.57097,1.57147,0.785457,0.0194766,0.00985951,0.0312762,0.012673,-0.000494917,0.00545918,-3.73117e-05,0.0695404,0.0375,0.040658,0.0494227,0.0238282,0.1,0.00804902,3.3542,-8.41983,3.54224,21.7414,0.745561,-0.514318,0.103647,-0.562746,-0.977132,-0.369751,2.32168,0.155941,-0.636134,0.15126
4975692,0.99,-1.57025,-0.522771,0.000410374,-2.09574,1.57082,1.57175,0.785069,-1.57024,-0.523304,0.000325002,-2.094,1.57099,1.57158,0.785465,0.0232582,0.0139357,0.032611,0.0112729,0.000483858,0.00421133,0.00490576,0.0761973,0.04125,0.0445658,0.054072,0.025951,0.11,0.00871937,3.85804,-8.11832,4.05005,21.9397,0.723589,-0.379735,0.0972387,-0.57452,-0.981489,-0.407506,2.33496,0.158156,-0.628037,0.151551
4975693,0.99,-1.57021,-0.522744,0.000450135,-2.09571,1.57082,1.57177,0.785064,-1.57016,-0.523259,0.000373475,-2.09394,1.57102,1.5717,0.785475,0.028653,0.0214843,0.0344224,0.0141473,-8.43293e-05,0.00934136,0.00149148,0.0828542,0.045,0.0484736,0.0587214,0.0280738,0.12,0.00938972,4.26271,-7.86441,4.65705,21.9873,0.734575,-0.276281,0.155832,-0.584534,-0.996924,-0.44472,2.35523,0.160758,-0.619153,0.151794
4975694,0.99,-1.57016,-0.522711,0.000491413,-2.09568,1.57083,1.57179,0.785072,-1.57007,-0.523211,0.000425857,-2.09387,1.57105,1.57183,0.785485,0.0354956,0.0252743,0.0357278,0.0204025,0.00119839,0.0140652,0.00274571,0.0895112,0.04875,0.0523814,0.0633707,0.0301966,0.13,0.0100601,4.56422,-7.66208,5.18866,21.9873,0.700701,-0.192968,0.116465,-0.591413,-1.02852,-0.478789,2.384,0.163715,-0.609501,0.152012
4975695,0.99,-1.57011,-0.522671,0.000542474,-2.09565,1.57084,1.57182,0.785069,-1.56997,-0.523158,0.000482146,-2.09381,1.57108,1.57197,0.785495,0.0386763,0.0285364,0.0396875,0.0218289,0.00205354,0.022791,0.000592409,0.0961681,0.0525,0.0562892,0.06802,0.0323194,0.14,0.0107304,4.94508,-7.48355,5.59333,22.1143,0.666826,-0.121556,0.155832,-0.594443,-1.07164,-0.508321,2.41783,0.166861,-0.598906,0.15226
4975696,0.99,-1.57004,-0.522627,0.000586587,-2.09562,1.57084,1.57187,0.785072,-1.56987,-0.523102,0.000542343,-2.09373,1.57112,1.57212,0.785507,0.0473324,0.0328452,0.0395287,0.0227504,0.00578984,0.0274603,0.00532313,0.102825,0.05625,0.0601971,0.0726694,0.0344423,0.15,0.0114008,5.19502,-7.38437,6.10114,22.2611,0.677812,-0.127965,0.155832,-0.592894,-1.12183,-0.532016,2.45547,0.170085,-0.587208,0.152563
4975697,0.99,-1.56996,-0.522586,0.000641014,-2.09558,1.57084,1.57193,0.785074,-1.56976,-0.52304,0.00060808,-2.09365,1.57116,1.57229,0.785519,0.0575113,0.0366349,0.0412207,0.0267973,0.00236333,0.0413139,0.0043068,0.112121,0.061875,0.0657371,0.0789214,0.0370416,0.164713,0.0120549,5.39735,-7.18204,6.40265,22.388,0.729082,-0.166417,0.149424,-0.58692,-1.17763,-0.549298,2.49737,0.173332,-0.57427,0.152937
4975698,0.99,-1.56988,-0.522545,0.000693774,-2.09554,1.57084,1.572,0.78507,-1.56963,-0.522972,0.000679357,-2.09357,1.5712,1.57247,0.785532,0.0620962,0.0389077,0.0453942,0.0300184,0.000215775,0.0513041,0.000650761,0.121417,0.0675,0.0712771,0.0851734,0.039641,0.179425,0.012709,5.59968,-6.9559,6.70813,22.511,0.773943,-0.199376,0.219919,-0.577462,-1.23473,-0.561041,2.54156,0.176593,-0.560029,0.153419
4975699,0.99,-1.5698,-0.5225,0.000745889,-2.0955,1.57085,1.57209,0.78507,-1.5695,-0.522899,0.000756174,-2.09348,1.57124,1.57266,0.785545,0.0714832,0.0387408,0.0491413,0.0327014,-0.00108791,0.0640724,0.00392707,0.130713,0.073125,0.0768171,0.0914254,0.0422403,0.194138,0.0133631,5.67506,-6.77737,6.98584,22.634,0.81331,-0.250646,0.259287,-0.565569,-1.28521,-0.569064,2.58462,0.179917,-0.544481,0.154054
4975700,0.99,-1.5697,-0.52245,0.000801583,-2.09544,1.57085,1.57219,0.785068,-1.56936,-0.522821,0.000838531,-2.09338,1.57128,1.57287,0.785559,0.0810834,0.0435564,0.054312,0.0381494,-0.00140326,0.0768967,0.00203912,0.140009,0.07875,0.0823571,0.0976775,0.0448397,0.208851,0.0140172,5.75044,-6.55124,7.29132,22.6102,0.836199,-0.276281,0.291331,-0.553485,-1.32323,-0.576639,2.62404,0.183413,-0.527546,0.154929
4975701,0.99,-1.5696,-0.5224,0.000868562,-2.09538,1.57085,1.57229,0.785062,-1.56921,-0.522736,0.000926428,-2.09328,1.57133,1.57309,0.785574,0.0889424,0.0500855,0.0595333,0.0469777,-0.000604764,0.0878613,-0.00130427,0.149305,0.084375,0.0878971,0.103929,0.047439,0.223564,0.0146713,5.92897,-6.19418,7.64441,22.634,0.830705,-0.205785,0.375559,-0.543688,-1.35046,-0.587038,2.6591,0.187217,-0.509248,0.156158
4975702,0.99,-1.56949,-0.522341,0.000940029,-2.09532,1.57087,1.57241,0.785068,-1.56906,-0.522646,0.00101987,-2.09317,1.57138,1.57333,0.785589,0.0963331,0.0552825,0.0640076,0.054098,0.00504838,0.100572,0.00113393,0.158601,0.09,0.0934371,0.110182,0.0500384,0.238276,0.0153254,6.17891,-5.81729,8.12445,22.6102,0.81331,-0.121556,0.330698,-0.536572,-1.37093,-0.600499,2.68936,0.191342,-0.489872,0.157856
4975703,0.99,-1.56937,-0.522265,0.00101614,-2.09525,1.57087,1.57256,0.78507,-1.56889,-0.522551,0.00111884,-2.09305,1.57143,1.57358,0.785605,0.102895,0.0622278,0.0635397,0.0578463,0.00359249,0.118149,0.00128366,0.167897,0.095625,0.0989771,0.116434,0.0526377,0.252989,0.0159795,6.53199,-5.56339,8.63227,22.6618,0.819719,-0.121556,0.323374,-0.529025,-1.38867,-0.611937,2.7163,0.195699,-0.470072,0.160097
4975704,0.99,-1.56923,-0.522184,0.0010926,-2.09517,1.57089,1.57273,0.785075,-1.56871,-0.522449,0.00122336,-2.09293,1.57149,1.57385,0.785622,0.113062,0.0686916,0.0639516,0.0667047,0.00828417,0.138116,0.00270962,0.177193,0.10125,0.104517,0.122686,0.0552371,0.267702,0.0166336,6.8097,-5.36105,9.13611,22.6102,0.796831,-0.179235,0.278513,-0.516061,-1.4083,-0.613171,2.7427,0.200167,-0.45072,0.162857
4975705,0.99,-1.56908,-0.522095,0.00117623,-2.09509,1.57091,1.57292,0.785093,-1.56852,-0.522342,0.00133342,-2.0928,1.57155,1.57413,0.785639,0.12456,0.075908,0.0725676,0.075791,0.0122952,0.157891,0.00601967,0.186489,0.106875,0.110057,0.128938,0.0578365,0.282414,0.0172877,7.03584,-5.13492,9.56855,22.5348,0.757463,-0.263463,0.16865,-0.497685,-1.43038,-0.603657,2.76818,0.204668,-0.431923,0.166044
4975706,1,-1.56892,-0.522002,0.00125936,-2.095,1.57093,1.57313,0.785094,-1.56833,-0.52223,0.00144901,-2.09266,1.57161,1.57443,0.785657,0.13599,0.0818653,0.0770613,0.0796801,0.0144268,0.177247,0.00269715,0.195785,0.1125,0.115597,0.13519,0.0604358,0.297127,0.0179418,7.16279,-4.93259,10.0486,22.6102,0.740068,-0.366002,0.207102,-0.478931,-1.45415,-0.590961,2.79228,0.2093,-0.413064,0.169493
4975707,1,-1.56875,-0.52191,0.00135143,-2.09491,1.57095,1.57336,0.785103,-1.56812,-0.52211,0.00157112,-2.09252,1.57167,1.57474,0.785675,0.142838,0.0825488,0.0817227,0.0828614,0.0145215,0.193032,0.00680524,0.206769,0.11999,0.122108,0.142525,0.0633007,0.314169,0.0185865,7.34132,-4.70645,10.3541,22.6618,0.762956,-0.475866,0.207102,-0.46174,-1.47689,-0.578193,2.81613,0.214127,-0.393982,0.172989
4975708,1,-1.56858,-0.521817,0.00144861,-2.09481,1.57097,1.57361,0.785112,-1.5679,-0.521983,0.00169974,-2.09237,1.57174,1.57508,0.785695,0.154512,0.0854279,0.0863445,0.0897379,0.014094,0.209804,0.00970331,0.217754,0.12748,0.128619,0.14986,0.0661656,0.33121,0.0192312,7.51588,-4.45255,10.6318,22.6618,0.802324,-0.469457,0.207102,-0.445034,-1.49014,-0.563758,2.83808,0.219015,-0.374944,0.176393
4975709,1,-1.5684,-0.521725,0.00154851,-2.0947,1.57099,1.57386,0.785108,-1.56768,-0.521848,0.00183487,-2.09221,1.5718,1.57542,0.785715,0.158908,0.087244,0.0895362,0.0964388,0.0183968,0.221408,0.00168658,0.228738,0.13497,0.13513,0.157195,0.0690305,0.348251,0.019876,7.74202,-4.17484,10.8857,22.761,0.847185,-0.418187,0.356333,-0.427292,-1.48561,-0.545337,2.8544,0.223762,-0.356273,0.179656
4975710,1,-1.5682,-0.521617,0.00163818,-2.09459,1.57102,1.57415,0.785114,-1.56744,-0.521705,0.00197651,-2.09205,1.57188,1.57579,0.785735,0.172191,0.0967261,0.0881557,0.103286,0.0215564,0.239571,0.00501263,0.239723,0.14246,0.141642,0.16453,0.0718954,0.365293,0.0205207,7.79359,-3.9725,11.2903,22.7332,0.898454,-0.392553,0.394785,-0.405159,-1.4645,-0.51767,2.86486,0.228237,-0.338555,0.182819
4975711,1,-1.56799,-0.521504,0.00174373,-2.09446,1.57105,1.57445,0.785115,-1.56718,-0.521555,0.00212467,-2.09188,1.57195,1.57617,0.785756,0.188614,0.100719,0.0923489,0.111178,0.0243923,0.253241,0.00576592,0.250707,0.14995,0.148153,0.171865,0.0747604,0.382334,0.0211655,7.92054,-3.64322,11.5919,22.6102,0.932329,-0.340367,0.479014,-0.378365,-1.43486,-0.47933,2.87241,0.232541,-0.321917,0.186036
4975712,1,-1.56777,-0.521381,0.00184891,-2.09433,1.57109,1.57477,0.785113,-1.56692,-0.521398,0.00227933,-2.0917,1.57203,1.57657,0.785778,0.199893,0.106559,0.0994126,0.120069,0.0238209,0.275144,0.00696766,0.261692,0.15744,0.154664,0.179201,0.0776253,0.399375,0.0218102,8.14668,-3.29013,12.0005,22.511,0.921343,-0.353185,0.550425,-0.351782,-1.39897,-0.436934,2.87734,0.236945,-0.30563,0.18953
4975713,1,-1.56755,-0.521247,0.00195571,-2.09418,1.57113,1.57511,0.785129,-1.56665,-0.521233,0.0024405,-2.09151,1.57211,1.57699,0.785801,0.207283,0.113307,0.101074,0.127872,0.0318063,0.292739,0.0129117,0.272676,0.16493,0.161175,0.186536,0.0804902,0.416417,0.022455,8.42439,-2.90927,12.4805,22.3127,0.932329,-0.40537,0.485422,-0.326802,-1.35678,-0.393198,2.87888,0.241608,-0.289425,0.193512
4975714,1,-1.56731,-0.521103,0.00206853,-2.09403,1.57119,1.57547,0.785146,-1.56637,-0.52106,0.00260819,-2.09132,1.57219,1.57742,0.785824,0.214796,0.123919,0.102627,0.136387,0.0364539,0.31461,0.0122708,0.283661,0.17242,0.167686,0.193871,0.0833551,0.433458,0.0230997,8.62672,-2.65536,12.9368,22.1619,0.853594,-0.431005,0.42042,-0.298305,-1.31445,-0.341298,2.8793,0.246478,-0.274073,0.1981
4975715,1,-1.56706,-0.520951,0.00219365,-2.09388,1.57125,1.57585,0.785174,-1.56607,-0.52088,0.00278239,-2.09112,1.57228,1.57787,0.785847,0.223742,0.131625,0.107746,0.144814,0.0438292,0.335826,0.020328,0.294645,0.17991,0.174197,0.201206,0.08622,0.450499,0.0237445,8.92823,-2.35385,13.2383,22.1143,0.784929,-0.469457,0.24647,-0.262094,-1.27937,-0.275531,2.88152,0.25148,-0.260283,0.203244
4975716,1,-1.5668,-0.520788,0.00231323,-2.09371,1.57132,1.57626,0.785191,-1.56577,-0.520693,0.0029631,-2.09091,1.57237,1.57834,0.785872,0.23103,0.139205,0.109008,0.151012,0.0546248,0.357776,0.0207753,0.30563,0.1874,0.180708,0.208541,0.0890849,0.46754,0.0243892,9.23372,-2.12772,13.5953,21.9873,0.700701,-0.533544,0.207102,-0.217137,-1.2535,-0.194842,2.88659,0.256493,-0.248257,0.208705
4975717,1,-1.56653,-0.520622,0.00242873,-2.09354,1.57138,1.57668,0.785204,-1.56545,-0.520498,0.00315074,-2.09069,1.57246,1.57882,0.785897,0.241481,0.147135,0.110496,0.156589,0.0604589,0.379637,0.018333,0.317487,0.19489,0.187641,0.21655,0.0920653,0.485507,0.0250313,9.3329,-1.87381,13.9722,21.9873,0.672319,-0.617772,0.24647,-0.162245,-1.23635,-0.0977401,2.89543,0.261294,-0.238173,0.214123
4975718,1,-1.56625,-0.520455,0.00256366,-2.09335,1.57146,1.57712,0.785218,-1.56512,-0.520296,0.00334531,-2.09047,1.57255,1.57933,0.785922,0.255406,0.15163,0.119293,0.163698,0.0646246,0.400465,0.0168042,0.329344,0.20238,0.194573,0.224558,0.0950456,0.503473,0.0256733,9.53523,-1.56833,14.1508,21.8405,0.649431,-0.604955,0.284922,-0.100208,-1.225,0.0114889,2.90788,0.26579,-0.229647,0.21922
4975719,1,-1.56596,-0.520281,0.00269921,-2.09316,1.57154,1.57758,0.785228,-1.56478,-0.520086,0.00354682,-2.09023,1.57265,1.57985,0.785949,0.264202,0.158948,0.124166,0.169983,0.0704799,0.417835,0.0129404,0.341202,0.20987,0.201506,0.232566,0.098026,0.52144,0.0263153,9.70979,-1.29062,14.3769,21.789,0.683306,-0.598546,0.401194,-0.0373813,-1.21332,0.123026,2.9217,0.270003,-0.221727,0.223912
4975720,1,-1.56567,-0.520101,0.0028331,-2.09295,1.57162,1.57805,0.785238,-1.56443,-0.519869,0.00375526,-2.08999,1.57275,1.58039,0.785976,0.274371,0.163839,0.131576,0.186083,0.0697916,0.433072,0.0118227,0.353059,0.21736,0.208439,0.240575,0.101006,0.539406,0.0269573,9.86055,-1.11606,14.7062,21.7176,0.734575,-0.533544,0.485422,0.0231522,-1.19385,0.231667,2.93202,0.273823,-0.213839,0.228294
4975721,1,-1.56535,-0.519912,0.00298795,-2.09274,1.57171,1.57856,0.785248,-1.56406,-0.519644,0.00397063,-2.08974,1.57286,1.58095,0.786003,0.284468,0.171302,0.136943,0.193558,0.075075,0.449334,0.0109121,0.364916,0.22485,0.215371,0.248583,0.103987,0.557372,0.0275993,10.0391,-0.989105,14.8847,21.7652,0.757463,-0.463048,0.569651,0.080603,-1.15949,0.3358,2.933,0.277115,-0.205667,0.2326
4975722,1,-1.56503,-0.519723,0.00314413,-2.09252,1.57181,1.57908,0.785259,-1.56368,-0.519411,0.00419293,-2.08949,1.57296,1.58152,0.786032,0.296347,0.174359,0.141107,0.204006,0.0848683,0.475313,0.00707275,0.376773,0.23234,0.222304,0.256592,0.106967,0.575339,0.0282413,10.166,-0.885956,15.0632,21.789,0.757463,-0.488683,0.615427,0.135396,-1.10733,0.436079,2.92285,0.279894,-0.197094,0.237098
4975723,1,-1.56468,-0.519516,0.00329955,-2.09229,1.57191,1.57963,0.785284,-1.5633,-0.519172,0.00442217,-2.08922,1.57307,1.58211,0.78606,0.311583,0.187114,0.146742,0.216223,0.0918947,0.500544,0.0089548,0.38863,0.23983,0.229236,0.2646,0.109947,0.593305,0.0288834,10.2414,-0.965302,15.2894,21.8882,0.757463,-0.592137,0.531199,0.188147,-1.04007,0.533804,2.90283,0.282256,-0.188176,0.24202
4975724,1,-1.56434,-0.519311,0.00346407,-2.09204,1.57202,1.58021,0.785307,-1.56289,-0.518924,0.00465834,-2.08895,1.57319,1.58273,0.78609,0.323905,0.189309,0.152812,0.22303,0.0994108,0.53345,0.0135707,0.400488,0.24732,0.236169,0.272608,0.112928,0.611272,0.0295254,10.3168,-0.885956,15.5195,21.9397,0.700701,-0.636998,0.479014,0.238113,-0.963537,0.628114,2.87569,0.284386,-0.178968,0.247486
4975725,1,-1.56399,-0.519094,0.00363987,-2.09179,1.57214,1.58079,0.78534,-1.56248,-0.518669,0.00490144,-2.08867,1.5733,1.58336,0.78612,0.331514,0.198935,0.15863,0.233204,0.104425,0.551916,0.0158439,0.412345,0.25481,0.243101,0.280617,0.115908,0.629238,0.0301674,10.5945,-0.885956,15.694,21.9873,0.654924,-0.669042,0.323374,0.286161,-0.880583,0.719926,2.84427,0.286409,-0.169778,0.253429
4975726,1,-1.56361,-0.518865,0.00381211,-2.09153,1.57225,1.58142,0.785361,-1.56206,-0.518407,0.00515147,-2.08838,1.57342,1.584,0.786151,0.346299,0.206735,0.160424,0.239997,0.102076,0.576098,0.0226371,0.424202,0.2623,0.250034,0.288625,0.118888,0.647204,0.0308094,10.6183,-0.937531,15.9241,21.9635,0.643938,-0.740453,0.272104,0.334825,-0.796068,0.812733,2.8123,0.288342,-0.161091,0.259626
4975727,1,-1.56323,-0.518633,0.00398705,-2.09125,1.57237,1.58205,0.785381,-1.56162,-0.518137,0.00540839,-2.08808,1.57354,1.58467,0.786182,0.355712,0.212857,0.167259,0.24889,0.105762,0.596323,0.0209189,0.43621,0.26979,0.256922,0.296986,0.121857,0.665322,0.0314567,10.7214,-0.989105,16.178,21.9635,0.615556,-0.849401,0.278513,0.385316,-0.715059,0.908448,2.78328,0.290197,-0.153179,0.265756
4975728,1,-1.56285,-0.518391,0.00417857,-2.09097,1.57249,1.58271,0.785411,-1.56117,-0.51786,0.0056722,-2.08778,1.57367,1.58535,0.786215,0.361892,0.223103,0.175723,0.264859,0.112416,0.616239,0.0262562,0.448218,0.27728,0.26381,0.305346,0.124826,0.683439,0.0321039,10.9476,-1.01291,16.2772,21.9635,0.599077,-0.887853,0.240061,0.437551,-0.636492,1.00642,2.75577,0.291862,-0.146099,0.271545
4975729,1,-1.56245,-0.518139,0.00437966,-2.09068,1.57262,1.58338,0.785436,-1.56071,-0.517575,0.0059429,-2.08747,1.5738,1.58605,0.786247,0.381271,0.228114,0.184215,0.272921,0.12219,0.627676,0.0277839,0.460226,0.28477,0.270697,0.313707,0.127795,0.701557,0.0327512,11.023,-1.06448,16.4796,21.9397,0.576189,-0.772496,0.265696,0.488405,-0.557502,1.10165,2.72633,0.293203,-0.139413,0.276829
4975730,1,-1.56204,-0.517879,0.00458165,-2.09037,1.57274,1.58406,0.785464,-1.56024,-0.517283,0.00622048,-2.08714,1.57393,1.58677,0.786281,0.390653,0.237238,0.188474,0.282668,0.123479,0.641955,0.0289504,0.472233,0.29226,0.277585,0.322068,0.130764,0.719674,0.0333984,11.1499,-1.21524,16.6581,21.9635,0.60457,-0.688268,0.297739,0.533665,-0.477152,1.18847,2.69478,0.294234,-0.132396,0.281531
4975731,1,-1.56163,-0.517616,0.00479913,-2.09007,1.57287,1.58478,0.785491,-1.55976,-0.516983,0.00650496,-2.08681,1.57406,1.58751,0.786315,0.395489,0.244333,0.199123,0.285487,0.124523,0.665665,0.0245317,0.484241,0.29975,0.284473,0.330429,0.133733,0.737792,0.0340457,11.376,-1.26682,16.7335,21.9635,0.632951,-0.72672,0.349924,0.574906,-0.400407,1.26876,2.66577,0.29511,-0.125139,0.28565
4975732,1,-1.56121,-0.517336,0.00502362,-2.08975,1.57301,1.58553,0.785513,-1.55926,-0.516676,0.00679632,-2.08647,1.5742,1.58827,0.786349,0.406939,0.260827,0.208055,0.291337,0.125736,0.69237,0.0238453,0.496249,0.30724,0.291361,0.338789,0.136702,0.755909,0.034693,11.5268,-1.44534,16.8088,21.9873,0.654924,-0.849401,0.459788,0.615205,-0.341238,1.34546,2.64844,0.296254,-0.118141,0.289266
4975733,1,-1.56076,-0.51705,0.00525259,-2.08942,1.57315,1.58629,0.785545,-1.55875,-0.516361,0.00709457,-2.08613,1.57434,1.58904,0.786385,0.42174,0.270724,0.215129,0.305731,0.127457,0.713794,0.0228,0.508257,0.31473,0.298249,0.34715,0.139671,0.774027,0.0353402,11.5268,-1.5961,16.8842,21.9873,0.654924,-0.907079,0.466196,0.653875,-0.311755,1.41703,2.64797,0.298019,-0.111476,0.292561
4975734,1,-1.5603,-0.516749,0.0054796,-2.08909,1.57331,1.58707,0.785582,-1.55823,-0.516039,0.0073997,-2.08577,1.57448,1.58983,0.786421,0.429935,0.279814,0.217706,0.311121,0.13055,0.732398,0.0280018,0.520265,0.32222,0.305137,0.355511,0.14264,0.792144,0.0359875,11.5268,-1.82224,17.0389,22.0389,0.60457,-0.881444,0.434153,0.691705,-0.308986,1.48541,2.66039,0.300275,-0.105324,0.295781
4975735,1,-1.55983,-0.516447,0.0057145,-2.08874,1.57345,1.58786,0.785611,-1.5577,-0.515709,0.00771173,-2.08541,1.57463,1.59064,0.786457,0.444168,0.288022,0.225511,0.326123,0.136359,0.75146,0.0251731,0.532273,0.32971,0.312025,0.363872,0.145609,0.810262,0.0366347,11.5784,-1.97299,17.1897,21.9635,0.581682,-0.875035,0.453379,0.731275,-0.322181,1.5552,2.67926,0.302675,-0.0999917,0.299099
4975736,1,-1.55936,-0.51614,0.00596833,-2.08839,1.5736,1.58869,0.785653,-1.55716,-0.515372,0.00803064,-2.08504,1.57477,1.59147,0.786495,0.44665,0.291952,0.234864,0.331254,0.138416,0.771272,0.0268422,0.544281,0.3372,0.318913,0.372232,0.148578,0.828379,0.037282,11.8045,-2.05234,17.2889,21.9397,0.615556,-0.940038,0.36915,0.773027,-0.338845,1.62707,2.698,0.304938,-0.0953852,0.302587
4975737,1,-1.55888,-0.515821,0.00623422,-2.08804,1.57374,1.58953,0.785683,-1.5566,-0.515027,0.0083562,-2.08466,1.57493,1.59232,0.786533,0.461908,0.297848,0.242629,0.336147,0.141326,0.793695,0.0274996,0.556008,0.34469,0.325553,0.380725,0.151401,0.846076,0.0379188,11.9077,-2.09995,17.2889,22.0151,0.62105,-1.03617,0.42042,0.816335,-0.349782,1.69952,2.71398,0.307022,-0.0912777,0.306229
4975738,1,-1.55837,-0.51549,0.00649987,-2.08766,1.57391,1.59039,0.785725,-1.55603,-0.514675,0.00868839,-2.08427,1.57508,1.59318,0.786571,0.47939,0.310553,0.251768,0.349351,0.147697,0.81011,0.0329159,0.567736,0.35218,0.332194,0.389218,0.154223,0.863773,0.0385556,11.8799,-2.2269,17.3167,22.0151,0.519426,-0.991307,0.356333,0.857364,-0.35622,1.76725,2.72885,0.309113,-0.0871637,0.30995
4975739,1,-1.55783,-0.515145,0.00678276,-2.08729,1.57407,1.59126,0.785761,-1.55545,-0.514316,0.00902722,-2.08387,1.57524,1.59406,0.78661,0.493625,0.316383,0.26205,0.355119,0.15451,0.824278,0.0337268,0.579464,0.35967,0.338835,0.39771,0.157046,0.88147,0.0391924,11.6776,-2.35385,17.2889,21.9635,0.474565,-0.881444,0.362742,0.89009,-0.362705,1.82225,2.74345,0.31133,-0.0822404,0.313687
4975740,1,-1.55729,-0.514795,0.00706873,-2.0869,1.57423,1.59215,0.785794,-1.55486,-0.513948,0.0093727,-2.08346,1.5754,1.59496,0.78665,0.507579,0.325636,0.269218,0.366233,0.15722,0.841666,0.0329978,0.591191,0.36716,0.345475,0.406203,0.159868,0.899167,0.0398292,11.5784,-2.53238,17.1897,21.9873,0.502947,-0.919896,0.407602,0.912282,-0.369385,1.8616,2.75742,0.313586,-0.0760921,0.317373
4975741,1,-1.55675,-0.514442,0.00736174,-2.0865,1.5744,1.59309,0.785834,-1.55426,-0.513574,0.00972482,-2.08305,1.57556,1.59588,0.786691,0.517395,0.334363,0.276529,0.381713,0.157445,0.865186,0.0394945,0.602919,0.37465,0.352116,0.414696,0.16269,0.916865,0.040466,11.5784,-2.65536,17.0112,22.0151,0.570696,-1.05539,0.394785,0.926704,-0.373686,1.88966,2.76784,0.315595,-0.0690577,0.320971
4975742,1,-1.55619,-0.514072,0.00767099,-2.08611,1.57457,1.59402,0.785881,-1.55364,-0.513192,0.0100836,-2.08262,1.57573,1.59681,0.786732,0.53175,0.346732,0.287196,0.384718,0.158995,0.902458,0.0410216,0.614647,0.38214,0.358756,0.423188,0.165513,0.934562,0.0411028,11.3245,-2.75851,16.912,22.2889,0.62105,-1.07462,0.343516,0.936969,-0.379284,1.9115,2.77515,0.317321,-0.0619421,0.32449
4975743,1,-1.55561,-0.513698,0.00797862,-2.08569,1.57475,1.59495,0.78592,-1.55302,-0.512802,0.010449,-2.08219,1.57589,1.59777,0.786773,0.545494,0.354049,0.297386,0.399851,0.163446,0.908186,0.0401021,0.626374,0.38963,0.365397,0.431681,0.168335,0.952259,0.0417396,11.1975,-2.90927,16.7573,22.3603,0.581682,-0.972081,0.343516,0.942455,-0.392516,1.92588,2.78344,0.319084,-0.0549821,0.327909
4975744,1,-1.55501,-0.513311,0.00830285,-2.08528,1.57492,1.59591,0.785976,-1.55238,-0.512405,0.010821,-2.08175,1.57606,1.59874,0.786816,0.564909,0.365532,0.307383,0.402333,0.165517,0.925098,0.0430569,0.638102,0.39712,0.372037,0.440174,0.171157,0.969956,0.0423764,11.0745,-3.0878,16.5827,22.4634,0.570696,-0.952855,0.24647,0.938889,-0.414308,1.92711,2.79447,0.321142,-0.047487,0.331188
4975745,1,-1.55442,-0.512917,0.00863306,-2.08484,1.5751,1.59686,0.786014,-1.55173,-0.512,0.0111997,-2.0813,1.57624,1.59972,0.786859,0.574042,0.373305,0.311153,0.408344,0.16589,0.931857,0.0442246,0.64983,0.40461,0.378678,0.448666,0.17398,0.987653,0.0430132,10.9476,-3.33774,16.4558,22.4634,0.587175,-0.868627,0.297739,0.925594,-0.44766,1.91505,2.81238,0.323628,-0.0391301,0.334239
4975746,1,-1.5538,-0.512513,0.00896323,-2.08441,1.57528,1.59784,0.786055,-1.55107,-0.511588,0.011585,-2.08085,1.57642,1.60073,0.786902,0.586132,0.38432,0.319397,0.419094,0.165452,0.941284,0.0406098,0.661558,0.4121,0.385318,0.457159,0.176802,1.00535,0.04365,10.9476,-3.54007,16.4042,22.5348,0.615556,-0.836583,0.349924,0.907544,-0.494076,1.89725,2.83937,0.326432,-0.0303852,0.336959
4975747,1,-1.55318,-0.512099,0.00930857,-2.08397,1.57546,1.59884,0.786105,-1.5504,-0.511169,0.0119766,-2.08038,1.5766,1.60175,0.786947,0.613472,0.389965,0.328902,0.420562,0.16695,0.954191,0.045263,0.672697,0.41959,0.391634,0.465625,0.1793,1.02226,0.0442601,10.9714,-3.64322,16.4042,22.5864,0.610063,-0.791722,0.330698,0.883899,-0.550113,1.87294,2.87382,0.329533,-0.0208696,0.339354
4975748,1,-1.55254,-0.511689,0.00965804,-2.08352,1.57566,1.59984,0.78615,-1.54971,-0.510742,0.0123746,-2.07991,1.57678,1.60279,0.786992,0.622364,0.396565,0.335566,0.428429,0.173658,0.968106,0.0470731,0.683836,0.42708,0.397949,0.474091,0.181799,1.03917,0.0448701,10.9992,-3.69479,16.4042,22.6102,0.576189,-0.75327,0.349924,0.85026,-0.610538,1.83622,2.91446,0.333054,-0.00974341,0.341491
4975749,1,-1.5519,-0.511267,0.0100221,-2.08307,1.57585,1.60088,0.786203,-1.54902,-0.510307,0.0127788,-2.07942,1.57696,1.60385,0.787037,0.630637,0.400204,0.344468,0.432984,0.180673,0.984653,0.0462228,0.694975,0.43457,0.404264,0.482557,0.184297,1.05609,0.0454802,11.0745,-3.7186,16.428,22.6856,0.485552,-0.791722,0.310557,0.811059,-0.667118,1.79267,2.95773,0.336754,0.00254668,0.343418
4975750,1,-1.55123,-0.51085,0.0103892,-2.0826,1.57604,1.60193,0.786257,-1.54831,-0.509865,0.0131894,-2.07893,1.57715,1.60492,0.787083,0.634516,0.41415,0.348575,0.441719,0.177977,1.00597,0.0508143,0.706114,0.44206,0.41058,0.491023,0.186795,1.073,0.0460902,11.023,-3.61942,16.4558,22.634,0.480058,-0.881444,0.252878,0.776115,-0.71889,1.75485,3.00216,0.340274,0.0145829,0.345158
4975751,1,-1.55057,-0.510409,0.0107704,-2.08212,1.57624,1.603,0.786303,-1.54759,-0.509415,0.0136063,-2.07843,1.57734,1.60601,0.78713,0.640331,0.423589,0.357193,0.456605,0.181272,1.02075,0.0515894,0.717253,0.44955,0.416895,0.49949,0.189294,1.08991,0.0467003,11.1975,-3.61942,16.3288,22.5626,0.45717,-0.952855,0.265696,0.753376,-0.772483,1.73309,3.04779,0.343302,0.0249774,0.346691
4975752,1,-1.54987,-0.50996,0.0111566,-2.08164,1.57642,1.60409,0.78636,-1.54686,-0.508958,0.0140295,-2.07793,1.57753,1.60712,0.787177,0.655329,0.431348,0.361362,0.464379,0.18028,1.03878,0.0545668,0.728392,0.45704,0.423211,0.507956,0.191792,1.10682,0.0473104,11.1221,-3.66702,16.3288,22.3365,0.531328,-0.972081,0.213511,0.744235,-0.827415,1.72928,3.09107,0.345582,0.0333126,0.347976
4975753,1,-1.54918,-0.509501,0.0115531,-2.08114,1.57661,1.60518,0.78641,-1.54613,-0.508494,0.0144591,-2.07741,1.57772,1.60824,0.787225,0.668016,0.442089,0.371516,0.471838,0.180147,1.06085,0.0541283,0.739532,0.46453,0.429526,0.516422,0.194291,1.12373,0.0479204,11.0983,-3.89713,16.2772,22.1143,0.592668,-0.946447,0.233652,0.744025,-0.882045,1.73712,3.1311,0.347219,0.0400484,0.348972
4975754,1,-1.54848,-0.509037,0.0119472,-2.08063,1.57682,1.6063,0.786454,-1.54537,-0.508022,0.0148949,-2.07688,1.57792,1.60938,0.787274,0.680068,0.44548,0.376593,0.490028,0.190887,1.07293,0.051755,0.750671,0.47202,0.435841,0.524888,0.196789,1.14065,0.0485305,11.0468,-3.9725,16.2018,21.8882,0.615556,-0.881444,0.310557,0.747946,-0.93178,1.75002,3.16501,0.348356,0.0457792,0.349649
4975755,1,-1.54777,-0.508571,0.0123524,-2.08012,1.57702,1.60742,0.786508,-1.54461,-0.507542,0.0153371,-2.07635,1.57812,1.61054,0.787323,0.688805,0.445989,0.386178,0.49534,0.19661,1.08758,0.0522883,0.76181,0.47951,0.442157,0.533354,0.199287,1.15756,0.0491406,11.0468,-3.94473,16.0987,21.789,0.581682,-0.868627,0.330698,0.753923,-0.959519,1.76523,3.18289,0.348843,0.0510632,0.350053
4975756,1,-1.54705,-0.508104,0.0127633,-2.07958,1.57724,1.60856,0.786561,-1.54384,-0.507055,0.0157855,-2.07581,1.57832,1.61171,0.787373,0.695354,0.450502,0.391966,0.515395,0.203214,1.09815,0.0533992,0.772949,0.487,0.448472,0.54182,0.201786,1.17447,0.0497506,11.0745,-3.94473,16.0511,21.5668,0.480058,-0.868627,0.337107,0.762358,-0.950202,1.78311,3.17697,0.34852,0.0561936,0.350311
4975757,1,-1.54631,-0.507635,0.0131965,-2.07905,1.57745,1.60975,0.786612,-1.54306,-0.506561,0.0162399,-2.07526,1.57853,1.6129,0.787423,0.702501,0.453432,0.402759,0.516557,0.211462,1.11407,0.0537121,0.783294,0.49449,0.454409,0.55016,0.203885,1.19035,0.050313,11.1221,-3.82175,15.821,21.4676,0.412309,-0.959264,0.356333,0.774376,-0.901934,1.80463,3.14653,0.347355,0.0611803,0.350549
4975758,1,-1.54555,-0.507152,0.0136323,-2.0785,1.57766,1.61093,0.786666,-1.54226,-0.506059,0.0167003,-2.0747,1.57873,1.61411,0.787474,0.711403,0.465717,0.409121,0.52684,0.212266,1.13269,0.0503668,0.793639,0.50198,0.460346,0.5585,0.205985,1.20623,0.0508754,11.0468,-3.82175,15.7218,21.3922,0.355547,-1.08103,0.343516,0.790098,-0.829747,1.82915,3.10123,0.345592,0.065858,0.350836
4975759,1,-1.54478,-0.506664,0.0140539,-2.07794,1.57787,1.61214,0.786723,-1.54146,-0.505549,0.0171666,-2.07413,1.57894,1.61533,0.787525,0.72293,0.472589,0.421466,0.541031,0.213866,1.14015,0.053461,0.803983,0.50947,0.466282,0.566839,0.208085,1.22212,0.0514379,10.9238,-3.7186,15.8488,21.3922,0.389421,-1.13962,0.304148,0.807134,-0.751922,1.85276,3.05052,0.34349,0.0702249,0.351233
4975760,1,-1.544,-0.506166,0.0144945,-2.07737,1.57808,1.61338,0.78678,-1.54064,-0.505032,0.0176388,-2.07356,1.57915,1.61657,0.787577,0.749387,0.479421,0.421032,0.545749,0.21934,1.18335,0.0505808,0.814328,0.51696,0.472219,0.575179,0.210184,1.238,0.0520003,10.8444,-3.69479,15.8964,21.2931,0.417803,-1.30076,0.272104,0.82082,-0.674967,1.86996,2.99678,0.34112,0.0744957,0.351751
4975761,1,-1.54321,-0.505657,0.0149428,-2.07679,1.57828,1.61462,0.786849,-1.53982,-0.504508,0.0181169,-2.07297,1.57936,1.61782,0.78763,0.761016,0.493658,0.433314,0.557073,0.207678,1.19725,0.0564511,0.824673,0.52445,0.478156,0.583519,0.212284,1.25388,0.0525627,10.7968,-3.77017,15.7456,21.2177,0.531328,-1.55161,0.149424,0.827544,-0.607172,1.87757,2.94524,0.338748,0.0785285,0.352317
4975762,1,-1.5424,-0.505138,0.0153916,-2.07621,1.57849,1.61586,0.786911,-1.53898,-0.503976,0.018601,-2.07238,1.57958,1.61909,0.787683,0.769905,0.497988,0.438154,0.559491,0.206303,1.20067,0.056603,0.835018,0.53194,0.484092,0.591858,0.214384,1.26976,0.0531251,10.7214,-3.77017,15.6187,21.2693,0.570696,-1.53238,0.135691,0.827045,-0.55821,1.87544,2.90237,0.336754,0.0819281,0.352802
4975763,1,-1.54161,-0.504625,0.0158499,-2.07561,1.5787,1.61707,0.786964,-1.53814,-0.503437,0.0190911,-2.07178,1.57979,1.62038,0.787737,0.773435,0.503043,0.443804,0.56612,0.206805,1.19925,0.0592772,0.845362,0.53943,0.490029,0.600198,0.216483,1.28564,0.0536875,10.7968,-3.79398,15.5195,21.2455,0.576189,-1.21012,0.181467,0.824024,-0.524802,1.86964,2.86923,0.335205,0.0840531,0.35302
4975764,1,-1.54081,-0.504092,0.0162952,-2.07501,1.57891,1.61832,0.787027,-1.53728,-0.50289,0.019587,-2.07117,1.58001,1.62168,0.787791,0.780348,0.509636,0.444479,0.581529,0.207406,1.20375,0.0639898,0.855707,0.54692,0.495966,0.608538,0.218583,1.30153,0.0542499,10.9992,-3.82175,15.5671,21.3446,0.565202,-0.933629,0.162241,0.82617,-0.495433,1.87117,2.84019,0.333769,0.084146,0.352842
4975765,1,-1.53999,-0.503559,0.0167444,-2.0744,1.57913,1.61962,0.787079,-1.53642,-0.502335,0.0200889,-2.07056,1.58023,1.623,0.787846,0.802423,0.515356,0.443015,0.58458,0.21263,1.22443,0.0582943,0.866052,0.55441,0.501903,0.616877,0.220683,1.31741,0.0548123,11.1737,-3.7424,15.6702,21.416,0.558794,-1.05539,0.259287,0.837644,-0.462627,1.88708,2.8096,0.332135,0.0821514,0.35225
4975766,1,-1.53917,-0.503025,0.0171832,-2.0738,1.57937,1.62091,0.787139,-1.53554,-0.501773,0.0205968,-2.06993,1.58045,1.62433,0.787901,0.809612,0.521394,0.446353,0.584391,0.221158,1.24077,0.0564577,0.876397,0.5619,0.507839,0.625217,0.222783,1.33329,0.0553747,11.1737,-3.7186,15.8964,21.6144,0.428789,-1.10666,0.304148,0.858489,-0.429523,1.91838,2.78114,0.330402,0.0785446,0.351272
4975767,1,-1.53831,-0.502479,0.0176492,-2.07319,1.5796,1.62224,0.78721,-1.53466,-0.501204,0.0211101,-2.0693,1.58068,1.62568,0.787957,0.819702,0.524329,0.452455,0.588245,0.220688,1.26553,0.0584951,0.88581,0.56939,0.513363,0.633382,0.224456,1.34798,0.0558587,11.023,-3.66702,15.9995,21.8882,0.332659,-1.31357,0.259287,0.888546,-0.40054,1.96377,2.76095,0.328781,0.0735767,0.350024
4975768,1,-1.53748,-0.501917,0.018124,-2.07257,1.57983,1.62354,0.787287,-1.53376,-0.500627,0.021629,-2.06866,1.58091,1.62704,0.788013,0.821602,0.544283,0.459702,0.591742,0.224861,1.28501,0.0670658,0.895224,0.57688,0.518887,0.641548,0.226129,1.36267,0.0563427,11.1737,-3.69479,16.1265,22.0905,0.24843,-1.22294,0.143015,0.928007,-0.385418,2.02161,2.75488,0.327369,0.0670319,0.348648
4975769,1,-1.53664,-0.501351,0.018601,-2.07194,1.58005,1.62488,0.787366,-1.53286,-0.500043,0.0221534,-2.06801,1.58113,1.62842,0.78807,0.814422,0.549207,0.464858,0.609571,0.22073,1.29794,0.0685446,0.904638,0.58437,0.524411,0.649713,0.227803,1.37736,0.0568267,11.5268,-3.82175,16.1503,22.2889,0.350054,-1.1973,0.0258276,0.980374,-0.395294,2.09521,2.76529,0.325921,0.0580959,0.347176
4975770,1,-1.53577,-0.50076,0.0190809,-2.07132,1.58027,1.62625,0.787438,-1.53194,-0.499451,0.0226834,-2.06735,1.58136,1.62981,0.788127,0.821882,0.56148,0.469579,0.609751,0.22311,1.3145,0.0703069,0.914051,0.59186,0.529935,0.657878,0.229476,1.39205,0.0573107,11.6776,-4.07169,16.3526,22.4634,0.446184,-1.13321,0.00660151,1.04985,-0.426123,2.1896,2.78698,0.323967,0.04622,0.345492
4975771,1,-1.53491,-0.500176,0.019563,-2.07069,1.5805,1.6276,0.7875,-1.53102,-0.498851,0.0232188,-2.06668,1.58159,1.63122,0.788185,0.831819,0.568341,0.476434,0.6139,0.227571,1.33044,0.0668904,0.923465,0.59935,0.535459,0.666044,0.231149,1.40674,0.0577947,11.6538,-4.22244,16.3526,22.6618,0.485552,-1.01053,0.122873,1.13275,-0.475373,2.29971,2.82023,0.321629,0.0321817,0.343381
4975772,1,-1.53401,-0.499579,0.0200388,-2.07005,1.58073,1.62902,0.787551,-1.53009,-0.498245,0.0237598,-2.06601,1.58183,1.63264,0.788243,0.845622,0.573432,0.475702,0.632571,0.222912,1.35277,0.0631374,0.932878,0.60684,0.540983,0.674209,0.232823,1.42143,0.0582787,11.3999,-4.40097,16.5073,22.761,0.480058,-1.13321,0.291331,1.22199,-0.534308,2.41683,2.86095,0.319135,0.0173109,0.34076
4975773,1,-1.53312,-0.49897,0.0205279,-2.06939,1.58095,1.63042,0.787614,-1.52914,-0.49763,0.0243063,-2.06533,1.58206,1.63407,0.788302,0.860442,0.585599,0.481595,0.633581,0.223925,1.38885,0.0596151,0.942292,0.61433,0.546506,0.682374,0.234496,1.43612,0.0587627,11.2769,-4.50412,16.5549,22.8086,0.485552,-1.17807,0.356333,1.31295,-0.590818,2.53636,2.90066,0.316544,0.00237537,0.337809
4975774,1,-1.53221,-0.498369,0.0210318,-2.06874,1.58118,1.63184,0.787671,-1.52819,-0.497008,0.0248583,-2.06464,1.5823,1.63553,0.788361,0.873595,0.586289,0.490679,0.649953,0.227228,1.39214,0.0564838,0.951706,0.62182,0.55203,0.69054,0.23617,1.4508,0.0592467,11.1737,-4.50412,16.3288,22.9077,0.423296,-1.11399,0.434153,1.39901,-0.640977,2.65014,2.93707,0.314113,-0.0117436,0.334869
4975775,1,-1.53128,-0.49776,0.021551,-2.06807,1.58141,1.63328,0.787752,-1.52723,-0.496379,0.0254159,-2.06394,1.58253,1.63699,0.788421,0.889501,0.590242,0.499511,0.65099,0.23253,1.40082,0.0669479,0.961119,0.62931,0.557554,0.698705,0.237843,1.46549,0.0597307,10.9476,-4.42477,16.0749,22.8839,0.400408,-0.946447,0.304148,1.4709,-0.672817,2.74557,2.96528,0.311944,-0.0234401,0.332305
4975776,1,-1.53034,-0.497139,0.0220637,-2.0674,1.58165,1.63472,0.78783,-1.52626,-0.495742,0.025979,-2.06323,1.58277,1.63847,0.788481,0.906226,0.597463,0.504561,0.652223,0.236197,1.41648,0.0691338,0.970533,0.6368,0.563078,0.70687,0.239516,1.48018,0.0602147,10.5191,-4.47635,15.9479,22.8363,0.389421,-0.913488,0.175059,1.52298,-0.684774,2.81507,2.98777,0.310151,-0.0316188,0.330306
4975777,1,-1.52938,-0.496507,0.0225927,-2.06672,1.5819,1.63618,0.7879,-1.52528,-0.495098,0.0265471,-2.06252,1.58302,1.63996,0.788542,0.920166,0.603018,0.510406,0.671254,0.238956,1.42826,0.0671559,0.978924,0.64429,0.568171,0.714862,0.240749,1.49357,0.060572,10.1898,-4.52792,15.7218,22.7094,0.36104,-0.80454,0.135691,1.55531,-0.683099,2.85944,3.00825,0.308717,-0.0362253,0.328799
4975778,1,-1.52844,-0.495866,0.0231367,-2.06602,1.58213,1.63767,0.787974,-1.52429,-0.494446,0.0271204,-2.06179,1.58326,1.64147,0.788603,0.945084,0.613059,0.523046,0.673074,0.244372,1.43827,0.0664484,0.987316,0.65178,0.573265,0.722853,0.241982,1.50697,0.0609292,10.0906,-4.55173,15.5671,22.4118,0.34456,-0.791722,0.071604,1.56569,-0.668841,2.87644,3.02384,0.30752,-0.0368778,0.327565
4975779,1,-1.52746,-0.495227,0.0236692,-2.06531,1.58238,1.63915,0.788026,-1.5233,-0.493787,0.0276988,-2.06106,1.5835,1.64299,0.788664,0.948201,0.620035,0.520665,0.683916,0.244429,1.44833,0.0590789,0.995707,0.65927,0.578358,0.730844,0.243215,1.52036,0.0612865,9.88832,-4.55173,15.4917,22.1897,0.34456,-0.836583,0.207102,1.55461,-0.649654,2.86718,3.03718,0.306558,-0.0336247,0.326347
4975780,1,-1.52647,-0.494577,0.0242304,-2.0646,1.58264,1.64065,0.788078,-1.52229,-0.49312,0.0282822,-2.06032,1.58374,1.64453,0.788726,0.96176,0.627013,0.530276,0.692336,0.248384,1.46069,0.0545266,1.0041,0.66676,0.583451,0.738836,0.244447,1.53375,0.0616437,9.70979,-4.55173,15.3409,21.9159,0.236528,-0.701085,0.316965,1.53212,-0.629826,2.84579,3.04954,0.30555,-0.0279714,0.324981
4975781,1,-1.52549,-0.493934,0.0248042,-2.06387,1.5829,1.64213,0.788148,-1.52128,-0.492446,0.0288708,-2.05958,1.58399,1.64607,0.788788,0.970924,0.64447,0.542869,0.698943,0.256662,1.4652,0.0568581,1.01249,0.67425,0.588544,0.746827,0.24568,1.54714,0.062001,9.61061,-4.40097,15.0632,21.7652,0.106523,-0.469457,0.278513,1.50202,-0.616735,2.8166,3.06307,0.304434,-0.0205845,0.323523
4975782,1,-1.52448,-0.493299,0.0253505,-2.06314,1.58315,1.64367,0.788204,-1.52026,-0.491764,0.0294644,-2.05882,1.58424,1.64763,0.78885,0.979114,0.639897,0.536963,0.717478,0.255621,1.48131,0.0508389,1.02088,0.68174,0.593638,0.754819,0.246913,1.56053,0.0623582,9.40828,-3.9725,15.0117,21.6898,0.157793,-0.488683,0.316965,1.46661,-0.610772,2.7823,3.07599,0.302947,-0.0117226,0.322149
4975783,1,-1.52346,-0.492648,0.0259159,-2.0624,1.5834,1.64523,0.788258,-1.51923,-0.491075,0.0300631,-2.05806,1.58449,1.64921,0.788913,0.983342,0.639221,0.544743,0.717181,0.251225,1.50233,0.0509132,1.02927,0.68923,0.598731,0.76281,0.248145,1.57392,0.0627155,9.28132,-3.61942,14.9363,21.5668,0.202654,-0.604955,0.356333,1.43587,-0.586616,2.75751,3.07544,0.30029,-0.00255913,0.320996
4975784,1,-1.52245,-0.491981,0.0264897,-2.06166,1.58365,1.64679,0.788331,-1.51819,-0.490378,0.030667,-2.05729,1.58473,1.65079,0.788976,0.992878,0.649262,0.557226,0.723829,0.249506,1.52351,0.0564656,1.03766,0.69672,0.603824,0.770801,0.249378,1.58731,0.0630728,9.20594,-3.56784,14.734,21.6144,0.214556,-0.75327,0.252878,1.41221,-0.535176,2.74457,3.06069,0.296514,0.00647349,0.320142
4975785,1,-1.5214,-0.491288,0.0270616,-2.06091,1.58391,1.64837,0.788388,-1.51715,-0.489674,0.0312759,-2.05651,1.58499,1.6524,0.789039,1.00694,0.661219,0.566388,0.743116,0.252722,1.53238,0.0549643,1.04606,0.70421,0.608917,0.778793,0.250611,1.6007,0.06343,8.90443,-3.77017,14.7062,21.5668,0.214556,-0.823766,0.291331,1.38786,-0.471849,2.73109,3.03938,0.292251,0.0160376,0.319614
4975786,1,-1.52037,-0.490581,0.0276496,-2.06015,1.58417,1.64994,0.788438,-1.51609,-0.488962,0.0318899,-2.05572,1.58524,1.65401,0.789103,1.01778,0.685002,0.569361,0.750022,0.258545,1.55055,0.0522132,1.05445,0.7117,0.614011,0.786784,0.251843,1.61409,0.0637873,8.80128,-3.99631,14.6824,21.6422,0.26491,-0.965673,0.375559,1.35805,-0.419915,2.71062,3.01852,0.287854,0.0262351,0.319358
4975787,1,-1.51934,-0.489883,0.0282455,-2.05937,1.58443,1.65154,0.788503,-1.51503,-0.488243,0.0325086,-2.05493,1.58549,1.65564,0.789167,1.01341,0.690417,0.575408,0.765106,0.255774,1.56177,0.0557517,1.06176,0.71919,0.618665,0.794616,0.25263,1.62612,0.063974,9.07899,-4.19864,14.5316,21.8644,0.259416,-0.952855,0.316965,1.32823,-0.399344,2.69129,3.00601,0.283411,0.0356733,0.319327
4975788,1,-1.51828,-0.489172,0.0288447,-2.05861,1.58469,1.65319,0.78856,-1.51396,-0.487517,0.0331319,-2.05413,1.58574,1.65727,0.789231,1.02319,0.694768,0.585806,0.760993,0.256418,1.58008,0.0557444,1.06907,0.72668,0.623319,0.802448,0.253416,1.63815,0.0641608,9.25752,-4.30179,14.48,22.2135,0.304277,-1.16526,0.323374,1.30435,-0.403765,2.68064,3.00188,0.278936,0.0431976,0.319538
4975789,1,-1.51722,-0.488466,0.0294464,-2.05783,1.58495,1.65482,0.788633,-1.51289,-0.486782,0.0337598,-2.05332,1.586,1.65892,0.789296,1.03661,0.695551,0.588801,0.759452,0.257759,1.59742,0.0603456,1.07638,0.73417,0.627973,0.810279,0.254203,1.65017,0.0643476,9.20594,-4.40097,14.5038,22.4634,0.327165,-1.39048,0.207102,1.28416,-0.418117,2.67466,3.00676,0.274725,0.0490299,0.319954
4975790,1,-1.51614,-0.487742,0.0300465,-2.05704,1.58522,1.65644,0.788708,-1.5118,-0.486041,0.0343925,-2.0525,1.58625,1.66059,0.78936,1.03886,0.701151,0.590525,0.770653,0.261062,1.59825,0.0690401,1.0837,0.74166,0.632627,0.818111,0.254989,1.6622,0.0645343,9.23372,-4.45255,14.4047,22.7094,0.270403,-1.17167,0.0651953,1.26708,-0.43104,2.67284,3.01989,0.270832,0.0531293,0.320461
4975791,1,-1.51509,-0.487001,0.0306548,-2.05625,1.58548,1.65807,0.788775,-1.51071,-0.485292,0.0350298,-2.05167,1.58651,1.66226,0.789425,1.04208,0.710624,0.593692,0.772766,0.260426,1.64016,0.0717447,1.09101,0.74915,0.637281,0.825943,0.255776,1.67422,0.0647211,9.38447,-4.5795,14.3531,22.6618,0.310686,-1.1204,0.0130102,1.25971,-0.438236,2.68446,3.03779,0.266962,0.0542937,0.320833
4975792,1,-1.51402,-0.486244,0.0312326,-2.05543,1.58572,1.65974,0.788844,-1.50961,-0.484535,0.0356717,-2.05084,1.58676,1.66395,0.78949,1.04766,0.729087,0.586516,0.800007,0.252111,1.64749,0.0687654,1.09832,0.75664,0.641936,0.833774,0.256562,1.68625,0.0649078,9.55903,-4.93259,14.607,22.3603,0.440691,-1.19089,-0.0254419,1.27055,-0.44908,2.72139,3.05969,0.262851,0.0510603,0.320775
4975793,1,-1.51295,-0.485473,0.0318413,-2.0546,1.58598,1.66144,0.788918,-1.50851,-0.483771,0.0363183,-2.05,1.58702,1.66564,0.789555,1.0444,0.736195,0.597798,0.803162,0.256763,1.65827,0.0725676,1.10563,0.76413,0.64659,0.841606,0.257349,1.69827,0.0650946,9.93989,-5.2103,14.5316,22.0151,0.412309,-1.35843,-0.0904444,1.30331,-0.470989,2.78859,3.08267,0.258357,0.0431338,0.320067
4975794,1,-1.51187,-0.484726,0.0324526,-2.05376,1.58625,1.66309,0.788998,-1.50739,-0.482999,0.0369695,-2.04915,1.58728,1.66735,0.78962,1.05441,0.741116,0.600498,0.811143,0.264198,1.66115,0.0750937,1.11294,0.77162,0.651244,0.849438,0.258135,1.7103,0.0652814,9.9875,-5.28568,14.607,21.7176,0.276811,-1.17807,-0.155447,1.35258,-0.500359,2.87699,3.10492,0.253723,0.0318343,0.318545
4975795,1,-1.51077,-0.483963,0.0330513,-2.05291,1.58652,1.66479,0.789079,-1.50627,-0.48222,0.0376254,-2.04829,1.58754,1.66908,0.789686,1.06458,0.743751,0.600847,0.831927,0.261831,1.67002,0.0763354,1.12026,0.77911,0.655898,0.857269,0.258921,1.72233,0.0654681,9.93989,-5.15872,14.8331,21.416,0.197161,-1.10026,-0.200308,1.41006,-0.520272,2.97463,3.11872,0.248992,0.0188677,0.316086
4975796,1,-1.50971,-0.483194,0.0336769,-2.05205,1.5868,1.66651,0.789161,-1.50515,-0.481433,0.038286,-2.04742,1.5878,1.67081,0.789751,1.08136,0.745144,0.609362,0.83868,0.275215,1.6767,0.0799924,1.12757,0.7866,0.660552,0.865101,0.259708,1.73435,0.0656549,10.2136,-5.00797,14.7578,21.0947,0.0561693,-0.984899,-0.193899,1.4671,-0.509279,3.07058,3.11111,0.243865,0.0060039,0.312622
4975797,1,-1.50863,-0.482437,0.034308,-2.05118,1.58706,1.66824,0.78922,-1.50401,-0.480639,0.0389507,-2.04655,1.58806,1.67256,0.789817,1.07723,0.745201,0.605895,0.846681,0.272473,1.69515,0.0713222,1.13377,0.79409,0.664763,0.87276,0.260052,1.74497,0.0656631,10.6699,-4.78183,14.6308,20.9439,0.0387743,-1.07462,0.00660151,1.52066,-0.457841,3.1608,3.07867,0.238101,-0.00586379,0.308109
4975798,1,-1.50751,-0.481653,0.034933,-2.05032,1.58734,1.66999,0.789281,-1.50287,-0.479838,0.0396197,-2.04567,1.58832,1.67431,0.789883,1.08827,0.752265,0.612435,0.855869,0.271385,1.70946,0.0649587,1.13997,0.80158,0.668974,0.880418,0.260395,1.75559,0.0656714,10.5429,-4.78183,14.6308,20.8448,-0.00608656,-1.03617,0.219919,1.57682,-0.370449,3.25271,3.0259,0.231495,-0.0173955,0.302673
4975799,1,-1.50638,-0.480857,0.0355729,-2.04944,1.5876,1.67173,0.789336,-1.50173,-0.479029,0.0402929,-2.04478,1.58858,1.67608,0.789948,1.0986,0.775797,0.620738,0.85642,0.267854,1.72115,0.0602687,1.14617,0.80907,0.673185,0.888077,0.260739,1.76621,0.0656796,10.0629,-4.78183,14.5832,20.821,0.0332811,-1.02335,0.440561,1.6345,-0.277701,3.34286,2.96907,0.224454,-0.0285374,0.296718
4975800,1,-1.50523,-0.48007,0.0362231,-2.04854,1.58787,1.6735,0.789394,-1.50057,-0.478212,0.0409703,-2.04389,1.58884,1.67786,0.790014,1.11509,0.782967,0.623165,0.878439,0.272301,1.72523,0.0561818,1.15237,0.81656,0.677396,0.895736,0.261083,1.77683,0.0656878,9.63441,-4.78183,14.3531,20.7694,-0.000593394,-0.952855,0.563242,1.68554,-0.21352,3.41919,2.92389,0.217556,-0.0382588,0.290878
4975801,1,-1.50407,-0.479272,0.0369005,-2.04765,1.58814,1.67529,0.789444,-1.49942,-0.477388,0.0416519,-2.04298,1.5891,1.67964,0.79008,1.12549,0.7879,0.639272,0.869534,0.268168,1.73758,0.0533454,1.15857,0.82405,0.681607,0.903394,0.261427,1.78745,0.0656961,9.18214,-4.62711,13.8453,20.8448,0.0506761,-0.946447,0.673105,1.72198,-0.177611,3.4716,2.89009,0.210986,-0.0453647,0.285847
4975802,1,-1.50294,-0.478479,0.0375837,-2.04675,1.5884,1.67705,0.789502,-1.49825,-0.476557,0.0423377,-2.04207,1.58936,1.68144,0.790145,1.1261,0.79273,0.658618,0.875794,0.263727,1.7408,0.0551292,1.16477,0.83154,0.685819,0.911053,0.261771,1.79807,0.0657043,8.90443,-4.50412,13.2899,20.9439,0.140398,-0.791722,0.679514,1.73565,-0.159545,3.48795,2.86815,0.205178,-0.0486208,0.282195
4975803,1,-1.50179,-0.477672,0.0382793,-2.04585,1.58867,1.67882,0.789553,-1.49708,-0.475718,0.0430277,-2.04115,1.58963,1.68325,0.790211,1.13389,0.793436,0.672284,0.89243,0.26335,1.7388,0.056047,1.17097,0.83903,0.69003,0.918711,0.262115,1.80869,0.0657125,8.75367,-4.30179,12.6313,21.0947,0.1523,-0.495092,0.685923,1.72224,-0.143022,3.46112,2.85198,0.200331,-0.0472631,0.280313
4975804,1,-1.50063,-0.476847,0.0389706,-2.04493,1.58895,1.68057,0.789602,-1.4959,-0.474871,0.043722,-2.04023,1.58989,1.68507,0.790277,1.13941,0.801084,0.678566,0.893521,0.268716,1.73532,0.0529343,1.17718,0.84652,0.694241,0.92637,0.262458,1.81932,0.0657208,8.42439,-4.32559,12.302,21.2455,0.027788,-0.147191,0.660288,1.68414,-0.109884,3.39541,2.83015,0.196141,-0.041238,0.280361
4975805,1,-1.49944,-0.476023,0.0396598,-2.044,1.58924,1.68238,0.789651,-1.49472,-0.474017,0.0444204,-2.03929,1.59015,1.6869,0.790343,1.15246,0.811711,0.685348,0.914072,0.273969,1.75167,0.0511264,1.18338,0.85401,0.698452,0.934029,0.262802,1.82994,0.065729,7.97212,-4.3494,12.1512,21.3446,-0.0179884,-0.0382434,0.615427,1.62845,-0.0622071,3.30263,2.80192,0.192281,-0.0311593,0.282255
4975806,1,-1.49825,-0.475176,0.0403569,-2.04308,1.58953,1.6842,0.789695,-1.49353,-0.473155,0.0451231,-2.03835,1.59042,1.68874,0.790408,1.16064,0.821242,0.690859,0.909173,0.274268,1.75547,0.049266,1.18958,0.8615,0.702663,0.941687,0.263146,1.84056,0.0657373,7.71821,-4.50412,12.1512,21.4676,-0.0967238,-0.115148,0.57606,1.56143,-0.0128249,3.19334,2.77263,0.188517,-0.0176595,0.285755
4975807,1,-1.49709,-0.474323,0.0410826,-2.04215,1.58979,1.68604,0.789761,-1.49233,-0.472286,0.0458295,-2.0374,1.59068,1.69059,0.790474,1.15877,0.83118,0.695276,0.912394,0.272475,1.78236,0.0542138,1.19466,0.86899,0.706429,0.949162,0.263057,1.84975,0.0655616,7.81739,-4.73026,11.9211,21.6144,0.00489977,-0.418187,0.362742,1.49148,0.0208913,3.08025,2.75437,0.18477,-0.00198229,0.290503
4975808,1,-1.49591,-0.473462,0.0417922,-2.04123,1.59007,1.68789,0.78983,-1.49113,-0.47141,0.0465397,-2.03645,1.59094,1.69245,0.790539,1.16309,0.838485,0.707571,0.914313,0.275558,1.79231,0.0637888,1.19974,0.87648,0.710195,0.956636,0.262968,1.85894,0.065386,7.89674,-4.95639,11.7982,21.6898,-0.0179884,-0.649816,0.103647,1.42693,0.0283528,2.97481,2.75609,0.181002,0.0142127,0.296037
4975809,1,-1.49471,-0.472584,0.0425108,-2.04028,1.59035,1.68973,0.789912,-1.48993,-0.470526,0.0472537,-2.03548,1.5912,1.69432,0.790604,1.17129,0.847095,0.706347,0.908711,0.275259,1.85002,0.0732602,1.20481,0.88397,0.713961,0.964111,0.262879,1.86814,0.0652104,7.69441,-5.18649,11.7188,21.7652,0.0387743,-0.759679,-0.232351,1.37146,0.00736579,2.88181,2.78091,0.177281,0.0294467,0.301703
4975810,1,-1.49349,-0.471731,0.0432235,-2.03933,1.59062,1.6916,0.789985,-1.48872,-0.469635,0.0479714,-2.03451,1.59147,1.69619,0.790669,1.18425,0.849521,0.695655,0.934558,0.27441,1.84452,0.0774308,1.20989,0.89146,0.717727,0.971585,0.262791,1.87733,0.0650347,7.49208,-5.10715,11.5681,21.7414,-0.000593394,-0.952855,-0.381582,1.33101,-0.0310264,2.81164,2.82128,0.17327,0.0418852,0.30668
4975811,1,-1.49227,-0.470852,0.043949,-2.03837,1.59088,1.69355,0.79006,-1.48751,-0.468736,0.0486929,-2.03353,1.59173,1.69808,0.790734,1.18544,0.853333,0.70828,0.940371,0.272912,1.87369,0.0778547,1.21497,0.89895,0.721494,0.97906,0.262702,1.88653,0.0648591,7.4167,-5.03177,11.3657,21.6144,0.095537,-1.6807,-0.446585,1.30791,-0.0582847,2.77008,2.85591,0.16833,0.0507553,0.310171
4975812,1,-1.49106,-0.469982,0.0446623,-2.0374,1.59114,1.69542,0.790129,-1.48629,-0.467829,0.0494182,-2.03254,1.59199,1.69998,0.790799,1.19822,0.863263,0.708249,0.949047,0.268843,1.87376,0.0734679,1.22005,0.90644,0.72526,0.986534,0.262613,1.89572,0.0646834,7.34132,-4.93259,11.4411,21.3684,0.157793,-1.78965,-0.381582,1.29541,-0.0633272,2.74728,2.87655,0.162586,0.0564198,0.311566
4975813,1,-1.48983,-0.469087,0.0453648,-2.03641,1.59141,1.69729,0.790175,-1.48506,-0.466915,0.0501472,-2.03155,1.59225,1.70188,0.790864,1.19642,0.873997,0.710977,0.968683,0.269026,1.86307,0.060883,1.22513,0.91393,0.729026,0.994009,0.262524,1.90492,0.0645078,7.26594,-4.93259,11.4927,21.1185,0.242937,-1.42893,-0.044668,1.28854,-0.0544468,2.73558,2.88586,0.156415,0.0587219,0.310598
4975814,1,-1.48863,-0.46818,0.0460749,-2.03543,1.59167,1.69915,0.790252,-1.48383,-0.465994,0.05088,-2.03055,1.59252,1.70379,0.790928,1.21868,0.881546,0.705337,0.966892,0.266239,1.84401,0.0660516,1.23021,0.92142,0.732792,1.00148,0.262435,1.91411,0.0643322,7.69441,-4.95639,11.6196,20.821,0.304277,-0.875035,0.0523779,1.28521,-0.0391298,2.733,2.88594,0.150004,0.0577337,0.307481
4975815,1,-1.48745,-0.467294,0.0467744,-2.03444,1.59194,1.70102,0.790314,-1.48259,-0.465065,0.0516165,-2.02954,1.59278,1.70572,0.790992,1.2,0.880696,0.698223,0.966918,0.267187,1.85355,0.0621036,1.23529,0.92891,0.736559,1.00896,0.262346,1.9233,0.0641565,8.19825,-4.80563,11.7466,20.821,0.282305,-0.701085,0.24647,1.29068,-0.0218249,2.74742,2.88354,0.143522,0.0533208,0.302794
4975816,1,-1.48623,-0.466385,0.0474868,-2.03347,1.59223,1.70293,0.790378,-1.48135,-0.464129,0.0523569,-2.02852,1.59304,1.70765,0.791056,1.2055,0.886689,0.70561,0.981617,0.270854,1.85652,0.059253,1.24037,0.9364,0.740325,1.01643,0.262257,1.9325,0.0639809,8.44819,-4.73026,11.9727,21.0709,0.0442674,-0.624181,0.440561,1.31629,0.00365831,2.79269,2.87874,0.136931,0.0449713,0.297259
4975817,1,-1.48501,-0.465453,0.0481996,-2.03247,1.59252,1.70484,0.790451,-1.48011,-0.463185,0.0531005,-2.0275,1.5933,1.70959,0.79112,1.20757,0.913892,0.700545,0.978896,0.277108,1.87692,0.0576995,1.24433,0.94389,0.743646,1.02371,0.261751,1.94026,0.0636174,8.42439,-4.82944,12.2266,21.3922,-0.181868,-0.681859,0.49824,1.36355,0.0233925,2.86795,2.87678,0.130408,0.0333742,0.291627
4975818,1,-1.48377,-0.464509,0.0489105,-2.03146,1.59282,1.70677,0.790516,-1.47886,-0.462233,0.0538475,-2.02647,1.59356,1.71154,0.791183,1.21627,0.922987,0.690957,0.994777,0.285617,1.89419,0.0563532,1.2483,0.95138,0.746968,1.03099,0.261245,1.94803,0.0632539,8.44819,-5.2103,12.429,21.6144,-0.40251,-0.707494,0.556833,1.43254,0.00374656,2.97249,2.89253,0.123929,0.0188927,0.286555
4975819,1,-1.48255,-0.463568,0.0496311,-2.03047,1.59309,1.70872,0.790586,-1.47761,-0.461274,0.0545978,-2.02543,1.59383,1.71349,0.791246,1.207,0.926818,0.688246,0.994028,0.277495,1.90273,0.0586946,1.25226,0.95887,0.750289,1.03828,0.260739,1.95579,0.0628903,8.77748,-5.33725,12.5559,21.9397,-0.362227,-0.733129,0.518381,1.52773,-0.0535524,3.11323,2.92488,0.116725,0.00114985,0.282541
4975820,1,-1.48134,-0.462616,0.0503537,-2.02944,1.59334,1.71066,0.790649,-1.47635,-0.460308,0.0553514,-2.02439,1.59409,1.71546,0.791308,1.2092,0.937532,0.708724,0.997254,0.2727,1.90995,0.059604,1.25623,0.96636,0.753611,1.04556,0.260233,1.96356,0.0625268,8.97981,-5.51181,12.5559,21.8167,-0.210249,-0.798131,0.491831,1.64262,-0.130753,3.27937,2.96855,0.108504,-0.0186336,0.279882
4975821,1,-1.48009,-0.461661,0.051095,-2.02841,1.5936,1.71262,0.790717,-1.47509,-0.459334,0.0561083,-2.02333,1.59435,1.71743,0.79137,1.21042,0.943652,0.723259,1.01831,0.261288,1.91107,0.0634526,1.26019,0.97385,0.756932,1.05284,0.259726,1.97132,0.0621633,8.7021,-5.56339,12.3774,21.6422,0.027788,-0.766088,0.375559,1.75597,-0.215595,3.43783,3.01856,0.0998301,-0.0372325,0.278684
4975822,1,-1.47884,-0.460702,0.0518374,-2.02735,1.59386,1.71454,0.790777,-1.47383,-0.458353,0.0568686,-2.02227,1.5946,1.71941,0.791432,1.2277,0.940043,0.729659,1.02561,0.264836,1.92282,0.0635706,1.26415,0.98134,0.760254,1.06012,0.25922,1.97909,0.0617997,8.17048,-5.43643,12.1512,21.1939,0.10103,-0.598546,0.316965,1.84822,-0.280233,3.56091,3.05781,0.0911788,-0.0517271,0.278855
4975823,1,-1.47755,-0.459731,0.0525999,-2.02627,1.59414,1.7165,0.790838,-1.47256,-0.457364,0.0576321,-2.02121,1.59486,1.7214,0.791494,1.23755,0.95118,0.7349,1.05286,0.264083,1.93228,0.0641315,1.26812,0.98883,0.763575,1.0674,0.258714,1.98685,0.0614362,7.36512,-5.51181,11.5681,20.698,0.140398,-0.482274,0.24647,1.9112,-0.298827,3.64012,3.06973,0.0827571,-0.0609419,0.280107
4975824,1,-1.47626,-0.45875,0.0533736,-2.0252,1.59441,1.71849,0.790913,-1.47129,-0.456368,0.058399,-2.02013,1.59512,1.72339,0.791555,1.24965,0.955696,0.745849,1.06103,0.261109,1.94375,0.063628,1.27208,0.99632,0.766897,1.07468,0.258208,1.99462,0.0610727,6.96046,-5.48801,11.0126,20.3489,0.112016,-0.520726,0.071604,1.94267,-0.268674,3.6752,3.04887,0.07485,-0.0646547,0.282064
4975825,1,-1.47502,-0.45778,0.0541661,-2.02411,1.59469,1.72045,0.790973,-1.47001,-0.455364,0.0591693,-2.01905,1.59538,1.72539,0.791615,1.24615,0.958239,0.760743,1.06789,0.270123,1.95424,0.0619241,1.27605,1.00381,0.770218,1.08196,0.257702,2.00238,0.0607092,6.96046,-5.36105,10.4056,19.9997,-0.102217,-0.398961,0.0459692,1.94288,-0.198734,3.66715,3.00067,0.0678733,-0.0630406,0.284286
4975826,1,-1.47374,-0.456777,0.0549282,-2.02304,1.59497,1.72242,0.791043,-1.46873,-0.454353,0.0599428,-2.01796,1.59564,1.7274,0.791676,1.2504,0.972601,0.763069,1.0675,0.274325,1.94614,0.0641188,1.28001,1.0113,0.77354,1.08924,0.257195,2.01015,0.0603456,6.73433,-5.4642,10.1517,19.9521,-0.277998,-0.115148,-0.0648096,1.91822,-0.108895,3.62408,2.94011,0.0619739,-0.0570823,0.286269
4975827,1,-1.47246,-0.455763,0.0557014,-2.02194,1.59527,1.72441,0.791095,-1.46745,-0.453334,0.0607192,-2.01686,1.59589,1.72942,0.791736,1.28454,0.976706,0.763077,1.0602,0.288071,1.98926,0.0584731,1.28289,1.01879,0.776419,1.09632,0.256292,2.01649,0.0597903,6.30586,-5.58719,10.0764,19.9521,-0.526106,0.0588025,0.0130102,1.87465,-0.0292635,3.55517,2.88773,0.0570161,-0.0477179,0.287553
