shamilmamedov/beam_handling/data/param_estimation_ICRA/ocp_Xup_25cm_0.44s_3.csv
duration, success rate, q[0], q[1], q[2], q[3], q[4], q[5], q[6],q_d[0], q_d[1], q_d[2], q_d[3], q_d[4], q_d[5], q_d[6],dq[0], dq[1], dq[2], dq[3], dq[4], dq[5], dq[6],dq_d[0], dq_d[1], dq_d[2], dq_d[3], dq_d[4], dq_d[5], dq_d[6],tau_J[0], tau_J[1], tau_J[2], tau_J[3], tau_J[4], tau_J[5], tau_J[6],tau_ext_hat_filtered[0], tau_ext_hat_filtered[1], tau_ext_hat_filtered[2], tau_ext_hat_filtered[3], tau_ext_hat_filtered[4], tau_ext_hat_filtered[5], tau_ext_hat_filtered[6]
4614880,0,-1.57029,-0.522718,0.000193538,-2.0959,1.57067,1.57173,0.78498,-1.5708,-0.523599,5.12607e-08,-2.0944,1.5708,1.5708,0.785397,0.000590664,0.000947028,0.00094065,0.000395896,6.88443e-05,8.17433e-05,-0.000511647,0,0,0,0,0,0,0,-0.605152,-10.4154,-0.583737,20.8725,0.796831,-0.707494,0.181467,-0.583426,-1.2421,-0.14997,2.36651,0.235343,-0.706241,0.21684
4614881,1,-1.57029,-0.522721,0.000188338,-2.0959,1.57067,1.57173,0.784984,-1.5708,-0.523599,5.12607e-08,-2.0944,1.5708,1.5708,0.785397,0.000393776,-0.000482272,-0.000579326,-0.000849693,4.58962e-05,-0.000420222,0.000845697,0,0,0,0,0,0,0,-0.605152,-10.3678,-0.532163,20.9201,0.796831,-0.694677,0.149424,-0.584845,-1.24091,-0.15193,2.36541,0.235333,-0.706013,0.21688
4614882,1,-1.57029,-0.522719,0.00019189,-2.0959,1.57067,1.57173,0.784977,-1.5708,-0.523599,5.12607e-08,-2.0944,1.5708,1.5708,0.785397,-0.000851107,0.000235297,0.000263397,-0.000566462,-0.000172853,0.00019457,-0.00180979,0,0,0,0,0,0,0,-0.557545,-10.3916,-0.559934,20.9201,0.802324,-0.707494,0.213511,-0.585826,-1.24148,-0.153234,2.36573,0.235359,-0.705851,0.216901
4614883,1,-1.57029,-0.522718,0.000186675,-2.0959,1.57067,1.57173,0.784979,-1.5708,-0.523599,5.12607e-08,-2.0944,1.5708,1.5708,0.785397,-1.05925e-05,0.000713677,-0.00103083,0.00017917,0.000291666,0.000129713,-0.000494451,0,0,0,0,0,0,0,-0.581349,-10.4154,-0.508359,20.8963,0.791338,-0.707494,0.194285,-0.585743,-1.24337,-0.152993,2.36696,0.235381,-0.705848,0.216916
4614884,1,-1.57029,-0.522718,0.000191432,-2.0959,1.57067,1.57173,0.784984,-1.5708,-0.523599,5.12607e-08,-2.0944,1.5708,1.5708,0.785397,-0.000563874,0.000475785,0.00107602,-0.000994177,-0.000212457,8.64754e-05,0.00156924,0,0,0,0,0,0,0,-0.557545,-10.4154,-0.583737,20.9439,0.802324,-0.707494,0.143015,-0.585116,-1.24681,-0.151999,2.36892,0.235408,-0.705937,0.216961
4614885,1,-1.57029,-0.522723,0.000191255,-2.0959,1.57067,1.57173,0.784974,-1.5708,-0.523599,5.12607e-08,-2.0944,1.5708,1.5708,0.785397,0.00138732,-0.00144605,0.000717346,0.000450839,-0.000345089,5.76503e-05,-0.00132743,0,0,0,0,0,0,0,-0.632923,-10.34,-0.583737,20.8963,0.807817,-0.707494,0.207102,-0.58534,-1.24939,-0.152365,2.37056,0.235454,-0.705884,0.21705
4614886,1,-1.57029,-0.522721,0.000189707,-2.0959,1.57067,1.57173,0.784982,-1.5708,-0.523599,5.12607e-08,-2.0944,1.5708,1.5708,0.785397,-0.000281544,-0.000314418,-0.000728195,0.00030056,-2.66086e-05,-0.000436284,0.00101392,0,0,0,0,0,0,0,-0.581349,-10.3678,-0.532163,20.8963,0.802324,-0.694677,0.155832,-0.586423,-1.2484,-0.15397,2.37034,0.235464,-0.705661,0.217164
4614887,1,-1.57029,-0.522721,0.000191886,-2.09589,1.57067,1.57173,0.784984,-1.5708,-0.523599,5.12607e-08,-2.0944,1.5708,1.5708,0.785397,-0.000187696,-0.000209612,0.000720962,0.000200373,-1.77391e-05,-5.34973e-05,0.00115066,0,0,0,0,0,0,0,-0.581349,-10.3678,-0.583737,20.8963,0.802324,-0.701085,0.143015,-0.587134,-1.2455,-0.154958,2.3689,0.23542,-0.705471,0.217295
4614888,1,-1.57029,-0.522719,0.000191866,-2.0959,1.57067,1.57173,0.784979,-1.5708,-0.523599,5.12607e-08,-2.0944,1.5708,1.5708,0.785397,-0.000681943,0.000417071,-7.61703e-05,-0.00042323,0.000395075,-3.56649e-05,-0.00113176,0,0,0,0,0,0,0,-0.557545,-10.3916,-0.559934,20.9201,0.791338,-0.701085,0.194285,-0.587309,-1.24363,-0.155256,2.36791,0.235387,-0.705364,0.217414
4614889,1,-1.57029,-0.522718,0.000190286,-2.0959,1.57067,1.57173,0.784984,-1.5708,-0.523599,5.12607e-08,-2.0944,1.5708,1.5708,0.785397,0.000102183,0.000834859,-5.07802e-05,-0.000838965,5.99328e-05,0.000450941,0.000907004,0,0,0,0,0,0,0,-0.581349,-10.4154,-0.559934,20.9439,0.796831,-0.713903,0.149424,-0.587052,-1.2445,-0.155034,2.36846,0.235403,-0.705342,0.217493
4614890,1,-1.57029,-0.522718,0.000189759,-2.0959,1.57067,1.57173,0.78498,-1.5708,-0.523599,5.12607e-08,-2.0944,1.5708,1.5708,0.785397,-0.00048869,0.000556573,-3.38535e-05,-2.49821e-06,-0.000366946,6.32686e-05,-0.000582125,0,0,0,0,0,0,0,-0.557545,-10.4154,-0.559934,20.9201,0.807817,-0.707494,0.181467,-0.586424,-1.24801,-0.154327,2.37048,0.235456,-0.705401,0.217542
4614891,1,-1.57029,-0.522721,0.000187635,-2.0959,1.57067,1.57173,0.784978,-1.5708,-0.523599,5.12607e-08,-2.0944,1.5708,1.5708,0.785397,0.000787831,-0.000742575,-0.000672183,0.000555146,-4.118e-05,4.21791e-05,-0.000150725,0,0,0,0,0,0,0,-0.605152,-10.3678,-0.532163,20.8963,0.802324,-0.707494,0.175059,-0.585673,-1.25097,-0.153416,2.37208,0.235483,-0.705476,0.217571
4614892,1,-1.57029,-0.522719,0.000187576,-2.0959,1.57067,1.57173,0.784984,-1.5708,-0.523599,5.12607e-08,-2.0944,1.5708,1.5708,0.785397,-3.15914e-05,6.17616e-05,-0.000448122,-0.000743526,0.000175997,-0.00020924,0.00135758,0,0,0,0,0,0,0,-0.581349,-10.3916,-0.532163,20.9439,0.796831,-0.701085,0.135691,-0.584892,-1.25155,-0.152328,2.37237,0.235458,-0.705533,0.21759
4614893,1,-1.57029,-0.522719,0.000187557,-2.0959,1.57067,1.57173,0.784982,-1.5708,-0.523599,5.12607e-08,-2.0944,1.5708,1.5708,0.785397,-2.1061e-05,4.11744e-05,-0.000298748,0.00117475,-0.00028957,9.78659e-05,-7.82915e-05,0,0,0,0,0,0,0,-0.581349,-10.3916,-0.532163,20.8725,0.807817,-0.707494,0.162241,-0.584066,-1.25103,-0.151081,2.37209,0.23541,-0.705589,0.217593
4614894,1,-1.57029,-0.522719,0.00018588,-2.0959,1.57067,1.57173,0.784979,-1.5708,-0.523599,5.12607e-08,-2.0944,1.5708,1.5708,0.785397,-1.40406e-05,2.74496e-05,-0.000755977,-0.000330456,0.000213855,0.000302603,-0.00100163,0,0,0,0,0,0,0,-0.581349,-10.3916,-0.508359,20.9201,0.796831,-0.713903,0.187876,-0.583098,-1.25021,-0.149579,2.37142,0.235348,-0.705671,0.217556
4614895,1,-1.57029,-0.522721,0.000187548,-2.0959,1.57067,1.57173,0.784981,-1.5708,-0.523599,5.12607e-08,-2.0944,1.5708,1.5708,0.785397,-0.000566172,-0.000538512,5.28271e-05,-0.000220304,-6.08808e-05,0.000201735,-0.000193036,0,0,0,0,0,0,0,-0.557545,-10.3678,-0.532163,20.9201,0.802324,-0.713903,0.175059,-0.581993,-1.24913,-0.147858,2.37071,0.235293,-0.705779,0.217485
4614896,1,-1.57029,-0.522721,0.000188008,-2.09589,1.57067,1.57173,0.784984,-1.5708,-0.523599,5.12607e-08,-2.0944,1.5708,1.5708,0.785397,0.000179364,-0.000359008,-0.000521594,0.00217318,0.000162863,0.00013449,0.0010581,0,0,0,0,0,0,0,-0.581349,-10.3678,-0.508359,20.821,0.796831,-0.713903,0.143015,-0.580976,-1.24683,-0.146272,2.36929,0.235225,-0.705876,0.217414
4614897,1,-1.57029,-0.522719,0.000190206,-2.0959,1.57067,1.57173,0.784982,-1.5708,-0.523599,5.12607e-08,-2.0944,1.5708,1.5708,0.785397,0.000119576,0.000317473,0.000858697,0.000242361,0.000108576,0.000327019,-0.000244033,0,0,0,0,0,0,0,-0.581349,-10.3916,-0.559934,20.8725,0.796831,-0.720311,0.16865,-0.580558,-1.24332,-0.145553,2.36673,0.235136,-0.705896,0.21735
4614898,1,-1.57029,-0.522718,0.000191863,-2.0959,1.57067,1.57173,0.784981,-1.5708,-0.523599,5.12607e-08,-2.0944,1.5708,1.5708,0.785397,0.000636529,0.000768461,0.000572464,-0.000395238,-0.000334517,-0.000494064,0.000549388,0,0,0,0,0,0,0,-0.605152,-10.4154,-0.559934,20.8963,0.807817,-0.701085,0.149424,-0.581292,-1.24169,-0.146573,2.36507,0.235124,-0.705791,0.21727
4614899,1,-1.57029,-0.522725,0.000192416,-2.0959,1.57067,1.57173,0.784977,-1.5708,-0.523599,5.12607e-08,-2.0944,1.5708,1.5708,0.785397,0.000424353,-0.00180774,0.000381643,-0.000820304,0.000183889,-9.20171e-05,-0.000583177,0,0,0,0,0,0,0,-0.605152,-10.3162,-0.559934,20.9201,0.796831,-0.707494,0.175059,-0.583002,-1.24169,-0.149059,2.36489,0.235206,-0.705572,0.217161
4614900,1,-1.57029,-0.522718,0.000190469,-2.0959,1.57067,1.57173,0.784976,-1.5708,-0.523599,5.12607e-08,-2.0944,1.5708,1.5708,0.785397,-0.00027391,0.00111489,0.000254429,-0.000546869,-8.08575e-05,-6.13448e-05,-0.000626144,0,0,0,0,0,0,0,-0.581349,-10.4154,-0.559934,20.9201,0.802324,-0.707494,0.181467,-0.584796,-1.2416,-0.151656,2.3653,0.23532,-0.705342,0.217028
4614901,1,-1.57029,-0.522719,0.000187871,-2.0959,1.57067,1.57173,0.784981,-1.5708,-0.523599,5.12607e-08,-2.0944,1.5708,1.5708,0.785397,-0.000182607,0.000186447,-0.000479995,0.000192232,0.000149546,0.000196462,0.000294648,0,0,0,0,0,0,0,-0.581349,-10.3916,-0.532163,20.8963,0.796831,-0.713903,0.162241,-0.585812,-1.24304,-0.153094,2.36654,0.235439,-0.705254,0.216887
4614902,1,-1.57029,-0.522718,0.000188115,-2.0959,1.57067,1.57173,0.784976,-1.5708,-0.523599,5.12607e-08,-2.0944,1.5708,1.5708,0.785397,0.000435074,0.00068111,-0.000876809,0.000684967,9.9697e-05,0.000130975,-0.00170244,0,0,0,0,0,0,0,-0.605152,-10.4154,-0.508359,20.8725,0.796831,-0.713903,0.213511,-0.585765,-1.24571,-0.152832,2.36794,0.235512,-0.705353,0.216762
4614903,1,-1.57029,-0.522721,0.000192373,-2.0959,1.57067,1.57173,0.784977,-1.5708,-0.523599,5.12607e-08,-2.0944,1.5708,1.5708,0.785397,0.000939663,-0.000659551,0.000621887,-0.000100167,-0.000340436,-0.000150042,-0.000897601,0,0,0,0,0,0,0,-0.632923,-10.3678,-0.559934,20.8963,0.807817,-0.707494,0.207102,-0.585568,-1.24753,-0.152144,2.36853,0.235537,-0.70548,0.216674
4614904,1,-1.57029,-0.522718,0.000190455,-2.09589,1.57067,1.57173,0.784986,-1.5708,-0.523599,5.12607e-08,-2.0944,1.5708,1.5708,0.785397,-0.000579984,0.000673923,0.000414591,0.00113965,-2.35071e-05,-0.000337387,0.00228382,0,0,0,0,0,0,0,-0.581349,-10.4154,-0.559934,20.8448,0.802324,-0.701085,0.129282,-0.586075,-1.248,-0.15244,2.36826,0.235553,-0.7055,0.216664
4614905,1,-1.57029,-0.522718,0.000191946,-2.0959,1.57067,1.57173,0.784979,-1.5708,-0.523599,5.12607e-08,-2.0944,1.5708,1.5708,0.785397,-0.000386656,0.000449282,0.000276394,-0.00156028,0.000187779,0.000487152,-0.000884954,0,0,0,0,0,0,0,-0.581349,-10.4154,-0.559934,20.9439,0.796831,-0.720311,0.194285,-0.586696,-1.24896,-0.153009,2.36824,0.235591,-0.705515,0.216725
4614906,1,-1.57029,-0.522721,0.000192443,-2.0959,1.57067,1.57173,0.784979,-1.5708,-0.523599,5.12607e-08,-2.0944,1.5708,1.5708,0.785397,0.000948655,-0.000814102,0.000184263,7.34341e-05,0.000328637,-0.000624668,-0.00058997,0,0,0,0,0,0,0,-0.632923,-10.3678,-0.559934,20.8963,0.791338,-0.694677,0.194285,-0.587212,-1.25073,-0.153474,2.36904,0.235664,-0.70555,0.216809
4614907,1,-1.57029,-0.522721,0.000192609,-2.0959,1.57067,1.57173,0.784981,-1.5708,-0.523599,5.12607e-08,-2.0944,1.5708,1.5708,0.785397,-0.000573989,-0.000542735,0.000122842,-0.000507856,-0.00039126,5.82727e-05,0.0012682,0,0,0,0,0,0,0,-0.581349,-10.3678,-0.559934,20.9201,0.807817,-0.707494,0.149424,-0.587885,-1.25084,-0.154111,2.36936,0.235721,-0.705533,0.216915
4614908,1,-1.57029,-0.522718,0.000188585,-2.0959,1.57067,1.57173,0.784978,-1.5708,-0.523599,5.12607e-08,-2.0944,1.5708,1.5708,0.785397,-0.000382659,0.000751801,-0.000567719,-0.000338571,-0.00026084,0.000513566,-0.000816046,0,0,0,0,0,0,0,-0.581349,-10.4154,-0.532163,20.9201,0.807817,-0.720311,0.194285,-0.588003,-1.2503,-0.153922,2.36942,0.235741,-0.705587,0.217047
4614909,1,-1.57029,-0.522718,0.000191972,-2.0959,1.57067,1.57173,0.784981,-1.5708,-0.523599,5.12607e-08,-2.0944,1.5708,1.5708,0.785397,-0.000255106,0.0005012,0.000271134,-0.000225714,0.000436458,-0.000369699,0.000168046,0,0,0,0,0,0,0,-0.581349,-10.4154,-0.559934,20.9201,0.791338,-0.701085,0.175059,-0.587377,-1.25158,-0.152665,2.37029,0.235764,-0.705774,0.217182
4614910,1,-1.57029,-0.522721,0.000190321,-2.09589,1.57067,1.57173,0.784981,-1.5708,-0.523599,5.12607e-08,-2.0944,1.5708,1.5708,0.785397,0.000386741,-0.00077949,0.000180756,0.00161276,8.75215e-05,-0.000246466,0.000112031,0,0,0,0,0,0,0,-0.605152,-10.3678,-0.559934,20.8448,0.796831,-0.701085,0.175059,-0.586918,-1.25257,-0.151662,2.37061,0.23577,-0.70593,0.217327
4614911,1,-1.57029,-0.522716,0.000191902,-2.0959,1.57067,1.57173,0.784981,-1.5708,-0.523599,5.12607e-08,-2.0944,1.5708,1.5708,0.785397,-0.000855796,0.00124358,0.000120504,0.000425561,5.83477e-05,7.30482e-05,7.46871e-05,0,0,0,0,0,0,0,-0.557545,-10.4431,-0.559934,20.8725,0.796831,-0.707494,0.175059,-0.586812,-1.25179,-0.15121,2.36942,0.235723,-0.706007,0.217485
4614912,1,-1.5703,-0.522718,0.000192428,-2.0959,1.57067,1.57173,0.78498,-1.5708,-0.523599,5.12607e-08,-2.0944,1.5708,1.5708,0.785397,-0.00122014,0.000179438,8.03361e-05,-0.000829917,0.000242349,-0.00018866,0.000999227,0,0,0,0,0,0,0,-0.529774,-10.4154,-0.559934,20.9201,0.791338,-0.701085,0.149424,-0.586305,-1.25214,-0.150338,2.36866,0.235673,-0.70614,0.217643
4614913,1,-1.57029,-0.522721,0.000190473,-2.0959,1.57068,1.57173,0.784977,-1.5708,-0.523599,5.12607e-08,-2.0944,1.5708,1.5708,0.785397,0.000949808,-0.00164361,5.35574e-05,3.53412e-06,0.000602375,-0.000125773,-0.000283284,0,0,0,0,0,0,0,-0.605152,-10.34,-0.559934,20.8963,0.779436,-0.701085,0.175059,-0.58558,-1.25258,-0.149317,2.36843,0.235628,-0.706273,0.21778
4614914,1,-1.57029,-0.522717,0.000190003,-2.0959,1.57067,1.57173,0.784975,-1.5708,-0.523599,5.12607e-08,-2.0944,1.5708,1.5708,0.785397,7.63933e-05,0.000667496,-0.000613909,-0.000554456,-0.000649577,-8.3849e-05,-0.00161301,0,0,0,0,0,0,0,-0.581349,-10.4154,-0.532163,20.9201,0.807817,-0.701085,0.213511,-0.58525,-1.25118,-0.148856,2.36771,0.235558,-0.706289,0.217885
4614915,1,-1.57029,-0.522719,0.000190315,-2.09589,1.57067,1.57173,0.784976,-1.5708,-0.523599,5.12607e-08,-2.0944,1.5708,1.5708,0.785397,5.09289e-05,-0.000111815,0.000240341,0.0013936,-2.61506e-05,0.000418819,0.000111455,0,0,0,0,0,0,0,-0.581349,-10.3916,-0.559934,20.8448,0.796831,-0.713903,0.181467,-0.585075,-1.24991,-0.148583,2.36694,0.235465,-0.706264,0.217979
4614916,1,-1.5703,-0.522721,0.000189769,-2.0959,1.57067,1.57173,0.784982,-1.5708,-0.523599,5.12607e-08,-2.0944,1.5708,1.5708,0.785397,-0.00117247,-0.000631355,0.000160228,-0.0020406,0.000186017,-0.000195505,0.0012611,0,0,0,0,0,0,0,-0.529774,-10.3678,-0.559934,20.9717,0.791338,-0.701085,0.149424,-0.584767,-1.24903,-0.148248,2.36629,0.235365,-0.706251,0.218099
4614917,1,-1.57029,-0.522718,0.000193388,-2.09589,1.57067,1.57173,0.784979,-1.5708,-0.523599,5.12607e-08,-2.0944,1.5708,1.5708,0.785397,0.000981589,0.000692721,0.00066363,0.00160927,0.000124011,-0.000130337,-0.000583422,0,0,0,0,0,0,0,-0.605152,-10.4154,-0.583737,20.8448,0.791338,-0.701085,0.187876,-0.584665,-1.24847,-0.148412,2.36602,0.235285,-0.706196,0.218239
4614918,1,-1.57029,-0.522721,0.000190236,-2.0959,1.57067,1.57173,0.784983,-1.5708,-0.523599,5.12607e-08,-2.0944,1.5708,1.5708,0.785397,9.75807e-05,-0.00065181,-0.000114392,-0.000133582,-0.000324227,-8.68913e-05,0.000797847,0,0,0,0,0,0,0,-0.581349,-10.3678,-0.559934,20.8963,0.802324,-0.701085,0.155832,-0.585202,-1.24799,-0.14957,2.36551,0.235206,-0.706037,0.218377
4614919,1,-1.57029,-0.522718,0.000191873,-2.0959,1.57067,1.57173,0.78498,-1.5708,-0.523599,5.12607e-08,-2.0944,1.5708,1.5708,0.785397,6.50538e-05,0.000679084,-7.62612e-05,-0.00120268,-1.27007e-05,0.000179431,-0.000417538,0,0,0,0,0,0,0,-0.581349,-10.4154,-0.559934,20.9439,0.796831,-0.707494,0.181467,-0.585824,-1.2479,-0.150841,2.3652,0.235127,-0.705859,0.218499
4614920,1,-1.57029,-0.522719,0.00018834,-2.0959,1.57067,1.57173,0.784976,-1.5708,-0.523599,5.12607e-08,-2.0944,1.5708,1.5708,0.785397,4.33692e-05,-0.000104089,-0.000700455,-0.000244974,0.000194983,-0.000117738,-0.000515717,0,0,0,0,0,0,0,-0.581349,-10.3916,-0.532163,20.9201,0.791338,-0.701085,0.187876,-0.585835,-1.24952,-0.151198,2.3662,0.235075,-0.705781,0.218595
4614921,1,-1.57029,-0.522721,0.00018976,-2.0959,1.57067,1.57173,0.784982,-1.5708,-0.523599,5.12607e-08,-2.0944,1.5708,1.5708,0.785397,2.89128e-05,-0.000626205,0.000182644,-0.000163316,-0.000276912,0.000396226,0.00206369,0,0,0,0,0,0,0,-0.581349,-10.3678,-0.559934,20.9201,0.802324,-0.713903,0.122873,-0.585386,-1.25105,-0.150839,2.36729,0.23501,-0.705766,0.218679
4614922,1,-1.57029,-0.522719,0.000191254,-2.0959,1.57067,1.57173,0.784977,-1.5708,-0.523599,5.12607e-08,-2.0944,1.5708,1.5708,0.785397,1.92752e-05,0.000139342,0.000678575,0.000447935,-0.000388059,-0.000210567,-0.00150642,0,0,0,0,0,0,0,-0.581349,-10.3916,-0.583737,20.8963,0.807817,-0.701085,0.200693,-0.585172,-1.25096,-0.150869,2.36744,0.234922,-0.705704,0.21875
4614923,1,-1.57029,-0.522719,0.000191656,-2.0959,1.57067,1.57173,0.784976,-1.5708,-0.523599,5.12607e-08,-2.0944,1.5708,1.5708,0.785397,1.28501e-05,9.28947e-05,-0.000104429,-0.000258189,0.000351646,9.69807e-05,-0.001479,0,0,0,0,0,0,0,-0.581349,-10.3916,-0.559934,20.9201,0.791338,-0.707494,0.213511,-0.585405,-1.25052,-0.151636,2.36721,0.234851,-0.70558,0.218789
4614924,1,-1.57029,-0.522719,0.000190398,-2.0959,1.57067,1.57173,0.784982,-1.5708,-0.523599,5.12607e-08,-2.0944,1.5708,1.5708,0.785397,8.56676e-06,6.19298e-05,-0.000719233,0.000384686,3.098e-05,6.46538e-05,0.00189621,0,0,0,0,0,0,0,-0.581349,-10.3916,-0.532163,20.8963,0.796831,-0.707494,0.135691,-0.585365,-1.25048,-0.151963,2.36706,0.234783,-0.705509,0.218826
4614925,1,-1.57029,-0.522719,0.000190446,-2.0959,1.57067,1.57173,0.784977,-1.5708,-0.523599,5.12607e-08,-2.0944,1.5708,1.5708,0.785397,5.71117e-06,4.12865e-05,0.000170125,0.000813269,-0.000386248,-0.000194256,-0.000193919,0,0,0,0,0,0,0,-0.581349,-10.3916,-0.559934,20.8725,0.807817,-0.701085,0.175059,-0.584853,-1.25023,-0.151498,2.36657,0.234686,-0.705516,0.218889
4614926,1,-1.57029,-0.522719,0.000188324,-2.0959,1.57067,1.57173,0.784982,-1.5708,-0.523599,5.12607e-08,-2.0944,1.5708,1.5708,0.785397,3.80745e-06,2.75243e-05,-0.00109301,-0.00112826,-5.40479e-05,0.000107855,0.000820157,0,0,0,0,0,0,0,-0.581349,-10.3916,-0.508359,20.9439,0.802324,-0.707494,0.149424,-0.584094,-1.24999,-0.150594,2.36606,0.234585,-0.705567,0.218948
4614927,1,-1.57029,-0.522723,0.000190493,-2.0959,1.57067,1.57173,0.784983,-1.5708,-0.523599,5.12607e-08,-2.0944,1.5708,1.5708,0.785397,0.00120896,-0.00118808,-0.000171861,0.000918265,-3.6032e-05,0.000309262,0.000546771,0,0,0,0,0,0,0,-0.632923,-10.34,-0.532163,20.8725,0.802324,-0.713903,0.149424,-0.583306,-1.24925,-0.149489,2.3656,0.234498,-0.70562,0.218978
4614928,1,-1.57029,-0.522721,0.000190478,-2.0959,1.57067,1.57173,0.784978,-1.5708,-0.523599,5.12607e-08,-2.0944,1.5708,1.5708,0.785397,-0.00040045,-0.000142437,0.00053504,-0.00105826,-2.40213e-05,0.000206175,-0.00153436,0,0,0,0,0,0,0,-0.581349,-10.3678,-0.559934,20.9439,0.802324,-0.713903,0.200693,-0.583114,-1.24709,-0.14913,2.36465,0.234437,-0.70558,0.218963
4614929,1,-1.57029,-0.522721,0.000188335,-2.0959,1.57067,1.57173,0.784981,-1.5708,-0.523599,5.12607e-08,-2.0944,1.5708,1.5708,0.785397,-0.000266967,-9.4958e-05,-0.000849733,-0.000705506,0.000187436,0.00013745,0.00111333,0,0,0,0,0,0,0,-0.581349,-10.3678,-0.508359,20.9439,0.796831,-0.713903,0.143015,-0.583136,-1.24555,-0.149097,2.36438,0.234433,-0.705535,0.218905
4614930,1,-1.57029,-0.522719,0.000190315,-2.0959,1.57067,1.57173,0.784981,-1.5708,-0.523599,5.12607e-08,-2.0944,1.5708,1.5708,0.785397,-0.000177978,0.000493507,0.000639938,0.000643286,0.000328408,-0.000145726,3.01402e-05,0,0,0,0,0,0,0,-0.581349,-10.3916,-0.559934,20.8963,0.791338,-0.707494,0.162241,-0.582848,-1.24577,-0.148601,2.36512,0.234466,-0.705583,0.218826
4614931,1,-1.57029,-0.522716,0.00019357,-2.0959,1.57067,1.57173,0.784977,-1.5708,-0.523599,5.12607e-08,-2.0944,1.5708,1.5708,0.785397,-0.000118652,0.00153543,0.000983437,-0.000127954,1.54882e-05,-0.000334509,-0.00164142,0,0,0,0,0,0,0,-0.581349,-10.4431,-0.583737,20.9201,0.796831,-0.701085,0.207102,-0.583057,-1.24792,-0.148888,2.36642,0.234534,-0.705603,0.218729
4614932,1,-1.57029,-0.522716,0.000188348,-2.0959,1.57067,1.57173,0.784981,-1.5708,-0.523599,5.12607e-08,-2.0944,1.5708,1.5708,0.785397,0.000477711,0.000374006,-0.000550801,0.000471509,0.000451135,1.43527e-05,0.000329874,0,0,0,0,0,0,0,-0.605152,-10.4154,-0.532163,20.8963,0.784929,-0.707494,0.16865,-0.583888,-1.25204,-0.150124,2.36835,0.234635,-0.705567,0.218623
4614933,1,-1.57029,-0.522717,0.000189945,-2.0959,1.57067,1.57173,0.784982,-1.5708,-0.523599,5.12607e-08,-2.0944,1.5708,1.5708,0.785397,-0.000238338,0.000249338,-0.000367201,0.000314339,-0.000546954,-0.000227791,0.00144062,0,0,0,0,0,0,0,-0.581349,-10.4154,-0.532163,20.8963,0.807817,-0.701085,0.135691,-0.58441,-1.25581,-0.150766,2.36989,0.234685,-0.705576,0.218543
4614934,1,-1.57029,-0.522723,0.000192426,-2.0959,1.57067,1.57173,0.784974,-1.5708,-0.523599,5.12607e-08,-2.0944,1.5708,1.5708,0.785397,-0.000158892,-0.00159701,0.000404813,-0.000347252,4.22651e-05,-0.000389219,-0.00120973,0,0,0,0,0,0,0,-0.581349,-10.34,-0.559934,20.9201,0.796831,-0.694677,0.194285,-0.58449,-1.25671,-0.150677,2.37011,0.234656,-0.705608,0.218481
4614935,1,-1.57029,-0.522721,0.000188524,-2.0959,1.57067,1.57173,0.784977,-1.5708,-0.523599,5.12607e-08,-2.0944,1.5708,1.5708,0.785397,0.00165731,-0.000415061,-0.000379738,0.00032531,-0.000175274,0.000215238,-0.00104384,0,0,0,0,0,0,0,-0.656727,-10.3678,-0.532163,20.8963,0.802324,-0.707494,0.200693,-0.584899,-1.25413,-0.151004,2.36892,0.234589,-0.70553,0.218413
4614936,1,-1.57029,-0.522718,0.000190003,-2.0959,1.57067,1.57173,0.784983,-1.5708,-0.523599,5.12607e-08,-2.0944,1.5708,1.5708,0.785397,-0.00121518,0.000836916,-0.000253159,-0.00089675,8.66013e-05,0.000143492,0.00120298,0,0,0,0,0,0,0,-0.557545,-10.4154,-0.532163,20.9439,0.796831,-0.707494,0.149424,-0.585438,-1.25139,-0.151387,2.36786,0.234532,-0.705418,0.218361
4614937,1,-1.57029,-0.522721,0.000192445,-2.0959,1.57067,1.57173,0.784979,-1.5708,-0.523599,5.12607e-08,-2.0944,1.5708,1.5708,0.785397,-0.000253306,-0.00055568,0.000480841,-4.10216e-05,-0.000349167,9.56615e-05,-0.00062217,0,0,0,0,0,0,0,-0.581349,-10.3678,-0.559934,20.9201,0.807817,-0.707494,0.187876,-0.585408,-1.25092,-0.150975,2.36809,0.234509,-0.705414,0.21834
4614938,1,-1.57029,-0.522721,0.000190479,-2.0959,1.57067,1.57173,0.784985,-1.5708,-0.523599,5.12607e-08,-2.0944,1.5708,1.5708,0.785397,-0.000168871,-0.000370453,0.000320561,0.00108628,-0.000232778,0.000301133,0.001518,0,0,0,0,0,0,0,-0.581349,-10.3678,-0.559934,20.8725,0.807817,-0.713903,0.135691,-0.585296,-1.25008,-0.150576,2.36804,0.234488,-0.70542,0.218341
4614939,1,-1.57029,-0.522719,0.000187875,-2.0959,1.57067,1.57173,0.784982,-1.5708,-0.523599,5.12607e-08,-2.0944,1.5708,1.5708,0.785397,-0.00011258,0.000309843,-0.000435907,-0.00038944,0.000455166,0.000200756,2.8656e-05,0,0,0,0,0,0,0,-0.581349,-10.3916,-0.532163,20.9201,0.791338,-0.713903,0.162241,-0.585295,-1.24824,-0.150368,2.36715,0.234453,-0.705407,0.218345
4614940,1,-1.57029,-0.522719,0.000193406,-2.0959,1.57067,1.57173,0.784975,-1.5708,-0.523599,5.12607e-08,-2.0944,1.5708,1.5708,0.785397,0.00113137,0.000206562,0.000915821,-0.000816438,0.000303444,-0.000340881,-0.00140505,0,0,0,0,0,0,0,-0.632923,-10.3916,-0.583737,20.9439,0.791338,-0.701085,0.200693,-0.585585,-1.24787,-0.150546,2.36712,0.234469,-0.705374,0.218319
4614941,1,-1.5703,-0.522721,0.000188294,-2.0959,1.57067,1.57173,0.78498,-1.5708,-0.523599,5.12607e-08,-2.0944,1.5708,1.5708,0.785397,-0.00100899,-0.000419104,-0.000595878,0.000569332,0.000439655,1.0105e-05,0.00119953,0,0,0,0,0,0,0,-0.557545,-10.3678,-0.532163,20.8963,0.784929,-0.707494,0.143015,-0.586269,-1.24853,-0.151281,2.36784,0.234523,-0.705298,0.218267
4614942,1,-1.57029,-0.522721,0.000191415,-2.0959,1.57067,1.57173,0.784977,-1.5708,-0.523599,5.12607e-08,-2.0944,1.5708,1.5708,0.785397,0.000440964,-0.000279403,0.000809174,-0.000177258,-0.000554607,6.73668e-06,-0.00109918,0,0,0,0,0,0,0,-0.605152,-10.3678,-0.583737,20.9201,0.807817,-0.707494,0.194285,-0.586716,-1.24819,-0.151709,2.368,0.234533,-0.705252,0.218215
4614943,1,-1.57029,-0.522719,0.000191249,-2.0959,1.57067,1.57173,0.784978,-1.5708,-0.523599,5.12607e-08,-2.0944,1.5708,1.5708,0.785397,-0.000819648,0.000370544,0.000539449,0.00043864,-0.000369738,-0.000232868,-0.00073279,0,0,0,0,0,0,0,-0.557545,-10.3916,-0.583737,20.8963,0.807817,-0.701085,0.194285,-0.587187,-1.24739,-0.152305,2.3678,0.234522,-0.7052,0.218167
4614944,1,-1.57029,-0.522719,0.000185904,-2.0959,1.57067,1.57173,0.784984,-1.5708,-0.523599,5.12607e-08,-2.0944,1.5708,1.5708,0.785397,-0.000546432,0.000247029,-0.00140361,-0.000264385,-0.000246492,8.21137e-05,0.00117299,0,0,0,0,0,0,0,-0.557545,-10.3916,-0.508359,20.9201,0.807817,-0.707494,0.149424,-0.587139,-1.24752,-0.152249,2.36798,0.234507,-0.705235,0.218139
4614945,1,-1.57029,-0.522719,0.000189505,-2.0959,1.57067,1.57173,0.784975,-1.5708,-0.523599,5.12607e-08,-2.0944,1.5708,1.5708,0.785397,0.000192524,0.000164686,0.000270689,-0.000176257,0.000683382,5.47425e-05,-0.00111688,0,0,0,0,0,0,0,-0.581349,-10.3916,-0.559934,20.9201,0.784929,-0.707494,0.200693,-0.586057,-1.24867,-0.150657,2.36868,0.234482,-0.705424,0.21814
4614946,1,-1.57029,-0.522719,0.00018588,-2.0959,1.57067,1.57173,0.784984,-1.5708,-0.523599,5.12607e-08,-2.0944,1.5708,1.5708,0.785397,0.000128349,0.000109791,-0.00102597,-0.00132393,-0.000188672,3.6495e-05,0.00166291,0,0,0,0,0,0,0,-0.581349,-10.3916,-0.508359,20.9717,0.802324,-0.707494,0.135691,-0.584849,-1.25059,-0.148835,2.37008,0.234482,-0.705626,0.218156
4614947,1,-1.57029,-0.522721,0.000187548,-2.0959,1.57067,1.57173,0.784982,-1.5708,-0.523599,5.12607e-08,-2.0944,1.5708,1.5708,0.785397,-0.000471246,-0.000483618,-0.000127166,0.00143743,-0.000125781,-0.000213029,0.00110861,0,0,0,0,0,0,0,-0.557545,-10.3678,-0.532163,20.8725,0.802324,-0.701085,0.135691,-0.583659,-1.25199,-0.147011,2.37134,0.234475,-0.70581,0.21818
4614948,1,-1.57029,-0.522716,0.000189496,-2.09589,1.57067,1.57173,0.784973,-1.5708,-0.523599,5.12607e-08,-2.0944,1.5708,1.5708,0.785397,-0.000314164,0.00144083,0.000564837,0.0016079,-0.000287305,0.000807416,-0.00190579,0,0,0,0,0,0,0,-0.557545,-10.4431,-0.559934,20.8448,0.807817,-0.72672,0.207102,-0.582628,-1.25196,-0.145498,2.37118,0.234422,-0.705956,0.21818
4614949,1,-1.57029,-0.522716,0.000191166,-2.0959,1.57067,1.57173,0.784978,-1.5708,-0.523599,5.12607e-08,-2.0944,1.5708,1.5708,0.785397,0.0015538,0.00096055,0.00093337,-0.000691304,-0.000191536,-0.000173799,0.000628348,0,0,0,0,0,0,0,-0.632923,-10.4431,-0.583737,20.9201,0.807817,-0.707494,0.155832,-0.582798,-1.25306,-0.145891,2.37092,0.234424,-0.705947,0.21814
4614950,1,-1.57029,-0.522719,0.000189496,-2.0959,1.57067,1.57173,0.784976,-1.5708,-0.523599,5.12607e-08,-2.0944,1.5708,1.5708,0.785397,-0.000170562,-0.000566059,6.54346e-05,9.59424e-05,0.00027921,-0.000353225,-0.000293178,0,0,0,0,0,0,0,-0.581349,-10.3916,-0.559934,20.8963,0.796831,-0.701085,0.175059,-0.584289,-1.25556,-0.148267,2.37161,0.234528,-0.705764,0.218085
4614951,1,-1.57029,-0.522721,0.000191626,-2.0959,1.57067,1.57173,0.784978,-1.5708,-0.523599,5.12607e-08,-2.0944,1.5708,1.5708,0.785397,-0.000113708,-0.000934185,4.36231e-05,6.39616e-05,0.00018614,-0.000235483,-0.00067017,0,0,0,0,0,0,0,-0.581349,-10.3678,-0.559934,20.8963,0.796831,-0.701085,0.187876,-0.585744,-1.25584,-0.150584,2.37163,0.234626,-0.705557,0.218028
4614952,1,-1.57029,-0.522717,0.000188257,-2.0959,1.57067,1.57173,0.784982,-1.5708,-0.523599,5.12607e-08,-2.0944,1.5708,1.5708,0.785397,0.000481006,-6.59777e-05,-0.000620532,4.26411e-05,-7.93571e-05,-0.000156989,0.000740015,0,0,0,0,0,0,0,-0.605152,-10.3916,-0.532163,20.8963,0.802324,-0.701085,0.155832,-0.586417,-1.25356,-0.151694,2.37053,0.234663,-0.705428,0.217978
4614953,1,-1.57029,-0.522719,0.000187784,-2.0959,1.57067,1.57173,0.784977,-1.5708,-0.523599,5.12607e-08,-2.0944,1.5708,1.5708,0.785397,0.000320671,-4.39852e-05,-0.000413688,-0.0010852,0.000150546,-0.000104659,-0.00140553,0,0,0,0,0,0,0,-0.605152,-10.3916,-0.532163,20.9439,0.796831,-0.701085,0.207102,-0.586516,-1.25156,-0.151817,2.36978,0.234687,-0.705377,0.217942
4614954,1,-1.57029,-0.522721,0.000193194,-2.0959,1.57067,1.57173,0.78498,-1.5708,-0.523599,5.12607e-08,-2.0944,1.5708,1.5708,0.785397,-0.000343031,-0.000586135,0.00158025,0.00039016,0.000303814,-0.000307132,0.00119921,0,0,0,0,0,0,0,-0.581349,-10.3678,-0.611508,20.8963,0.791338,-0.694677,0.149424,-0.586716,-1.25041,-0.152078,2.36968,0.234738,-0.705308,0.217924
4614955,1,-1.57029,-0.522716,0.000191653,-2.0959,1.57067,1.57173,0.784982,-1.5708,-0.523599,5.12607e-08,-2.0944,1.5708,1.5708,0.785397,-0.000785499,0.00137248,-0.000152927,-0.000296706,-0.000204358,0.000269963,0.00154546,0,0,0,0,0,0,0,-0.557545,-10.4431,-0.559934,20.9201,0.802324,-0.707494,0.129282,-0.587224,-1.25012,-0.152989,2.36992,0.234809,-0.705193,0.217931
4614956,1,-1.5703,-0.522721,0.000192345,-2.0959,1.57068,1.57173,0.784974,-1.5708,-0.523599,5.12607e-08,-2.0944,1.5708,1.5708,0.785397,-0.00117328,-0.000848251,-0.000101952,0.000359008,0.000711472,-5.73834e-05,-0.00137719,0,0,0,0,0,0,0,-0.529774,-10.3678,-0.559934,20.8963,0.779436,-0.701085,0.194285,-0.586982,-1.25103,-0.152971,2.37049,0.234854,-0.70519,0.217929
4614957,1,-1.57029,-0.522721,0.000192576,-2.0959,1.57067,1.57173,0.784982,-1.5708,-0.523599,5.12607e-08,-2.0944,1.5708,1.5708,0.785397,0.000424239,-0.0005655,-6.79677e-05,-0.000317473,-0.000169945,0.000673821,0.000743385,0,0,0,0,0,0,0,-0.581349,-10.3678,-0.559934,20.9201,0.796831,-0.720311,0.149424,-0.585919,-1.25082,-0.151815,2.37041,0.234831,-0.705279,0.217888
4614958,1,-1.57029,-0.522719,0.000190704,-2.0959,1.57067,1.57173,0.784981,-1.5708,-0.523599,5.12607e-08,-2.0944,1.5708,1.5708,0.785397,0.000282826,0.000179812,-0.000694926,-0.000768461,-0.000113297,-2.55037e-05,-0.000216487,0,0,0,0,0,0,0,-0.581349,-10.3916,-0.532163,20.9439,0.796831,-0.707494,0.16865,-0.584879,-1.24969,-0.150652,2.37008,0.234771,-0.705346,0.21782
4614959,1,-1.57029,-0.522721,0.000192219,-2.0959,1.57067,1.57173,0.78498,-1.5708,-0.523599,5.12607e-08,-2.0944,1.5708,1.5708,0.785397,0.000188551,-0.000436937,0.000743142,4.45048e-05,0.000127919,-1.70025e-05,-0.000619042,0,0,0,0,0,0,0,-0.581349,-10.3678,-0.583737,20.9201,0.791338,-0.707494,0.181467,-0.584253,-1.24929,-0.15005,2.37033,0.234719,-0.705364,0.217733
4614960,1,-1.5703,-0.522719,0.000193648,-2.0959,1.57067,1.57173,0.78498,-1.5708,-0.523599,5.12607e-08,-2.0944,1.5708,1.5708,0.785397,-0.000431111,0.00026552,0.000495428,0.000586482,-0.000321622,-0.000248694,0.000536741,0,0,0,0,0,0,0,-0.557545,-10.3916,-0.583737,20.8963,0.802324,-0.701085,0.155832,-0.584278,-1.24886,-0.150509,2.37041,0.234668,-0.705296,0.217637
4614961,1,-1.57029,-0.522718,0.000190505,-2.09589,1.57067,1.57173,0.78498,-1.5708,-0.523599,5.12607e-08,-2.0944,1.5708,1.5708,0.785397,0.000269404,0.000733825,-0.000876141,0.00159741,-1.09639e-05,7.1563e-05,-0.00035425,0,0,0,0,0,0,0,-0.581349,-10.4154,-0.532163,20.8448,0.796831,-0.707494,0.175059,-0.584379,-1.24843,-0.151152,2.36986,0.234583,-0.705229,0.217547
4614962,1,-1.57029,-0.522718,0.000192612,-2.0959,1.57067,1.57173,0.784978,-1.5708,-0.523599,5.12607e-08,-2.0944,1.5708,1.5708,0.785397,0.000736415,0.000489217,6.55203e-05,-0.000698295,-7.30924e-06,4.77087e-05,-0.000948243,0,0,0,0,0,0,0,-0.605152,-10.4154,-0.559934,20.9201,0.796831,-0.707494,0.194285,-0.58417,-1.24906,-0.151237,2.36935,0.234475,-0.70523,0.217459
4614963,1,-1.57029,-0.522719,0.000192205,-2.0959,1.57067,1.57173,0.784982,-1.5708,-0.523599,5.12607e-08,-2.0944,1.5708,1.5708,0.785397,0.000490943,-0.000230667,0.000600492,-0.00046553,-0.000208323,0.000269165,0.00153798,0,0,0,0,0,0,0,-0.605152,-10.3916,-0.583737,20.9201,0.802324,-0.713903,0.135691,-0.584398,-1.25085,-0.151899,2.36975,0.234421,-0.705181,0.217381
4614964,1,-1.57029,-0.522719,0.000191973,-2.0959,1.57067,1.57173,0.78498,-1.5708,-0.523599,5.12607e-08,-2.0944,1.5708,1.5708,0.785397,-0.000229516,-0.000153778,-0.000156484,-0.000310353,6.45683e-05,-5.79158e-05,-0.000195385,0,0,0,0,0,0,0,-0.581349,-10.3916,-0.559934,20.9201,0.796831,-0.707494,0.16865,-0.585065,-1.25247,-0.153241,2.37064,0.234413,-0.705073,0.217321
4614965,1,-1.57029,-0.522721,0.000192452,-2.0959,1.57067,1.57173,0.784981,-1.5708,-0.523599,5.12607e-08,-2.0944,1.5708,1.5708,0.785397,-0.000153011,-0.000659331,-0.000104323,0.00034991,-0.000363856,-0.000513328,-0.000367616,0,0,0,0,0,0,0,-0.581349,-10.3678,-0.559934,20.8963,0.807817,-0.694677,0.175059,-0.585359,-1.25263,-0.154038,2.37096,0.234384,-0.705013,0.217254
4614966,1,-1.57029,-0.522719,0.000194101,-2.0959,1.57067,1.57173,0.784983,-1.5708,-0.523599,5.12607e-08,-2.0944,1.5708,1.5708,0.785397,0.000454805,0.000117258,0.00113688,-0.000323539,0.000367781,0.000607217,0.000467,0,0,0,0,0,0,0,-0.605152,-10.3916,-0.611508,20.9201,0.791338,-0.720311,0.155832,-0.585611,-1.25155,-0.154788,2.37062,0.234344,-0.704953,0.217177
4614967,1,-1.57029,-0.522721,0.000193625,-2.0959,1.57067,1.57173,0.784978,-1.5708,-0.523599,5.12607e-08,-2.0944,1.5708,1.5708,0.785397,-0.000253609,-0.00047864,0.000108304,-0.000215693,-0.000161714,-0.000307266,-0.000400744,0,0,0,0,0,0,0,-0.581349,-10.3678,-0.583737,20.9201,0.802324,-0.701085,0.175059,-0.58635,-1.2504,-0.156323,2.37031,0.234339,-0.704826,0.217095
4614968,1,-1.57029,-0.522721,0.000194117,-2.0959,1.57067,1.57173,0.784975,-1.5708,-0.523599,5.12607e-08,-2.0944,1.5708,1.5708,0.785397,0.00103735,-0.000319093,7.22029e-05,0.000413017,-0.00051471,3.25152e-05,-0.00074188,0,0,0,0,0,0,0,-0.632923,-10.3678,-0.583737,20.8963,0.81331,-0.707494,0.187876,-0.587202,-1.24903,-0.157998,2.3699,0.234343,-0.70469,0.217008
4614969,1,-1.5703,-0.522721,0.000190661,-2.0959,1.57067,1.57173,0.784982,-1.5708,-0.523599,5.12607e-08,-2.0944,1.5708,1.5708,0.785397,-0.00172128,-0.000212729,-0.00115829,-0.000281467,0.000267212,2.16768e-05,0.000692208,0,0,0,0,0,0,0,-0.529774,-10.3678,-0.532163,20.9201,0.796831,-0.707494,0.155832,-0.587225,-1.24727,-0.158341,2.36918,0.234312,-0.704683,0.21693
4614970,1,-1.57029,-0.522719,0.000190534,-2.0959,1.57067,1.57173,0.784976,-1.5708,-0.523599,5.12607e-08,-2.0944,1.5708,1.5708,0.785397,-0.000497908,0.000414993,-0.00012258,-0.00139407,-2.53095e-05,0.00025181,-0.00167476,0,0,0,0,0,0,0,-0.557545,-10.3916,-0.559934,20.9717,0.802324,-0.713903,0.213511,-0.585672,-1.24687,-0.156372,2.36934,0.234277,-0.704929,0.216867
4614971,1,-1.57029,-0.522718,0.000187893,-2.0959,1.57067,1.57173,0.78498,-1.5708,-0.523599,5.12607e-08,-2.0944,1.5708,1.5708,0.785397,0.000224873,0.000833474,-0.000731334,0.000833857,0.000186578,-6.94855e-05,7.0289e-05,0,0,0,0,0,0,0,-0.581349,-10.4154,-0.532163,20.8963,0.796831,-0.707494,0.181467,-0.583467,-1.2489,-0.153473,2.37086,0.234282,-0.705302,0.216829
4614972,1,-1.57029,-0.522718,0.000191742,-2.0959,1.57067,1.57173,0.784985,-1.5708,-0.523599,5.12607e-08,-2.0944,1.5708,1.5708,0.785397,0.000706727,0.000555649,0.000162058,0.000555905,0.000124385,-4.63237e-05,0.00174228,0,0,0,0,0,0,0,-0.605152,-10.4154,-0.559934,20.8963,0.796831,-0.707494,0.135691,-0.581946,-1.25196,-0.151479,2.37243,0.234307,-0.705593,0.216845
4614973,1,-1.57029,-0.522719,0.000194045,-2.0959,1.57067,1.57173,0.784973,-1.5708,-0.523599,5.12607e-08,-2.0944,1.5708,1.5708,0.785397,-8.56603e-05,-0.000186379,0.000664851,-0.000186209,-0.000120527,-0.0005056,-0.0017207,0,0,0,0,0,0,0,-0.581349,-10.3916,-0.583737,20.9201,0.802324,-0.694677,0.213511,-0.581622,-1.25435,-0.1512,2.3733,0.234342,-0.705701,0.216907
4614974,1,-1.57029,-0.522721,0.000196205,-2.0959,1.57067,1.57173,0.784977,-1.5708,-0.523599,5.12607e-08,-2.0944,1.5708,1.5708,0.785397,0.000499705,-0.000681065,0.00109285,0.000432673,0.000123099,0.000612369,0.000514382,0,0,0,0,0,0,0,-0.605152,-10.3678,-0.611508,20.8963,0.796831,-0.720311,0.16865,-0.582549,-1.2548,-0.152871,2.37333,0.2344,-0.705595,0.216985
4614975,1,-1.57029,-0.522716,0.000186907,-2.09589,1.57067,1.57173,0.784984,-1.5708,-0.523599,5.12607e-08,-2.0944,1.5708,1.5708,0.785397,-0.000223675,0.00130919,-0.00168429,0.00149487,-0.000121384,-6.6472e-05,0.00156362,0,0,0,0,0,0,0,-0.581349,-10.4431,-0.508359,20.8448,0.802324,-0.707494,0.135691,-0.583596,-1.25386,-0.154718,2.37244,0.234429,-0.705457,0.217087
4614976,1,-1.57029,-0.522721,0.000190021,-2.0959,1.57067,1.57173,0.784978,-1.5708,-0.523599,5.12607e-08,-2.0944,1.5708,1.5708,0.785397,-0.000705929,-0.000890441,-0.000566046,-0.000209843,-8.0923e-05,-4.43146e-05,-0.00112772,0,0,0,0,0,0,0,-0.557545,-10.3678,-0.532163,20.8963,0.802324,-0.707494,0.194285,-0.583207,-1.25291,-0.154283,2.37116,0.234382,-0.705544,0.217194
4614977,1,-1.57029,-0.522719,0.000191991,-2.0959,1.57067,1.57173,0.78498,-1.5708,-0.523599,5.12607e-08,-2.0944,1.5708,1.5708,0.785397,-0.000470619,-3.68156e-05,0.000829062,0.000416917,-0.000257399,0.000207816,0.000672339,0,0,0,0,0,0,0,-0.557545,-10.3916,-0.583737,20.8725,0.807817,-0.713903,0.155832,-0.581989,-1.25143,-0.152638,2.36975,0.234312,-0.705747,0.217274
4614978,1,-1.57029,-0.522719,0.000189771,-2.0959,1.57067,1.57173,0.78498,-1.5708,-0.523599,5.12607e-08,-2.0944,1.5708,1.5708,0.785397,0.000799878,-2.45438e-05,-4.10394e-06,-0.000835679,0.000235302,-9.8815e-05,-2.64921e-05,0,0,0,0,0,0,0,-0.605152,-10.3916,-0.559934,20.9201,0.796831,-0.707494,0.16865,-0.581525,-1.24994,-0.152239,2.36875,0.234307,-0.705831,0.217334
4614979,1,-1.57029,-0.522719,0.000185968,-2.0959,1.57067,1.57173,0.784975,-1.5708,-0.523599,5.12607e-08,-2.0944,1.5708,1.5708,0.785397,0.000533252,-1.63625e-05,-0.00120916,-3.0769e-07,0.000156868,0.000171482,-0.000967097,0,0,0,0,0,0,0,-0.605152,-10.3916,-0.508359,20.8963,0.796831,-0.713903,0.194285,-0.581632,-1.24961,-0.152578,2.36867,0.234362,-0.705843,0.217372
4614980,1,-1.57029,-0.522721,0.000185907,-2.0959,1.57067,1.57173,0.784983,-1.5708,-0.523599,5.12607e-08,-2.0944,1.5708,1.5708,0.785397,-0.000201311,-0.00056772,-0.000806108,0.000556607,0.000104578,0.000114321,0.00125414,0,0,0,0,0,0,0,-0.581349,-10.3678,-0.508359,20.8725,0.796831,-0.713903,0.143015,-0.581256,-1.24922,-0.151942,2.36857,0.234391,-0.705934,0.217397
4614981,1,-1.57029,-0.522721,0.000189688,-2.0959,1.57067,1.57173,0.784979,-1.5708,-0.523599,5.12607e-08,-2.0944,1.5708,1.5708,0.785397,-0.000134207,-0.00037848,1.94067e-05,0.000371071,-0.000133732,0.000313573,-0.000825419,0,0,0,0,0,0,0,-0.581349,-10.3678,-0.532163,20.8725,0.802324,-0.720311,0.187876,-0.580414,-1.24749,-0.15048,2.36752,0.234364,-0.706097,0.217421
4614982,1,-1.57029,-0.522719,0.000190391,-2.0959,1.57067,1.57173,0.784979,-1.5708,-0.523599,5.12607e-08,-2.0944,1.5708,1.5708,0.785397,-8.94714e-05,0.000304492,1.29378e-05,-0.000866243,0.000114296,-0.000503028,-0.000787638,0,0,0,0,0,0,0,-0.581349,-10.3916,-0.532163,20.9201,0.796831,-0.701085,0.194285,-0.579854,-1.24588,-0.149447,2.36654,0.234352,-0.706236,0.217438
4614983,1,-1.5703,-0.522719,0.000190444,-2.0959,1.57067,1.57173,0.78498,-1.5708,-0.523599,5.12607e-08,-2.0944,1.5708,1.5708,0.785397,-0.00126607,0.000202995,0.000658239,-0.00113431,7.61974e-05,-9.7993e-05,0.000899061,0,0,0,0,0,0,0,-0.529774,-10.3916,-0.559934,20.9439,0.796831,-0.707494,0.155832,-0.579692,-1.24663,-0.149127,2.36717,0.23442,-0.706345,0.217458
4614984,1,-1.57029,-0.522721,0.000189812,-2.0959,1.57067,1.57173,0.784982,-1.5708,-0.523599,5.12607e-08,-2.0944,1.5708,1.5708,0.785397,0.000362377,-0.000421482,0.000438826,0.000914231,-0.000356103,0.00017203,0.000599374,0,0,0,0,0,0,0,-0.581349,-10.3678,-0.559934,20.8725,0.807817,-0.713903,0.155832,-0.579881,-1.2484,-0.149506,2.36852,0.234529,-0.70641,0.217499
4614985,1,-1.57029,-0.522719,0.000193402,-2.0959,1.57067,1.57173,0.784981,-1.5708,-0.523599,5.12607e-08,-2.0944,1.5708,1.5708,0.785397,0.000798397,0.000275824,0.000849363,5.26754e-05,-3.39513e-05,-0.000122672,-0.000312494,0,0,0,0,0,0,0,-0.605152,-10.3916,-0.583737,20.8963,0.802324,-0.707494,0.175059,-0.580947,-1.24903,-0.151222,2.36895,0.23463,-0.70633,0.217543
4614986,1,-1.57029,-0.522719,0.000190423,-2.0959,1.57067,1.57173,0.78498,-1.5708,-0.523599,5.12607e-08,-2.0944,1.5708,1.5708,0.785397,-2.45476e-05,0.000183883,-0.000640184,-0.00107851,-2.26342e-05,-0.000556499,0.000741106,0,0,0,0,0,0,0,-0.581349,-10.3916,-0.532163,20.9439,0.802324,-0.694677,0.149424,-0.582555,-1.24979,-0.153657,2.36933,0.234743,-0.706165,0.217569
4614987,1,-1.57029,-0.522718,0.000190636,-2.0959,1.57067,1.57173,0.784981,-1.5708,-0.523599,5.12607e-08,-2.0944,1.5708,1.5708,0.785397,-1.63651e-05,0.0006794,-0.000426789,0.000394619,0.000391812,-0.000133641,1.93531e-05,0,0,0,0,0,0,0,-0.581349,-10.4154,-0.532163,20.8963,0.791338,-0.701085,0.162241,-0.583432,-1.25196,-0.154894,2.37055,0.234856,-0.706109,0.217564
4614988,1,-1.5703,-0.522721,0.000190526,-2.0959,1.57067,1.57173,0.78498,-1.5708,-0.523599,5.12607e-08,-2.0944,1.5708,1.5708,0.785397,-0.00121734,-0.00066069,0.000365088,-0.000850544,-0.000145693,-8.90937e-05,-0.000699175,0,0,0,0,0,0,0,-0.529774,-10.3678,-0.559934,20.9439,0.802324,-0.701085,0.181467,-0.583303,-1.25423,-0.154646,2.37181,0.234934,-0.706179,0.217523
4614989,1,-1.57029,-0.522718,0.00019151,-2.0959,1.57067,1.57173,0.78498,-1.5708,-0.523599,5.12607e-08,-2.0944,1.5708,1.5708,0.785397,0.000951681,0.000673164,0.000800204,0.00110341,0.000106322,0.000177963,0.000720678,0,0,0,0,0,0,0,-0.605152,-10.4154,-0.583737,20.8725,0.796831,-0.707494,0.149424,-0.583173,-1.25538,-0.154544,2.37242,0.234991,-0.706208,0.217456
4614990,1,-1.57029,-0.522721,0.000189792,-2.0959,1.57067,1.57173,0.784973,-1.5708,-0.523599,5.12607e-08,-2.0944,1.5708,1.5708,0.785397,7.76418e-05,-0.000664848,-0.000672957,-0.00037802,-0.000132569,-0.000118717,-0.00165578,0,0,0,0,0,0,0,-0.581349,-10.3678,-0.532163,20.9201,0.802324,-0.701085,0.207102,-0.583578,-1.2554,-0.155253,2.37223,0.23503,-0.706124,0.217379
4614991,1,-1.57029,-0.522721,0.000190426,-2.09589,1.57067,1.57173,0.784975,-1.5708,-0.523599,5.12607e-08,-2.0944,1.5708,1.5708,0.785397,-0.000505051,-0.000443232,-0.000448638,0.00151122,0.000115071,0.000158214,-0.000391775,0,0,0,0,0,0,0,-0.557545,-10.3678,-0.532163,20.8448,0.796831,-0.707494,0.187876,-0.583568,-1.25361,-0.155251,2.37088,0.235002,-0.706064,0.217305
4614992,1,-1.57029,-0.522721,0.000190456,-2.0959,1.57067,1.57173,0.784984,-1.57079,-0.523597,2.55126e-06,-2.09439,1.5708,1.5708,0.785398,0.000776923,-0.000295488,0.000350522,-0.000755755,-0.000126737,-0.000131883,0.00190896,0.00312491,0.001875,0.0025,0.00231139,0.00155808,0.005,0.000158622,-0.605152,-10.3678,-0.559934,20.9201,0.802324,-0.701085,0.129282,-0.583096,-1.25033,-0.154524,2.3687,0.234923,-0.706043,0.217265
4614993,1,-1.57029,-0.522719,0.000188327,-2.0959,1.57067,1.57173,0.784978,-1.57079,-0.523593,7.55126e-06,-2.09439,1.5708,1.57081,0.785398,0.000517949,0.00035982,-0.000972745,0.000609787,-8.44911e-05,0.000149437,-0.00137222,0.00624981,0.00375,0.005,0.00462278,0.00311616,0.01,0.000317245,-0.605152,-10.3916,-0.508359,20.8725,0.802324,-0.707494,0.200693,-0.582916,-1.24781,-0.154149,2.36704,0.234867,-0.70598,0.217257
4614994,1,-1.57029,-0.522717,0.000188364,-2.0959,1.57067,1.57173,0.784979,-1.57078,-0.523587,1.50513e-05,-2.09438,1.57081,1.57083,0.785398,0.000345299,0.00023988,-9.16844e-05,0.000406525,-5.63274e-05,9.96248e-05,-0.000677454,0.00937472,0.005625,0.0075,0.00693417,0.00467425,0.015,0.000475867,-0.605152,-10.3916,-0.532163,20.8725,0.802324,-0.707494,0.194285,-0.582774,-1.24686,-0.153661,2.36613,0.234837,-0.70593,0.217252
4614995,1,-1.57029,-0.522718,0.000190023,-2.0959,1.57067,1.57173,0.784984,-1.57077,-0.52358,2.50513e-05,-2.09437,1.57081,1.57085,0.785399,0.00229455,-0.00104651,0.00270827,-0.000842607,-0.000241002,0.000303775,0.00144724,0.0124996,0.0075,0.01,0.00924556,0.00623233,0.02,0.00063449,-0.557545,-10.34,-0.381406,20.9201,0.807817,-0.713903,0.143015,-0.58392,-1.24621,-0.15501,2.36548,0.234871,-0.705704,0.21727
4614996,1,-1.57029,-0.522722,0.000192942,-2.0959,1.57067,1.57173,0.784979,-1.57075,-0.523571,3.75513e-05,-2.09436,1.57082,1.57087,0.7854,0.000427798,0.000245705,0.00280218,0.000717271,-0.000160668,-0.000272201,-0.000934048,0.0156245,0.009375,0.0125,0.011557,0.00779041,0.025,0.000793112,-0.22826,-10.1139,-0.000546589,20.9955,0.807817,-0.701085,0.194285,-0.588011,-1.24498,-0.160826,2.36493,0.23504,-0.705045,0.217324
4614997,1,-1.5703,-0.522722,0.000206203,-2.0959,1.57067,1.57173,0.78498,-1.57073,-0.523559,5.25513e-05,-2.09435,1.57083,1.5709,0.785401,-0.00402788,0.0016683,0.00678432,0.000576869,0.000299789,-0.000418826,0.000801455,0.0187494,0.01125,0.015,0.0138683,0.00934849,0.03,0.000951734,0.251781,-9.88773,0.376346,21.1423,0.796831,-0.694677,0.155832,-0.593825,-1.24492,-0.169811,2.3649,0.235343,-0.704124,0.217392
4614998,1,-1.5703,-0.522728,0.000220022,-2.09589,1.57068,1.57173,0.784973,-1.57071,-0.523546,7.00513e-05,-2.09433,1.57084,1.57094,0.785402,-0.00234109,-6.75002e-05,0.0103056,0.00344655,0.000844119,-0.000516576,-0.00136457,0.0218743,0.013125,0.0175,0.0161797,0.0109066,0.035,0.00111036,0.680248,-9.53067,0.884158,21.1701,0.779436,-0.688268,0.207102,-0.600707,-1.24544,-0.181808,2.36481,0.235772,-0.702934,0.217474
4614999,1,-1.5703,-0.522717,0.000240528,-2.09589,1.57068,1.57173,0.784976,-1.57068,-0.523531,9.00513e-05,-2.09431,1.57085,1.57098,0.785403,-0.00242395,0.00253854,0.00894196,0.00419732,0.00527644,0.00885158,-0.000909712,0.0249993,0.015,0.02,0.0184911,0.0124647,0.04,0.00126898,1.05714,-9.45529,1.31262,21.2455,0.779436,-0.681859,0.207102,-0.608406,-1.24352,-0.196659,2.36304,0.236252,-0.701381,0.217578
4615000,1,-1.5703,-0.522707,0.000272168,-2.09588,1.57068,1.57173,0.784983,-1.57066,-0.523514,0.000112551,-2.09429,1.57087,1.57102,0.785405,-0.00438629,0.00370029,0.0173764,0.00599745,0.00516505,0.00621245,0.0012924,0.0281242,0.016875,0.0225,0.0208025,0.0140227,0.045,0.0014276,1.51338,-9.35611,1.61811,21.2693,0.745561,-0.669042,0.155832,-0.615751,-1.24062,-0.212897,2.3604,0.236752,-0.699551,0.217724
4615001,1,-1.5703,-0.522699,0.00029917,-2.09587,1.57068,1.57174,0.784981,-1.57062,-0.523496,0.000137551,-2.09427,1.57088,1.57107,0.785406,-0.000434183,0.00430269,0.0193458,0.00672177,0.00268681,0.0105966,0.000149521,0.0312491,0.01875,0.025,0.0231139,0.0155808,0.05,0.00158622,1.89027,-9.25296,1.97119,21.3169,0.773943,-0.701085,0.175059,-0.624123,-1.23839,-0.23331,2.35832,0.23739,-0.697072,0.217931
4615002,1,-1.57029,-0.522688,0.000325462,-2.09587,1.57068,1.57175,0.784979,-1.57059,-0.523473,0.000167551,-2.09424,1.5709,1.57113,0.785408,-0.000142137,0.00537979,0.0207778,0.00628595,0.000960999,0.00884587,-0.000375037,0.0371244,0.0225,0.03,0.0272503,0.0182639,0.06,0.00174772,2.24336,-9.17758,2.32825,21.416,0.802324,-0.72672,0.187876,-0.634067,-1.23669,-0.258858,2.35774,0.238232,-0.69368,0.218176
4615003,1,-1.57028,-0.522681,0.000354588,-2.09586,1.57068,1.57175,0.784979,-1.57054,-0.523447,0.000202551,-2.09421,1.57092,1.5712,0.78541,0.00430747,0.00487795,0.0242629,0.0107164,0.000162122,0.00990775,0.000699411,0.0429997,0.02625,0.035,0.0313867,0.020947,0.07,0.00190922,2.54884,-9.05063,2.58216,21.4438,0.819719,-0.688268,0.162241,-0.644248,-1.23378,-0.287361,2.3582,0.239228,-0.689433,0.218445
4615004,1,-1.57027,-0.52267,0.000387814,-2.09586,1.57068,1.57176,0.784987,-1.5705,-0.523417,0.000242551,-2.09417,1.57095,1.57128,0.785412,0.00741009,0.00824486,0.0253037,0.0087551,2.89174e-05,0.0107138,0.00239905,0.048875,0.03,0.04,0.0355231,0.0236301,0.08,0.00207072,2.7234,-8.95145,2.75672,21.5668,0.825212,-0.649816,0.110056,-0.654383,-1.22874,-0.318237,2.3591,0.240382,-0.684293,0.218736
4615005,1,-1.57025,-0.522662,0.000418856,-2.09584,1.57068,1.57176,0.784979,-1.57044,-0.523383,0.000287551,-2.09413,1.57097,1.57137,0.785414,0.0131638,0.0103329,0.0300767,0.0106158,0.000315944,0.0114539,-0.00128285,0.0547503,0.03375,0.045,0.0396595,0.0263131,0.09,0.00223222,2.87416,-8.69754,3.13758,21.543,0.819719,-0.611364,0.187876,-0.664885,-1.22634,-0.351946,2.3633,0.24185,-0.67819,0.218999
4615006,1,-1.57023,-0.522653,0.00045787,-2.09583,1.57068,1.57177,0.784983,-1.57038,-0.523346,0.000337551,-2.09409,1.571,1.57147,0.785417,0.0112945,0.012922,0.0344396,0.0121896,-0.00012636,0.0106111,0.000331564,0.0606256,0.0375,0.05,0.0437959,0.0289962,0.1,0.00239372,3.30262,-8.34445,3.64539,21.6422,0.830705,-0.533544,0.155832,-0.676118,-1.22983,-0.389259,2.37254,0.243749,-0.671019,0.219191
4615007,1,-1.57022,-0.522631,0.000510851,-2.09582,1.57069,1.57178,0.784982,-1.57031,-0.523304,0.000392551,-2.09404,1.57103,1.57158,0.785419,0.0118998,0.0170945,0.0418616,0.014723,0.0012228,0.00826359,0.000967028,0.0665009,0.04125,0.055,0.0479323,0.0316793,0.11,0.00255522,3.90962,-8.06674,4.12543,21.6898,0.796831,-0.40537,0.135691,-0.687358,-1.23969,-0.429775,2.3865,0.246081,-0.662761,0.219327
4615008,1,-1.57019,-0.522609,0.000557441,-2.0958,1.57069,1.57179,0.784976,-1.57024,-0.523259,0.000452551,-2.09399,1.57107,1.5717,0.785422,0.0170204,0.0191046,0.0404111,0.0137434,0.00149879,0.0125184,-0.00105074,0.0723762,0.045,0.06,0.0520686,0.0343624,0.12,0.00271672,4.33809,-7.73746,4.784,21.7176,0.779436,-0.301915,0.181467,-0.696937,-1.25705,-0.471089,2.40588,0.24881,-0.653476,0.21941
4615009,1,-1.57015,-0.522575,0.000612287,-2.09578,1.5707,1.57181,0.784977,-1.57016,-0.523211,0.000517551,-2.09393,1.5711,1.57183,0.785425,0.0252553,0.0230686,0.0433895,0.0156554,0.00681225,0.0122289,-0.00117521,0.0782515,0.04875,0.065,0.056205,0.0370454,0.13,0.00287822,4.71498,-7.51132,5.4148,21.7652,0.751055,-0.23142,0.194285,-0.703326,-1.28194,-0.509798,2.43143,0.251822,-0.643134,0.219425
4615010,1,-1.5701,-0.522539,0.000677405,-2.09575,1.57071,1.57184,0.784982,-1.57008,-0.523158,0.000587551,-2.09387,1.57114,1.57197,0.785428,0.0304645,0.029395,0.0495628,0.0177704,0.00597524,0.0171084,0.000403322,0.0841268,0.0525,0.07,0.0603414,0.0397285,0.14,0.00303972,5.14344,-7.30899,5.89881,21.789,0.723589,-0.172826,0.162241,-0.707657,-1.31562,-0.546624,2.46371,0.255073,-0.631321,0.219404
4615011,1,-1.57004,-0.522502,0.000737042,-2.09572,1.57072,1.57188,0.784981,-1.56999,-0.523102,0.000662551,-2.09381,1.57119,1.57212,0.785431,0.0382729,0.033741,0.0497458,0.0163238,0.00409241,0.0224376,-0.000205836,0.0900021,0.05625,0.075,0.0644778,0.0424116,0.15,0.00320122,5.39735,-7.07889,6.43042,21.9397,0.729082,-0.160009,0.175059,-0.711107,-1.36167,-0.583005,2.50443,0.258622,-0.617743,0.219388
4615012,1,-1.56998,-0.522466,0.000801075,-2.09569,1.57072,1.57194,0.784977,-1.56989,-0.52304,0.000745051,-2.09374,1.57123,1.57229,0.785434,0.0467926,0.0339027,0.0521808,0.0202847,0.0049804,0.0375167,-0.00132402,0.0984682,0.061875,0.0825,0.0701084,0.0461276,0.165,0.00319486,5.67506,-6.85275,6.85889,22.0151,0.802324,-0.199376,0.207102,-0.712102,-1.41688,-0.615976,2.55253,0.262363,-0.6026,0.219379
4615013,1,-1.56991,-0.522429,0.000872789,-2.09566,1.57073,1.57201,0.784977,-1.56978,-0.522972,0.000835051,-2.09366,1.57128,1.57247,0.785437,0.0519062,0.0334445,0.0600025,0.0217677,0.00695545,0.0472512,-0.00112004,0.106934,0.0675,0.09,0.075739,0.0498435,0.18,0.0031885,5.84962,-6.59885,7.16437,22.1619,0.847185,-0.212194,0.213511,-0.71026,-1.46796,-0.64466,2.60145,0.266089,-0.58596,0.219399
4615014,1,-1.56984,-0.522386,0.000946137,-2.09562,1.57073,1.57209,0.78496,-1.56967,-0.522899,0.000932551,-2.09358,1.57134,1.57266,0.78544,0.0585206,0.0373874,0.0629693,0.0256349,0.00811483,0.060758,-0.00627376,0.1154,0.073125,0.0975,0.0813696,0.0535594,0.195,0.00318214,5.9012,-6.39651,7.44208,22.1897,0.903948,-0.257054,0.362742,-0.70633,-1.50556,-0.670501,2.64628,0.269784,-0.567843,0.219497
4615015,1,-1.56975,-0.522336,0.0010175,-2.09558,1.57074,1.57219,0.784956,-1.56954,-0.522821,0.00103755,-2.0935,1.57139,1.57287,0.785444,0.0665826,0.0435196,0.0670259,0.0317147,0.0097081,0.0745315,-0.00560666,0.123867,0.07875,0.105,0.0870002,0.0572754,0.21,0.00317578,6.05195,-6.19418,7.89832,22.2135,0.943315,-0.276281,0.401194,-0.69977,-1.53181,-0.692449,2.68679,0.273555,-0.548679,0.219777
4615016,1,-1.56966,-0.522288,0.00109878,-2.09552,1.57076,1.57229,0.784955,-1.56941,-0.522736,0.00115005,-2.0934,1.57145,1.5731,0.785447,0.0742916,0.0439203,0.073457,0.0375975,0.00762681,0.0867266,-0.00278834,0.132333,0.084375,0.1125,0.0926308,0.0609913,0.225,0.00316942,6.25428,-5.81729,8.35456,22.1619,0.943315,-0.218602,0.375559,-0.691056,-1.54845,-0.710487,2.72203,0.277504,-0.528801,0.220434
4615017,1,-1.56957,-0.522229,0.00119298,-2.09547,1.57078,1.57241,0.784946,-1.56927,-0.522646,0.00127005,-2.0933,1.57152,1.57334,0.78545,0.0818399,0.0481207,0.0792949,0.0409773,0.0125442,0.0950183,-0.00450375,0.140799,0.09,0.12,0.0982614,0.0647073,0.24,0.00316307,6.65895,-5.4642,8.88617,22.1619,0.892961,-0.140783,0.44697,-0.682264,-1.55241,-0.727137,2.75015,0.281737,-0.508109,0.221636
4615018,1,-1.56947,-0.52216,0.0012886,-2.09541,1.5708,1.57255,0.784955,-1.56912,-0.522551,0.00139755,-2.0932,1.57159,1.57359,0.785453,0.0894401,0.0558099,0.0844484,0.0465094,0.0149014,0.109369,0.000117075,0.149265,0.095625,0.1275,0.103892,0.0684232,0.255,0.00315671,7.01204,-5.15872,9.54474,22.1619,0.875566,-0.140783,0.362742,-0.674175,-1.54757,-0.743123,2.77336,0.286353,-0.486594,0.223449
4615019,1,-1.56936,-0.522085,0.0014013,-2.09534,1.57082,1.57271,0.784964,-1.56896,-0.522449,0.00153255,-2.09309,1.57166,1.57386,0.785456,0.0976374,0.0616828,0.0911314,0.0511317,0.0173248,0.127453,0.00296027,0.157731,0.10125,0.135,0.109523,0.0721392,0.27,0.00315035,7.38893,-4.85721,10.1002,22.1381,0.836199,-0.212194,0.284922,-0.666135,-1.5431,-0.757271,2.79605,0.291402,-0.464491,0.225862
4615020,1,-1.56923,-0.522001,0.0015247,-2.09527,1.57086,1.5729,0.784967,-1.5688,-0.522342,0.00167505,-2.09298,1.57173,1.57415,0.785459,0.108065,0.0671923,0.101125,0.0567314,0.0283887,0.146349,0.00292295,0.166197,0.106875,0.1425,0.115153,0.0758551,0.285,0.00314399,7.74202,-4.6033,10.5802,22.1619,0.802324,-0.314733,0.259287,-0.659076,-1.5426,-0.771015,2.81995,0.296871,-0.441798,0.228744
4615021,1,-1.56909,-0.521914,0.00164202,-2.09519,1.57089,1.57311,0.784972,-1.56862,-0.52223,0.00182505,-2.09285,1.57181,1.57445,0.785463,0.115343,0.0718628,0.104177,0.0649469,0.0302237,0.166405,0.00266071,0.174663,0.1125,0.15,0.120784,0.0795711,0.3,0.00313763,7.97212,-4.37717,11.1118,22.1381,0.81331,-0.456639,0.240061,-0.653388,-1.54322,-0.784943,2.84328,0.302574,-0.418601,0.231878
4615022,1,-1.56893,-0.521826,0.00176001,-2.09511,1.57092,1.57335,0.784978,-1.56844,-0.522111,0.00198504,-2.09273,1.5719,1.57477,0.785466,0.126352,0.0749905,0.104124,0.0689842,0.0354023,0.185066,0.00346923,0.184781,0.119422,0.15999,0.127407,0.083858,0.319215,0.00304453,8.0951,-4.14706,11.5919,22.1897,0.853594,-0.57932,0.194285,-0.644686,-1.53947,-0.79193,2.86317,0.308121,-0.395771,0.235057
4615023,1,-1.56878,-0.521737,0.00188927,-2.09502,1.57096,1.57359,0.784972,-1.56824,-0.521984,0.00215502,-2.09259,1.57199,1.5751,0.785469,0.136088,0.0801191,0.113804,0.076543,0.0394572,0.204311,0.00136338,0.194899,0.126343,0.16998,0.13403,0.0881448,0.33843,0.00295142,8.27363,-3.92093,11.8973,22.2135,0.892961,-0.585729,0.219919,-0.630187,-1.52756,-0.787058,2.87835,0.313312,-0.374031,0.238116
4615024,1,-1.56861,-0.521639,0.00202033,-2.09493,1.57101,1.57385,0.784966,-1.56804,-0.521851,0.00233499,-2.09245,1.57208,1.57546,0.785471,0.144564,0.0850749,0.121609,0.0830013,0.0424727,0.22236,-0.0007865,0.205016,0.133265,0.17997,0.140653,0.0924317,0.357646,0.00285832,8.40059,-3.7186,12.2028,22.1897,0.937822,-0.553685,0.265696,-0.612665,-1.50664,-0.774609,2.88874,0.318299,-0.353295,0.240941
4615025,1,-1.56844,-0.521543,0.00215206,-2.09483,1.57106,1.57413,0.784957,-1.56782,-0.521711,0.00252495,-2.09231,1.57218,1.57584,0.785474,0.156354,0.0900782,0.123594,0.0873145,0.0401812,0.240265,-0.00364391,0.215134,0.140187,0.18996,0.147276,0.0967186,0.376861,0.00276521,8.55134,-3.44089,12.6591,22.1897,0.97719,-0.520726,0.349924,-0.593671,-1.47829,-0.757034,2.89565,0.323308,-0.333533,0.243513
4615026,1,-1.56825,-0.521436,0.00229802,-2.09472,1.57113,1.57442,0.784945,-1.5676,-0.521564,0.0027249,-2.09215,1.57228,1.57623,0.785477,0.166162,0.0971563,0.13223,0.0945606,0.0466683,0.257184,-0.00626092,0.225251,0.147108,0.19995,0.153899,0.101005,0.396076,0.0026721,8.80128,-3.16318,13.0875,22.1381,0.921343,-0.437413,0.453379,-0.57285,-1.44605,-0.733348,2.90157,0.328524,-0.314835,0.245916
4615027,1,-1.56807,-0.521316,0.00244193,-2.0946,1.5712,1.57475,0.784946,-1.56736,-0.52141,0.00293484,-2.09199,1.57238,1.57665,0.785479,0.170921,0.102727,0.134335,0.105316,0.0565525,0.277256,-0.00393659,0.235369,0.15403,0.20994,0.160522,0.105292,0.415291,0.002579,9.18214,-2.90927,13.6945,22.1143,0.853594,-0.418187,0.44697,-0.548733,-1.41124,-0.701317,2.90616,0.333901,-0.297293,0.24833
4615028,1,-1.56786,-0.521188,0.00259682,-2.09448,1.57128,1.5751,0.784945,-1.56712,-0.521249,0.00315477,-2.09182,1.57249,1.57708,0.785482,0.180271,0.113106,0.141167,0.10837,0.0625341,0.299147,-0.00286175,0.245487,0.160952,0.21993,0.167145,0.109579,0.434506,0.00248589,9.55903,-2.68314,14.3769,22.0627,0.819719,-0.469457,0.453379,-0.517844,-1.37665,-0.65613,2.90971,0.33924,-0.28124,0.250954
4615029,1,-1.56765,-0.521058,0.00276262,-2.09434,1.57137,1.57547,0.784939,-1.56686,-0.521081,0.00338469,-2.09165,1.5726,1.57754,0.785484,0.190978,0.118035,0.147542,0.114637,0.0730728,0.321439,-0.0122988,0.255604,0.167873,0.22992,0.173768,0.113866,0.453721,0.00239279,9.93989,-2.42923,15.0117,21.9635,0.751055,-0.546361,0.479014,-0.479913,-1.34862,-0.597635,2.91634,0.344544,-0.266592,0.253909
4615030,1,-1.56743,-0.520914,0.00294623,-2.09421,1.57146,1.57587,0.784957,-1.5666,-0.520906,0.0036246,-2.09147,1.57272,1.57801,0.785487,0.19503,0.125855,0.1582,0.122791,0.080734,0.346221,-0.00373017,0.265722,0.174795,0.23991,0.180391,0.118153,0.472937,0.00229968,10.3684,-2.2269,15.5195,21.9873,0.683306,-0.604955,0.337107,-0.437023,-1.32696,-0.529508,2.92666,0.349786,-0.252942,0.257253
4615031,1,-1.5672,-0.520767,0.00312791,-2.09406,1.57157,1.57628,0.784967,-1.56632,-0.520724,0.0038745,-2.09128,1.57285,1.5785,0.785489,0.207924,0.132545,0.164756,0.132429,0.0907604,0.37727,4.26995e-05,0.27584,0.181717,0.2499,0.187015,0.12244,0.492152,0.00220658,10.6699,-2.05234,15.9757,21.8644,0.627458,-0.681859,0.252878,-0.390144,-1.30722,-0.453994,2.93747,0.354743,-0.24017,0.260947
4615032,1,-1.56694,-0.520611,0.00330718,-2.0939,1.57167,1.57672,0.78496,-1.56603,-0.520535,0.00413439,-2.09109,1.57297,1.57902,0.785491,0.220325,0.139793,0.166825,0.140841,0.0957019,0.399789,0.00656912,0.286829,0.189207,0.25989,0.194241,0.126972,0.512142,0.00207259,10.8206,-1.85001,16.5311,21.8167,0.643938,-0.798131,0.316965,-0.33934,-1.28625,-0.37084,2.94607,0.35912,-0.228374,0.264788
4615033,1,-1.56669,-0.520451,0.00351188,-2.09374,1.57179,1.57718,0.784962,-1.56574,-0.520338,0.00440427,-2.09089,1.5731,1.57955,0.785493,0.230872,0.142165,0.177708,0.147298,0.105898,0.422303,0.00530194,0.297819,0.196697,0.26988,0.201468,0.131505,0.532132,0.00193861,11.023,-1.64767,16.8366,21.7652,0.615556,-0.810948,0.304148,-0.285084,-1.25911,-0.280011,2.95024,0.362691,-0.217512,0.26855
4615034,1,-1.56643,-0.520285,0.00371673,-2.09356,1.57192,1.57767,0.784954,-1.56543,-0.520134,0.00468414,-2.09068,1.57324,1.5801,0.785495,0.24655,0.148918,0.183686,0.155307,0.117315,0.443915,0.00146298,0.308809,0.204187,0.27987,0.208695,0.136037,0.552122,0.00180463,11.2491,-1.52072,17.0865,21.6898,0.615556,-0.817357,0.36915,-0.230509,-1.22036,-0.185964,2.94845,0.36545,-0.207103,0.272132
4615035,1,-1.56616,-0.520111,0.00391391,-2.09338,1.57204,1.57818,0.784945,-1.56511,-0.519922,0.004974,-2.09046,1.57338,1.58067,0.785496,0.251928,0.156054,0.185854,0.164905,0.119372,0.463931,-0.00189236,0.319799,0.211677,0.28986,0.215922,0.140569,0.572112,0.00167065,11.3999,-1.36996,17.519,21.6144,0.661333,-0.817357,0.453379,-0.17542,-1.17006,-0.0882508,2.94068,0.367384,-0.197198,0.275538
4615036,1,-1.56588,-0.519935,0.00412477,-2.09319,1.57217,1.57871,0.784938,-1.56478,-0.519703,0.00527385,-2.09024,1.57353,1.58126,0.785498,0.261783,0.160992,0.196471,0.175733,0.127257,0.482628,-0.00225945,0.330788,0.219167,0.29985,0.223149,0.145102,0.592102,0.00153667,11.5784,-1.19144,17.8721,21.5152,0.672319,-0.766088,0.485422,-0.11606,-1.10932,0.0182032,2.92641,0.368436,-0.188313,0.278868
4615037,1,-1.56559,-0.519751,0.00436549,-2.09299,1.57232,1.57925,0.784939,-1.56443,-0.519477,0.00558369,-2.09001,1.57368,1.58188,0.785499,0.270899,0.166962,0.211386,0.181928,0.130377,0.500546,-0.000652535,0.341778,0.226657,0.30984,0.230376,0.149634,0.612092,0.00140268,11.8045,-0.965302,18.0506,21.4914,0.638445,-0.688268,0.466196,-0.0551623,-1.03699,0.128064,2.90496,0.368869,-0.179898,0.282304
4615038,1,-1.56529,-0.51955,0.00460132,-2.09278,1.57247,1.57983,0.784938,-1.56408,-0.519243,0.00590352,-2.08977,1.57383,1.58251,0.785501,0.280322,0.175748,0.216028,0.188941,0.137581,0.521181,-0.000566116,0.352768,0.234147,0.31983,0.237603,0.154166,0.632082,0.0012687,11.9077,-0.937531,18.3521,21.5152,0.592668,-0.701085,0.472605,0.00321266,-0.957645,0.234359,2.87986,0.369116,-0.1712,0.285975
4615039,1,-1.56497,-0.519349,0.00483876,-2.09256,1.57262,1.58044,0.784943,-1.56372,-0.519001,0.00623334,-2.08953,1.57399,1.58316,0.785502,0.289847,0.183734,0.221548,0.19902,0.141206,0.54549,0.0013638,0.363758,0.241637,0.32982,0.24483,0.158699,0.652072,0.00113472,11.9077,-0.838348,18.7092,21.4438,0.587175,-0.80454,0.427744,0.061928,-0.879035,0.341458,2.85528,0.369255,-0.162571,0.289914
4615040,1,-1.56466,-0.519128,0.00510465,-2.09234,1.57279,1.58108,0.784955,-1.56334,-0.518752,0.00657315,-2.08927,1.57415,1.58383,0.785503,0.296063,0.194762,0.234305,0.210465,0.151557,0.570857,0.00385119,0.374747,0.249127,0.33981,0.252056,0.163231,0.672062,0.00100074,12.106,-0.838348,18.8084,21.4438,0.50844,-0.855809,0.349924,0.124015,-0.805912,0.454,2.83212,0.369179,-0.154531,0.294088
4615041,1,-1.56433,-0.51891,0.00536843,-2.09209,1.57295,1.58175,0.784954,-1.56296,-0.518495,0.00692295,-2.08902,1.57432,1.58452,0.785504,0.306669,0.204362,0.249784,0.219622,0.156955,0.597122,0.00308701,0.385737,0.256617,0.3498,0.259283,0.167763,0.692052,0.000866757,12.1338,-0.810577,18.9869,21.3446,0.491045,-0.959264,0.337107,0.186507,-0.742208,0.566836,2.81093,0.368992,-0.146853,0.298395
4615042,1,-1.56399,-0.518678,0.00562704,-2.09185,1.57313,1.58244,0.784962,-1.56256,-0.518231,0.00728274,-2.08875,1.57449,1.58524,0.785504,0.321998,0.212813,0.253166,0.227185,0.165505,0.628206,0.00473649,0.39694,0.264107,0.35979,0.266821,0.172336,0.712042,0.000711843,12.1338,-0.786774,19.3162,21.3446,0.485552,-1.13321,0.265696,0.245559,-0.690337,0.674328,2.79316,0.368808,-0.139253,0.302668
4615043,1,-1.56364,-0.518439,0.0059187,-2.0916,1.57332,1.58314,0.784966,-1.56215,-0.517959,0.00765252,-2.08847,1.57467,1.58597,0.785505,0.333493,0.220127,0.263626,0.234303,0.168501,0.647741,0.00365759,0.408144,0.271597,0.36978,0.27436,0.176909,0.732032,0.000556929,12.2608,-0.810577,19.4431,21.2931,0.440691,-1.1204,0.252878,0.301035,-0.64905,0.777704,2.7796,0.368551,-0.131998,0.30673
4615044,1,-1.56329,-0.518199,0.00621341,-2.09133,1.5735,1.58384,0.784957,-1.56173,-0.51768,0.00803229,-2.08819,1.57485,1.58672,0.785505,0.336742,0.223715,0.27626,0.242706,0.174529,0.668815,8.37194e-05,0.419347,0.279087,0.37977,0.281898,0.181482,0.752022,0.000402014,12.4869,-0.76297,19.4947,21.2177,0.417803,-0.97849,0.316965,0.353796,-0.611502,0.878487,2.76829,0.368102,-0.125327,0.310433
4615045,1,-1.56292,-0.517948,0.00650855,-2.09105,1.57368,1.58459,0.784961,-1.5613,-0.517394,0.00842205,-2.0879,1.57504,1.58749,0.785505,0.34599,0.230936,0.282754,0.254746,0.18053,0.688208,0.000782075,0.430551,0.286577,0.38976,0.289436,0.186055,0.772012,0.0002471,12.5623,-0.786774,19.7724,21.1701,0.491045,-0.913488,0.297739,0.405997,-0.567622,0.978916,2.75422,0.367217,-0.119404,0.313717
4615046,1,-1.56255,-0.517692,0.00681757,-2.09078,1.57387,1.58537,0.784958,-1.56086,-0.5171,0.0088218,-2.08761,1.57523,1.58828,0.785506,0.355003,0.243707,0.285817,0.263639,0.186233,0.712214,-0.00092604,0.441754,0.294067,0.39975,0.296974,0.190628,0.792002,9.21859e-05,12.6614,-0.786774,19.8994,21.1423,0.536821,-0.97849,0.337107,0.462276,-0.517851,1.08597,2.73599,0.365652,-0.114699,0.316602
4615047,1,-1.56217,-0.517421,0.00714235,-2.09049,1.57407,1.58615,0.784943,-1.56041,-0.516798,0.00923154,-2.0873,1.57542,1.5891,0.785505,0.364107,0.25163,0.298186,0.271479,0.195012,0.73683,-0.00444103,0.452958,0.301557,0.40974,0.304512,0.195201,0.811992,-6.27283e-05,12.84,-0.913727,19.8478,21.1701,0.474565,-0.984899,0.440561,0.525128,-0.472194,1.20372,2.71782,0.363538,-0.111478,0.319137
4615048,1,-1.56176,-0.517138,0.00747549,-2.09018,1.57428,1.58697,0.784941,-1.55994,-0.516489,0.00965127,-2.08699,1.57562,1.58993,0.785505,0.37821,0.260799,0.307364,0.280583,0.198177,0.759068,-0.00342942,0.464161,0.309047,0.41973,0.31205,0.199774,0.831982,-0.000217643,12.6892,-1.06448,20.0263,21.0947,0.485552,-1.00412,0.453379,0.591049,-0.434903,1.32661,2.70241,0.36124,-0.109152,0.321444
4615049,1,-1.56135,-0.516855,0.00781534,-2.08988,1.5745,1.58781,0.784946,-1.55947,-0.516173,0.010081,-2.08667,1.57583,1.59078,0.785505,0.38629,0.267443,0.31822,0.284953,0.201092,0.795137,-0.000586372,0.475364,0.316537,0.42972,0.319589,0.204346,0.851972,-0.000372557,12.7646,-1.19144,20.0739,21.1185,0.485552,-1.00412,0.407602,0.655884,-0.40525,1.44796,2.69063,0.359054,-0.107113,0.323711
4615050,1,-1.56095,-0.516555,0.0081832,-2.08957,1.57472,1.58866,0.784952,-1.55898,-0.515849,0.0105207,-2.08634,1.57603,1.59165,0.785504,0.395553,0.278808,0.333635,0.291129,0.205281,0.812577,0.00174868,0.486568,0.324027,0.43971,0.327127,0.208919,0.871962,-0.000527471,12.9907,-1.34219,19.9232,21.1701,0.435198,-0.997716,0.349924,0.717505,-0.385657,1.5638,2.68534,0.35726,-0.105121,0.326067
4615051,1,-1.56051,-0.516249,0.0085369,-2.08925,1.57493,1.58956,0.784951,-1.55848,-0.515517,0.0109704,-2.08601,1.57625,1.59254,0.785504,0.404608,0.286838,0.337365,0.299914,0.206097,0.836048,0.000930954,0.497771,0.331517,0.4497,0.334665,0.213492,0.891952,-0.000682385,13.0899,-1.46915,20.1017,21.1701,0.440691,-1.13962,0.356333,0.775541,-0.379159,1.67298,2.68837,0.355961,-0.103053,0.328519
4615052,1,-1.56007,-0.515941,0.00890722,-2.08891,1.57516,1.59046,0.784962,-1.55797,-0.515178,0.0114301,-2.08567,1.57647,1.59346,0.785503,0.431372,0.295472,0.352208,0.311201,0.212333,0.85888,0.00303003,0.508618,0.339007,0.45969,0.342303,0.21797,0.911942,-0.000859229,13.0423,-1.56833,20.1771,21.0709,0.423296,-1.17807,0.291331,0.827869,-0.382041,1.77319,2.6963,0.355003,-0.100498,0.331013
4615053,1,-1.55961,-0.515617,0.00930301,-2.08858,1.5754,1.59137,0.784951,-1.55746,-0.514832,0.0118998,-2.08532,1.57669,1.59439,0.785502,0.438282,0.303177,0.360874,0.320876,0.223946,0.865858,-0.000623419,0.519464,0.346497,0.46968,0.349942,0.222448,0.931932,-0.00103607,13.0661,-1.6199,20.1771,21.0709,0.350054,-1.08744,0.362742,0.868654,-0.386685,1.85693,2.70348,0.354235,-0.0965241,0.33348
4615054,1,-1.55913,-0.515284,0.00970235,-2.08823,1.57564,1.59233,0.784947,-1.55693,-0.514478,0.0123794,-2.08496,1.57692,1.59534,0.785501,0.452757,0.314568,0.37612,0.326069,0.229945,0.893328,-0.00160134,0.530311,0.353987,0.47967,0.35758,0.226926,0.951922,-0.00121292,13.1177,-1.74686,20.2524,21.0431,0.339067,-1.17167,0.394785,0.89694,-0.392497,1.92247,2.70933,0.35356,-0.0909264,0.335846
4615055,1,-1.55866,-0.51495,0.0101127,-2.08788,1.57588,1.5933,0.784948,-1.55638,-0.514116,0.0128691,-2.08459,1.57715,1.59631,0.785499,0.454237,0.319623,0.384734,0.336601,0.232938,0.908695,-0.000829404,0.541158,0.361477,0.48966,0.365218,0.231404,0.971912,-0.00138976,13.2169,-1.72305,20.304,20.9955,0.378435,-1.2678,0.388376,0.917434,-0.401492,1.97545,2.71559,0.352865,-0.0844232,0.338111
4615056,1,-1.55818,-0.514601,0.0105498,-2.08752,1.57612,1.59428,0.784948,-1.55583,-0.513747,0.0133688,-2.08422,1.57738,1.5973,0.785498,0.461625,0.327155,0.404124,0.338228,0.237638,0.932087,-0.000552337,0.552004,0.368967,0.49965,0.372856,0.235882,0.991902,-0.0015666,13.4192,-1.85001,20.2009,21.0709,0.355547,-1.22934,0.388376,0.935065,-0.410552,2.02145,2.722,0.352058,-0.0777836,0.340331
4615057,1,-1.55767,-0.514256,0.0109939,-2.08716,1.57637,1.59526,0.784948,-1.55527,-0.513371,0.0138784,-2.08384,1.57762,1.59832,0.785496,0.47712,0.336772,0.416385,0.34526,0.239991,0.946809,-0.000367775,0.562851,0.376457,0.50964,0.380495,0.240359,1.01189,-0.00174345,13.3676,-1.87381,20.0739,21.1423,0.355547,-1.17807,0.388376,0.94891,-0.420847,2.05804,2.73109,0.351359,-0.0709568,0.342547
4615058,1,-1.55715,-0.513888,0.0114496,-2.08679,1.57662,1.59627,0.78495,-1.5547,-0.512987,0.014398,-2.08345,1.57787,1.59935,0.785494,0.49184,0.345586,0.430832,0.355951,0.245143,0.959638,0.00046723,0.573697,0.383947,0.51963,0.388133,0.244837,1.03188,-0.00192029,13.2922,-2.00076,20.0501,21.2177,0.400408,-1.17167,0.36915,0.953996,-0.435347,2.07842,2.74416,0.350973,-0.0631941,0.344787
4615059,1,-1.55661,-0.513517,0.0119166,-2.0864,1.57688,1.59731,0.784958,-1.55411,-0.512595,0.0149276,-2.08306,1.57812,1.6004,0.785492,0.507561,0.357183,0.448615,0.360567,0.24904,0.977492,0.0029566,0.584544,0.391437,0.52962,0.395771,0.249315,1.05187,-0.00209714,13.1415,-2.15152,19.9232,21.2455,0.446184,-1.13962,0.297739,0.946056,-0.455485,2.07711,2.76051,0.350989,-0.0537554,0.347064
4615060,1,-1.55607,-0.513132,0.0123958,-2.08601,1.57714,1.59835,0.78495,-1.55352,-0.512196,0.0154673,-2.08265,1.57837,1.60147,0.78549,0.525704,0.36173,0.457737,0.363665,0.249257,0.998547,-0.000436244,0.59539,0.398927,0.53961,0.40341,0.253793,1.07186,-0.00227398,13.0423,-2.30228,19.824,21.416,0.446184,-1.14603,0.362742,0.922989,-0.483512,2.05173,2.78233,0.351635,-0.0423199,0.349318
4615061,1,-1.55553,-0.512731,0.0128944,-2.08561,1.57741,1.59942,0.784951,-1.55291,-0.51179,0.0160169,-2.08224,1.57863,1.60256,0.785487,0.526991,0.371647,0.468665,0.375612,0.255143,1.01485,-5.33282e-05,0.606237,0.406417,0.5496,0.411048,0.258271,1.09185,-0.00245082,13.1415,-2.60776,19.6693,21.4676,0.412309,-1.1204,0.356333,0.890732,-0.515853,2.0117,2.80851,0.352794,-0.0297379,0.35147
4615062,1,-1.55497,-0.512331,0.0133884,-2.08522,1.57767,1.60049,0.784951,-1.55229,-0.511376,0.0165764,-2.08182,1.57889,1.60367,0.785484,0.537991,0.378696,0.474733,0.378424,0.259296,1.03506,-3.54455e-05,0.616215,0.413907,0.55959,0.418646,0.262554,1.11106,-0.00267178,13.1177,-2.75851,19.6216,21.6144,0.383928,-1.13962,0.356333,0.860916,-0.54885,1.97405,2.83607,0.354016,-0.0176587,0.353492
4615063,1,-1.55439,-0.511927,0.0139001,-2.08481,1.57795,1.6016,0.784954,-1.55167,-0.510955,0.017146,-2.0814,1.57916,1.6048,0.785482,0.553991,0.383951,0.489008,0.383531,0.268714,1.05675,0.000925885,0.626194,0.421397,0.56958,0.426245,0.266836,1.13026,-0.00289274,13.0661,-2.81009,19.6693,21.6898,0.310686,-1.04899,0.330698,0.838172,-0.581385,1.94569,2.86499,0.355097,-0.00673309,0.355382
4615064,1,-1.55381,-0.511515,0.0144235,-2.0844,1.57823,1.60272,0.784957,-1.55103,-0.510526,0.0177256,-2.08096,1.57943,1.60595,0.785478,0.554704,0.387784,0.497825,0.390916,0.267948,1.07737,0.00160066,0.636173,0.428887,0.57957,0.433843,0.271119,1.14947,-0.0031137,13.1177,-2.81009,19.697,21.8405,0.225542,-0.972081,0.304148,0.821863,-0.607432,1.92564,2.89335,0.355921,0.00320961,0.357137
4615065,1,-1.55322,-0.511106,0.0149464,-2.08397,1.5785,1.60386,0.784959,-1.55038,-0.510089,0.0183152,-2.08052,1.57971,1.60712,0.785475,0.568438,0.395813,0.501419,0.396501,0.265717,1.10275,0.00177923,0.646151,0.436377,0.58956,0.441441,0.275402,1.16868,-0.00333466,13.1931,-2.75851,19.7208,21.8405,0.270403,-1.01694,0.284922,0.816377,-0.622442,1.92021,2.91857,0.356164,0.0116282,0.358737
4615066,1,-1.55262,-0.510684,0.0154817,-2.08355,1.57876,1.60504,0.784957,-1.54973,-0.509645,0.0189147,-2.08007,1.57999,1.60831,0.785472,0.584709,0.404196,0.508953,0.401313,0.267651,1.12098,0.00047411,0.65613,0.443867,0.59955,0.449039,0.279685,1.18788,-0.00355562,13.2684,-2.68314,19.7446,21.8405,0.355547,-1.10666,0.304148,0.82385,-0.631356,1.9337,2.94293,0.355668,0.0182369,0.360136
4615067,1,-1.552,-0.510256,0.0160278,-2.08311,1.57904,1.60621,0.784958,-1.54906,-0.509194,0.0195242,-2.07962,1.58027,1.60952,0.785468,0.595385,0.409221,0.519427,0.411239,0.271579,1.16155,0.000553457,0.666108,0.451357,0.60954,0.456638,0.283967,1.20709,-0.00377658,13.2684,-2.65536,19.6454,21.8167,0.383928,-1.17167,0.297739,0.840567,-0.637597,1.96151,2.96757,0.354553,0.0234681,0.361298
4615068,1,-1.55137,-0.509806,0.0165777,-2.08266,1.57933,1.60741,0.784958,-1.54839,-0.508735,0.0201438,-2.07915,1.58056,1.61074,0.785464,0.605321,0.418084,0.524998,0.4179,0.280453,1.17167,0.00060635,0.676087,0.458847,0.61953,0.464236,0.28825,1.2263,-0.00399754,13.1415,-2.83389,19.6216,21.7176,0.394914,-1.17167,0.291331,0.864868,-0.638806,2.00083,2.98992,0.352901,0.0274018,0.362223
4615069,1,-1.55073,-0.509355,0.0171355,-2.08222,1.57962,1.60863,0.784951,-1.5477,-0.508269,0.0207733,-2.07868,1.58085,1.61199,0.78546,0.615769,0.425254,0.534467,0.423126,0.282212,1.18262,-0.00200325,0.686065,0.466337,0.62952,0.471834,0.292533,1.2455,-0.0042185,13.1653,-2.90927,19.7724,21.7176,0.400408,-1.14603,0.356333,0.896404,-0.636785,2.05088,3.01043,0.350815,0.0301226,0.362925
4615070,1,-1.5501,-0.508898,0.0177042,-2.08176,1.5799,1.60988,0.784952,-1.547,-0.507795,0.0214128,-2.0782,1.58115,1.61325,0.785455,0.618471,0.432969,0.548813,0.432226,0.282153,1.20353,-0.00109813,0.696044,0.473827,0.63951,0.479432,0.296815,1.26471,-0.00443946,13.443,-2.96085,19.7724,21.5906,0.435198,-1.30716,0.349924,0.933102,-0.634371,2.10786,3.03061,0.348548,0.0320225,0.363462
4615071,1,-1.54946,-0.508436,0.0182905,-2.08129,1.5802,1.61115,0.784959,-1.5463,-0.507314,0.0220623,-2.07771,1.58145,1.61454,0.78545,0.631198,0.440096,0.554348,0.44366,0.295056,1.22627,0.00167542,0.706022,0.481317,0.6495,0.487031,0.301098,1.28392,-0.00466042,13.57,-2.96085,19.7962,21.4438,0.378435,-1.42252,0.284922,0.973925,-0.62942,2.16933,3.04785,0.346199,0.033157,0.363926
4615072,1,-1.54879,-0.507978,0.0188913,-2.08082,1.58051,1.61244,0.784962,-1.54558,-0.506825,0.0227218,-2.07722,1.58175,1.61584,0.785445,0.642577,0.448001,0.566515,0.45486,0.296776,1.24241,0.00206639,0.714656,0.488807,0.65949,0.494514,0.305152,1.30173,-0.00497442,13.4708,-2.90927,19.7962,21.2931,0.276811,-1.4802,0.259287,1.01772,-0.617966,2.23383,3.05769,0.343678,0.0334906,0.364363
4615073,1,-1.54813,-0.507506,0.0195034,-2.08033,1.58082,1.61374,0.784966,-1.54486,-0.506329,0.0233913,-2.07672,1.58206,1.61716,0.78544,0.645317,0.456665,0.580793,0.463174,0.298763,1.26513,0.00283566,0.723289,0.496297,0.66948,0.501997,0.309206,1.31955,-0.00528842,13.4946,-2.83389,19.8478,21.1423,0.1523,-1.69993,0.219919,1.06192,-0.599969,2.29715,3.05904,0.341021,0.0331435,0.36474
4615074,1,-1.54745,-0.50702,0.020122,-2.07983,1.58112,1.61509,0.784978,-1.54413,-0.505825,0.0240707,-2.07621,1.58238,1.6185,0.785435,0.653759,0.462261,0.592718,0.470943,0.298478,1.28925,0.00595945,0.731922,0.503787,0.67947,0.50948,0.31326,1.33737,-0.00560241,13.6731,-2.8577,19.8478,20.9201,0.197161,-1.95078,0.110056,1.10572,-0.577747,2.3568,3.05395,0.338268,0.0318774,0.364976
4615075,1,-1.54675,-0.506538,0.0207404,-2.07932,1.58141,1.61639,0.784984,-1.54339,-0.505314,0.0247602,-2.07569,1.58269,1.61985,0.785429,0.666554,0.465918,0.599966,0.479301,0.297607,1.2956,0.00587184,0.740555,0.511277,0.68946,0.516963,0.317314,1.35518,-0.00591641,13.7207,-2.83389,19.9232,20.7972,0.26491,-1.8281,0.0587866,1.1487,-0.547982,2.41244,3.04224,0.335253,0.0294031,0.364948
4615076,1,-1.54605,-0.506048,0.0213692,-2.0788,1.58172,1.61771,0.784985,-1.54264,-0.504795,0.0254597,-2.07517,1.58301,1.62122,0.785422,0.678637,0.472706,0.600756,0.502894,0.305045,1.30048,0.00296513,0.749188,0.518767,0.69945,0.524447,0.321367,1.373,-0.00623041,13.6453,-2.78232,19.9985,20.5472,0.378435,-1.55161,0.0844213,1.19159,-0.500179,2.46736,3.01686,0.331508,0.0255601,0.364506
4615077,1,-1.54534,-0.505539,0.0220173,-2.07827,1.58203,1.61907,0.784988,-1.54188,-0.504269,0.0261691,-2.07463,1.58334,1.62262,0.785416,0.690551,0.494228,0.633585,0.508309,0.309628,1.32221,0.00292619,0.757821,0.526257,0.70944,0.53193,0.325421,1.39081,-0.0065444,13.6453,-2.83389,19.9985,20.3965,0.394914,-1.46097,0.0587866,1.23007,-0.440253,2.51596,2.97682,0.327156,0.0210891,0.363525
4615078,1,-1.54464,-0.505031,0.0226637,-2.07772,1.58235,1.62045,0.784971,-1.54111,-0.503735,0.0268885,-2.07409,1.58367,1.62402,0.785409,0.69907,0.498062,0.641699,0.514859,0.31503,1.34037,-0.00306765,0.766454,0.533747,0.71943,0.539413,0.329475,1.40863,-0.0068584,13.7207,-2.78232,19.9985,20.2497,0.36104,-1.5452,0.194285,1.25466,-0.391407,2.54255,2.93486,0.323245,0.0175331,0.36194
4615079,1,-1.54391,-0.504511,0.0233281,-2.07718,1.58268,1.62186,0.784961,-1.54034,-0.503194,0.0276179,-2.07355,1.584,1.62545,0.785402,0.706532,0.503039,0.648016,0.524205,0.326099,1.3534,-0.00492732,0.775087,0.541237,0.72942,0.546896,0.333529,1.42644,-0.0071724,13.6215,-2.81009,19.947,20.2259,0.270403,-1.71274,0.272104,1.26852,-0.354791,2.5515,2.89535,0.320039,0.0148744,0.359786
4615080,1,-1.54315,-0.503991,0.0240055,-2.07664,1.58303,1.62325,0.784965,-1.53956,-0.502645,0.0283574,-2.07299,1.58434,1.62689,0.785394,0.719003,0.508808,0.6571,0.526915,0.33102,1.3907,-0.00186072,0.78372,0.548727,0.73941,0.554379,0.337583,1.44426,-0.0074864,13.3438,-2.78232,19.8994,20.3489,0.129411,-1.67429,0.233652,1.28187,-0.31862,2.55912,2.85502,0.317079,0.011864,0.357243
4615081,1,-1.54241,-0.503461,0.0246961,-2.07608,1.58338,1.62466,0.784975,-1.53876,-0.502089,0.0291068,-2.07243,1.58468,1.62836,0.785387,0.721967,0.515758,0.659661,0.532561,0.338464,1.3938,0.00211645,0.792353,0.556217,0.7494,0.561862,0.341637,1.46208,-0.00780039,13.32,-2.75851,19.8478,20.4996,-0.000593394,-1.4802,0.143015,1.30148,-0.282419,2.57622,2.81626,0.314051,0.00737937,0.354531
4615082,1,-1.54166,-0.502924,0.0253997,-2.07553,1.5837,1.6261,0.784976,-1.53796,-0.501525,0.0298661,-2.07186,1.58503,1.62984,0.785378,0.72381,0.519416,0.667996,0.540143,0.329391,1.40966,0.00168224,0.799187,0.563692,0.75939,0.569215,0.34543,1.47824,-0.00829532,13.3676,-2.78232,19.824,20.6702,0.0561693,-1.36484,0.135691,1.33396,-0.245502,2.61292,2.78021,0.310475,0.000607462,0.351762
4615083,1,-1.5409,-0.502372,0.0261008,-2.07496,1.58404,1.62754,0.784962,-1.53716,-0.500954,0.0306355,-2.07128,1.58538,1.63133,0.785369,0.74904,0.530502,0.676428,0.542097,0.333322,1.42205,-0.00345615,0.806021,0.571168,0.76938,0.576568,0.349223,1.4944,-0.00879024,13.3438,-2.90927,19.8478,20.821,0.174272,-1.26139,0.259287,1.3771,-0.208507,2.66659,2.74805,0.306201,-0.00775745,0.348943
4615084,1,-1.54013,-0.501804,0.0268212,-2.0744,1.5844,1.62903,0.784948,-1.53635,-0.500375,0.0314149,-2.0707,1.58573,1.63284,0.78536,0.752158,0.535778,0.690123,0.55221,0.340096,1.43794,-0.00684783,0.812855,0.578644,0.77937,0.58392,0.353017,1.51057,-0.00928516,13.3954,-3.0878,19.8716,20.9201,0.197161,-1.29343,0.381968,1.42046,-0.176342,2.72275,2.72274,0.301567,-0.015849,0.346095
4615085,1,-1.53933,-0.501242,0.0275415,-2.07382,1.58475,1.63053,0.784933,-1.53553,-0.499789,0.0322043,-2.07011,1.58609,1.63437,0.78535,0.763918,0.543137,0.699172,0.560235,0.347452,1.44794,-0.0180319,0.819689,0.586119,0.78936,0.591273,0.35681,1.52673,-0.00978008,13.1653,-3.23856,19.8994,20.9955,0.163286,-1.21653,0.491831,1.4593,-0.146586,2.77405,2.70177,0.296752,-0.0225851,0.343396
4615086,1,-1.53854,-0.500661,0.0282695,-2.07323,1.58512,1.63204,0.784916,-1.5347,-0.499195,0.0330036,-2.06951,1.58645,1.63591,0.78534,0.775292,0.55354,0.70141,0.565615,0.352702,1.46884,-0.0168734,0.826523,0.593595,0.79935,0.598626,0.360603,1.5429,-0.010275,12.9669,-3.33774,19.9985,21.1185,0.129411,-1.23575,0.601694,1.4957,-0.118858,2.82359,2.68367,0.291759,-0.0280873,0.341131
4615087,1,-1.53774,-0.500082,0.029022,-2.07266,1.58548,1.63357,0.784924,-1.53387,-0.498594,0.0338129,-2.06891,1.58681,1.63747,0.785329,0.781782,0.559155,0.714478,0.566683,0.35511,1.48287,-0.00658049,0.833357,0.601071,0.80934,0.605978,0.364396,1.55906,-0.0107699,12.9392,-3.33774,19.8716,21.3684,0.146807,-1.25498,0.459788,1.53252,-0.100163,2.87619,2.673,0.286679,-0.032853,0.339587
4615088,1,-1.53694,-0.499498,0.0297774,-2.07207,1.58584,1.63511,0.784927,-1.53303,-0.497986,0.0346323,-2.06829,1.58718,1.63904,0.785318,0.782974,0.569208,0.723977,0.567581,0.352728,1.49928,-0.00194529,0.840191,0.608546,0.81933,0.613331,0.36819,1.57523,-0.0112649,13.0145,-3.44089,19.6216,21.543,0.146807,-1.28061,0.381968,1.57121,-0.0964107,2.9331,2.67549,0.281747,-0.0372355,0.338937
4615089,1,-1.53614,-0.498891,0.0305299,-2.07148,1.58621,1.63665,0.784934,-1.53218,-0.49737,0.0354616,-2.06767,1.58755,1.64064,0.785306,0.787268,0.577262,0.726784,0.577376,0.356162,1.50004,0.00220441,0.847025,0.616022,0.82932,0.620684,0.371983,1.59139,-0.0117598,12.8876,-3.61942,19.7208,21.666,0.134905,-1.13962,0.278513,1.61544,-0.110112,2.99864,2.69307,0.276973,-0.0418443,0.339116
4615090,1,-1.53531,-0.498288,0.0312822,-2.07087,1.58659,1.63822,0.784936,-1.53132,-0.496746,0.0363009,-2.06704,1.58793,1.64224,0.785294,0.79875,0.579517,0.746519,0.584425,0.368017,1.51338,0.00169653,0.853859,0.623498,0.83931,0.628036,0.375776,1.60756,-0.0122547,12.6614,-3.7424,19.7724,21.666,0.123918,-1.04258,0.265696,1.66413,-0.131281,3.0713,2.7186,0.272137,-0.04639,0.339884
4615091,1,-1.5345,-0.497663,0.032074,-2.07026,1.58697,1.63979,0.784941,-1.53046,-0.496115,0.0371502,-2.06641,1.58831,1.64387,0.785281,0.808466,0.591327,0.756391,0.591135,0.368207,1.53281,0.00240324,0.860692,0.630973,0.8493,0.635389,0.37957,1.62372,-0.0127496,12.5861,-3.89713,19.6693,21.7176,0.0900438,-1.06821,0.226328,1.70775,-0.1491,3.13737,2.7451,0.267334,-0.0493803,0.34095
4615092,1,-1.53366,-0.497025,0.0328705,-2.06965,1.58735,1.64141,0.784933,-1.5296,-0.495477,0.0380095,-2.06577,1.58869,1.6455,0.785268,0.814819,0.601012,0.761457,0.597766,0.371255,1.54894,-0.00141944,0.865507,0.638195,0.85929,0.642455,0.383075,1.63802,-0.0133713,12.5107,-4.09946,19.697,21.7176,0.10103,-1.11399,0.304148,1.74414,-0.168756,3.19425,2.77405,0.262708,-0.050653,0.342049
4615093,1,-1.5328,-0.496405,0.0336866,-2.06902,1.58774,1.64301,0.784934,-1.52873,-0.494832,0.0388788,-2.06512,1.58908,1.64716,0.785254,0.83098,0.603976,0.776252,0.601676,0.385811,1.57194,-0.00057611,0.870322,0.645416,0.86928,0.64952,0.38658,1.65233,-0.0139931,12.2608,-4.09946,19.5423,21.7176,0.0442674,-1.09385,0.291331,1.77516,-0.193221,3.24555,2.80661,0.258199,-0.0506739,0.343011
4615094,1,-1.53195,-0.49577,0.0345251,-2.0684,1.58814,1.64464,0.784935,-1.52785,-0.494179,0.039758,-2.06446,1.58947,1.64882,0.785239,0.844512,0.613093,0.786477,0.619936,0.387837,1.58425,0.000724319,0.875136,0.652638,0.87927,0.656586,0.390085,1.66663,-0.0146148,12.0068,-4.02011,19.1892,21.7414,-0.0399611,-0.933629,0.259287,1.79554,-0.212449,3.28464,2.83647,0.253718,-0.04879,0.34381
4615095,1,-1.53107,-0.495129,0.0353751,-2.06776,1.58853,1.64629,0.784947,-1.52697,-0.493519,0.0406473,-2.0638,1.58986,1.6505,0.785224,0.852662,0.627057,0.81844,0.627108,0.380801,1.60107,0.00473045,0.879951,0.659859,0.88926,0.663651,0.39359,1.68093,-0.0152365,11.6776,-3.9725,18.8361,21.6422,-0.0912306,-0.894261,0.143015,1.79593,-0.224078,3.29737,2.85919,0.249439,-0.0437303,0.34449
4615096,1,-1.53015,-0.494485,0.0362345,-2.06711,1.58893,1.64795,0.784951,-1.52609,-0.492852,0.0415466,-2.06312,1.59026,1.6522,0.785208,0.875107,0.637115,0.829827,0.629787,0.388332,1.6199,0.00456759,0.884766,0.667081,0.89925,0.670717,0.397095,1.69523,-0.0158582,10.9476,-3.99631,18.4037,21.4914,-0.0289747,-0.984899,0.103647,1.76669,-0.241101,3.26816,2.88163,0.245884,-0.0341963,0.345001
4615097,1,-1.52926,-0.493837,0.0371293,-2.06646,1.58934,1.64966,0.784952,-1.5252,-0.492178,0.0424558,-2.06245,1.59066,1.65391,0.785192,0.885282,0.63571,0.848736,0.634651,0.390839,1.64071,0.0034867,0.88958,0.674302,0.90924,0.677782,0.4006,1.70953,-0.01648,10.4675,-3.92093,17.8483,21.3684,-0.00608656,-1.23575,0.09083,1.70516,-0.264557,3.19362,2.90814,0.243176,-0.0198912,0.345166
4615098,1,-1.52835,-0.493201,0.0380143,-2.06579,1.58974,1.65135,0.784957,-1.5243,-0.491496,0.043375,-2.06176,1.59106,1.65563,0.785175,0.891564,0.638899,0.866596,0.647002,0.402324,1.69225,0.00277438,0.894395,0.681524,0.91923,0.684848,0.404105,1.72384,-0.0171017,10.166,-3.7186,17.3167,21.1185,0.0222948,-1.37766,0.0780126,1.61744,-0.274109,3.08329,2.92995,0.240898,-0.00209775,0.344819
4615099,1,-1.52745,-0.492536,0.0388992,-2.0651,1.59015,1.65308,0.784949,-1.5234,-0.490808,0.0443042,-2.06107,1.59147,1.65737,0.785157,0.897712,0.647157,0.873953,0.657082,0.405871,1.7002,-6.78901e-05,0.89921,0.688745,0.92922,0.691913,0.40761,1.73814,-0.0177234,9.88832,-3.66702,17.2651,20.8725,0.0561693,-1.57084,0.129282,1.51499,-0.256878,2.95372,2.93824,0.238535,0.0167769,0.343871
4615100,1,-1.52655,-0.491862,0.0398176,-2.06442,1.59056,1.65481,0.784957,-1.5225,-0.490112,0.0452435,-2.06037,1.59188,1.65912,0.785139,0.896163,0.65063,0.88718,0.669443,0.39853,1.70139,0.00302645,0.904024,0.695967,0.93921,0.698979,0.411115,1.75244,-0.0183451,9.88832,-3.7186,17.1381,20.6702,0.0387743,-1.53879,0.0459692,1.41022,-0.21366,2.82336,2.93057,0.235657,0.0344932,0.342346
4615101,1,-1.52568,-0.491185,0.040736,-2.06372,1.59098,1.6565,0.784955,-1.52159,-0.489408,0.0461927,-2.05967,1.5923,1.66089,0.78512,0.902177,0.66117,0.897276,0.676748,0.407625,1.69709,-0.00216642,0.908839,0.703188,0.9492,0.706044,0.41462,1.76674,-0.0189669,10.3168,-3.86935,17.1143,20.4718,-0.0399611,-1.19089,0.0322363,1.31026,-0.149369,2.70269,2.90826,0.232106,0.0499697,0.340326
4615102,1,-1.52479,-0.490491,0.0416527,-2.06302,1.59141,1.65825,0.784957,-1.52068,-0.488698,0.0471518,-2.05895,1.59271,1.66267,0.7851,0.899926,0.666876,0.898253,0.681254,0.414645,1.70757,-0.00184232,0.911526,0.709977,0.95919,0.712687,0.417796,1.77908,-0.0196779,10.7453,-3.99631,17.392,20.3727,-0.0234816,-1.16526,0.0322363,1.2221,-0.0758548,2.60182,2.87786,0.227775,0.0623709,0.337806
4615103,1,-1.5239,-0.489805,0.042557,-2.0623,1.59183,1.66003,0.78495,-1.51977,-0.487982,0.048121,-2.05823,1.59313,1.66446,0.78508,0.893231,0.672225,0.89909,0.689639,0.414969,1.72375,-0.00417159,0.914214,0.716766,0.96918,0.71933,0.420971,1.79141,-0.0203889,11.2491,-4.12326,17.6975,20.1981,0.00489977,-1.29343,0.103647,1.16011,-0.001546,2.54074,2.84466,0.222292,0.0700466,0.33474
4615104,1,-1.52301,-0.489096,0.0434862,-2.06159,1.59226,1.6618,0.78495,-1.51885,-0.487258,0.0491002,-2.05751,1.59356,1.66626,0.785059,0.89196,0.683788,0.902951,0.695206,0.423887,1.74534,-0.00205552,0.916901,0.723554,0.97917,0.725972,0.424146,1.80375,-0.0210999,11.63,-4.30179,17.8998,20.325,-0.0683424,-1.55161,0.0780126,1.1369,0.0680243,2.53591,2.81133,0.215417,0.0714955,0.331156
4615105,1,-1.5221,-0.488386,0.0444161,-2.06088,1.59271,1.6636,0.784954,-1.51793,-0.486528,0.0500894,-2.05677,1.59399,1.66808,0.785037,0.8917,0.686609,0.9008,0.703537,0.434376,1.75614,0.000157153,0.919589,0.730343,0.98916,0.732615,0.427322,1.81608,-0.021811,11.8283,-4.40097,18.1776,20.448,-0.226729,-1.57724,0.0322363,1.156,0.127697,2.59113,2.77995,0.207146,0.066291,0.32715
4615106,1,-1.52118,-0.48767,0.0453369,-2.06016,1.59315,1.66538,0.784954,-1.51701,-0.485791,0.0510885,-2.05604,1.59442,1.66991,0.785014,0.90068,0.697419,0.906785,0.70854,0.435832,1.76326,0.00116562,0.922276,0.737132,0.99915,0.739258,0.430497,1.82842,-0.022522,11.7807,-4.5795,18.4315,20.6702,-0.237715,-1.56443,0.000192821,1.2124,0.178085,2.69898,2.75051,0.197523,0.055192,0.322811
4615107,1,-1.5203,-0.486941,0.0462804,-2.05943,1.59359,1.66719,0.784948,-1.51608,-0.485047,0.0520976,-2.05529,1.59485,1.67175,0.784991,0.895867,0.699752,0.914791,0.712711,0.434714,1.77656,0.000207909,0.924964,0.743921,1.00914,0.745901,0.433673,1.84075,-0.023233,12.1338,-4.70645,18.4315,20.8725,-0.169966,-1.39048,0.0130102,1.2953,0.219539,2.84338,2.72451,0.186815,0.0397964,0.318177
4615108,1,-1.51942,-0.486195,0.0472433,-2.05869,1.59403,1.66903,0.784938,-1.51515,-0.484296,0.0531168,-2.05454,1.59529,1.6736,0.784967,0.883266,0.732674,0.950746,0.717499,0.430808,1.78094,-0.00655645,0.927651,0.750709,1.01913,0.752543,0.436848,1.85309,-0.0239441,12.6138,-5.08334,18.1776,21.0947,-0.0683424,-1.28702,0.0651953,1.39157,0.233325,3.00164,2.71282,0.175892,0.0220339,0.313275
4615109,1,-1.51852,-0.485428,0.0482034,-2.05794,1.59447,1.67086,0.784923,-1.51422,-0.483539,0.0541459,-2.05378,1.59573,1.67547,0.784942,0.89216,0.743097,0.955929,0.719767,0.430464,1.79922,-0.00817198,0.930339,0.757498,1.02912,0.759186,0.440023,1.86542,-0.0246551,12.5623,-5.48801,18.2767,21.2931,0.0158861,-1.17167,0.155832,1.48789,0.185595,3.14989,2.73269,0.165969,0.00396289,0.308163
4615110,1,-1.51759,-0.484664,0.0491788,-2.05721,1.59493,1.67274,0.784899,-1.51329,-0.482774,0.055185,-2.05301,1.59617,1.67735,0.784917,0.910211,0.75078,0.956487,0.724459,0.441479,1.81231,-0.0160449,0.933026,0.764287,1.03911,0.765829,0.443199,1.87776,-0.0253661,12.1814,-5.76572,18.2291,21.4914,-0.0683424,-1.13321,0.304148,1.57824,0.0755633,3.28081,2.78546,0.15741,-0.0131465,0.302969
4615111,1,-1.51666,-0.483914,0.0501667,-2.05646,1.5954,1.67459,0.784887,-1.51236,-0.482003,0.0562341,-2.05224,1.59662,1.67924,0.784891,0.917233,0.750527,0.964615,0.725438,0.447623,1.82145,-0.0184082,0.935713,0.771076,1.0491,0.772472,0.446374,1.89009,-0.0260771,11.8799,-5.78952,17.999,21.7414,-0.226729,-1.1204,0.240061,1.66162,-0.0637428,3.39786,2.85662,0.149798,-0.0285384,0.297935
4615112,1,-1.51575,-0.483148,0.0511901,-2.05571,1.59586,1.67648,0.784872,-1.51142,-0.481226,0.0572932,-2.05146,1.59707,1.68114,0.784864,0.91479,0.75224,0.978965,0.731433,0.447577,1.83679,-0.0167246,0.936262,0.777298,1.05909,0.778578,0.449153,1.90044,-0.0268549,11.7291,-5.78952,17.5944,21.7176,-0.277998,-1.07462,0.200693,1.73701,-0.198667,3.50158,2.93135,0.142709,-0.0416022,0.293342
4615113,1,-1.51484,-0.482373,0.052228,-2.05493,1.5963,1.67839,0.784852,-1.51048,-0.480442,0.0583623,-2.05068,1.59752,1.68305,0.784836,0.910555,0.772885,0.995967,0.742829,0.446226,1.84997,-0.0120155,0.93681,0.78352,1.06908,0.784684,0.451932,1.9108,-0.0276327,11.7291,-5.76572,17.3682,21.4914,-0.221235,-1.11399,0.187876,1.80498,-0.319453,3.59171,3.00335,0.135869,-0.0523915,0.289323
4615114,1,-1.51394,-0.481605,0.0532638,-2.05415,1.59676,1.68027,0.784843,-1.50955,-0.479653,0.0594413,-2.04989,1.59797,1.68497,0.784808,0.9141,0.774342,1.00983,0.749347,0.449226,1.86304,-0.0126566,0.937359,0.789742,1.07907,0.79079,0.454712,1.92115,-0.0284106,11.6776,-5.78952,17.0865,21.2693,-0.20384,-0.952855,0.0258276,1.8652,-0.43449,3.66637,3.0731,0.129191,-0.061056,0.285857
4615115,1,-1.513,-0.480824,0.0543114,-2.05336,1.59723,1.68216,0.784831,-1.50861,-0.478857,0.0605304,-2.04909,1.59843,1.6869,0.784779,0.914948,0.771073,1.01284,0.763424,0.453495,1.86808,-0.0103841,0.937907,0.795964,1.08906,0.796896,0.457491,1.93151,-0.0291884,11.3999,-5.78952,16.912,20.9717,-0.237715,-0.656224,-0.0904444,1.91854,-0.527258,3.72783,3.13039,0.12229,-0.0676465,0.282814
4615116,1,-1.51205,-0.480045,0.0553504,-2.05256,1.5977,1.6841,0.784786,-1.50767,-0.478054,0.0616295,-2.04829,1.59889,1.68884,0.784749,0.918669,0.77506,1.02079,0.768052,0.460728,1.90909,-0.0237105,0.938456,0.802187,1.09905,0.803002,0.46027,1.94186,-0.0299662,10.8722,-5.89267,16.8604,20.698,-0.25511,-0.656224,0.0651953,1.97055,-0.572522,3.78632,3.16179,0.114593,-0.0727716,0.279901
4615117,1,-1.51113,-0.479254,0.0564324,-2.05173,1.59817,1.68606,0.784757,-1.50673,-0.477246,0.0627385,-2.04748,1.59935,1.69079,0.784718,0.920118,0.777827,1.0386,0.785324,0.46496,1.92974,-0.0227046,0.939004,0.808409,1.10904,0.809108,0.463049,1.95221,-0.030744,10.6183,-5.86887,16.5311,20.325,-0.260603,-0.972081,0.071604,2.02268,-0.566449,3.84491,3.164,0.106028,-0.0766714,0.276842
4615118,1,-1.51021,-0.47847,0.0575211,-2.05092,1.59865,1.68803,0.784728,-1.50579,-0.476431,0.0638575,-2.04666,1.59982,1.69276,0.784687,0.913845,0.77705,1.04388,0.790491,0.464499,1.93536,-0.0219874,0.939553,0.814631,1.11903,0.815214,0.465828,1.96257,-0.0315218,10.5945,-5.69034,16.1265,20.0989,-0.328352,-1.22934,0.0780126,2.07277,-0.510136,3.90099,3.13612,0.0966914,-0.0791452,0.273602
4615119,1,-1.50928,-0.477687,0.0586001,-2.0501,1.59914,1.68999,0.7847,-1.50485,-0.475611,0.0649865,-2.04584,1.60029,1.69473,0.784654,0.930125,0.781509,1.05393,0.795225,0.469391,1.95033,-0.0247008,0.940101,0.820853,1.12902,0.82132,0.468608,1.97292,-0.0322996,10.2414,-5.56339,15.8964,20.0235,-0.362227,-1.32639,0.0459692,2.11982,-0.409341,3.95433,3.08228,0.0866529,-0.080405,0.270249
4615120,1,-1.50833,-0.476893,0.0597211,-2.04929,1.59962,1.69198,0.784679,-1.50391,-0.474783,0.0661256,-2.04501,1.60076,1.69671,0.784621,0.937236,0.780909,1.0764,0.794119,0.477848,1.95518,-0.0239573,0.94065,0.827075,1.13901,0.827427,0.471387,1.98327,-0.0330774,9.88832,-5.4642,15.5671,20.0989,-0.396101,-1.45456,-0.0648096,2.15337,-0.277479,3.99091,3.01317,0.0763963,-0.0796322,0.266813
4615121,1,-1.50738,-0.476091,0.0608326,-2.04846,1.6001,1.69402,0.784668,-1.50297,-0.47395,0.0672746,-2.04418,1.60123,1.69871,0.784587,0.939218,0.786058,1.08352,0.797077,0.478483,1.97251,-0.021309,0.941198,0.833297,1.149,0.833533,0.474166,1.99363,-0.0338552,9.61061,-5.56339,15.2656,20.1743,-0.266096,-1.8931,-0.23876,2.16416,-0.127305,3.99716,2.93888,0.0663944,-0.0762095,0.263239
4615122,1,-1.50644,-0.475258,0.061975,-2.04762,1.60058,1.69599,0.784638,-1.50203,-0.473111,0.0684331,-2.04334,1.60171,1.70071,0.784553,0.948001,0.799964,1.10252,0.798993,0.47563,1.97684,-0.0217922,0.939915,0.838854,1.15855,0.839012,0.476441,2.00185,-0.0346894,9.23372,-5.81729,14.9125,20.2497,-0.181868,-1.88028,-0.232351,2.15357,0.0201191,3.97445,2.87091,0.056923,-0.0712214,0.259327
4615123,1,-1.50547,-0.47441,0.0631333,-2.04679,1.60105,1.69799,0.784587,-1.50109,-0.472267,0.0696012,-2.0425,1.60219,1.70272,0.784517,0.946406,0.811253,1.11837,0.808598,0.47678,1.96756,-0.0299698,0.938632,0.844411,1.1681,0.844492,0.478716,2.01007,-0.0355237,8.87666,-6.14658,14.7062,20.2973,-0.0289747,-1.71274,-0.00621587,2.12168,0.139929,3.92229,2.81957,0.0484061,-0.0655038,0.254831
4615124,1,-1.50451,-0.47356,0.0642982,-2.04594,1.60154,1.69995,0.784561,-1.50015,-0.471417,0.0707788,-2.04165,1.60267,1.70474,0.784481,0.942442,0.82022,1.13122,0.812238,0.47736,1.9665,-0.0263425,0.937349,0.849968,1.17764,0.849972,0.480991,2.0183,-0.0363579,8.7021,-6.65042,14.3769,20.3965,-0.0115797,-1.38407,-0.0190333,2.07157,0.221977,3.84451,2.78712,0.041063,-0.0597582,0.249711
4615125,1,-1.50357,-0.472707,0.0655053,-2.0451,1.60203,1.70195,0.784514,-1.49922,-0.470561,0.071966,-2.04079,1.60315,1.70676,0.784444,0.933574,0.825989,1.14973,0.835853,0.482073,1.97083,-0.0302096,0.936066,0.855525,1.18719,0.855451,0.483265,2.02652,-0.0371922,8.7259,-6.9559,13.9246,20.5988,-0.10771,-1.14603,0.143015,2.01158,0.276475,3.75281,2.76445,0.0347103,-0.0548885,0.244196
4615126,1,-1.50261,-0.471871,0.0666943,-2.04426,1.60253,1.70397,0.784485,-1.49828,-0.4697,0.0731628,-2.03993,1.60364,1.7088,0.784406,0.943851,0.844426,1.17631,0.83593,0.477075,1.97689,-0.0311434,0.934783,0.861082,1.19674,0.860931,0.48554,2.03474,-0.0380264,8.55134,-7.07889,13.7977,20.9439,-0.164473,-0.972081,0.122873,1.94078,0.311317,3.64514,2.74398,0.0294366,-0.0501394,0.238617
4615127,1,-1.50167,-0.471026,0.0678636,-2.04341,1.60303,1.70594,0.784464,-1.49735,-0.468834,0.0743691,-2.03906,1.60413,1.71084,0.784367,0.947062,0.841617,1.17249,0.835468,0.484074,1.97746,-0.0283929,0.9335,0.866638,1.20629,0.866411,0.487815,2.04296,-0.0388607,8.37281,-7.03128,13.8215,21.2931,-0.345747,-0.643407,0.0130102,1.856,0.321462,3.51723,2.73147,0.0254404,-0.0442608,0.23326
4615128,1,-1.50073,-0.470172,0.0690592,-2.04256,1.60353,1.70796,0.78444,-1.49642,-0.467962,0.0755849,-2.03819,1.60462,1.71289,0.784327,0.94081,0.840474,1.17047,0.844049,0.493401,1.97965,-0.0267444,0.932216,0.872195,1.21583,0.87189,0.49009,2.05119,-0.0396949,8.52357,-7.03128,13.6707,21.4438,-0.509627,-0.507909,-0.0968531,1.77222,0.322198,3.39332,2.72492,0.0217691,-0.0383797,0.228235
4615129,1,-1.49979,-0.469318,0.0702288,-2.04169,1.60402,1.70998,0.784409,-1.49549,-0.467084,0.0768103,-2.03731,1.60511,1.71495,0.784286,0.939219,0.845702,1.17415,0.851297,0.49277,1.9886,-0.0240232,0.930933,0.877752,1.22538,0.87737,0.492365,2.05941,-0.0405291,8.60292,-7.10666,13.8969,21.3684,-0.486738,-0.566503,-0.128897,1.70897,0.336963,3.30341,2.71357,0.0169911,-0.0342906,0.22344
4615130,1,-1.49887,-0.468441,0.0714333,-2.04081,1.60452,1.71206,0.784374,-1.49456,-0.4662,0.0780452,-2.03643,1.6056,1.71702,0.784245,0.936971,0.851121,1.17975,0.873992,0.497735,2.01138,-0.0243649,0.92965,0.883309,1.23493,0.88285,0.49464,2.06763,-0.0413634,8.7021,-7.33279,14.0516,21.1701,-0.470259,-0.817357,-0.0968531,1.67238,0.373526,3.25617,2.69012,0.0103718,-0.0323804,0.218683
4615131,1,-1.49794,-0.467563,0.0726549,-2.03994,1.60502,1.71411,0.784353,-1.49363,-0.465312,0.0792897,-2.03554,1.6061,1.7191,0.784203,0.927616,0.853307,1.18661,0.869696,0.495433,2.01979,-0.0192825,0.928367,0.888866,1.24448,0.888329,0.496915,2.07586,-0.0421976,8.82905,-7.40817,14.0754,21.1185,-0.470259,-0.868627,-0.200308,1.66246,0.43238,3.25039,2.65197,0.00176608,-0.0327091,0.213808
4615132,1,-1.497,-0.466705,0.0738606,-2.03905,1.60552,1.71612,0.784301,-1.4927,-0.464418,0.0805428,-2.03465,1.6066,1.72118,0.78416,0.933327,0.854322,1.18961,0.872594,0.496726,2.01275,-0.0305193,0.925652,0.893692,1.25309,0.893102,0.498509,2.08187,-0.0430842,8.97981,-7.3566,14.1508,20.8725,-0.470259,-0.694677,-0.0318506,1.67631,0.506804,3.28067,2.60674,-0.0084818,-0.0350632,0.208699
4615133,1,-1.49609,-0.465827,0.0750913,-2.03817,1.60602,1.71818,0.78426,-1.49178,-0.463519,0.0818045,-2.03375,1.6071,1.72327,0.784116,0.930319,0.854456,1.19763,0.877344,0.504588,2.02023,-0.0346743,0.922937,0.898518,1.26171,0.897875,0.500103,2.08788,-0.0439708,9.13057,-7.30899,14.1746,20.698,-0.396101,-0.611364,0.038645,1.70657,0.593975,3.33629,2.56003,-0.0199415,-0.0384307,0.203326
4615134,1,-1.49517,-0.464943,0.0763346,-2.03727,1.60652,1.72021,0.784223,-1.49086,-0.462616,0.0830748,-2.03285,1.6076,1.72536,0.784071,0.928187,0.864617,1.21416,0.887673,0.507163,2.0707,-0.035382,0.920221,0.903345,1.27033,0.902648,0.501697,2.09389,-0.0448574,9.28132,-7.48355,14,20.4718,-0.345747,-0.514318,0.0459692,1.7461,0.691492,3.40577,2.51175,-0.0321569,-0.0420482,0.197823
4615135,1,-1.49426,-0.464038,0.0776086,-2.03635,1.60704,1.7223,0.78417,-1.48994,-0.461708,0.0843538,-2.03194,1.6081,1.72746,0.784025,0.92636,0.876524,1.22621,0.896236,0.513193,2.06869,-0.0403195,0.917506,0.908171,1.27895,0.907421,0.503291,2.0999,-0.045744,9.3329,-7.73746,13.5953,20.2497,-0.436384,-0.553685,0.175059,1.78897,0.78377,3.47795,2.46581,-0.0444618,-0.045429,0.192403
4615136,1,-1.49331,-0.463123,0.0788852,-2.03546,1.60755,1.72441,0.78413,-1.48903,-0.460795,0.0856413,-2.03103,1.60861,1.72956,0.783979,0.933667,0.889788,1.23176,0.902047,0.501138,2.07898,-0.0396185,0.914791,0.912997,1.28756,0.912194,0.504885,2.10591,-0.0466306,8.75367,-8.03897,13.1907,20.1743,-0.458357,-0.656224,0.194285,1.83006,0.850276,3.54412,2.42948,-0.0563105,-0.0477398,0.187297
4615137,1,-1.49236,-0.462217,0.0801498,-2.03455,1.60806,1.7265,0.784092,-1.48811,-0.459877,0.0869375,-2.03011,1.60911,1.73168,0.783931,0.940721,0.893032,1.24405,0.89817,0.50511,2.08461,-0.0365306,0.912076,0.917823,1.29618,0.916967,0.506479,2.11192,-0.0475172,7.99592,-8.34445,12.909,20.0989,-0.447371,-0.823766,0.135691,1.86395,0.880112,3.59685,2.40945,-0.0673646,-0.0481077,0.182739
4615138,1,-1.49143,-0.461305,0.081448,-2.03365,1.60857,1.72862,0.784044,-1.4872,-0.458954,0.0882423,-2.02919,1.60962,1.73379,0.783883,0.941258,0.895988,1.25457,0.896325,0.516997,2.09007,-0.0372681,0.90936,0.92265,1.3048,0.92174,0.508073,2.11793,-0.0484038,7.59126,-8.52298,12.4052,20.325,-0.396101,-0.972081,0.149424,1.88496,0.878212,3.62891,2.40792,-0.0774852,-0.0459637,0.17884
4615139,1,-1.4905,-0.460397,0.0827368,-2.03275,1.60908,1.73076,0.783995,-1.4863,-0.458027,0.0895557,-2.02826,1.61013,1.73592,0.783833,0.924835,0.901403,1.26863,0.894393,0.519949,2.10325,-0.0423574,0.906645,0.927476,1.31341,0.926512,0.509666,2.12394,-0.0492904,7.36512,-8.72531,12.0005,20.7218,-0.333845,-1.13962,0.162241,1.89524,0.853062,3.64349,2.42398,-0.0867957,-0.0421538,0.175561
4615140,1,-1.48958,-0.459459,0.0840328,-2.03183,1.60959,1.73292,0.78396,-1.48539,-0.457095,0.0908777,-2.02733,1.61064,1.73805,0.783783,0.922461,0.910857,1.27067,0.896657,0.510661,2.12301,-0.0367132,0.90393,0.932302,1.32203,0.931285,0.51126,2.12995,-0.050177,6.98823,-9.00302,11.8458,20.9955,-0.215742,-1.64774,0.0459692,1.90556,0.804176,3.65535,2.45788,-0.0954749,-0.0390889,0.172841
4615141,1,-1.48866,-0.45851,0.0853659,-2.03092,1.61011,1.73503,0.783929,-1.48449,-0.456157,0.0922084,-2.0264,1.61116,1.74018,0.783732,0.918479,0.919096,1.29259,0.899172,0.512104,2.10963,-0.0350207,0.901215,0.937128,1.33065,0.936058,0.512854,2.13596,-0.0510636,6.88508,-9.35611,11.4927,21.2931,-0.294478,-1.39048,-0.141714,1.91872,0.72851,3.66892,2.50946,-0.103417,-0.0380937,0.170598
4615142,1,-1.48775,-0.457583,0.0866828,-2.03,1.61064,1.73712,0.783883,-1.4836,-0.455216,0.0935464,-2.02546,1.61167,1.74232,0.78368,0.918346,0.918798,1.3008,0.902193,0.514896,2.09903,-0.0405889,0.897472,0.941188,1.33803,0.940057,0.513642,2.13983,-0.0519927,6.96046,-9.40768,11.2665,21.4438,-0.424483,-1.10666,-0.161856,1.92518,0.635382,3.67201,2.573,-0.11038,-0.038271,0.168618
