shamilmamedov/beam_handling/data/param_estimation_ICRA/ocp_Xdown_35cm_0.57s_4.csv
duration, success rate, q[0], q[1], q[2], q[3], q[4], q[5], q[6],q_d[0], q_d[1], q_d[2], q_d[3], q_d[4], q_d[5], q_d[6],dq[0], dq[1], dq[2], dq[3], dq[4], dq[5], dq[6],dq_d[0], dq_d[1], dq_d[2], dq_d[3], dq_d[4], dq_d[5], dq_d[6],tau_J[0], tau_J[1], tau_J[2], tau_J[3], tau_J[4], tau_J[5], tau_J[6],tau_ext_hat_filtered[0], tau_ext_hat_filtered[1], tau_ext_hat_filtered[2], tau_ext_hat_filtered[3], tau_ext_hat_filtered[4], tau_ext_hat_filtered[5], tau_ext_hat_filtered[6]
3382278,0,-1.57102,-0.522815,-0.000668569,-2.09599,-1.57092,1.57159,0.785642,-1.5708,-0.523599,-4.6393e-08,-2.0944,-1.5708,1.5708,0.785399,-0.00066474,-0.000810296,0.000153989,-0.000672587,0.000119518,-0.000324066,-0.000374144,0,0,0,0,0,0,0,0.227978,-10.1654,1.01111,21.0709,-0.712874,-0.611364,-0.0968531,0.201927,-1.05872,0.844394,2.52733,-0.145481,-0.618417,-0.144713
3382279,1,-1.57102,-0.522813,-0.000670239,-2.09599,-1.57092,1.57159,0.785639,-1.5708,-0.523599,-4.6393e-08,-2.0944,-1.5708,1.5708,0.785399,-0.000999972,1.66145e-05,-0.000454153,-0.000448391,-0.000123772,0.000258674,-0.000724148,0,0,0,0,0,0,0,0.251781,-10.1892,1.03491,21.0709,-0.707381,-0.624181,-0.0840357,0.202674,-1.05893,0.845253,2.5278,-0.145473,-0.618343,-0.144779
3382280,1,-1.57101,-0.522815,-0.000670239,-2.09598,-1.57092,1.57159,0.785639,-1.5708,-0.523599,-4.6393e-08,-2.0944,-1.5708,1.5708,0.785399,0.00109659,-0.000545736,-0.000302769,0.000907498,0.000120936,-6.49098e-05,-8.04713e-06,0,0,0,0,0,0,0,0.176403,-10.1654,1.03491,21.0193,-0.712874,-0.617772,-0.0968531,0.203675,-1.05839,0.846402,2.52785,-0.145446,-0.618218,-0.144855
3382281,1,-1.57102,-0.522812,-0.000672188,-2.09598,-1.57092,1.57159,0.785641,-1.5708,-0.523599,-4.6393e-08,-2.0944,-1.5708,1.5708,0.785399,-0.00103218,0.0007498,-0.00085146,4.8187e-05,-0.000326277,0.000431445,0.000706712,0,0,0,0,0,0,0,0.251781,-10.213,1.06269,21.0431,-0.701887,-0.63059,-0.116079,0.204605,-1.05757,0.847522,2.52729,-0.145398,-0.618107,-0.144922
3382282,1,-1.57102,-0.522812,-0.000670239,-2.09599,-1.57092,1.57159,0.785646,-1.5708,-0.523599,-4.6393e-08,-2.0944,-1.5708,1.5708,0.785399,0.000518307,0.000499867,8.19741e-05,-0.00173111,0.000392834,5.02708e-05,0.000945859,0,0,0,0,0,0,0,0.200207,-10.213,1.03491,21.1185,-0.718367,-0.624181,-0.128897,0.205548,-1.05865,0.848759,2.52768,-0.145387,-0.618025,-0.144974
3382283,1,-1.57102,-0.522808,-0.00066662,-2.09598,-1.57092,1.57159,0.785637,-1.5708,-0.523599,-4.6393e-08,-2.0944,-1.5708,1.5708,0.785399,-0.000304076,0.00153967,0.00126108,0.000609162,-0.000145012,-0.000203845,-0.00174302,0,0,0,0,0,0,0,0.227978,-10.2646,0.98334,21.0431,-0.707381,-0.617772,-0.0648096,0.205713,-1.06278,0.848878,2.52984,-0.145469,-0.618109,-0.145033
3382284,1,-1.57102,-0.522812,-0.000668569,-2.09599,-1.57092,1.57159,0.785643,-1.5708,-0.523599,-4.6393e-08,-2.0944,-1.5708,1.5708,0.785399,0.000446897,-0.000179979,0.000191103,-0.000243506,-9.66747e-05,0.000338821,0.000262143,0,0,0,0,0,0,0,0.200207,-10.213,1.01111,21.0709,-0.707381,-0.63059,-0.103262,0.204712,-1.06775,0.847208,2.53219,-0.145592,-0.618393,-0.145112
3382285,1,-1.57102,-0.522813,-0.00066662,-2.09599,-1.57092,1.57159,0.785642,-1.5708,-0.523599,-4.6393e-08,-2.0944,-1.5708,1.5708,0.785399,-0.000351683,-0.000676798,0.000777016,-0.000162337,-6.44498e-05,-1.14782e-05,0.000412121,0,0,0,0,0,0,0,0.227978,-10.1892,0.98334,21.0709,-0.707381,-0.624181,-0.10967,0.203317,-1.07048,0.844819,2.53329,-0.145682,-0.618724,-0.14519
3382286,1,-1.57102,-0.522813,-0.000668569,-2.09599,-1.57092,1.57159,0.785642,-1.5708,-0.523599,-4.6393e-08,-2.0944,-1.5708,1.5708,0.785399,0.000415159,-0.000451199,-0.000131603,-0.000108225,0.000160484,-0.00048237,0.000512106,0,0,0,0,0,0,0,0.200207,-10.1892,1.01111,21.0709,-0.712874,-0.611364,-0.116079,0.202117,-1.07015,0.842579,2.53305,-0.145718,-0.618996,-0.145262
3382287,1,-1.57101,-0.522815,-0.000664949,-2.09599,-1.57092,1.57159,0.785638,-1.5708,-0.523599,-4.6393e-08,-2.0944,-1.5708,1.5708,0.785399,0.0014832,-0.000857611,0.00111869,-7.21498e-05,0.00031044,-0.00032158,-0.000845391,0,0,0,0,0,0,0,0.148632,-10.1654,0.959536,21.0709,-0.718367,-0.611364,-0.0840357,0.200754,-1.06777,0.84008,2.53189,-0.145725,-0.619261,-0.145346
3382288,1,-1.57102,-0.522812,-0.000670699,-2.09598,-1.57092,1.57159,0.785635,-1.5708,-0.523599,-4.6393e-08,-2.0944,-1.5708,1.5708,0.785399,-0.000217627,0.000541883,-0.000460632,0.00115833,3.50938e-06,2.29723e-05,-0.00151303,0,0,0,0,0,0,0,0.200207,-10.213,1.01111,21.0193,-0.712874,-0.617772,-0.0584009,0.199098,-1.0646,0.837224,2.53013,-0.145716,-0.619539,-0.145442
3382289,1,-1.57102,-0.522813,-0.00066733,-2.09598,-1.57092,1.57159,0.785638,-1.5708,-0.523599,-4.6393e-08,-2.0944,-1.5708,1.5708,0.785399,-0.000145085,-0.000195556,0.000342526,0.000215405,2.33959e-06,-0.000222044,-5.92506e-05,0,0,0,0,0,0,0,0.200207,-10.1892,0.98334,21.0431,-0.712874,-0.611364,-0.0840357,0.198146,-1.06192,0.835438,2.52817,-0.14568,-0.619692,-0.145514
3382290,1,-1.57101,-0.522813,-0.000668805,-2.09599,-1.57092,1.57159,0.785643,-1.5708,-0.523599,-4.6393e-08,-2.0944,-1.5708,1.5708,0.785399,0.0011097,-0.000130371,-0.000421263,-0.00106282,0.00020501,0.000564047,0.00162201,0,0,0,0,0,0,0,0.148632,-10.1892,1.01111,21.0947,-0.718367,-0.63059,-0.128897,0.197878,-1.06033,0.834736,2.52684,-0.145661,-0.619726,-0.14552
3382291,1,-1.57102,-0.522812,-0.000668647,-2.09599,-1.57092,1.57159,0.785642,-1.5708,-0.523599,-4.6393e-08,-2.0944,-1.5708,1.5708,0.785399,-0.00111624,0.000469898,-0.000280842,-0.000151736,-6.6777e-05,-0.000336045,-0.000105453,0,0,0,0,0,0,0,0.227978,-10.213,1.01111,21.0709,-0.712874,-0.611364,-0.0968531,0.198046,-1.06028,0.834821,2.52681,-0.145692,-0.619685,-0.145469
3382292,1,-1.57102,-0.52281,-0.000670265,-2.09598,-1.57092,1.57159,0.78564,-1.5708,-0.523599,-4.6393e-08,-2.0944,-1.5708,1.5708,0.785399,-0.000744159,0.000962879,-0.00074404,0.00166208,-4.4518e-05,0.000250688,-0.00101974,0,0,0,0,0,0,0,0.227978,-10.2408,1.03491,20.9955,-0.712874,-0.624181,-0.0712183,0.199319,-1.06162,0.836549,2.5273,-0.145721,-0.619482,-0.145407
3382293,1,-1.57102,-0.522813,-0.000670248,-2.09598,-1.57092,1.57159,0.785641,-1.5708,-0.523599,-4.6393e-08,-2.0944,-1.5708,1.5708,0.785399,0.000153508,-0.000564506,-0.000496027,-5.57034e-06,-2.96787e-05,0.000404484,-0.000679825,0,0,0,0,0,0,0,0.200207,-10.1892,1.03491,21.0431,-0.712874,-0.63059,-0.0712183,0.2014,-1.06278,0.839441,2.52708,-0.145704,-0.619158,-0.145345
3382294,1,-1.57101,-0.522812,-0.000668571,-2.09599,-1.57092,1.57159,0.785642,-1.5708,-0.523599,-4.6393e-08,-2.0944,-1.5708,1.5708,0.785399,0.00130876,0.000180474,0.000226127,-0.00176695,-0.000223236,-0.000205062,0.000970937,0,0,0,0,0,0,0,0.148632,-10.213,1.01111,21.1185,-0.707381,-0.617772,-0.10967,0.202846,-1.06353,0.841525,2.52696,-0.145717,-0.618926,-0.145253
3382295,1,-1.57102,-0.522812,-0.000666621,-2.09598,-1.57092,1.57159,0.785644,-1.5708,-0.523599,-4.6393e-08,-2.0944,-1.5708,1.5708,0.785399,-0.000333916,0.000120316,0.000800366,0.00114208,-0.000148824,-0.000611426,0.00159673,0,0,0,0,0,0,0,0.200207,-10.213,0.98334,21.0193,-0.707381,-0.604955,-0.135305,0.202882,-1.06468,0.841657,2.52759,-0.145808,-0.61891,-0.145118
3382296,1,-1.57101,-0.522812,-0.000668569,-2.09598,-1.57092,1.57159,0.78564,-1.5708,-0.523599,-4.6393e-08,-2.0944,-1.5708,1.5708,0.785399,0.000334201,8.02108e-05,-0.000116037,0.000204576,0.000307685,-0.000407617,-0.0013091,0,0,0,0,0,0,0,0.176403,-10.213,1.01111,21.0431,-0.718367,-0.604955,-0.0712183,0.202198,-1.06539,0.840708,2.52775,-0.145901,-0.618987,-0.144987
3382297,1,-1.57102,-0.522812,-0.000668569,-2.09599,-1.57092,1.57159,0.785641,-1.5708,-0.523599,-4.6393e-08,-2.0944,-1.5708,1.5708,0.785399,-0.000983625,5.34739e-05,-7.73579e-05,-0.00107004,-0.000201778,0.000202973,-0.000635378,0,0,0,0,0,0,0,0.227978,-10.213,1.01111,21.0947,-0.707381,-0.617772,-0.077627,0.201824,-1.06579,0.840179,2.52767,-0.145968,-0.618988,-0.144889
3382298,1,-1.57102,-0.522813,-0.000668569,-2.09599,-1.57092,1.57159,0.78564,-1.5708,-0.523599,-4.6393e-08,-2.0944,-1.5708,1.5708,0.785399,-0.00065575,-0.000521163,-5.1572e-05,-0.000713361,6.8932e-05,0.000372674,0.000288492,0,0,0,0,0,0,0,0.227978,-10.1892,1.01111,21.0947,-0.712874,-0.624181,-0.0968531,0.202185,-1.06651,0.840674,2.52827,-0.146037,-0.618856,-0.144797
3382299,1,-1.57101,-0.522813,-0.000664949,-2.09598,-1.57092,1.57159,0.785646,-1.5708,-0.523599,-4.6393e-08,-2.0944,-1.5708,1.5708,0.785399,0.000769259,-0.000347442,0.00117204,0.00184448,4.59547e-05,0.000485809,0.00114176,0,0,0,0,0,0,0,0.176403,-10.1892,0.959536,20.9955,-0.712874,-0.63059,-0.122488,0.202389,-1.066,0.840824,2.52825,-0.146082,-0.618731,-0.144692
3382300,1,-1.57102,-0.522817,-0.000670239,-2.09599,-1.57092,1.57159,0.785642,-1.5708,-0.523599,-4.6393e-08,-2.0944,-1.5708,1.5708,0.785399,-0.000693586,-0.00143805,-0.000981875,-0.0010904,0.000234087,8.65134e-05,0.000523817,0,0,0,0,0,0,0,0.227978,-10.1377,1.03491,21.0947,-0.718367,-0.624181,-0.116079,0.202055,-1.06306,0.840105,2.52663,-0.14608,-0.618675,-0.144597
3382301,1,-1.57102,-0.522815,-0.000670239,-2.09598,-1.57092,1.57159,0.785637,-1.5708,-0.523599,-4.6393e-08,-2.0944,-1.5708,1.5708,0.785399,-0.000462391,-0.000309089,-0.000654583,0.000479493,-0.000454294,-0.000179683,-0.0013123,0,0,0,0,0,0,0,0.227978,-10.1654,1.03491,21.0431,-0.701887,-0.617772,-0.0712183,0.202547,-1.05884,0.840572,2.52453,-0.146037,-0.618498,-0.14454
3382302,1,-1.57102,-0.522815,-0.000668569,-2.09598,-1.57092,1.57159,0.785642,-1.5708,-0.523599,-4.6393e-08,-2.0944,-1.5708,1.5708,0.785399,0.000341353,-0.000206059,0.000120423,0.000319662,-0.000302862,-0.000119789,7.45682e-05,0,0,0,0,0,0,0,0.200207,-10.1654,1.01111,21.0431,-0.701887,-0.617772,-0.0968531,0.203743,-1.0551,0.842091,2.5227,-0.145981,-0.618241,-0.144517
3382303,1,-1.57101,-0.52281,-0.000668569,-2.09599,-1.57092,1.57159,0.785642,-1.5708,-0.523599,-4.6393e-08,-2.0944,-1.5708,1.5708,0.785399,0.000784381,0.00162587,8.02821e-05,-0.000993318,0.000408443,-7.98593e-05,0.000761789,0,0,0,0,0,0,0,0.176403,-10.2408,1.01111,21.0947,-0.718367,-0.617772,-0.116079,0.204197,-1.05427,0.842644,2.52219,-0.145982,-0.618147,-0.144494
3382304,1,-1.57102,-0.522813,-0.000670239,-2.09599,-1.57092,1.57159,0.785639,-1.5708,-0.523599,-4.6393e-08,-2.0944,-1.5708,1.5708,0.785399,-0.000683505,-0.000122516,-0.000503291,-0.0001054,6.8845e-05,0.000184119,-0.000441576,0,0,0,0,0,0,0,0.227978,-10.1892,1.03491,21.0709,-0.712874,-0.624181,-0.0904444,0.204073,-1.05723,0.842504,2.52375,-0.146064,-0.618191,-0.144464
3382305,1,-1.57102,-0.522813,-0.000664949,-2.09599,-1.57092,1.57159,0.785643,-1.5708,-0.523599,-4.6393e-08,-2.0944,-1.5708,1.5708,0.785399,0.000193944,-8.16772e-05,0.00142771,-7.02667e-05,-0.000157554,-0.000114613,0.00136713,0,0,0,0,0,0,0,0.200207,-10.1892,0.959536,21.0709,-0.707381,-0.617772,-0.135305,0.203806,-1.0607,0.842101,2.52567,-0.146161,-0.618269,-0.144446
3382306,1,-1.57101,-0.522815,-0.00066662,-2.09598,-1.57092,1.57159,0.785639,-1.5708,-0.523599,-4.6393e-08,-2.0944,-1.5708,1.5708,0.785399,0.000686108,-0.000611263,0.000394995,0.00060277,0.000301865,0.000398309,-0.00169953,0,0,0,0,0,0,0,0.176403,-10.1654,0.98334,21.0431,-0.718367,-0.63059,-0.0648096,0.202716,-1.06204,0.840322,2.5264,-0.146237,-0.618458,-0.144462
3382307,1,-1.57102,-0.522812,-0.000668569,-2.09599,-1.57092,1.57159,0.785642,-1.5708,-0.523599,-4.6393e-08,-2.0944,-1.5708,1.5708,0.785399,-9.94068e-05,0.000706115,-0.000386284,-0.000247768,-2.20709e-06,-0.000209178,-0.000420943,0,0,0,0,0,0,0,0.200207,-10.213,1.01111,21.0709,-0.712874,-0.617772,-0.0840357,0.201251,-1.06218,0.837968,2.52638,-0.146292,-0.618697,-0.144508
3382308,1,-1.57102,-0.522813,-0.000668569,-2.09598,-1.57092,1.57159,0.785643,-1.5708,-0.523599,-4.6393e-08,-2.0944,-1.5708,1.5708,0.785399,-0.000715885,-8.60686e-05,-0.000257523,0.00104125,-1.47139e-06,0.000335266,0.00114353,0,0,0,0,0,0,0,0.227978,-10.1892,1.01111,21.0193,-0.712874,-0.63059,-0.122488,0.200725,-1.06252,0.837019,2.52627,-0.146318,-0.618805,-0.144548
3382309,1,-1.57102,-0.522813,-0.00066662,-2.09599,-1.57092,1.57159,0.785645,-1.5708,-0.523599,-4.6393e-08,-2.0944,-1.5708,1.5708,0.785399,0.000172357,-5.73791e-05,0.000477932,-0.00106907,0.00020247,-0.000488566,0.000524991,0,0,0,0,0,0,0,0.200207,-10.1892,0.98334,21.0947,-0.718367,-0.611364,-0.116079,0.200965,-1.06286,0.837133,2.52616,-0.146333,-0.618808,-0.144567
3382310,1,-1.57102,-0.522813,-0.000664949,-2.09598,-1.57092,1.57159,0.785641,-1.5708,-0.523599,-4.6393e-08,-2.0944,-1.5708,1.5708,0.785399,0.000114905,-3.82527e-05,0.000875433,0.000493711,-0.000271921,-8.8352e-05,-0.000124724,0,0,0,0,0,0,0,0.200207,-10.1892,0.959536,21.0431,-0.707381,-0.617772,-0.103262,0.200853,-1.06308,0.836638,2.52625,-0.146381,-0.618867,-0.144595
3382311,1,-1.57102,-0.522817,-0.00066662,-2.09598,-1.57092,1.57159,0.785634,-1.5708,-0.523599,-4.6393e-08,-2.0944,-1.5708,1.5708,0.785399,7.66032e-05,-0.00123193,2.68104e-05,0.00032914,-0.000181281,-5.89013e-05,-0.00201593,0,0,0,0,0,0,0,0.200207,-10.1377,0.98334,21.0431,-0.707381,-0.617772,-0.0510767,0.20023,-1.0621,0.835285,2.52581,-0.14643,-0.618986,-0.144655
3382312,1,-1.57102,-0.522815,-0.000668569,-2.09599,-1.57092,1.57159,0.785645,-1.5708,-0.523599,-4.6393e-08,-2.0944,-1.5708,1.5708,0.785399,5.10688e-05,-0.000171671,-0.00063174,-0.000430187,-0.000324304,0.000198091,0.00106355,0,0,0,0,0,0,0,0.200207,-10.1654,1.01111,21.0709,-0.701887,-0.624181,-0.116079,0.199951,-1.05938,0.834391,2.52453,-0.146432,-0.619025,-0.144724
3382313,1,-1.57102,-0.522813,-0.000664949,-2.09598,-1.57092,1.57159,0.785643,-1.5708,-0.523599,-4.6393e-08,-2.0944,-1.5708,1.5708,0.785399,3.40459e-05,0.000442364,0.000785266,0.000362823,0.000394149,-0.000105298,0.000946389,0,0,0,0,0,0,0,0.200207,-10.1892,0.959536,21.0431,-0.718367,-0.617772,-0.122488,0.20008,-1.05728,0.834134,2.52366,-0.146428,-0.619003,-0.14476
3382314,1,-1.57101,-0.522815,-0.000670239,-2.09598,-1.57092,1.57159,0.78564,-1.5708,-0.523599,-4.6393e-08,-2.0944,-1.5708,1.5708,0.785399,0.000579509,-0.000261902,-0.00123973,0.000798694,0.000703575,-7.01987e-05,-8.11508e-05,0,0,0,0,0,0,0,0.176403,-10.1654,1.03491,21.0193,-0.730269,-0.617772,-0.103262,0.200253,-1.05644,0.834012,2.52319,-0.146428,-0.618985,-0.144782
3382315,1,-1.57101,-0.522812,-0.000672188,-2.09598,-1.57092,1.57159,0.785636,-1.5708,-0.523599,-4.6393e-08,-2.0944,-1.5708,1.5708,0.785399,0.000386339,0.000939022,-0.0014761,-2.43495e-05,-0.00037866,-4.67991e-05,-0.0012409,0,0,0,0,0,0,0,0.176403,-10.213,1.06269,21.0431,-0.707381,-0.617772,-0.0712183,0.20103,-1.0564,0.834998,2.52282,-0.146412,-0.618873,-0.144826
3382316,1,-1.57102,-0.522815,-0.00066662,-2.09599,-1.57092,1.57159,0.785636,-1.5708,-0.523599,-4.6393e-08,-2.0944,-1.5708,1.5708,0.785399,-0.000299252,-0.000487609,0.000871974,-0.000665847,0.000154461,-3.11994e-05,-0.00106462,0,0,0,0,0,0,0,0.200207,-10.1654,0.98334,21.0709,-0.718367,-0.617772,-0.0648096,0.202208,-1.05757,0.836777,2.5232,-0.146425,-0.618698,-0.144874
3382317,1,-1.57101,-0.522815,-0.000670239,-2.09599,-1.57092,1.57159,0.78564,-1.5708,-0.523599,-4.6393e-08,-2.0944,-1.5708,1.5708,0.785399,0.00035731,-0.000325073,-0.00062511,-0.000443898,-0.000303927,-2.07996e-05,0.000951764,0,0,0,0,0,0,0,0.176403,-10.1654,1.03491,21.0709,-0.707381,-0.617772,-0.10967,0.202886,-1.05878,0.837828,2.52405,-0.146488,-0.618585,-0.144886
3382318,1,-1.57102,-0.522813,-0.000668569,-2.09599,-1.57092,1.57159,0.785643,-1.5708,-0.523599,-4.6393e-08,-2.0944,-1.5708,1.5708,0.785399,-0.000318605,0.000340097,0.000140072,-0.000295932,8.32401e-07,0.000460851,0.00158395,0,0,0,0,0,0,0,0.200207,-10.1892,1.01111,21.0709,-0.712874,-0.63059,-0.135305,0.20318,-1.05959,0.838348,2.525,-0.146579,-0.618515,-0.144846
3382319,1,-1.57101,-0.522812,-0.000664949,-2.09599,-1.57092,1.57159,0.785637,-1.5708,-0.523599,-4.6393e-08,-2.0944,-1.5708,1.5708,0.785399,0.000344409,0.000783543,0.00129981,0.00614363,0.000441364,-0.000404843,-0.00108027,0,0,0,0,0,0,0,0.176403,-10.213,0.959536,21.0709,-0.724776,-0.611364,-0.077627,0.202878,-1.05931,0.837975,2.52422,-0.146619,-0.618534,-0.1448
3382320,1,-1.57102,-0.522812,-0.000670239,-2.09598,-1.57092,1.57159,0.785642,-1.5708,-0.523599,-4.6393e-08,-2.0944,-1.5708,1.5708,0.785399,-0.000327206,0.000522362,-0.0008967,0.00583059,5.6884e-05,0.000442182,0.000941335,0,0,0,0,0,0,0,0.200207,-10.213,1.03491,21.0193,-0.718367,-0.63059,-0.122488,0.202029,-1.05534,0.836677,2.51874,-0.146487,-0.618621,-0.144799
3382321,1,-1.57102,-0.522813,-0.00066662,-2.09599,-1.57092,1.57159,0.785639,-1.5708,-0.523599,-4.6393e-08,-2.0944,-1.5708,1.5708,0.785399,-0.000218137,-0.000208571,0.000608626,0.00307694,-0.000165528,-0.00017993,-0.00127132,0,0,0,0,0,0,0,0.200207,-10.1892,0.98334,21.0709,-0.712874,-0.617772,-0.0712183,0.201543,-1.04805,0.835849,2.50979,-0.146212,-0.618634,-0.144837
3382322,1,-1.57102,-0.522813,-0.00066662,-2.09599,-1.57092,1.57159,0.785644,-1.5708,-0.523599,-4.6393e-08,-2.0944,-1.5708,1.5708,0.785399,-0.000795039,-0.000139047,0.000405751,0.00179171,-0.000517253,0.000117406,0.00128869,0,0,0,0,0,0,0,0.227978,-10.1892,0.98334,21.0947,-0.701887,-0.624181,-0.128897,0.201357,-1.04054,0.835386,2.50143,-0.145967,-0.6186,-0.144884
3382323,1,-1.57102,-0.522813,-0.000664949,-2.09598,-1.57092,1.57159,0.785642,-1.5708,-0.523599,-4.6393e-08,-2.0944,-1.5708,1.5708,0.785399,0.000119588,-9.2698e-05,0.000827312,0.00262382,-0.000141385,7.82704e-05,0.000384407,0,0,0,0,0,0,0,0.200207,-10.1892,0.959536,21.0431,-0.707381,-0.624181,-0.116079,0.200966,-1.03451,0.834513,2.49535,-0.145824,-0.618613,-0.144928
3382324,1,-1.57101,-0.522812,-0.000668569,-2.09598,-1.57092,1.57159,0.785641,-1.5708,-0.523599,-4.6393e-08,-2.0944,-1.5708,1.5708,0.785399,0.000636537,0.000495013,-0.000654884,0.00191641,0.000312645,-0.000185179,1.89123e-05,0,0,0,0,0,0,0,0.176403,-10.213,1.01111,21.0431,-0.718367,-0.617772,-0.10967,0.200329,-1.03046,0.833312,2.49141,-0.145759,-0.618686,-0.144989
3382325,0.99,-1.57101,-0.522815,-0.000670239,-2.09598,-1.57092,1.57159,0.785639,-1.5708,-0.523599,-4.6393e-08,-2.0944,-1.5708,1.5708,0.785399,0.000424358,-0.000783615,-0.000993401,0.001403,-0.000198471,-0.000123452,-0.00141155,0,0,0,0,0,0,0,0.176403,-10.1654,1.03491,21.0431,-0.707381,-0.617772,-0.0712183,0.200023,-1.0282,0.832808,2.48937,-0.145739,-0.618719,-0.145084
3382326,0.99,-1.57102,-0.522815,-0.00066662,-2.09599,-1.57092,1.57159,0.785644,-1.5708,-0.523599,-4.6393e-08,-2.0944,-1.5708,1.5708,0.785399,-0.000273906,-0.00052241,0.000544158,0.000379765,-0.000335765,-8.23016e-05,0.000245764,0,0,0,0,0,0,0,0.200207,-10.1654,0.98334,21.0709,-0.701887,-0.617772,-0.103262,0.200224,-1.02674,0.833188,2.48893,-0.145755,-0.618666,-0.145196
3382327,0.99,-1.57101,-0.522813,-0.000670239,-2.09599,-1.57092,1.57159,0.785647,-1.5708,-0.523599,-4.6393e-08,-2.0944,-1.5708,1.5708,0.785399,0.000374208,0.000208539,-0.000843654,-0.000789913,-2.03927e-05,0.00041985,0.00087592,0,0,0,0,0,0,0,0.176403,-10.1892,1.03491,21.1185,-0.707381,-0.63059,-0.122488,0.200473,-1.02702,0.833695,2.49066,-0.145844,-0.61861,-0.145285
3382328,0.99,-1.57101,-0.522815,-0.000670239,-2.09599,-1.57092,1.57159,0.785647,-1.5708,-0.523599,-4.6393e-08,-2.0944,-1.5708,1.5708,0.785399,0.000249472,-0.000417786,-0.000562436,0.000639916,0.000189855,4.25411e-05,0.000583947,0,0,0,0,0,0,0,0.176403,-10.1654,1.03491,21.0709,-0.712874,-0.624181,-0.122488,0.200823,-1.02971,0.834517,2.49458,-0.145995,-0.618557,-0.145356
3382329,0.99,-1.57102,-0.522812,-0.000668569,-2.09598,-1.57092,1.57159,0.785641,-1.5708,-0.523599,-4.6393e-08,-2.0944,-1.5708,1.5708,0.785399,-0.00104011,0.0008351,0.000181855,0.0011159,-7.68802e-05,-0.000208998,-0.00150957,0,0,0,0,0,0,0,0.227978,-10.213,1.01111,21.0431,-0.707381,-0.617772,-0.0712183,0.201408,-1.03342,0.835769,2.49903,-0.146138,-0.618484,-0.145445
3382330,0.99,-1.57102,-0.522813,-0.000668569,-2.09598,-1.57092,1.57159,0.78564,-1.5708,-0.523599,-4.6393e-08,-2.0944,-1.5708,1.5708,0.785399,-4.37937e-05,-7.87815e-08,0.000121236,0.00077369,-5.12535e-05,0.000335386,-0.000294306,0,0,0,0,0,0,0,0.200207,-10.1892,1.01111,21.0431,-0.707381,-0.63059,-0.0904444,0.201977,-1.03754,0.83691,2.50318,-0.146252,-0.618432,-0.145554
3382331,0.99,-1.57102,-0.522813,-0.000670239,-2.09599,-1.57092,1.57159,0.785644,-1.5708,-0.523599,-4.6393e-08,-2.0944,-1.5708,1.5708,0.785399,-2.91958e-05,-5.2521e-08,-0.000475988,-0.000668315,0.000372732,0.000460949,0.00146531,0,0,0,0,0,0,0,0.200207,-10.1892,1.03491,21.0947,-0.718367,-0.636998,-0.135305,0.202305,-1.04187,0.837672,2.5073,-0.146363,-0.618437,-0.145649
3382332,0.99,-1.57102,-0.522813,-0.000670239,-2.09599,-1.57092,1.57159,0.785644,-1.5708,-0.523599,-4.6393e-08,-2.0944,-1.5708,1.5708,0.785399,-1.94638e-05,-3.5014e-08,-0.000317325,0.000128007,-0.000158413,-0.000167418,2.74367e-05,0,0,0,0,0,0,0,0.200207,-10.1892,1.03491,21.0709,-0.707381,-0.624181,-0.10967,0.20255,-1.04622,0.838389,2.51169,-0.146486,-0.618473,-0.145726
3382333,0.99,-1.57102,-0.522815,-0.000670239,-2.09599,-1.57092,1.57159,0.785642,-1.5708,-0.523599,-4.6393e-08,-2.0944,-1.5708,1.5708,0.785399,-0.00066259,-0.000556835,-0.00021155,9.78913e-05,-0.000309059,0.000125747,1.82912e-05,0,0,0,0,0,0,0,0.227978,-10.1654,1.03491,21.0709,-0.701887,-0.63059,-0.10967,0.202956,-1.0498,0.839347,2.51574,-0.146594,-0.618502,-0.145819
3382334,0.99,-1.57102,-0.522812,-0.000668569,-2.09598,-1.57092,1.57159,0.785634,-1.5708,-0.523599,-4.6393e-08,-2.0944,-1.5708,1.5708,0.785399,0.000207887,0.0007424,0.000415779,0.0012811,0.000404312,-0.000153528,-0.00215794,0,0,0,0,0,0,0,0.200207,-10.213,1.01111,21.0193,-0.718367,-0.624181,-0.0510767,0.203257,-1.05222,0.840073,2.51877,-0.146663,-0.618564,-0.145943
3382335,0.99,-1.57102,-0.522815,-0.000668569,-2.09598,-1.57092,1.57159,0.785639,-1.5708,-0.523599,-4.6393e-08,-2.0944,-1.5708,1.5708,0.785399,0.000138592,-0.00061869,0.000277186,0.000861129,-0.00013736,0.000135007,0.000256791,0,0,0,0,0,0,0,0.200207,-10.1654,1.01111,21.0193,-0.707381,-0.63059,-0.0968531,0.202915,-1.05375,0.839789,2.52061,-0.146698,-0.61874,-0.14607
3382336,0.99,-1.57102,-0.522813,-0.000673858,-2.09598,-1.57092,1.57159,0.78564,-1.5708,-0.523599,-4.6393e-08,-2.0944,-1.5708,1.5708,0.785399,-0.00055722,0.000144352,-0.00157845,2.25703e-05,-9.15731e-05,-0.000384713,0.000645912,0,0,0,0,0,0,0,0.227978,-10.1892,1.08649,21.0431,-0.707381,-0.617772,-0.10967,0.202677,-1.05435,0.839663,2.52159,-0.1467,-0.618907,-0.146153
3382337,0.99,-1.57102,-0.522812,-0.000668569,-2.09599,-1.57092,1.57159,0.785644,-1.5708,-0.523599,-4.6393e-08,-2.0944,-1.5708,1.5708,0.785399,0.000278134,0.000653046,0.00071094,-0.00118741,0.000142402,-1.91165e-05,0.000430608,0,0,0,0,0,0,0,0.200207,-10.213,1.01111,21.0947,-0.712874,-0.624181,-0.10967,0.203095,-1.05593,0.840576,2.5233,-0.14672,-0.618993,-0.146182
3382338,0.99,-1.57101,-0.522812,-0.000664949,-2.09598,-1.57092,1.57159,0.785638,-1.5708,-0.523599,-4.6393e-08,-2.0944,-1.5708,1.5708,0.785399,0.00139185,0.000435364,0.00168039,0.0004178,-0.000108516,-1.27443e-05,-0.000899723,0,0,0,0,0,0,0,0.148632,-10.213,0.959536,21.0431,-0.707381,-0.624181,-0.077627,0.202324,-1.05968,0.839804,2.52633,-0.146828,-0.619282,-0.146185
3382339,0.99,-1.57102,-0.522813,-0.000668569,-2.09599,-1.57092,1.57159,0.785637,-1.5708,-0.523599,-4.6393e-08,-2.0944,-1.5708,1.5708,0.785399,-0.000928141,-0.000266569,-8.61688e-05,-0.000368846,-7.2344e-05,-8.49622e-06,-0.000599815,0,0,0,0,0,0,0,0.227978,-10.1892,1.01111,21.0709,-0.707381,-0.624181,-0.077627,0.20009,-1.06353,0.836827,2.52926,-0.146974,-0.619789,-0.146179
3382340,0.99,-1.57102,-0.522815,-0.000668569,-2.09599,-1.57092,1.57159,0.78564,-1.5708,-0.523599,-4.6393e-08,-2.0944,-1.5708,1.5708,0.785399,3.08535e-05,-0.000734525,-5.74459e-05,-0.000244222,-4.82293e-05,-5.66415e-06,-0.000399877,0,0,0,0,0,0,0,0.200207,-10.1654,1.01111,21.0709,-0.707381,-0.624181,-0.077627,0.1985,-1.06552,0.834665,2.5312,-0.147063,-0.620167,-0.146149
3382341,0.99,-1.57102,-0.522813,-0.000670239,-2.09599,-1.57092,1.57159,0.785641,-1.5708,-0.523599,-4.6393e-08,-2.0944,-1.5708,1.5708,0.785399,-0.000629045,6.71288e-05,-0.000595109,-0.000161558,0.000171298,-3.7761e-06,-0.000503943,0,0,0,0,0,0,0,0.227978,-10.1892,1.03491,21.0709,-0.712874,-0.624181,-0.0712183,0.198258,-1.06585,0.834396,2.53236,-0.14708,-0.620313,-0.146071
3382342,0.99,-1.57102,-0.522813,-0.000672188,-2.09599,-1.57092,1.57159,0.785644,-1.5708,-0.523599,-4.6393e-08,-2.0944,-1.5708,1.5708,0.785399,-0.000419363,4.47526e-05,-0.00104635,-0.000106763,-8.92521e-05,-0.000239876,0.000613473,0,0,0,0,0,0,0,0.227978,-10.1892,1.06269,21.0709,-0.707381,-0.617772,-0.0968531,0.199243,-1.06594,0.83593,2.53327,-0.147048,-0.620265,-0.145931
3382343,0.99,-1.57101,-0.522813,-0.00066662,-2.09598,-1.57092,1.57159,0.785642,-1.5708,-0.523599,-4.6393e-08,-2.0944,-1.5708,1.5708,0.785399,0.00157646,2.9835e-05,0.00115847,0.00113596,-5.95014e-05,-0.000159918,-0.000303095,0,0,0,0,0,0,0,0.148632,-10.1892,0.98334,21.0193,-0.707381,-0.617772,-0.077627,0.200262,-1.06598,0.837565,2.53373,-0.146993,-0.620208,-0.145736
3382344,0.99,-1.57101,-0.522813,-0.000668569,-2.09599,-1.57092,1.57159,0.785638,-1.5708,-0.523599,-4.6393e-08,-2.0944,-1.5708,1.5708,0.785399,0.000401362,1.989e-05,0.0001227,-0.0010054,-3.96676e-05,0.000368106,-0.000439422,0,0,0,0,0,0,0,0.176403,-10.1892,1.01111,21.0947,-0.707381,-0.63059,-0.0712183,0.199726,-1.06582,0.836997,2.53374,-0.146961,-0.620375,-0.145503
3382345,0.99,-1.57102,-0.522812,-0.000670239,-2.09598,-1.57092,1.57159,0.785638,-1.5708,-0.523599,-4.6393e-08,-2.0944,-1.5708,1.5708,0.785399,-0.000938851,0.000570072,-0.000475012,0.00109337,-2.64451e-05,8.04518e-06,0.00018177,0,0,0,0,0,0,0,0.227978,-10.213,1.03491,21.0193,-0.707381,-0.624181,-0.0840357,0.198814,-1.06624,0.835914,2.53395,-0.146942,-0.620592,-0.145232
3382346,0.99,-1.57102,-0.522812,-0.000668569,-2.09598,-1.57092,1.57159,0.785642,-1.5708,-0.523599,-4.6393e-08,-2.0944,-1.5708,1.5708,0.785399,-0.000625901,0.000380048,0.000240137,0.000172398,0.00018582,-0.000231995,0.00154533,0,0,0,0,0,0,0,0.227978,-10.213,1.01111,21.0431,-0.712874,-0.617772,-0.122488,0.198966,-1.06721,0.83631,2.53415,-0.14689,-0.62065,-0.144921
3382347,0.99,-1.57102,-0.522812,-0.000672188,-2.09599,-1.57092,1.57159,0.785641,-1.5708,-0.523599,-4.6393e-08,-2.0944,-1.5708,1.5708,0.785399,0.000232347,0.000253365,-0.00104633,-0.00109127,0.00012388,-0.000154664,0.000555505,0,0,0,0,0,0,0,0.200207,-10.213,1.06269,21.0947,-0.712874,-0.617772,-0.10967,0.199831,-1.06877,0.837711,2.53464,-0.146835,-0.620601,-0.144597
3382348,0.98,-1.57101,-0.522813,-0.000672188,-2.09598,-1.57092,1.57159,0.785643,-1.5708,-0.523599,-4.6393e-08,-2.0944,-1.5708,1.5708,0.785399,0.00071171,-0.000387902,-0.000697556,0.00047908,-0.000120864,-0.000103109,0.00131977,0,0,0,0,0,0,0,0.176403,-10.1892,1.06269,21.0431,-0.707381,-0.617772,-0.135305,0.200919,-1.07039,0.839588,2.53553,-0.146794,-0.620502,-0.144309
3382349,0.98,-1.57102,-0.522815,-0.000670239,-2.09598,-1.57092,1.57159,0.785635,-1.5708,-0.523599,-4.6393e-08,-2.0944,-1.5708,1.5708,0.785399,-8.23387e-05,-0.000815413,0.000184576,0.000876324,-8.05758e-05,-6.87394e-05,-0.0017311,0,0,0,0,0,0,0,0.200207,-10.1654,1.03491,21.0193,-0.707381,-0.617772,-0.0648096,0.201765,-1.06984,0.841214,2.53521,-0.146718,-0.620397,-0.144105
3382350,0.98,-1.57102,-0.522813,-0.000664949,-2.09599,-1.57092,1.57159,0.785638,-1.5708,-0.523599,-4.6393e-08,-2.0944,-1.5708,1.5708,0.785399,-5.48925e-05,1.32032e-05,0.00188629,-0.00117893,-5.37172e-05,-4.58263e-05,-0.00044199,0,0,0,0,0,0,0,0.200207,-10.1892,0.959536,21.0947,-0.707381,-0.617772,-0.0840357,0.201585,-1.0675,0.841222,2.53388,-0.146636,-0.620411,-0.143984
3382351,0.98,-1.57102,-0.522813,-0.00067237,-2.09599,-1.57092,1.57159,0.785646,-1.5708,-0.523599,-4.6393e-08,-2.0944,-1.5708,1.5708,0.785399,-0.000686209,8.80214e-06,-0.000505712,-0.000229069,0.00037109,0.000206808,0.00136685,0,0,0,0,0,0,0,0.227978,-10.1892,1.03491,21.0709,-0.718367,-0.624181,-0.128897,0.200592,-1.0661,0.83988,2.53337,-0.146615,-0.620542,-0.143893
3382352,0.98,-1.57102,-0.522815,-0.000670949,-2.09598,-1.57092,1.57159,0.785641,-1.5708,-0.523599,-4.6393e-08,-2.0944,-1.5708,1.5708,0.785399,-0.000457473,-0.000550944,-0.000337141,0.000496955,-0.000362959,-9.94869e-05,-3.82007e-05,0,0,0,0,0,0,0,0.227978,-10.1654,1.03491,21.0431,-0.701887,-0.617772,-0.103262,0.200264,-1.0653,0.83945,2.53326,-0.146594,-0.620573,-0.143817
3382353,0.98,-1.57102,-0.522813,-0.000670476,-2.09598,-1.57092,1.57159,0.785639,-1.5708,-0.523599,-4.6393e-08,-2.0944,-1.5708,1.5708,0.785399,-0.000304982,0.000189516,-0.000224761,0.000888155,-0.000241972,0.000408393,-0.000262826,0,0,0,0,0,0,0,0.227978,-10.1892,1.03491,21.0193,-0.701887,-0.63059,-0.0968531,0.200917,-1.06368,0.840426,2.53231,-0.146512,-0.62045,-0.143782
3382354,0.98,-1.57102,-0.522812,-0.000670318,-2.09599,-1.57092,1.57159,0.785636,-1.5708,-0.523599,-4.6393e-08,-2.0944,-1.5708,1.5708,0.785399,0.000446293,0.000683156,-0.000149841,-0.0011711,0.000449037,-0.000202456,-0.00112465,0,0,0,0,0,0,0,0.200207,-10.213,1.03491,21.0947,-0.718367,-0.617772,-0.0712183,0.201662,-1.06295,0.841569,2.53159,-0.146427,-0.620334,-0.143786
3382355,0.98,-1.57102,-0.522815,-0.000666646,-2.09599,-1.57092,1.57159,0.785644,-1.5708,-0.523599,-4.6393e-08,-2.0944,-1.5708,1.5708,0.785399,-0.000352085,-0.000658187,0.00110653,-0.00133753,-0.000310994,-0.00013497,0.000911744,0,0,0,0,0,0,0,0.227978,-10.1654,0.98334,21.1185,-0.701887,-0.617772,-0.116079,0.201821,-1.06432,0.841873,2.53244,-0.146418,-0.620333,-0.143796
3382356,0.98,-1.57102,-0.522813,-0.000668577,-2.09598,-1.57092,1.57159,0.785647,-1.5708,-0.523599,-4.6393e-08,-2.0944,-1.5708,1.5708,0.785399,-0.000234724,0.000118021,8.80742e-05,0.000871571,-3.87867e-06,-8.99803e-05,0.00108255,0,0,0,0,0,0,0,0.227978,-10.1892,1.01111,21.0431,-0.707381,-0.617772,-0.128897,0.201431,-1.0657,0.841219,2.53371,-0.146447,-0.62042,-0.143798
3382357,0.98,-1.57101,-0.522815,-0.000670242,-2.09598,-1.57092,1.57159,0.78564,-1.5708,-0.523599,-4.6393e-08,-2.0944,-1.5708,1.5708,0.785399,0.00104994,-0.000478131,-0.000498096,0.00058106,-2.58578e-06,0.000177372,-0.000702456,0,0,0,0,0,0,0,0.176403,-10.1654,1.03491,21.0431,-0.707381,-0.624181,-0.0904444,0.201018,-1.06541,0.840445,2.53371,-0.146421,-0.620497,-0.143822
3382358,0.98,-1.57102,-0.522813,-0.00067024,-2.09599,-1.57092,1.57159,0.785637,-1.5708,-0.523599,-4.6393e-08,-2.0944,-1.5708,1.5708,0.785399,-0.000506464,0.000238058,-0.000332064,-0.00137586,-1.72385e-06,-0.000119111,-0.000943022,0,0,0,0,0,0,0,0.227978,-10.1892,1.03491,21.1185,-0.707381,-0.617772,-0.077627,0.200938,-1.06457,0.840241,2.53324,-0.146355,-0.620516,-0.143886
3382359,0.98,-1.57102,-0.52281,-0.00066662,-2.09598,-1.57092,1.57159,0.785638,-1.5708,-0.523599,-4.6393e-08,-2.0944,-1.5708,1.5708,0.785399,0.000311972,0.00136513,0.00098505,0.00140282,0.000202301,-7.94073e-05,-0.000391322,0,0,0,0,0,0,0,0.200207,-10.2408,0.98334,21.0193,-0.712874,-0.617772,-0.0840357,0.200963,-1.06536,0.840214,2.53365,-0.146311,-0.620535,-0.14396
3382360,0.98,-1.57102,-0.522812,-0.00066662,-2.09598,-1.57092,1.57159,0.785642,-1.5708,-0.523599,-4.6393e-08,-2.0944,-1.5708,1.5708,0.785399,0.000207981,0.000260473,0.0006567,0.000378407,-6.8583e-05,0.00042178,0.000213836,0,0,0,0,0,0,0,0.200207,-10.213,0.98334,21.0431,-0.707381,-0.63059,-0.0968531,0.200344,-1.06757,0.839166,2.53424,-0.146289,-0.620673,-0.144009
3382361,0.98,-1.57101,-0.522812,-0.00066662,-2.09598,-1.57092,1.57159,0.785643,-1.5708,-0.523599,-4.6393e-08,-2.0944,-1.5708,1.5708,0.785399,0.00134508,0.000173649,0.0004378,0.000252275,0.000157729,-0.00043089,-9.48013e-05,0,0,0,0,0,0,0,0.148632,-10.213,0.98334,21.0431,-0.712874,-0.611364,-0.0904444,0.198918,-1.06938,0.836907,2.53428,-0.146272,-0.620928,-0.144026
3382362,0.98,-1.57102,-0.522815,-0.00066662,-2.09598,-1.57092,1.57159,0.785644,-1.5708,-0.523599,-4.6393e-08,-2.0944,-1.5708,1.5708,0.785399,-0.00095932,-0.000997858,0.000291867,0.000724998,-9.82982e-05,-4.99013e-05,0.000174158,0,0,0,0,0,0,0,0.227978,-10.1654,0.98334,21.0193,-0.707381,-0.617772,-0.0968531,0.197474,-1.06928,0.834582,2.53345,-0.146232,-0.621151,-0.144018
3382363,0.98,-1.57101,-0.522813,-0.000670239,-2.09599,-1.57092,1.57159,0.785638,-1.5708,-0.523599,-4.6393e-08,-2.0944,-1.5708,1.5708,0.785399,0.00121649,-0.000108427,-0.00101185,-0.000723091,0.000137918,0.000204091,-0.000595971,0,0,0,0,0,0,0,0.148632,-10.1892,1.03491,21.0709,-0.712874,-0.624181,-0.077627,0.19691,-1.06717,0.833519,2.53188,-0.146149,-0.621199,-0.143993
3382364,0.98,-1.57102,-0.522813,-0.00066662,-2.09598,-1.57092,1.5716,0.785638,-1.5708,-0.523599,-4.6393e-08,-2.0944,-1.5708,1.5708,0.785399,-0.00039543,-7.22845e-05,0.00053186,0.000724367,-0.000111505,0.00037342,-0.000159955,0,0,0,0,0,0,0,0.200207,-10.1892,0.98334,21.0193,-0.707381,-0.63059,-0.0840357,0.197048,-1.06492,0.833594,2.5305,-0.14606,-0.621121,-0.143945
3382365,0.98,-1.57102,-0.522813,-0.000668569,-2.09598,-1.57092,1.57159,0.785638,-1.5708,-0.523599,-4.6393e-08,-2.0944,-1.5708,1.5708,0.785399,-0.000913234,-4.81896e-05,-0.00029504,-7.38996e-05,-7.43366e-05,-0.000225771,0.000130722,0,0,0,0,0,0,0,0.227978,-10.1892,1.01111,21.0431,-0.707381,-0.617772,-0.0904444,0.197615,-1.06322,0.834295,2.5294,-0.145974,-0.620984,-0.143864
3382366,0.98,-1.57102,-0.522813,-0.000670239,-2.09598,-1.57092,1.57159,0.785642,-1.5708,-0.523599,-4.6393e-08,-2.0944,-1.5708,1.5708,0.785399,4.07911e-05,-3.21264e-05,-0.000753505,0.000507546,-4.95577e-05,8.68447e-05,0.00127394,0,0,0,0,0,0,0,0.200207,-10.1892,1.03491,21.0193,-0.707381,-0.624181,-0.122488,0.198938,-1.06185,0.836038,2.52835,-0.145876,-0.620743,-0.143749
3382367,0.98,-1.57102,-0.522812,-0.000668569,-2.09599,-1.57092,1.57159,0.785638,-1.5708,-0.523599,-4.6393e-08,-2.0944,-1.5708,1.5708,0.785399,-0.00117923,0.000535394,5.4475e-05,-0.000868061,0.000170412,-0.000179462,-0.00152429,0,0,0,0,0,0,0,0.251781,-10.213,1.01111,21.0709,-0.712874,-0.617772,-0.0584009,0.200824,-1.06155,0.83862,2.52792,-0.145789,-0.620436,-0.143621
3382368,0.98,-1.57102,-0.522815,-0.000670239,-2.09598,-1.57092,1.57159,0.785637,-1.5708,-0.523599,-4.6393e-08,-2.0944,-1.5708,1.5708,0.785399,0.000420271,-0.000756694,-0.000520495,0.000627719,0.000113608,-0.000119642,-0.000541478,0,0,0,0,0,0,0,0.200207,-10.1654,1.03491,21.0193,-0.712874,-0.617772,-0.0712183,0.202731,-1.06198,0.841204,2.528,-0.145724,-0.620138,-0.143494
3382369,0.98,-1.57101,-0.522813,-0.000668569,-2.09598,-1.57092,1.57159,0.785639,-1.5708,-0.523599,-4.6393e-08,-2.0944,-1.5708,1.5708,0.785399,0.000836993,5.23491e-05,0.000209815,0.00041848,-0.000127712,0.000394957,0.00058845,0,0,0,0,0,0,0,0.176403,-10.1892,1.01111,21.0193,-0.707381,-0.63059,-0.0968531,0.203907,-1.06145,0.842749,2.52747,-0.145662,-0.619946,-0.143351
3382370,0.98,-1.57102,-0.522813,-0.000664949,-2.09599,-1.57092,1.57159,0.785644,-1.5708,-0.523599,-4.6393e-08,-2.0944,-1.5708,1.5708,0.785399,1.18329e-06,3.48994e-05,0.0013463,-0.00148425,-8.51412e-05,-0.000211413,0.000867018,0,0,0,0,0,0,0,0.200207,-10.1892,0.959536,21.0947,-0.707381,-0.617772,-0.10967,0.203655,-1.06094,0.842256,2.52695,-0.145649,-0.619978,-0.143171
3382371,0.98,-1.57102,-0.52281,-0.000670239,-2.09598,-1.57092,1.57159,0.785641,-1.5708,-0.523599,-4.6393e-08,-2.0944,-1.5708,1.5708,0.785399,7.88858e-07,0.00122969,-0.000865703,0.000216925,-0.000260211,9.64167e-05,0.000340653,0,0,0,0,0,0,0,0.200207,-10.2408,1.03491,21.0431,-0.701887,-0.624181,-0.103262,0.20266,-1.06264,0.840687,2.52784,-0.145717,-0.620151,-0.142971
3382372,0.98,-1.57101,-0.522817,-0.00066662,-2.09598,-1.57092,1.57159,0.78564,-1.5708,-0.523599,-4.6393e-08,-2.0944,-1.5708,1.5708,0.785399,0.000557338,-0.00159306,0.000629291,0.000701429,2.99763e-05,-0.000173081,-0.000722334,0,0,0,0,0,0,0,0.176403,-10.1377,0.98334,21.0193,-0.707381,-0.617772,-0.077627,0.201898,-1.06448,0.83949,2.52864,-0.145766,-0.620293,-0.142792
3382373,0.98,-1.57102,-0.522812,-0.000668569,-2.09598,-1.57092,1.57159,0.785641,-1.5708,-0.523599,-4.6393e-08,-2.0944,-1.5708,1.5708,0.785399,-0.000834867,0.0007012,-0.000230087,-8.91924e-05,0.000426885,-0.000115387,-0.000718915,0,0,0,0,0,0,0,0.227978,-10.213,1.01111,21.0431,-0.718367,-0.617772,-0.0712183,0.201426,-1.06405,0.838664,2.528,-0.145741,-0.620361,-0.142648
3382374,0.98,-1.57102,-0.522812,-0.000668569,-2.09598,-1.57092,1.57159,0.785645,-1.5708,-0.523599,-4.6393e-08,-2.0944,-1.5708,1.5708,0.785399,9.30357e-05,0.000467467,-0.000153391,-5.94615e-05,-0.000122311,0.000160434,0.00189431,0,0,0,0,0,0,0,0.200207,-10.213,1.01111,21.0431,-0.707381,-0.624181,-0.135305,0.201445,-1.06387,0.838514,2.52743,-0.145702,-0.620353,-0.142506
3382375,0.98,-1.57101,-0.522813,-0.000668569,-2.09599,-1.57092,1.57159,0.78564,-1.5708,-0.523599,-4.6393e-08,-2.0944,-1.5708,1.5708,0.785399,0.000618836,-0.000245168,-0.000102261,-0.000689255,-0.000284991,0.000106956,7.60806e-05,0,0,0,0,0,0,0,0.176403,-10.1892,1.01111,21.0709,-0.701887,-0.624181,-0.103262,0.201666,-1.06512,0.838746,2.52769,-0.145693,-0.620328,-0.142361
3382376,0.98,-1.57102,-0.52281,-0.000670239,-2.09598,-1.57092,1.57159,0.785642,-1.5708,-0.523599,-4.6393e-08,-2.0944,-1.5708,1.5708,0.785399,-0.000144255,0.00104298,-0.000624986,0.00130373,1.34564e-05,-0.000166055,0.000762797,0,0,0,0,0,0,0,0.200207,-10.2408,1.03491,20.9955,-0.707381,-0.617772,-0.122488,0.201814,-1.06656,0.838991,2.528,-0.145685,-0.620315,-0.142253
3382377,0.98,-1.57102,-0.522812,-0.00066662,-2.09599,-1.57092,1.57159,0.785641,-1.5708,-0.523599,-4.6393e-08,-2.0944,-1.5708,1.5708,0.785399,-0.0013026,4.57066e-05,0.000789769,-0.000894081,-0.00019448,-0.000110703,-0.000915622,0,0,0,0,0,0,0,0.251781,-10.213,0.98334,21.0709,-0.701887,-0.617772,-0.0840357,0.202272,-1.06828,0.839659,2.52817,-0.145654,-0.620259,-0.142206
3382378,0.98,-1.57101,-0.522815,-0.000664949,-2.09599,-1.57092,1.57159,0.785639,-1.5708,-0.523599,-4.6393e-08,-2.0944,-1.5708,1.5708,0.785399,0.000894841,-0.00108315,0.00108332,-0.000596054,7.37975e-05,-7.38022e-05,-0.000610415,0,0,0,0,0,0,0,0.176403,-10.1654,0.959536,21.0709,-0.707381,-0.617772,-0.0840357,0.202376,-1.06934,0.839597,2.52831,-0.14563,-0.620244,-0.142215
3382379,0.98,-1.57102,-0.522815,-0.000668569,-2.09599,-1.57092,1.57159,0.785646,-1.5708,-0.523599,-4.6393e-08,-2.0944,-1.5708,1.5708,0.785399,3.97485e-05,-0.000722102,-0.00048421,-0.000397369,4.91983e-05,-4.92015e-05,0.00125457,0,0,0,0,0,0,0,0.200207,-10.1654,1.01111,21.0709,-0.707381,-0.617772,-0.128897,0.201672,-1.0683,0.838231,2.52796,-0.145606,-0.620316,-0.142257
3382380,0.98,-1.57102,-0.522812,-0.000664949,-2.09599,-1.57092,1.57159,0.785639,-1.5708,-0.523599,-4.6393e-08,-2.0944,-1.5708,1.5708,0.785399,2.6499e-05,0.000632223,0.000883619,-0.000264913,3.27989e-05,-3.2801e-05,-0.000825133,0,0,0,0,0,0,0,0.200207,-10.213,0.959536,21.0709,-0.707381,-0.617772,-0.0840357,0.200861,-1.06658,0.836716,2.52741,-0.145568,-0.620387,-0.142314
3382381,0.98,-1.57102,-0.522812,-0.000672188,-2.09599,-1.57092,1.57159,0.785644,-1.5708,-0.523599,-4.6393e-08,-2.0944,-1.5708,1.5708,0.785399,1.7666e-05,0.000421482,-0.00182377,-0.000176609,2.18659e-05,0.000215492,0.000399347,0,0,0,0,0,0,0,0.200207,-10.213,1.06269,21.0709,-0.707381,-0.624181,-0.10967,0.200624,-1.06656,0.836122,2.52756,-0.145527,-0.620384,-0.142388
3382382,0.98,-1.57102,-0.522812,-0.000668569,-2.09599,-1.57092,1.57159,0.785637,-1.5708,-0.523599,-4.6393e-08,-2.0944,-1.5708,1.5708,0.785399,-0.000637837,0.000280988,-9.4222e-06,-0.000674551,0.000218028,-9.36979e-05,-0.00139528,0,0,0,0,0,0,0,0.227978,-10.213,1.01111,21.0947,-0.712874,-0.617772,-0.0648096,0.201479,-1.06813,0.837248,2.52843,-0.145471,-0.62023,-0.142473
3382383,0.98,-1.57102,-0.522812,-0.000664949,-2.09599,-1.57092,1.57159,0.78564,-1.5708,-0.523599,-4.6393e-08,-2.0944,-1.5708,1.5708,0.785399,0.00022439,0.000187325,0.00120014,-0.00100651,0.000145352,-6.24652e-05,0.000493966,0,0,0,0,0,0,0,0.200207,-10.213,0.959536,21.1185,-0.712874,-0.617772,-0.103262,0.202406,-1.07044,0.83844,2.52987,-0.145437,-0.620072,-0.142551
3382384,0.98,-1.57102,-0.522815,-0.00066662,-2.09598,-1.57092,1.57159,0.785642,-1.5708,-0.523599,-4.6393e-08,-2.0944,-1.5708,1.5708,0.785399,0.000149593,-0.00098874,0.000243284,0.00109223,9.69012e-05,0.000195715,0.00104139,0,0,0,0,0,0,0,0.200207,-10.1654,0.98334,21.0431,-0.712874,-0.624181,-0.122488,0.202208,-1.07157,0.837814,2.53077,-0.145425,-0.620075,-0.142607
3382385,0.98,-1.57102,-0.522812,-0.000668569,-2.09598,-1.57092,1.57159,0.785647,-1.5708,-0.523599,-4.6393e-08,-2.0944,-1.5708,1.5708,0.785399,9.97287e-05,0.000454464,-0.000487424,0.000728153,6.46008e-05,-0.000106882,0.00116898,0,0,0,0,0,0,0,0.200207,-10.213,1.01111,21.0431,-0.712874,-0.617772,-0.135305,0.201679,-1.0701,0.836614,2.52985,-0.145366,-0.620107,-0.142662
3382386,0.98,-1.57102,-0.522813,-0.000668569,-2.09598,-1.57092,1.57159,0.78564,-1.5708,-0.523599,-4.6393e-08,-2.0944,-1.5708,1.5708,0.785399,-0.000583128,-0.000253836,-0.00032495,0.00104225,-0.000160383,-7.12547e-05,-0.00159427,0,0,0,0,0,0,0,0.227978,-10.1892,1.01111,21.0193,-0.707381,-0.617772,-0.0712183,0.201829,-1.06748,0.836408,2.52777,-0.145252,-0.62003,-0.142753
3382387,0.98,-1.57101,-0.52281,-0.00066662,-2.09599,-1.57092,1.57159,0.785641,-1.5708,-0.523599,-4.6393e-08,-2.0944,-1.5708,1.5708,0.785399,0.000817674,0.0010372,0.000432981,-0.000511594,-0.000513823,-4.75031e-05,-0.00106285,0,0,0,0,0,0,0,0.176403,-10.2408,0.98334,21.0709,-0.696394,-0.617772,-0.0712183,0.202249,-1.06583,0.836623,2.52601,-0.145148,-0.619926,-0.142884
3382388,0.98,-1.57102,-0.522815,-0.000668569,-2.09599,-1.57092,1.57159,0.785638,-1.5708,-0.523599,-4.6393e-08,-2.0944,-1.5708,1.5708,0.785399,-0.00066131,-0.00107177,-0.00036096,-0.000341063,0.000267803,0.00020569,-0.000471206,0,0,0,0,0,0,0,0.227978,-10.1654,1.01111,21.0709,-0.712874,-0.624181,-0.077627,0.202391,-1.06551,0.836466,2.52532,-0.145094,-0.619874,-0.143007
3382389,0.98,-1.57102,-0.522813,-0.000668569,-2.09599,-1.57092,1.57159,0.785641,-1.5708,-0.523599,-4.6393e-08,-2.0944,-1.5708,1.5708,0.785399,-0.000440873,-0.000157701,-0.00024064,-0.000227375,0.000619345,-0.000100232,0.000872657,0,0,0,0,0,0,0,0.227978,-10.1892,1.01111,21.0709,-0.724776,-0.617772,-0.10967,0.202878,-1.06482,0.836763,2.525,-0.145048,-0.619759,-0.143082
3382390,0.98,-1.57101,-0.522815,-0.000668569,-2.09599,-1.57092,1.57159,0.785644,-1.5708,-0.523597,-2.15715e-06,-2.09439,-1.5708,1.5708,0.785399,0.00091251,-0.000661946,-0.000160427,-0.000708395,-0.000434814,-6.68214e-05,0.000581771,-0.00362688,0.001875,-0.00211076,0.00261762,-0.00132195,0.005,-0.00046918,0.176403,-10.1654,1.01111,21.0947,-0.701887,-0.617772,-0.10967,0.203619,-1.0634,0.837412,2.52472,-0.145006,-0.619597,-0.143107
3382391,0.98,-1.57101,-0.522813,-0.00067237,-2.09598,-1.57092,1.57159,0.78564,-1.57081,-0.523593,-6.37868e-06,-2.09439,-1.5708,1.57081,0.785398,0.00060834,0.000115514,-0.000663763,0.000734162,-8.64255e-05,-4.45476e-05,-8.68703e-05,-0.00725376,0.00375,-0.00422152,0.00523524,-0.0026439,0.01,-0.00093836,0.176403,-10.1892,1.03491,21.0431,-0.707381,-0.617772,-0.0968531,0.203936,-1.06198,0.837598,2.52451,-0.144989,-0.619499,-0.143112
3382392,0.98,-1.57101,-0.52281,-0.00066733,-2.09599,-1.57092,1.57159,0.785636,-1.57082,-0.523587,-1.2711e-05,-2.09438,-1.57081,1.57083,0.785396,0.00040556,0.00128344,0.000763917,-0.000716984,-5.7617e-05,0.000207661,-0.00124471,-0.0108806,0.005625,-0.00633229,0.00785286,-0.00396586,0.015,-0.00140754,0.176403,-10.2408,0.98334,21.0947,-0.707381,-0.624181,-0.0648096,0.203674,-1.06202,0.837139,2.52478,-0.145002,-0.619504,-0.143117
3382393,0.98,-1.57102,-0.522811,-0.000668878,-2.09598,-1.57092,1.57159,0.785641,-1.57083,-0.52358,-2.1154e-05,-2.09437,-1.57081,1.57085,0.785394,-0.00174701,0.00226035,-0.00290476,7.88224e-05,-0.00855514,-9.89186e-05,0.000831707,-0.0145075,0.0075,-0.00844305,0.0104705,-0.00528781,0.02,-0.00187672,0.124828,-10.1654,0.860354,21.0709,-0.730269,-0.617772,-0.10967,0.204068,-1.06602,0.837834,2.52675,-0.14502,-0.619467,-0.143099
3382394,0.98,-1.57102,-0.522815,-0.000663691,-2.09598,-1.57092,1.57159,0.785642,-1.57085,-0.523571,-3.17078e-05,-2.09436,-1.57082,1.57087,0.785392,-0.00495124,7.08731e-05,-0.00120638,-0.000329293,-0.00522918,-0.000303305,0.00102919,-0.0181344,0.009375,-0.0105538,0.0130881,-0.00660976,0.025,-0.0023459,-0.125111,-9.9631,0.404117,21.2177,-0.764143,-0.611364,-0.122488,0.207733,-1.07245,0.843232,2.52974,-0.144929,-0.618989,-0.143035
3382395,0.98,-1.57101,-0.522814,-0.000675274,-2.09599,-1.57092,1.57159,0.785641,-1.57087,-0.523559,-4.43724e-05,-2.09434,-1.57082,1.5709,0.785389,0.00192438,-0.000555282,-0.00618726,-0.00132904,-0.00790775,3.51558e-05,0.000448767,-0.0217613,0.01125,-0.0126646,0.0157057,-0.00793171,0.03,-0.00281508,-0.656727,-9.78458,0.0470608,21.416,-0.787031,-0.617772,-0.116079,0.214635,-1.07687,0.853307,2.53216,-0.144721,-0.617976,-0.142963
3382396,0.98,-1.57101,-0.522809,-0.000677878,-2.09598,-1.57092,1.57159,0.785647,-1.5709,-0.523546,-5.91477e-05,-2.09432,-1.57083,1.57094,0.785386,0.00067831,-0.000206122,-0.00305571,0.00143521,-0.00589768,-0.00068864,0.00101125,-0.0253882,0.013125,-0.0147753,0.0183233,-0.00925366,0.035,-0.00328426,-1.08519,-9.63382,-0.484555,21.4676,-0.792525,-0.598546,-0.135305,0.221476,-1.07716,0.863938,2.53331,-0.144518,-0.616777,-0.142939
3382397,0.98,-1.57102,-0.522803,-0.000689452,-2.09598,-1.57092,1.5716,0.785639,-1.57093,-0.523531,-7.60338e-05,-2.0943,-1.57084,1.57098,0.785382,-0.00293222,0.0013291,-0.00239734,-0.000203286,-0.00475721,1.56248e-05,-0.0012247,-0.029015,0.015,-0.0168861,0.020941,-0.0105756,0.04,-0.00375344,-1.41448,-9.53067,-0.964597,21.543,-0.787031,-0.611364,-0.0840357,0.225611,-1.07476,0.87124,2.53378,-0.144466,-0.615666,-0.142989
3382398,0.98,-1.57102,-0.522785,-0.000711259,-2.09597,-1.57092,1.5716,0.785641,-1.57096,-0.523514,-9.50307e-05,-2.09428,-1.57086,1.57102,0.785378,0.00101744,0.00539812,-0.00577968,0.00189335,-0.00363795,0.00434442,0.000132968,-0.0326419,0.016875,-0.0189969,0.0235586,-0.0118976,0.045,-0.00422262,-1.89452,-9.55844,-1.29388,21.6144,-0.787031,-0.598546,-0.10967,0.226222,-1.07528,0.874132,2.5365,-0.144706,-0.614698,-0.143102
3382399,0.98,-1.57104,-0.522777,-0.00072553,-2.09596,-1.57092,1.5716,0.785641,-1.571,-0.523496,-0.000116138,-2.09425,-1.57087,1.57107,0.785373,-0.00472178,0.00837317,-0.00642114,0.00394836,-0.00257171,0.00822949,8.86454e-05,-0.0362688,0.01875,-0.0211076,0.0261762,-0.0132195,0.05,-0.0046918,-2.14446,-9.45529,-1.69854,21.666,-0.792525,-0.604955,-0.10967,0.223596,-1.08448,0.873888,2.5437,-0.14525,-0.6138,-0.143245
3382400,0.98,-1.57105,-0.522761,-0.000740722,-2.09595,-1.57092,1.57161,0.78564,-1.57104,-0.523473,-0.000141152,-2.09422,-1.57089,1.57113,0.785368,-0.00676955,0.013097,-0.00435312,0.00642225,-0.00136652,0.0113022,-0.000178262,-0.0429278,0.0225,-0.0250136,0.0308256,-0.0153429,0.06,-0.00536125,-2.49755,-9.45529,-2.0794,21.666,-0.809004,-0.617772,-0.103262,0.218088,-1.10501,0.871064,2.55565,-0.146042,-0.612875,-0.143394
3382401,0.98,-1.57106,-0.522757,-0.000758643,-2.09594,-1.57092,1.57161,0.785638,-1.57109,-0.523447,-0.000170071,-2.09418,-1.5709,1.5712,0.785362,-0.00814179,0.0123384,-0.00841946,0.00661447,-0.000260096,0.0118068,-0.000830918,-0.0495869,0.02625,-0.0289195,0.0354751,-0.0174662,0.07,-0.00603071,-2.85064,-9.28073,-2.35711,21.7414,-0.831892,-0.57932,-0.0840357,0.209542,-1.13545,0.865246,2.57172,-0.14704,-0.611829,-0.143546
3382402,0.98,-1.57108,-0.522753,-0.000776731,-2.09593,-1.57092,1.57162,0.78564,-1.57114,-0.523417,-0.000202897,-2.09414,-1.57092,1.57128,0.785355,-0.0134362,0.011228,-0.00864937,0.00657862,0.000933617,0.00701731,0.000158131,-0.056246,0.03,-0.0328254,0.0401246,-0.0195896,0.08,-0.00670017,-3.02916,-9.0784,-2.61102,21.8167,-0.865767,-0.527135,-0.103262,0.199368,-1.16828,0.858572,2.58966,-0.148142,-0.610184,-0.143695
3382403,0.98,-1.57111,-0.522745,-0.000792078,-2.09593,-1.57092,1.57162,0.785645,-1.57121,-0.523383,-0.000239628,-2.0941,-1.57094,1.57137,0.785348,-0.0183697,0.0107941,-0.0120861,0.00736579,-0.00333201,0.00639587,0.00180084,-0.062905,0.03375,-0.0367314,0.044774,-0.0217129,0.09,-0.00736962,-3.2791,-8.87607,-2.98791,21.9873,-0.888655,-0.424596,-0.149038,0.190353,-1.19512,0.85486,2.60696,-0.149219,-0.607225,-0.143825
3382404,0.98,-1.57114,-0.522731,-0.000814013,-2.09591,-1.57091,1.57163,0.785643,-1.57128,-0.523346,-0.000280266,-2.09405,-1.57097,1.57147,0.78534,-0.0209274,0.0116122,-0.0165908,0.0100226,-0.00505344,0.00715424,0.000454576,-0.0695641,0.0375,-0.0406373,0.0494235,-0.0238363,0.1,-0.00803908,-3.58458,-8.59836,-3.42035,22.0905,-0.950911,-0.353185,-0.128897,0.184633,-1.21202,0.857253,2.62194,-0.150161,-0.602443,-0.143955
3382405,0.98,-1.57116,-0.52271,-0.000847784,-2.0959,-1.57091,1.57163,0.78564,-1.57135,-0.523304,-0.000324809,-2.094,-1.57099,1.57158,0.785331,-0.0212202,0.01655,-0.0175643,0.0110062,-0.00663319,0.00655867,-0.000646385,-0.0762231,0.04125,-0.0445433,0.0540729,-0.0259596,0.11,-0.00870853,-4.08843,-8.34445,-3.82501,22.2373,-1.00676,-0.244237,-0.103262,0.181285,-1.22185,0.86495,2.63547,-0.151033,-0.595861,-0.144123
3382406,0.98,-1.5712,-0.522681,-0.000881691,-2.09587,-1.57091,1.57165,0.785634,-1.57144,-0.523259,-0.000373258,-2.09394,-1.57102,1.5717,0.785322,-0.027372,0.017417,-0.0229885,0.0170848,-0.00953465,0.0126094,-0.001143,-0.0828822,0.045,-0.0484492,0.0587224,-0.028083,0.12,-0.00937799,-4.48912,-8.11832,-4.30505,22.2889,-1.02415,-0.179235,-0.0840357,0.178149,-1.22924,0.875181,2.6489,-0.151997,-0.58769,-0.144338
3382407,0.98,-1.57125,-0.522643,-0.00092185,-2.09584,-1.57091,1.57168,0.785632,-1.57153,-0.523211,-0.000425613,-2.09387,-1.57105,1.57183,0.785312,-0.0351815,0.0233649,-0.0266018,0.0198929,-0.00661544,0.0131515,-0.00123672,-0.0895412,0.04875,-0.0523552,0.0633719,-0.0302063,0.13,-0.0100474,-4.89379,-7.96359,-4.81286,22.4118,-1.04704,-0.134374,-0.0712183,0.176593,-1.23555,0.889864,2.66176,-0.153075,-0.57758,-0.14457
3382408,0.98,-1.57131,-0.522596,-0.00096772,-2.0958,-1.57091,1.57171,0.785628,-1.57162,-0.523158,-0.000481874,-2.09381,-1.57108,1.57197,0.785301,-0.0429563,0.029948,-0.0318936,0.0260757,-0.0084774,0.018233,-0.000824479,-0.0962003,0.0525,-0.0562611,0.0680213,-0.0323297,0.14,-0.0107169,-5.22307,-7.91599,-5.21753,22.3603,-1.08641,-0.089513,-0.0712183,0.179192,-1.24558,0.912536,2.67556,-0.154319,-0.565037,-0.144759
3382409,0.98,-1.57138,-0.522546,-0.00101095,-2.09577,-1.57091,1.57175,0.785625,-1.57172,-0.523102,-0.000542041,-2.09373,-1.57112,1.57212,0.78529,-0.0505819,0.0371594,-0.0358654,0.0295982,-0.00541078,0.0275789,-0.00500188,-0.102859,0.05625,-0.060167,0.0726708,-0.0344531,0.15,-0.0113864,-5.47301,-7.84061,-5.62219,22.4872,-1.12028,-0.0702869,-0.077627,0.186439,-1.26652,0.943887,2.69314,-0.155847,-0.550011,-0.144845
3382410,0.98,-1.57145,-0.522509,-0.00104968,-2.09573,-1.57092,1.57181,0.785615,-1.57184,-0.52304,-0.000607746,-2.09365,-1.57116,1.57229,0.785278,-0.0572599,0.0369201,-0.0373505,0.0330207,-0.00311291,0.0367662,-0.00637024,-0.112158,0.061875,-0.0657047,0.0789231,-0.0370526,0.164712,-0.0120393,-5.67534,-7.55893,-6.07843,22.5864,-1.15416,-0.121556,-0.00621587,0.196074,-1.29804,0.980373,2.7148,-0.157764,-0.532882,-0.144813
3382411,0.98,-1.57153,-0.522466,-0.00109444,-2.09569,-1.57092,1.57189,0.785608,-1.57196,-0.522972,-0.000678988,-2.09357,-1.5712,1.57247,0.785265,-0.0646963,0.0365617,-0.0387446,0.03496,-0.00118747,0.0479888,-0.00947797,-0.121456,0.0675,-0.0712423,0.0851754,-0.0396522,0.179425,-0.0126923,-5.87767,-7.3566,-6.38391,22.7094,-1.19353,-0.160009,0.000192821,0.204128,-1.32963,1.01537,2.73738,-0.160123,-0.514252,-0.144663
3382412,0.98,-1.57161,-0.522426,-0.00114537,-2.09565,-1.57092,1.57197,0.785598,-1.57209,-0.522899,-0.000755768,-2.09348,-1.57124,1.57266,0.785251,-0.0676921,0.0371677,-0.0449134,0.0369056,0.000238722,0.0595795,-0.0117899,-0.130755,0.073125,-0.0767799,0.0914277,-0.0422517,0.194137,-0.0133453,-6.10381,-7.07889,-6.61004,22.9593,-1.23289,-0.160009,0.00660151,0.207814,-1.35112,1.0443,2.75806,-0.162934,-0.494661,-0.144354
3382413,0.98,-1.57171,-0.52238,-0.0011978,-2.0956,-1.57092,1.57206,0.785595,-1.57223,-0.522821,-0.000838086,-2.09338,-1.57128,1.57287,0.785237,-0.0788062,0.0410351,-0.0467613,0.0394293,-0.00335003,0.0659316,-0.0112823,-0.140053,0.07875,-0.0823175,0.09768,-0.0448513,0.208849,-0.0139983,-6.17919,-6.77737,-6.93933,23.0347,-1.27318,-0.0959217,-0.0510767,0.207033,-1.3612,1.06701,2.77754,-0.166233,-0.474375,-0.14382
3382414,0.98,-1.57181,-0.522329,-0.00125274,-2.09554,-1.57092,1.57217,0.785586,-1.57238,-0.522736,-0.000925941,-2.09328,-1.57133,1.57309,0.785223,-0.0859794,0.0447144,-0.0515244,0.0431421,-0.00378051,0.0797691,-0.00854736,-0.149352,0.084375,-0.0878552,0.103932,-0.0474508,0.223562,-0.0146513,-6.28234,-6.39651,-7.39557,23.1577,-1.3748,-0.0254261,-0.0510767,0.203302,-1.36399,1.08528,2.79795,-0.170061,-0.453456,-0.143046
3382415,0.98,-1.57192,-0.522269,-0.00132151,-2.09548,-1.57092,1.57229,0.785562,-1.57254,-0.522646,-0.00101933,-2.09317,-1.57138,1.57333,0.785208,-0.0938576,0.049621,-0.0563257,0.0477068,-0.00151836,0.0968927,-0.0147681,-0.15865,0.09,-0.0933928,0.110185,-0.0500504,0.238274,-0.0153043,-6.58385,-6.0712,-7.80023,23.2053,-1.42515,0.000208706,0.0459692,0.197625,-1.36379,1.10018,2.82073,-0.174475,-0.432014,-0.14209
3382416,0.98,-1.57204,-0.522191,-0.0014011,-2.09541,-1.57092,1.57245,0.785544,-1.57271,-0.522551,-0.00111826,-2.09305,-1.57143,1.57358,0.785192,-0.101377,0.0560155,-0.0617973,0.0555235,-0.0048682,0.113514,-0.0122388,-0.167949,0.095625,-0.0989304,0.116437,-0.0526499,0.252986,-0.0159573,-6.91314,-5.86887,-8.12951,23.1815,-1.46544,-0.0702869,0.0844213,0.190325,-1.36366,1.11204,2.84586,-0.179525,-0.410199,-0.140991
3382417,0.98,-1.57217,-0.522103,-0.00147426,-2.09533,-1.57093,1.57262,0.785522,-1.57288,-0.522449,-0.00122273,-2.09293,-1.57149,1.57385,0.785175,-0.115621,0.0651306,-0.0616464,0.0613463,-0.00867547,0.131613,-0.015239,-0.177247,0.10125,-0.104468,0.122689,-0.0552495,0.267699,-0.0166103,-7.11547,-5.71414,-8.63733,23.1577,-1.47093,-0.179235,0.129282,0.181467,-1.36805,1.1204,2.87348,-0.185259,-0.388212,-0.13967
3382418,0.98,-1.57232,-0.522016,-0.0015567,-2.09525,-1.57095,1.57281,0.785508,-1.57307,-0.522342,-0.00133274,-2.0928,-1.57155,1.57413,0.785158,-0.125007,0.0701143,-0.0672418,0.0687769,-0.0112416,0.151413,-0.0140725,-0.186546,0.106875,-0.110006,0.128942,-0.057849,0.282411,-0.0172632,-7.41698,-5.48801,-9.04199,23.1339,-1.48192,-0.23142,0.0844213,0.171112,-1.38038,1.12459,2.90391,-0.191698,-0.366324,-0.138003
3382419,0.98,-1.57247,-0.521916,-0.00163917,-2.09516,-1.57096,1.57302,0.785483,-1.57326,-0.52223,-0.00144828,-2.09266,-1.57161,1.57443,0.78514,-0.13533,0.0790923,-0.0696866,0.0744415,-0.0125371,0.170539,-0.0160082,-0.195844,0.1125,-0.115543,0.135194,-0.0604486,0.297123,-0.0179162,-7.61931,-5.36105,-9.39508,23.1061,-1.5048,-0.263463,0.110056,0.159133,-1.40073,1.12422,2.9368,-0.198808,-0.344838,-0.135919
3382420,0.98,-1.57263,-0.521832,-0.00172685,-2.09506,-1.57098,1.57325,0.785459,-1.57347,-0.52211,-0.00157033,-2.09252,-1.57167,1.57474,0.785121,-0.146345,0.0790661,-0.0744483,0.077901,-0.0143366,0.194695,-0.0168016,-0.206832,0.11999,-0.122052,0.14253,-0.0633133,0.314164,-0.0185597,-7.77007,-5.00797,-9.74817,23.1061,-1.5048,-0.346776,0.116465,0.145005,-1.42582,1.11862,2.9715,-0.206533,-0.324039,-0.13343
3382421,0.98,-1.5728,-0.521743,-0.00181448,-2.09497,-1.571,1.5735,0.785434,-1.57369,-0.521983,-0.00169889,-2.09237,-1.57174,1.57508,0.785102,-0.151076,0.079381,-0.0735666,0.0859888,-0.0148889,0.218674,-0.0214248,-0.217819,0.12748,-0.12856,0.149865,-0.0661779,0.331205,-0.0192033,-7.92083,-4.73026,-10.1568,23.1339,-1.52769,-0.40537,0.103647,0.126063,-1.44348,1.10377,3.00355,-0.214733,-0.30441,-0.130598
3382422,0.98,-1.57298,-0.521647,-0.0019062,-2.09487,-1.57102,1.57376,0.78541,-1.57392,-0.521848,-0.00183396,-2.09221,-1.5718,1.57542,0.785082,-0.15875,0.0856818,-0.076046,0.0930848,-0.013927,0.230344,-0.02364,-0.228806,0.13497,-0.135069,0.157201,-0.0690426,0.348246,-0.0198468,-8.17473,-4.47635,-10.4345,23.2331,-1.58354,-0.346776,0.0651953,0.0976293,-1.44342,1.07275,3.02792,-0.223307,-0.28668,-0.127491
3382423,0.98,-1.57317,-0.521548,-0.00199203,-2.09476,-1.57104,1.57404,0.785386,-1.57416,-0.521705,-0.00197554,-2.09205,-1.57188,1.57579,0.785062,-0.167506,0.0927357,-0.0801676,0.099278,-0.0174917,0.244571,-0.0255206,-0.239793,0.14246,-0.141578,0.164536,-0.0719072,0.365287,-0.0204903,-8.30169,-4.14706,-10.863,23.3322,-1.6522,-0.250646,0.0194189,0.0590431,-1.42977,1.0248,3.04597,-0.232311,-0.270959,-0.124165
3382424,0.98,-1.57338,-0.521435,-0.00208387,-2.09463,-1.57106,1.57434,0.785361,-1.57441,-0.521555,-0.00212363,-2.09188,-1.57195,1.57617,0.785041,-0.180295,0.0985636,-0.0830773,0.104427,-0.0200824,0.260298,-0.0274073,-0.250781,0.14995,-0.148086,0.171872,-0.0747719,0.382327,-0.0211338,-8.40087,-3.86935,-11.3192,23.2807,-1.73094,-0.179235,-0.0126246,0.0141365,-1.41101,0.965533,3.06224,-0.241822,-0.256612,-0.120703
3382425,0.99,-1.57358,-0.521312,-0.00219153,-2.0945,-1.57109,1.57468,0.785324,-1.57467,-0.521398,-0.00227822,-2.0917,-1.57203,1.57657,0.785019,-0.18803,0.107633,-0.0915382,0.112264,-0.0231691,0.281469,-0.0331374,-0.261768,0.15744,-0.154595,0.179207,-0.0776366,0.399368,-0.0217773,-8.73015,-3.49246,-11.6485,23.1815,-1.78221,-0.205785,0.0651953,-0.0328089,-1.39297,0.901149,3.08001,-0.251881,-0.242878,-0.11723
3382426,0.99,-1.5738,-0.521175,-0.00230363,-2.09436,-1.57112,1.57503,0.78529,-1.57494,-0.521233,-0.00243932,-2.09151,-1.57211,1.57699,0.784996,-0.19745,0.114162,-0.0976038,0.121805,-0.0260057,0.301184,-0.0310647,-0.272755,0.16493,-0.161103,0.186543,-0.0805012,0.416409,-0.0224208,-9.05547,-3.26236,-11.9778,23.0347,-1.81608,-0.340367,0.110056,-0.078782,-1.37858,0.836488,3.09984,-0.262477,-0.229188,-0.113845
3382427,0.99,-1.57404,-0.521029,-0.00241635,-2.09421,-1.57116,1.57541,0.785258,-1.57523,-0.52106,-0.00260694,-2.09132,-1.57219,1.57742,0.784973,-0.207351,0.123214,-0.102922,0.133788,-0.029515,0.322052,-0.0324913,-0.283743,0.17242,-0.167612,0.193879,-0.0833659,0.43345,-0.0230643,-9.28557,-3.06003,-12.4102,22.8086,-1.80968,-0.418187,0.110056,-0.122953,-1.36647,0.773209,3.11902,-0.27354,-0.215368,-0.11055
3382428,0.99,-1.57428,-0.520871,-0.00253837,-2.09406,-1.57122,1.5758,0.785227,-1.57552,-0.52088,-0.00278106,-2.09112,-1.57228,1.57787,0.78495,-0.218046,0.134486,-0.106758,0.138336,-0.0330461,0.351439,-0.0293981,-0.29473,0.17991,-0.17412,0.201214,-0.0862306,0.450491,-0.0237079,-9.48394,-2.88547,-12.8387,22.761,-1.7758,-0.463048,0.122873,-0.166514,-1.35911,0.709786,3.13759,-0.285114,-0.201793,-0.107266
3382429,0.99,-1.57454,-0.520711,-0.00267287,-2.09389,-1.57127,1.57621,0.785195,-1.57583,-0.520693,-0.00296168,-2.09091,-1.57237,1.57834,0.784925,-0.229315,0.140883,-0.117622,0.146487,-0.0396747,0.367855,-0.0311345,-0.305717,0.1874,-0.180629,0.20855,-0.0890952,0.467531,-0.0243514,-9.73784,-2.65536,-13.041,22.634,-1.75932,-0.482274,0.116465,-0.209174,-1.36159,0.646918,3.1589,-0.297245,-0.188691,-0.103909
3382430,0.99,-1.5748,-0.520549,-0.00279631,-2.09372,-1.57132,1.57664,0.785154,-1.57615,-0.520498,-0.00314924,-2.09069,-1.57246,1.57882,0.7849,-0.239017,0.144427,-0.118302,0.155831,-0.0391752,0.390773,-0.0305291,-0.317577,0.19489,-0.187559,0.216559,-0.0920749,0.485497,-0.0249921,-9.8886,-2.30228,-13.4457,22.5348,-1.75932,-0.553685,0.187876,-0.24988,-1.3674,0.586052,3.18072,-0.309714,-0.175895,-0.100455
3382431,0.99,-1.57508,-0.520381,-0.00292607,-2.09354,-1.57138,1.57709,0.785123,-1.57647,-0.520296,-0.00334373,-2.09047,-1.57256,1.57933,0.784875,-0.251749,0.151969,-0.120639,0.163959,-0.0482276,0.405683,-0.031181,-0.329438,0.20238,-0.194489,0.224568,-0.0950546,0.503463,-0.0256329,-10.0671,-2.07614,-13.775,22.511,-1.75932,-0.539952,0.16865,-0.291283,-1.36568,0.522562,3.19778,-0.322298,-0.163687,-0.0968906
3382432,0.99,-1.57536,-0.520211,-0.00306148,-2.09336,-1.57144,1.57756,0.78509,-1.57682,-0.520086,-0.00354515,-2.09023,-1.57265,1.57985,0.784848,-0.265035,0.153603,-0.127499,0.167945,-0.0482491,0.423826,-0.0324738,-0.341298,0.20987,-0.201419,0.232576,-0.0980343,0.521429,-0.0262736,-10.2933,-1.74686,-14.0289,22.5864,-1.81608,-0.482274,0.162241,-0.3343,-1.35148,0.454317,3.20884,-0.334888,-0.152135,-0.0931588
3382433,0.99,-1.57565,-0.520033,-0.00320385,-2.09316,-1.5715,1.57804,0.785068,-1.57717,-0.519869,-0.0037535,-2.08999,-1.57275,1.58039,0.784821,-0.272524,0.159834,-0.131568,0.178881,-0.0541866,0.438731,-0.0251299,-0.353158,0.21736,-0.208348,0.240585,-0.101014,0.539395,-0.0269144,-10.4202,-1.56833,-14.3066,22.6102,-1.84447,-0.431005,0.0587866,-0.377543,-1.32092,0.383364,3.21349,-0.347382,-0.140869,-0.0892422
3382434,0.99,-1.57596,-0.519844,-0.00334975,-2.09295,-1.57156,1.57855,0.785036,-1.57753,-0.519644,-0.00396878,-2.08974,-1.57286,1.58095,0.784794,-0.285104,0.168304,-0.133657,0.185691,-0.0578848,0.454275,-0.0279777,-0.365018,0.22485,-0.215278,0.248594,-0.103994,0.55736,-0.0275552,-10.4956,-1.44534,-14.6359,22.6618,-1.89482,-0.40537,0.0459692,-0.422659,-1.27498,0.307742,3.21188,-0.35982,-0.129957,-0.0852111
3382435,0.99,-1.57627,-0.519643,-0.00350498,-2.09274,-1.57163,1.5791,0.785002,-1.57791,-0.519411,-0.00419099,-2.08949,-1.57297,1.58152,0.784766,-0.296804,0.17519,-0.137465,0.194305,-0.0612081,0.480971,-0.0305017,-0.376878,0.23234,-0.222208,0.256603,-0.106973,0.575326,-0.0281959,-10.7971,-1.46915,-14.866,22.7332,-1.9232,-0.495092,0.0459692,-0.471566,-1.22055,0.224697,3.20685,-0.372366,-0.119631,-0.0811958
3382436,0.99,-1.5766,-0.519433,-0.00366704,-2.09251,-1.57171,1.57966,0.784971,-1.5783,-0.519172,-0.00442012,-2.08922,-1.57308,1.58211,0.784737,-0.307907,0.185531,-0.14434,0.204615,-0.0640052,0.506259,-0.0279797,-0.388738,0.23983,-0.229138,0.264612,-0.109953,0.593292,-0.0288367,-10.9756,-1.5961,-15.0405,22.7848,-1.95158,-0.604955,0.0523779,-0.524063,-1.16371,0.134766,3.20086,-0.385105,-0.109963,-0.0773323
3382437,0.99,-1.57695,-0.519223,-0.00382302,-2.09226,-1.57179,1.58024,0.784938,-1.5787,-0.518924,-0.00465619,-2.08895,-1.57319,1.58273,0.784707,-0.319768,0.194793,-0.149705,0.216412,-0.0723167,0.531748,-0.0259147,-0.400598,0.24732,-0.236068,0.272621,-0.112933,0.611258,-0.0294774,-11.0986,-1.56833,-15.346,22.7848,-1.9406,-0.67545,0.0587866,-0.578878,-1.10917,0.0406424,3.19454,-0.398005,-0.100974,-0.0737022
3382438,0.99,-1.5773,-0.519003,-0.00399792,-2.092,-1.57188,1.58083,0.784909,-1.57911,-0.518669,-0.00489919,-2.08867,-1.5733,1.58336,0.784677,-0.329361,0.205079,-0.156179,0.230422,-0.0792968,0.550731,-0.0275847,-0.412459,0.25481,-0.242998,0.28063,-0.115912,0.629224,-0.0301182,-11.2018,-1.54453,-15.5483,22.7094,-1.90581,-0.707494,0.0258276,-0.635075,-1.05887,-0.0555706,3.18665,-0.410946,-0.092727,-0.0703295
3382439,0.99,-1.57766,-0.51878,-0.00418033,-2.09175,-1.57197,1.58146,0.78487,-1.57954,-0.518407,-0.00514912,-2.08838,-1.57342,1.584,0.784646,-0.339519,0.21076,-0.162115,0.235429,-0.0787551,0.570381,-0.028082,-0.424319,0.2623,-0.249928,0.288638,-0.118892,0.64719,-0.0307589,-11.4279,-1.54453,-15.6991,22.8363,-1.89482,-0.746862,0.0972387,-0.692429,-1.01189,-0.15314,3.17655,-0.423863,-0.085259,-0.0672194
3382440,0.99,-1.57804,-0.518545,-0.00436618,-2.09149,-1.57206,1.58211,0.784828,-1.57997,-0.518137,-0.00540593,-2.08808,-1.57355,1.58467,0.784615,-0.350491,0.2164,-0.166512,0.253882,-0.0822143,0.586724,-0.0327769,-0.43633,0.26979,-0.256813,0.297,-0.12186,0.665307,-0.031405,-11.5271,-1.54453,-15.8499,22.8363,-1.90031,-0.842992,0.162241,-0.75103,-0.962117,-0.252267,3.16234,-0.436667,-0.0785035,-0.0643714
3382441,0.99,-1.57843,-0.518306,-0.00455168,-2.09121,-1.57216,1.58276,0.78479,-1.58042,-0.51786,-0.00566963,-2.08778,-1.57367,1.58535,0.784583,-0.365719,0.226108,-0.170942,0.259726,-0.0901007,0.612821,-0.0343862,-0.448341,0.27728,-0.263698,0.305361,-0.124828,0.683424,-0.0320511,-11.6064,-1.56833,-16.0522,22.8363,-1.87834,-0.92722,0.187876,-0.810601,-0.904166,-0.353008,3.14131,-0.449171,-0.072436,-0.0617002
3382442,0.99,-1.57884,-0.518053,-0.00474949,-2.09092,-1.57225,1.58342,0.784761,-1.58088,-0.517575,-0.00594021,-2.08747,-1.5738,1.58605,0.78455,-0.378293,0.232992,-0.180329,0.266355,-0.0902531,0.628408,-0.0322427,-0.460351,0.28477,-0.270583,0.313722,-0.127796,0.701541,-0.0326972,-11.6064,-1.64767,-16.1553,22.8601,-1.90031,-0.791722,0.116465,-0.868784,-0.843182,-0.452048,3.11788,-0.461381,-0.0669179,-0.0590248
3382443,0.99,-1.57924,-0.517789,-0.00495696,-2.09063,-1.57234,1.58411,0.784735,-1.58135,-0.517283,-0.00621768,-2.08714,-1.57393,1.58677,0.784517,-0.389546,0.240522,-0.188416,0.27512,-0.0932484,0.641993,-0.0308933,-0.472362,0.29226,-0.277469,0.322083,-0.130764,0.719658,-0.0333433,-11.6818,-1.77066,-16.2069,22.8839,-1.96806,-0.67545,0.0459692,-0.922123,-0.784473,-0.543984,3.09751,-0.473389,-0.0614612,-0.056227
3382444,0.99,-1.57967,-0.51752,-0.00516859,-2.09031,-1.57245,1.58481,0.784704,-1.58184,-0.516983,-0.00650203,-2.08681,-1.57406,1.58751,0.784483,-0.403949,0.251145,-0.191058,0.286232,-0.0984571,0.659031,-0.0315561,-0.484373,0.29975,-0.284354,0.330444,-0.133732,0.737775,-0.0339894,-11.654,-1.92538,-16.2585,22.8086,-1.96806,-0.688268,0.0130102,-0.970027,-0.729664,-0.627932,3.08102,-0.48524,-0.0557511,-0.053341
3382445,0.99,-1.5801,-0.517233,-0.00538631,-2.09,-1.57255,1.58556,0.784669,-1.58234,-0.516676,-0.00679327,-2.08647,-1.5742,1.58827,0.784448,-0.413235,0.261642,-0.201867,0.297683,-0.105392,0.681104,-0.0329161,-0.496384,0.30724,-0.291239,0.338805,-0.1367,0.755892,-0.0346355,-11.8048,-2.15152,-16.3339,22.761,-2.00834,-0.823766,0.000192821,-1.01403,-0.682383,-0.706164,3.06825,-0.496994,-0.0498371,-0.0504933
3382446,0.99,-1.58054,-0.516943,-0.00561515,-2.08968,-1.57267,1.58629,0.784626,-1.58284,-0.516361,-0.0070914,-2.08613,-1.57434,1.58904,0.784413,-0.423954,0.273639,-0.212479,0.301119,-0.111705,0.704049,-0.0359875,-0.508395,0.31473,-0.298124,0.347166,-0.139669,0.774009,-0.0352816,-11.781,-2.30228,-16.4092,22.7848,-2.02482,-0.842992,0.0459692,-1.05404,-0.649508,-0.777559,3.06193,-0.508735,-0.0437321,-0.0478031
3382447,0.99,-1.581,-0.516644,-0.00585511,-2.08934,-1.57278,1.58705,0.784598,-1.58336,-0.516039,-0.00739641,-2.08577,-1.57448,1.58983,0.784377,-0.433437,0.282382,-0.22742,0.308878,-0.112381,0.718276,-0.0292861,-0.520406,0.32222,-0.30501,0.355528,-0.142637,0.792126,-0.0359277,-11.781,-2.53238,-16.4092,22.7094,-2.01933,-0.746862,-0.0190333,-1.08774,-0.6376,-0.837362,3.06689,-0.520617,-0.0371842,-0.045325
3382448,1,-1.58146,-0.516342,-0.00609283,-2.089,-1.57291,1.58784,0.784567,-1.5839,-0.515709,-0.0077083,-2.08541,-1.57463,1.59064,0.784341,-0.441402,0.287496,-0.23009,0.316953,-0.118205,0.731881,-0.0269996,-0.532417,0.32971,-0.311895,0.363889,-0.145605,0.810243,-0.0365738,-11.7572,-2.60776,-16.56,22.6856,-1.99095,-0.759679,-0.0126246,-1.11526,-0.642114,-0.885542,3.08181,-0.532709,-0.0300874,-0.0430974
3382449,1,-1.58194,-0.516035,-0.00635048,-2.08864,-1.57304,1.58863,0.78453,-1.58444,-0.515372,-0.00802708,-2.08504,-1.57478,1.59147,0.784303,-0.447347,0.295497,-0.238029,0.328151,-0.123249,0.758944,-0.0253076,-0.544428,0.3372,-0.31878,0.37225,-0.148573,0.82836,-0.0372199,-11.9079,-2.68314,-16.5878,22.7094,-1.94609,-0.810948,-0.00621587,-1.14265,-0.651309,-0.931632,3.09988,-0.544965,-0.0231545,-0.0411887
3382450,1,-1.58242,-0.515712,-0.00661321,-2.08828,-1.57318,1.58947,0.784486,-1.585,-0.515027,-0.0083525,-2.08465,-1.57493,1.59232,0.784265,-0.458969,0.302133,-0.246105,0.335119,-0.130306,0.775104,-0.031307,-0.556159,0.34469,-0.325418,0.380743,-0.151394,0.846056,-0.0378556,-12.1579,-2.75851,-16.5362,22.6856,-1.9406,-0.913488,0.0780126,-1.17411,-0.658502,-0.982372,3.11652,-0.557237,-0.0170025,-0.0396324
3382451,1,-1.58292,-0.515384,-0.00687009,-2.08792,-1.57331,1.5903,0.784441,-1.58556,-0.514675,-0.00868456,-2.08427,-1.57508,1.59318,0.784227,-0.471583,0.309544,-0.249826,0.34783,-0.129859,0.792398,-0.0353081,-0.56789,0.35218,-0.332056,0.389236,-0.154216,0.863753,-0.0384913,-12.2848,-2.83389,-16.6869,22.7332,-1.95708,-0.887853,0.149424,-1.2089,-0.660667,-1.03736,3.12948,-0.569318,-0.0115426,-0.0383683
3382452,1,-1.58345,-0.515037,-0.00713531,-2.08755,-1.57344,1.59114,0.78441,-1.58614,-0.514316,-0.00902325,-2.08387,-1.57524,1.59406,0.784188,-0.482202,0.318665,-0.254125,0.354038,-0.128519,0.803406,-0.0333692,-0.579621,0.35967,-0.338694,0.397729,-0.157037,0.88145,-0.039127,-12.2848,-2.96085,-16.9409,22.761,-2.00834,-0.75327,0.09083,-1.24716,-0.657666,-1.09749,3.13824,-0.581189,-0.00678483,-0.0372411
3382453,1,-1.58395,-0.514678,-0.00741352,-2.08717,-1.57358,1.59203,0.784372,-1.58674,-0.513948,-0.00936858,-2.08346,-1.5754,1.59496,0.784148,-0.504764,0.328622,-0.259135,0.362511,-0.132587,0.819939,-0.0344073,-0.591352,0.36716,-0.345331,0.406222,-0.159859,0.899146,-0.0397627,-12.511,-3.18698,-16.9924,22.7848,-2.04222,-0.772496,0.09083,-1.28742,-0.655145,-1.16133,3.14611,-0.592989,-0.00246673,-0.0360711
3382454,1,-1.58447,-0.514323,-0.00770496,-2.08678,-1.57372,1.59293,0.784339,-1.58734,-0.513574,-0.00972055,-2.08305,-1.57556,1.59588,0.784108,-0.511166,0.337235,-0.267725,0.369854,-0.136562,0.848014,-0.0330746,-0.603083,0.37465,-0.351969,0.414716,-0.16268,0.916843,-0.0403983,-12.7887,-3.33774,-16.9409,22.9077,-2.06419,-0.907079,0.038645,-1.32644,-0.658889,-1.22443,3.15666,-0.604785,0.00191667,-0.0347737
3382455,1,-1.58503,-0.513948,-0.00799162,-2.08637,-1.57386,1.59387,0.784293,-1.58795,-0.513192,-0.0100792,-2.08262,-1.57573,1.59681,0.784067,-0.52276,0.349173,-0.271569,0.382298,-0.138986,0.865621,-0.0360863,-0.614813,0.38214,-0.358607,0.423209,-0.165502,0.93454,-0.041034,-12.7649,-3.49246,-17.0162,23.0069,-2.09807,-1.04899,0.0844213,-1.36595,-0.671736,-1.28805,3.17054,-0.616633,0.00604401,-0.0333735
3382456,1,-1.58559,-0.51357,-0.00828179,-2.08597,-1.57401,1.59482,0.78426,-1.58858,-0.512802,-0.0104444,-2.08219,-1.57589,1.59776,0.784025,-0.534782,0.351366,-0.27444,0.390085,-0.141061,0.889543,-0.0338563,-0.626544,0.38963,-0.365245,0.431702,-0.168323,0.952236,-0.0416697,-12.7411,-3.56784,-17.0916,23.1815,-2.12645,-1.02976,0.0194189,-1.41011,-0.690105,-1.35726,3.18509,-0.628591,0.00919209,-0.0319374
3382457,1,-1.58615,-0.513185,-0.00858963,-2.08556,-1.57417,1.59576,0.78422,-1.58922,-0.512405,-0.0108163,-2.08175,-1.57607,1.59873,0.783983,-0.547679,0.36438,-0.287014,0.395547,-0.149277,0.90237,-0.0391965,-0.638275,0.39712,-0.371883,0.440195,-0.171145,0.969933,-0.0423054,-12.7887,-3.7424,-16.9924,23.3561,-2.10997,-1.01053,0.00660151,-1.45802,-0.709622,-1.43059,3.1994,-0.640665,0.011365,-0.0305092
3382458,1,-1.58672,-0.512788,-0.00889279,-2.08514,-1.57433,1.59673,0.784183,-1.58987,-0.512,-0.0111948,-2.0813,-1.57624,1.59972,0.78394,-0.550704,0.37226,-0.293278,0.409523,-0.155145,0.916972,-0.037878,-0.650006,0.40461,-0.378521,0.448688,-0.173966,0.98763,-0.042941,-12.8918,-3.94473,-17.0162,23.4314,-2.08708,-0.933629,-0.0126246,-1.50676,-0.733177,-1.5028,3.21562,-0.652847,0.0129483,-0.0291308
3382459,1,-1.58732,-0.51239,-0.00920578,-2.08471,-1.57449,1.59771,0.784146,-1.59053,-0.511588,-0.01158,-2.08085,-1.57642,1.60073,0.783896,-0.564828,0.382698,-0.297298,0.4158,-0.162434,0.941469,-0.0372089,-0.661737,0.4121,-0.385158,0.457181,-0.176788,1.00533,-0.0435767,-12.8918,-4.09946,-17.04,23.5306,-2.08159,-0.868627,-0.0318506,-1.55797,-0.762424,-1.57555,3.23363,-0.665122,0.013727,-0.0278799
3382460,1,-1.58793,-0.511972,-0.00953494,-2.08427,-1.57465,1.59873,0.784089,-1.5912,-0.511169,-0.0119714,-2.08038,-1.5766,1.60175,0.783852,-0.577001,0.392069,-0.314684,0.423272,-0.158539,0.96029,-0.037961,-0.67288,0.41959,-0.391471,0.465648,-0.179286,1.02224,-0.0441857,-12.8918,-4.27402,-16.9409,23.6298,-2.10448,-0.849401,0.110056,-1.60983,-0.79922,-1.64619,3.25512,-0.677443,0.0140294,-0.0268269
3382461,1,-1.58855,-0.511551,-0.00988024,-2.08382,-1.5748,1.59977,0.784048,-1.59189,-0.510742,-0.0123692,-2.07991,-1.57678,1.60279,0.783807,-0.593937,0.398505,-0.322372,0.429543,-0.159409,0.978051,-0.0380705,-0.684022,0.42708,-0.397783,0.474115,-0.181784,1.03915,-0.0447946,-12.7411,-4.32559,-16.7385,23.5782,-2.15483,-0.791722,0.122873,-1.65427,-0.844396,-1.70314,3.28248,-0.68968,0.0152616,-0.0259634
3382462,1,-1.5892,-0.511128,-0.0102239,-2.08336,-1.57496,1.60082,0.784,-1.59258,-0.510307,-0.0127733,-2.07942,-1.57696,1.60385,0.783762,-0.604134,0.407203,-0.330724,0.436297,-0.161924,1.00702,-0.0395662,-0.695165,0.43457,-0.404096,0.482581,-0.184282,1.05606,-0.0454036,-12.5387,-4.40097,-16.6631,23.5306,-2.16032,-0.894261,0.175059,-1.68858,-0.894609,-1.74308,3.31536,-0.701785,0.0180072,-0.0251625
3382463,1,-1.58987,-0.5107,-0.0105814,-2.0829,-1.57513,1.6019,0.783965,-1.59329,-0.509865,-0.0131837,-2.07893,-1.57715,1.60492,0.783716,-0.62089,0.41221,-0.339653,0.443864,-0.159586,1.0249,-0.0409331,-0.706307,0.44206,-0.410408,0.491048,-0.18678,1.07297,-0.0460126,-12.3364,-4.32559,-16.4846,23.5306,-2.14934,-0.997716,0.103647,-1.71471,-0.945987,-1.76964,3.35217,-0.713811,0.0219908,-0.0242637
3382464,1,-1.59052,-0.510265,-0.0109588,-2.08243,-1.5753,1.60297,0.783926,-1.59401,-0.509415,-0.0136004,-2.07843,-1.57734,1.60601,0.783669,-0.633364,0.418682,-0.34769,0.452983,-0.162145,1.05878,-0.038723,-0.71745,0.44955,-0.41672,0.499515,-0.189279,1.08988,-0.0466215,-12.261,-4.30179,-16.2069,23.3799,-2.14934,-1.01053,0.0651953,-1.73329,-0.992293,-1.78472,3.38925,-0.7257,0.0269677,-0.0231859
3382465,1,-1.5912,-0.509809,-0.0113394,-2.08195,-1.57547,1.60408,0.783882,-1.59473,-0.508958,-0.0140235,-2.07792,-1.57753,1.60711,0.783622,-0.65392,0.430241,-0.362739,0.458455,-0.164162,1.07285,-0.0381452,-0.728593,0.45704,-0.423033,0.507981,-0.191777,1.1068,-0.0472305,-12.1341,-4.42477,-16.0046,23.2331,-2.14384,-0.997716,0.0523779,-1.74187,-1.03332,-1.78545,3.42569,-0.737352,0.0329861,-0.0219449
3382466,1,-1.59189,-0.509351,-0.011714,-2.08146,-1.57565,1.60519,0.783834,-1.59547,-0.508494,-0.0144528,-2.07741,-1.57772,1.60824,0.783574,-0.666025,0.434608,-0.366838,0.469551,-0.164939,1.07801,-0.0392016,-0.739735,0.46453,-0.429345,0.516448,-0.194275,1.12371,-0.0478395,-11.8802,-4.50412,-15.9292,23.0823,-2.14934,-0.972081,0.0844213,-1.73712,-1.07219,-1.76742,3.46215,-0.74872,0.0404679,-0.0206078
3382467,1,-1.5926,-0.508885,-0.0121042,-2.08095,-1.57582,1.60629,0.78379,-1.59623,-0.508022,-0.0148885,-2.07688,-1.57792,1.60938,0.783526,-0.674432,0.44186,-0.373142,0.481891,-0.166257,1.08951,-0.0436771,-0.750878,0.47202,-0.435658,0.524915,-0.196773,1.14062,-0.0484484,-11.7572,-4.62711,-15.826,22.8839,-2.14384,-0.90067,0.09083,-1.72327,-1.10288,-1.73727,3.49358,-0.759805,0.0490216,-0.0192511
3382468,1,-1.59332,-0.508417,-0.0125052,-2.08044,-1.576,1.60741,0.783747,-1.59699,-0.507542,-0.0153304,-2.07635,-1.57812,1.61054,0.783477,-0.679871,0.444176,-0.381869,0.489293,-0.172467,1.0887,-0.045154,-0.76202,0.47951,-0.44197,0.533381,-0.199271,1.15753,-0.0490574,-11.6818,-4.62711,-15.7269,22.761,-2.12645,-0.785314,0.0523779,-1.70805,-1.11705,-1.70619,3.51406,-0.770625,0.0577658,-0.0179101
3382469,1,-1.59405,-0.507954,-0.012925,-2.07991,-1.57618,1.60854,0.783705,-1.59776,-0.507055,-0.0157787,-2.07581,-1.57832,1.61171,0.783427,-0.692838,0.457802,-0.391222,0.500786,-0.177385,1.1211,-0.0464329,-0.773163,0.487,-0.448282,0.541848,-0.201769,1.17444,-0.0496664,-11.4517,-4.55173,-15.6237,22.5348,-2.09807,-0.759679,0.00660151,-1.69443,-1.1162,-1.67788,3.52373,-0.78119,0.0663502,-0.0165881
3382470,1,-1.5948,-0.507473,-0.0133515,-2.07938,-1.57637,1.60971,0.783669,-1.59854,-0.506561,-0.0162329,-2.07526,-1.57853,1.6129,0.783377,-0.708549,0.464009,-0.398214,0.510098,-0.181689,1.13003,-0.0415822,-0.783511,0.49449,-0.454216,0.550188,-0.203869,1.19032,-0.0502277,-11.3525,-4.52792,-15.4214,22.4872,-2.05321,-0.907079,-0.0712183,-1.68107,-1.1097,-1.65053,3.5261,-0.791467,0.0748256,-0.0153282
3382471,1,-1.59555,-0.506987,-0.0137866,-2.07884,-1.57656,1.61091,0.783633,-1.59934,-0.506059,-0.0166931,-2.0747,-1.57873,1.61411,0.783326,-0.740355,0.468554,-0.406067,0.52273,-0.188552,1.13961,-0.0385874,-0.79386,0.50198,-0.46015,0.558529,-0.205969,1.2062,-0.0507891,-11.3287,-4.42477,-15.2191,22.388,-2.02482,-1.04258,-0.135305,-1.66052,-1.09734,-1.61544,3.52047,-0.801181,0.0842671,-0.0142471
3382472,1,-1.59634,-0.506498,-0.0142223,-2.07827,-1.57676,1.61209,0.783594,-1.60014,-0.505549,-0.0171592,-2.07413,-1.57894,1.61533,0.783275,-0.762111,0.474312,-0.410333,0.535259,-0.197099,1.14563,-0.0370695,-0.804208,0.50947,-0.466084,0.566869,-0.208068,1.22209,-0.0513505,-11.1502,-4.40097,-15.1675,22.1619,-2.01384,-1.10026,-0.181082,-1.62333,-1.06982,-1.56175,3.50199,-0.80988,0.0960577,-0.0135155
3382473,1,-1.59714,-0.505998,-0.0146614,-2.07769,-1.57695,1.61331,0.783552,-1.60096,-0.505032,-0.0176312,-2.07356,-1.57915,1.61657,0.783223,-0.770668,0.481111,-0.415512,0.547004,-0.198276,1.15295,-0.037388,-0.814557,0.51696,-0.472018,0.575209,-0.210168,1.23797,-0.0519118,-11.0232,-4.40097,-15.0921,22.0905,-2.04771,-1.1973,-0.18749,-1.57084,-1.02385,-1.4918,3.46864,-0.817466,0.109806,-0.013311
3382474,1,-1.59792,-0.505481,-0.0151075,-2.07712,-1.57716,1.61456,0.783504,-1.60178,-0.504508,-0.0181091,-2.07297,-1.57936,1.61782,0.78317,-0.778508,0.494201,-0.422635,0.553434,-0.195852,1.17311,-0.0392092,-0.824905,0.52445,-0.477951,0.583549,-0.212267,1.25385,-0.0524732,-11.051,-4.42477,-15.0167,21.9873,-2.04771,-1.36484,-0.149038,-1.514,-0.969427,-1.41911,3.42604,-0.824397,0.123519,-0.013757
3382475,1,-1.59872,-0.504962,-0.0155701,-2.07653,-1.57735,1.61578,0.78347,-1.60262,-0.503976,-0.018593,-2.07238,-1.57958,1.61909,0.783117,-0.78227,0.501093,-0.432433,0.560954,-0.193647,1.18333,-0.0369772,-0.835253,0.53194,-0.483885,0.59189,-0.214367,1.26973,-0.0530346,-11.1264,-4.47635,-14.8898,21.9873,-2.05321,-1.30076,-0.200308,-1.4621,-0.922341,-1.35404,3.38408,-0.831277,0.135323,-0.0148733
3382476,1,-1.59952,-0.504441,-0.0160175,-2.07595,-1.57755,1.61701,0.783437,-1.60346,-0.503437,-0.0190829,-2.07178,-1.57979,1.62038,0.783064,-0.790178,0.497598,-0.442842,0.579001,-0.190805,1.18564,-0.0366995,-0.845602,0.53943,-0.489819,0.60023,-0.216466,1.28561,-0.0535959,-11.3525,-4.47635,-15.0405,22.1619,-2.08708,-1.01053,-0.219534,-1.41795,-0.875754,-1.2988,3.34025,-0.838167,0.144702,-0.0166596
3382477,1,-1.60032,-0.503914,-0.0164768,-2.07535,-1.57775,1.61824,0.783411,-1.60432,-0.50289,-0.0195786,-2.07117,-1.58001,1.62168,0.783009,-0.799538,0.509448,-0.440343,0.583291,-0.196931,1.1952,-0.0332698,-0.85595,0.54692,-0.495753,0.60857,-0.218566,1.30149,-0.0541573,-11.5271,-4.50412,-15.1952,22.2373,-2.13286,-0.80454,-0.322988,-1.38314,-0.81396,-1.25553,3.28657,-0.844916,0.151779,-0.0191235
3382478,1,-1.60114,-0.503381,-0.0169446,-2.07474,-1.57796,1.61954,0.783365,-1.60518,-0.502335,-0.0200803,-2.07056,-1.58023,1.623,0.782955,-0.809161,0.515416,-0.453197,0.588527,-0.197486,1.20819,-0.0336959,-0.866298,0.55441,-0.501687,0.61691,-0.220666,1.31738,-0.0547187,-11.6818,-4.40097,-15.1952,22.3365,-2.1887,-0.933629,-0.225942,-1.35991,-0.745605,-1.22741,3.22958,-0.851837,0.156654,-0.0222358
3382479,1,-1.60197,-0.502841,-0.0174169,-2.07414,-1.57817,1.62086,0.783324,-1.60606,-0.501773,-0.0205879,-2.06993,-1.58045,1.62433,0.782899,-0.824112,0.518576,-0.457574,0.592157,-0.198407,1.23373,-0.03582,-0.876647,0.5619,-0.50762,0.625251,-0.222765,1.33326,-0.05528,-11.7056,-4.37717,-15.2706,22.511,-2.23448,-1.06821,-0.193899,-1.34558,-0.681098,-1.21006,3.17827,-0.859193,0.160103,-0.0259661
3382480,1,-1.60284,-0.502287,-0.0178858,-2.07352,-1.57839,1.6222,0.783283,-1.60695,-0.501204,-0.0211011,-2.0693,-1.58068,1.62568,0.782844,-0.842547,0.52902,-0.457889,0.597335,-0.206495,1.26111,-0.0373163,-0.886064,0.56939,-0.513141,0.633417,-0.224438,1.34795,-0.0557631,-11.5549,-4.45255,-15.473,22.5626,-2.21709,-1.33921,-0.161856,-1.33741,-0.622893,-1.20012,3.13626,-0.867078,0.162515,-0.0302022
3382481,1,-1.60371,-0.501723,-0.0183689,-2.0729,-1.57861,1.62353,0.783255,-1.60784,-0.500627,-0.0216197,-2.06866,-1.58091,1.62704,0.782787,-0.853358,0.534749,-0.466237,0.602307,-0.208126,1.28186,-0.03367,-0.895481,0.57688,-0.518662,0.641583,-0.226112,1.36264,-0.0562461,-11.5033,-4.50412,-15.346,22.7332,-2.17772,-1.34562,-0.252493,-1.33525,-0.576751,-1.1983,3.1069,-0.875624,0.163496,-0.0347425
3382482,1,-1.60457,-0.501138,-0.0188672,-2.07228,-1.57883,1.62485,0.783213,-1.60875,-0.500043,-0.0221439,-2.06801,-1.58113,1.62842,0.782731,-0.861255,0.554701,-0.472201,0.602967,-0.215855,1.29363,-0.0359612,-0.904898,0.58437,-0.524183,0.649749,-0.227785,1.37733,-0.0567292,-11.6064,-4.80563,-15.2944,22.8839,-2.09807,-1.30716,-0.219534,-1.33864,-0.555342,-1.20341,3.09644,-0.885006,0.162665,-0.0394157
3382483,1,-1.60544,-0.500549,-0.0193746,-2.07164,-1.57906,1.6262,0.783168,-1.60966,-0.499451,-0.0226736,-2.06735,-1.58136,1.62981,0.782673,-0.859414,0.569417,-0.483553,0.612909,-0.218628,1.31045,-0.038451,-0.914316,0.59186,-0.529705,0.657915,-0.229458,1.39201,-0.0572122,-11.6818,-5.05954,-15.2706,22.9831,-2.08708,-1.17807,-0.161856,-1.34945,-0.57822,-1.2161,3.11326,-0.89541,0.159475,-0.0441206
3382484,1,-1.60632,-0.499948,-0.0198722,-2.07101,-1.57928,1.62756,0.783115,-1.61059,-0.498851,-0.0232088,-2.06668,-1.58159,1.63122,0.782616,-0.848789,0.571658,-0.484078,0.61672,-0.217382,1.30947,-0.0418682,-0.923733,0.59935,-0.535226,0.66608,-0.231132,1.4067,-0.0576952,-11.654,-5.28568,-15.1675,23.1577,-2.15483,-0.97849,-0.0584009,-1.37555,-0.644412,-1.24546,3.15482,-0.906811,0.153037,-0.0488134
3382485,1,-1.60722,-0.499353,-0.0203854,-2.07037,-1.57949,1.62894,0.78305,-1.61152,-0.498245,-0.0237496,-2.06601,-1.58183,1.63264,0.782558,-0.866904,0.579744,-0.490431,0.623065,-0.216381,1.32897,-0.0511996,-0.93315,0.60684,-0.540747,0.674246,-0.232805,1.42139,-0.0581783,-11.4517,-5.4642,-15.0405,23.3322,-2.23997,-0.881444,0.110056,-1.42211,-0.732123,-1.29914,3.21035,-0.918978,0.143285,-0.0534042
3382486,1,-1.60815,-0.498752,-0.0208969,-2.06971,-1.57971,1.63031,0.783005,-1.61246,-0.49763,-0.0242958,-2.06533,-1.58206,1.63407,0.782499,-0.878812,0.58302,-0.498993,0.630936,-0.212374,1.32905,-0.0497421,-0.942567,0.61433,-0.546268,0.682412,-0.234478,1.43608,-0.0586613,-11.2018,-5.43643,-14.9136,23.3799,-2.30223,-0.67545,0.0651953,-1.47949,-0.822866,-1.36584,3.27098,-0.931493,0.132298,-0.0576633
3382487,1,-1.60906,-0.498146,-0.0214144,-2.06905,-1.57993,1.63171,0.782957,-1.61341,-0.497008,-0.0248476,-2.06464,-1.5823,1.63552,0.78244,-0.89673,0.601551,-0.50132,0.638442,-0.215858,1.34687,-0.0498575,-0.951985,0.62182,-0.551789,0.690578,-0.236152,1.45077,-0.0591444,-11.051,-5.48801,-14.8144,23.3561,-2.31322,-0.649816,0.0322363,-1.53497,-0.912859,-1.42976,3.33351,-0.94411,0.122414,-0.0612978
3382488,1,-1.60997,-0.497533,-0.0219535,-2.06839,-1.58015,1.63315,0.782907,-1.61437,-0.496379,-0.0254049,-2.06394,-1.58253,1.63699,0.78238,-0.896593,0.604179,-0.513591,0.643792,-0.224049,1.37864,-0.0494153,-0.961402,0.62931,-0.55731,0.698744,-0.237825,1.46546,-0.0596274,-11.2018,-5.38882,-14.5367,23.3799,-2.29674,-0.733129,-0.0190333,-1.58531,-1.00821,-1.48696,3.39964,-0.956875,0.114212,-0.064151
3382489,1,-1.6109,-0.496901,-0.0224759,-2.06771,-1.58037,1.63462,0.782841,-1.61535,-0.495742,-0.0259678,-2.06323,-1.58277,1.63847,0.78232,-0.909025,0.613696,-0.51335,0.666513,-0.224696,1.39893,-0.0578923,-0.970819,0.6368,-0.562831,0.70691,-0.239498,1.48015,-0.0601105,-11.2018,-5.41263,-14.5089,23.3084,-2.28483,-0.913488,0.0322363,-1.63343,-1.10065,-1.54133,3.46258,-0.969598,0.107187,-0.0663021
3382490,1,-1.61187,-0.49627,-0.0230075,-2.06703,-1.58059,1.63606,0.78277,-1.61632,-0.495098,-0.0265357,-2.06251,-1.58302,1.63996,0.78226,-0.928234,0.620246,-0.517333,0.671168,-0.225377,1.40927,-0.0605209,-0.979214,0.64429,-0.567921,0.714902,-0.240731,1.49354,-0.060467,-10.8487,-5.51181,-14.5367,23.1061,-2.36449,-0.810948,0.116465,-1.68014,-1.17655,-1.59508,3.51209,-0.981982,0.101158,-0.0679003
3382491,1,-1.61283,-0.495622,-0.0235336,-2.06633,-1.58081,1.63751,0.78271,-1.61731,-0.494446,-0.0271087,-2.06179,-1.58326,1.64147,0.782199,-0.937135,0.629234,-0.524308,0.678174,-0.219602,1.42183,-0.0632176,-0.98761,0.65178,-0.573012,0.722894,-0.241964,1.50693,-0.0608235,-10.8209,-5.56339,-14.5843,22.9831,-2.40385,-0.611364,0.0972387,-1.72164,-1.237,-1.64384,3.54997,-0.994104,0.0965688,-0.0689709
3382492,1,-1.61378,-0.494963,-0.0240771,-2.06563,-1.58103,1.63902,0.782641,-1.61831,-0.493787,-0.0276868,-2.06106,-1.5835,1.64299,0.782138,-0.938868,0.632315,-0.529991,0.684813,-0.217581,1.42995,-0.0625573,-0.996005,0.65927,-0.578102,0.730886,-0.243196,1.52032,-0.06118,-10.9241,-5.69034,-14.6359,22.8363,-2.38096,-0.63059,0.129282,-1.75787,-1.28546,-1.68708,3.58124,-1.00629,0.0934745,-0.0694806
3382493,1,-1.61475,-0.494314,-0.0246345,-2.06491,-1.58125,1.64052,0.782589,-1.61931,-0.49312,-0.02827,-2.06032,-1.58374,1.64452,0.782076,-0.942329,0.643569,-0.535614,0.691596,-0.224169,1.458,-0.0604009,-1.0044,0.66676,-0.583193,0.738878,-0.244429,1.53371,-0.0615365,-11.0748,-5.66653,-14.6359,22.6856,-2.27385,-0.707494,-0.00621587,-1.79465,-1.32365,-1.73189,3.60787,-1.01882,0.0911117,-0.0694314
3382494,1,-1.61574,-0.493664,-0.0251935,-2.06419,-1.58149,1.64204,0.782521,-1.62033,-0.492446,-0.0288583,-2.05958,-1.58399,1.64607,0.782014,-0.955979,0.639797,-0.546054,0.701772,-0.225662,1.47067,-0.0632295,-1.0128,0.67425,-0.588284,0.74687,-0.245662,1.5471,-0.061893,-10.9241,-5.4642,-14.5089,22.511,-2.22899,-0.617772,-0.0190333,-1.83317,-1.34849,-1.7793,3.62822,-1.03152,0.0892443,-0.0689118
3382495,1,-1.61674,-0.493032,-0.0257641,-2.06346,-1.58172,1.64356,0.782457,-1.62135,-0.491764,-0.0294517,-2.05882,-1.58424,1.64763,0.781952,-0.975158,0.637505,-0.55305,0.714535,-0.222664,1.48987,-0.0651009,-1.02119,0.68174,-0.593374,0.754862,-0.246895,1.56049,-0.0622495,-10.6464,-5.05954,-14.3343,22.388,-2.18321,-0.585729,-0.0584009,-1.86501,-1.33968,-1.81849,3.63146,-1.04367,0.0891716,-0.0681594
3382496,1,-1.61778,-0.492369,-0.0263366,-2.0627,-1.58195,1.64512,0.782394,-1.62238,-0.491075,-0.0300501,-2.05806,-1.58449,1.64921,0.781889,-0.988753,0.643029,-0.564365,0.723594,-0.219957,1.49982,-0.0654438,-1.02959,0.68923,-0.598465,0.762854,-0.248127,1.57389,-0.062606,-10.1425,-4.80563,-14.0804,22.2135,-2.14384,-0.662633,-0.122488,-1.88092,-1.28284,-1.83784,3.60962,-1.05461,0.0923662,-0.0674252
3382497,1,-1.61878,-0.491687,-0.0269228,-2.06196,-1.58218,1.64671,0.78232,-1.62341,-0.490378,-0.0306537,-2.05729,-1.58473,1.65079,0.781826,-0.995865,0.650093,-0.569702,0.728986,-0.220936,1.52547,-0.0655265,-1.03798,0.69672,-0.603555,0.770846,-0.24936,1.58728,-0.0629625,-10.0156,-4.80563,-13.8265,22.1381,-2.14384,-0.875035,-0.0712183,-1.88007,-1.19041,-1.83608,3.56902,-1.06436,0.0987414,-0.0668699
3382498,1,-1.61981,-0.490992,-0.0275174,-2.06121,-1.58241,1.64826,0.78225,-1.62446,-0.489674,-0.0312623,-2.05651,-1.58499,1.65239,0.781763,-1.00327,0.667604,-0.580152,0.735287,-0.225163,1.53778,-0.0686186,-1.04638,0.70421,-0.608646,0.778837,-0.250593,1.60067,-0.0633191,-9.91637,-5.05954,-13.5488,22.1381,-2.18321,-0.919896,-0.0510767,-1.8684,-1.09159,-1.82043,3.52479,-1.07334,0.106801,-0.0665605
3382499,1,-1.62087,-0.490283,-0.028103,-2.06043,-1.58264,1.64984,0.782187,-1.62552,-0.488962,-0.0318761,-2.05572,-1.58524,1.65401,0.781699,-1.0175,0.680276,-0.579484,0.742031,-0.228616,1.54355,-0.0701134,-1.05477,0.7117,-0.613736,0.786829,-0.251826,1.61406,-0.0636756,-9.68627,-5.26187,-13.3703,22.1897,-2.21709,-0.862218,-0.0584009,-1.8511,-1.01671,-1.79745,3.49161,-1.08205,0.115104,-0.0664375
3382500,1,-1.6219,-0.48958,-0.028696,-2.05967,-1.58288,1.65141,0.782129,-1.62658,-0.488243,-0.0324945,-2.05493,-1.58549,1.65563,0.781635,-1.02605,0.688795,-0.584446,0.746575,-0.230948,1.57846,-0.0685319,-1.06209,0.71919,-0.618388,0.794662,-0.252612,1.62608,-0.0638617,-9.55931,-5.48801,-13.3187,22.4118,-2.27385,-0.830175,-0.135305,-1.83263,-0.978456,-1.77383,3.47571,-1.09084,0.122503,-0.0664242
3382501,1,-1.62295,-0.488861,-0.0292996,-2.05889,-1.58311,1.65305,0.782072,-1.62765,-0.487517,-0.0331175,-2.05412,-1.58574,1.65727,0.781571,-1.02523,0.696122,-0.594013,0.749617,-0.233075,1.59584,-0.0627628,-1.0694,0.72668,-0.62304,0.802494,-0.253399,1.63811,-0.0640479,-9.73784,-5.63876,-13.3465,22.7094,-2.31871,-1.07462,-0.219534,-1.81804,-0.972906,-1.75635,3.47672,-1.09993,0.127958,-0.0665465
3382502,1,-1.624,-0.488138,-0.0298978,-2.05812,-1.58335,1.65472,0.782021,-1.62872,-0.486782,-0.0337452,-2.05331,-1.586,1.65892,0.781507,-1.05305,0.694872,-0.595188,0.758479,-0.235043,1.6009,-0.0617867,-1.07672,0.73417,-0.627691,0.810326,-0.254185,1.65014,-0.064234,-9.81322,-5.74191,-13.3465,22.9593,-2.3416,-1.36484,-0.336721,-1.80583,-0.983663,-1.74305,3.48827,-1.10925,0.131767,-0.0669422
3382503,1,-1.62506,-0.487413,-0.0305093,-2.05734,-1.5836,1.65633,0.781958,-1.62981,-0.486041,-0.0343775,-2.0525,-1.58625,1.66058,0.781443,-1.05745,0.708091,-0.594663,0.76022,-0.233219,1.60476,-0.0621978,-1.08403,0.74166,-0.632343,0.818158,-0.254972,1.66216,-0.0644202,-9.91637,-5.81729,-13.3941,23.3084,-2.3416,-1.17167,-0.303762,-1.79175,-0.995849,-1.72989,3.50398,-1.11877,0.134648,-0.0678095
3382504,1,-1.62613,-0.486671,-0.0311245,-2.05654,-1.58385,1.65797,0.781892,-1.6309,-0.485292,-0.0350145,-2.05167,-1.58651,1.66226,0.781378,-1.05635,0.714161,-0.601032,0.771915,-0.242996,1.60198,-0.0626106,-1.09135,0.74915,-0.636994,0.825991,-0.255758,1.67419,-0.0646063,-10.0394,-5.91647,-13.3465,23.479,-2.29033,-0.97849,-0.26531,-1.78048,-1.01128,-1.72295,3.52445,-1.12876,0.135873,-0.0693109
3382505,1,-1.6272,-0.485915,-0.0317312,-2.05574,-1.58411,1.65961,0.781825,-1.632,-0.484535,-0.0356562,-2.05084,-1.58676,1.66394,0.781313,-1.0624,0.741783,-0.603713,0.783736,-0.244147,1.61676,-0.0649651,-1.09867,0.75664,-0.641646,0.833823,-0.256545,1.68621,-0.0647925,-10.0909,-6.19418,-13.4973,23.4076,-2.26835,-0.946447,-0.161856,-1.77902,-1.0438,-1.72947,3.55314,-1.13942,0.13451,-0.0714697
3382506,1,-1.62827,-0.485145,-0.0323488,-2.05492,-1.58436,1.66133,0.781754,-1.6331,-0.483771,-0.0363025,-2.04999,-1.58702,1.66564,0.781248,-1.06517,0.746388,-0.602489,0.791778,-0.250466,1.63842,-0.0660542,-1.10598,0.76413,-0.646298,0.841655,-0.257331,1.69824,-0.0649786,-10.2933,-6.47189,-13.5488,23.2569,-2.22899,-1.1973,-0.0648096,-1.7921,-1.10802,-1.75446,3.59375,-1.15078,0.129996,-0.0741503
3382507,1,-1.62936,-0.484371,-0.0329628,-2.05409,-1.5846,1.66303,0.781694,-1.63422,-0.482999,-0.0369534,-2.04914,-1.58728,1.66735,0.781183,-1.06534,0.75144,-0.605907,0.821974,-0.24656,1.6513,-0.0678397,-1.1133,0.77162,-0.650949,0.849487,-0.258118,1.71027,-0.0651648,-10.2695,-6.55124,-13.5488,22.8839,-2.27385,-1.20371,-0.0510767,-1.82407,-1.18677,-1.8042,3.63449,-1.16245,0.121911,-0.0771757
3382508,1,-1.63047,-0.483599,-0.0335891,-2.05324,-1.58485,1.66471,0.781649,-1.63534,-0.48222,-0.037609,-2.04829,-1.58754,1.66908,0.781118,-1.07923,0.76009,-0.610654,0.835171,-0.254425,1.65484,-0.0602631,-1.12061,0.77911,-0.655601,0.857319,-0.258904,1.72229,-0.065351,-10.0394,-6.47189,-13.5211,22.5348,-2.26835,-1.1204,-0.168264,-1.87156,-1.24727,-1.87483,3.65435,-1.17367,0.111029,-0.08036
3382509,1,-1.6316,-0.482833,-0.0342181,-2.05237,-1.58511,1.66641,0.781594,-1.63647,-0.481433,-0.0382693,-2.04742,-1.5878,1.67081,0.781052,-1.09449,0.764613,-0.619689,0.845353,-0.251326,1.65619,-0.0574829,-1.12793,0.7866,-0.660253,0.865152,-0.259691,1.73432,-0.0655371,-9.71404,-6.34891,-13.4734,22.1143,-2.28483,-0.887853,-0.219534,-1.92089,-1.27946,-1.94808,3.64867,-1.184,0.0995961,-0.0835391
3382510,1,-1.63269,-0.482053,-0.0348721,-2.05151,-1.58537,1.66815,0.781529,-1.6376,-0.480639,-0.0389337,-2.04655,-1.58806,1.67255,0.780987,-1.08996,0.760996,-0.632135,0.856104,-0.255308,1.67439,-0.0609083,-1.13413,0.79409,-0.664461,0.872811,-0.260035,1.74494,-0.0655449,-9.76165,-6.22195,-13.168,21.8405,-2.26286,-0.862218,-0.128897,-1.96076,-1.27731,-2.00835,3.61954,-1.19331,0.0895995,-0.0867266
3382511,1,-1.6338,-0.481274,-0.0355412,-2.05063,-1.58563,1.66986,0.781457,-1.63874,-0.479838,-0.0396024,-2.04567,-1.58832,1.67431,0.780921,-1.09622,0.768853,-0.637575,0.860048,-0.253836,1.68816,-0.0681008,-1.14034,0.80158,-0.66867,0.88047,-0.260379,1.75556,-0.0655527,-9.94017,-6.17038,-12.8625,21.666,-2.23448,-0.688268,-0.0254419,-1.99137,-1.23657,-2.0551,3.56948,-1.20168,0.0813031,-0.089991
3382512,1,-1.63494,-0.480479,-0.0361975,-2.04975,-1.58589,1.6716,0.781388,-1.63989,-0.479029,-0.0402753,-2.04478,-1.58858,1.67608,0.780856,-1.10253,0.775562,-0.642104,0.867951,-0.255248,1.6911,-0.0672286,-1.14654,0.80907,-0.672879,0.888129,-0.260723,1.76618,-0.0655605,-9.81322,-6.1188,-12.6879,21.543,-2.25096,-0.553685,0.038645,-2.01667,-1.17115,-2.09319,3.50858,-1.20952,0.0743738,-0.093213
3382513,1,-1.63608,-0.479703,-0.0368552,-2.04887,-1.58614,1.67332,0.781334,-1.64104,-0.478212,-0.0409524,-2.04388,-1.58884,1.67785,0.78079,-1.11576,0.781735,-0.639752,0.873995,-0.251701,1.69909,-0.0602455,-1.15275,0.81656,-0.677087,0.895788,-0.261067,1.7768,-0.0655683,-9.55931,-5.89267,-12.6602,21.543,-2.27934,-0.418187,-0.0584009,-2.03916,-1.09678,-2.12648,3.4459,-1.21723,0.0688231,-0.0961522
3382514,1,-1.63723,-0.478913,-0.0375221,-2.04797,-1.5864,1.67509,0.781274,-1.6422,-0.477388,-0.0416337,-2.04298,-1.5891,1.67964,0.780725,-1.12345,0.780073,-0.665878,0.879842,-0.257441,1.71223,-0.0571826,-1.15895,0.82405,-0.681296,0.903447,-0.261411,1.78742,-0.0655761,-9.46013,-5.56339,-12.434,21.543,-2.3361,-0.418187,-0.116079,-2.05395,-1.01448,-2.14828,3.38301,-1.22477,0.065766,-0.0986627
3382515,1,-1.63837,-0.478102,-0.0381963,-2.04707,-1.58667,1.67688,0.781218,-1.64336,-0.476557,-0.0423192,-2.04207,-1.58936,1.68144,0.780659,-1.12458,0.790115,-0.670112,0.887702,-0.256051,1.73172,-0.057897,-1.16516,0.83154,-0.685505,0.911107,-0.261755,1.79804,-0.0655839,-9.30938,-5.41263,-12.2039,21.6144,-2.29033,-0.469457,-0.219534,-2.0533,-0.921899,-2.14644,3.3196,-1.23191,0.0665101,-0.100785
3382516,1,-1.63953,-0.47728,-0.0388828,-2.04618,-1.58692,1.67867,0.781148,-1.64453,-0.475718,-0.0430089,-2.04115,-1.58963,1.68325,0.780593,-1.1311,0.806038,-0.673158,0.882006,-0.253194,1.74788,-0.059055,-1.17136,0.83903,-0.689713,0.918766,-0.262099,1.80866,-0.0655917,-9.20623,-5.33725,-11.954,21.9159,-2.29674,-0.604955,-0.18749,-2.04308,-0.838652,-2.12809,3.26631,-1.23912,0.0699649,-0.102648
3382517,1,-1.6407,-0.476467,-0.0395698,-2.04527,-1.58718,1.68048,0.781077,-1.64571,-0.474871,-0.0437028,-2.04022,-1.58989,1.68507,0.780528,-1.13592,0.813931,-0.671541,0.884162,-0.250936,1.75459,-0.0638158,-1.17757,0.84652,-0.693922,0.926425,-0.262443,1.81928,-0.0655995,-9.08324,-5.33725,-11.6247,22.2611,-2.30223,-0.57932,-0.155447,-2.03529,-0.792522,-2.11032,3.23953,-1.24722,0.0739576,-0.104376
3382518,1,-1.64187,-0.475644,-0.0402649,-2.04437,-1.58742,1.68226,0.781008,-1.6469,-0.474017,-0.0444009,-2.03929,-1.59015,1.6869,0.780462,-1.15306,0.820927,-0.676482,0.892516,-0.246743,1.80451,-0.0673424,-1.18377,0.85401,-0.698131,0.934084,-0.262787,1.8299,-0.0656073,-8.73015,-5.43643,-11.3708,22.4634,-2.37547,-0.437413,-0.135305,-2.03421,-0.78442,-2.10047,3.24026,-1.25634,0.0773413,-0.106081
3382519,1,-1.64307,-0.474798,-0.0409615,-2.04345,-1.58767,1.68407,0.780939,-1.64809,-0.473155,-0.0451033,-2.03835,-1.59041,1.68874,0.780397,-1.16482,0.832592,-0.682434,0.897923,-0.244985,1.79975,-0.0695068,-1.18998,0.8615,-0.702339,0.941743,-0.263131,1.84052,-0.0656151,-8.37706,-5.51181,-11.22,22.761,-2.42033,-0.333959,-0.122488,-2.03475,-0.801921,-2.0928,3.25993,-1.26609,0.0804331,-0.107818
3382520,1,-1.64425,-0.473934,-0.0416605,-2.04254,-1.58794,1.68591,0.780877,-1.64928,-0.472287,-0.0458094,-2.0374,-1.59068,1.69059,0.780331,-1.17311,0.837141,-0.690982,0.905741,-0.246018,1.79855,-0.0647278,-1.19506,0.86899,-0.706103,0.949218,-0.263042,1.84972,-0.0654392,-8.17473,-5.71414,-11.0137,22.8363,-2.38646,-0.411779,-0.161856,-2.02832,-0.835791,-2.07603,3.29227,-1.27618,0.0847294,-0.109558
3382521,1,-1.64544,-0.473079,-0.0423965,-2.0416,-1.58819,1.68774,0.780799,-1.65048,-0.47141,-0.0465192,-2.03644,-1.59094,1.69245,0.780266,-1.18823,0.850006,-0.707186,0.909895,-0.254322,1.80773,-0.0703694,-1.20014,0.87648,-0.709867,0.956693,-0.262954,1.85891,-0.0652633,-8.30169,-5.91647,-10.6091,22.8363,-2.36998,-0.546361,-0.0712183,-2.00592,-0.87897,-2.03765,3.33327,-1.28636,0.091926,-0.111261
3382522,1,-1.64667,-0.472219,-0.04311,-2.04065,-1.58845,1.6896,0.780725,-1.65169,-0.470526,-0.0472329,-2.03548,-1.5912,1.69431,0.780201,-1.19262,0.84478,-0.707611,0.92202,-0.253948,1.81822,-0.0720602,-1.20523,0.88397,-0.713631,0.964169,-0.262865,1.86811,-0.0650875,-7.9724,-5.91647,-10.4821,22.8363,-2.31871,-0.624181,-0.0382593,-1.96357,-0.919433,-1.97216,3.37629,-1.29628,0.102533,-0.11291
3382523,1,-1.64788,-0.471355,-0.0438469,-2.03972,-1.5887,1.69146,0.780646,-1.6529,-0.469635,-0.0479503,-2.03451,-1.59147,1.69619,0.780136,-1.18983,0.850044,-0.709572,0.92321,-0.257223,1.82445,-0.070582,-1.21031,0.89146,-0.717395,0.971644,-0.262776,1.8773,-0.0649116,-7.71849,-5.76572,-10.2798,22.7848,-2.28483,-0.67545,0.0322363,-1.91239,-0.937708,-1.89541,3.41135,-1.30589,0.114695,-0.114475
3382524,1,-1.6491,-0.470492,-0.0445878,-2.03875,-1.58897,1.69336,0.78057,-1.65411,-0.468736,-0.0486714,-2.03353,-1.59173,1.69808,0.780071,-1.1869,0.845845,-0.711781,0.936288,-0.262444,1.85013,-0.0728016,-1.21539,0.89895,-0.721159,0.979119,-0.262688,1.88649,-0.0647357,-7.67089,-5.71414,-10.0775,22.4118,-2.18321,-1.17807,0.071604,-1.86904,-0.921005,-1.83057,3.43211,-1.31533,0.125592,-0.115867
3382525,1,-1.65032,-0.469599,-0.0453178,-2.03779,-1.58923,1.69524,0.780499,-1.65533,-0.467829,-0.0493963,-2.03254,-1.59199,1.69997,0.780007,-1.19231,0.855068,-0.718269,0.962979,-0.263434,1.85181,-0.0718474,-1.22047,0.90644,-0.724923,0.986594,-0.262599,1.89569,-0.0645598,-7.84545,-5.78952,-9.92669,22.1619,-2.13835,-1.22934,0.038645,-1.83991,-0.859578,-1.78666,3.42861,-1.32429,0.13367,-0.116987
3382526,1,-1.6515,-0.468715,-0.0460435,-2.03679,-1.5895,1.69709,0.780434,-1.65656,-0.466915,-0.050125,-2.03155,-1.59225,1.70188,0.779942,-1.18741,0.866472,-0.711593,0.97212,-0.262925,1.85591,-0.0699096,-1.22556,0.91393,-0.728688,0.994069,-0.262511,1.90488,-0.064384,-8.07158,-5.84109,-10.0775,21.666,-2.10448,-0.965673,-0.0318506,-1.82673,-0.758985,-1.76614,3.396,-1.33252,0.137983,-0.117742
3382527,1,-1.65271,-0.467811,-0.0467657,-2.03579,-1.58975,1.69896,0.780373,-1.65779,-0.465994,-0.0508575,-2.03055,-1.59252,1.70379,0.779878,-1.20198,0.873047,-0.715269,0.977876,-0.256559,1.84967,-0.0666616,-1.23064,0.92142,-0.732452,1.00154,-0.262422,1.91408,-0.0642081,-8.34929,-5.86887,-10.2044,21.416,-2.14384,-0.701085,-0.161856,-1.83096,-0.643567,-1.77065,3.34595,-1.34031,0.138015,-0.118082
3382528,1,-1.6539,-0.46691,-0.0475044,-2.03482,-1.59,1.70089,0.780316,-1.65902,-0.465065,-0.0515937,-2.02954,-1.59278,1.70572,0.779814,-1.1939,0.879112,-0.723843,0.981631,-0.260062,1.8631,-0.0598869,-1.23572,0.92891,-0.736216,1.00902,-0.262333,1.92327,-0.0640322,-8.65477,-5.76572,-10.256,21.3446,-2.22258,-0.778905,-0.284536,-1.84731,-0.530395,-1.79168,3.29178,-1.34788,0.13488,-0.118122
3382529,1,-1.65513,-0.466014,-0.0482389,-2.03381,-1.59025,1.70279,0.78026,-1.66027,-0.464129,-0.0523337,-2.02852,-1.59304,1.70765,0.77975,-1.20309,0.881068,-0.725387,0.98786,-0.261066,1.86871,-0.0567426,-1.24081,0.9364,-0.73998,1.01649,-0.262245,1.93247,-0.0638563,-8.73015,-5.66653,-10.3591,21.3684,-2.35899,-0.887853,-0.362356,-1.87097,-0.422866,-1.82074,3.23907,-1.35523,0.129857,-0.118154
3382530,1,-1.65639,-0.465071,-0.0489628,-2.03281,-1.59052,1.70472,0.78022,-1.66151,-0.463185,-0.053077,-2.0275,-1.5933,1.70959,0.779687,-1.21422,0.890295,-0.727399,0.987855,-0.261737,1.87911,-0.0480463,-1.24477,0.94389,-0.743299,1.02378,-0.261739,1.94023,-0.0634928,-8.34929,-5.96805,-10.4583,21.666,-2.36998,-0.913488,-0.601309,-1.89861,-0.322129,-1.85281,3.19119,-1.36252,0.123793,-0.118528
3382531,1,-1.65764,-0.464143,-0.0497055,-2.03181,-1.59078,1.70662,0.78017,-1.66276,-0.462233,-0.0538236,-2.02647,-1.59356,1.71154,0.779623,-1.22945,0.90507,-0.728887,0.991294,-0.258692,1.88595,-0.0490182,-1.24874,0.95138,-0.746619,1.03106,-0.261233,1.948,-0.0631293,-8.04778,-6.17038,-10.3591,21.8644,-2.35258,-0.778905,-0.666311,-1.92432,-0.24256,-1.88048,3.15731,-1.37011,0.117565,-0.119582
3382532,1,-1.65889,-0.463195,-0.0504622,-2.03079,-1.59105,1.70855,0.780118,-1.66401,-0.461274,-0.0545735,-2.02543,-1.59382,1.71349,0.779561,-1.22521,0.917584,-0.750748,0.996123,-0.263513,1.89131,-0.0475865,-1.25271,0.95887,-0.749938,1.03834,-0.260727,1.95576,-0.0627658,-7.9486,-6.34891,-10.0536,22.1381,-2.25645,-0.656224,-0.653494,-1.94111,-0.202878,-1.89355,3.14679,-1.37821,0.112148,-0.121687
3382533,1,-1.66012,-0.462229,-0.0512328,-2.02978,-1.59133,1.7105,0.780065,-1.66527,-0.460308,-0.0553268,-2.02438,-1.59408,1.71546,0.779498,-1.22819,0.92393,-0.750045,0.995343,-0.269034,1.90245,-0.053833,-1.25668,0.96636,-0.753258,1.04562,-0.260221,1.96353,-0.0624022,-8.04778,-6.62662,-9.70056,22.3365,-2.22258,-0.604955,-0.562856,-1.94643,-0.207139,-1.88719,3.16181,-1.38676,0.108074,-0.125119
