shamilmamedov/beam_handling/data/param_estimation_ICRA/ocp_Xup_25cm_0.44s_6.csv
duration, success rate, q[0], q[1], q[2], q[3], q[4], q[5], q[6],q_d[0], q_d[1], q_d[2], q_d[3], q_d[4], q_d[5], q_d[6],dq[0], dq[1], dq[2], dq[3], dq[4], dq[5], dq[6],dq_d[0], dq_d[1], dq_d[2], dq_d[3], dq_d[4], dq_d[5], dq_d[6],tau_J[0], tau_J[1], tau_J[2], tau_J[3], tau_J[4], tau_J[5], tau_J[6],tau_ext_hat_filtered[0], tau_ext_hat_filtered[1], tau_ext_hat_filtered[2], tau_ext_hat_filtered[3], tau_ext_hat_filtered[4], tau_ext_hat_filtered[5], tau_ext_hat_filtered[6]
4794600,0,-1.57031,-0.522761,0.000161836,-2.09588,1.5707,1.57168,0.784977,-1.5708,-0.523599,5.30879e-08,-2.0944,1.5708,1.5708,0.785397,7.43806e-05,0.000789992,-0.00108324,0.00167826,0.000240466,2.09922e-06,0.000639546,0,0,0,0,0,0,0,-0.581349,-10.34,-0.484555,20.8448,0.779436,-0.662633,0.162241,-0.574712,-1.19129,-0.126033,2.36006,0.221751,-0.662916,0.221838
4794601,1,-1.57031,-0.522766,0.000167125,-2.09589,1.5707,1.57168,0.784973,-1.5708,-0.523599,5.30879e-08,-2.0944,1.5708,1.5708,0.785397,-0.000507225,-0.00179339,0.00104108,0.000469223,-4.31396e-05,0.000238758,-0.00099779,0,0,0,0,0,0,0,-0.557545,-10.2408,-0.559934,20.8725,0.784929,-0.669042,0.200693,-0.574159,-1.18891,-0.125067,2.35838,0.221653,-0.662972,0.221871
4794602,1,-1.57031,-0.522762,0.000167125,-2.09589,1.5707,1.57168,0.784975,-1.5708,-0.523599,5.30879e-08,-2.0944,1.5708,1.5708,0.785397,-0.00033815,0.000567646,0.000694051,-0.000243997,-2.87597e-05,-7.81867e-05,-0.000190475,0,0,0,0,0,0,0,-0.557545,-10.3162,-0.559934,20.8963,0.784929,-0.662633,0.187876,-0.574031,-1.18509,-0.124868,2.35585,0.221543,-0.66295,0.221913
4794603,1,-1.57031,-0.522759,0.000165177,-2.09589,1.5707,1.57168,0.784979,-1.5708,-0.523599,5.30879e-08,-2.0944,1.5708,1.5708,0.785397,0.000331379,0.000935242,-0.000186913,0.000394148,-0.000459983,-5.21244e-05,0.00129717,0,0,0,0,0,0,0,-0.581349,-10.34,-0.532163,20.8725,0.796831,-0.662633,0.149424,-0.574375,-1.1834,-0.125526,2.35459,0.221496,-0.662882,0.221973
4794604,1,-1.57031,-0.522759,0.000163506,-2.09589,1.5707,1.57168,0.784975,-1.5708,-0.523599,5.30879e-08,-2.0944,1.5708,1.5708,0.785397,0.000220919,0.00127311,-0.000681421,0.000912379,-0.000103205,0.000202609,-0.000559374,0,0,0,0,0,0,0,-0.581349,-10.3678,-0.508359,20.8448,0.791338,-0.669042,0.187876,-0.574496,-1.18535,-0.125789,2.35492,0.221489,-0.662895,0.222047
4794605,1,-1.57031,-0.522761,0.000165177,-2.09589,1.5707,1.57168,0.784977,-1.5708,-0.523599,5.30879e-08,-2.0944,1.5708,1.5708,0.785397,-0.00105915,-0.000357687,0.000102532,-0.000598173,0.000168556,0.000372432,0.00057652,0,0,0,0,0,0,0,-0.529774,-10.3162,-0.532163,20.8963,0.784929,-0.67545,0.162241,-0.573969,-1.18869,-0.125045,2.35581,0.221488,-0.663027,0.222111
4794606,1,-1.57031,-0.522762,0.000163506,-2.09589,1.5707,1.57168,0.784973,-1.5708,-0.523599,5.30879e-08,-2.0944,1.5708,1.5708,0.785397,0.000500328,-0.000238458,-0.000488458,-0.000398782,0.000112371,1.09289e-05,-0.00103981,0,0,0,0,0,0,0,-0.581349,-10.3162,-0.508359,20.8963,0.784929,-0.669042,0.200693,-0.573001,-1.19115,-0.123722,2.35668,0.221496,-0.663212,0.222158
4794607,1,-1.57031,-0.522761,0.000163506,-2.09589,1.5707,1.57168,0.784975,-1.5708,-0.523599,5.30879e-08,-2.0944,1.5708,1.5708,0.785397,-0.00022326,-0.000158972,-0.000325638,-0.000822667,7.49137e-05,7.28596e-06,1.88722e-05,0,0,0,0,0,0,0,-0.557545,-10.3162,-0.508359,20.9201,0.784929,-0.669042,0.181467,-0.572043,-1.19242,-0.122415,2.35754,0.221518,-0.663383,0.222194
4794608,1,-1.57031,-0.522761,0.000163506,-2.09589,1.5707,1.57168,0.784979,-1.5708,-0.523599,5.30879e-08,-2.0944,1.5708,1.5708,0.785397,0.000407972,0.000450831,-0.000217092,-0.000548444,4.99425e-05,-0.00070722,0.00119938,0,0,0,0,0,0,0,-0.581349,-10.34,-0.508359,20.9201,0.784929,-0.649816,0.149424,-0.571297,-1.19376,-0.121376,2.35878,0.221561,-0.663525,0.22224
4794609,1,-1.57031,-0.522759,0.000163506,-2.09589,1.5707,1.57168,0.784975,-1.5708,-0.523599,5.30879e-08,-2.0944,1.5708,1.5708,0.785397,0.000271981,0.000950168,-0.000144728,0.000191182,3.3295e-05,0.000240597,-0.000387211,0,0,0,0,0,0,0,-0.581349,-10.3678,-0.508359,20.8963,0.784929,-0.669042,0.181467,-0.570944,-1.19616,-0.120867,2.36051,0.221626,-0.663622,0.222292
4794610,1,-1.57031,-0.522761,0.000165177,-2.09589,1.5707,1.57168,0.784977,-1.5708,-0.523599,5.30879e-08,-2.0944,1.5708,1.5708,0.785397,0.000181321,-1.61688e-05,0.000460326,0.000684267,-0.008721,-7.69608e-05,0.000453936,0,0,0,0,0,0,0,-0.581349,-10.34,-0.532163,20.8725,0.791338,-0.662633,0.162241,-0.571164,-1.1988,-0.121207,2.36199,0.221722,-0.663648,0.222335
4794611,1,-1.57031,-0.522759,0.000165177,-2.09589,1.5707,1.57168,0.784976,-1.5708,-0.523599,5.30879e-08,-2.0944,1.5708,1.5708,0.785397,0.000120881,0.000638835,0.000306884,-0.000100634,-0.00652282,-5.13072e-05,-0.000172094,0,0,0,0,0,0,0,-0.581349,-10.3678,-0.532163,20.8963,0.791338,-0.662633,0.175059,-0.572012,-1.20064,-0.12259,2.36283,0.221882,-0.663596,0.222371
4794612,1,-1.5703,-0.522761,0.000163506,-2.09589,1.5707,1.57168,0.784976,-1.5708,-0.523599,5.30879e-08,-2.0944,1.5708,1.5708,0.785397,0.00128701,-0.000223724,-0.000352222,-0.00183033,-0.0046428,-3.42048e-05,-0.000114729,0,0,0,0,0,0,0,-0.632923,-10.34,-0.508359,20.9717,0.784929,-0.662633,0.175059,-0.573297,-1.20252,-0.124611,2.36405,0.222115,-0.663485,0.22239
4794613,1,-1.57031,-0.522765,0.000165177,-2.09589,1.5707,1.57168,0.78498,-1.5708,-0.523599,5.30879e-08,-2.0944,1.5708,1.5708,0.785397,-0.000348417,-0.00126277,0.000321997,-0.000570604,-0.00373127,0.000214556,0.00111031,0,0,0,0,0,0,0,-0.581349,-10.2924,-0.532163,20.9439,0.791338,-0.669042,0.143015,-0.574644,-1.20362,-0.126573,2.36562,0.222357,-0.663344,0.222383
4794614,1,-1.57031,-0.522757,0.000167125,-2.09589,1.5707,1.57168,0.784975,-1.5708,-0.523599,5.30879e-08,-2.0944,1.5708,1.5708,0.785397,-0.00078909,0.000921389,0.000864279,0.00129003,-0.00278655,-0.00056904,-0.000683948,0,0,0,0,0,0,0,-0.557545,-10.3678,-0.559934,20.8725,0.791338,-0.649816,0.181467,-0.575746,-1.2026,-0.128154,2.36609,0.222528,-0.663206,0.222348
4794615,1,-1.57031,-0.522762,0.000165177,-2.09589,1.5707,1.57168,0.784976,-1.5708,-0.523599,5.30879e-08,-2.0944,1.5708,1.5708,0.785397,3.07519e-05,-0.000592167,-7.34282e-05,0.000860022,-0.00228542,9.53581e-05,-0.000218606,0,0,0,0,0,0,0,-0.581349,-10.3162,-0.532163,20.8725,0.796831,-0.662633,0.175059,-0.5765,-1.20028,-0.129279,2.36499,0.2226,-0.663097,0.222278
4794616,1,-1.57031,-0.522761,0.000167125,-2.09589,1.5707,1.57168,0.784976,-1.5708,-0.523599,5.30879e-08,-2.0944,1.5708,1.5708,0.785397,-0.00118592,-0.000394778,0.000600662,0.000573348,-0.00104756,0.000300931,-0.000145738,0,0,0,0,0,0,0,-0.529774,-10.3162,-0.559934,20.8725,0.779436,-0.669042,0.175059,-0.57677,-1.19663,-0.129712,2.36259,0.222584,-0.663028,0.222182
4794617,1,-1.57031,-0.522762,0.000161836,-2.09589,1.5707,1.57168,0.784974,-1.5708,-0.523599,5.30879e-08,-2.0944,1.5708,1.5708,0.785397,0.000415809,-0.000263185,-0.0013628,-0.00017458,-0.00102798,-3.67383e-05,-0.000809235,0,0,0,0,0,0,0,-0.581349,-10.3162,-0.484555,20.8963,0.784929,-0.662633,0.194285,-0.57625,-1.19231,-0.12897,2.3598,0.22251,-0.663045,0.222077
4794618,1,-1.57031,-0.522761,0.000165177,-2.09589,1.5707,1.57168,0.784978,-1.5708,-0.523599,5.30879e-08,-2.0944,1.5708,1.5708,0.785397,-0.000279606,-0.000175457,0.000205093,-0.000116387,-0.00122075,-2.44922e-05,0.000884664,0,0,0,0,0,0,0,-0.557545,-10.3162,-0.532163,20.8963,0.796831,-0.662633,0.155832,-0.575118,-1.18895,-0.127222,2.35774,0.222415,-0.663145,0.221976
4794619,1,-1.57031,-0.522762,0.000167125,-2.09589,1.5707,1.57168,0.784973,-1.5708,-0.523599,5.30879e-08,-2.0944,1.5708,1.5708,0.785397,0.00092722,-0.000116971,0.000786342,0.000479221,-0.000443983,0.000221031,-0.00107174,0,0,0,0,0,0,0,-0.605152,-10.3162,-0.559934,20.8725,0.784929,-0.669042,0.200693,-0.574529,-1.18662,-0.126254,2.35636,0.222349,-0.663165,0.221894
4794620,1,-1.57031,-0.522759,0.000165177,-2.09589,1.5707,1.57168,0.784975,-1.5708,-0.523599,5.30879e-08,-2.0944,1.5708,1.5708,0.785397,0.000618147,0.00112845,-0.000125386,-0.000794143,-0.000586569,-9.00051e-05,-2.41445e-06,0,0,0,0,0,0,0,-0.605152,-10.3678,-0.532163,20.9201,0.791338,-0.662633,0.181467,-0.575096,-1.18614,-0.127013,2.35596,0.222354,-0.663035,0.22183
4794621,1,-1.57031,-0.522761,0.000165177,-2.09589,1.5707,1.57168,0.784979,-1.5708,-0.523599,5.30879e-08,-2.0944,1.5708,1.5708,0.785397,-0.000701526,0.000102683,-8.35904e-05,0.00123381,-0.000430962,-0.000297362,0.00118519,0,0,0,0,0,0,0,-0.557545,-10.34,-0.532163,20.8448,0.791338,-0.656224,0.149424,-0.575786,-1.18792,-0.127923,2.35662,0.222395,-0.66292,0.221794
4794622,1,-1.57031,-0.522761,0.000165177,-2.09589,1.5707,1.57168,0.784975,-1.5708,-0.523599,5.30879e-08,-2.0944,1.5708,1.5708,0.785397,8.91279e-05,-0.000488357,-5.57269e-05,0.000172925,-7.98862e-05,0.000276476,-0.00063403,0,0,0,0,0,0,0,-0.581349,-10.3162,-0.532163,20.8725,0.784929,-0.669042,0.187876,-0.575818,-1.18915,-0.127879,2.35671,0.222394,-0.662902,0.221781
4794623,1,-1.57031,-0.522762,0.000165177,-2.09589,1.5707,1.57168,0.784977,-1.5708,-0.523599,5.30879e-08,-2.0944,1.5708,1.5708,0.785397,-0.000497393,-0.000325571,-3.71513e-05,0.000764898,0.00012774,0.000184318,0.000526749,0,0,0,0,0,0,0,-0.557545,-10.3162,-0.532163,20.8448,0.779436,-0.669042,0.162241,-0.575425,-1.18819,-0.127251,2.35554,0.22234,-0.662922,0.22177
4794624,1,-1.57031,-0.522763,0.000167125,-2.09589,1.5707,1.57168,0.784975,-1.5708,-0.523599,5.30879e-08,-2.0944,1.5708,1.5708,0.785397,0.000225216,-0.000217047,0.000624846,-0.00125331,-0.000372489,-0.000114481,-0.00059827,0,0,0,0,0,0,0,-0.581349,-10.3162,-0.559934,20.9201,0.791338,-0.662633,0.187876,-0.575096,-1.18663,-0.126799,2.35431,0.222294,-0.662927,0.221752
4794625,1,-1.57031,-0.522761,0.000165177,-2.09589,1.5707,1.57168,0.784972,-1.5708,-0.523599,5.30879e-08,-2.0944,1.5708,1.5708,0.785397,-0.000406668,0.000412114,-0.00023305,0.000278086,-0.000260956,0.000398398,-0.00134828,0,0,0,0,0,0,0,-0.557545,-10.34,-0.532163,20.8725,0.791338,-0.67545,0.213511,-0.575005,-1.18632,-0.12681,2.35413,0.2223,-0.662914,0.221731
4794626,1,-1.57031,-0.522761,0.000163506,-2.09589,1.5707,1.57168,0.784978,-1.5708,-0.523599,5.30879e-08,-2.0944,1.5708,1.5708,0.785397,0.0002857,0.000274742,-0.000712178,-0.000371421,0.000257367,-0.00020912,0.00123738,0,0,0,0,0,0,0,-0.581349,-10.34,-0.508359,20.8963,0.779436,-0.662633,0.155832,-0.574628,-1.18757,-0.126403,2.35481,0.222324,-0.662972,0.22173
4794627,1,-1.57031,-0.522763,0.000161836,-2.09588,1.5707,1.57168,0.784979,-1.5708,-0.523599,5.30879e-08,-2.0944,1.5708,1.5708,0.785397,0.000190467,-0.00037365,-0.0010316,0.000958812,0.000164474,-0.000139413,0.00106228,0,0,0,0,0,0,0,-0.581349,-10.3162,-0.484555,20.8448,0.779436,-0.662633,0.149424,-0.573676,-1.18883,-0.124988,2.35525,0.222304,-0.663129,0.221767
4794628,1,-1.57031,-0.522759,0.000163506,-2.09588,1.5707,1.57168,0.784977,-1.5708,-0.523599,5.30879e-08,-2.0944,1.5708,1.5708,0.785397,0.000126978,0.000307712,-0.00013092,0.00119602,-9.91296e-05,-0.000330301,0.000233466,0,0,0,0,0,0,0,-0.581349,-10.34,-0.508359,20.821,0.784929,-0.656224,0.162241,-0.572546,-1.1886,-0.123135,2.35447,0.222213,-0.663306,0.221814
4794629,1,-1.57031,-0.52276,0.000167125,-2.09588,1.5707,1.57168,0.784978,-1.5708,-0.523599,5.30879e-08,-2.0944,1.5708,1.5708,0.785397,8.46519e-05,-0.000351671,0.00111915,0.000240535,-0.000307441,-0.00045756,0.000393003,0,0,0,0,0,0,0,-0.581349,-10.3162,-0.559934,20.8448,0.791338,-0.649816,0.155832,-0.57215,-1.18731,-0.122375,2.35274,0.222106,-0.663361,0.221833
4794630,1,-1.57031,-0.52276,0.000165177,-2.09589,1.5707,1.57168,0.784973,-1.5708,-0.523599,5.30879e-08,-2.0944,1.5708,1.5708,0.785397,5.64346e-05,0.000322365,9.64834e-05,-0.00104607,0.000232851,0.000407037,-0.00139951,0,0,0,0,0,0,0,-0.581349,-10.34,-0.532163,20.8963,0.779436,-0.669042,0.200693,-0.57282,-1.1866,-0.123333,2.35157,0.222069,-0.663247,0.221802
4794631,1,-1.57031,-0.522761,0.000165177,-2.09589,1.5707,1.57168,0.784979,-1.5708,-0.523599,5.30879e-08,-2.0944,1.5708,1.5708,0.785397,3.76231e-05,-0.000341902,6.43223e-05,-0.000140568,-5.04641e-05,0.000271358,0.000965864,0,0,0,0,0,0,0,-0.581349,-10.3162,-0.532163,20.8725,0.784929,-0.669042,0.149424,-0.573723,-1.18723,-0.124712,2.35165,0.222097,-0.663096,0.22173
4794632,1,-1.57031,-0.522761,0.000163506,-2.09589,1.5707,1.57168,0.784976,-1.5708,-0.523599,5.30879e-08,-2.0944,1.5708,1.5708,0.785397,2.5082e-05,0.000328877,-0.00051393,-9.37118e-05,-0.000272688,0.000655623,-0.000305526,0,0,0,0,0,0,0,-0.581349,-10.34,-0.508359,20.8725,0.791338,-0.681859,0.175059,-0.574181,-1.18839,-0.125392,2.35219,0.222124,-0.663018,0.221642
4794633,1,-1.57031,-0.522762,0.000165177,-2.09589,1.5707,1.57168,0.784972,-1.5708,-0.523599,5.30879e-08,-2.0944,1.5708,1.5708,0.785397,1.67214e-05,-0.000894372,0.000214192,-0.000619286,5.43029e-05,-0.000512354,-0.00162784,0,0,0,0,0,0,0,-0.581349,-10.2924,-0.532163,20.8963,0.784929,-0.656224,0.213511,-0.574257,-1.18916,-0.125439,2.35257,0.222131,-0.663008,0.221543
4794634,1,-1.57031,-0.522758,0.000159887,-2.09589,1.5707,1.57168,0.784978,-1.5708,-0.523599,5.30879e-08,-2.0944,1.5708,1.5708,0.785397,-0.000545664,0.000517376,-0.00162044,-0.00152648,3.52536e-05,-0.00010421,0.00105101,0,0,0,0,0,0,0,-0.557545,-10.34,-0.456784,20.9439,0.784929,-0.662633,0.155832,-0.573771,-1.19004,-0.124579,2.35334,0.222133,-0.663092,0.221448
4794635,1,-1.5703,-0.522764,0.000165177,-2.09589,1.5707,1.57168,0.784975,-1.5708,-0.523599,5.30879e-08,-2.0944,1.5708,1.5708,0.785397,0.00139946,-0.000768707,0.000682942,9.59695e-05,2.27912e-05,0.000167886,-0.000486124,0,0,0,0,0,0,0,-0.632923,-10.2924,-0.532163,20.8963,0.784929,-0.669042,0.187876,-0.573015,-1.19139,-0.123181,2.35464,0.222139,-0.663226,0.221383
4794636,1,-1.57031,-0.522761,0.000167125,-2.09589,1.5707,1.57168,0.784979,-1.5708,-0.523599,5.30879e-08,-2.0944,1.5708,1.5708,0.785397,-0.000273451,4.43407e-05,0.00110491,0.000620792,1.46607e-05,0.000349283,0.00110007,0,0,0,0,0,0,0,-0.581349,-10.3162,-0.559934,20.8725,0.784929,-0.67545,0.149424,-0.573436,-1.19157,-0.123462,2.3551,0.222152,-0.663188,0.221351
4794637,1,-1.57031,-0.522759,0.000168796,-2.09589,1.5707,1.57168,0.784978,-1.5708,-0.523599,5.30879e-08,-2.0944,1.5708,1.5708,0.785397,-0.000739113,0.00123599,0.00129342,-0.000142951,9.37374e-06,-0.000479222,0.000496021,0,0,0,0,0,0,0,-0.557545,-10.3678,-0.583737,20.8963,0.784929,-0.656224,0.155832,-0.575038,-1.19161,-0.125676,2.35497,0.222187,-0.662997,0.221335
4794638,1,-1.57031,-0.522764,0.000163506,-2.09589,1.5707,1.57168,0.78497,-1.5708,-0.523599,5.30879e-08,-2.0944,1.5708,1.5708,0.785397,-0.00114236,-0.000939247,-0.000900959,-9.53006e-05,-0.00043486,0.000155237,-0.00255153,0,0,0,0,0,0,0,-0.529774,-10.2924,-0.508359,20.8963,0.796831,-0.669042,0.233652,-0.576138,-1.19275,-0.127372,2.35522,0.222224,-0.662905,0.221302
4794639,1,-1.57031,-0.522763,0.000165177,-2.09589,1.5707,1.57168,0.784977,-1.5708,-0.523599,5.30879e-08,-2.0944,1.5708,1.5708,0.785397,-0.000111957,-6.93527e-05,-4.38276e-05,-6.35337e-05,0.000150678,-0.000371227,0.000943834,0,0,0,0,0,0,0,-0.557545,-10.3162,-0.532163,20.8963,0.784929,-0.656224,0.162241,-0.575865,-1.19283,-0.127094,2.35504,0.222202,-0.662998,0.221261
4794640,1,-1.57031,-0.522761,0.000163506,-2.09589,1.5707,1.57168,0.78498,-1.5708,-0.523599,5.30879e-08,-2.0944,1.5708,1.5708,0.785397,0.000482174,-4.62351e-05,-0.00058603,-0.000599168,0.000100283,-1.01255e-05,0.0013413,0,0,0,0,0,0,0,-0.581349,-10.3162,-0.508359,20.9201,0.784929,-0.662633,0.143015,-0.575025,-1.19212,-0.125915,2.35465,0.222151,-0.663149,0.221252
4794641,1,-1.57031,-0.52276,0.000163506,-2.09589,1.5707,1.57168,0.784974,-1.5708,-0.523599,5.30879e-08,-2.0944,1.5708,1.5708,0.785397,-0.000235363,-3.08234e-05,-0.000390687,0.000714179,0.000270179,-6.75037e-06,-0.00100467,0,0,0,0,0,0,0,-0.557545,-10.3162,-0.508359,20.8725,0.779436,-0.662633,0.194285,-0.574221,-1.19162,-0.124699,2.3544,0.222101,-0.66328,0.221261
4794642,1,-1.57031,-0.522764,0.000163506,-2.09589,1.5707,1.57168,0.784977,-1.5708,-0.523599,5.30879e-08,-2.0944,1.5708,1.5708,0.785397,0.000399904,-0.000577361,-0.000260458,-0.000637505,-0.000464235,0.000232859,0.000517013,0,0,0,0,0,0,0,-0.581349,-10.2924,-0.508359,20.9201,0.796831,-0.669042,0.162241,-0.573421,-1.19063,-0.123447,2.35386,0.222037,-0.663391,0.221257
4794643,1,-1.57031,-0.522757,0.000167125,-2.09589,1.5707,1.57168,0.784972,-1.5708,-0.523599,5.30879e-08,-2.0944,1.5708,1.5708,0.785397,0.000266602,0.00137833,0.00103279,-0.000425003,-0.000309561,-8.21198e-05,-0.0015542,0,0,0,0,0,0,0,-0.581349,-10.3678,-0.559934,20.9201,0.796831,-0.662633,0.213511,-0.573259,-1.19051,-0.123194,2.35393,0.222025,-0.663409,0.221246
4794644,1,-1.5703,-0.522762,0.000167125,-2.0959,1.5707,1.57168,0.784977,-1.5708,-0.523599,5.30879e-08,-2.0944,1.5708,1.5708,0.785397,0.000734547,-0.000844351,0.000688525,-0.00148976,0.000234382,0.000182612,0.000862741,0,0,0,0,0,0,0,-0.605152,-10.2924,-0.559934,20.9717,0.784929,-0.669042,0.162241,-0.57432,-1.19245,-0.124869,2.35547,0.222126,-0.663266,0.221244
4794645,1,-1.57031,-0.522764,0.000161836,-2.09589,1.5707,1.57168,0.784978,-1.5708,-0.523599,5.30879e-08,-2.0944,1.5708,1.5708,0.785397,-0.000623926,-0.000562901,-0.00130422,-0.00034356,0.000359665,0.000359101,0.00081252,0,0,0,0,0,0,0,-0.557545,-10.2924,-0.484555,20.9439,0.779436,-0.67545,0.155832,-0.575469,-1.1939,-0.126689,2.35724,0.222252,-0.663104,0.221266
4794646,1,-1.57031,-0.522762,0.000165177,-2.09589,1.5707,1.57168,0.784975,-1.5708,-0.523599,5.30879e-08,-2.0944,1.5708,1.5708,0.785397,0.000140861,-0.000375267,0.000244143,0.0014414,-0.000201063,-0.000235318,-0.000645115,0,0,0,0,0,0,0,-0.581349,-10.2924,-0.532163,20.8725,0.791338,-0.662633,0.187876,-0.575488,-1.19273,-0.126737,2.35754,0.222279,-0.663095,0.221299
4794647,1,-1.57031,-0.522762,0.000163506,-2.09589,1.5707,1.57168,0.784974,-1.5708,-0.523599,5.30879e-08,-2.0944,1.5708,1.5708,0.785397,9.39075e-05,0.000306634,-0.00039405,-0.000709505,-0.000134064,0.00031784,-0.000667436,0,0,0,0,0,0,0,-0.581349,-10.3162,-0.508359,20.9439,0.791338,-0.67545,0.194285,-0.575062,-1.19032,-0.126054,2.35667,0.222238,-0.66316,0.221325
4794648,1,-1.57031,-0.522763,0.000163506,-2.09589,1.5707,1.57168,0.784978,-1.5708,-0.523599,5.30879e-08,-2.0944,1.5708,1.5708,0.785397,-0.000494207,0.000204423,-0.0002627,-0.000473004,0.000351416,-0.000737543,0.000979197,0,0,0,0,0,0,0,-0.557545,-10.3162,-0.508359,20.9439,0.779436,-0.649816,0.155832,-0.574562,-1.1893,-0.125235,2.35655,0.222218,-0.663267,0.221354
4794649,1,-1.57031,-0.522763,0.000167125,-2.09589,1.5707,1.57168,0.784975,-1.5708,-0.523599,5.30879e-08,-2.0944,1.5708,1.5708,0.785397,-0.000329471,0.000136282,0.00103129,0.000798288,-0.000206545,0.000220382,-0.000296638,0,0,0,0,0,0,0,-0.557545,-10.3162,-0.559934,20.8963,0.791338,-0.669042,0.181467,-0.574089,-1.18955,-0.124533,2.35718,0.222226,-0.663385,0.221394
4794650,1,-1.57031,-0.522761,0.000163506,-2.09589,1.5707,1.57168,0.784978,-1.5708,-0.523599,5.30879e-08,-2.0944,1.5708,1.5708,0.785397,-0.000219648,0.000647666,-0.000518897,0.001089,-0.000544607,-9.04378e-05,0.000751677,0,0,0,0,0,0,0,-0.557545,-10.34,-0.508359,20.8725,0.802324,-0.662633,0.155832,-0.573937,-1.18962,-0.124424,2.3573,0.222226,-0.663452,0.221437
4794651,1,-1.57031,-0.522759,0.000165177,-2.09589,1.5707,1.57168,0.784976,-1.5708,-0.523599,5.30879e-08,-2.0944,1.5708,1.5708,0.785397,0.000967192,0.00108139,0.00021088,0.000169191,0.000484632,-0.000297651,-0.000210959,0,0,0,0,0,0,0,-0.605152,-10.3678,-0.532163,20.8963,0.779436,-0.656224,0.175059,-0.573985,-1.19036,-0.124581,2.35731,0.22223,-0.663493,0.221468
4794652,1,-1.57031,-0.522759,0.000165177,-2.09589,1.5707,1.57168,0.784973,-1.5708,-0.523599,5.30879e-08,-2.0944,1.5708,1.5708,0.785397,-0.000468829,0.000720928,0.000140587,-0.000444018,0.000119632,3.89251e-05,-0.00109007,0,0,0,0,0,0,0,-0.557545,-10.3678,-0.532163,20.9201,0.784929,-0.662633,0.200693,-0.574321,-1.19298,-0.1251,2.35833,0.222286,-0.663497,0.221474
4794653,1,-1.57031,-0.522759,0.000167125,-2.09589,1.5707,1.57168,0.784979,-1.5708,-0.523599,5.30879e-08,-2.0944,1.5708,1.5708,0.785397,-0.00151898,0.000480618,0.000743339,0.0002608,-0.000157608,2.595e-05,0.00117215,0,0,0,0,0,0,0,-0.50597,-10.3678,-0.559934,20.8963,0.791338,-0.662633,0.149424,-0.574503,-1.19661,-0.125563,2.36015,0.222382,-0.663511,0.221467
4794654,1,-1.57031,-0.522759,0.000165177,-2.09589,1.5707,1.57168,0.784977,-1.5708,-0.523599,5.30879e-08,-2.0944,1.5708,1.5708,0.785397,0.000193773,-0.000329202,-0.000154055,-0.000939757,-0.000105075,0.000254659,0.000306719,0,0,0,0,0,0,0,-0.557545,-10.34,-0.532163,20.9439,0.791338,-0.669042,0.162241,-0.574206,-1.19943,-0.125581,2.36188,0.222472,-0.663564,0.221463
4794655,1,-1.57031,-0.522762,0.000161836,-2.09589,1.5707,1.57168,0.784975,-1.5708,-0.523599,5.30879e-08,-2.0944,1.5708,1.5708,0.785397,0.000129182,-0.00133309,-0.00121633,0.000487119,0.000370757,-6.75863e-05,-0.000744957,0,0,0,0,0,0,0,-0.557545,-10.2924,-0.484555,20.8963,0.779436,-0.662633,0.187876,-0.573495,-1.19945,-0.124993,2.36253,0.22251,-0.663622,0.221445
4794656,1,-1.57031,-0.522762,0.000165177,-2.09589,1.5707,1.57168,0.784976,-1.5708,-0.523599,5.30879e-08,-2.0944,1.5708,1.5708,0.785397,8.61215e-05,-0.000331916,0.000302739,-0.000232066,4.37192e-05,-4.50575e-05,-2.19199e-05,0,0,0,0,0,0,0,-0.557545,-10.3162,-0.532163,20.9201,0.784929,-0.662633,0.175059,-0.572507,-1.19614,-0.123862,2.36159,0.222473,-0.663665,0.221408
4794657,1,-1.57031,-0.522761,0.000165177,-2.09589,1.5707,1.57168,0.784975,-1.5708,-0.523599,5.30879e-08,-2.0944,1.5708,1.5708,0.785397,5.74144e-05,0.000335535,0.000201826,-0.000154711,0.000232595,-3.00384e-05,-0.000251972,0,0,0,0,0,0,0,-0.557545,-10.34,-0.532163,20.9201,0.779436,-0.662633,0.181467,-0.571902,-1.19249,-0.123322,2.36045,0.222434,-0.663637,0.221369
4794658,1,-1.57031,-0.522762,0.000167125,-2.09589,1.5707,1.57168,0.784978,-1.5708,-0.523599,5.30879e-08,-2.0944,1.5708,1.5708,0.785397,0.000595088,-0.000889934,0.000784165,0.00101048,-4.83879e-05,0.000217333,0.000781454,0,0,0,0,0,0,0,-0.581349,-10.2924,-0.559934,20.8725,0.784929,-0.669042,0.155832,-0.572149,-1.18957,-0.124142,2.35951,0.22242,-0.66349,0.221341
4794659,1,-1.5703,-0.522758,0.000165177,-2.09589,1.5707,1.57168,0.784977,-1.5708,-0.523599,5.30879e-08,-2.0944,1.5708,1.5708,0.785397,0.000953537,0.000520335,-0.000126838,0.000673656,0.000171191,0.000144889,4.62517e-05,0,0,0,0,0,0,0,-0.605152,-10.34,-0.532163,20.8725,0.779436,-0.669042,0.16865,-0.573187,-1.18622,-0.12612,2.35791,0.222391,-0.66323,0.221322
4794660,1,-1.57031,-0.522758,0.000161836,-2.09588,1.5707,1.57168,0.784972,-1.5708,-0.523599,5.30879e-08,-2.0944,1.5708,1.5708,0.785397,-0.000477932,0.000996504,-0.00119818,0.00165553,-0.000326683,-0.000615484,-0.00139332,0,0,0,0,0,0,0,-0.557545,-10.3678,-0.484555,20.821,0.791338,-0.649816,0.207102,-0.573914,-1.18402,-0.12749,2.35627,0.222322,-0.663048,0.221293
4794661,1,-1.57031,-0.522763,0.000170745,-2.09589,1.5707,1.57168,0.784977,-1.5708,-0.523599,5.30879e-08,-2.0944,1.5708,1.5708,0.785397,0.00023819,-0.00054209,0.00217088,-0.000102739,-0.000421239,6.43951e-05,0.000732633,0,0,0,0,0,0,0,-0.581349,-10.3162,-0.611508,20.8725,0.796831,-0.662633,0.162241,-0.574153,-1.18336,-0.128113,2.35501,0.222241,-0.662967,0.221262
4794662,1,-1.57031,-0.522766,0.000163506,-2.09589,1.5707,1.57168,0.784976,-1.5708,-0.523599,5.30879e-08,-2.0944,1.5708,1.5708,0.785397,0.000158794,-0.00212463,-0.000965601,-0.000625305,0.000363434,4.293e-05,1.37042e-05,0,0,0,0,0,0,0,-0.581349,-10.2408,-0.508359,20.8963,0.779436,-0.662633,0.175059,-0.574812,-1.18134,-0.129479,2.35358,0.222189,-0.662798,0.221251
4794663,1,-1.57031,-0.522758,0.000167125,-2.09589,1.5707,1.57168,0.784975,-1.5708,-0.523599,5.30879e-08,-2.0944,1.5708,1.5708,0.785397,0.000105862,0.000903629,0.000562692,-0.00041687,0.000242289,-0.000208739,-0.000228223,0,0,0,0,0,0,0,-0.581349,-10.34,-0.559934,20.8963,0.779436,-0.656224,0.181467,-0.575365,-1.17828,-0.13068,2.3524,0.222159,-0.662618,0.22125
4794664,1,-1.5703,-0.522762,0.000163506,-2.09589,1.5707,1.57168,0.784977,-1.5708,-0.523599,5.30879e-08,-2.0944,1.5708,1.5708,0.785397,0.000627387,4.56073e-05,-0.000831298,-0.000277913,-0.000279284,-0.000139159,0.000559928,0,0,0,0,0,0,0,-0.605152,-10.3162,-0.508359,20.8963,0.791338,-0.656224,0.162241,-0.575481,-1.1777,-0.131118,2.35269,0.222163,-0.662527,0.221249
4794665,1,-1.57031,-0.522764,0.000167125,-2.09589,1.5707,1.57168,0.784974,-1.5708,-0.523599,5.30879e-08,-2.0944,1.5708,1.5708,0.785397,-0.000138554,-0.000526407,0.000652227,-0.000742087,0.00025462,-9.27728e-05,-0.000813509,0,0,0,0,0,0,0,-0.581349,-10.2924,-0.559934,20.9201,0.779436,-0.656224,0.194285,-0.575484,-1.17911,-0.131285,2.35405,0.222193,-0.662472,0.22125
4794666,1,-1.5703,-0.522761,0.000165637,-2.09589,1.5707,1.57168,0.784977,-1.5708,-0.523599,5.30879e-08,-2.0944,1.5708,1.5708,0.785397,0.00111406,0.000205874,-0.000771608,6.2087e-05,0.000169747,0.000412869,0.000407096,0,0,0,0,0,0,0,-0.632923,-10.3162,-0.508359,20.8963,0.779436,-0.669042,0.16865,-0.575537,-1.18049,-0.131412,2.35546,0.22222,-0.662407,0.221253
4794667,1,-1.57031,-0.522758,0.000165887,-2.09589,1.5707,1.57168,0.784979,-1.5708,-0.523599,5.30879e-08,-2.0944,1.5708,1.5708,0.785397,-0.00102053,0.000694061,4.24067e-05,-0.00107223,-0.000327645,-0.000199472,0.000983474,0,0,0,0,0,0,0,-0.557545,-10.34,-0.532163,20.9439,0.791338,-0.656224,0.149424,-0.575385,-1.18285,-0.13111,2.35731,0.222243,-0.662392,0.221263
4794668,1,-1.5703,-0.522762,0.000165413,-2.09589,1.5707,1.57168,0.784973,-1.5708,-0.523599,5.30879e-08,-2.0944,1.5708,1.5708,0.785397,0.000433268,-9.41045e-05,2.82712e-05,-0.00015801,1.89288e-05,0.000104378,-0.00124322,0,0,0,0,0,0,0,-0.605152,-10.3162,-0.532163,20.9201,0.784929,-0.662633,0.200693,-0.574885,-1.18651,-0.130255,2.35983,0.222269,-0.662453,0.221267
4794669,1,-1.5703,-0.522761,0.000168875,-2.09588,1.5707,1.57168,0.784975,-1.5708,-0.523599,5.30879e-08,-2.0944,1.5708,1.5708,0.785397,0.000938459,0.000494076,0.00122527,0.0016579,1.26192e-05,0.000544303,-0.000116738,0,0,0,0,0,0,0,-0.632923,-10.34,-0.583737,20.8448,0.784929,-0.67545,0.181467,-0.575098,-1.18933,-0.130427,2.36154,0.222289,-0.662414,0.221261
4794670,1,-1.57031,-0.522761,0.000163532,-2.09589,1.5707,1.57168,0.784976,-1.5708,-0.523599,5.30879e-08,-2.0944,1.5708,1.5708,0.785397,-0.0011376,0.000329384,-0.000946389,-0.000101161,-0.000228946,-0.000111849,0.000159534,0,0,0,0,0,0,0,-0.557545,-10.34,-0.508359,20.8963,0.791338,-0.662633,0.175059,-0.575864,-1.19069,-0.131344,2.36181,0.222273,-0.662304,0.221268
4794671,1,-1.57031,-0.522761,0.000165185,-2.09589,1.5707,1.57168,0.784975,-1.5708,-0.523599,5.30879e-08,-2.0944,1.5708,1.5708,0.785397,-0.00140801,0.000219589,-7.4114e-05,-6.74404e-05,-0.000356081,0.000400152,-0.000131003,0,0,0,0,0,0,0,-0.529774,-10.34,-0.532163,20.8963,0.796831,-0.67545,0.181467,-0.575403,-1.19191,-0.130478,2.36188,0.222213,-0.662399,0.221293
4794672,1,-1.57031,-0.522759,0.000161839,-2.09589,1.5707,1.57168,0.784979,-1.5708,-0.523599,5.30879e-08,-2.0944,1.5708,1.5708,0.785397,0.000267751,0.000796007,-0.00116303,0.000511852,-3.39371e-05,2.94089e-05,0.00109946,0,0,0,0,0,0,0,-0.581349,-10.3678,-0.484555,20.8725,0.791338,-0.669042,0.149424,-0.573646,-1.19356,-0.127722,2.36225,0.222134,-0.66271,0.221328
4794673,1,-1.57031,-0.522761,0.000165177,-2.09589,1.5707,1.57168,0.784972,-1.5708,-0.523599,5.30879e-08,-2.0944,1.5708,1.5708,0.785397,-0.000378311,-0.000118943,0.000338268,-0.0013292,0.000418185,-0.000455112,-0.00140326,0,0,0,0,0,0,0,-0.557545,-10.34,-0.532163,20.9439,0.779436,-0.656224,0.207102,-0.571889,-1.19564,-0.124907,2.36301,0.222085,-0.663035,0.221361
4794674,1,-1.57031,-0.522761,0.000167126,-2.09589,1.5707,1.57168,0.784975,-1.5708,-0.523599,5.30879e-08,-2.0944,1.5708,1.5708,0.785397,0.000304604,-7.92952e-05,0.000875126,0.000784302,-0.00036547,0.000408669,1.39307e-05,0,0,0,0,0,0,0,-0.581349,-10.34,-0.559934,20.8725,0.796831,-0.67545,0.181467,-0.571202,-1.19719,-0.123729,2.36382,0.222098,-0.663192,0.221388
4794675,1,-1.57031,-0.522761,0.000165177,-2.09589,1.5707,1.57168,0.784976,-1.5708,-0.523599,5.30879e-08,-2.0944,1.5708,1.5708,0.785397,0.00020307,-5.28635e-05,-6.61965e-05,-3.39442e-05,0.000400613,-0.000202272,0.000246646,0,0,0,0,0,0,0,-0.581349,-10.34,-0.532163,20.8963,0.779436,-0.662633,0.175059,-0.571743,-1.19716,-0.124464,2.36381,0.222139,-0.66315,0.221433
4794676,1,-1.57031,-0.522759,0.000165177,-2.09589,1.5707,1.57168,0.784977,-1.5708,-0.523599,5.30879e-08,-2.0944,1.5708,1.5708,0.785397,0.000692192,-3.52423e-05,-4.4131e-05,-0.000579441,0.000267075,-0.000134848,0.00040179,0,0,0,0,0,0,0,-0.605152,-10.34,-0.532163,20.9201,0.779436,-0.662633,0.16865,-0.572774,-1.19637,-0.125884,2.3634,0.222183,-0.663031,0.221501
4794677,1,-1.57031,-0.522758,0.000165177,-2.09589,1.5707,1.57168,0.784978,-1.5708,-0.523599,5.30879e-08,-2.0944,1.5708,1.5708,0.785397,-9.53509e-05,-2.34949e-05,-2.94207e-05,-0.000386294,-2.54002e-05,0.000384819,0.000742578,0,0,0,0,0,0,0,-0.581349,-10.34,-0.532163,20.9201,0.784929,-0.67545,0.155832,-0.573788,-1.19591,-0.127209,2.36339,0.222231,-0.66292,0.221574
4794678,1,-1.57031,-0.52276,0.000163506,-2.09589,1.5707,1.57168,0.784972,-1.5708,-0.523599,5.30879e-08,-2.0944,1.5708,1.5708,0.785397,-6.35672e-05,-1.56632e-05,-0.000576426,-0.00025753,-0.000254292,-0.00069289,-0.00140382,0,0,0,0,0,0,0,-0.581349,-10.34,-0.508359,20.9201,0.791338,-0.649816,0.207102,-0.574377,-1.19575,-0.127872,2.36368,0.222261,-0.662882,0.221631
4794679,1,-1.57031,-0.522763,0.000165177,-2.09589,1.5707,1.57168,0.784977,-1.5708,-0.523599,5.30879e-08,-2.0944,1.5708,1.5708,0.785397,-4.23782e-05,-0.000567254,0.000172528,-0.000171686,-0.000372979,0.000487509,0.000488274,0,0,0,0,0,0,0,-0.581349,-10.3162,-0.532163,20.9201,0.796831,-0.67545,0.16865,-0.574482,-1.19518,-0.127799,2.36378,0.222261,-0.662913,0.221672
4794680,1,-1.57031,-0.522764,0.000165177,-2.09589,1.5707,1.57168,0.784977,-1.5708,-0.523599,5.30879e-08,-2.0944,1.5708,1.5708,0.785397,-2.82521e-05,-0.0015846,0.000115019,0.000999166,0.000192157,-0.000387071,0.000562875,0,0,0,0,0,0,0,-0.581349,-10.2646,-0.532163,20.8725,0.784929,-0.656224,0.162241,-0.574602,-1.19222,-0.127753,2.36255,0.222218,-0.662914,0.22172
4794681,1,-1.5703,-0.522762,0.000163506,-2.09589,1.5707,1.57168,0.784975,-1.5708,-0.523599,5.30879e-08,-2.0944,1.5708,1.5708,0.785397,0.000537977,0.000150029,-0.000480133,0.000666111,-0.000109254,-2.06881e-05,-0.000574186,0,0,0,0,0,0,0,-0.605152,-10.3162,-0.508359,20.8725,0.791338,-0.662633,0.187876,-0.574895,-1.18669,-0.12791,2.35967,0.222127,-0.66286,0.221774
4794682,1,-1.5703,-0.522766,0.000167125,-2.09589,1.5707,1.57168,0.784979,-1.5708,-0.523599,5.30879e-08,-2.0944,1.5708,1.5708,0.785397,0.000358651,-0.00110641,0.000886337,-0.00066955,0.000164523,0.000223567,0.00104136,0,0,0,0,0,0,0,-0.605152,-10.2646,-0.559934,20.9201,0.784929,-0.669042,0.149424,-0.575524,-1.18134,-0.128483,2.35677,0.222052,-0.662757,0.221817
4794683,1,-1.57031,-0.522761,0.000163506,-2.09589,1.5707,1.57168,0.784975,-1.5708,-0.523599,5.30879e-08,-2.0944,1.5708,1.5708,0.785397,-0.00152414,0.00102563,-0.000615534,-0.00100318,0.000109682,-8.83144e-05,-0.000729912,0,0,0,0,0,0,0,-0.529774,-10.34,-0.508359,20.9439,0.784929,-0.662633,0.187876,-0.576098,-1.1787,-0.129045,2.35569,0.222053,-0.662689,0.221839
4794684,1,-1.57031,-0.522761,0.000161836,-2.09589,1.5707,1.57168,0.784975,-1.5708,-0.523599,5.30879e-08,-2.0944,1.5708,1.5708,0.785397,0.000190335,0.000126944,-0.000967168,-0.000111974,-0.000164238,-5.88762e-05,-0.000249249,0,0,0,0,0,0,0,-0.581349,-10.3162,-0.484555,20.9201,0.791338,-0.662633,0.181467,-0.575541,-1.1798,-0.127999,2.35685,0.222098,-0.662829,0.221833
4794685,1,-1.5703,-0.522758,0.000163506,-2.09589,1.5707,1.57168,0.78498,-1.5708,-0.523599,5.30879e-08,-2.0944,1.5708,1.5708,0.785397,0.000683702,0.000641441,-8.79668e-05,-7.46492e-05,0.000127867,0.000198108,0.00125799,0,0,0,0,0,0,0,-0.605152,-10.34,-0.508359,20.9201,0.784929,-0.669042,0.143015,-0.574467,-1.18304,-0.126065,2.35899,0.22215,-0.663068,0.221814
4794686,1,-1.57031,-0.522764,0.000161836,-2.09589,1.5707,1.57168,0.784975,-1.5708,-0.523599,5.30879e-08,-2.0944,1.5708,1.5708,0.785397,-0.000657823,-0.000685997,-0.000615456,0.00106386,8.52447e-05,-0.000342646,-0.000822854,0,0,0,0,0,0,0,-0.557545,-10.2924,-0.484555,20.8725,0.784929,-0.656224,0.187876,-0.573755,-1.18552,-0.124529,2.36043,0.222177,-0.663245,0.221792
4794687,1,-1.57031,-0.522763,0.000161836,-2.09589,1.5707,1.57168,0.784975,-1.5708,-0.523599,5.30879e-08,-2.0944,1.5708,1.5708,0.785397,0.000675075,9.94809e-05,-0.000410304,-0.000961197,0.00026028,0.000246287,-0.00031121,0,0,0,0,0,0,0,-0.605152,-10.3162,-0.484555,20.9439,0.779436,-0.669042,0.181467,-0.573145,-1.18621,-0.123061,2.36081,0.222166,-0.663382,0.22175
4794688,1,-1.57031,-0.522761,0.000165177,-2.09589,1.5707,1.57168,0.784976,-1.5708,-0.523599,5.30879e-08,-2.0944,1.5708,1.5708,0.785397,-0.000106762,6.63206e-05,0.000840088,-0.00129041,-0.000267289,0.000401551,2.98853e-05,0,0,0,0,0,0,0,-0.581349,-10.3162,-0.532163,20.9717,0.791338,-0.67545,0.175059,-0.573062,-1.18716,-0.122355,2.36179,0.222195,-0.663436,0.221698
4794689,1,-1.57031,-0.522758,0.000163506,-2.09589,1.5707,1.57168,0.784975,-1.5708,-0.523599,5.30879e-08,-2.0944,1.5708,1.5708,0.785397,-0.000627986,0.000601026,3.2465e-06,0.000902963,-0.000178193,-0.000444376,-0.000454794,0,0,0,0,0,0,0,-0.557545,-10.34,-0.508359,20.8963,0.791338,-0.656224,0.187876,-0.573652,-1.18933,-0.122745,2.36373,0.222282,-0.663407,0.221654
4794690,1,-1.57031,-0.522762,0.000167125,-2.09589,1.5707,1.57168,0.784978,-1.5708,-0.523599,5.30879e-08,-2.0944,1.5708,1.5708,0.785397,-0.000418658,-0.000156128,0.00120859,0.00115879,-0.000322246,-0.000296251,0.000883598,0,0,0,0,0,0,0,-0.557545,-10.3162,-0.559934,20.8725,0.796831,-0.656224,0.155832,-0.574488,-1.19072,-0.123648,2.36475,0.222345,-0.663341,0.221632
4794691,1,-1.57031,-0.522759,0.000165177,-2.09589,1.5707,1.57168,0.784975,-1.5708,-0.523599,5.30879e-08,-2.0944,1.5708,1.5708,0.785397,0.000277707,0.00110234,0.000156113,-0.000341099,0.000225979,0.000277217,-0.00036037,0,0,0,0,0,0,0,-0.581349,-10.3678,-0.532163,20.9201,0.784929,-0.669042,0.181467,-0.57566,-1.19136,-0.125173,2.36488,0.222394,-0.663211,0.221627
4794692,1,-1.5703,-0.522761,0.000167125,-2.09589,1.5707,1.57168,0.784974,-1.5708,-0.523599,5.30879e-08,-2.0944,1.5708,1.5708,0.785397,0.00139156,8.52797e-05,0.000753689,-0.000784211,0.000150653,-0.000527265,-0.000714965,0,0,0,0,0,0,0,-0.632923,-10.34,-0.559934,20.9439,0.784929,-0.649816,0.194285,-0.577415,-1.19326,-0.127562,2.36584,0.222503,-0.662992,0.221619
4794693,1,-1.57031,-0.522761,0.000163506,-2.09589,1.5707,1.57168,0.784978,-1.5708,-0.523599,5.30879e-08,-2.0944,1.5708,1.5708,0.785397,-0.00148514,-0.000499959,-0.000703966,3.40044e-05,0.000303886,0.000360567,0.000947511,0,0,0,0,0,0,0,-0.529774,-10.3162,-0.508359,20.9201,0.779436,-0.669042,0.155832,-0.579028,-1.19521,-0.129692,2.36726,0.222625,-0.662775,0.221614
4794694,1,-1.57031,-0.522761,0.000167125,-2.09589,1.5707,1.57168,0.784977,-1.5708,-0.523599,5.30879e-08,-2.0944,1.5708,1.5708,0.785397,-0.000340481,0.000223506,0.000737115,2.26696e-05,-8.60108e-07,3.01879e-06,0.000394315,0,0,0,0,0,0,0,-0.557545,-10.34,-0.559934,20.9201,0.784929,-0.662633,0.162241,-0.579419,-1.1955,-0.130116,2.36796,0.222676,-0.662706,0.22162
4794695,1,-1.5703,-0.522761,0.000163506,-2.09589,1.5707,1.57168,0.784973,-1.5708,-0.523599,5.30879e-08,-2.0944,1.5708,1.5708,0.785397,0.000886636,0.000149004,-0.000715016,1.51131e-05,-0.000441383,2.01253e-06,-0.00116128,0,0,0,0,0,0,0,-0.605152,-10.34,-0.508359,20.9201,0.796831,-0.662633,0.200693,-0.579215,-1.19523,-0.129744,2.36826,0.222681,-0.662711,0.22162
4794696,1,-1.5703,-0.522762,0.000167125,-2.09589,1.5707,1.57168,0.784977,-1.5708,-0.523599,5.30879e-08,-2.0944,1.5708,1.5708,0.785397,0.0012407,-0.00101429,0.000729749,1.00754e-05,0.000146554,1.34168e-06,0.000649969,0,0,0,0,0,0,0,-0.632923,-10.2924,-0.559934,20.9201,0.784929,-0.662633,0.162241,-0.579586,-1.19419,-0.130111,2.36816,0.222678,-0.662617,0.221612
4794697,1,-1.57031,-0.52276,0.000163506,-2.09589,1.5707,1.57168,0.784975,-1.5708,-0.523599,5.30879e-08,-2.0944,1.5708,1.5708,0.785397,-0.000379289,-0.00011938,-0.000719927,0.000563529,0.000301153,0.000238253,-0.000278764,0,0,0,0,0,0,0,-0.581349,-10.3162,-0.508359,20.8963,0.779436,-0.669042,0.181467,-0.580349,-1.19139,-0.130934,2.36714,0.22265,-0.662447,0.221611
4794698,1,-1.57031,-0.52276,0.000167125,-2.09589,1.5707,1.57168,0.784975,-1.5708,-0.523599,5.30879e-08,-2.0944,1.5708,1.5708,0.785397,0.000303952,0.000477225,0.000726475,-0.000181126,-0.000240041,-0.000315882,-0.000185843,0,0,0,0,0,0,0,-0.605152,-10.34,-0.559934,20.9201,0.791338,-0.656224,0.181467,-0.580815,-1.18866,-0.131312,2.36601,0.222606,-0.662334,0.221616
4794699,1,-1.57031,-0.522759,0.000165177,-2.09589,1.5707,1.57168,0.784977,-1.5708,-0.523599,5.30879e-08,-2.0944,1.5708,1.5708,0.785397,-0.000910989,0.00031815,-0.000165297,0.000436061,-0.000363478,-0.000210588,0.00999268,0,0,0,0,0,0,0,-0.557545,-10.34,-0.532163,20.8963,0.796831,-0.656224,0.162241,-0.580954,-1.18783,-0.131293,2.36574,0.222572,-0.662303,0.221619
4794700,1,-1.57031,-0.522761,0.000165177,-2.09589,1.5707,1.57168,0.784971,-1.5708,-0.523599,5.30879e-08,-2.0944,1.5708,1.5708,0.785397,-5.0514e-05,0.0002121,-0.000110198,-0.000266104,0.000198491,-0.000140392,0.00530926,0,0,0,0,0,0,0,-0.581349,-10.34,-0.532163,20.9201,0.784929,-0.656224,0.219919,-0.580635,-1.18834,-0.130691,2.36612,0.222537,-0.662359,0.221616
4794701,1,-1.57031,-0.522761,0.000165177,-2.09589,1.5707,1.57168,0.784975,-1.5708,-0.523599,5.30879e-08,-2.0944,1.5708,1.5708,0.785397,-0.000590488,-0.000415412,-7.34656e-05,0.00158583,0.000335778,-9.35948e-05,0.00555144,0,0,0,0,0,0,0,-0.557545,-10.3162,-0.532163,20.8448,0.779436,-0.656224,0.181467,-0.579852,-1.1884,-0.129439,2.36611,0.222473,-0.662468,0.221619
4794702,1,-1.57031,-0.522758,0.000165177,-2.09589,1.5707,1.57168,0.784977,-1.5708,-0.523599,5.30879e-08,-2.0944,1.5708,1.5708,0.785397,0.000163153,0.000279871,-4.8977e-05,-0.000149203,0.000223852,0.000174962,0.00485387,0,0,0,0,0,0,0,-0.581349,-10.34,-0.532163,20.8963,0.779436,-0.662633,0.162241,-0.579008,-1.18724,-0.128124,2.36518,0.222377,-0.662554,0.221666
4794703,1,-1.57031,-0.522764,0.000163506,-2.09589,1.5707,1.57168,0.784976,-1.5708,-0.523599,5.30879e-08,-2.0944,1.5708,1.5708,0.785397,0.000108769,-0.000927043,-0.000589463,-9.94684e-05,-0.000495025,-0.000120717,0.00309183,0,0,0,0,0,0,0,-0.581349,-10.2924,-0.508359,20.8963,0.796831,-0.656224,0.175059,-0.578251,-1.1857,-0.12693,2.36416,0.222282,-0.662601,0.221753
4794704,1,-1.57031,-0.522764,0.000163506,-2.09589,1.5707,1.57168,0.784976,-1.5708,-0.523599,5.30879e-08,-2.0944,1.5708,1.5708,0.785397,7.25126e-05,-0.000618029,-0.000392976,-6.63123e-05,0.000110793,0.00039424,0.00230919,0,0,0,0,0,0,0,-0.581349,-10.2924,-0.508359,20.8963,0.784929,-0.669042,0.175059,-0.577494,-1.18352,-0.12568,2.3632,0.222194,-0.662621,0.221848
4794705,1,-1.57031,-0.522763,0.000165177,-2.09589,1.57071,1.57168,0.784973,-1.5708,-0.523599,5.30879e-08,-2.0944,1.5708,1.5708,0.785397,-0.00050847,0.000144793,0.000294828,-4.42082e-05,0.000684213,0.000262826,0.000776,0,0,0,0,0,0,0,-0.557545,-10.3162,-0.532163,20.8963,0.76845,-0.669042,0.200693,-0.576764,-1.18119,-0.124485,2.36233,0.222124,-0.662626,0.221937
4794706,1,-1.57031,-0.522759,0.000163506,-2.09589,1.5707,1.57168,0.784979,-1.5708,-0.523599,5.30879e-08,-2.0944,1.5708,1.5708,0.785397,-0.00033898,0.00065334,-0.00036026,-2.94721e-05,-0.000154209,-6.21413e-05,0.00255569,0,0,0,0,0,0,0,-0.557545,-10.34,-0.508359,20.8963,0.784929,-0.662633,0.149424,-0.576108,-1.18076,-0.123505,2.36236,0.222094,-0.662645,0.222025
4794707,1,-1.57031,-0.52276,0.000163506,-2.09589,1.5707,1.57168,0.78498,-1.5708,-0.523599,5.30879e-08,-2.0944,1.5708,1.5708,0.785397,-0.000225987,-0.000121252,-0.000240173,-0.00113327,-0.000340165,-0.000278786,0.00231703,0,0,0,0,0,0,0,-0.557545,-10.3162,-0.508359,20.9439,0.791338,-0.656224,0.135691,-0.575378,-1.18257,-0.122488,2.3636,0.222093,-0.662707,0.222115
4794708,1,-1.57031,-0.522756,0.000161836,-2.09589,1.5707,1.57168,0.784977,-1.5708,-0.523599,5.30879e-08,-2.0944,1.5708,1.5708,0.785397,0.000406154,0.00112559,-0.000716927,0.000358109,1.05821e-05,0.00028886,0.000639802,0,0,0,0,0,0,0,-0.581349,-10.3678,-0.484555,20.8963,0.784929,-0.669042,0.162241,-0.574619,-1.18593,-0.1214,2.36576,0.222111,-0.662791,0.22217
4794709,1,-1.57031,-0.52276,0.000165177,-2.09589,1.5707,1.57168,0.784979,-1.5708,-0.523599,5.30879e-08,-2.0944,1.5708,1.5708,0.785397,-0.000935656,-0.000456032,0.000635672,0.000795551,-0.000230304,0.000429932,0.000960097,0,0,0,0,0,0,0,-0.529774,-10.3162,-0.532163,20.8725,0.791338,-0.67545,0.149424,-0.574002,-1.1892,-0.120516,2.36753,0.222119,-0.66286,0.222156
4794710,1,-1.57031,-0.522764,0.000167125,-2.09589,1.5707,1.57168,0.78497,-1.5708,-0.523599,5.30879e-08,-2.0944,1.5708,1.5708,0.785397,2.58429e-05,-0.000860833,0.0010734,0.000530368,-0.000153536,-0.000188096,-0.00216411,0,0,0,0,0,0,0,-0.557545,-10.2924,-0.559934,20.8725,0.791338,-0.662633,0.226328,-0.57401,-1.18962,-0.120732,2.36743,0.222101,-0.662814,0.222073
4794711,1,-1.57031,-0.522759,0.000165177,-2.09589,1.5707,1.57168,0.784978,-1.5708,-0.523599,5.30879e-08,-2.0944,1.5708,1.5708,0.785397,0.000574041,0.000539735,6.5983e-05,0.000353578,0.000135002,-0.000125398,0.00120131,0,0,0,0,0,0,0,-0.581349,-10.34,-0.532163,20.8725,0.784929,-0.662633,0.155832,-0.574962,-1.1877,-0.122498,2.36601,0.222089,-0.662607,0.221955
4794712,1,-1.57031,-0.52276,0.000165177,-2.09589,1.5707,1.57168,0.784978,-1.57079,-0.523597,2.55309e-06,-2.09439,1.5708,1.5708,0.785398,-0.000174118,-0.000196988,4.39887e-05,-0.00143472,-0.000147358,-8.35983e-05,0.000825698,0.00312491,0.001875,0.0025,0.00231139,0.00155808,0.005,0.000158622,-0.557545,-10.3162,-0.532163,20.9439,0.791338,-0.662633,0.155832,-0.576173,-1.18679,-0.124652,2.36532,0.222122,-0.662375,0.221843
4794713,1,-1.5703,-0.522764,0.000165177,-2.09589,1.5707,1.57168,0.784973,-1.57079,-0.523593,7.55309e-06,-2.09439,1.5708,1.57081,0.785398,0.00164716,-0.000688138,2.93258e-05,0.000157146,0.000342571,-0.000293091,-0.00109243,0.00624981,0.00375,0.005,0.00462278,0.00311616,0.01,0.000317245,-0.632923,-10.2924,-0.532163,20.8963,0.779436,-0.656224,0.200693,-0.577326,-1.1868,-0.126645,2.36561,0.222192,-0.66216,0.221737
4794714,1,-1.5703,-0.522757,0.000161836,-2.09589,1.5707,1.57168,0.784978,-1.57078,-0.523587,1.50531e-05,-2.09438,1.57081,1.57083,0.785398,0.000448492,0.00130448,-0.00109407,0.000661576,0.000228381,4.19648e-05,0.000947191,0.00937472,0.005625,0.0075,0.00693417,0.00467425,0.015,0.000475867,-0.605152,-10.3678,-0.484555,20.8725,0.779436,-0.662633,0.155832,-0.578426,-1.18685,-0.128324,2.36585,0.222248,-0.661957,0.221629
4794715,1,-1.5703,-0.522759,0.00016163,-2.09589,1.5707,1.57168,0.784972,-1.57076,-0.52358,2.50531e-05,-2.09437,1.57081,1.57085,0.785399,0.00114442,0.00472666,-0.00122898,-0.00122939,-5.11968e-05,2.79766e-05,-0.00125694,0.0124996,0.0075,0.01,0.00924556,0.00623233,0.02,0.00063449,-0.50597,-10.2646,-0.329831,20.9439,0.784929,-0.662633,0.207102,-0.578755,-1.19222,-0.128517,2.36822,0.222325,-0.661948,0.221529
4794716,1,-1.5703,-0.522765,0.000164299,-2.09589,1.5707,1.57168,0.784977,-1.57075,-0.523571,3.75531e-05,-2.09436,1.57082,1.57087,0.7854,0.00146285,0.00151486,8.32264e-05,-0.00202602,-0.000678391,-0.000456067,0.000831409,0.0156245,0.009375,0.0125,0.011557,0.00779041,0.025,0.000793112,-0.252064,-10.0385,0.0470608,20.9955,0.802324,-0.649816,0.162241,-0.578714,-1.20605,-0.127864,2.37498,0.222525,-0.662102,0.221441
4794717,1,-1.57032,-0.522765,0.000180725,-2.09589,1.5707,1.57168,0.784975,-1.57073,-0.523559,5.25531e-05,-2.09435,1.57083,1.5709,0.785401,-0.000702315,0.00255743,0.00590316,-0.00118649,0.00039545,-6.66856e-05,-0.000151913,0.0187494,0.01125,0.015,0.0138683,0.00934849,0.03,0.000951734,0.251781,-9.80838,0.376346,21.1185,0.779436,-0.656224,0.181467,-0.580482,-1.22265,-0.130123,2.38398,0.222895,-0.661981,0.221383
4794718,1,-1.57032,-0.522765,0.000194485,-2.09589,1.57071,1.57168,0.78497,-1.57071,-0.523546,7.00531e-05,-2.09433,1.57084,1.57094,0.785402,-0.000186264,0.00313359,0.00633968,0.00129945,0.000670534,-0.000281816,-0.00202964,0.0218743,0.013125,0.0175,0.0161797,0.0109066,0.035,0.00111036,0.704052,-9.55844,0.884158,21.1701,0.76845,-0.649816,0.233652,-0.58545,-1.2373,-0.138166,2.39241,0.223437,-0.661233,0.221362
4794719,1,-1.57031,-0.522755,0.000216642,-2.09588,1.57071,1.57169,0.784971,-1.57068,-0.523531,9.00531e-05,-2.09431,1.57085,1.57098,0.785403,-0.000264357,0.0041181,0.012868,0.00282173,0.000853924,-0.000662595,-0.000841151,0.0249993,0.015,0.02,0.0184911,0.0124647,0.04,0.00126898,1.05714,-9.45529,1.28882,21.2455,0.757463,-0.636998,0.219919,-0.593884,-1.24868,-0.153026,2.39883,0.22412,-0.659671,0.221406
4794720,1,-1.57031,-0.522748,0.000246605,-2.09588,1.57071,1.57169,0.784977,-1.57066,-0.523514,0.000112553,-2.09429,1.57087,1.57102,0.785405,0.000499733,0.00727494,0.016519,0.000816395,0.00101009,-0.000679089,0.00157795,0.0281242,0.016875,0.0225,0.0208025,0.0140227,0.045,0.0014276,1.51338,-9.32834,1.61811,21.3169,0.745561,-0.63059,0.162241,-0.606563,-1.25927,-0.176561,2.40494,0.225034,-0.657034,0.221566
4794721,1,-1.57031,-0.52274,0.000273787,-2.09587,1.57071,1.57169,0.784975,-1.57062,-0.523496,0.000137553,-2.09427,1.57088,1.57107,0.785406,-0.00124624,0.00341431,0.018043,0.00336745,0.00427146,0.000734069,0.000104394,0.0312491,0.01875,0.025,0.0231139,0.0155808,0.05,0.00158622,1.94184,-9.20535,1.99897,21.3446,0.762956,-0.662633,0.187876,-0.621996,-1.26964,-0.207085,2.41219,0.226173,-0.653371,0.221837
4794722,1,-1.57031,-0.52273,0.000300607,-2.09587,1.57071,1.5717,0.784978,-1.57059,-0.523473,0.000167553,-2.09424,1.5709,1.57113,0.785408,0.00279487,0.00762171,0.0173319,0.00293943,0.00215,0.00143881,7.09938e-05,0.0371244,0.0225,0.03,0.0272503,0.0182639,0.06,0.00174772,2.27113,-9.12601,2.32825,21.4676,0.791338,-0.688268,0.187876,-0.636073,-1.276,-0.238427,2.41906,0.227315,-0.649115,0.222167
4794723,1,-1.57029,-0.522723,0.000333338,-2.09586,1.57071,1.57171,0.784979,-1.57054,-0.523447,0.000202553,-2.09421,1.57092,1.5712,0.78541,0.00529207,0.00662455,0.0221901,0.0045783,0.00129158,0.00495524,0.00123517,0.0429997,0.02625,0.035,0.0313867,0.020947,0.07,0.00190922,2.49726,-9.00302,2.55438,21.5152,0.802324,-0.669042,0.155832,-0.647254,-1.27934,-0.268058,2.42608,0.228452,-0.644461,0.222523
4794724,1,-1.57028,-0.522713,0.000367297,-2.09585,1.57071,1.57171,0.784978,-1.5705,-0.523417,0.000242553,-2.09417,1.57095,1.57128,0.785412,0.00668592,0.00584122,0.0262702,0.00620796,0.000856462,0.00720232,0.000586876,0.048875,0.03,0.04,0.0355231,0.0236301,0.08,0.00207072,2.7234,-8.87607,2.75672,21.543,0.807817,-0.636998,0.162241,-0.656904,-1.27813,-0.298315,2.43259,0.229696,-0.639202,0.222891
4794725,1,-1.57027,-0.522706,0.000395433,-2.09584,1.57071,1.57172,0.784978,-1.57044,-0.523383,0.000287553,-2.09413,1.57097,1.57137,0.785414,0.0119161,0.00542098,0.0275633,0.00889288,0.000720119,0.00828872,0.000629199,0.0547503,0.03375,0.045,0.0396595,0.0263131,0.09,0.00223222,2.92573,-8.62216,3.16138,21.5152,0.807817,-0.585729,0.155832,-0.665857,-1.26699,-0.330597,2.4357,0.231036,-0.633131,0.223243
4794726,1,-1.57025,-0.52269,0.000439324,-2.09583,1.57071,1.57173,0.784975,-1.57038,-0.523346,0.000337553,-2.09409,1.571,1.57147,0.785416,0.0136459,0.0116647,0.034327,0.0116679,0.000388487,0.00789093,-0.000766886,0.0606256,0.0375,0.05,0.0437959,0.0289962,0.1,0.00239372,3.33039,-8.36826,3.59381,21.5668,0.81331,-0.495092,0.187876,-0.674795,-1.24865,-0.365618,2.43596,0.232527,-0.626107,0.223555
4794727,1,-1.57024,-0.522677,0.000486879,-2.09582,1.57072,1.57173,0.784973,-1.57031,-0.523304,0.000392553,-2.09404,1.57103,1.57158,0.785419,0.0140759,0.00936366,0.0368193,0.00936375,0.00115669,0.00622592,-0.000985644,0.0665009,0.04125,0.055,0.0479323,0.0316793,0.11,0.00255522,3.90962,-7.93979,4.14923,21.6898,0.791338,-0.366002,0.200693,-0.683853,-1.2302,-0.403661,2.43705,0.234319,-0.618028,0.223822
4794728,1,-1.57021,-0.52265,0.000537224,-2.09579,1.57072,1.57175,0.784978,-1.57024,-0.523259,0.000452553,-2.09399,1.57107,1.5717,0.785422,0.0181428,0.0147409,0.0401501,0.0178769,0.00232602,0.0118019,0.00100467,0.0723762,0.045,0.06,0.0520686,0.0343624,0.12,0.00271672,4.36189,-7.66208,4.784,21.6422,0.751055,-0.282689,0.155832,-0.691107,-1.21263,-0.441917,2.43974,0.236372,-0.608949,0.224068
4794729,1,-1.57016,-0.522614,0.000590634,-2.09576,1.57073,1.57177,0.784974,-1.57016,-0.523211,0.000517553,-2.09393,1.5711,1.57183,0.785425,0.0234754,0.0203555,0.0459046,0.0187432,0.00241167,0.0161227,-0.00075419,0.0782515,0.04875,0.065,0.056205,0.0370454,0.13,0.00287822,4.71498,-7.45975,5.4148,21.6898,0.729082,-0.205785,0.194285,-0.695939,-1.19845,-0.479189,2.44384,0.238605,-0.598768,0.22432
4794730,1,-1.57012,-0.522576,0.000657223,-2.09575,1.57074,1.5718,0.784982,-1.57008,-0.523158,0.000587553,-2.09387,1.57114,1.57197,0.785428,0.0318854,0.0251486,0.052011,0.0206539,0.00699481,0.0203334,0.00115886,0.0841268,0.0525,0.07,0.0603414,0.0397285,0.14,0.00303972,5.14344,-7.28122,5.87104,21.8167,0.700701,-0.1536,0.149424,-0.700993,-1.1953,-0.518993,2.45294,0.241158,-0.58695,0.224568
4794731,1,-1.57006,-0.522535,0.000718831,-2.09572,1.57075,1.57185,0.784975,-1.56999,-0.523102,0.000662553,-2.09381,1.57119,1.57212,0.785431,0.0417271,0.0286522,0.0514685,0.0225916,0.00865757,0.0300936,-0.000888835,0.0900021,0.05625,0.075,0.0644778,0.0424116,0.15,0.00320122,5.42115,-7.10666,6.40265,21.9397,0.71718,-0.1536,0.194285,-0.70789,-1.20596,-0.562665,2.46957,0.244059,-0.573101,0.224792
4794732,1,-1.57,-0.522498,0.000783702,-2.09568,1.57076,1.57191,0.784971,-1.56989,-0.52304,0.000745053,-2.09374,1.57123,1.57229,0.785434,0.0499109,0.0298788,0.0561519,0.0268193,0.00832358,0.0438095,-0.00154191,0.0984682,0.061875,0.0825,0.0701084,0.0461276,0.165,0.00319486,5.65126,-6.87656,6.85889,21.9397,0.784929,-0.205785,0.219919,-0.715103,-1.22511,-0.606702,2.49159,0.247105,-0.557378,0.224984
4794733,1,-1.56993,-0.522459,0.000856346,-2.09566,1.57076,1.57198,0.78497,-1.56978,-0.522972,0.000835053,-2.09366,1.57128,1.57247,0.785437,0.0571308,0.0304349,0.0597489,0.0246142,0.00915259,0.0585261,-0.00153651,0.106934,0.0675,0.09,0.075739,0.0498435,0.18,0.0031885,5.82582,-6.62662,7.16437,22.1619,0.825212,-0.257054,0.233652,-0.720964,-1.24454,-0.648242,2.51603,0.250202,-0.5401,0.225172
4794734,1,-1.56986,-0.52242,0.000930003,-2.09562,1.57077,1.57206,0.784961,-1.56967,-0.522899,0.000932553,-2.09358,1.57134,1.57266,0.78544,0.0601108,0.0337496,0.0628338,0.0307743,0.00522715,0.0687355,-0.0038726,0.1154,0.073125,0.0975,0.0813696,0.0535594,0.195,0.00318214,5.95277,-6.37271,7.44208,22.1897,0.875566,-0.295507,0.310557,-0.723173,-1.25948,-0.684077,2.54176,0.253397,-0.521814,0.225417
4794735,1,-1.56977,-0.522368,0.00100296,-2.09557,1.57078,1.57217,0.784952,-1.56954,-0.522821,0.00103755,-2.0935,1.57139,1.57287,0.785444,0.0736224,0.0434199,0.0681667,0.035997,0.00727188,0.0804638,-0.00570128,0.123867,0.07875,0.105,0.0870002,0.0572754,0.21,0.00317578,5.97657,-6.17038,7.84674,22.1897,0.909441,-0.321141,0.394785,-0.720882,-1.27281,-0.712767,2.5689,0.256808,-0.502997,0.225816
4794736,1,-1.56968,-0.522317,0.0010842,-2.09552,1.57079,1.57227,0.784949,-1.56941,-0.522736,0.00115005,-2.0934,1.57145,1.5731,0.785447,0.079946,0.0476534,0.0726585,0.0391893,0.00532245,0.0909345,-0.0045129,0.132333,0.084375,0.1125,0.0926308,0.0609913,0.225,0.00316942,6.17891,-5.81729,8.35456,22.2135,0.921343,-0.257054,0.414011,-0.71686,-1.29211,-0.737644,2.59944,0.260683,-0.483668,0.226521
4794737,1,-1.56959,-0.522254,0.00117729,-2.09547,1.57081,1.57239,0.784945,-1.56927,-0.522646,0.00127005,-2.0933,1.57152,1.57334,0.78545,0.0847779,0.0522006,0.079734,0.0453349,0.0102416,0.102961,-0.00351721,0.140799,0.09,0.12,0.0982614,0.0647073,0.24,0.00316307,6.63514,-5.51181,8.8584,22.2135,0.875566,-0.172826,0.427744,-0.712259,-1.31792,-0.760025,2.63341,0.265142,-0.463923,0.227695
4794738,1,-1.56949,-0.522189,0.00127782,-2.0954,1.57082,1.57254,0.784949,-1.56912,-0.522551,0.00139755,-2.0932,1.57159,1.57359,0.785453,0.0901839,0.0545645,0.0883526,0.0521517,0.0117635,0.115665,-0.000649371,0.149265,0.095625,0.1275,0.103892,0.0684232,0.255,0.00315671,7.03584,-5.15872,9.49317,22.1143,0.881059,-0.179235,0.381968,-0.706798,-1.34232,-0.779856,2.66644,0.27006,-0.4438,0.229456
4794739,1,-1.56937,-0.522114,0.00138631,-2.09533,1.57085,1.5727,0.784957,-1.56896,-0.522449,0.00153255,-2.09309,1.57166,1.57386,0.785456,0.0985538,0.0606032,0.0922166,0.0546069,0.0180453,0.131678,0.00122861,0.157731,0.10125,0.135,0.109523,0.0721392,0.27,0.00315035,7.38893,-4.85721,10.124,22.1143,0.86458,-0.237828,0.337107,-0.700384,-1.36013,-0.797199,2.69599,0.275303,-0.423221,0.231816
4794740,1,-1.56924,-0.522027,0.00150766,-2.09527,1.57088,1.5729,0.784962,-1.5688,-0.522342,0.00167505,-2.09298,1.57173,1.57415,0.785459,0.104526,0.0694905,0.101998,0.0592584,0.0242255,0.153717,0.00227714,0.166197,0.106875,0.1425,0.115153,0.0758551,0.285,0.00314399,7.76979,-4.6033,10.608,22.1143,0.807817,-0.32755,0.297739,-0.692179,-1.37696,-0.810729,2.72554,0.280891,-0.402409,0.234663
4794741,1,-1.5691,-0.52194,0.00162847,-2.09519,1.57092,1.57311,0.784972,-1.56862,-0.52223,0.00182505,-2.09285,1.57181,1.57445,0.785463,0.113956,0.0736248,0.105219,0.0630729,0.0315818,0.176938,0.00487503,0.174663,0.1125,0.15,0.120784,0.0795711,0.3,0.00313763,7.94435,-4.37717,11.1118,22.1143,0.784929,-0.469457,0.207102,-0.681151,-1.39947,-0.81886,2.75877,0.286833,-0.381788,0.237808
4794742,1,-1.56894,-0.521853,0.00174484,-2.09511,1.57095,1.57335,0.784975,-1.56844,-0.522111,0.00198504,-2.09273,1.5719,1.57477,0.785466,0.128373,0.078906,0.105429,0.0686714,0.0303879,0.198869,0.0039621,0.184781,0.119422,0.15999,0.127407,0.083858,0.319215,0.00304453,8.0475,-4.12326,11.5919,22.1381,0.830705,-0.611364,0.187876,-0.665519,-1.42537,-0.817881,2.79469,0.29289,-0.36191,0.241034
4794743,1,-1.56879,-0.521762,0.00187615,-2.09502,1.57099,1.5736,0.784973,-1.56824,-0.521984,0.00215502,-2.09259,1.57199,1.5751,0.785469,0.13276,0.0805335,0.11518,0.0760575,0.0344872,0.215017,0.00216669,0.194899,0.126343,0.16998,0.13403,0.0881448,0.33843,0.00295142,8.29744,-3.89713,11.9211,22.1619,0.86458,-0.636998,0.200693,-0.644576,-1.44626,-0.80558,2.82887,0.298781,-0.343136,0.244134
4794744,1,-1.56863,-0.521664,0.00201012,-2.09493,1.57104,1.57386,0.784969,-1.56804,-0.521851,0.00233499,-2.09245,1.57208,1.57546,0.785471,0.145099,0.0858873,0.120118,0.0813348,0.0369414,0.225146,-1.36007e-05,0.205016,0.133265,0.17997,0.140653,0.0924317,0.357646,0.00285832,8.42439,-3.7186,12.2028,22.1897,0.909441,-0.598546,0.240061,-0.620302,-1.45404,-0.784936,2.85702,0.304424,-0.325316,0.246966
4794745,1,-1.56845,-0.521564,0.002138,-2.09482,1.57109,1.57414,0.784957,-1.56782,-0.521711,0.00252495,-2.09231,1.57218,1.57584,0.785474,0.157172,0.0881024,0.12568,0.089282,0.0396221,0.241486,-0.00407808,0.215134,0.140187,0.18996,0.147276,0.0967186,0.376861,0.00276521,8.55134,-3.46469,12.6591,22.1897,0.949724,-0.539952,0.349924,-0.595559,-1.44508,-0.759932,2.87729,0.30988,-0.308062,0.249495
4794746,1,-1.56826,-0.521457,0.00228165,-2.09471,1.57115,1.57444,0.784947,-1.5676,-0.521564,0.0027249,-2.09215,1.57228,1.57623,0.785477,0.167468,0.0955576,0.131689,0.0971182,0.0474134,0.257754,-0.00583829,0.225251,0.147108,0.19995,0.153899,0.101005,0.396076,0.0026721,8.75367,-3.18698,13.1629,22.1143,0.937822,-0.443822,0.434153,-0.571889,-1.41927,-0.732309,2.88902,0.315226,-0.29114,0.251801
4794747,1,-1.56808,-0.521336,0.00242971,-2.0946,1.57123,1.57477,0.784942,-1.56736,-0.52141,0.00293484,-2.09199,1.57238,1.57665,0.785479,0.171391,0.100947,0.141227,0.100976,0.0560484,0.277776,-0.00460427,0.235369,0.15403,0.20994,0.160522,0.105292,0.415291,0.002579,9.23372,-2.90927,13.6945,22.1143,0.853594,-0.424596,0.453379,-0.548538,-1.38218,-0.701434,2.89474,0.320599,-0.274607,0.254067
4794748,1,-1.56788,-0.521212,0.00258377,-2.09447,1.5713,1.57512,0.784933,-1.56712,-0.521249,0.00315477,-2.09182,1.57249,1.57708,0.785482,0.182214,0.108934,0.143629,0.109538,0.0650819,0.299931,-0.00571437,0.245487,0.160952,0.21993,0.167145,0.109579,0.434506,0.00248589,9.55903,-2.65536,14.3531,22.0151,0.807817,-0.482274,0.52479,-0.522659,-1.3415,-0.663888,2.89861,0.326056,-0.258768,0.256499
4794749,1,-1.56766,-0.521076,0.00275494,-2.09433,1.57139,1.57549,0.784938,-1.56686,-0.521081,0.00338469,-2.09165,1.5726,1.57754,0.785484,0.193701,0.116194,0.15307,0.117006,0.0716285,0.327353,-0.00211416,0.255604,0.167873,0.22992,0.173768,0.113866,0.453721,0.00239279,9.88832,-2.45303,14.9601,21.9873,0.757463,-0.566503,0.479014,-0.492639,-1.30181,-0.617349,2.90233,0.331493,-0.24379,0.259274
4794750,1,-1.56743,-0.520933,0.00293756,-2.09419,1.57148,1.57589,0.784952,-1.5666,-0.520906,0.0036246,-2.09147,1.57272,1.57801,0.785487,0.201631,0.124015,0.162833,0.124329,0.0779111,0.346288,0.00337165,0.265722,0.174795,0.23991,0.180391,0.118153,0.472937,0.00229968,10.2414,-2.2269,15.4679,21.8882,0.677812,-0.617772,0.349924,-0.46034,-1.26575,-0.564856,2.90662,0.336872,-0.229408,0.262516
4794751,1,-1.5672,-0.520784,0.00312151,-2.09405,1.57159,1.57631,0.784956,-1.56632,-0.520724,0.0038745,-2.09128,1.57285,1.5785,0.785489,0.210223,0.134289,0.170372,0.131264,0.085424,0.365866,0.00346847,0.27584,0.181717,0.2499,0.187015,0.12244,0.492152,0.00220658,10.6183,-2.05234,15.9479,21.8644,0.627458,-0.694677,0.316965,-0.427018,-1.23693,-0.509007,2.91339,0.342165,-0.215448,0.266189
4794752,1,-1.56695,-0.520626,0.00330393,-2.09389,1.57169,1.57675,0.784964,-1.56603,-0.520535,0.00413439,-2.09109,1.57297,1.57902,0.785491,0.22072,0.141476,0.174338,0.139631,0.0883056,0.391928,0.00421118,0.286829,0.189207,0.25989,0.194241,0.126972,0.512142,0.00207259,10.7968,-1.87381,16.5073,21.8167,0.649431,-0.817357,0.265696,-0.390655,-1.21834,-0.446981,2.92403,0.347181,-0.202271,0.270095
4794753,1,-1.5667,-0.520468,0.00350367,-2.09372,1.57181,1.57722,0.784963,-1.56574,-0.520338,0.00440427,-2.09089,1.5731,1.57955,0.785493,0.228417,0.148638,0.183442,0.148251,0.096808,0.411185,0.00209538,0.297819,0.196697,0.26988,0.201468,0.131505,0.532132,0.00193861,11.0468,-1.67148,16.8088,21.6898,0.632951,-0.842992,0.284922,-0.348888,-1.2067,-0.375162,2.93667,0.351654,-0.190329,0.274004
4794754,1,-1.56644,-0.520301,0.00370909,-2.09355,1.57194,1.57769,0.784951,-1.56543,-0.520134,0.00468414,-2.09068,1.57324,1.5801,0.785495,0.23794,0.152279,0.1898,0.156656,0.102344,0.435612,-0.00172265,0.308809,0.204187,0.27987,0.208695,0.136037,0.552122,0.00180463,11.2253,-1.49295,17.0865,21.6144,0.62105,-0.849401,0.36915,-0.30127,-1.19337,-0.29303,2.94704,0.355393,-0.179737,0.277742
4794755,1,-1.56616,-0.520128,0.00390479,-2.09336,1.57206,1.57821,0.784947,-1.56511,-0.519922,0.004974,-2.09046,1.57338,1.58067,0.785496,0.24513,0.158228,0.191778,0.167029,0.109969,0.458603,-0.00233523,0.319799,0.211677,0.28986,0.215922,0.140569,0.572112,0.00167065,11.376,-1.31839,17.4912,21.4914,0.654924,-0.849401,0.401194,-0.24598,-1.16902,-0.197836,2.95044,0.358182,-0.170763,0.281253
4794756,1,-1.56589,-0.519953,0.00411895,-2.09317,1.57219,1.57874,0.784938,-1.56478,-0.519703,0.00527385,-2.09024,1.57353,1.58126,0.785498,0.253227,0.165491,0.203212,0.173526,0.116071,0.483072,-0.00420168,0.330788,0.219167,0.29985,0.223149,0.145102,0.592102,0.00153667,11.5506,-1.11606,17.8721,21.416,0.672319,-0.791722,0.472605,-0.181181,-1.13109,-0.0869421,2.94553,0.359958,-0.163692,0.284603
4794757,1,-1.5656,-0.519766,0.00435975,-2.09298,1.57233,1.57928,0.784936,-1.56443,-0.519477,0.00558369,-2.09001,1.57368,1.58188,0.785499,0.263464,0.167996,0.212886,0.181276,0.122764,0.500864,-0.00351319,0.341778,0.226657,0.30984,0.230376,0.149634,0.612092,0.00140268,11.7807,-0.937531,18.0744,21.4676,0.627458,-0.707494,0.491831,-0.110559,-1.08043,0.0336333,2.9337,0.361022,-0.15789,0.287928
4794758,1,-1.5653,-0.519567,0.00459691,-2.09277,1.57248,1.57986,0.784942,-1.56408,-0.519243,0.00590352,-2.08977,1.57383,1.58251,0.7855,0.277014,0.179209,0.219119,0.191353,0.128134,0.525449,-0.000443258,0.352768,0.234147,0.31983,0.237603,0.154166,0.632082,0.0012687,11.9315,-0.885956,18.3045,21.4676,0.581682,-0.707494,0.440561,-0.0392039,-1.01811,0.156426,2.91599,0.361671,-0.152403,0.29139
4794759,1,-1.56498,-0.519364,0.00483191,-2.09255,1.57263,1.58047,0.784942,-1.56372,-0.519001,0.00623334,-2.08953,1.57399,1.58316,0.785502,0.287831,0.183772,0.221993,0.201623,0.128529,0.560583,-0.000295506,0.363758,0.241637,0.32982,0.24483,0.158699,0.652072,0.00113472,11.9077,-0.810577,18.7092,21.3922,0.615556,-0.830175,0.440561,0.0328522,-0.948377,0.2821,2.89351,0.36195,-0.147163,0.29508
4794760,1,-1.56467,-0.519148,0.0050919,-2.09232,1.5728,1.58111,0.78495,-1.56334,-0.518752,0.00657315,-2.08927,1.57415,1.58383,0.785503,0.296162,0.193026,0.234725,0.211219,0.138518,0.582294,-0.00222153,0.374747,0.249127,0.33981,0.252056,0.163231,0.672062,0.00100074,12.106,-0.735199,18.8361,21.3446,0.519426,-0.875035,0.36915,0.107236,-0.8736,0.413109,2.86664,0.361829,-0.142456,0.29899
4794761,1,-1.56434,-0.518923,0.00535464,-2.09208,1.57297,1.58178,0.784958,-1.56296,-0.518495,0.00692295,-2.08902,1.57432,1.58452,0.785503,0.306023,0.201931,0.242487,0.218386,0.148574,0.610183,0.000774723,0.385737,0.256617,0.3498,0.259283,0.167763,0.692052,0.000866757,12.1814,-0.735199,19.0107,21.3169,0.469072,-0.997716,0.297739,0.182602,-0.798269,0.54679,2.8378,0.361419,-0.138163,0.303035
4794762,1,-1.56399,-0.518691,0.00562087,-2.09183,1.57314,1.58247,0.784955,-1.56256,-0.518231,0.00728274,-2.08875,1.57449,1.58524,0.785504,0.322062,0.21158,0.248265,0.226836,0.157475,0.638259,-0.00072479,0.39694,0.264107,0.35979,0.266821,0.172336,0.712042,0.000711843,12.1576,-0.735199,19.3162,21.2931,0.469072,-1.16526,0.323374,0.257302,-0.730042,0.680752,2.8114,0.360799,-0.134251,0.307043
4794763,1,-1.56364,-0.518451,0.0059122,-2.09158,1.57332,1.58317,0.784963,-1.56215,-0.517959,0.00765252,-2.08847,1.57467,1.58597,0.785505,0.326949,0.21881,0.260907,0.233203,0.161724,0.655627,0.00190888,0.408144,0.271597,0.36978,0.27436,0.176909,0.732032,0.000556929,12.2846,-0.735199,19.4153,21.2693,0.451677,-1.13962,0.252878,0.330265,-0.67234,0.813668,2.79001,0.359972,-0.130817,0.310842
4794764,1,-1.5633,-0.518209,0.00621254,-2.09132,1.57351,1.58389,0.784963,-1.56173,-0.51768,0.00803229,-2.08819,1.57485,1.58672,0.785505,0.334982,0.226673,0.273695,0.241872,0.168958,0.680184,0.00110843,0.419347,0.279087,0.37977,0.281898,0.181482,0.752022,0.000402014,12.5107,-0.711395,19.4669,21.2177,0.417803,-0.997716,0.252878,0.400008,-0.623689,0.942353,2.77377,0.359003,-0.127799,0.31432
4794765,1,-1.56292,-0.517958,0.00650484,-2.09104,1.57369,1.58462,0.784953,-1.5613,-0.517394,0.00842205,-2.0879,1.57504,1.58749,0.785505,0.344856,0.23386,0.289517,0.255058,0.171348,0.6953,-0.0027411,0.430551,0.286577,0.38976,0.289436,0.186055,0.772012,0.0002471,12.5345,-0.76297,19.7208,21.1185,0.485552,-0.90067,0.343516,0.463541,-0.57861,1.06111,2.75938,0.35793,-0.124685,0.317409
4794766,1,-1.56255,-0.517702,0.00681068,-2.09076,1.57387,1.58541,0.784947,-1.56086,-0.5171,0.0088218,-2.08761,1.57523,1.58828,0.785506,0.354904,0.242507,0.293126,0.261157,0.173569,0.721565,-0.00381861,0.441754,0.294067,0.39975,0.296974,0.190628,0.792002,9.21859e-05,12.6138,-0.810577,19.8716,21.0709,0.553301,-0.972081,0.394785,0.519852,-0.533032,1.16826,2.74363,0.356724,-0.121047,0.320114
4794767,1,-1.56217,-0.517429,0.00714302,-2.09047,1.57408,1.58619,0.784941,-1.56041,-0.516798,0.00923154,-2.0873,1.57542,1.5891,0.785505,0.362276,0.249616,0.303806,0.267712,0.18395,0.744734,-0.00454777,0.452958,0.301557,0.40974,0.304512,0.195201,0.811992,-6.27283e-05,12.8122,-0.885956,19.7962,21.0709,0.485552,-0.97849,0.44697,0.573523,-0.488867,1.27117,2.72814,0.355389,-0.117343,0.322531
4794768,1,-1.56176,-0.517148,0.00746599,-2.09017,1.57428,1.58701,0.784942,-1.55994,-0.516489,0.00965127,-2.08699,1.57562,1.58993,0.785505,0.374337,0.262313,0.310941,0.275164,0.194568,0.768693,-0.0119625,0.464161,0.309047,0.41973,0.31205,0.199774,0.831982,-0.000217643,12.7368,-1.01291,20.0263,21.0947,0.480058,-1.02976,0.434153,0.628216,-0.452149,1.37559,2.71673,0.354029,-0.11405,0.32481
4794769,1,-1.56135,-0.516863,0.00781171,-2.08987,1.5745,1.58786,0.784939,-1.55947,-0.516173,0.010081,-2.08667,1.57583,1.59078,0.785505,0.383849,0.269138,0.32125,0.279957,0.198207,0.789405,-0.0087934,0.475364,0.316537,0.42972,0.319589,0.204346,0.851972,-0.000372557,12.7646,-1.16763,20.0501,21.1701,0.451677,-1.04899,0.434153,0.683964,-0.428844,1.48163,2.71265,0.352779,-0.111176,0.327103
4794770,1,-1.56095,-0.516565,0.00817781,-2.08955,1.57472,1.58871,0.784948,-1.55898,-0.515849,0.0105207,-2.08634,1.57603,1.59165,0.785504,0.390579,0.275971,0.334538,0.292242,0.20519,0.812486,-0.00430593,0.486568,0.324027,0.43971,0.327127,0.208919,0.871962,-0.000527471,13.0423,-1.29062,19.9747,21.0947,0.417803,-1.01694,0.375559,0.739477,-0.415483,1.58705,2.71418,0.351643,-0.108505,0.32951
4794771,1,-1.56052,-0.516265,0.00853308,-2.08923,1.57494,1.58961,0.784955,-1.55848,-0.515517,0.0109704,-2.08601,1.57625,1.59254,0.785504,0.411733,0.288673,0.340978,0.296819,0.209063,0.836099,-0.00116084,0.497771,0.331517,0.4497,0.334665,0.213492,0.891952,-0.000682385,13.1177,-1.39377,20.0263,21.1185,0.435198,-1.18448,0.316965,0.792,-0.408019,1.68774,2.71846,0.35059,-0.105641,0.332047
4794772,1,-1.56006,-0.515948,0.00890206,-2.0889,1.57516,1.59051,0.784955,-1.55797,-0.515178,0.0114301,-2.08567,1.57647,1.59346,0.785503,0.429803,0.297881,0.349103,0.306486,0.2118,0.85478,-0.00111916,0.508618,0.339007,0.45969,0.342303,0.21797,0.911942,-0.000859229,13.0661,-1.54453,20.1771,21.0193,0.428789,-1.22294,0.316965,0.83772,-0.411515,1.7792,2.72754,0.349724,-0.102139,0.334636
4794773,1,-1.5596,-0.515623,0.00928896,-2.08856,1.5754,1.59142,0.784953,-1.55746,-0.514832,0.0118998,-2.08532,1.57669,1.59439,0.785502,0.437179,0.302902,0.362235,0.314078,0.221684,0.867298,-0.0019884,0.519464,0.346497,0.46968,0.349942,0.222448,0.931932,-0.00103607,13.1177,-1.6199,20.2009,21.0193,0.366533,-1.10666,0.343516,0.874655,-0.423489,1.85878,2.74005,0.349024,-0.097727,0.33716
4794774,1,-1.55913,-0.515301,0.00969563,-2.08821,1.57564,1.59238,0.784952,-1.55693,-0.514478,0.0123794,-2.08496,1.57692,1.59534,0.785501,0.449961,0.307067,0.375187,0.323971,0.231071,0.894476,-0.00175717,0.530311,0.353987,0.47967,0.35758,0.226926,0.951922,-0.00121292,13.1653,-1.56833,20.2286,20.9955,0.350054,-1.19089,0.349924,0.90321,-0.430597,1.92583,2.74919,0.348264,-0.0923282,0.33955
4794775,1,-1.55865,-0.514957,0.0101057,-2.08786,1.57588,1.59335,0.78494,-1.55638,-0.514116,0.0128691,-2.08459,1.57715,1.59631,0.785499,0.453016,0.31692,0.383516,0.332469,0.231683,0.916362,-0.00419932,0.541158,0.361477,0.48966,0.365218,0.231404,0.971912,-0.00138976,13.1931,-1.67148,20.304,21.0193,0.372942,-1.28702,0.427744,0.926963,-0.425648,1.98431,2.75106,0.347217,-0.0864402,0.341795
4794776,1,-1.55816,-0.514614,0.0105385,-2.08751,1.57612,1.59433,0.784938,-1.55583,-0.513747,0.0133688,-2.08422,1.57738,1.5973,0.785498,0.461066,0.327094,0.400998,0.345529,0.234607,0.933295,-0.00338351,0.552004,0.368967,0.49965,0.372856,0.235882,0.991902,-0.0015666,13.3954,-1.74686,20.1771,21.0709,0.355547,-1.23575,0.440561,0.950382,-0.413087,2.03961,2.74666,0.345827,-0.0808596,0.34395
4794777,1,-1.55767,-0.514266,0.0109819,-2.08714,1.57637,1.59531,0.784946,-1.55527,-0.513371,0.0138784,-2.08384,1.57762,1.59832,0.785496,0.474047,0.334643,0.410176,0.353293,0.235165,0.972251,0.00054461,0.562851,0.376457,0.50964,0.380495,0.240359,1.01189,-0.00174345,13.443,-1.82224,20.1533,21.0709,0.355547,-1.21012,0.362742,0.973497,-0.398112,2.09101,2.73762,0.34423,-0.0758161,0.346129
4794778,1,-1.55714,-0.513898,0.0114331,-2.08677,1.57662,1.59633,0.784945,-1.5547,-0.512987,0.014398,-2.08345,1.57787,1.59935,0.785494,0.483891,0.344004,0.425255,0.352013,0.239104,0.977963,-0.000885171,0.573697,0.383947,0.51963,0.388133,0.244837,1.03188,-0.00192029,13.2922,-1.94919,20.1017,21.2177,0.400408,-1.18448,0.394785,0.994449,-0.38663,2.13573,2.72935,0.342719,-0.0711323,0.348379
4794779,0.99,-1.55661,-0.513527,0.0119,-2.08639,1.57688,1.59736,0.784949,-1.55411,-0.512595,0.0149276,-2.08306,1.57812,1.6004,0.785492,0.498297,0.352152,0.438666,0.359163,0.24763,0.989692,0.000313234,0.584544,0.391437,0.52962,0.395771,0.249315,1.05187,-0.00209714,13.1653,-2.09995,19.947,21.3169,0.423296,-1.13962,0.36915,1.00991,-0.386278,2.16912,2.72972,0.341643,-0.0660458,0.350661
4794780,0.99,-1.55608,-0.513139,0.0123886,-2.086,1.57715,1.5984,0.784951,-1.55352,-0.512196,0.0154673,-2.08265,1.57837,1.60147,0.78549,0.50914,0.362704,0.451377,0.363931,0.249293,1.00834,0.000648975,0.59539,0.398927,0.53961,0.40341,0.253793,1.07186,-0.00227398,13.2407,-2.30228,19.7962,21.4438,0.417803,-1.15885,0.356333,1.01671,-0.39981,2.18716,2.74124,0.341173,-0.0598007,0.35294
4794781,0.99,-1.55552,-0.512741,0.0128691,-2.0856,1.57741,1.59947,0.784943,-1.55291,-0.51179,0.0160169,-2.08224,1.57863,1.60256,0.785487,0.521771,0.371328,0.461254,0.374057,0.252352,1.02504,-0.00125479,0.606237,0.406417,0.5496,0.411048,0.258271,1.09185,-0.00245082,13.1653,-2.55618,19.7724,21.4438,0.400408,-1.15885,0.401194,1.01597,-0.426402,2.19221,2.76227,0.341265,-0.0525065,0.355187
4794782,0.99,-1.55496,-0.512343,0.0133726,-2.0852,1.57767,1.60057,0.784949,-1.55229,-0.511376,0.0165764,-2.08182,1.57889,1.60367,0.785484,0.533184,0.381687,0.469604,0.373328,0.254239,1.04406,0.00151762,0.616215,0.413907,0.55959,0.418646,0.262554,1.11106,-0.00267178,13.1415,-2.70694,19.6693,21.6422,0.366533,-1.19089,0.337107,1.01151,-0.46622,2.19053,2.79232,0.341807,-0.0447515,0.357373
4794783,0.99,-1.55439,-0.511936,0.0138827,-2.08479,1.57796,1.60165,0.78495,-1.55167,-0.510955,0.017146,-2.0814,1.57916,1.6048,0.785482,0.546411,0.386514,0.487962,0.37994,0.261796,1.05757,0.00150579,0.626194,0.421397,0.56958,0.426245,0.266836,1.13026,-0.00289274,13.1177,-2.78232,19.6454,21.666,0.293291,-1.09385,0.323374,1.00411,-0.518459,2.18343,2.83225,0.342781,-0.0366513,0.35948
4794784,0.99,-1.55381,-0.511532,0.0144006,-2.08439,1.57823,1.60278,0.784956,-1.55103,-0.510526,0.0177256,-2.08096,1.57943,1.60595,0.785478,0.563788,0.399662,0.495693,0.385435,0.266216,1.0779,0.00194236,0.636173,0.428887,0.57957,0.433843,0.271119,1.14947,-0.0031137,13.0899,-2.78232,19.7208,21.8167,0.253923,-1.04899,0.297739,0.990493,-0.579843,2.16626,2.88053,0.34415,-0.0276882,0.361463
4794785,0.99,-1.55321,-0.511116,0.0149314,-2.08396,1.5785,1.60391,0.784956,-1.55038,-0.510089,0.0183152,-2.08052,1.57971,1.60712,0.785475,0.570574,0.402268,0.501799,0.392435,0.261836,1.10171,0.00104935,0.646151,0.436377,0.58956,0.441441,0.275402,1.16868,-0.00333466,13.1931,-2.75851,19.7724,21.8644,0.282305,-1.05539,0.304148,0.973413,-0.646331,2.14386,2.9338,0.34557,-0.0182521,0.363258
4794786,0.99,-1.55261,-0.510688,0.0154611,-2.08353,1.57877,1.60509,0.784963,-1.54973,-0.509645,0.0189147,-2.08007,1.57999,1.60831,0.785472,0.581544,0.410976,0.514947,0.402687,0.261865,1.12608,0.00282964,0.65613,0.443867,0.59955,0.449039,0.279685,1.18788,-0.00355562,13.3438,-2.73471,19.7724,21.8167,0.366533,-1.12681,0.24647,0.959872,-0.708516,2.12663,2.98604,0.346578,-0.0093277,0.364824
4794787,0.99,-1.552,-0.510256,0.0160137,-2.0831,1.57904,1.60628,0.784954,-1.54906,-0.509194,0.0195242,-2.07962,1.58027,1.60952,0.785468,0.590019,0.415533,0.523039,0.413384,0.269323,1.14392,-0.00123776,0.666108,0.451357,0.60954,0.456638,0.283967,1.20709,-0.00377658,13.3676,-2.75851,19.697,21.7652,0.366533,-1.19089,0.330698,0.952458,-0.756186,2.11784,3.03012,0.346904,-0.00120814,0.366137
4794788,0.99,-1.55137,-0.509805,0.0165572,-2.08265,1.57934,1.60746,0.784951,-1.54839,-0.508735,0.0201438,-2.07915,1.58056,1.61074,0.785464,0.594782,0.427319,0.52234,0.420885,0.278488,1.1537,-0.000828634,0.676087,0.458847,0.61953,0.464236,0.28825,1.2263,-0.00399754,13.2407,-2.90927,19.7724,21.6898,0.366533,-1.16526,0.330698,0.956303,-0.78808,2.1251,3.06373,0.346309,0.00543197,0.367168
4794789,0.99,-1.55072,-0.509355,0.0171152,-2.08221,1.57963,1.60868,0.784957,-1.5477,-0.508269,0.0207733,-2.07868,1.58085,1.61199,0.78546,0.607043,0.440817,0.536849,0.440235,0.282514,1.16807,0.000903044,0.686065,0.466337,0.62952,0.471834,0.292533,1.2455,-0.0042185,13.2169,-2.96085,19.7724,21.6144,0.350054,-1.1204,0.291331,0.975686,-0.812075,2.15504,3.08829,0.344678,0.00993558,0.367965
4794790,0.99,-1.5501,-0.508894,0.0176894,-2.08175,1.57991,1.60993,0.784951,-1.547,-0.507795,0.0214128,-2.0782,1.58115,1.61325,0.785455,0.612499,0.448537,0.545514,0.447791,0.280725,1.2203,-0.00157006,0.696044,0.473827,0.63951,0.479432,0.296815,1.26471,-0.00443946,13.4708,-3.06003,19.7962,21.543,0.423296,-1.3328,0.349924,1.00731,-0.834279,2.20241,3.1041,0.342269,0.0124644,0.368601
4794791,0.99,-1.54945,-0.508427,0.0182676,-2.08128,1.58021,1.61121,0.784954,-1.5463,-0.507314,0.0220623,-2.07771,1.58145,1.61454,0.78545,0.627533,0.453394,0.552296,0.457967,0.286297,1.24113,0.000884616,0.706022,0.481317,0.6495,0.487031,0.301098,1.28392,-0.00466042,13.5184,-3.13541,19.8478,21.3922,0.36104,-1.47379,0.297739,1.04861,-0.851736,2.26299,3.11069,0.339393,0.0129634,0.369109
4794792,0.99,-1.54879,-0.507972,0.0188749,-2.08081,1.58052,1.61249,0.784964,-1.54558,-0.506825,0.0227218,-2.07722,1.58175,1.61584,0.785445,0.637567,0.456245,0.568377,0.464613,0.290759,1.25704,0.00323351,0.714656,0.488807,0.65949,0.494514,0.305152,1.30173,-0.00497442,13.5184,-3.01242,19.8478,21.2931,0.276811,-1.51957,0.226328,1.0949,-0.855356,2.33003,3.10679,0.336262,0.012021,0.369523
4794793,0.99,-1.54812,-0.5075,0.0194817,-2.08032,1.58083,1.61379,0.784964,-1.54486,-0.506329,0.0233913,-2.07672,1.58206,1.61716,0.78544,0.641526,0.459691,0.577177,0.469704,0.297919,1.27537,0.00164622,0.723289,0.496297,0.66948,0.501997,0.309206,1.31955,-0.00528842,13.4946,-2.96085,19.9747,21.1423,0.168779,-1.70633,0.240061,1.14075,-0.837622,2.39502,3.09196,0.333009,0.0105194,0.369826
4794794,0.99,-1.54744,-0.507009,0.020097,-2.07981,1.58111,1.61513,0.784979,-1.54413,-0.505825,0.0240707,-2.07621,1.58238,1.6185,0.785435,0.647506,0.468663,0.592049,0.477629,0.296583,1.29335,0.00614922,0.731922,0.503787,0.67947,0.50948,0.31326,1.33737,-0.00560241,13.6453,-3.01242,19.8994,20.8725,0.231035,-1.9636,0.103647,1.18645,-0.801201,2.45732,3.0697,0.329616,0.00828563,0.369929
4794795,0.99,-1.54676,-0.506525,0.0207248,-2.07931,1.58141,1.61643,0.784981,-1.54339,-0.505314,0.0247602,-2.07569,1.58269,1.61985,0.785429,0.658082,0.473655,0.599647,0.485068,0.300658,1.2997,0.00457374,0.740555,0.511277,0.68946,0.516963,0.317314,1.35518,-0.00591641,13.6731,-2.98465,19.9232,20.7694,0.293291,-1.86747,0.09083,1.23189,-0.753688,2.51671,3.04372,0.32604,0.00501294,0.36973
4794796,0.99,-1.54605,-0.50603,0.0213448,-2.07879,1.58172,1.61775,0.784981,-1.54264,-0.504795,0.0254597,-2.07517,1.58301,1.62122,0.785422,0.67226,0.479352,0.614313,0.494357,0.303803,1.29761,0.00328617,0.749188,0.518767,0.69945,0.524447,0.321367,1.373,-0.00623041,13.6453,-2.96085,19.9985,20.6226,0.378435,-1.55802,0.0844213,1.27293,-0.696765,2.56813,3.01396,0.322298,0.00118423,0.369102
4794797,0.99,-1.54534,-0.505521,0.0219806,-2.07827,1.58203,1.61912,0.784981,-1.54188,-0.504269,0.0261691,-2.07463,1.58334,1.62262,0.785416,0.683692,0.489877,0.624845,0.505619,0.305361,1.31345,0.00219052,0.757821,0.526257,0.70944,0.53193,0.325421,1.39081,-0.0065444,13.6215,-3.03622,20.1017,20.4718,0.383928,-1.4802,0.0844213,1.30432,-0.631693,2.60494,2.97936,0.318578,-0.00224382,0.36795
4794798,0.99,-1.54463,-0.505006,0.022636,-2.07772,1.58236,1.62048,0.784971,-1.54111,-0.503735,0.0268885,-2.07409,1.58367,1.62402,0.785409,0.694727,0.496153,0.635226,0.516814,0.311154,1.33201,-0.00213414,0.766454,0.533747,0.71943,0.539413,0.329475,1.40863,-0.0068584,13.6215,-3.03622,20.1017,20.2973,0.332659,-1.51957,0.181467,1.32577,-0.563007,2.62728,2.93975,0.315072,-0.00494266,0.366243
4794799,0.99,-1.54389,-0.504481,0.0232944,-2.07718,1.58269,1.62189,0.78496,-1.54034,-0.503194,0.0276179,-2.07355,1.584,1.62545,0.785402,0.704437,0.502045,0.644987,0.525709,0.318442,1.34654,-0.00477984,0.775087,0.541237,0.72942,0.546896,0.333529,1.42644,-0.0071724,13.5462,-3.0878,20.0263,20.2735,0.24843,-1.69993,0.272104,1.34098,-0.490647,2.64104,2.89388,0.311757,-0.00714067,0.364033
4794800,0.99,-1.54315,-0.50396,0.0239763,-2.07664,1.58303,1.62331,0.784967,-1.53956,-0.502645,0.0283574,-2.07299,1.58434,1.62689,0.785394,0.713561,0.511125,0.65312,0.532532,0.323512,1.36258,-6.7095e-05,0.78372,0.548727,0.73941,0.554379,0.337583,1.44426,-0.0074864,13.2684,-3.06003,19.9985,20.3727,0.140398,-1.71915,0.187876,1.35399,-0.415852,2.6524,2.84298,0.308512,-0.00927316,0.361491
4794801,0.99,-1.5424,-0.503432,0.0246795,-2.07609,1.58338,1.6247,0.78497,-1.53876,-0.502089,0.0291068,-2.07243,1.58468,1.62836,0.785387,0.715386,0.515043,0.661562,0.530146,0.32791,1.37274,0.00137934,0.792353,0.556217,0.7494,0.561862,0.341637,1.46208,-0.00780039,13.2684,-2.96085,19.7962,20.6226,0.0158861,-1.50675,0.149424,1.37012,-0.345977,2.66898,2.79393,0.305232,-0.0122167,0.358793
4794802,0.99,-1.54166,-0.502908,0.0253696,-2.07553,1.58371,1.62613,0.784969,-1.53796,-0.501525,0.0298661,-2.07186,1.58503,1.62984,0.785378,0.735434,0.525851,0.670893,0.53695,0.324949,1.38954,0.00068214,0.799187,0.563692,0.75939,0.569215,0.34543,1.47824,-0.00829532,13.2922,-2.88547,19.824,20.7218,0.0671556,-1.34562,0.155832,1.39096,-0.288559,2.69319,2.75458,0.301877,-0.0162798,0.355997
4794803,0.99,-1.54089,-0.502346,0.0260801,-2.07497,1.58405,1.62757,0.784969,-1.53716,-0.500954,0.0306355,-2.07128,1.58538,1.63133,0.785369,0.740201,0.536509,0.680344,0.54121,0.327479,1.40818,-0.000494722,0.806021,0.571168,0.76938,0.576568,0.349223,1.4944,-0.00879024,13.2684,-3.03622,19.8478,20.8725,0.191667,-1.24857,0.181467,1.4133,-0.25117,2.72086,2.72971,0.298471,-0.020909,0.353101
4794804,0.99,-1.54011,-0.501769,0.0267889,-2.07439,1.5844,1.62906,0.784949,-1.53635,-0.500375,0.0314149,-2.0707,1.58573,1.63284,0.78536,0.748066,0.546755,0.694672,0.548912,0.331237,1.43132,-0.00728108,0.812855,0.578644,0.77937,0.58392,0.353017,1.51057,-0.00928516,13.1931,-3.29013,19.8994,20.9439,0.202654,-1.28061,0.36915,1.43616,-0.238928,2.74994,2.72082,0.295083,-0.0257297,0.350116
4794805,0.99,-1.53933,-0.501199,0.0275233,-2.07383,1.58476,1.63056,0.784929,-1.53553,-0.499789,0.0322043,-2.07011,1.58609,1.63437,0.78535,0.758898,0.553511,0.702556,0.552774,0.33581,1.43938,-0.00963516,0.819689,0.586119,0.78936,0.591273,0.35681,1.52673,-0.00978008,13.0661,-3.54007,19.9232,21.0947,0.157793,-1.21012,0.49824,1.45915,-0.249052,2.77919,2.72595,0.291821,-0.0303235,0.347166
4794806,0.99,-1.53853,-0.500613,0.0282572,-2.07325,1.58512,1.63206,0.784917,-1.5347,-0.499195,0.0330036,-2.06951,1.58645,1.63591,0.78534,0.768889,0.563685,0.707854,0.557358,0.346598,1.46413,-0.0085936,0.826523,0.593595,0.79935,0.598626,0.360603,1.5429,-0.010275,12.8876,-3.66702,19.9747,21.2693,0.118425,-1.25498,0.556833,1.48275,-0.276537,2.81024,2.74279,0.288655,-0.0344678,0.344535
4794807,0.99,-1.53773,-0.500035,0.029002,-2.07267,1.58548,1.6336,0.784916,-1.53387,-0.498594,0.0338129,-2.06891,1.58681,1.63747,0.785329,0.772491,0.562438,0.719955,0.573563,0.353283,1.48404,-0.00901423,0.833357,0.601071,0.80934,0.605978,0.364396,1.55906,-0.0107699,12.9392,-3.61942,19.8478,21.4676,0.1523,-1.27421,0.518381,1.50981,-0.307954,2.84826,2.76328,0.285213,-0.0384532,0.342568
4794808,0.99,-1.53695,-0.499452,0.0297585,-2.07209,1.58585,1.63513,0.784921,-1.53303,-0.497986,0.0346323,-2.06829,1.58718,1.63904,0.785318,0.781459,0.572897,0.727546,0.569803,0.354055,1.52842,-0.00802607,0.840191,0.608546,0.81933,0.613331,0.36819,1.57523,-0.0112649,13.0661,-3.66702,19.697,21.6898,0.134905,-1.26139,0.434153,1.5423,-0.328444,2.89599,2.77908,0.281248,-0.0427145,0.341506
4794809,0.99,-1.53613,-0.49885,0.0305045,-2.07149,1.58621,1.63666,0.784938,-1.53218,-0.49737,0.0354616,-2.06767,1.58755,1.64064,0.785306,0.792308,0.57745,0.733252,0.578743,0.356344,1.52684,0.000198788,0.847025,0.616022,0.82932,0.620684,0.371983,1.59139,-0.0117598,12.8876,-3.7186,19.7446,21.8167,0.123918,-1.08103,0.265696,1.58064,-0.341174,2.95385,2.794,0.276943,-0.0475491,0.341354
4794810,0.99,-1.53531,-0.498244,0.0312643,-2.0709,1.58659,1.63824,0.784934,-1.53132,-0.496746,0.0363009,-2.06704,1.58793,1.64224,0.785294,0.803981,0.586957,0.736048,0.584803,0.361652,1.53992,-0.00157151,0.853859,0.623498,0.83931,0.628036,0.375776,1.60756,-0.0122547,12.6376,-3.86935,19.824,21.8882,0.123918,-1.01694,0.297739,1.62382,-0.350838,3.02128,2.81111,0.272328,-0.0525907,0.341901
4794811,0.99,-1.53449,-0.497621,0.0320555,-2.07029,1.58697,1.63982,0.784935,-1.53046,-0.496115,0.0371502,-2.06641,1.58831,1.64387,0.785281,0.805992,0.596704,0.751551,0.588551,0.364465,1.56205,-0.00096088,0.860692,0.630973,0.8493,0.635389,0.37957,1.62372,-0.0127496,12.6614,-3.99631,19.7446,21.8882,0.112016,-1.13321,0.284922,1.67043,-0.361923,3.09636,2.83201,0.26744,-0.0573517,0.342825
4794812,0.99,-1.53366,-0.49698,0.0328489,-2.06967,1.58735,1.64144,0.784935,-1.5296,-0.495477,0.0380095,-2.06577,1.58869,1.6455,0.785268,0.812047,0.608723,0.760393,0.596774,0.37062,1.56747,-0.000931532,0.865507,0.638195,0.85929,0.642455,0.383075,1.63802,-0.0133713,12.6138,-4.19864,19.6693,21.8644,0.10103,-1.19089,0.284922,1.71851,-0.384409,3.17488,2.86138,0.262559,-0.0615519,0.343861
4794813,0.99,-1.53281,-0.496357,0.0336665,-2.06905,1.58774,1.64307,0.784932,-1.52873,-0.494832,0.0388788,-2.06512,1.58908,1.64716,0.785254,0.824639,0.611773,0.77141,0.602361,0.376007,1.5827,-0.00202602,0.870322,0.645416,0.86928,0.64952,0.38658,1.65233,-0.0139931,12.3837,-4.27402,19.5939,21.8405,0.078142,-1.12681,0.316965,1.76445,-0.417923,3.25118,2.89818,0.257781,-0.0647053,0.34487
4794814,0.99,-1.53194,-0.495726,0.0344873,-2.06841,1.58814,1.64467,0.78494,-1.52785,-0.494179,0.039758,-2.06446,1.58947,1.64882,0.785239,0.834616,0.614225,0.797105,0.60642,0.379845,1.58809,0.00231731,0.875136,0.652638,0.87927,0.656586,0.390085,1.66663,-0.0146148,12.1338,-4.14706,19.3162,21.7652,-0.0289747,-0.894261,0.213511,1.79854,-0.448572,3.31123,2.93605,0.253253,-0.0654087,0.345803
4794815,0.99,-1.53108,-0.495101,0.0353389,-2.06779,1.58854,1.64632,0.784955,-1.52697,-0.493519,0.0406473,-2.0638,1.58986,1.6505,0.785224,0.845182,0.614097,0.811091,0.614342,0.381617,1.59311,0.00667794,0.879951,0.659859,0.88926,0.663651,0.39359,1.68093,-0.0152365,11.8799,-3.99631,18.9115,21.789,-0.0967238,-0.849401,0.071604,1.80893,-0.45868,3.33731,2.96749,0.249161,-0.0617657,0.346641
4794816,0.99,-1.53018,-0.494452,0.0362063,-2.06715,1.58893,1.64798,0.784954,-1.52609,-0.492852,0.0415466,-2.06312,1.59026,1.6522,0.785208,0.857259,0.627004,0.820073,0.623278,0.38739,1.62346,0.0043599,0.884766,0.667081,0.89925,0.670717,0.397095,1.69523,-0.0158582,11.2769,-3.9725,18.5068,21.666,-0.00608656,-1.0618,0.071604,1.795,-0.4434,3.32899,2.98878,0.245284,-0.0536164,0.347234
4794817,0.99,-1.52927,-0.493807,0.0370845,-2.06649,1.58934,1.64969,0.784954,-1.5252,-0.492178,0.0424558,-2.06245,1.59066,1.65391,0.785192,0.866174,0.630023,0.838205,0.631455,0.393113,1.64794,0.00165076,0.88958,0.674302,0.90924,0.677782,0.4006,1.70953,-0.01648,10.7453,-3.82175,18.0228,21.5152,0.0103929,-1.35203,0.103647,1.76294,-0.411415,3.29598,3.00164,0.241352,-0.0423005,0.347334
4794818,0.99,-1.52838,-0.49317,0.0379806,-2.06582,1.58975,1.65141,0.784961,-1.5243,-0.491496,0.043375,-2.06176,1.59106,1.65563,0.785175,0.871787,0.631975,0.854645,0.642566,0.398373,1.66165,0.00318496,0.894395,0.681524,0.91923,0.684848,0.404105,1.72384,-0.0171017,10.416,-3.64322,17.4912,21.2455,-0.0289747,-1.42252,0.0459692,1.71505,-0.361173,3.24158,3.00381,0.237289,-0.0287887,0.3468
4794819,0.99,-1.52746,-0.492505,0.0388708,-2.06514,1.59016,1.65311,0.784947,-1.5234,-0.490808,0.0443042,-2.06107,1.59147,1.65737,0.785157,0.877856,0.63784,0.863589,0.65449,0.398446,1.67924,-0.00174718,0.89921,0.688745,0.92922,0.691913,0.40761,1.73814,-0.0177234,10.0629,-3.56784,17.4158,20.8725,0.027788,-1.53879,0.149424,1.6546,-0.284136,3.17074,2.98961,0.232908,-0.0141918,0.345626
4794820,0.99,-1.52658,-0.491842,0.0397691,-2.06446,1.59057,1.65485,0.784948,-1.5225,-0.490112,0.0452435,-2.06037,1.59188,1.65912,0.785139,0.894349,0.654883,0.878085,0.665876,0.391879,1.6921,-0.000447931,0.904024,0.695967,0.93921,0.698979,0.411115,1.75244,-0.0183451,10.1145,-3.61942,17.2889,20.698,0.0671556,-1.55161,0.129282,1.58506,-0.19059,3.0895,2.9618,0.228224,0.000247326,0.343872
4794821,0.99,-1.5257,-0.491159,0.0407015,-2.06376,1.59098,1.65653,0.784959,-1.52159,-0.489408,0.0461927,-2.05967,1.5923,1.66089,0.78512,0.885802,0.663775,0.889233,0.675043,0.396918,1.69186,0.00327383,0.908839,0.703188,0.9492,0.706044,0.41462,1.76674,-0.0189669,10.6461,-3.7424,17.2135,20.5234,0.0222948,-1.24857,0.0322363,1.5092,-0.10292,3.00207,2.92989,0.223507,0.0136013,0.341662
4794822,0.99,-1.5248,-0.490462,0.041608,-2.06305,1.59141,1.65829,0.784957,-1.52068,-0.488698,0.0471518,-2.05895,1.59271,1.66267,0.7851,0.88923,0.671451,0.896644,0.680143,0.408115,1.7084,0.00165754,0.911526,0.709977,0.95919,0.712687,0.417796,1.77908,-0.0196779,10.9476,-3.92093,17.4436,20.4242,0.0561693,-1.22294,0.0459692,1.43688,-0.0315289,2.9213,2.89984,0.218681,0.0245389,0.339052
4794823,0.99,-1.52392,-0.489777,0.0425197,-2.06234,1.59183,1.66006,0.784945,-1.51977,-0.487982,0.048121,-2.05823,1.59313,1.66446,0.78508,0.888338,0.675522,0.898934,0.691686,0.41072,1.72318,-0.00175557,0.914214,0.716766,0.96918,0.71933,0.420971,1.79141,-0.0203889,11.3007,-4.02011,17.8205,20.2735,0.00489977,-1.30716,0.122873,1.38043,0.0285134,2.86387,2.8707,0.213361,0.0318087,0.335999
4794824,0.99,-1.52302,-0.489071,0.0434596,-2.06164,1.59227,1.66184,0.784948,-1.51885,-0.487258,0.0491002,-2.05751,1.59356,1.66626,0.785058,0.886316,0.683587,0.905473,0.697549,0.418265,1.74136,7.19966e-06,0.916901,0.723554,0.97917,0.725972,0.424146,1.80375,-0.0210999,11.6538,-4.14706,17.8998,20.4242,-0.114119,-1.55161,0.09083,1.349,0.0848786,2.84232,2.83905,0.207222,0.034608,0.332523
4794825,0.99,-1.52212,-0.488361,0.0443768,-2.06093,1.59272,1.66364,0.784946,-1.51793,-0.486528,0.0500894,-2.05677,1.59399,1.66808,0.785037,0.886581,0.687999,0.904408,0.717846,0.436233,1.7473,-0.00398286,0.919589,0.730343,0.98916,0.732615,0.427322,1.81608,-0.021811,11.8799,-4.25021,18.126,20.4996,-0.260603,-1.62211,0.071604,1.34849,0.144642,2.86463,2.8,0.199861,0.0324213,0.328729
4794826,0.99,-1.52121,-0.487642,0.0453053,-2.0602,1.59315,1.66543,0.784942,-1.51701,-0.485791,0.0510885,-2.05604,1.59442,1.66991,0.785014,0.892701,0.696353,0.906571,0.720501,0.42996,1.79525,-0.00763999,0.922276,0.737132,0.99915,0.739258,0.430497,1.82842,-0.022522,11.8283,-4.47635,18.4037,20.6464,-0.210249,-1.62851,0.071604,1.3812,0.21254,2.9342,2.74981,0.190889,0.0248165,0.324701
4794827,0.99,-1.52032,-0.486921,0.0462387,-2.05947,1.59359,1.66723,0.784947,-1.51608,-0.485047,0.0520976,-2.05529,1.59485,1.67175,0.784991,0.880205,0.698183,0.917092,0.718292,0.428051,1.79419,-0.00835781,0.924964,0.743921,1.00914,0.745901,0.433673,1.84075,-0.023233,12.1338,-4.55173,18.3799,20.9201,-0.164473,-1.35203,0.0130102,1.44599,0.282339,3.04807,2.6961,0.180527,0.0116341,0.320468
4794828,0.99,-1.51946,-0.486173,0.0472153,-2.05873,1.59403,1.66906,0.784941,-1.51515,-0.484296,0.0531168,-2.05454,1.59529,1.6736,0.784967,0.873748,0.714724,0.935688,0.720511,0.428807,1.79702,-0.0118556,0.927651,0.750709,1.01913,0.752543,0.436848,1.85309,-0.0239441,12.5861,-4.98416,18.1498,21.0947,-0.0683424,-1.17167,0.0322363,1.53611,0.337577,3.19325,2.65403,0.169534,-0.00588899,0.316036
4794829,0.99,-1.51854,-0.485408,0.0481784,-2.05798,1.59448,1.6709,0.784918,-1.51422,-0.483539,0.0541459,-2.05378,1.59573,1.67547,0.784942,0.884627,0.729429,0.946696,0.728264,0.432463,1.80985,-0.0142617,0.930339,0.757498,1.02912,0.759186,0.440023,1.86542,-0.0246551,12.3837,-5.38882,18.2767,21.2455,-0.000593394,-1.11399,0.175059,1.63801,0.357091,3.3479,2.6356,0.158799,-0.0251263,0.311404
4794830,0.99,-1.51761,-0.484647,0.0491479,-2.05724,1.59493,1.67278,0.784898,-1.51329,-0.482774,0.055185,-2.05301,1.59617,1.67735,0.784917,0.898327,0.743459,0.955614,0.729398,0.438998,1.82389,-0.0173586,0.933026,0.764287,1.03911,0.765829,0.443199,1.87776,-0.0253661,12.0584,-5.63876,18.126,21.5152,-0.0683424,-1.15885,0.240061,1.73704,0.326779,3.49171,2.64629,0.149044,-0.0434313,0.30664
4794831,0.99,-1.51669,-0.483886,0.0501501,-2.0565,1.5954,1.67467,0.784881,-1.51236,-0.482003,0.0562341,-2.05224,1.59662,1.67924,0.784891,0.906618,0.751546,0.962732,0.734863,0.442633,1.83764,-0.0185158,0.935713,0.771076,1.0491,0.772472,0.446374,1.89009,-0.0260771,11.7807,-5.78952,17.8721,21.6898,-0.25511,-1.18448,0.272104,1.82517,0.248421,3.61565,2.68496,0.140558,-0.0593144,0.301945
4794832,0.99,-1.51577,-0.483122,0.0511645,-2.05574,1.59586,1.67652,0.784868,-1.51142,-0.481226,0.0572932,-2.05146,1.59707,1.68114,0.784864,0.915862,0.752272,0.998825,0.737395,0.443332,1.84251,-0.015591,0.936262,0.777298,1.05909,0.778578,0.449153,1.90044,-0.0268549,11.5506,-5.78952,17.4436,21.7414,-0.283491,-1.09385,0.200693,1.89192,0.142691,3.70578,2.74248,0.133437,-0.0710567,0.297585
4794833,0.99,-1.51486,-0.482358,0.0521971,-2.05497,1.59631,1.67842,0.784856,-1.51048,-0.480442,0.0583623,-2.05068,1.59752,1.68305,0.784836,0.91602,0.747432,1.01005,0.749514,0.446628,1.84341,-0.0127116,0.93681,0.78352,1.06908,0.784684,0.451932,1.9108,-0.0276327,11.3999,-5.78952,17.2413,21.5668,-0.249617,-1.03617,0.103647,1.92445,0.0479966,3.74334,2.80059,0.127497,-0.0765226,0.293763
4794834,0.99,-1.51395,-0.481579,0.0532542,-2.0542,1.59676,1.68029,0.784841,-1.50955,-0.479653,0.0594413,-2.04989,1.59797,1.68497,0.784808,0.910844,0.754176,1.02075,0.754568,0.446073,1.86093,-0.0109153,0.937359,0.789742,1.07907,0.79079,0.454712,1.92115,-0.0284106,11.4514,-5.89267,16.912,21.3922,-0.192854,-0.881444,0.000192821,1.9293,-0.0071242,3.73816,2.84357,0.121926,-0.0765109,0.290466
4794835,0.99,-1.51301,-0.480793,0.0542896,-2.05339,1.59723,1.68219,0.784821,-1.50861,-0.478857,0.0605304,-2.04909,1.59843,1.6869,0.784779,0.911633,0.756775,1.02216,0.766651,0.451301,1.87531,-0.0117097,0.937907,0.795964,1.08906,0.796896,0.457491,1.93151,-0.0291884,11.1975,-5.91647,16.785,20.9955,-0.215742,-0.662633,-0.044668,1.9271,-0.0212128,3.72089,2.86774,0.115873,-0.0741441,0.287461
4794836,0.99,-1.51207,-0.480011,0.0553448,-2.05258,1.5977,1.68413,0.784784,-1.50767,-0.478054,0.0616295,-2.04829,1.59889,1.68884,0.784749,0.916035,0.764198,1.02646,0.778362,0.453994,1.88539,-0.0172839,0.938456,0.802187,1.09905,0.803002,0.46027,1.94186,-0.0299662,10.7691,-6.01962,16.7335,20.5988,-0.232222,-0.694677,0.0459692,1.93235,-0.000781791,3.71408,2.87246,0.108821,-0.0715398,0.284453
4794837,0.99,-1.51113,-0.479219,0.056429,-2.05177,1.59817,1.68607,0.784748,-1.50673,-0.477246,0.0627385,-2.04748,1.59935,1.69079,0.784718,0.917673,0.769448,1.04496,0.788357,0.451894,1.90407,-0.02012,0.939004,0.808409,1.10904,0.809108,0.463049,1.95221,-0.030744,10.4437,-6.04343,16.4796,20.2973,-0.260603,-0.919896,0.110056,1.94621,0.047539,3.72066,2.85774,0.100775,-0.0687869,0.281264
4794838,0.99,-1.51022,-0.478435,0.0575053,-2.05096,1.59866,1.68805,0.784717,-1.50579,-0.476431,0.0638575,-2.04666,1.59982,1.69276,0.784687,0.933123,0.783674,1.05295,0.791171,0.46265,1.91615,-0.025141,0.939553,0.814631,1.11903,0.815214,0.465828,1.96257,-0.0315218,10.416,-5.84109,16.0749,20.1505,-0.368635,-1.15244,0.135691,1.95944,0.10698,3.72784,2.83163,0.0923107,-0.0648317,0.277893
4794839,0.99,-1.50928,-0.477653,0.0585975,-2.05014,1.59914,1.69,0.784702,-1.50485,-0.475611,0.0649865,-2.04584,1.60029,1.69473,0.784654,0.936279,0.785129,1.05737,0.797841,0.461353,1.93185,-0.0186398,0.940101,0.820853,1.12902,0.82132,0.468608,1.97292,-0.0322996,10.1898,-5.69034,15.8726,20.0751,-0.40251,-1.2678,0.00660151,1.9668,0.16084,3.72938,2.80402,0.0837595,-0.059561,0.274428
4794840,0.99,-1.50833,-0.476859,0.0597006,-2.04932,1.59963,1.692,0.78468,-1.50391,-0.474783,0.0661256,-2.04501,1.60076,1.69671,0.784621,0.939696,0.784296,1.07751,0.799674,0.469246,1.94702,-0.0203721,0.94065,0.827075,1.13901,0.827427,0.471387,1.98327,-0.0330774,9.88832,-5.58719,15.5949,20.1505,-0.390608,-1.46097,-0.0840357,1.96817,0.214248,3.7254,2.77499,0.0750185,-0.0536405,0.270923
4794841,0.99,-1.50739,-0.476055,0.0608285,-2.0485,1.6001,1.69404,0.78466,-1.50297,-0.47395,0.0672746,-2.04418,1.60123,1.69871,0.784587,0.941922,0.792885,1.08507,0.806034,0.470676,1.96619,-0.021029,0.941198,0.833297,1.149,0.833533,0.474166,1.99363,-0.0338552,9.63441,-5.71414,15.2656,20.1743,-0.244124,-1.93155,-0.193899,1.962,0.276342,3.7125,2.74237,0.0660757,-0.047535,0.267284
4794842,0.99,-1.50643,-0.475221,0.0619726,-2.04766,1.60058,1.696,0.784632,-1.50203,-0.473111,0.0684331,-2.04334,1.60171,1.70071,0.784553,0.947315,0.800569,1.10165,0.810727,0.46965,1.97074,-0.0204487,0.939915,0.838854,1.15855,0.839012,0.476441,2.00185,-0.0346894,9.28132,-5.99185,14.9879,20.2497,-0.198347,-1.86106,-0.213125,1.94753,0.339716,3.68888,2.71016,0.057136,-0.0419783,0.263302
4794843,0.99,-1.50546,-0.474366,0.0631159,-2.04682,1.60105,1.69799,0.784585,-1.50109,-0.472267,0.0696012,-2.0425,1.60219,1.70272,0.784517,0.949046,0.816178,1.12537,0.835023,0.478277,1.95953,-0.0321592,0.938632,0.844411,1.1681,0.844492,0.478716,2.01007,-0.0355237,8.85286,-6.37271,14.7855,20.2735,-0.0738356,-1.64774,-0.0254419,1.91898,0.395561,3.64579,2.67904,0.0485716,-0.0368093,0.258796
4794844,0.99,-1.50452,-0.473519,0.0642918,-2.04598,1.60154,1.69996,0.784555,-1.50015,-0.471417,0.0707788,-2.04165,1.60267,1.70474,0.784481,0.947217,0.825487,1.12969,0.83195,0.475903,2.00083,-0.0303307,0.937349,0.849968,1.17764,0.849972,0.480991,2.0183,-0.0363579,8.82905,-6.82895,14.5038,20.4718,-0.0289747,-1.37766,0.0194189,1.87475,0.435598,3.58053,2.64909,0.0406983,-0.0321765,0.253735
4794845,0.99,-1.50358,-0.472669,0.065479,-2.04513,1.60204,1.70196,0.784515,-1.49922,-0.470561,0.071966,-2.04079,1.60315,1.70676,0.784444,0.938114,0.828364,1.16852,0.831017,0.480625,2.00672,-0.0312524,0.936066,0.855525,1.18719,0.855451,0.483265,2.02652,-0.0371922,9.00361,-7.05508,14.0992,20.7218,-0.10771,-1.22934,0.129282,1.82007,0.451912,3.49901,2.62836,0.0339888,-0.0288967,0.248261
4794846,0.99,-1.50263,-0.471829,0.0666605,-2.04429,1.60254,1.70397,0.78449,-1.49828,-0.4697,0.0731628,-2.03993,1.60364,1.7088,0.784406,0.942987,0.830631,1.16572,0.828669,0.483378,1.99738,-0.0301525,0.934783,0.861082,1.19674,0.860931,0.48554,2.03474,-0.0380264,8.82905,-7.23361,14,20.9955,-0.192854,-1.01694,0.071604,1.75553,0.449069,3.40067,2.62221,0.0288203,-0.0262359,0.242645
4794847,0.99,-1.50167,-0.47098,0.067845,-2.04344,1.60304,1.70594,0.784461,-1.49735,-0.468834,0.0743691,-2.03906,1.60413,1.71084,0.784367,0.947666,0.834443,1.16463,0.832563,0.486247,1.99119,-0.0249585,0.9335,0.866638,1.20629,0.866411,0.487815,2.04296,-0.0388607,8.57515,-7.20584,14.0238,21.2455,-0.362227,-0.63059,0.0130102,1.68929,0.437832,3.29968,2.62819,0.0245895,-0.0240218,0.237149
4794848,0.99,-1.50073,-0.470122,0.0690244,-2.04259,1.60355,1.70797,0.784438,-1.49642,-0.467962,0.0755849,-2.03819,1.60462,1.71289,0.784327,0.943144,0.836781,1.16618,0.833102,0.493668,1.99494,-0.0243164,0.932216,0.872195,1.21583,0.87189,0.49009,2.05119,-0.0396949,8.65052,-7.25742,13.873,21.4914,-0.509627,-0.520726,-0.0904444,1.63574,0.42585,3.22002,2.64205,0.0202231,-0.0231516,0.231879
4794849,0.99,-1.4998,-0.469276,0.0702108,-2.04173,1.60403,1.71002,0.784417,-1.49549,-0.467084,0.0768103,-2.03731,1.60511,1.71495,0.784286,0.937677,0.840258,1.16567,0.844289,0.489799,2.00152,-0.0237191,0.930933,0.877752,1.22538,0.87737,0.492365,2.05941,-0.0405291,8.7259,-7.23361,14.0238,21.4438,-0.436384,-0.611364,-0.206716,1.60575,0.420533,3.17814,2.65797,0.0147933,-0.0242754,0.226771
4794850,0.99,-1.49888,-0.468402,0.0714176,-2.04085,1.60453,1.71208,0.784369,-1.49456,-0.4662,0.0780452,-2.03643,1.6056,1.71702,0.784245,0.920856,0.84569,1.1987,0.849745,0.485726,2.01827,-0.0326019,0.92965,0.883309,1.23493,0.88285,0.49464,2.06763,-0.0413634,8.97981,-7.40817,14.2023,21.2693,-0.429976,-0.90067,-0.077627,1.6,0.427394,3.17277,2.67022,0.00800033,-0.0270262,0.221663
4794851,0.99,-1.49796,-0.467543,0.072617,-2.03998,1.60503,1.71412,0.78434,-1.49363,-0.465312,0.0792897,-2.03554,1.6061,1.7191,0.784203,0.91649,0.847053,1.19708,0.856256,0.492917,2.0183,-0.0321212,0.928367,0.888866,1.24448,0.888329,0.496915,2.07586,-0.0421976,9.07899,-7.40817,14.2261,21.1701,-0.452864,-0.907079,-0.122488,1.61097,0.448154,3.18976,2.67642,0.000140784,-0.0303522,0.216401
4794852,0.99,-1.49703,-0.466673,0.0738292,-2.03909,1.60553,1.71613,0.784304,-1.4927,-0.464418,0.0805428,-2.03465,1.6066,1.72118,0.78416,0.919411,0.85394,1.19462,0.865214,0.492135,2.01757,-0.0355548,0.925652,0.893692,1.25309,0.893102,0.498509,2.08187,-0.0430842,9.07899,-7.3566,14.3769,20.8725,-0.475752,-0.701085,-0.0712183,1.639,0.48286,3.23041,2.6751,-0.00891142,-0.0345436,0.210944
4794853,0.99,-1.4961,-0.465793,0.0750459,-2.0382,1.60604,1.71818,0.784263,-1.49178,-0.463519,0.0818045,-2.03375,1.6071,1.72327,0.784116,0.922188,0.855385,1.20298,0.870579,0.491355,2.02485,-0.0391575,0.922937,0.898518,1.26171,0.897875,0.500103,2.08788,-0.0439708,9.23372,-7.30899,14.3531,20.7456,-0.436384,-0.598546,0.0130102,1.68407,0.530436,3.29746,2.66508,-0.0193122,-0.0398167,0.20533
4794854,0.99,-1.49521,-0.464906,0.0763062,-2.03731,1.60654,1.72026,0.784218,-1.49086,-0.462616,0.0830748,-2.03285,1.6076,1.72536,0.784071,0.917507,0.868885,1.21695,0.877895,0.490242,2.03698,-0.0411098,0.920221,0.903345,1.27033,0.902648,0.501697,2.09389,-0.0448574,9.53523,-7.48355,14.127,20.5234,-0.390608,-0.553685,0.0844213,1.73778,0.583297,3.37876,2.64963,-0.0305889,-0.0451127,0.199671
4794855,0.99,-1.49429,-0.464006,0.077583,-2.0364,1.60705,1.72233,0.784174,-1.48994,-0.461708,0.0843538,-2.03194,1.6081,1.72746,0.784025,0.917258,0.874697,1.23007,0.883489,0.495742,2.04628,-0.0419697,0.917506,0.908171,1.27895,0.907421,0.503291,2.0999,-0.045744,9.50746,-7.68588,13.7461,20.325,-0.418989,-0.662633,0.143015,1.7921,0.627357,3.46048,2.6354,-0.0420747,-0.0493397,0.194148
4794856,0.99,-1.49332,-0.463093,0.0788396,-2.0355,1.60757,1.72443,0.784132,-1.48903,-0.460795,0.0856413,-2.03103,1.60861,1.72956,0.783979,0.948237,0.905313,1.2372,0.913369,0.507241,2.05272,-0.0452798,0.914791,0.912997,1.28756,0.912194,0.504885,2.10591,-0.0466306,8.77748,-7.99136,13.3137,20.1743,-0.458357,-0.707494,0.149424,1.83575,0.647203,3.52605,2.62501,-0.0532679,-0.0509432,0.188993
4794857,0.99,-1.49237,-0.462192,0.0801225,-2.03459,1.60808,1.72651,0.784082,-1.48811,-0.459877,0.0869375,-2.03011,1.60911,1.73168,0.783931,0.951254,0.900225,1.2439,0.907761,0.506947,2.06866,-0.0456877,0.912076,0.917823,1.29618,0.916967,0.506479,2.11192,-0.0475172,7.99592,-8.2413,12.909,20.0989,-0.470259,-0.80454,0.219919,1.85756,0.636005,3.56142,2.61704,-0.0639221,-0.0485841,0.184403
4794858,0.99,-1.49143,-0.461282,0.0814089,-2.03368,1.60859,1.72863,0.784046,-1.4872,-0.458954,0.0882423,-2.02919,1.60962,1.73379,0.783883,0.944657,0.899973,1.25801,0.902944,0.508974,2.0799,-0.0443236,0.90936,0.92265,1.3048,0.92174,0.508073,2.11793,-0.0484038,7.49208,-8.39603,12.3774,20.3489,-0.374129,-0.90067,0.122873,1.85967,0.608311,3.56969,2.61155,-0.0740041,-0.0430168,0.180479
4794859,0.99,-1.49053,-0.460377,0.0827144,-2.03278,1.60909,1.73078,0.783995,-1.4863,-0.458027,0.0895557,-2.02826,1.61013,1.73592,0.783833,0.929527,0.901299,1.27122,0.901333,0.505877,2.09482,-0.043829,0.906645,0.927476,1.31341,0.926512,0.509666,2.12394,-0.0492904,7.34132,-8.54678,11.9727,20.7218,-0.260603,-1.1204,0.155832,1.85268,0.58019,3.56382,2.61096,-0.0835284,-0.0363234,0.177232
4794860,0.99,-1.4896,-0.459437,0.0840189,-2.03186,1.6096,1.73294,0.783949,-1.48539,-0.457095,0.0908777,-2.02733,1.61064,1.73805,0.783783,0.923069,0.915441,1.27374,0.902297,0.502012,2.11783,-0.0452188,0.90393,0.932302,1.32203,0.931285,0.51126,2.12995,-0.050177,6.93666,-8.92368,11.7466,20.9439,-0.164473,-1.64133,0.110056,1.84939,0.545569,3.56031,2.62123,-0.092483,-0.0311081,0.174583
4794861,0.99,-1.48868,-0.458489,0.0853359,-2.03094,1.61013,1.73504,0.783928,-1.48449,-0.456157,0.0922084,-2.0264,1.61116,1.74018,0.783732,0.920961,0.922871,1.29293,0.902804,0.513545,2.10337,-0.0389353,0.901215,0.937128,1.33065,0.936058,0.512854,2.13596,-0.0510636,6.73433,-9.28073,11.3657,21.2693,-0.328352,-1.31998,-0.135305,1.85459,0.48773,3.56595,2.64988,-0.100676,-0.0289009,0.172412
4794862,0.99,-1.48777,-0.457554,0.0866724,-2.03002,1.61066,1.73714,0.783883,-1.4836,-0.455216,0.0935464,-2.02546,1.61167,1.74232,0.78368,0.92005,0.924148,1.29739,0.907701,0.516183,2.09832,-0.0382797,0.897472,0.941188,1.33803,0.940057,0.513642,2.13983,-0.0519927,6.65895,-9.48306,11.1396,21.3922,-0.447371,-1.09385,-0.168264,1.86037,0.408323,3.57113,2.69499,-0.107964,-0.0289867,0.170513
