shamilmamedov/beam_handling/data/param_estimation_ICRA/ocp_Z_25cm_0.50s_3.csv
duration, success rate, q[0], q[1], q[2], q[3], q[4], q[5], q[6],q_d[0], q_d[1], q_d[2], q_d[3], q_d[4], q_d[5], q_d[6],dq[0], dq[1], dq[2], dq[3], dq[4], dq[5], dq[6],dq_d[0], dq_d[1], dq_d[2], dq_d[3], dq_d[4], dq_d[5], dq_d[6],tau_J[0], tau_J[1], tau_J[2], tau_J[3], tau_J[4], tau_J[5], tau_J[6],tau_ext_hat_filtered[0], tau_ext_hat_filtered[1], tau_ext_hat_filtered[2], tau_ext_hat_filtered[3], tau_ext_hat_filtered[4], tau_ext_hat_filtered[5], tau_ext_hat_filtered[6]
1143991,0,-1.57091,-0.523045,0.000365387,-2.09653,-0.00075579,1.5711,0.784956,-1.5708,-0.523599,1.04586e-07,-2.0944,2.43681e-07,1.5708,0.785398,0.000633423,0.00112429,0.000217037,0.000238576,-0.000183365,0.000166137,0.00116337,0,0,0,0,0,0,0,0.124828,-9.98691,-0.940793,21.666,1.45235,1.4559,0.226328,0.155539,-0.825201,-0.452541,3.12382,0.731797,-0.206278,0.255886
1143992,1,-1.57091,-0.523049,0.000365619,-2.09653,-0.000754569,1.5711,0.78495,-1.5708,-0.523599,1.04586e-07,-2.0944,2.43681e-07,1.5708,0.785398,0.000422282,-0.000456901,0.000701503,0.000159051,0.000284658,-0.00036396,-0.0011572,0,0,0,0,0,0,0,0.124828,-9.93533,-0.964597,21.666,1.44136,1.46871,0.278513,0.154883,-0.825104,-0.453367,3.12413,0.731758,-0.206289,0.255957
1143993,1,-1.57092,-0.523047,0.00036198,-2.09653,-0.000755179,1.5711,0.784953,-1.5708,-0.523599,1.04586e-07,-2.0944,2.43681e-07,1.5708,0.785398,-0.000924904,0.000345013,-0.00129557,-0.000450778,-1.36788e-05,0.000232078,0.00017797,0,0,0,0,0,0,0,0.176403,-9.9631,-0.889218,21.6898,1.44686,1.4559,0.252878,0.154284,-0.8255,-0.454111,3.12454,0.731729,-0.206314,0.255998
1143994,1,-1.57092,-0.523047,0.000362071,-2.09653,-0.00075579,1.5711,0.78495,-1.5708,-0.523599,1.04586e-07,-2.0944,2.43681e-07,1.5708,0.785398,3.3011e-05,0.000230009,-0.000306901,0.000256293,-0.00021257,-0.000319999,-0.000830789,0,0,0,0,0,0,0,0.148632,-9.9631,-0.913022,21.666,1.45235,1.46871,0.278513,0.154885,-0.826303,-0.453092,3.12515,0.731767,-0.206328,0.256016
1143995,1,-1.57092,-0.523047,0.000361544,-2.09653,-0.000755179,1.5711,0.784956,-1.5708,-0.523599,1.04586e-07,-2.0944,2.43681e-07,1.5708,0.785398,-0.000627607,0.000153339,-0.0002046,0.000727674,6.17374e-05,-0.000213333,0.00137892,0,0,0,0,0,0,0,0.176403,-9.9631,-0.913022,21.6422,1.44686,1.46871,0.226328,0.156114,-0.827252,-0.451142,3.12561,0.731832,-0.206369,0.256038
1143996,1,-1.57092,-0.523047,0.000361828,-2.09653,-0.00075579,1.5711,0.784953,-1.5708,-0.523599,1.04586e-07,-2.0944,2.43681e-07,1.5708,0.785398,-0.000418404,0.000102226,-0.000693212,-7.16959e-05,-0.000162292,-0.000142222,-6.40638e-05,0,0,0,0,0,0,0,0.176403,-9.9631,-0.889218,21.666,1.45235,1.46871,0.252878,0.157449,-0.827712,-0.449057,3.12558,0.731893,-0.206455,0.256063
1143997,1,-1.57092,-0.523049,0.000366099,-2.09653,-0.000755179,1.5711,0.784955,-1.5708,-0.523599,1.04586e-07,-2.0944,2.43681e-07,1.5708,0.785398,-0.000835748,6.81508e-05,0.000744284,-0.000604609,9.52557e-05,-0.000332174,0.000669368,0,0,0,0,0,0,0,0.200207,-9.9631,-0.940793,21.6898,1.44686,1.47512,0.233652,0.158759,-0.828258,-0.447093,3.12577,0.731964,-0.206495,0.256072
1143998,1,-1.57092,-0.523049,0.000362697,-2.09653,-0.000755179,1.5711,0.78495,-1.5708,-0.523599,1.04586e-07,-2.0944,2.43681e-07,1.5708,0.785398,0.00064926,-0.00060418,-0.000710236,0.000153739,6.35038e-05,0.000490628,-0.00121527,0,0,0,0,0,0,0,0.148632,-9.93533,-0.889218,21.666,1.44686,1.4559,0.278513,0.159532,-0.828561,-0.445987,3.12617,0.732024,-0.206476,0.25605
1143999,1,-1.57092,-0.523044,0.000360639,-2.09653,-0.000755179,1.5711,0.78495,-1.5708,-0.523599,1.04586e-07,-2.0944,2.43681e-07,1.5708,0.785398,0.00043284,0.00136045,-0.000473491,-0.00110393,4.23359e-05,-0.000384992,-0.000810178,0,0,0,0,0,0,0,0.148632,-10.0107,-0.889218,21.7176,1.44686,1.47512,0.278513,0.159792,-0.82923,-0.445512,3.12694,0.732071,-0.206401,0.256004
1144000,1,-1.57092,-0.523047,0.000363572,-2.09653,-0.000755179,1.5711,0.784953,-1.5708,-0.523599,1.04586e-07,-2.0944,2.43681e-07,1.5708,0.785398,0.00028856,-0.000206656,0.000890765,0.00047047,2.82239e-05,0.000218057,0.000409317,0,0,0,0,0,0,0,0.148632,-9.9631,-0.940793,21.666,1.44686,1.46231,0.252878,0.15945,-0.831391,-0.445787,3.12852,0.732102,-0.206251,0.25597
1144001,0.99,-1.57092,-0.523045,0.000365474,-2.09653,-0.000757765,1.5711,0.784957,-1.5708,-0.523599,1.04586e-07,-2.0944,2.43681e-07,1.5708,0.785398,0.000192373,0.000419041,0.000593844,0.00152007,0.000222266,-9.19877e-05,0.00149358,0,0,0,0,0,0,0,0.148632,-9.98691,-0.940793,21.6144,1.44136,1.46871,0.219919,0.158184,-0.83287,-0.447438,3.12933,0.732064,-0.206186,0.255974
1144002,0.99,-1.57091,-0.523045,0.000364159,-2.09653,-0.000756245,1.5711,0.784952,-1.5708,-0.523599,1.04586e-07,-2.0944,2.43681e-07,1.5708,0.785398,0.000685061,0.000279361,-0.000253718,0.000363768,-5.52729e-05,0.000413393,-0.000462341,0,0,0,0,0,0,0,0.124828,-9.98691,-0.913022,21.6422,1.44686,1.4559,0.259287,0.156472,-0.832742,-0.449731,3.12866,0.731964,-0.206274,0.255986
1144003,0.99,-1.57092,-0.523047,0.000364371,-2.09653,-0.000754314,1.5711,0.78495,-1.5708,-0.523599,1.04586e-07,-2.0944,2.43681e-07,1.5708,0.785398,-0.000749719,-0.000370572,-0.000169145,-0.000871112,0.000370052,-0.000199123,-0.0010203,0,0,0,0,0,0,0,0.176403,-9.9631,-0.913022,21.6898,1.43587,1.46871,0.278513,0.155262,-0.832379,-0.451231,3.1279,0.731883,-0.206354,0.255969
1144004,0.99,-1.57092,-0.523047,0.000364259,-2.09653,-0.000756518,1.5711,0.784948,-1.5708,-0.523599,1.04586e-07,-2.0944,2.43681e-07,1.5708,0.785398,0.000149802,-0.000247048,0.00053685,0.0011825,-0.0005671,0.000341969,-0.00139228,0,0,0,0,0,0,0,0.148632,-9.9631,-0.940793,21.6144,1.45784,1.4559,0.297739,0.154718,-0.831486,-0.451797,3.12723,0.731836,-0.206393,0.255934
1144005,0.99,-1.57092,-0.523049,0.000365703,-2.09653,-0.000759025,1.5711,0.784951,-1.5708,-0.523599,1.04586e-07,-2.0944,2.43681e-07,1.5708,0.785398,-0.00110656,-0.000164698,0.0003579,-0.00162452,-0.000174616,-0.000484097,2.12493e-05,0,0,0,0,0,0,0,0.200207,-9.9631,-0.940793,21.7176,1.45235,1.47512,0.272104,0.154434,-0.830128,-0.452128,3.12655,0.731803,-0.206416,0.255932
1144006,0.99,-1.57091,-0.523044,0.000366185,-2.09653,-0.000756868,1.5711,0.784956,-1.5708,-0.523599,1.04586e-07,-2.0944,2.43681e-07,1.5708,0.785398,0.00102553,0.00100382,0.0002386,0.000123412,-0.000116411,0.000389345,0.00170959,0,0,0,0,0,0,0,0.124828,-10.0107,-0.940793,21.666,1.45235,1.4559,0.226328,0.154166,-0.830302,-0.452541,3.127,0.731797,-0.206328,0.256001
1144007,0.99,-1.57091,-0.523049,0.000362266,-2.09653,-0.000754928,1.5711,0.784954,-1.5708,-0.523599,1.04586e-07,-2.0944,2.43681e-07,1.5708,0.785398,0.000683688,-0.00109402,-0.000490547,-0.000474537,0.000329294,-0.000215154,0.00039374,0,0,0,0,0,0,0,0.124828,-9.93533,-0.913022,21.6898,1.44136,1.46871,0.24647,0.153648,-0.831528,-0.453215,3.12812,0.731797,-0.206184,0.256122
1144008,0.99,-1.57092,-0.523049,0.000361609,-2.09653,-0.000754689,1.5711,0.784954,-1.5708,-0.523599,1.04586e-07,-2.0944,2.43681e-07,1.5708,0.785398,-0.000750634,-0.000729347,-0.000327031,0.000797266,0.000219529,9.39227e-05,0.000262493,0,0,0,0,0,0,0,0.176403,-9.93533,-0.913022,21.6422,1.44136,1.46231,0.24647,0.153378,-0.830705,-0.453387,3.12808,0.731792,-0.206141,0.256233
1144009,0.99,-1.57091,-0.523045,0.000363339,-2.09653,-0.000754609,1.5711,0.784952,-1.5708,-0.523599,1.04586e-07,-2.0944,2.43681e-07,1.5708,0.785398,0.000706003,0.000720194,0.000431593,0.00053151,0.000146353,6.26152e-05,-0.000537081,0,0,0,0,0,0,0,0.124828,-9.98691,-0.940793,21.6422,1.44136,1.46231,0.265696,0.15354,-0.828344,-0.452923,3.12689,0.731781,-0.206214,0.256305
1144010,0.99,-1.57092,-0.523045,0.000363448,-2.09653,-0.000755193,1.5711,0.784955,-1.5708,-0.523599,1.04586e-07,-2.0944,2.43681e-07,1.5708,0.785398,-8.6143e-05,0.000480129,-0.000361885,0.00100395,-0.000105882,0.000279102,0.000591381,0,0,0,0,0,0,0,0.148632,-9.98691,-0.913022,21.6144,1.44686,1.4559,0.240061,0.153543,-0.827165,-0.452672,3.12571,0.73175,-0.206332,0.256346
1144011,0.99,-1.57091,-0.52305,0.000363952,-2.09653,-0.000755184,1.5711,0.784953,-1.5708,-0.523599,1.04586e-07,-2.0944,2.43681e-07,1.5708,0.785398,0.000499383,-0.00144315,0.000408357,1.96889e-05,-7.0588e-05,-5.12907e-05,-8.04636e-05,0,0,0,0,0,0,0,0.124828,-9.91153,-0.940793,21.6422,1.44686,1.46231,0.252878,0.153352,-0.826134,-0.452653,3.12436,0.731698,-0.206481,0.256364
1144012,0.99,-1.57092,-0.523047,0.000359851,-2.09653,-0.000757766,1.5711,0.784957,-1.5708,-0.523599,1.04586e-07,-2.0944,2.43681e-07,1.5708,0.785398,-0.000873504,0.000244325,-0.000934188,-0.000543686,0.000156392,-3.41938e-05,0.00116706,0,0,0,0,0,0,0,0.176403,-9.9631,-0.889218,21.666,1.44136,1.46231,0.219919,0.15342,-0.824164,-0.452246,3.1229,0.731656,-0.206615,0.256352
1144013,0.99,-1.57091,-0.523049,0.000363491,-2.09653,-0.000755635,1.5711,0.784954,-1.5708,-0.523599,1.04586e-07,-2.0944,2.43681e-07,1.5708,0.785398,0.00062409,0.000162883,-6.59799e-05,0.000843969,0.000104261,0.000214563,-0.000205304,0,0,0,0,0,0,0,0.124828,-9.9631,-0.913022,21.6144,1.44136,1.4559,0.24647,0.154056,-0.823085,-0.450976,3.12213,0.731653,-0.206679,0.256297
1144014,0.99,-1.57092,-0.52305,0.000363966,-2.09653,-0.000754314,1.5711,0.784948,-1.5708,-0.523599,1.04586e-07,-2.0944,2.43681e-07,1.5708,0.785398,-0.00134718,0.000108589,0.000605627,-8.69682e-05,0.000272958,-9.43169e-05,-0.00203574,0,0,0,0,0,0,0,0.200207,-9.9631,-0.940793,21.6422,1.43587,1.46231,0.297739,0.154739,-0.823261,-0.44966,3.12182,0.731655,-0.206721,0.256189
1144015,0.99,-1.57092,-0.523048,0.000365606,-2.09653,-0.000754687,1.5711,0.784951,-1.5708,-0.523599,1.04586e-07,-2.0944,2.43681e-07,1.5708,0.785398,0.000308307,7.23926e-05,0.000403752,-0.0011716,-2.14785e-05,-0.000300237,-0.000407725,0,0,0,0,0,0,0,0.148632,-9.9631,-0.940793,21.6898,1.44136,1.46871,0.272104,0.155019,-0.824465,-0.449092,3.12223,0.731643,-0.206696,0.25606
1144016,0.99,-1.57092,-0.523042,0.000366152,-2.09653,-0.000755219,1.5711,0.784957,-1.5708,-0.523599,1.04586e-07,-2.0944,2.43681e-07,1.5708,0.785398,0.000205538,0.0018115,0.000269168,0.000332555,-0.00021777,3.7201e-05,0.00166096,0,0,0,0,0,0,0,0.148632,-10.0385,-0.940793,21.6422,1.44686,1.46231,0.219919,0.154776,-0.827896,-0.449364,3.12405,0.731618,-0.206542,0.255969
1144017,0.99,-1.57092,-0.52305,0.000364385,-2.09653,-0.000755803,1.5711,0.784955,-1.5708,-0.523599,1.04586e-07,-2.0944,2.43681e-07,1.5708,0.785398,-0.0010694,-0.001762,-0.000470169,-0.000335108,-0.00034863,-0.000212558,0.000598683,0,0,0,0,0,0,0,0.200207,-9.91153,-0.913022,21.666,1.45235,1.46871,0.233652,0.154588,-0.831853,-0.449581,3.12606,0.73158,-0.206378,0.255917
1144018,0.99,-1.57091,-0.523049,0.000366395,-2.09653,-0.000758379,1.5711,0.78495,-1.5708,-0.523599,1.04586e-07,-2.0944,2.43681e-07,1.5708,0.785398,0.0010503,-0.000617853,0.000336168,-0.000223406,-2.89696e-05,9.56534e-05,-0.00126239,0,0,0,0,0,0,0,0.124828,-9.93533,-0.940793,21.666,1.44686,1.46231,0.278513,0.154776,-0.832579,-0.449297,3.12656,0.731531,-0.206319,0.25585
1144019,0.99,-1.57092,-0.523049,0.000364285,-2.09653,-0.000758831,1.5711,0.78495,-1.5708,-0.523599,1.04586e-07,-2.0944,2.43681e-07,1.5708,0.785398,0.000143391,-0.000411902,0.000224112,-0.000705749,0.000184137,6.3769e-05,-0.00107895,0,0,0,0,0,0,0,0.148632,-9.93533,-0.940793,21.6898,1.44136,1.46231,0.284922,0.154471,-0.830923,-0.449706,3.12614,0.731454,-0.206309,0.255761
1144020,0.99,-1.57092,-0.523049,0.000365252,-2.09653,-0.000759186,1.5711,0.784951,-1.5708,-0.523599,1.04586e-07,-2.0944,2.43681e-07,1.5708,0.785398,-0.00111083,-0.000274601,0.00070622,-0.00112011,0.000122758,4.25126e-05,-0.000244584,0,0,0,0,0,0,0,0.200207,-9.93533,-0.964597,21.7176,1.44136,1.46231,0.272104,0.153833,-0.829702,-0.450689,3.12623,0.731381,-0.206246,0.255691
1144021,0.99,-1.57091,-0.523047,0.000365477,-2.09653,-0.000760524,1.5711,0.784952,-1.5708,-0.523599,1.04586e-07,-2.0944,2.43681e-07,1.5708,0.785398,0.0015795,0.000466546,-8.59986e-05,0.0010165,-0.000325062,2.83418e-05,7.4303e-05,0,0,0,0,0,0,0,0.101024,-9.9631,-0.940793,21.6422,1.45235,1.46231,0.265696,0.153227,-0.829433,-0.451747,3.12676,0.731318,-0.206165,0.255677
1144022,0.99,-1.57092,-0.523047,0.000363979,-2.09653,-0.000756147,1.5711,0.784955,-1.5708,-0.523599,1.04586e-07,-2.0944,2.43681e-07,1.5708,0.785398,-0.000710241,0.000311031,-5.73324e-05,0.000120852,0.000190193,-0.000218464,0.000998971,0,0,0,0,0,0,0,0.176403,-9.9631,-0.940793,21.666,1.44136,1.46871,0.240061,0.152592,-0.829841,-0.452797,3.12704,0.731236,-0.206158,0.255725
1144023,0.99,-1.57092,-0.52305,0.00036561,-2.09653,-0.000758291,1.5711,0.784954,-1.5708,-0.523599,1.04586e-07,-2.0944,2.43681e-07,1.5708,0.785398,0.00017612,-0.000999072,-3.82216e-05,8.05679e-05,0.000126795,9.1716e-05,0.000428622,0,0,0,0,0,0,0,0.148632,-9.91153,-0.940793,21.666,1.44136,1.46231,0.24647,0.152396,-0.829845,-0.453204,3.12678,0.731162,-0.20622,0.255807
1144024,0.99,-1.57092,-0.523045,0.000366153,-2.09653,-0.00075642,1.5711,0.784953,-1.5708,-0.523599,1.04586e-07,-2.0944,2.43681e-07,1.5708,0.785398,-0.000532201,0.001654,-2.54811e-05,0.000610524,-0.00011892,6.1144e-05,4.83889e-05,0,0,0,0,0,0,0,0.176403,-10.0107,-0.940793,21.6422,1.44686,1.46231,0.252878,0.152709,-0.829669,-0.452946,3.12634,0.731109,-0.206301,0.255887
1144025,0.99,-1.57091,-0.523046,0.000366335,-2.09653,-0.000756203,1.5711,0.784947,-1.5708,-0.523599,1.04586e-07,-2.0944,2.43681e-07,1.5708,0.785398,0.000851625,0.000545856,-1.69874e-05,-0.000149796,-0.000282731,0.000278122,-0.00186661,0,0,0,0,0,0,0,0.124828,-9.98691,-0.940793,21.666,1.45235,1.4559,0.304148,0.153105,-0.831479,-0.452585,3.12667,0.731074,-0.206339,0.255951
1144026,0.99,-1.57091,-0.523045,0.000364446,-2.09653,-0.000754707,1.5711,0.784955,-1.5708,-0.523599,1.04586e-07,-2.0944,2.43681e-07,1.5708,0.785398,0.00056775,0.000363904,-0.000660939,0.000456948,0.000218414,0.000185414,0.00112918,0,0,0,0,0,0,0,0.124828,-9.98691,-0.913022,21.6422,1.44136,1.4559,0.240061,0.153285,-0.834592,-0.452428,3.12758,0.731046,-0.206339,0.256016
1144027,0.99,-1.57091,-0.523047,0.000364285,-2.09653,-0.000759031,1.5711,0.784958,-1.5708,-0.523599,1.04586e-07,-2.0944,2.43681e-07,1.5708,0.785398,0.000935312,-0.000314209,0.000208988,0.000304632,-0.000261292,-0.000113749,0.00197349,0,0,0,0,0,0,0,0.101024,-9.9631,-0.940793,21.6422,1.45235,1.46231,0.207102,0.153137,-0.836534,-0.452561,3.12794,0.730999,-0.206385,0.256106
1144028,0.99,-1.57092,-0.523049,0.000363763,-2.09653,-0.00075687,1.5711,0.784954,-1.5708,-0.523599,1.04586e-07,-2.0944,2.43681e-07,1.5708,0.785398,-0.00169651,-0.000859087,-0.000510289,0.000852702,-0.000174195,-0.000313192,-0.000142402,0,0,0,0,0,0,0,0.200207,-9.93533,-0.913022,21.6144,1.45235,1.46871,0.24647,0.153156,-0.835911,-0.452409,3.12703,0.730949,-0.206528,0.256183
1144029,0.99,-1.57092,-0.523049,0.000362108,-2.09653,-0.00075615,1.5711,0.784951,-1.5708,-0.523599,1.04586e-07,-2.0944,2.43681e-07,1.5708,0.785398,-0.00113101,7.68894e-05,-0.000340192,-8.1146e-05,-0.00011613,0.000265923,-0.00104437,0,0,0,0,0,0,0,0.200207,-9.9631,-0.913022,21.6422,1.45235,1.4559,0.272104,0.154333,-0.833338,-0.450736,3.12518,0.73096,-0.206732,0.256189
1144030,0.99,-1.57092,-0.523047,0.000365636,-2.09653,-0.000754689,1.5711,0.784955,-1.5708,-0.523599,1.04586e-07,-2.0944,2.43681e-07,1.5708,0.785398,0.000452422,5.12596e-05,0.000422819,-0.00116772,0.000329481,-0.000297436,0.000490548,0,0,0,0,0,0,0,0.148632,-9.9631,-0.940793,21.6898,1.44136,1.46871,0.240061,0.155967,-0.831601,-0.448539,3.1241,0.731035,-0.206841,0.256138
1144031,0.99,-1.57092,-0.523047,0.000364213,-2.09653,-0.00075644,1.5711,0.784955,-1.5708,-0.523599,1.04586e-07,-2.0944,2.43681e-07,1.5708,0.785398,0.000301615,0.000590985,-0.000367735,0.000335143,-0.000390697,-0.00019829,0.000564391,0,0,0,0,0,0,0,0.148632,-9.98691,-0.913022,21.6422,1.45784,1.46871,0.233652,0.156714,-0.832009,-0.447595,3.12451,0.731111,-0.206799,0.256069
1144032,0.99,-1.57092,-0.523047,0.000364207,-2.09653,-0.000755193,1.5711,0.784956,-1.5708,-0.523599,1.04586e-07,-2.0944,2.43681e-07,1.5708,0.785398,0.000201077,-0.000162822,0.000404458,-0.000333383,0.000146436,-0.000132194,0.000647528,0,0,0,0,0,0,0,0.148632,-9.9631,-0.940793,21.666,1.44686,1.46871,0.226328,0.156678,-0.833408,-0.447698,3.12541,0.731164,-0.206709,0.255979
1144033,0.99,-1.57092,-0.523044,0.000362066,-2.09653,-0.000756404,1.5711,0.784951,-1.5708,-0.523599,1.04586e-07,-2.0944,2.43681e-07,1.5708,0.785398,-0.000515563,0.00100508,-0.000936788,-0.000222255,-0.000309277,0.00014923,-0.00126374,0,0,0,0,0,0,0,0.176403,-10.0107,-0.889218,21.666,1.45784,1.46231,0.272104,0.156614,-0.835344,-0.447808,3.12647,0.731229,-0.206602,0.255844
1144034,0.99,-1.57091,-0.523049,0.00036423,-2.09653,-0.00075457,1.5711,0.78495,-1.5708,-0.523599,1.04586e-07,-2.0944,2.43681e-07,1.5708,0.785398,0.000862717,-0.00109319,-6.77131e-05,0.000408642,0.000404167,9.94866e-05,-0.00131721,0,0,0,0,0,0,0,0.124828,-9.93533,-0.913022,21.6422,1.44136,1.46231,0.284922,0.156849,-0.837023,-0.447409,3.12729,0.731318,-0.206508,0.255665
1144035,0.99,-1.57092,-0.52305,0.000366343,-2.09653,-0.00075518,1.5711,0.784955,-1.5708,-0.523599,1.04586e-07,-2.0944,2.43681e-07,1.5708,0.785398,-0.00118809,-0.0012856,0.000604472,0.000272428,6.59941e-05,-0.000171035,0.000783374,0,0,0,0,0,0,0,0.200207,-9.91153,-0.940793,21.6422,1.44686,1.46871,0.240061,0.156912,-0.835635,-0.447245,3.12647,0.731379,-0.206541,0.255486
1144036,0.99,-1.57091,-0.523049,0.000368068,-2.09653,-0.00075579,1.5711,0.784957,-1.5708,-0.523599,1.04586e-07,-2.0944,2.43681e-07,1.5708,0.785398,0.000971176,0.000349357,0.000959793,0.000831232,-0.000159454,0.000360695,0.00126823,0,0,0,0,0,0,0,0.124828,-9.9631,-0.964597,21.6144,1.45235,1.4559,0.219919,0.156295,-0.831683,-0.448196,3.12422,0.73138,-0.206693,0.255345
1144037,0.99,-1.57092,-0.523048,0.000364286,-2.09653,-0.000758985,1.5711,0.784952,-1.5708,-0.523599,1.04586e-07,-2.0944,2.43681e-07,1.5708,0.785398,9.06386e-05,0.000789717,8.30502e-05,-9.5459e-05,-0.000106303,3.10429e-06,-0.000612572,0,0,0,0,0,0,0,0.148632,-9.98691,-0.940793,21.6422,1.45235,1.46231,0.259287,0.15493,-0.829172,-0.450278,3.12241,0.731346,-0.206832,0.255226
1144038,0.99,-1.57092,-0.523051,0.000363581,-2.09653,-0.000756855,1.5711,0.78495,-1.5708,-0.523599,1.04586e-07,-2.0944,2.43681e-07,1.5708,0.785398,6.04257e-05,-0.00123676,5.53668e-05,-6.36393e-05,-7.08686e-05,-0.000472648,-0.00135782,0,0,0,0,0,0,0,0.148632,-9.91153,-0.940793,21.6422,1.45235,1.47512,0.284922,0.153553,-0.828441,-0.452338,3.12152,0.731333,-0.206892,0.255094
1144039,0.99,-1.57092,-0.523049,0.000368636,-2.09653,-0.000755534,1.5711,0.784952,-1.5708,-0.523599,1.04586e-07,-2.0944,2.43681e-07,1.5708,0.785398,-0.00060933,0.000381919,0.00180015,-0.000599238,0.000156205,0.000159619,-0.000193135,0,0,0,0,0,0,0,0.176403,-9.9631,-1.01617,21.666,1.44686,1.46231,0.265696,0.152375,-0.827719,-0.45422,3.12102,0.731352,-0.206885,0.254965
1144040,0.99,-1.57092,-0.523047,0.000365399,-2.09653,-0.000755908,1.5711,0.784951,-1.5708,-0.523599,1.04586e-07,-2.0944,2.43681e-07,1.5708,0.785398,0.000243394,0.000254613,-0.000563138,-0.000399492,-9.9314e-05,0.000343772,-0.000366115,0,0,0,0,0,0,0,0.148632,-9.9631,-0.940793,21.666,1.45235,1.4559,0.272104,0.151217,-0.82809,-0.456258,3.12136,0.731396,-0.206791,0.254879
1144041,0.99,-1.57092,-0.523045,0.000366083,-2.09653,-0.000757804,1.5711,0.784955,-1.5708,-0.523599,1.04586e-07,-2.0944,2.43681e-07,1.5708,0.785398,0.000162263,0.000726554,-0.000375426,0.000290484,0.000340692,-0.000245537,0.000942718,0,0,0,0,0,0,0,0.148632,-9.98691,-0.940793,21.6422,1.44136,1.46871,0.240061,0.15074,-0.830244,-0.457293,3.1225,0.731486,-0.206641,0.25485
1144042,0.99,-1.57092,-0.52305,0.000362232,-2.09653,-0.000756258,1.5711,0.784954,-1.5708,-0.523599,1.04586e-07,-2.0944,2.43681e-07,1.5708,0.785398,-0.000541439,-0.00127887,-0.000899898,0.00084327,2.36773e-05,-0.000163691,0.00039112,0,0,0,0,0,0,0,0.176403,-9.91153,-0.913022,21.6144,1.44686,1.46871,0.24647,0.151376,-0.831707,-0.456613,3.12295,0.731602,-0.206567,0.254857
1144043,0.99,-1.57092,-0.523047,0.000362058,-2.09653,-0.000755539,1.5711,0.784952,-1.5708,-0.523599,1.04586e-07,-2.0944,2.43681e-07,1.5708,0.785398,-0.000360959,0.000353847,-0.00115674,-0.000644246,1.57849e-05,-0.000109127,-0.000213972,0,0,0,0,0,0,0,0.176403,-9.9631,-0.889218,21.666,1.44686,1.46871,0.259287,0.153188,-0.83119,-0.454189,3.12224,0.73174,-0.206584,0.25487
1144044,0.99,-1.57092,-0.523047,0.000362096,-2.09653,-0.000755909,1.5711,0.78495,-1.5708,-0.523599,1.04586e-07,-2.0944,2.43681e-07,1.5708,0.785398,0.000408974,0.000235898,-0.000214351,0.000127315,-0.000192927,0.000164607,-0.000854725,0,0,0,0,0,0,0,0.148632,-9.9631,-0.913022,21.6422,1.45235,1.46231,0.278513,0.155477,-0.830985,-0.45102,3.12182,0.731897,-0.206561,0.254877
1144045,0.99,-1.57092,-0.523049,0.000363683,-2.09653,-0.00075583,1.5711,0.784955,-1.5708,-0.523599,1.04586e-07,-2.0944,2.43681e-07,1.5708,0.785398,-0.000933776,-0.000492349,-0.0001429,-0.00102875,-0.000128618,-0.000127621,0.000854337,0,0,0,0,0,0,0,0.200207,-9.93533,-0.913022,21.6898,1.45235,1.46871,0.240061,0.157336,-0.831786,-0.448486,3.12215,0.732044,-0.20646,0.254896
1144046,0.99,-1.57092,-0.523047,0.000362541,-2.09653,-0.000754582,1.5711,0.784955,-1.5708,-0.523599,1.04586e-07,-2.0944,2.43681e-07,1.5708,0.785398,0.000583908,0.000321381,-0.000652079,-0.00012902,0.000321156,0.000389637,0.000569558,0,0,0,0,0,0,0,0.148632,-9.9631,-0.889218,21.666,1.44136,1.4559,0.240061,0.158768,-0.832702,-0.44661,3.12284,0.732176,-0.206317,0.254934
1144047,0.99,-1.57092,-0.523049,0.000366337,-2.09653,-0.000755184,1.5711,0.784957,-1.5708,-0.523599,1.04586e-07,-2.0944,2.43681e-07,1.5708,0.785398,-0.000260342,-0.00043536,0.000771707,0.000470799,1.06532e-05,-0.00021496,0.00112569,0,0,0,0,0,0,0,0.176403,-9.93533,-0.940793,21.6422,1.44686,1.46871,0.219919,0.159557,-0.833288,-0.445649,3.12332,0.732265,-0.206205,0.25497
1144048,0.99,-1.57092,-0.523052,0.000360646,-2.09653,-0.000755791,1.5711,0.784954,-1.5708,-0.523599,1.04586e-07,-2.0944,2.43681e-07,1.5708,0.785398,-0.000173561,-0.000847052,-0.000691955,0.000313866,-0.000196348,0.000331411,-0.000232884,0,0,0,0,0,0,0,0.176403,-9.91153,-0.889218,21.6422,1.45235,1.4559,0.24647,0.159728,-0.83217,-0.445602,3.12267,0.732292,-0.206214,0.254968
1144049,0.99,-1.57092,-0.52305,0.000363575,-2.09653,-0.000753959,1.5711,0.78495,-1.5708,-0.523599,1.04586e-07,-2.0944,2.43681e-07,1.5708,0.785398,-0.000115707,0.000641725,0.000745123,0.000209244,0.000479453,-1.6418e-05,-0.00157941,0,0,0,0,0,0,0,0.176403,-9.9631,-0.940793,21.6422,1.43587,1.46231,0.284922,0.159719,-0.830041,-0.445852,3.12135,0.73229,-0.206299,0.254907
1144050,0.99,-1.57091,-0.523048,0.000363344,-2.09653,-0.000757723,1.5711,0.784955,-1.5708,-0.523599,1.04586e-07,-2.0944,2.43681e-07,1.5708,0.785398,0.00112929,0.000427817,0.000496748,-0.000417316,-0.000934976,-1.09453e-05,0.000608573,0,0,0,0,0,0,0,0.124828,-9.9631,-0.940793,21.666,1.46974,1.46231,0.240061,0.158997,-0.829541,-0.447136,3.12082,0.732262,-0.206338,0.254816
1144051,0.99,-1.57092,-0.523045,0.000364938,-2.09653,-0.000755179,1.5711,0.784957,-1.5708,-0.523599,1.04586e-07,-2.0944,2.43681e-07,1.5708,0.785398,-0.00101038,0.000842023,0.000887978,-0.000278211,0.000224393,-0.000244656,0.0011517,0,0,0,0,0,0,0,0.200207,-9.98691,-0.964597,21.666,1.44686,1.46871,0.219919,0.157502,-0.831463,-0.449582,3.12167,0.732222,-0.206273,0.254735
1144052,0.99,-1.57092,-0.523045,0.000365373,-2.09653,-0.000755179,1.5711,0.784954,-1.5708,-0.523599,1.04586e-07,-2.0944,2.43681e-07,1.5708,0.785398,-0.000116774,0.000561349,3.51731e-05,-0.000742286,0.000149595,7.42551e-05,-0.000215544,0,0,0,0,0,0,0,0.176403,-9.98691,-0.940793,21.6898,1.44686,1.46231,0.24647,0.156267,-0.835121,-0.451791,3.1236,0.732225,-0.206117,0.254647
1144053,0.99,-1.57092,-0.523047,0.000366074,-2.09653,-0.000754569,1.5711,0.784947,-1.5708,-0.523599,1.04586e-07,-2.0944,2.43681e-07,1.5708,0.785398,-7.78496e-05,0.000374232,2.34487e-05,0.00126838,0.000303181,-0.000187856,-0.00227993,0,0,0,0,0,0,0,0.176403,-9.98691,-0.940793,21.6144,1.44136,1.46871,0.304148,0.155718,-0.838869,-0.453085,3.12547,0.732266,-0.205971,0.254519
1144054,0.99,-1.57092,-0.523049,0.000366308,-2.09653,-0.000757765,1.5711,0.784953,-1.5708,-0.523599,1.04586e-07,-2.0944,2.43681e-07,1.5708,0.785398,-5.18997e-05,-0.000956938,1.56325e-05,-0.000360839,0.00020212,-0.000125237,0.000378921,0,0,0,0,0,0,0,0.176403,-9.93533,-0.940793,21.666,1.44136,1.46871,0.252878,0.155629,-0.84033,-0.45371,3.1259,0.732298,-0.205947,0.254375
1144055,0.99,-1.57091,-0.523047,0.000360636,-2.09653,-0.000756245,1.5711,0.784957,-1.5708,-0.523599,1.04586e-07,-2.0944,2.43681e-07,1.5708,0.785398,0.00117183,1.16555e-05,-0.001196,0.00585111,-6.87036e-05,0.000153868,0.00147332,0,0,0,0,0,0,0,0.124828,-9.9631,-0.889218,21.666,1.44686,1.46231,0.219919,0.155879,-0.837433,-0.453732,3.12322,0.732262,-0.206212,0.254265
1144056,0.99,-1.57092,-0.523049,0.000363753,-2.09653,-0.00075812,1.5711,0.784956,-1.5708,-0.523599,1.04586e-07,-2.0944,2.43681e-07,1.5708,0.785398,-0.000425209,-0.000641844,-0.000240524,0.00496519,0.000157648,-0.000134781,0.000744852,0,0,0,0,0,0,0,0.176403,-9.93533,-0.913022,21.6422,1.44136,1.46871,0.226328,0.156537,-0.829122,-0.452937,3.11568,0.732112,-0.206979,0.254177
1144057,0.99,-1.57092,-0.523047,0.000365724,-2.09653,-0.000755753,1.5711,0.784949,-1.5708,-0.523599,1.04586e-07,-2.0944,2.43681e-07,1.5708,0.785398,0.000366142,0.000221718,0.00104608,0.00257723,0.000105099,0.000384864,-0.00191093,0,0,0,0,0,0,0,0.148632,-9.9631,-0.964597,21.6898,1.44136,1.4559,0.291331,0.157081,-0.818149,-0.452271,3.10551,0.731881,-0.208028,0.25407
1144058,0.99,-1.57092,-0.523047,0.000361555,-2.09653,-0.000756184,1.5711,0.78495,-1.5708,-0.523599,1.04586e-07,-2.0944,2.43681e-07,1.5708,0.785398,-0.000962331,0.000147812,-0.000509042,0.00311733,-0.000336835,0.000256576,-0.000799235,0,0,0,0,0,0,0,0.200207,-9.9631,-0.913022,21.6422,1.45235,1.4559,0.278513,0.157283,-0.808893,-0.452239,3.0967,0.731656,-0.208949,0.253944
1144059,0.99,-1.57092,-0.523045,0.000361372,-2.09653,-0.0007547,1.5711,0.784952,-1.5708,-0.523599,1.04586e-07,-2.0944,2.43681e-07,1.5708,0.785398,-8.47424e-05,0.000655353,-0.000339361,0.00229238,0.000182344,-6.63082e-05,0.000179253,0,0,0,0,0,0,0,0.176403,-9.98691,-0.913022,21.6422,1.44136,1.46231,0.259287,0.158001,-0.802917,-0.451542,3.09041,0.731505,-0.209633,0.253847
1144060,0.99,-1.57092,-0.523043,0.00036326,-2.09653,-0.000758419,1.5711,0.784956,-1.5708,-0.523599,1.04586e-07,-2.0944,2.43681e-07,1.5708,0.785398,-5.64949e-05,0.000993714,0.000423373,0.00233849,-8.18877e-05,-4.42055e-05,0.00134021,0,0,0,0,0,0,0,0.176403,-10.0107,-0.940793,21.6144,1.44686,1.46231,0.226328,0.159019,-0.800557,-0.450433,3.08681,0.731416,-0.210069,0.25381
1144061,0.99,-1.57092,-0.523047,0.000367041,-2.09653,-0.000756259,1.5711,0.784952,-1.5708,-0.523599,1.04586e-07,-2.0944,2.43681e-07,1.5708,0.785398,-3.76633e-05,-0.000451148,0.000839061,0.00047303,-5.45918e-05,-0.000266829,-0.000564592,0,0,0,0,0,0,0,0.176403,-9.9631,-0.964597,21.666,1.44686,1.46871,0.265696,0.159359,-0.801073,-0.45039,3.08577,0.731347,-0.210242,0.253818
1144062,0.99,-1.57092,-0.523049,0.000361994,-2.09653,-0.000755539,1.5711,0.78495,-1.5708,-0.523599,1.04586e-07,-2.0944,2.43681e-07,1.5708,0.785398,-2.51089e-05,-0.000950379,-0.000647052,0.000962514,-3.63945e-05,0.000296832,-0.000851112,0,0,0,0,0,0,0,0.176403,-9.93533,-0.913022,21.6422,1.44686,1.4559,0.278513,0.159259,-0.801973,-0.451075,3.08632,0.731301,-0.2102,0.253834
1144063,0.99,-1.57091,-0.523047,0.000363649,-2.09653,-0.000759105,1.5711,0.784951,-1.5708,-0.523599,1.04586e-07,-2.0944,2.43681e-07,1.5708,0.785398,0.00118969,1.60279e-05,-0.000431368,0.000152626,-0.000227714,-3.94711e-05,-0.000330049,0,0,0,0,0,0,0,0.124828,-9.9631,-0.913022,21.666,1.45235,1.46231,0.272104,0.159302,-0.802531,-0.45146,3.08782,0.731297,-0.210009,0.253859
1144064,0.99,-1.57092,-0.523049,0.000364019,-2.09653,-0.000760091,1.5711,0.784955,-1.5708,-0.523599,1.04586e-07,-2.0944,2.43681e-07,1.5708,0.785398,0.000236312,-0.000638929,0.000362035,-0.00040424,-0.000151809,-2.63141e-05,0.000966762,0,0,0,0,0,0,0,0.148632,-9.93533,-0.940793,21.6898,1.45235,1.46231,0.240061,0.159165,-0.804019,-0.451933,3.0906,0.731322,-0.209672,0.253924
1144065,0.99,-1.57092,-0.523047,0.000365163,-2.09653,-0.000756613,1.5711,0.784955,-1.5708,-0.523599,1.04586e-07,-2.0944,2.43681e-07,1.5708,0.785398,-0.00104888,0.000223661,0.000798169,0.000882246,0.000102245,-1.75427e-05,0.000644508,0,0,0,0,0,0,0,0.200207,-9.9631,-0.964597,21.6422,1.44686,1.46231,0.240061,0.158751,-0.80653,-0.452857,3.09434,0.731367,-0.209241,0.254026
1144066,0.99,-1.57092,-0.523047,0.000363499,-2.09653,-0.000755047,1.5711,0.784956,-1.5708,-0.523599,1.04586e-07,-2.0944,2.43681e-07,1.5708,0.785398,0.00050717,0.000149108,-0.000674313,-0.000496873,0.000271614,-1.16951e-05,0.000938298,0,0,0,0,0,0,0,0.148632,-9.9631,-0.913022,21.6898,1.44136,1.46231,0.226328,0.158611,-0.81,-0.453511,3.09852,0.731446,-0.208789,0.254128
1144067,0.99,-1.57092,-0.523045,0.00036035,-2.09653,-0.000755949,1.5711,0.78495,-1.5708,-0.523599,1.04586e-07,-2.0944,2.43681e-07,1.5708,0.785398,-0.000311501,0.000656217,-0.00100635,0.000247004,-0.000225825,-0.000245156,-0.00154461,0,0,0,0,0,0,0,0.176403,-9.98691,-0.889218,21.666,1.45235,1.46871,0.284922,0.159217,-0.814965,-0.45299,3.10332,0.731576,-0.208301,0.254192
1144068,0.99,-1.57091,-0.52305,0.000365606,-2.09653,-0.000759039,1.5711,0.784951,-1.5708,-0.523599,1.04586e-07,-2.0944,2.43681e-07,1.5708,0.785398,0.00155557,-0.00132576,0.000535523,0.000180749,-0.00015055,0.000311281,-0.00055502,0,0,0,0,0,0,0,0.101024,-9.91153,-0.940793,21.666,1.45235,1.4559,0.272104,0.159954,-0.819643,-0.452079,3.10783,0.731709,-0.207847,0.254216
1144069,0.99,-1.57092,-0.52305,0.000366152,-2.09653,-0.000760068,1.5711,0.784954,-1.5708,-0.523599,1.04586e-07,-2.0944,2.43681e-07,1.5708,0.785398,-0.000726191,-0.00088384,0.000357015,-0.000424252,-0.000100367,-0.000267197,0.000579422,0,0,0,0,0,0,0,0.176403,-9.91153,-0.940793,21.6898,1.45235,1.46871,0.24647,0.159818,-0.821549,-0.452346,3.11095,0.731783,-0.20751,0.254241
1144070,0.99,-1.57092,-0.523047,0.000362255,-2.09653,-0.000757826,1.5711,0.784956,-1.5708,-0.523599,1.04586e-07,-2.0944,2.43681e-07,1.5708,0.785398,-0.000484127,0.00117401,-0.000411604,0.000283022,-0.000270362,5.92274e-05,0.00113227,0,0,0,0,0,0,0,0.176403,-9.98691,-0.913022,21.666,1.45784,1.46231,0.226328,0.159639,-0.822685,-0.452724,3.11361,0.731859,-0.20722,0.254285
1144071,0.99,-1.57092,-0.523047,0.000363554,-2.09653,-0.00075824,1.5711,0.784956,-1.5708,-0.523599,1.04586e-07,-2.0944,2.43681e-07,1.5708,0.785398,-0.000879563,0.000225862,0.000375211,-0.00101096,0.00043011,-0.000197874,0.000754845,0,0,0,0,0,0,0,0.200207,-9.9631,-0.940793,21.7176,1.44136,1.46871,0.226328,0.160231,-0.826182,-0.452079,3.11722,0.731999,-0.206877,0.254324
1144072,0.99,-1.57092,-0.523049,0.000363338,-2.09653,-0.000755793,1.5711,0.784951,-1.5708,-0.523599,1.04586e-07,-2.0944,2.43681e-07,1.5708,0.785398,0.00062005,-0.000499039,0.000250141,-1.9272e-05,0.00028674,0.000105443,-0.00119219,0,0,0,0,0,0,0,0.148632,-9.93533,-0.940793,21.6898,1.44136,1.46231,0.272104,0.160812,-0.830583,-0.451512,3.12124,0.732155,-0.206506,0.254321
1144073,0.99,-1.57092,-0.523047,0.000364936,-2.09653,-0.000755587,1.5711,0.78495,-1.5708,-0.523599,1.04586e-07,-2.0944,2.43681e-07,1.5708,0.785398,0.000413367,0.000316921,0.000723573,0.00110459,-1.22903e-05,7.02953e-05,-0.00126951,0,0,0,0,0,0,0,0.148632,-9.9631,-0.964597,21.6422,1.44686,1.46231,0.284922,0.16053,-0.833372,-0.452175,3.12415,0.732245,-0.206245,0.254271
1144074,0.99,-1.57091,-0.523045,0.000363241,-2.09653,-0.000755315,1.5711,0.784954,-1.5708,-0.523599,1.04586e-07,-2.0944,2.43681e-07,1.5708,0.785398,0.00083239,0.000768093,-7.44302e-05,-0.000374367,-8.19356e-06,0.000284222,0.000577812,0,0,0,0,0,0,0,0.124828,-9.98691,-0.940793,21.6898,1.44686,1.4559,0.24647,0.15946,-0.835501,-0.453892,3.12613,0.732263,-0.206103,0.254218
1144075,0.99,-1.57092,-0.523045,0.000363233,-2.09653,-0.000755225,1.5711,0.784956,-1.5708,-0.523599,1.04586e-07,-2.0944,2.43681e-07,1.5708,0.785398,-0.000651499,0.000512062,-4.96201e-05,-0.000247432,-5.46237e-06,-0.000285236,0.00113119,0,0,0,0,0,0,0,0.176403,-9.98691,-0.940793,21.6898,1.44686,1.46871,0.226328,0.158524,-0.838783,-0.455347,3.12851,0.73228,-0.205949,0.254195
1144076,0.99,-1.57091,-0.52305,0.000361282,-2.09653,-0.000755805,1.5711,0.784953,-1.5708,-0.523599,1.04586e-07,-2.0944,2.43681e-07,1.5708,0.785398,0.000772093,-0.00142186,-0.000682694,0.000393467,-0.000207092,4.72014e-05,-0.000229215,0,0,0,0,0,0,0,0.124828,-9.91153,-0.913022,21.666,1.45235,1.46231,0.252878,0.15834,-0.84121,-0.45566,3.13053,0.732319,-0.205819,0.254177
1144077,0.99,-1.57092,-0.523047,0.000361281,-2.09653,-0.000755184,1.5711,0.78495,-1.5708,-0.523599,1.04586e-07,-2.0944,2.43681e-07,1.5708,0.785398,-4.20833e-05,0.000258517,-0.000455129,0.000263519,6.53891e-05,3.14676e-05,-0.00110225,0,0,0,0,0,0,0,0.148632,-9.9631,-0.913022,21.666,1.44686,1.46231,0.278513,0.158708,-0.840755,-0.455044,3.13102,0.732354,-0.20581,0.254134
1144078,0.99,-1.57092,-0.52305,0.000363411,-2.09653,-0.000759597,1.5711,0.784951,-1.5708,-0.523599,1.04586e-07,-2.0944,2.43681e-07,1.5708,0.785398,-2.80555e-05,-0.00103408,-0.00030342,-0.000380227,-0.000363308,0.000258337,-0.000497472,0,0,0,0,0,0,0,0.148632,-9.91153,-0.913022,21.6898,1.45784,1.4559,0.272104,0.159376,-0.838891,-0.453879,3.13076,0.732396,-0.205861,0.254078
1144079,0.99,-1.57092,-0.523049,0.000364121,-2.09653,-0.000756855,1.5711,0.78495,-1.5708,-0.523599,1.04586e-07,-2.0944,2.43681e-07,1.5708,0.785398,-0.000668318,-0.000132576,-0.00020228,-0.000252806,-3.8755e-05,-0.000539852,-0.000569007,0,0,0,0,0,0,0,0.176403,-9.93533,-0.913022,21.6898,1.45235,1.47512,0.278513,0.160288,-0.836765,-0.452355,3.13057,0.732464,-0.205896,0.254047
1144080,0.99,-1.57092,-0.523047,0.000367977,-2.09653,-0.000756755,1.5711,0.784951,-1.5708,-0.523599,1.04586e-07,-2.0944,2.43681e-07,1.5708,0.785398,-0.000445545,0.00056123,0.00107157,0.000945596,-0.000229287,0.000114817,-0.000141979,0,0,0,0,0,0,0,0.176403,-9.9631,-0.964597,21.6422,1.45784,1.46231,0.272104,0.161058,-0.835243,-0.451138,3.13061,0.732541,-0.20592,0.25407
1144081,0.99,-1.57091,-0.523045,0.000364255,-2.09653,-0.000757883,1.5711,0.784956,-1.5708,-0.523599,1.04586e-07,-2.0944,2.43681e-07,1.5708,0.785398,0.000909396,0.000930965,0.00015757,-0.000482844,0.000457493,0.000313903,0.00160077,0,0,0,0,0,0,0,0.124828,-9.98691,-0.940793,21.6898,1.44136,1.4559,0.226328,0.160972,-0.835724,-0.451245,3.13126,0.732598,-0.205924,0.254163
1144082,0.99,-1.57092,-0.523049,0.000365242,-2.09653,-0.000755674,1.5711,0.784952,-1.5708,-0.523599,1.04586e-07,-2.0944,2.43681e-07,1.5708,0.785398,4.94519e-05,-0.000585782,0.000661859,-0.00032161,0.000304996,-2.809e-05,-0.000390883,0,0,0,0,0,0,0,0.148632,-9.93533,-0.964597,21.6898,1.44136,1.46231,0.265696,0.159949,-0.837653,-0.452671,3.13264,0.732629,-0.205871,0.254301
1144083,0.99,-1.57092,-0.523045,0.000363343,-2.09653,-0.000754937,1.5711,0.784951,-1.5708,-0.523599,1.04586e-07,-2.0944,2.43681e-07,1.5708,0.785398,-0.000616646,0.000815904,-0.000115573,0.000899432,0.00020333,0.000218632,-0.000497948,0,0,0,0,0,0,0,0.176403,-9.98691,-0.940793,21.6422,1.44136,1.4559,0.272104,0.158874,-0.839279,-0.454181,3.13389,0.732654,-0.205827,0.254439
1144084,0.99,-1.57092,-0.523049,0.000363267,-2.09653,-0.000754692,1.5711,0.78495,-1.5708,-0.523599,1.04586e-07,-2.0944,2.43681e-07,1.5708,0.785398,-0.000967909,-0.00066249,-7.70486e-05,0.0012494,0.000135554,-9.16041e-05,-0.000569324,0,0,0,0,0,0,0,0.200207,-9.93533,-0.940793,21.6144,1.44136,1.46231,0.278513,0.158704,-0.839557,-0.454488,3.13396,0.732684,-0.205909,0.254568
1144085,0.99,-1.57092,-0.523047,0.000365373,-2.09653,-0.000757806,1.5711,0.784956,-1.5708,-0.523599,1.04586e-07,-2.0944,2.43681e-07,1.5708,0.785398,-8.84609e-05,0.000207954,-5.13657e-05,0.000183438,9.03691e-05,-0.000298428,0.00155323,0,0,0,0,0,0,0,0.176403,-9.9631,-0.940793,21.6422,1.44136,1.46871,0.226328,0.159375,-0.838301,-0.453694,3.13286,0.732705,-0.206102,0.254708
1144086,0.99,-1.57092,-0.523047,0.000364125,-2.09653,-0.000757479,1.5711,0.784957,-1.5708,-0.523599,1.04586e-07,-2.0944,2.43681e-07,1.5708,0.785398,-5.89739e-05,0.000695448,-0.000683858,-0.00164086,-0.000550106,-0.000436311,0.00127285,0,0,0,0,0,0,0,0.176403,-9.98691,-0.913022,21.7176,1.45784,1.47512,0.219919,0.160342,-0.838017,-0.452512,3.1326,0.732734,-0.20619,0.254862
1144087,0.99,-1.57092,-0.523051,0.000366308,-2.09653,-0.000755539,1.5711,0.784955,-1.5708,-0.523599,1.04586e-07,-2.0944,2.43681e-07,1.5708,0.785398,-3.9316e-05,-0.00129961,0.000193709,-0.000444222,4.0164e-05,0.000421203,0.000339938,0,0,0,0,0,0,0,0.176403,-9.91153,-0.940793,21.6898,1.44686,1.4559,0.233652,0.161323,-0.839296,-0.451319,3.13392,0.732785,-0.206083,0.254985
1144088,0.99,-1.57092,-0.523045,0.000360636,-2.09653,-0.000757274,1.5711,0.784952,-1.5708,-0.523599,1.04586e-07,-2.0944,2.43681e-07,1.5708,0.785398,0.000623403,0.000896834,-0.00107729,-0.000296097,0.000433677,4.34429e-05,-0.00096017,0,0,0,0,0,0,0,0.148632,-9.98691,-0.889218,21.6898,1.43587,1.46231,0.265696,0.162116,-0.840093,-0.450367,3.13534,0.732829,-0.205936,0.25503
1144089,0.99,-1.57091,-0.523049,0.000365242,-2.09653,-0.000756895,1.5711,0.784953,-1.5708,-0.523599,1.04586e-07,-2.0944,2.43681e-07,1.5708,0.785398,0.000972414,4.10774e-05,0.00104505,-0.00019736,-0.000321234,2.89619e-05,-0.000165395,0,0,0,0,0,0,0,0.124828,-9.9631,-0.964597,21.6898,1.45235,1.46231,0.252878,0.162243,-0.841171,-0.45027,3.13672,0.732833,-0.205804,0.255007
1144090,0.99,-1.57092,-0.523049,0.000363343,-2.09653,-0.000756158,1.5711,0.784953,-1.5708,-0.523599,1.04586e-07,-2.0944,2.43681e-07,1.5708,0.785398,-0.00055815,-0.000622229,0.000139886,0.000425268,-0.000214156,1.93079e-05,-0.000110263,0,0,0,0,0,0,0,0.176403,-9.93533,-0.940793,21.666,1.45235,1.46231,0.252878,0.161449,-0.841867,-0.451505,3.13767,0.732778,-0.205733,0.254949
1144091,0.99,-1.57092,-0.523049,0.000363449,-2.09653,-0.000755912,1.5711,0.784955,-1.5708,-0.523599,1.04586e-07,-2.0944,2.43681e-07,1.5708,0.785398,0.000277514,-0.000414819,-0.000556357,-0.000273279,-0.00014277,-0.000224487,0.000401209,0,0,0,0,0,0,0,0.148632,-9.93533,-0.913022,21.6898,1.45235,1.46871,0.240061,0.160714,-0.840621,-0.452714,3.13748,0.732706,-0.205766,0.254872
1144092,0.99,-1.57091,-0.523045,0.000363952,-2.09653,-0.000757806,1.5711,0.784957,-1.5708,-0.523599,1.04586e-07,-2.0944,2.43681e-07,1.5708,0.785398,0.000741821,0.00092988,0.000278709,-0.00018217,0.000311721,0.00032506,0.00101346,0,0,0,0,0,0,0,0.124828,-9.98691,-0.940793,21.6898,1.44136,1.4559,0.219919,0.160324,-0.83941,-0.453343,3.13727,0.732656,-0.205807,0.25478
1144093,0.99,-1.57091,-0.523045,0.000365601,-2.09653,-0.000756869,1.5711,0.784953,-1.5708,-0.523599,1.04586e-07,-2.0944,2.43681e-07,1.5708,0.785398,0.000494548,0.00061992,0.000185806,0.00099219,-0.000199087,-2.06523e-05,-0.000545065,0,0,0,0,0,0,0,0.124828,-9.98691,-0.940793,21.6422,1.45235,1.46231,0.252878,0.159549,-0.83998,-0.454395,3.13767,0.732603,-0.205824,0.254663
1144094,0.99,-1.57091,-0.523049,0.00036569,-2.09653,-0.000755539,1.5711,0.784949,-1.5708,-0.523599,1.04586e-07,-2.0944,2.43681e-07,1.5708,0.785398,0.000329698,-0.000793146,0.000680683,0.000661469,7.07257e-05,0.000223591,-0.00178753,0,0,0,0,0,0,0,0.124828,-9.93533,-0.964597,21.6422,1.44686,1.4559,0.291331,0.158292,-0.840297,-0.456067,3.13747,0.732522,-0.205925,0.254506
1144095,0.99,-1.57091,-0.523047,0.000363493,-2.09652,-0.000759105,1.5711,0.784951,-1.5708,-0.523599,1.04586e-07,-2.0944,2.43681e-07,1.5708,0.785398,0.000219799,0.00012085,-0.000103023,0.00164741,-0.0001563,-0.000325657,-0.00047961,0,0,0,0,0,0,0,0.124828,-9.9631,-0.940793,21.5906,1.45235,1.46871,0.272104,0.156919,-0.838328,-0.457861,3.13573,0.732417,-0.20617,0.254336
1144096,0.99,-1.57091,-0.523047,0.000361368,-2.09653,-0.000755674,1.5711,0.784953,-1.5708,-0.523599,1.04586e-07,-2.0944,2.43681e-07,1.5708,0.785398,0.000146533,8.05666e-05,-0.000718296,0.000541468,0.000302701,-0.000217105,0.000392337,0,0,0,0,0,0,0,0.124828,-9.9631,-0.913022,21.6144,1.44136,1.46871,0.252878,0.156104,-0.835374,-0.458726,3.13315,0.732332,-0.206485,0.254204
1144097,0.99,-1.57092,-0.523045,0.00036177,-2.09653,-0.000758743,1.5711,0.784957,-1.5708,-0.523599,1.04586e-07,-2.0944,2.43681e-07,1.5708,0.785398,-0.00110874,0.000610523,-0.00103568,-0.000845444,-1.64985e-06,-0.000382096,0.00171962,0,0,0,0,0,0,0,0.176403,-9.98691,-0.889218,21.666,1.44686,1.47512,0.213511,0.156606,-0.833989,-0.457546,3.13152,0.732335,-0.206682,0.254128
1144098,0.99,-1.57092,-0.523047,0.00036608,-2.09653,-0.000755147,1.5711,0.78495,-1.5708,-0.523599,1.04586e-07,-2.0944,2.43681e-07,1.5708,0.785398,-8.95444e-05,-0.000149797,0.000515975,-6.81422e-06,0.000405801,-1.73714e-05,-0.00126108,0,0,0,0,0,0,0,0.148632,-9.9631,-0.940793,21.6422,1.43587,1.46871,0.278513,0.158037,-0.834754,-0.455007,3.13153,0.732423,-0.206674,0.254075
1144099,0.99,-1.57092,-0.523047,0.000362231,-2.09653,-0.000754965,1.5711,0.78495,-1.5708,-0.523599,1.04586e-07,-2.0944,2.43681e-07,1.5708,0.785398,-5.96963e-05,-9.98644e-05,-0.00030563,-4.54066e-06,6.70836e-05,0.000463137,-0.000840723,0,0,0,0,0,0,0,0.148632,-9.9631,-0.913022,21.6422,1.44136,1.4559,0.278513,0.159124,-0.835823,-0.452991,3.13199,0.732502,-0.206581,0.25402
1144100,0.99,-1.57092,-0.523049,0.000361597,-2.09653,-0.000755311,1.5711,0.784952,-1.5708,-0.523599,1.04586e-07,-2.0944,2.43681e-07,1.5708,0.785398,-0.000689411,-0.00071619,-0.000203754,-3.02549e-06,-0.000158728,-0.000403319,-8.57641e-05,0,0,0,0,0,0,0,0.176403,-9.93533,-0.913022,21.6422,1.44686,1.47512,0.265696,0.159829,-0.835753,-0.451527,3.13193,0.732544,-0.206503,0.253981
1144101,1,-1.57092,-0.52305,0.000363517,-2.09653,-0.000754613,1.5711,0.784957,-1.5708,-0.523599,1.04586e-07,-2.0944,2.43681e-07,1.5708,0.785398,0.000190006,-0.00103427,-0.000135836,-0.000558828,9.76318e-05,-3.15203e-05,0.0018756,0,0,0,0,0,0,0,0.148632,-9.91153,-0.913022,21.666,1.44136,1.46871,0.213511,0.160501,-0.834127,-0.450113,3.13127,0.732557,-0.206443,0.253986
1144102,1,-1.57091,-0.523049,0.000365645,-2.09653,-0.000755804,1.5711,0.784955,-1.5708,-0.523599,1.04586e-07,-2.0944,2.43681e-07,1.5708,0.785398,0.00124029,-0.000132703,0.00111587,0.000184261,-0.000341813,-2.10135e-05,0.000504417,0,0,0,0,0,0,0,0.101024,-9.93533,-0.964597,21.6422,1.45235,1.46871,0.233652,0.160196,-0.831551,-0.450077,3.13033,0.732502,-0.206382,0.254022
1144103,1,-1.57091,-0.523045,0.000367279,-2.09653,-0.000755795,1.5711,0.78495,-1.5708,-0.523597,2.60459e-06,-2.0944,1.73847e-06,1.5708,0.785397,0.000270051,0.00111796,0.000743912,-0.000990783,-0.000227875,-1.4009e-05,-0.00156259,-0.00325272,0.001875,0.0025,-0.003125,0.00149478,0.005,-0.0012878,0.124828,-9.98691,-0.964597,21.6898,1.45235,1.46871,0.284922,0.158291,-0.830679,-0.452315,3.13024,0.73238,-0.206251,0.254044
1144104,1,-1.57092,-0.523045,0.000367823,-2.09653,-0.000755181,1.5711,0.78495,-1.57081,-0.523593,7.60459e-06,-2.0944,4.72803e-06,1.57081,0.785394,-0.00102639,0.000745305,0.000495942,-0.000103709,5.15335e-05,0.000465379,-0.00104173,-0.00650544,0.00375,0.005,-0.00625,0.00298957,0.01,-0.00257561,0.176403,-9.98691,-0.964597,21.666,1.44686,1.4559,0.284922,0.156021,-0.833299,-0.455167,3.13182,0.732282,-0.205996,0.25404
1144105,1,-1.57092,-0.523045,0.000368005,-2.09653,-0.000754569,1.5711,0.784952,-1.57082,-0.523587,1.51046e-05,-2.09441,9.21239e-06,1.57083,0.78539,-3.46472e-05,0.00049687,0.000330628,0.00113729,0.000237806,-0.000401824,0.00025495,-0.00975816,0.005625,0.0075,-0.009375,0.00448435,0.015,-0.00386341,0.148632,-9.98691,-0.964597,21.6144,1.44136,1.47512,0.259287,0.154551,-0.837294,-0.457022,3.13366,0.732235,-0.20575,0.254045
1144106,1,-1.57092,-0.523052,0.000368525,-2.09653,-0.00075579,1.5711,0.784956,-1.57083,-0.52358,2.51046e-05,-2.09443,1.51915e-05,1.57085,0.785385,-2.30981e-05,9.02044e-05,0.00594217,-0.000819582,-0.000248364,-3.0524e-05,0.00139067,-0.0130109,0.0075,0.01,-0.0125,0.00597914,0.02,-0.00515121,0.148632,-9.7092,-0.940793,21.543,1.45235,1.46871,0.226328,0.152063,-0.840337,-0.460709,3.13467,0.732124,-0.2056,0.254103
1144107,1,-1.57092,-0.523054,0.00036117,-2.09653,-0.000757722,1.5711,0.784951,-1.57085,-0.52357,3.76046e-05,-2.09444,2.26654e-05,1.57087,0.785379,-0.00119058,0.00246863,0.00279825,-0.000823243,-0.000809836,-0.000732426,0.000181128,-0.0162636,0.009375,0.0125,-0.015625,0.00747392,0.025,-0.00643902,0.0732535,-9.25296,-0.734494,21.1423,1.46974,1.48794,0.24647,0.147063,-0.844347,-0.468666,3.13643,0.731915,-0.205375,0.254208
1144108,1,-1.57092,-0.523052,0.000365566,-2.09653,-0.000755179,1.5711,0.784949,-1.57086,-0.523559,5.26046e-05,-2.09446,3.16341e-05,1.5709,0.785371,-0.00364849,0.00127812,0.00275139,0.000746302,0.00030782,-0.00147163,-0.000116607,-0.0195163,0.01125,0.015,-0.01875,0.0089687,0.03,-0.00772682,0.0494498,-8.64597,-0.611508,20.6464,1.44686,1.51449,0.252878,0.142343,-0.850662,-0.476615,3.13934,0.731767,-0.205004,0.254305
1144109,1,-1.57093,-0.523035,0.000372862,-2.09653,-0.000753959,1.5711,0.784946,-1.57089,-0.523546,7.01046e-05,-2.09448,4.20976e-05,1.57094,0.785362,-0.00545161,0.00750274,0.00379479,-0.000296137,0.000612114,-0.00169316,-0.000789815,-0.022769,0.013125,0.0175,-0.021875,0.0104635,0.035,-0.00901462,0.0256461,-8.16592,-0.532163,20.0751,1.43587,1.53372,0.272104,0.14047,-0.860618,-0.480419,3.14307,0.731811,-0.204454,0.254361
1144110,1,-1.57094,-0.523017,0.000384462,-2.09654,-0.000753959,1.5711,0.784946,-1.57091,-0.523531,9.01046e-05,-2.09451,5.40559e-05,1.57098,0.785352,-0.0084083,0.0112727,0.00852247,-0.00165588,0.000408076,-0.00112877,-0.000526543,-0.0260218,0.015,0.02,-0.025,0.0119583,0.04,-0.0103024,0.0732535,-7.63828,-0.484555,19.5038,1.43587,1.53372,0.272104,0.140416,-0.881531,-0.481512,3.15069,0.732071,-0.20337,0.254412
1144111,1,-1.57095,-0.522997,0.000394345,-2.09654,-0.00074944,1.57111,0.78495,-1.57094,-0.523514,0.000112605,-2.09454,6.7509e-05,1.57102,0.78534,-0.00761028,0.0135006,0.00874816,-0.00294484,0.00071286,-0.000752517,0.00107312,-0.0292745,0.016875,0.0225,-0.028125,0.0134531,0.045,-0.0115902,-0.00212494,-7.20584,-0.432981,18.9325,1.42397,1.53372,0.233652,0.139908,-0.917354,-0.483081,3.16397,0.732483,-0.201459,0.254507
1144112,1,-1.57096,-0.522967,0.000407368,-2.09656,-0.000749698,1.57112,0.784954,-1.57098,-0.523495,0.000137605,-2.09457,8.24568e-05,1.57107,0.785327,-0.00847583,0.015045,0.0100956,-0.00838877,3.44307e-05,0.00534719,0.00193612,-0.0325272,0.01875,0.025,-0.03125,0.0149478,0.05,-0.012878,-0.0259286,-6.90433,-0.432981,18.5358,1.43587,1.50167,0.200693,0.137782,-0.964876,-0.486233,3.18169,0.732998,-0.198656,0.254652
1144113,1,-1.57097,-0.522947,0.000422362,-2.09658,-0.000749953,1.57113,0.784948,-1.57101,-0.523474,0.000166995,-2.0946,9.97851e-05,1.57113,0.785312,-0.00896852,0.0140043,0.0140679,-0.00796821,-0.000180497,0.00963083,-0.000879392,-0.0381573,0.0218234,0.0293902,-0.0375,0.0173283,0.0598248,-0.0149077,-0.0497324,-6.52347,-0.432981,18.2343,1.44136,1.47512,0.259287,0.133148,-1.01712,-0.491844,3.20063,0.733561,-0.195143,0.254796
1144114,1,-1.57098,-0.52293,0.000434393,-2.0966,-0.000749792,1.57114,0.784944,-1.57106,-0.523449,0.000200775,-2.09465,0.000119494,1.5712,0.785295,-0.0113928,0.0161908,0.012591,-0.0115424,-0.00117149,0.00662839,-0.000823621,-0.0437874,0.0248967,0.0337804,-0.04375,0.0197087,0.0696497,-0.0169374,-0.125111,-6.14658,-0.381406,17.9605,1.46974,1.48794,0.265696,0.126036,-1.06622,-0.49982,3.21635,0.734128,-0.191242,0.254891
1144115,1,-1.571,-0.522917,0.000452393,-2.09662,-0.000751129,1.57115,0.784944,-1.57111,-0.523421,0.000238946,-2.0947,0.000141583,1.57128,0.785276,-0.0142972,0.0142663,0.0127997,-0.0145255,-0.0015948,0.00157392,-7.43625e-05,-0.0494175,0.0279701,0.0381706,-0.05,0.0220892,0.0794745,-0.0189671,-0.152882,-5.74191,-0.381406,17.8614,1.49172,1.57858,0.252878,0.119349,-1.1082,-0.505823,3.22717,0.734825,-0.186939,0.254941
1144116,1,-1.57102,-0.522896,0.000471818,-2.09664,-0.000752693,1.57115,0.784947,-1.57116,-0.52339,0.000281507,-2.09475,0.000166053,1.57137,0.785255,-0.0154228,0.0179725,0.0147929,-0.0180735,-0.00170746,0.00135281,0.00117113,-0.0550476,0.0310435,0.0425608,-0.05625,0.0244696,0.0892993,-0.0209969,-0.22826,-5.28568,-0.329831,17.5638,1.50911,1.70767,0.219919,0.114913,-1.14235,-0.507127,3.23363,0.735786,-0.182014,0.254974
1144117,1,-1.57104,-0.522879,0.000499595,-2.09667,-0.000745611,1.57115,0.784945,-1.57122,-0.523356,0.000328458,-2.09482,0.000192903,1.57147,0.785232,-0.0151363,0.0205832,0.0195912,-0.0247525,0.00484947,0.000190716,0.00101811,-0.0606777,0.0341169,0.046951,-0.0625,0.0268501,0.0991242,-0.0230266,-0.355213,-4.67868,-0.282224,17.1909,1.47524,1.87521,0.213511,0.110152,-1.17354,-0.507455,3.23894,0.736982,-0.176073,0.255007
1144118,1,-1.57107,-0.522859,0.000528295,-2.0967,-0.000740131,1.57116,0.784935,-1.57129,-0.523318,0.000379799,-2.09489,0.000222133,1.57158,0.785207,-0.020026,0.0197594,0.0218961,-0.0277427,0.00508547,0.00569971,-0.00600038,-0.0663078,0.0371902,0.0513412,-0.06875,0.0292305,0.108949,-0.0250563,-0.402821,-3.94473,-0.179074,16.695,1.43587,2.00338,0.265696,0.102223,-1.2045,-0.511032,3.24512,0.738337,-0.16875,0.255019
1144119,1,-1.5711,-0.522821,0.000566943,-2.09674,-0.00073209,1.57119,0.784935,-1.57136,-0.523278,0.00043553,-2.09496,0.000253744,1.5717,0.78518,-0.0210286,0.0246961,0.0275759,-0.0343971,0.00517811,0.0115563,-0.00864596,-0.0719379,0.0402636,0.0557314,-0.075,0.031611,0.118774,-0.027086,-0.430592,-3.41708,-0.103696,16.2467,1.39559,2.08761,0.252878,0.090529,-1.23361,-0.518928,3.25124,0.739824,-0.159913,0.255003
1144120,1,-1.57114,-0.522787,0.000604637,-2.09678,-0.000721501,1.57122,0.784933,-1.57144,-0.523235,0.000495652,-2.09504,0.000287736,1.57183,0.785151,-0.0308217,0.0281555,0.0307092,-0.0334624,0.00574235,0.0182227,-0.00574229,-0.077568,0.043337,0.0601216,-0.08125,0.0339914,0.128599,-0.0291157,-0.454395,-2.88547,0.0232571,15.6754,1.33974,2.10684,0.233652,0.0760092,-1.26255,-0.530133,3.25658,0.741428,-0.1495,0.254988
1144121,1,-1.57119,-0.522744,0.000652772,-2.09683,-0.000711715,1.57127,0.784936,-1.57152,-0.523188,0.000560163,-2.09513,0.000324108,1.57196,0.78512,-0.0360727,0.0322994,0.0347712,-0.038614,0.0046389,0.0291604,-0.00193849,-0.0831981,0.0464104,0.0645117,-0.0875,0.0363719,0.138423,-0.0311454,-0.454395,-2.42923,0.0748318,15.2033,1.32234,2.08761,0.16865,0.0617501,-1.292,-0.540667,3.25901,0.74314,-0.137672,0.254972
1144122,1,-1.57125,-0.522711,0.000702623,-2.0969,-0.000700833,1.57134,0.784923,-1.57161,-0.523139,0.000629065,-2.09522,0.00036286,1.57211,0.785087,-0.0391384,0.033113,0.037844,-0.0431265,0.00751344,0.0412888,-0.00334218,-0.0888282,0.0494837,0.0689019,-0.09375,0.0387523,0.148248,-0.0331751,-0.478199,-1.87381,0.126407,14.8819,1.33425,1.95852,0.213511,0.0492771,-1.31983,-0.548216,3.2565,0.744878,-0.124643,0.254896
1144123,1,-1.57131,-0.522668,0.000760926,-2.09696,-0.000690941,1.57142,0.784909,-1.57171,-0.523086,0.000703712,-2.09533,0.000404532,1.57227,0.785051,-0.0450101,0.0341826,0.0444882,-0.0503901,0.00893686,0.0601423,-0.00982996,-0.0961242,0.0528777,0.0746464,-0.103125,0.0416723,0.161023,-0.0356223,-0.478199,-1.46915,0.126407,14.6082,1.36812,1.8038,0.284922,0.0370681,-1.34186,-0.55461,3.24771,0.746486,-0.110687,0.2547
1144124,1,-1.57137,-0.52263,0.00082446,-2.09704,-0.000683761,1.57151,0.784897,-1.57181,-0.52303,0.000784102,-2.09544,0.000449124,1.57245,0.785013,-0.051415,0.0341864,0.0473997,-0.0570193,0.0101845,0.0711876,-0.013291,-0.10342,0.0562716,0.0803908,-0.1125,0.0445923,0.173798,-0.0380696,-0.529774,-1.04068,0.0748318,14.4059,1.40199,1.72048,0.323374,0.0244582,-1.35362,-0.560943,3.23168,0.747937,-0.0962289,0.2544
1144125,1,-1.57143,-0.522595,0.000883423,-2.09712,-0.0006749,1.57161,0.784885,-1.57192,-0.52297,0.000870238,-2.09556,0.000496637,1.57263,0.784972,-0.0559496,0.031537,0.0532668,-0.0643046,0.0110096,0.0811745,-0.0104543,-0.110716,0.0596655,0.0861352,-0.121875,0.0475122,0.186573,-0.0405168,-0.708302,-0.636017,0.126407,14.3067,1.44136,1.71408,0.343516,0.0118311,-1.35014,-0.566842,3.20762,0.749301,-0.081695,0.254104
1144126,1,-1.5715,-0.522561,0.000955416,-2.0972,-0.000663444,1.5717,0.784875,-1.57204,-0.522907,0.000962117,-2.09569,0.000547069,1.57283,0.784929,-0.0615974,0.0306327,0.05873,-0.0733723,0.0123488,0.0849381,-0.0104143,-0.118012,0.0630594,0.0918796,-0.13125,0.0504322,0.199349,-0.0429641,-0.831288,-0.155975,0.126407,14.1083,1.46425,1.8038,0.291331,-0.00168526,-1.32668,-0.573545,3.17531,0.750613,-0.0673219,0.253942
1144127,1,-1.57157,-0.522524,0.00102572,-2.09729,-0.000647258,1.57181,0.784864,-1.57216,-0.522841,0.00105974,-2.09583,0.000600421,1.57304,0.784884,-0.0679233,0.0346835,0.0633205,-0.0806941,0.014839,0.0914636,-0.010438,-0.125308,0.0664533,0.097624,-0.140625,0.0533522,0.212124,-0.0454113,-0.986012,0.375641,0.225589,13.8108,1.44686,1.9457,0.233652,-0.0168068,-1.28675,-0.581894,3.13811,0.751984,-0.0529214,0.254001
1144128,1,-1.57167,-0.522476,0.00111326,-2.09739,-0.000629765,1.57194,0.784842,-1.5723,-0.522771,0.00116311,-2.09598,0.000656693,1.57327,0.784836,-0.0769155,0.0395526,0.0729138,-0.0877445,0.0122613,0.103392,-0.0127277,-0.132604,0.0698472,0.103368,-0.15,0.0562721,0.224899,-0.0478586,-0.986012,0.855682,0.225589,13.4378,1.41847,2.03543,0.233652,-0.0335341,-1.2414,-0.591838,3.10112,0.753589,-0.0381425,0.254263
1144129,1,-1.57176,-0.522419,0.00119744,-2.09749,-0.000605853,1.57208,0.784819,-1.57244,-0.522697,0.00127222,-2.09614,0.000715885,1.57351,0.784786,-0.0831026,0.044853,0.073735,-0.0927241,0.0149597,0.120933,-0.0143539,-0.1399,0.0732411,0.109113,-0.159375,0.0591921,0.237674,-0.0503058,-0.986012,1.26035,0.352542,12.9181,1.39009,2.02902,0.226328,-0.0511773,-1.19981,-0.602272,3.06683,0.755546,-0.0228723,0.254632
1144130,1,-1.57186,-0.522366,0.00128756,-2.09761,-0.000575427,1.57226,0.784794,-1.57258,-0.522621,0.00138708,-2.09631,0.000777997,1.57376,0.784733,-0.0868617,0.0488228,0.0784978,-0.104261,0.0230702,0.137363,-0.0198962,-0.147196,0.0766351,0.114857,-0.16875,0.0621121,0.250449,-0.0527531,-1.16057,1.66501,0.451724,12.569,1.32234,1.92007,0.213511,-0.0683068,-1.16661,-0.610213,3.03596,0.757886,-0.00705281,0.255003
1144131,1,-1.57197,-0.522312,0.00138345,-2.09775,-0.000543025,1.57245,0.784769,-1.57274,-0.522541,0.00150768,-2.09649,0.000843029,1.57402,0.784678,-0.0977355,0.048446,0.0844052,-0.113323,0.0283477,0.159109,-0.0223617,-0.154492,0.080029,0.120602,-0.178125,0.065032,0.263224,-0.0552003,-1.13677,2.06967,0.578677,12.2437,1.27199,1.8038,0.155832,-0.0846224,-1.14064,-0.614591,3.00827,0.760508,0.00935369,0.255291
1144132,1,-1.5721,-0.522258,0.00148571,-2.09789,-0.000508523,1.57266,0.784738,-1.5729,-0.522457,0.00163403,-2.09668,0.000910981,1.5743,0.78462,-0.107367,0.0544556,0.0897267,-0.120826,0.0303795,0.180336,-0.0246465,-0.161788,0.0834229,0.126346,-0.1875,0.067952,0.275999,-0.0576476,-1.03362,2.45053,0.681826,11.9461,1.27199,1.67471,0.110056,-0.0992302,-1.11719,-0.614461,2.98135,0.763286,0.0259735,0.25541
1144133,1,-1.57222,-0.522195,0.00159316,-2.09805,-0.000472024,1.57289,0.784687,-1.57307,-0.522371,0.00176704,-2.09688,0.000982223,1.57459,0.78456,-0.113072,0.0562871,0.0949129,-0.129863,0.0306929,0.190061,-0.0367198,-0.170166,0.0865008,0.133011,-0.19999,0.0712417,0.290605,-0.0603285,-0.986012,2.70047,0.733401,11.7994,1.30586,1.56576,0.200693,-0.111386,-1.09497,-0.608966,2.9537,0.766111,0.042377,0.255264
1144134,1,-1.57236,-0.522145,0.00170521,-2.09821,-0.00043285,1.57313,0.784643,-1.57325,-0.522281,0.00190672,-2.09709,0.00105675,1.57489,0.784497,-0.123331,0.0525193,0.0992224,-0.140192,0.0347737,0.206763,-0.0418741,-0.178545,0.0895787,0.139677,-0.21248,0.0745315,0.305211,-0.0630094,-0.910633,3.15671,0.757205,11.7002,1.36171,1.47512,0.213511,-0.12132,-1.06819,-0.598418,2.92325,0.76887,0.05824,0.254806
1144135,1,-1.5725,-0.522086,0.00181879,-2.09837,-0.000388267,1.57337,0.784593,-1.57344,-0.522189,0.00205306,-2.09731,0.00113458,1.57521,0.784431,-0.127271,0.0540537,0.104446,-0.150123,0.0385041,0.223047,-0.0469716,-0.186923,0.0926566,0.146342,-0.22497,0.0778212,0.319817,-0.0656903,-1.03362,3.43442,0.832583,11.474,1.41298,1.53372,0.252878,-0.1293,-1.02701,-0.583333,2.88674,0.771506,0.0731121,0.254082
1144136,1,-1.57264,-0.522029,0.00194066,-2.09855,-0.000331182,1.57363,0.78454,-1.57363,-0.522093,0.00220607,-2.09755,0.00121569,1.57555,0.784363,-0.133407,0.0530737,0.110707,-0.157666,0.0428331,0.233105,-0.0492002,-0.195302,0.0957345,0.153008,-0.23746,0.0811109,0.334424,-0.0683712,-1.16057,3.78751,0.935733,11.3272,1.42397,1.66189,0.24647,-0.137494,-0.967717,-0.56679,2.84276,0.773961,0.0866766,0.253208
1144137,1,-1.5728,-0.521969,0.00207214,-2.09874,-0.000269591,1.57391,0.784477,-1.57383,-0.521994,0.00236574,-2.0978,0.00130009,1.5759,0.784292,-0.140968,0.0581882,0.119443,-0.168465,0.0467687,0.245323,-0.0537936,-0.20368,0.0988124,0.159673,-0.24995,0.0844007,0.34903,-0.0710521,-1.16057,4.16837,1.01111,11.0257,1.41847,1.79739,0.304148,-0.148781,-0.893397,-0.553003,2.79269,0.776216,0.0990787,0.252313
1144138,1,-1.57297,-0.521903,0.00221574,-2.09894,-0.000197564,1.5742,0.784404,-1.57405,-0.521892,0.00253208,-2.09806,0.00138778,1.57626,0.784218,-0.153046,0.0625308,0.127841,-0.180243,0.0505477,0.262195,-0.0609009,-0.212059,0.10189,0.166339,-0.26244,0.0876904,0.363636,-0.073733,-1.109,4.52145,1.01111,10.7282,1.3846,1.85507,0.356333,-0.163952,-0.814654,-0.543752,2.74192,0.778436,0.110999,0.251521
1144139,1,-1.57315,-0.521832,0.00235696,-2.09915,-0.000123719,1.57452,0.784341,-1.57427,-0.521787,0.00270508,-2.09834,0.00147876,1.57664,0.784142,-0.163105,0.0655942,0.133706,-0.189753,0.0578383,0.275347,-0.0619752,-0.220438,0.104968,0.173004,-0.27493,0.0909802,0.378242,-0.0764139,-1.06139,4.87454,1.13806,10.3315,1.35622,1.78457,0.297739,-0.181014,-0.740418,-0.536918,2.69484,0.780834,0.123115,0.250948
1144140,1,-1.57333,-0.521757,0.00250018,-2.09938,-4.21048e-05,1.57486,0.784274,-1.5745,-0.521679,0.00288475,-2.09863,0.00157303,1.57703,0.784063,-0.169153,0.0666932,0.136199,-0.203,0.0644671,0.295253,-0.0637563,-0.228816,0.108046,0.179669,-0.28742,0.0942699,0.392848,-0.0790948,-1.06139,5.15225,1.23725,10.0339,1.29396,1.68844,0.226328,-0.19711,-0.670791,-0.528234,2.65123,0.783484,0.135693,0.250661
1144141,1,-1.57353,-0.521682,0.00265574,-2.09962,4.7846e-05,1.57522,0.784198,-1.57473,-0.521568,0.00307109,-2.09893,0.00167059,1.57744,0.783981,-0.180451,0.0680903,0.144915,-0.210316,0.0694035,0.320028,-0.0646646,-0.237195,0.111124,0.186335,-0.29991,0.0975597,0.407455,-0.0817757,-1.06139,5.40616,1.31262,9.76017,1.22621,1.57217,0.16865,-0.210933,-0.600795,-0.515353,2.60785,0.786293,0.148454,0.250604
1144142,1,-1.57374,-0.521598,0.00281865,-2.09988,0.000133455,1.5756,0.784114,-1.57498,-0.521454,0.00326409,-2.09924,0.00177144,1.57786,0.783896,-0.185173,0.0705807,0.148782,-0.224523,0.0707822,0.335608,-0.0696491,-0.245573,0.114202,0.193,-0.3124,0.100849,0.422061,-0.0844567,-1.06139,5.58469,1.3642,9.48642,1.22072,1.39822,0.219919,-0.222998,-0.526578,-0.498962,2.56174,0.789069,0.160913,0.250631
1144143,1,-1.57397,-0.521517,0.00298921,-2.10014,0.000223771,1.57598,0.78403,-1.57523,-0.521337,0.00346435,-2.09956,0.00187584,1.5783,0.783809,-0.194044,0.0737942,0.155988,-0.23776,0.0758071,0.347284,-0.0765427,-0.25455,0.117015,0.200268,-0.32489,0.104406,0.437376,-0.0872818,-0.934437,5.83463,1.3642,9.28806,1.23812,1.32131,0.226328,-0.234453,-0.451038,-0.480504,2.5151,0.79167,0.173106,0.250625
1144144,1,-1.57419,-0.52143,0.0031613,-2.10042,0.000319843,1.57638,0.783943,-1.5755,-0.521217,0.00367189,-2.0999,0.00198381,1.57875,0.783719,-0.203325,0.0776236,0.160244,-0.244663,0.0786287,0.369456,-0.0820724,-0.263527,0.119828,0.207536,-0.33738,0.107963,0.452692,-0.0901069,-1.00982,6.01315,1.39197,9.1135,1.28298,1.35336,0.240061,-0.245086,-0.377699,-0.459751,2.46958,0.79404,0.184916,0.250549
1144145,1,-1.57443,-0.52135,0.00334206,-2.10071,0.000420641,1.57679,0.783856,-1.57577,-0.521094,0.00388669,-2.10025,0.00209532,1.57922,0.783626,-0.210725,0.0794321,0.171616,-0.257882,0.087356,0.376688,-0.0847351,-0.272504,0.122641,0.214804,-0.34987,0.111519,0.468007,-0.092932,-1.06139,6.23929,1.31262,8.88736,1.28298,1.4559,0.219919,-0.25534,-0.305579,-0.43794,2.42317,0.796088,0.195867,0.250413
1144146,1,-1.57466,-0.521262,0.00352272,-2.10101,0.000532872,1.57722,0.78376,-1.57605,-0.520969,0.00410877,-2.10061,0.0022104,1.5797,0.78353,-0.214973,0.0825404,0.174024,-0.270203,0.0943615,0.38849,-0.0887681,-0.281481,0.125454,0.222072,-0.36236,0.115076,0.483323,-0.0957571,-1.18834,6.39005,1.39197,8.76438,1.26558,1.5209,0.265696,-0.267749,-0.234137,-0.418848,2.37618,0.797717,0.2061,0.250245
1144147,1,-1.57491,-0.52117,0.00372477,-2.10132,0.000645625,1.57767,0.783665,-1.57634,-0.520841,0.00433811,-2.10099,0.00232903,1.5802,0.783432,-0.225166,0.0827153,0.185125,-0.283809,0.0988017,0.413128,-0.0951685,-0.290457,0.128268,0.22934,-0.37485,0.118632,0.498639,-0.0985823,-1.28753,6.49319,1.3404,8.74057,1.27199,1.55935,0.272104,-0.283599,-0.162755,-0.404115,2.32952,0.798954,0.215943,0.250068
1144148,1,-1.57519,-0.521079,0.00393514,-2.10165,0.000764053,1.57814,0.783565,-1.57664,-0.52071,0.00457471,-2.10138,0.00245122,1.58071,0.78333,-0.242691,0.0832504,0.193486,-0.301945,0.102737,0.431691,-0.095481,-0.299434,0.131081,0.236608,-0.38734,0.122189,0.513954,-0.101407,-1.109,6.56857,1.28882,8.71677,1.26558,1.57858,0.284922,-0.301284,-0.0893362,-0.392381,2.28343,0.800009,0.225565,0.249914
1144149,1,-1.57547,-0.520981,0.00414468,-2.10199,0.000887646,1.57864,0.783469,-1.57695,-0.520576,0.00481859,-2.10177,0.00257697,1.58124,0.783226,-0.253343,0.0856566,0.194912,-0.312243,0.10939,0.452575,-0.0993163,-0.308411,0.133894,0.243876,-0.39983,0.125745,0.52927,-0.104233,-1.00982,6.54477,1.28882,8.74057,1.28298,1.55294,0.252878,-0.315563,-0.0134306,-0.377205,2.2386,0.801227,0.235182,0.249801
1144150,1,-1.57575,-0.520881,0.00436199,-2.10235,0.00101516,1.57914,0.783366,-1.57727,-0.520439,0.00506973,-2.10219,0.00270627,1.58179,0.783119,-0.260323,0.0929826,0.199098,-0.324496,0.115011,0.471861,-0.0978539,-0.317388,0.136707,0.251144,-0.41232,0.129302,0.544585,-0.107058,-1.06139,6.517,1.31262,8.83976,1.28847,1.54653,0.24647,-0.322064,0.0610696,-0.351849,2.19522,0.8028,0.244809,0.249724
1144151,1,-1.57604,-0.520778,0.00458068,-2.10272,0.00115238,1.57967,0.783262,-1.57759,-0.520299,0.00532814,-2.10261,0.00283913,1.58235,0.783009,-0.278467,0.0955989,0.203956,-0.338037,0.119618,0.485942,-0.10123,-0.326365,0.13952,0.258412,-0.42481,0.132859,0.559901,-0.109883,-1.00982,6.49319,1.39197,8.86356,1.27199,1.51449,0.240061,-0.319227,0.127497,-0.313799,2.155,0.804807,0.254544,0.249663
1144152,1,-1.57635,-0.520674,0.00481096,-2.1031,0.00128451,1.58022,0.783151,-1.57793,-0.520157,0.00559382,-2.10305,0.00297554,1.58292,0.782896,-0.284708,0.0998737,0.209191,-0.351703,0.12314,0.504027,-0.10498,-0.335342,0.142333,0.26568,-0.4373,0.136415,0.575216,-0.112708,-0.958241,6.49319,1.39197,8.93894,1.26558,1.44949,0.259287,-0.3065,0.183077,-0.262712,2.11982,0.807322,0.264585,0.249591
1144153,1,-1.57666,-0.520568,0.00504325,-2.10349,0.00142287,1.58078,0.783046,-1.57827,-0.520012,0.00586713,-2.1035,0.00311565,1.58351,0.782781,-0.296378,0.1039,0.219783,-0.371647,0.124959,0.520876,-0.105083,-0.34458,0.144991,0.273302,-0.44979,0.140106,0.590468,-0.115587,-0.910633,6.46939,1.39197,8.96274,1.27748,1.40463,0.187876,-0.287791,0.225832,-0.204383,2.09259,0.810241,0.275179,0.249522
1144154,1,-1.57699,-0.520449,0.00528417,-2.1039,0.00156723,1.58137,0.782934,-1.57863,-0.519864,0.00614805,-2.10396,0.00325944,1.58412,0.782662,-0.304212,0.108533,0.225324,-0.382545,0.13196,0.538332,-0.10736,-0.353819,0.14765,0.280925,-0.46228,0.143796,0.605719,-0.118467,-0.882862,6.36624,1.49115,8.99051,1.26009,1.35336,0.175059,-0.268419,0.253206,-0.14662,2.07621,0.813372,0.286459,0.249465
1144155,1,-1.57732,-0.520333,0.0055515,-2.10432,0.00171689,1.58196,0.782823,-1.57899,-0.519714,0.0064366,-2.10444,0.00340693,1.58474,0.782541,-0.312863,0.109463,0.236598,-0.39184,0.138818,0.54993,-0.103862,-0.363057,0.150308,0.288548,-0.47477,0.147487,0.62097,-0.121346,-0.859058,6.36624,1.43958,8.93894,1.20333,1.35336,0.162241,-0.252008,0.271109,-0.0946042,2.06635,0.816396,0.297865,0.249354
1144156,1,-1.57767,-0.520219,0.00581216,-2.10475,0.00186558,1.58257,0.782717,-1.57936,-0.519561,0.00673277,-2.10492,0.00355811,1.58538,0.782417,-0.329161,0.109612,0.242913,-0.404125,0.142146,0.56444,-0.104848,-0.372295,0.152967,0.296171,-0.48726,0.151177,0.636222,-0.124225,-0.882862,6.39005,1.46735,8.96274,1.18685,1.41745,0.122873,-0.239495,0.291809,-0.049951,2.055,0.819022,0.308582,0.249092
1144157,1,-1.57802,-0.520104,0.0060819,-2.10519,0.00201622,1.58318,0.782607,-1.57974,-0.519406,0.00703656,-2.10542,0.00371298,1.58603,0.78229,-0.339647,0.109424,0.252183,-0.412889,0.147766,0.576991,-0.105028,-0.381534,0.155625,0.303794,-0.49975,0.154867,0.651473,-0.127105,-0.831288,6.41782,1.54273,8.83976,1.22072,1.47512,0.0587866,-0.228354,0.325531,-0.00964121,2.03645,0.821181,0.318137,0.248588
1144158,1,-1.57841,-0.519985,0.00636848,-2.10565,0.00217259,1.58381,0.782493,-1.58013,-0.519247,0.00734798,-2.10594,0.00387153,1.58669,0.78216,-0.356729,0.112972,0.263342,-0.422514,0.147295,0.593117,-0.103687,-0.390772,0.158283,0.311417,-0.51224,0.158558,0.666724,-0.129984,-0.605152,6.44162,1.46735,8.81595,1.25459,1.48794,0.0780126,-0.217199,0.376287,0.0278472,2.00769,0.822845,0.326317,0.247751
1144159,1,-1.57878,-0.519853,0.00664703,-2.1061,0.00233029,1.58448,0.782372,-1.58053,-0.519086,0.00766702,-2.10646,0.00403378,1.58738,0.782027,-0.362075,0.118547,0.267298,-0.431006,0.145503,0.611207,-0.10725,-0.40001,0.160942,0.319039,-0.52473,0.162248,0.681976,-0.132863,-0.529774,6.34244,1.56653,8.71677,1.32234,1.4559,0.110056,-0.205826,0.439222,0.0628146,1.96953,0.8241,0.333178,0.246511
1144160,1,-1.57917,-0.519713,0.0069457,-2.10657,0.00248706,1.58515,0.782246,-1.58094,-0.518923,0.00799368,-2.107,0.00419972,1.58807,0.781891,-0.37153,0.123763,0.277196,-0.440599,0.145992,0.631467,-0.115819,-0.409249,0.1636,0.326662,-0.53722,0.165939,0.697227,-0.135743,-0.50597,6.18771,1.64191,8.54221,1.35622,1.3854,0.175059,-0.194924,0.50542,0.0951134,1.925,0.825108,0.338902,0.244885
1144161,1,-1.57959,-0.519577,0.00725536,-2.10705,0.00265167,1.58584,0.782125,-1.58136,-0.518756,0.00832797,-2.10755,0.00436935,1.58879,0.781752,-0.383789,0.128229,0.287456,-0.455179,0.148487,0.643454,-0.115616,-0.418487,0.166259,0.334285,-0.54971,0.169629,0.712478,-0.138622,-0.279835,6.14011,1.61811,8.49063,1.33425,1.34695,0.187876,-0.186305,0.567215,0.122356,1.87837,0.826028,0.34387,0.242988
1144162,1,-1.58,-0.519432,0.00757107,-2.10754,0.00282013,1.58653,0.782001,-1.58179,-0.518588,0.00866988,-2.10811,0.00454267,1.58951,0.781611,-0.396132,0.132473,0.296681,-0.46653,0.154799,0.675996,-0.117858,-0.427726,0.168917,0.341908,-0.5622,0.17332,0.72773,-0.141502,-0.0775034,6.03696,1.61811,8.31607,1.31136,1.35336,0.135691,-0.180049,0.619671,0.143729,1.83369,0.82705,0.348429,0.240968
1144163,1,-1.58042,-0.51929,0.00788833,-2.10805,0.00298226,1.58726,0.781876,-1.58223,-0.518416,0.00901957,-2.10868,0.00471971,1.59026,0.781467,-0.396571,0.138142,0.310158,-0.475542,0.158131,0.698475,-0.124335,-0.436969,0.171216,0.349693,-0.57469,0.177041,0.742677,-0.144373,-0.125111,5.93777,1.69348,8.16928,1.32784,1.29476,0.071604,-0.178611,0.662224,0.155515,1.79083,0.828084,0.352345,0.238934
1144164,1,-1.58084,-0.519143,0.00821678,-2.10856,0.00315831,1.588,0.781752,-1.58267,-0.518243,0.00937705,-2.10927,0.00490047,1.59101,0.781319,-0.407323,0.142003,0.315653,-0.485036,0.166465,0.713298,-0.122838,-0.446212,0.173515,0.357478,-0.58718,0.180762,0.757625,-0.147244,-0.125111,5.8862,1.64191,7.97092,1.29946,1.25631,-0.0190333,-0.185748,0.696805,0.152881,1.74746,0.828844,0.355325,0.236901
1144165,1,-1.58127,-0.518996,0.00855999,-2.10909,0.00334039,1.58876,0.781611,-1.58313,-0.518067,0.00974231,-2.10987,0.00508496,1.59179,0.781169,-0.413168,0.139388,0.323461,-0.498777,0.174199,0.725814,-0.128514,-0.455455,0.175814,0.365264,-0.59967,0.184484,0.772572,-0.150115,-0.152882,5.93777,1.54273,7.84397,1.24361,1.19863,0.0459692,-0.199448,0.729709,0.139394,1.70124,0.829277,0.35744,0.234738
1144166,1,-1.58171,-0.518852,0.00889733,-2.10963,0.00352563,1.58954,0.781478,-1.58359,-0.517889,0.0101154,-2.11048,0.00527316,1.59257,0.781016,-0.423183,0.141464,0.328354,-0.519168,0.177313,0.742682,-0.129712,-0.464698,0.178113,0.373049,-0.61216,0.188205,0.787519,-0.152987,-0.303639,5.96158,1.64191,7.84397,1.25459,1.16018,0.0322363,-0.215362,0.766663,0.121726,1.65319,0.829538,0.359155,0.232293
1144167,1,-1.58216,-0.518701,0.00925722,-2.11019,0.00371561,1.59033,0.78135,-1.58407,-0.517709,0.0104962,-2.11111,0.00546509,1.59338,0.78086,-0.428057,0.146467,0.336677,-0.531634,0.180101,0.756943,-0.127322,-0.473941,0.180412,0.380834,-0.62465,0.191926,0.802467,-0.155858,-0.327442,5.96158,1.51892,7.87174,1.25459,1.24349,-0.0510767,-0.231187,0.803139,0.10356,1.6089,0.829799,0.361104,0.229532
1144168,1,-1.58262,-0.518544,0.00963018,-2.11076,0.00390296,1.59112,0.781209,-1.58455,-0.517526,0.0108848,-2.11174,0.00566074,1.59419,0.780702,-0.439772,0.149916,0.347233,-0.5438,0.181948,0.768097,-0.132987,-0.483184,0.182711,0.388619,-0.63714,0.195648,0.817414,-0.158729,-0.327442,5.8624,1.3642,7.91935,1.26009,1.31491,-0.0584009,-0.247172,0.832967,0.0846822,1.5711,0.830067,0.363477,0.226464
1144169,1,-1.58308,-0.518387,0.00999117,-2.11134,0.00409095,1.59195,0.781058,-1.58504,-0.517341,0.0112812,-2.11239,0.00586011,1.59503,0.78054,-0.453699,0.155974,0.351774,-0.555762,0.186069,0.783378,-0.13964,-0.492427,0.18501,0.396404,-0.64963,0.199369,0.832362,-0.1616,-0.402821,5.73544,1.3404,8.0701,1.31136,1.28195,-0.0190333,-0.261484,0.853961,0.067185,1.53901,0.830394,0.366221,0.223039
1144170,1,-1.58355,-0.518223,0.0103745,-2.11195,0.00428466,1.59279,0.780908,-1.58554,-0.517153,0.0116854,-2.11306,0.0060632,1.59587,0.780376,-0.454487,0.157492,0.361191,-0.574619,0.1957,0.80371,-0.143468,-0.50167,0.187309,0.40419,-0.66212,0.20309,0.847309,-0.164471,-0.581349,5.58469,1.28882,8.31607,1.29946,1.19863,0.00660151,-0.272411,0.864317,0.0535077,1.51324,0.830894,0.369463,0.219223
1144171,1,-1.58404,-0.518058,0.0107714,-2.11257,0.00449059,1.59365,0.780752,-1.58605,-0.516964,0.0120974,-2.11373,0.00627001,1.59674,0.780208,-0.465985,0.158945,0.375205,-0.586279,0.200189,0.815998,-0.146802,-0.510913,0.189608,0.411975,-0.67461,0.206812,0.862257,-0.167343,-0.632923,5.42996,1.11029,8.54221,1.26009,1.16659,0.0459692,-0.284974,0.866875,0.036995,1.49381,0.831398,0.373229,0.215093
1144172,1,-1.58452,-0.517887,0.0111796,-2.11319,0.00470402,1.59452,0.7806,-1.58658,-0.516772,0.0125171,-2.11442,0.00648054,1.59761,0.780038,-0.471685,0.162074,0.383142,-0.598276,0.202609,0.827601,-0.149927,-0.520156,0.191907,0.41976,-0.6871,0.210533,0.877204,-0.170214,-0.807484,5.30301,1.03491,8.6652,1.23812,1.21786,-0.0190333,-0.303582,0.867834,0.0113367,1.47781,0.831684,0.377189,0.210789
1144173,1,-1.58502,-0.517706,0.0115919,-2.11384,0.00491436,1.5954,0.78044,-1.5871,-0.516578,0.0129447,-2.11512,0.00669475,1.59851,0.779865,-0.474896,0.168965,0.392398,-0.608745,0.208225,0.839676,-0.146406,-0.529206,0.193697,0.427557,-0.69959,0.214209,0.891703,-0.173035,-1.00982,5.12845,0.959536,8.74057,1.24361,1.173,-0.0382593,-0.329264,0.867536,-0.0243335,1.46371,0.831622,0.381055,0.206423
1144174,1,-1.58552,-0.517534,0.0120235,-2.1145,0.00513038,1.59628,0.780274,-1.58764,-0.516383,0.0133801,-2.11583,0.00691263,1.59941,0.779689,-0.493832,0.17163,0.41126,-0.624541,0.209556,0.849127,-0.152723,-0.538255,0.195487,0.435355,-0.71208,0.217885,0.906201,-0.175856,-1.08519,5.05307,0.781009,8.83976,1.19783,1.31491,-0.0318506,-0.362778,0.861495,-0.0711487,1.45335,0.83116,0.384909,0.202031
1144175,1,-1.58603,-0.517359,0.0124635,-2.11518,0.00534637,1.59716,0.7801,-1.58819,-0.516186,0.0138232,-2.11655,0.00713419,1.60033,0.77951,-0.498213,0.172157,0.420568,-0.640175,0.213564,0.85413,-0.158801,-0.547305,0.197276,0.443152,-0.72457,0.221561,0.9207,-0.178677,-1.16057,5.0253,0.630252,8.86356,1.20973,1.4559,0.0258276,-0.403922,0.849468,-0.129969,1.4489,0.830357,0.389128,0.197613
1144176,1,-1.58655,-0.517188,0.0129007,-2.11587,0.00556775,1.59807,0.779927,-1.58875,-0.515986,0.0142742,-2.11729,0.00735943,1.60127,0.779329,-0.502816,0.168752,0.424599,-0.653631,0.217349,0.869969,-0.163371,-0.556355,0.199066,0.450949,-0.73706,0.225237,0.935198,-0.181498,-1.41448,5.05307,0.630252,8.91513,1.19234,1.52731,0.0780126,-0.451229,0.839944,-0.197792,1.44823,0.82923,0.393895,0.19318
1144177,1,-1.58707,-0.517006,0.0133514,-2.11658,0.00580642,1.59902,0.779748,-1.58931,-0.515786,0.0147329,-2.11804,0.00758834,1.60222,0.779145,-0.508277,0.172604,0.433981,-0.666245,0.224677,0.885597,-0.166749,-0.565404,0.200856,0.458747,-0.74955,0.228912,0.949697,-0.184319,-1.51366,4.94992,0.503299,8.93894,1.16945,1.50167,0.122873,-0.502616,0.841502,-0.26956,1.44654,0.827755,0.399033,0.188795
1144178,1,-1.58761,-0.51682,0.0138157,-2.11731,0.00604173,1.59997,0.779562,-1.58989,-0.515583,0.0151994,-2.1188,0.00782093,1.60318,0.778958,-0.512982,0.173462,0.441117,-0.681326,0.229771,0.908591,-0.175229,-0.574454,0.202646,0.466544,-0.76204,0.232588,0.964195,-0.18714,-1.51366,4.79916,0.479495,9.01432,1.16945,1.40463,0.207102,-0.557412,0.85329,-0.343209,1.44262,0.825923,0.404441,0.184585
1144179,1,-1.58817,-0.516636,0.0142787,-2.11803,0.00628433,1.60093,0.779373,-1.59047,-0.515379,0.0156738,-2.11958,0.0080572,1.60416,0.778768,-0.521454,0.177092,0.450395,-0.691977,0.23522,0.915838,-0.180584,-0.583504,0.204436,0.474342,-0.77453,0.236264,0.978694,-0.189961,-1.51366,4.64841,0.451724,8.99051,1.13008,1.40463,0.233652,-0.615151,0.871051,-0.417845,1.43727,0.823758,0.410094,0.18072
1144180,1,-1.58872,-0.516449,0.014743,-2.11877,0.00652927,1.60189,0.779191,-1.59106,-0.515172,0.0161559,-2.12036,0.00829714,1.60515,0.778575,-0.53323,0.181315,0.449688,-0.704115,0.238485,0.927108,-0.180453,-0.592553,0.206225,0.482139,-0.78702,0.23994,0.993192,-0.192781,-1.51366,4.54526,0.578677,8.86356,1.10719,1.43026,0.155832,-0.670597,0.890329,-0.486322,1.43124,0.821447,0.415968,0.177355
1144181,1,-1.58929,-0.516263,0.0152095,-2.11953,0.00677366,1.60289,0.779005,-1.59166,-0.514964,0.0166459,-2.12116,0.00854075,1.60616,0.778379,-0.541894,0.186356,0.459881,-0.714871,0.24033,0.94353,-0.18126,-0.601603,0.208015,0.489936,-0.79951,0.243616,1.00769,-0.195602,-1.41448,4.46988,0.733401,8.81595,1.1017,1.35977,0.110056,-0.717132,0.905441,-0.539673,1.4256,0.819237,0.422016,0.17455
1144182,1,-1.58987,-0.516067,0.015692,-2.12028,0.00702871,1.60392,0.778811,-1.59227,-0.514754,0.0171436,-2.12198,0.00878804,1.60718,0.778181,-0.553756,0.184421,0.461784,-0.725463,0.241365,0.967971,-0.186482,-0.610653,0.209805,0.497734,-0.812,0.247292,1.02219,-0.198423,-1.31133,4.4183,0.860354,8.74057,1.09072,1.14736,0.0780126,-0.75254,0.917879,-0.575255,1.41805,0.817181,0.427777,0.172224
1144183,1,-1.59046,-0.515875,0.0161761,-2.12105,0.00728712,1.60493,0.77861,-1.59289,-0.514543,0.017649,-2.1228,0.00903892,1.60822,0.77798,-0.56283,0.188467,0.460935,-0.732568,0.247694,0.982024,-0.18978,-0.619354,0.210983,0.505422,-0.82449,0.250876,1.03615,-0.201168,-1.28753,4.3945,1.06269,8.64139,1.07973,1.108,0.116465,-0.773823,0.935602,-0.588765,1.40289,0.815308,0.432404,0.170188
1144184,1,-1.59106,-0.515682,0.0166644,-2.12183,0.007541,1.60595,0.778402,-1.59352,-0.514331,0.0181621,-2.12364,0.00929338,1.60927,0.777776,-0.575609,0.191932,0.471464,-0.762093,0.246675,0.988811,-0.19586,-0.628055,0.212162,0.513111,-0.83698,0.25446,1.05011,-0.203912,-1.18834,4.3707,1.08649,8.64139,1.09072,1.15377,0.155832,-0.779118,0.953932,-0.5777,1.38466,0.813778,0.43617,0.168305
1144185,1,-1.59166,-0.515483,0.0171708,-2.12263,0.00779739,1.60698,0.778202,-1.59416,-0.514118,0.0186829,-2.12449,0.00955142,1.61033,0.777569,-0.581661,0.195265,0.479436,-0.772445,0.245865,0.995239,-0.196818,-0.636756,0.21334,0.520799,-0.84947,0.258044,1.06408,-0.206656,-1.109,4.29532,1.08649,8.64139,1.1017,1.32772,0.0844213,-0.773645,0.95939,-0.550503,1.376,0.812661,0.440385,0.166591
1144186,1,-1.59229,-0.51528,0.0176751,-2.12346,0.00805075,1.60801,0.777992,-1.5948,-0.513903,0.0192114,-2.12535,0.00981305,1.61141,0.77736,-0.591129,0.198717,0.487529,-0.786123,0.244359,1.00877,-0.199656,-0.645457,0.214518,0.528488,-0.86196,0.261628,1.07804,-0.2094,-0.986012,4.19217,1.16187,8.78818,1.14748,1.40463,0.0844213,-0.764131,0.950132,-0.517342,1.37879,0.811755,0.445349,0.165081
1144187,1,-1.59292,-0.515077,0.0181685,-2.12428,0.00831727,1.60908,0.77778,-1.59546,-0.513688,0.0197476,-2.12622,0.0100783,1.6125,0.777147,-0.609709,0.200973,0.49166,-0.800605,0.252136,1.02215,-0.201905,-0.654157,0.215697,0.536176,-0.87445,0.265212,1.092,-0.212144,-0.934437,3.96603,1.28882,8.96274,1.19234,1.43667,0.0972387,-0.750544,0.930803,-0.478837,1.38844,0.81101,0.450758,0.163698
1144188,1,-1.59356,-0.514878,0.0186775,-2.12514,0.00858419,1.61015,0.777564,-1.59612,-0.513471,0.0202915,-2.12711,0.0103471,1.61361,0.776933,-0.62339,0.199644,0.492167,-0.811732,0.250018,1.04154,-0.204186,-0.662858,0.216875,0.543865,-0.88694,0.268796,1.10596,-0.214888,-0.755909,3.83908,1.49115,9.23648,1.21523,1.29476,0.116465,-0.72596,0.908303,-0.425979,1.40023,0.810713,0.456352,0.162306
1144189,1,-1.59422,-0.514678,0.0191928,-2.126,0.00886126,1.61125,0.777358,-1.59679,-0.513253,0.020843,-2.12801,0.0106194,1.61473,0.776715,-0.629915,0.200382,0.504562,-0.83224,0.25562,1.05699,-0.202921,-0.671559,0.218053,0.551553,-0.89943,0.27238,1.11992,-0.217633,-0.529774,3.66055,1.64191,9.66098,1.16945,1.22427,0.0322363,-0.689301,0.890278,-0.35725,1.41062,0.810979,0.461866,0.160859
1144190,1,-1.59489,-0.514469,0.0197151,-2.12689,0.00913784,1.61237,0.777151,-1.59747,-0.513034,0.0214023,-2.12892,0.0108954,1.61586,0.776495,-0.637266,0.20341,0.508442,-0.846391,0.263475,1.0747,-0.206831,-0.68026,0.219232,0.559242,-0.91192,0.275964,1.13389,-0.220377,-0.303639,3.5098,1.76886,9.95853,1.13558,1.14096,-0.0510767,-0.648283,0.875899,-0.283192,1.42213,0.811586,0.467422,0.159368
1144191,1,-1.59557,-0.514258,0.0202481,-2.1278,0.00940718,1.61349,0.776941,-1.59816,-0.512813,0.0219692,-2.12985,0.011175,1.61701,0.776271,-0.647817,0.202865,0.51291,-0.859981,0.262334,1.09496,-0.209591,-0.688961,0.22041,0.56693,-0.92441,0.279548,1.14785,-0.223121,-0.176685,3.33524,1.94739,10.3315,1.16945,0.986232,-0.122488,-0.606399,0.863249,-0.208386,1.43611,0.812347,0.472809,0.157743
1144192,1,-1.59624,-0.514044,0.020779,-2.12872,0.00968483,1.61463,0.776725,-1.59886,-0.512592,0.0225438,-2.13078,0.0114581,1.61817,0.776046,-0.670666,0.207655,0.520809,-0.878609,0.267002,1.10791,-0.2117,-0.697662,0.221588,0.574619,-0.9369,0.283132,1.16181,-0.225865,-0.152882,3.08133,2.07434,10.7044,1.18685,0.805873,-0.193899,-0.559478,0.850977,-0.127848,1.45317,0.813383,0.477667,0.155782
1144193,1,-1.59693,-0.513831,0.0213197,-2.12965,0.00995699,1.61574,0.77651,-1.59957,-0.51237,0.0231259,-2.13173,0.0117447,1.61935,0.775817,-0.67915,0.206009,0.524315,-0.890731,0.266463,1.08885,-0.209332,-0.705893,0.222095,0.582102,-0.94939,0.286596,1.17519,-0.228517,-0.125111,2.879,2.12592,10.9027,1.18685,1.02468,-0.246084,-0.503052,0.835489,-0.0366213,1.47689,0.814875,0.482201,0.153281
1144194,1,-1.59763,-0.51361,0.0218606,-2.13059,0.0102229,1.61687,0.776287,-1.60028,-0.512147,0.0237155,-2.13269,0.0120347,1.62054,0.775586,-0.679792,0.212679,0.523696,-0.901782,0.269418,1.08951,-0.217571,-0.714123,0.222602,0.589585,-0.96188,0.290059,1.18856,-0.231168,-0.204456,2.62509,2.2251,10.9027,1.22072,1.31491,-0.225942,-0.438433,0.816062,0.0647636,1.50834,0.816679,0.48667,0.150084
1144195,1,-1.59834,-0.513388,0.022415,-2.13152,0.0104982,1.61802,0.776067,-1.601,-0.511924,0.0243126,-2.13367,0.0123283,1.62174,0.775352,-0.686684,0.213867,0.536097,-0.9113,0.276113,1.09431,-0.221322,-0.722354,0.22311,0.597067,-0.97437,0.293523,1.20194,-0.23382,-0.101307,2.39896,2.30048,10.7798,1.2491,1.46871,-0.181082,-0.372817,0.792619,0.168442,1.54539,0.818401,0.491057,0.146129
1144196,1,-1.59905,-0.513168,0.0229819,-2.13248,0.0107828,1.6192,0.775845,-1.60173,-0.5117,0.0249171,-2.13466,0.0126252,1.62295,0.775116,-0.685586,0.213384,0.542526,-0.920613,0.278233,1.11373,-0.221345,-0.730585,0.223617,0.60455,-0.98686,0.296986,1.21531,-0.236471,-0.152882,2.22043,2.2251,10.5814,1.2491,1.37258,-0.0904444,-0.31576,0.770906,0.261799,1.58204,0.819603,0.495033,0.141463
1144197,1,-1.59978,-0.512955,0.0235504,-2.13343,0.0110857,1.62039,0.775613,-1.60247,-0.511476,0.0255291,-2.13565,0.0129257,1.62418,0.774876,-0.692242,0.213419,0.551475,-0.930722,0.285139,1.1224,-0.220333,-0.738815,0.224124,0.612033,-0.99935,0.30045,1.22868,-0.239123,-0.176685,2.04587,2.2251,10.3791,1.1017,1.36618,-0.0190333,-0.273524,0.760741,0.336367,1.61096,0.820013,0.498174,0.136244
1144198,1,-1.60051,-0.512738,0.0241383,-2.13441,0.0113901,1.62161,0.775395,-1.60322,-0.511251,0.0261487,-2.13667,0.0132296,1.62542,0.774635,-0.708121,0.211663,0.560042,-0.9397,0.288009,1.14427,-0.220821,-0.747046,0.224631,0.619516,-1.01184,0.303913,1.24206,-0.241774,-0.176685,1.91891,2.2251,10.1093,1.00557,1.22427,-0.044668,-0.244209,0.767989,0.394018,1.62742,0.81966,0.500167,0.130699
1144199,1,-1.60127,-0.512514,0.0247288,-2.13539,0.0116835,1.62283,0.775182,-1.60397,-0.511026,0.0267757,-2.13769,0.013537,1.62668,0.77439,-0.719372,0.220763,0.58628,-0.944474,0.291214,1.16746,-0.219193,-0.755276,0.225138,0.626999,-1.02433,0.307377,1.25543,-0.244425,-0.0775034,1.71658,2.09815,9.76017,1.00008,1.02468,-0.122488,-0.226121,0.790744,0.434585,1.62941,0.818478,0.500588,0.125086
1144200,1,-1.60202,-0.51229,0.0253371,-2.13637,0.0119751,1.62407,0.774967,-1.60474,-0.510801,0.0274101,-2.13873,0.0138478,1.62795,0.774143,-0.733759,0.220107,0.592276,-0.955159,0.292136,1.18017,-0.216922,-0.763507,0.225645,0.634481,-1.03682,0.310841,1.26881,-0.247077,-0.00212494,1.48648,2.02277,9.53403,1.15297,0.882777,-0.225942,-0.220708,0.820488,0.453733,1.6183,0.816268,0.499142,0.119568
1144201,1,-1.60277,-0.512062,0.0259541,-2.13737,0.0122666,1.62531,0.774746,-1.60551,-0.510574,0.0280521,-2.13978,0.0141621,1.62923,0.773893,-0.739434,0.222467,0.593001,-0.961873,0.294797,1.19648,-0.219591,-0.771737,0.226153,0.641964,-1.04931,0.314304,1.28218,-0.249728,-0.176685,1.26035,1.92359,9.36344,1.23812,0.74087,-0.246084,-0.2215,0.853983,0.460893,1.59523,0.813245,0.495699,0.114075
1144202,1,-1.60354,-0.511836,0.0265752,-2.13838,0.0125753,1.62657,0.774506,-1.60629,-0.510348,0.0287015,-2.14084,0.0144799,1.63053,0.773641,-0.748622,0.226359,0.608417,-0.994098,0.298285,1.20528,-0.223814,-0.779968,0.22666,0.649447,-1.0618,0.317768,1.29556,-0.25238,-0.252064,1.08182,1.76886,9.41105,1.20333,0.812281,-0.18749,-0.222465,0.882725,0.465891,1.56882,0.809997,0.49103,0.108448
1144203,1,-1.6043,-0.511607,0.0271942,-2.1394,0.0128897,1.62784,0.774254,-1.60708,-0.510121,0.0293582,-2.14191,0.014801,1.63183,0.773386,-0.754572,0.22831,0.608396,-0.996834,0.305687,1.21501,-0.230076,-0.787633,0.226476,0.656647,-1.07429,0.321093,1.30832,-0.25493,-0.454395,0.931061,1.79663,9.41105,1.15846,0.941371,-0.0318506,-0.224017,0.893494,0.46878,1.55139,0.806994,0.486386,0.102618
1144204,1,-1.60508,-0.511374,0.027825,-2.14046,0.0132075,1.62911,0.77402,-1.60787,-0.509895,0.030022,-2.143,0.0151254,1.63316,0.773129,-0.76135,0.229483,0.617308,-1.01071,0.31086,1.22771,-0.232561,-0.795298,0.226291,0.663848,-1.08678,0.324419,1.32108,-0.25748,-0.529774,0.804108,1.76886,9.53403,1.12459,1.05673,-0.0382593,-0.225163,0.889241,0.472231,1.54061,0.804298,0.481642,0.0966552
1144205,1,-1.60588,-0.511154,0.0284586,-2.14151,0.0135363,1.6304,0.773773,-1.60867,-0.509669,0.0306931,-2.1441,0.0154532,1.63449,0.772869,-0.788484,0.227088,0.619746,-1.02598,0.311633,1.23299,-0.236083,-0.802963,0.226107,0.671048,-1.09927,0.327744,1.33384,-0.26003,-0.327442,0.831879,1.76886,9.58561,1.03395,1.35336,-0.0190333,-0.220007,0.879051,0.484756,1.53075,0.802018,0.476562,0.0907292
1144206,1,-1.6067,-0.510926,0.0291072,-2.14259,0.0138681,1.6317,0.773527,-1.60949,-0.509443,0.0313713,-2.14521,0.0157842,1.63584,0.772606,-0.794748,0.227745,0.625083,-1.03847,0.315391,1.25348,-0.236848,-0.810629,0.225923,0.678248,-1.11176,0.33107,1.34659,-0.26258,-0.101307,0.7565,1.82044,9.63321,0.989092,1.4559,-0.0648096,-0.200489,0.867965,0.516705,1.52096,0.800413,0.471593,0.0849835
1144207,1,-1.60752,-0.510702,0.0297423,-2.14369,0.0142032,1.63303,0.773282,-1.6103,-0.509217,0.0320568,-2.14634,0.0161186,1.6372,0.772341,-0.802022,0.226151,0.634723,-1.05609,0.323974,1.279,-0.236184,-0.818294,0.225739,0.685449,-1.12425,0.334395,1.35935,-0.26513,0.101024,0.653351,1.97119,9.78397,0.909441,1.51449,-0.128897,-0.168962,0.859392,0.56495,1.51017,0.799229,0.467066,0.0795041
1144208,1,-1.60833,-0.510478,0.0303987,-2.14479,0.0145514,1.6344,0.773015,-1.61113,-0.508992,0.0327494,-2.14747,0.0164563,1.63857,0.772073,-0.818481,0.225385,0.639111,-1.06887,0.330129,1.30119,-0.246831,-0.825959,0.225555,0.692649,-1.13674,0.337721,1.37211,-0.267679,0.148632,0.526398,1.99897,9.95853,0.825212,1.33413,-0.044668,-0.131445,0.855414,0.621039,1.49779,0.798028,0.463232,0.0742833
1144209,1,-1.60916,-0.510247,0.0310598,-2.1459,0.0148836,1.63576,0.772756,-1.61196,-0.508766,0.0334493,-2.14862,0.0167974,1.63995,0.771803,-0.817773,0.227086,0.641806,-1.07605,0.331859,1.32146,-0.248211,-0.833624,0.22537,0.699849,-1.14923,0.341046,1.38487,-0.270229,0.200207,0.300262,2.05054,10.0061,0.836199,1.20504,-0.00621587,-0.0886124,0.858213,0.684105,1.4812,0.796499,0.459906,0.0692592
1144210,1,-1.60998,-0.510028,0.0317224,-2.147,0.0152162,1.63713,0.772506,-1.6128,-0.508541,0.0341563,-2.14978,0.0171418,1.64135,0.77153,-0.836283,0.225398,0.64859,-1.08461,0.329595,1.32998,-0.248698,-0.841289,0.225186,0.70705,-1.16172,0.344372,1.39763,-0.272779,0.148632,0.197113,2.05054,9.93473,0.943315,1.28836,-0.103262,-0.0411006,0.87064,0.753818,1.45613,0.79432,0.456472,0.0644621
1144211,1,-1.61083,-0.509813,0.0324132,-2.14814,0.0155574,1.6385,0.77224,-1.61365,-0.508316,0.0348706,-2.15096,0.0174895,1.64276,0.771255,-0.839745,0.222233,0.654097,-1.0963,0.33754,1.37633,-0.253894,-0.848954,0.225002,0.71425,-1.17421,0.347697,1.41039,-0.275329,0.227978,0.149506,1.82044,9.98233,1.06233,1.31491,-0.0712183,0.0103385,0.897682,0.828901,1.41886,0.791376,0.452198,0.0599176
1144212,1,-1.61168,-0.509608,0.0330987,-2.14929,0.0159033,1.63989,0.77197,-1.61451,-0.508091,0.035592,-2.15214,0.0178405,1.64418,0.770977,-0.835895,0.220261,0.669289,-1.10374,0.335659,1.38027,-0.262162,-0.856619,0.224818,0.72145,-1.1867,0.351023,1.42315,-0.277879,0.124828,0.197113,1.69348,10.1093,1.14198,1.35977,-0.044668,0.0572164,0.944561,0.897803,1.36695,0.787527,0.446565,0.0556127
1144213,1,-1.6125,-0.509393,0.0338061,-2.15045,0.0162504,1.64132,0.771696,-1.61537,-0.507867,0.0363203,-2.15334,0.0181947,1.64562,0.770697,-0.84729,0.218345,0.680197,-1.12456,0.334063,1.3855,-0.262472,-0.863649,0.22396,0.728305,-1.19919,0.354199,1.43528,-0.280321,-0.176685,0.197113,1.56653,10.3077,1.20973,1.39822,-0.044668,0.087851,1.00882,0.944156,1.30506,0.782761,0.440314,0.051601
1144214,1,-1.61336,-0.509177,0.0345335,-2.15164,0.0166114,1.64274,0.77142,-1.61624,-0.507644,0.0370555,-2.15455,0.0185521,1.64707,0.770414,-0.85096,0.216828,0.692163,-1.1358,0.345174,1.39918,-0.269509,-0.870678,0.223103,0.73516,-1.21168,0.357376,1.44741,-0.282763,-0.355213,0.197113,1.28882,10.629,1.09621,1.37258,0.00660151,0.0999549,1.0816,0.963684,1.24291,0.777507,0.434852,0.0479289
1144215,1,-1.61422,-0.508957,0.0352661,-2.15285,0.0169773,1.64418,0.771164,-1.61712,-0.507422,0.0377975,-2.15578,0.0189126,1.64853,0.770129,-0.855535,0.218391,0.701156,-1.1808,0.351138,1.40524,-0.26215,-0.877708,0.222246,0.742014,-1.22417,0.360552,1.45955,-0.285205,-0.557545,0.0979309,0.98334,11.1011,1.03395,1.43667,-0.168264,0.0948711,1.14608,0.957944,1.19635,0.772318,0.431981,0.0446167
1144216,1,-1.61508,-0.508732,0.0360062,-2.15408,0.0173441,1.64564,0.77088,-1.61801,-0.507201,0.0385464,-2.15702,0.0192763,1.65,0.769841,-0.86444,0.219136,0.709399,-1.19596,0.352002,1.41247,-0.274312,-0.884737,0.221388,0.748869,-1.23666,0.363729,1.47168,-0.287647,-0.632923,-0.155975,0.70563,11.5732,0.937822,1.4559,-0.161856,0.0757128,1.18046,0.931292,1.18502,0.767718,0.433788,0.0416348
1144217,1,-1.61596,-0.508506,0.0367332,-2.15534,0.0176962,1.64707,0.770601,-1.6189,-0.50698,0.0393021,-2.15826,0.0196432,1.65148,0.769551,-0.865332,0.22674,0.718931,-1.20884,0.352288,1.4201,-0.272122,-0.891766,0.220531,0.755724,-1.24915,0.366905,1.48381,-0.290089,-0.680531,-0.48526,0.630252,12.0215,0.966203,1.54013,-0.174673,0.0464559,1.17723,0.889499,1.21132,0.763738,0.440306,0.0388311
1144218,1,-1.61682,-0.508277,0.0374768,-2.15661,0.0180696,1.64852,0.770322,-1.6198,-0.50676,0.0400647,-2.15953,0.0200133,1.65298,0.769258,-0.865931,0.228029,0.719508,-1.22852,0.358574,1.42084,-0.273924,-0.898796,0.219674,0.762579,-1.26164,0.370082,1.49594,-0.292531,-0.859058,-0.862152,0.658023,12.6166,0.943315,1.66189,-0.193899,0.00907895,1.13844,0.836541,1.26749,0.760016,0.450446,0.0360355
1144219,1,-1.6177,-0.508058,0.0382496,-2.15788,0.0184425,1.64999,0.770033,-1.6207,-0.506542,0.0408341,-2.1608,0.0203866,1.65449,0.768964,-0.864825,0.224943,0.729863,-1.23518,0.370609,1.43533,-0.27696,-0.905825,0.218817,0.769434,-1.27413,0.373258,1.50807,-0.294973,-0.986012,-1.08829,0.503299,12.8427,0.943315,1.50167,-0.0840357,-0.0357059,1.07542,0.775128,1.34392,0.756153,0.463179,0.0331169
1144220,1,-1.6186,-0.507845,0.0390017,-2.15916,0.0188205,1.65147,0.769736,-1.62162,-0.506324,0.0416104,-2.16209,0.020763,1.65601,0.768666,-0.868582,0.221243,0.732811,-1.2643,0.377355,1.45113,-0.28951,-0.912854,0.217959,0.776288,-1.28662,0.376434,1.5202,-0.297415,-0.910633,-1.24301,0.479495,12.815,0.932329,1.48153,0.038645,-0.0881629,1.00671,0.705924,1.42988,0.751851,0.477339,0.0300248
1144221,1,-1.6195,-0.507639,0.0397753,-2.16042,0.0192081,1.653,0.769433,-1.62254,-0.506107,0.0423936,-2.16339,0.0211426,1.65754,0.768366,-0.878299,0.217832,0.7414,-1.26444,0.376927,1.47059,-0.295461,-0.919884,0.217102,0.783143,-1.29911,0.379611,1.53234,-0.299857,-0.78368,-1.24301,0.42792,12.4421,0.932329,1.23068,0.103647,-0.144715,0.945676,0.633577,1.51784,0.747159,0.491835,0.026875
1144222,1,-1.62041,-0.507435,0.0405667,-2.1617,0.0195929,1.65452,0.769143,-1.62346,-0.50589,0.0431835,-2.1647,0.0215254,1.65908,0.768064,-0.886129,0.213511,0.750305,-1.2634,0.37829,1.49238,-0.290954,-0.926913,0.216245,0.789998,-1.3116,0.382787,1.54447,-0.302299,-0.632923,-1.13986,0.42792,12.0453,0.903948,1.01828,0.071604,-0.200485,0.910955,0.563693,1.59048,0.741985,0.504279,0.0238939
1144223,1,-1.62132,-0.507235,0.0413447,-2.16297,0.0199708,1.65602,0.768869,-1.6244,-0.505676,0.04398,-2.16602,0.0219112,1.66064,0.767759,-0.896931,0.207736,0.761905,-1.26784,0.375728,1.48684,-0.284306,-0.933266,0.214772,0.796447,-1.32409,0.385808,1.55597,-0.304618,-0.529774,-1.04068,0.630252,11.597,0.949724,1.19223,-0.161856,-0.253912,0.920681,0.497,1.63,0.736036,0.512328,0.0212861
1144224,1,-1.62224,-0.507023,0.0421336,-2.16428,0.0203511,1.65755,0.768569,-1.62534,-0.505462,0.0447829,-2.16736,0.0223001,1.66221,0.767452,-0.901912,0.207692,0.76639,-1.2741,0.378002,1.50496,-0.289129,-0.939619,0.213299,0.802895,-1.33658,0.388829,1.56748,-0.306938,-0.529774,-1.13986,0.832583,11.3272,1.03395,1.12173,-0.168264,-0.303915,0.976115,0.43398,1.63384,0.729305,0.515587,0.0190572
1144225,1,-1.62319,-0.506802,0.0429239,-2.1656,0.0207381,1.65912,0.768276,-1.62628,-0.50525,0.0455922,-2.16871,0.0226919,1.66379,0.767143,-0.915739,0.214991,0.778805,-1.27935,0.379148,1.51991,-0.294639,-0.945973,0.211827,0.809344,-1.34907,0.391849,1.57898,-0.309257,-0.379017,-1.39377,0.884158,11.1249,1.13558,0.86996,-0.246084,-0.348468,1.05996,0.376901,1.60986,0.722114,0.514735,0.016986
1144226,1,-1.62414,-0.506577,0.0437297,-2.16692,0.0211379,1.66072,0.767975,-1.62723,-0.50504,0.046408,-2.17007,0.0230868,1.66538,0.766832,-0.931287,0.21789,0.78539,-1.29286,0.384993,1.53932,-0.297466,-0.952326,0.210354,0.815793,-1.36156,0.39487,1.59049,-0.311576,-0.00212494,-1.69528,0.884158,11.0019,1.09072,0.625514,-0.258901,-0.383835,1.14663,0.329811,1.57077,0.715053,0.510791,0.0148026
1144227,1,-1.62509,-0.506352,0.0445394,-2.16826,0.0215366,1.66227,0.767691,-1.62819,-0.504831,0.0472303,-2.17144,0.0234847,1.66698,0.766518,-0.930327,0.220931,0.793395,-1.30499,0.390739,1.54702,-0.295497,-0.958679,0.208881,0.822242,-1.37405,0.397891,1.60199,-0.313895,0.0732535,-2.05234,0.884158,10.8274,1.01747,0.689601,-0.355947,-0.408635,1.21796,0.294138,1.52883,0.708608,0.504773,0.0122923
1144228,1,-1.62603,-0.506131,0.0453295,-2.1696,0.0219522,1.66384,0.76742,-1.62916,-0.504624,0.048059,-2.17283,0.0238856,1.66859,0.766201,-0.926035,0.223378,0.795605,-1.313,0.395486,1.53898,-0.291512,-0.965033,0.207408,0.828691,-1.38654,0.400911,1.6135,-0.316214,-0.101307,-2.42923,1.06269,10.6052,0.921343,0.973414,-0.588491,-0.428458,1.26733,0.263824,1.49087,0.702705,0.49744,0.00930679
1144229,1,-1.62699,-0.505923,0.0461481,-2.17094,0.0223671,1.66541,0.767125,-1.63013,-0.504418,0.0488941,-2.17423,0.0242895,1.67022,0.765883,-0.934712,0.218427,0.800932,-1.31772,0.403088,1.55027,-0.292636,-0.971386,0.205936,0.83514,-1.39903,0.403932,1.625,-0.318533,0.0732535,-2.55618,1.01111,10.2799,0.847185,1.16018,-0.666311,-0.447267,1.30164,0.235384,1.45401,0.696956,0.48897,0.00560989
1144230,1,-1.62797,-0.505718,0.0469499,-2.17231,0.0227723,1.66704,0.766821,-1.63111,-0.504213,0.0497357,-2.17564,0.0246965,1.67185,0.765562,-0.94714,0.216964,0.819626,-1.32709,0.406096,1.57184,-0.305658,-0.977739,0.204463,0.841588,-1.41152,0.406952,1.63651,-0.320853,0.32716,-2.65536,1.13806,10.0815,0.836199,1.12814,-0.5949,-0.46511,1.33603,0.208279,1.40952,0.691043,0.479046,0.000834492
1144231,1,-1.62896,-0.50552,0.0477619,-2.17367,0.0231927,1.66871,0.766516,-1.63209,-0.50401,0.0505837,-2.17706,0.0251064,1.6735,0.765239,-0.969077,0.210065,0.821449,-1.33258,0.406733,1.59062,-0.307398,-0.984092,0.20299,0.848037,-1.42401,0.409973,1.64801,-0.323172,0.402538,-2.57999,1.31262,9.85935,0.853594,0.914821,-0.523489,-0.478282,1.38236,0.185135,1.35059,0.684913,0.46742,-0.00528613
1144232,1,-1.62995,-0.505324,0.0485935,-2.17505,0.0236203,1.67034,0.7662,-1.63308,-0.503809,0.0514382,-2.1785,0.0255194,1.67516,0.764913,-0.973846,0.202781,0.825245,-1.3414,0.412756,1.60121,-0.31793,-0.990446,0.201518,0.854486,-1.4365,0.412994,1.65952,-0.325491,0.529491,-2.53238,1.39197,9.80777,0.745561,0.954188,-0.290945,-0.478223,1.451,0.176875,1.27206,0.678711,0.453908,-0.0127791
1144233,1,-1.63093,-0.505132,0.0494153,-2.17645,0.0240432,1.67199,0.765879,-1.63408,-0.503609,0.0522987,-2.17995,0.0259353,1.67683,0.764586,-0.971509,0.201537,0.830811,-1.38674,0.413926,1.61082,-0.321285,-0.996093,0.199529,0.860483,-1.44899,0.415853,1.67041,-0.327678,0.378734,-2.50461,1.49115,9.98233,0.71718,1.06954,-0.141714,-0.4654,1.53417,0.184221,1.18604,0.67262,0.440112,-0.0213179
1144234,1,-1.63192,-0.504926,0.0502383,-2.17787,0.024472,1.67367,0.765554,-1.63508,-0.503412,0.0531652,-2.18141,0.026354,1.67851,0.764256,-0.979419,0.201263,0.826993,-1.39697,0.41253,1.61812,-0.320662,-1.00174,0.197541,0.866481,-1.46148,0.418713,1.68131,-0.329864,0.32716,-2.65536,1.74506,10.2323,0.762956,1.10159,-0.00621587,-0.444397,1.60504,0.202417,1.11795,0.666915,0.428955,-0.0302901
1144235,1,-1.63298,-0.504725,0.0510959,-2.17933,0.0248822,1.67534,0.765238,-1.63609,-0.503216,0.0540377,-2.18289,0.0267756,1.6802,0.763924,-0.992549,0.206306,0.838784,-1.41154,0.410124,1.63293,-0.322897,-1.00739,0.195553,0.872478,-1.47397,0.421572,1.6922,-0.332051,0.831005,-2.81009,1.5943,10.6806,0.847185,1.14736,0.071604,-0.413176,1.64868,0.234786,1.07509,0.661699,0.421154,-0.0390554
1144236,1,-1.63398,-0.504517,0.0519347,-2.18079,0.0252939,1.67703,0.764921,-1.6371,-0.503023,0.0549161,-2.18437,0.0272,1.68191,0.76359,-0.999367,0.205124,0.838986,-1.42782,0.41015,1.64749,-0.322192,-1.01304,0.193565,0.878475,-1.48646,0.424432,1.70309,-0.334238,0.88258,-3.1116,1.61811,11.351,0.989092,1.26913,0.103647,-0.370641,1.66253,0.282235,1.05317,0.656936,0.416019,-0.0470586
1144237,1,-1.63497,-0.504304,0.0527927,-2.18229,0.025717,1.6787,0.764588,-1.63812,-0.502831,0.0558006,-2.18587,0.0276273,1.68362,0.763253,-0.983395,0.209019,0.840563,-1.44574,0.41919,1.66231,-0.330482,-1.01868,0.191577,0.884472,-1.49895,0.427292,1.71398,-0.336424,0.454113,-3.51627,1.64191,12.0215,1.05135,1.41104,0.175059,-0.322402,1.6465,0.337994,1.05109,0.652559,0.413341,-0.0538782
1144238,1,-1.63598,-0.504104,0.0536523,-2.18381,0.0261593,1.6804,0.764263,-1.63914,-0.502642,0.0566911,-2.18738,0.0280574,1.68535,0.762915,-0.985354,0.208404,0.848127,-1.46266,0.42737,1.66271,-0.327528,-1.02433,0.189589,0.89047,-1.51144,0.430151,1.72488,-0.338611,-0.0259286,-3.77017,1.49115,12.6166,0.949724,1.68203,0.110056,-0.279632,1.60207,0.388992,1.06919,0.648391,0.413333,-0.0592337
1144239,1,-1.63698,-0.503907,0.0545475,-2.1853,0.0266103,1.68212,0.763935,-1.64017,-0.502454,0.0575875,-2.18891,0.0284904,1.68708,0.762574,-0.990505,0.202696,0.858705,-1.46794,0.432298,1.6732,-0.320984,-1.02998,0.187601,0.896467,-1.52393,0.433011,1.73577,-0.340798,-0.327442,-3.94473,1.08649,12.7912,0.859087,1.82302,-0.00621587,-0.249656,1.54129,0.425716,1.10138,0.644225,0.415758,-0.0630307
1144240,1,-1.638,-0.503717,0.0554386,-2.1868,0.0270517,1.68382,0.763609,-1.64121,-0.502268,0.05849,-2.19044,0.0289263,1.68883,0.762231,-0.99574,0.196549,0.861676,-1.47197,0.431143,1.67902,-0.325081,-1.03563,0.185613,0.902464,-1.53642,0.43587,1.74666,-0.342984,-0.50597,-4.02011,0.884158,12.5928,0.76845,1.8688,-0.135305,-0.231995,1.48952,0.448659,1.13113,0.639783,0.419303,-0.0654386
1144241,1,-1.63903,-0.50355,0.0563415,-2.18831,0.0275078,1.68556,0.763279,-1.64225,-0.502085,0.0593985,-2.19199,0.029365,1.69059,0.761886,-1.02395,0.189404,0.87436,-1.48399,0.434978,1.68916,-0.322574,-1.04127,0.183625,0.908462,-1.54891,0.43873,1.75756,-0.345171,-0.430592,-3.84555,0.503299,12.5174,0.661333,1.79098,-0.31658,-0.218984,1.46604,0.467157,1.14572,0.634985,0.422949,-0.0668636
1144242,1,-1.64006,-0.503384,0.0572444,-2.18986,0.0279741,1.68728,0.762941,-1.6433,-0.501903,0.0603129,-2.19355,0.0298066,1.69235,0.761538,-1.01798,0.181025,0.876401,-1.49714,0.447455,1.70567,-0.323928,-1.04692,0.181636,0.914459,-1.5614,0.441589,1.76845,-0.347358,-0.529774,-3.66702,0.328738,12.5174,0.558794,1.72048,-0.420034,-0.203845,1.47717,0.488798,1.14291,0.629824,0.426602,-0.0678574
1144243,1,-1.64108,-0.503211,0.058125,-2.19142,0.0284147,1.68906,0.76262,-1.64435,-0.501724,0.0612329,-2.19513,0.0302509,1.69413,0.761189,-1.01377,0.179358,0.877004,-1.51306,0.444479,1.72417,-0.318745,-1.05184,0.179511,0.919978,-1.57389,0.444278,1.77853,-0.349405,-1.00982,-3.64322,0.451724,12.6444,0.661333,1.32772,-0.562856,-0.190008,1.51923,0.510178,1.12683,0.624011,0.430492,-0.0689785
1144244,1,-1.64212,-0.503025,0.0590355,-2.19299,0.0288684,1.69086,0.762265,-1.64541,-0.501546,0.0621584,-2.19671,0.0306979,1.69592,0.760837,-1.03114,0.182266,0.885579,-1.53482,0.444329,1.74137,-0.328083,-1.05677,0.177386,0.925497,-1.58638,0.446967,1.78861,-0.351452,-1.06139,-3.79398,0.352542,12.8904,0.695207,0.999049,-0.478628,-0.179496,1.57275,0.529436,1.10976,0.617587,0.435232,-0.0707127
1144245,1,-1.64317,-0.502822,0.0599661,-2.19459,0.0293216,1.69266,0.761908,-1.64647,-0.501371,0.0630894,-2.19831,0.0311475,1.69772,0.760484,-1.03403,0.189441,0.898308,-1.54716,0.447207,1.75803,-0.335754,-1.06169,0.175261,0.931016,-1.59887,0.449656,1.79869,-0.353499,-0.882862,-4.17484,0.249392,12.8427,0.807817,0.483607,-0.322988,-0.170827,1.60994,0.546786,1.10694,0.610971,0.44128,-0.0733788
1144246,1,-1.64424,-0.502628,0.0608897,-2.19616,0.0297755,1.69446,0.761555,-1.64753,-0.501198,0.0640259,-2.19992,0.0315999,1.69953,0.760128,-1.04059,0.193424,0.914593,-1.55444,0.446538,1.76664,-0.337867,-1.06661,0.173136,0.936534,-1.61136,0.452345,1.80877,-0.355546,-0.708302,-4.52792,0.126407,12.5452,0.881059,0.464381,-0.290945,-0.169713,1.61518,0.553062,1.12328,0.604238,0.447801,-0.0769563
1144247,1,-1.64527,-0.502433,0.0618245,-2.19773,0.0302407,1.69619,0.761197,-1.6486,-0.501027,0.064968,-2.20155,0.0320549,1.70135,0.759771,-1.04091,0.190764,0.917923,-1.55217,0.452853,1.79561,-0.340345,-1.07153,0.171011,0.942053,-1.62385,0.455034,1.81885,-0.357594,-0.831288,-4.80563,0.0470608,11.7994,0.898454,0.921229,-0.213125,-0.181797,1.59711,0.540758,1.14728,0.597197,0.452341,-0.0811941
1144248,1,-1.64631,-0.502254,0.062749,-2.19932,0.0307039,1.69798,0.760842,-1.64968,-0.500858,0.0659156,-2.20318,0.0325126,1.70318,0.759411,-1.02433,0.189648,0.938161,-1.55373,0.453524,1.79232,-0.339519,-1.07645,0.168886,0.947572,-1.63634,0.457723,1.82893,-0.359641,-1.06139,-4.88101,-0.000546589,11.1011,0.892961,1.12814,-0.225942,-0.214415,1.57892,0.501747,1.15983,0.589478,0.452512,-0.0857769
