shamilmamedov/beam_handling/data/param_estimation_ICRA/ocp_Z_25cm_0.50s_6.csv
duration, success rate, q[0], q[1], q[2], q[3], q[4], q[5], q[6],q_d[0], q_d[1], q_d[2], q_d[3], q_d[4], q_d[5], q_d[6],dq[0], dq[1], dq[2], dq[3], dq[4], dq[5], dq[6],dq_d[0], dq_d[1], dq_d[2], dq_d[3], dq_d[4], dq_d[5], dq_d[6],tau_J[0], tau_J[1], tau_J[2], tau_J[3], tau_J[4], tau_J[5], tau_J[6],tau_ext_hat_filtered[0], tau_ext_hat_filtered[1], tau_ext_hat_filtered[2], tau_ext_hat_filtered[3], tau_ext_hat_filtered[4], tau_ext_hat_filtered[5], tau_ext_hat_filtered[6]
1266508,0,-1.57101,-0.522793,0.000479243,-2.09699,-0.000462036,1.57127,0.784996,-1.5708,-0.523599,4.26582e-08,-2.0944,8.27649e-08,1.5708,0.785398,-0.000847939,0.0002123,0.000431471,0.000279738,-4.92891e-05,-0.000160267,0.000752469,0,0,0,0,0,0,0,0.275585,-10.213,-0.988401,22.1143,1.27199,1.34054,0.213511,0.242823,-1.06292,-0.493053,3.58845,0.556519,-0.333688,0.224129
1266509,1,-1.57101,-0.522793,0.000482316,-2.09699,-0.000462962,1.57127,0.784997,-1.5708,-0.523599,4.26582e-08,-2.0944,8.27649e-08,1.5708,0.785398,-0.000565292,0.000141533,0.00149407,0.000186492,-0.00023631,-0.000106845,0.000976364,0,0,0,0,0,0,0,0.275585,-10.213,-1.03998,22.1143,1.27748,1.34054,0.200693,0.242623,-1.0648,-0.493633,3.58932,0.556524,-0.333584,0.224154
1266510,1,-1.571,-0.522793,0.000476844,-2.09699,-0.000463067,1.57127,0.784996,-1.5708,-0.523599,4.26582e-08,-2.0944,8.27649e-08,1.5708,0.785398,0.000736762,9.43555e-05,-0.000767189,-0.000432484,-0.00015754,-7.12297e-05,0.000176192,0,0,0,0,0,0,0,0.227978,-10.213,-0.964597,22.1381,1.27748,1.34054,0.213511,0.242076,-1.06635,-0.494904,3.59005,0.556508,-0.333486,0.22419
1266511,1,-1.57101,-0.522793,0.000478913,-2.09699,-0.000463102,1.57127,0.78499,-1.5708,-0.523599,4.26582e-08,-2.0944,8.27649e-08,1.5708,0.785398,-0.000622449,6.29037e-05,-0.000511459,0.000268489,-0.000105027,0.000189872,-0.00181532,0,0,0,0,0,0,0,0.275585,-10.213,-0.964597,22.1143,1.27748,1.33413,0.265696,0.241947,-1.06769,-0.495513,3.59076,0.556519,-0.333376,0.224198
1266512,1,-1.571,-0.522794,0.000477933,-2.09699,-0.000463114,1.57128,0.784991,-1.5708,-0.523599,4.26582e-08,-2.0944,8.27649e-08,1.5708,0.785398,0.000698658,-0.000514876,-0.000897785,0.000735805,-7.00178e-05,0.000363941,-0.000972854,0,0,0,0,0,0,0,0.227978,-10.1892,-0.940793,22.0905,1.27748,1.32772,0.259287,0.242678,-1.06794,-0.494754,3.59073,0.556571,-0.333328,0.224184
1266513,1,-1.571,-0.522793,0.000479833,-2.097,-0.000462507,1.57127,0.784992,-1.5708,-0.523599,4.26582e-08,-2.0944,8.27649e-08,1.5708,0.785398,0.000465772,0.000213561,-4.17112e-05,-0.000623087,0.000156772,-0.00046945,-0.000173851,0,0,0,0,0,0,0,0.227978,-10.213,-0.964597,22.1381,1.27199,1.34695,0.24647,0.243501,-1.06713,-0.493725,3.59004,0.556628,-0.333338,0.224205
1266514,1,-1.57101,-0.522793,0.000481399,-2.097,-0.000461797,1.57128,0.784998,-1.5708,-0.523599,4.26582e-08,-2.0944,8.27649e-08,1.5708,0.785398,-0.000246297,0.000142374,0.00117862,-0.000415392,0.000341874,-7.56076e-05,0.00181688,0,0,0,0,0,0,0,0.251781,-10.213,-1.01617,22.1381,1.26558,1.34054,0.194285,0.243569,-1.06705,-0.493772,3.58999,0.556671,-0.333282,0.224305
1266515,1,-1.571,-0.522793,0.000482845,-2.09699,-0.000459313,1.57127,0.784997,-1.5708,-0.523599,4.26582e-08,-2.0944,8.27649e-08,1.5708,0.785398,0.000392614,9.49161e-05,0.000785746,0.000279884,-9.4432e-06,-5.0405e-05,0.000973894,0,0,0,0,0,0,0,0.227978,-10.213,-1.01617,22.1143,1.27199,1.34054,0.200693,0.242634,-1.06783,-0.49542,3.59056,0.556679,-0.333166,0.224465
1266516,1,-1.57101,-0.522793,0.000483327,-2.097,-0.000460732,1.57128,0.784999,-1.5708,-0.523599,4.26582e-08,-2.0944,8.27649e-08,1.5708,0.785398,-0.000295069,6.32774e-05,0.00052383,-0.000370222,0.000231063,0.000203756,0.00112398,0,0,0,0,0,0,0,0.251781,-10.213,-1.01617,22.1381,1.26558,1.33413,0.187876,0.241196,-1.06858,-0.497913,3.59103,0.556654,-0.333065,0.224619
1266517,1,-1.57101,-0.522793,0.000481539,-2.097,-0.000460179,1.57127,0.784995,-1.5708,-0.523599,4.26582e-08,-2.0944,8.27649e-08,1.5708,0.785398,-0.000196713,4.21849e-05,-0.000300394,-0.000246815,-0.000490218,-0.000338881,-0.000437474,0,0,0,0,0,0,0,0.251781,-10.213,-0.988401,22.1381,1.28298,1.34695,0.219919,0.240217,-1.06936,-0.499795,3.59152,0.556643,-0.332958,0.224706
1266518,1,-1.57101,-0.522793,0.000478251,-2.097,-0.000460614,1.57127,0.784993,-1.5708,-0.523599,4.26582e-08,-2.0944,8.27649e-08,1.5708,0.785398,-0.000131142,2.81233e-05,-0.00131389,-0.000721355,0.000317448,1.14384e-05,-0.00103763,0,0,0,0,0,0,0,0.251781,-10.213,-0.940793,22.1619,1.26558,1.34054,0.240061,0.24048,-1.07037,-0.499828,3.59227,0.556693,-0.332814,0.224704
1266519,1,-1.57101,-0.522794,0.000478269,-2.097,-0.000462115,1.57127,0.784993,-1.5708,-0.523599,4.26582e-08,-2.0944,8.27649e-08,1.5708,0.785398,-0.00064424,-0.000538063,-0.000875924,-0.00113052,-2.57268e-05,7.62559e-06,-0.000691757,0,0,0,0,0,0,0,0.275585,-10.1892,-0.940793,22.1897,1.27199,1.34054,0.240061,0.242148,-1.0714,-0.49771,3.59333,0.556817,-0.332619,0.224634
1266520,1,-1.571,-0.522793,0.000483565,-2.09699,-0.000459182,1.57127,0.784991,-1.5708,-0.523599,4.26582e-08,-2.0944,8.27649e-08,1.5708,0.785398,0.000684131,0.000198103,0.00117929,0.00100956,-1.71512e-05,-0.000232275,-0.000935889,0,0,0,0,0,0,0,0.227978,-10.213,-1.01617,22.1143,1.27199,1.34695,0.252878,0.243871,-1.07177,-0.495491,3.59412,0.556934,-0.332443,0.224554
1266521,1,-1.571,-0.522798,0.000479947,-2.09699,-0.0004614,1.57127,0.784996,-1.5708,-0.523599,4.26582e-08,-2.0944,8.27649e-08,1.5708,0.785398,0.0011057,-0.00163117,-0.000420234,0.00067304,-1.14341e-05,-0.00015485,0.000834136,0,0,0,0,0,0,0,0.200207,-10.1377,-0.964597,22.1143,1.27199,1.34695,0.213511,0.244113,-1.06987,-0.495378,3.59333,0.556935,-0.332427,0.224511
1266522,1,-1.57101,-0.522793,0.000478278,-2.09699,-0.00046275,1.57127,0.784999,-1.5708,-0.523599,4.26582e-08,-2.0944,8.27649e-08,1.5708,0.785398,-0.000469292,0.000675792,-0.000836968,-0.000108119,-0.000211073,0.000608843,0.00150553,0,0,0,0,0,0,0,0.251781,-10.213,-0.940793,22.1381,1.27748,1.32772,0.187876,0.243807,-1.06614,-0.495903,3.59126,0.556874,-0.332533,0.224512
1266523,1,-1.571,-0.522794,0.000479948,-2.097,-0.000461674,1.57127,0.784997,-1.5708,-0.523599,4.26582e-08,-2.0944,8.27649e-08,1.5708,0.785398,0.000893565,-0.000106284,-1.16653e-06,-7.20792e-05,0.000300094,-0.000306181,0.000291608,0,0,0,0,0,0,0,0.200207,-10.1892,-0.964597,22.1381,1.26558,1.34695,0.207102,0.243953,-1.06374,-0.495619,3.58986,0.556846,-0.332586,0.224521
1266524,1,-1.57101,-0.522794,0.000481619,-2.097,-0.000463689,1.57127,0.784996,-1.5708,-0.523599,4.26582e-08,-2.0944,8.27649e-08,1.5708,0.785398,-5.39042e-05,-7.0856e-05,0.000556034,0.000508759,-0.000444197,0.000270597,-4.29539e-05,0,0,0,0,0,0,0,0.227978,-10.1892,-0.988401,22.1143,1.28298,1.33413,0.213511,0.243757,-1.06285,-0.495743,3.58925,0.556821,-0.33258,0.224495
1266525,1,-1.571,-0.522791,0.000478278,-2.09699,-0.000463716,1.57128,0.784992,-1.5708,-0.523599,4.26582e-08,-2.0944,8.27649e-08,1.5708,0.785398,-3.59361e-05,0.00115919,-0.000742934,0.000895985,-0.000296132,0.000180398,-0.00124934,0,0,0,0,0,0,0,0.227978,-10.2408,-0.940793,22.0905,1.28298,1.33413,0.24647,0.243294,-1.06272,-0.496197,3.58877,0.556794,-0.332586,0.22442
1266526,1,-1.571,-0.522794,0.000485238,-2.09699,-0.000462505,1.57127,0.784992,-1.5708,-0.523599,4.26582e-08,-2.0944,8.27649e-08,1.5708,0.785398,-2.39574e-05,-0.000433634,0.00182476,4.05112e-05,0.00020948,-0.000354453,-0.000832893,0,0,0,0,0,0,0,0.227978,-10.1892,-1.03998,22.1143,1.27199,1.34695,0.24647,0.242744,-1.06354,-0.496771,3.58852,0.556784,-0.332595,0.224317
1266527,1,-1.57101,-0.522793,0.000477818,-2.09699,-0.000463118,1.57127,0.784996,-1.5708,-0.523599,4.26582e-08,-2.0944,8.27649e-08,1.5708,0.785398,-0.000572784,0.000267723,-0.000546731,-0.000529804,-6.37972e-05,0.000238416,0.000665441,0,0,0,0,0,0,0,0.251781,-10.213,-0.964597,22.1381,1.27748,1.33413,0.213511,0.241853,-1.06452,-0.497921,3.5886,0.55679,-0.332555,0.224231
1266528,1,-1.57101,-0.522794,0.000477568,-2.097,-0.00046373,1.57127,0.784996,-1.5708,-0.523599,4.26582e-08,-2.0944,8.27649e-08,1.5708,0.785398,-0.000381856,-0.00037833,-0.000921299,-0.000910015,-0.000245982,-7.84148e-05,0.000443628,0,0,0,0,0,0,0,0.251781,-10.1892,-0.940793,22.1619,1.28298,1.34054,0.213511,0.241741,-1.06569,-0.49795,3.58935,0.556867,-0.332421,0.224176
1266529,1,-1.57101,-0.522793,0.000479252,-2.09699,-0.000461797,1.57127,0.785,-1.5708,-0.523599,4.26582e-08,-2.0944,8.27649e-08,1.5708,0.785398,-0.000811382,0.000304592,0.000499424,-4.98647e-05,0.000480272,0.000185082,0.00077047,0,0,0,0,0,0,0,0.275585,-10.213,-0.988401,22.1381,1.26558,1.33413,0.200693,0.242683,-1.0671,-0.496431,3.5906,0.557019,-0.332225,0.224133
1266530,1,-1.57101,-0.522793,0.000479159,-2.09699,-0.000462509,1.57127,0.784992,-1.5708,-0.523599,4.26582e-08,-2.0944,8.27649e-08,1.5708,0.785398,-0.000540922,0.000203061,-0.000223862,0.00108038,8.28224e-05,0.000123388,-0.00141913,0,0,0,0,0,0,0,0.275585,-10.213,-0.964597,22.0905,1.27199,1.33413,0.252878,0.243762,-1.06819,-0.494813,3.59144,0.557172,-0.332087,0.224079
1266531,1,-1.57101,-0.522794,0.000479225,-2.097,-0.000461797,1.57127,0.784995,-1.5708,-0.523599,4.26582e-08,-2.0944,8.27649e-08,1.5708,0.785398,0.000196198,-0.000421438,0.00040757,-0.00039337,0.000292574,-0.0001551,0.000274614,0,0,0,0,0,0,0,0.251781,-10.1892,-0.988401,22.1381,1.26558,1.34054,0.219919,0.244513,-1.0684,-0.49376,3.59141,0.557283,-0.332055,0.224012
1266532,1,-1.57101,-0.522791,0.00047748,-2.09699,-0.00046312,1.57127,0.784994,-1.5708,-0.523599,4.26582e-08,-2.0944,8.27649e-08,1.5708,0.785398,0.000130798,0.000925467,-0.00084191,-0.000262247,-0.00024576,-0.0001034,-0.00032555,0,0,0,0,0,0,0,0.251781,-10.2408,-0.940793,22.1381,1.27748,1.34054,0.233652,0.244888,-1.06865,-0.493247,3.59147,0.557362,-0.332019,0.223958
1266533,1,-1.57101,-0.522791,0.000481353,-2.097,-0.000459314,1.57127,0.784991,-1.5708,-0.523599,4.26582e-08,-2.0944,8.27649e-08,1.5708,0.785398,8.71989e-05,0.000616978,0.00055235,-0.000174831,3.96104e-05,-6.89334e-05,-0.00092911,0,0,0,0,0,0,0,0.251781,-10.2408,-0.988401,22.1381,1.27199,1.34054,0.252878,0.245069,-1.07061,-0.492984,3.59252,0.557433,-0.331901,0.22393
1266534,1,-1.57101,-0.522789,0.00047986,-2.09699,-0.000460122,1.57127,0.784999,-1.5708,-0.523599,4.26582e-08,-2.0944,8.27649e-08,1.5708,0.785398,5.81326e-05,0.000968131,-0.000188578,-0.000116554,0.000467216,0.000191403,0.000838655,0,0,0,0,0,0,0,0.251781,-10.2646,-0.964597,22.1381,1.26009,1.33413,0.213511,0.244962,-1.07408,-0.493167,3.59425,0.557489,-0.331737,0.22394
1266535,1,-1.57101,-0.522793,0.000481589,-2.097,-0.000459569,1.57127,0.785,-1.5708,-0.523599,4.26582e-08,-2.0944,8.27649e-08,1.5708,0.785398,3.87551e-05,-0.000561005,0.000431093,-7.77027e-05,-0.000332782,0.000364961,0.00150854,0,0,0,0,0,0,0,0.251781,-10.213,-0.988401,22.1381,1.27748,1.32772,0.187876,0.244592,-1.07724,-0.493791,3.59578,0.557512,-0.331599,0.22399
1266536,1,-1.57101,-0.522794,0.000483558,-2.09699,-0.000461936,1.57127,0.784996,-1.5708,-0.523599,4.26582e-08,-2.0944,8.27649e-08,1.5708,0.785398,2.58367e-05,-0.000930816,0.000937009,-5.18018e-05,-0.000221855,5.94851e-06,5.6257e-05,0,0,0,0,0,0,0,0.251781,-10.1892,-1.01617,22.1381,1.27748,1.33413,0.213511,0.243851,-1.07767,-0.495065,3.59605,0.557479,-0.331568,0.224044
1266537,1,-1.57101,-0.522793,0.000479945,-2.09699,-0.000462725,1.57127,0.784997,-1.5708,-0.523599,4.26582e-08,-2.0944,8.27649e-08,1.5708,0.785398,1.72245e-05,-6.37317e-05,-0.000581753,-3.45345e-05,-0.000147903,-0.000470752,0.000512223,0,0,0,0,0,0,0,0.251781,-10.213,-0.964597,22.1381,1.27748,1.34695,0.200693,0.24295,-1.07552,-0.496675,3.59518,0.557412,-0.331631,0.224058
1266538,1,-1.57101,-0.522791,0.000479947,-2.09699,-0.000462378,1.57127,0.784992,-1.5708,-0.523599,4.26582e-08,-2.0944,8.27649e-08,1.5708,0.785398,1.1483e-05,0.000607126,-0.000387835,0.000533789,0.000104848,-7.64759e-05,-0.00135394,0,0,0,0,0,0,0,0.251781,-10.2408,-0.964597,22.1143,1.27199,1.34054,0.24647,0.242702,-1.07346,-0.497311,3.59421,0.557375,-0.331714,0.224012
1266539,1,-1.571,-0.522794,0.000481618,-2.09699,-0.000461754,1.57127,0.784996,-1.5708,-0.523599,4.26582e-08,-2.0944,8.27649e-08,1.5708,0.785398,0.000564467,-0.000801675,0.000298255,0.000355859,0.000307258,0.000186375,0.000318077,0,0,0,0,0,0,0,0.227978,-10.1892,-0.988401,22.1143,1.26558,1.33413,0.213511,0.242843,-1.07189,-0.497317,3.59317,0.557357,-0.331817,0.223923
1266540,1,-1.571,-0.522791,0.000479948,-2.09699,-0.000463105,1.57127,0.784991,-1.5708,-0.523599,4.26582e-08,-2.0944,8.27649e-08,1.5708,0.785398,0.00102593,0.000671976,-0.000357975,0.00023724,-0.000235971,-0.000113109,-0.00124601,0,0,0,0,0,0,0,0.200207,-10.2408,-0.964597,22.1143,1.27748,1.34054,0.252878,0.242571,-1.07015,-0.497819,3.59188,0.557315,-0.331945,0.223823
1266541,1,-1.571,-0.522794,0.000479948,-2.097,-0.000463115,1.57127,0.784999,-1.5708,-0.523599,4.26582e-08,-2.0944,8.27649e-08,1.5708,0.785398,3.43364e-05,-0.000758442,-0.00023865,-0.000398652,-0.000157314,-7.54059e-05,0.00157682,0,0,0,0,0,0,0,0.227978,-10.1892,-0.964597,22.1381,1.27748,1.34054,0.187876,0.242105,-1.06889,-0.498452,3.59092,0.557272,-0.332035,0.223737
1266542,1,-1.57101,-0.522796,0.000479948,-2.097,-0.000459312,1.57127,0.784996,-1.5708,-0.523599,4.26582e-08,-2.0944,8.27649e-08,1.5708,0.785398,-0.000533921,-0.00106244,-0.0001591,0.000291044,9.85746e-05,-0.00028763,0.00010178,0,0,0,0,0,0,0,0.251781,-10.1654,-0.964597,22.1143,1.27199,1.34695,0.213511,0.242091,-1.06698,-0.49838,3.58989,0.557257,-0.3321,0.223665
1266543,1,-1.571,-0.522794,0.000481619,-2.097,-0.000458248,1.57127,0.784991,-1.5708,-0.523599,4.26582e-08,-2.0944,8.27649e-08,1.5708,0.785398,0.000200865,-0.000151481,0.000450745,0.000194029,6.57164e-05,4.56059e-05,-0.00139021,0,0,0,0,0,0,0,0.227978,-10.1892,-0.988401,22.1143,1.27199,1.34054,0.252878,0.24236,-1.06377,-0.497935,3.58833,0.557258,-0.332187,0.223582
1266544,1,-1.571,-0.522794,0.000477818,-2.097,-0.00046231,1.57128,0.784992,-1.5708,-0.523599,4.26582e-08,-2.0944,8.27649e-08,1.5708,0.785398,0.00013391,-0.000100988,-0.000256315,0.000129353,-0.00036309,0.000267763,-0.000689447,0,0,0,0,0,0,0,0.227978,-10.1892,-0.964597,22.1143,1.28298,1.33413,0.24647,0.242411,-1.06107,-0.497791,3.58692,0.55726,-0.332256,0.223492
1266545,1,-1.571,-0.522789,0.000479238,-2.097,-0.000462036,1.57127,0.784993,-1.5708,-0.523599,4.26582e-08,-2.0944,8.27649e-08,1.5708,0.785398,8.92732e-05,0.00169591,-0.000170877,-0.000470577,0.000164841,-0.000296209,-0.000222272,0,0,0,0,0,0,0,0.227978,-10.2646,-0.964597,22.1381,1.27199,1.34695,0.240061,0.242416,-1.0612,-0.49762,3.58685,0.557292,-0.332219,0.223439
1266546,0.99,-1.57101,-0.522794,0.000479712,-2.09699,-0.000462352,1.57127,0.784994,-1.5708,-0.523599,4.26582e-08,-2.0944,8.27649e-08,1.5708,0.785398,-0.000497297,-0.000632629,-0.000113918,0.000799906,0.000109894,0.000277245,0.000360445,0,0,0,0,0,0,0,0.251781,-10.1892,-0.964597,22.0905,1.27199,1.33413,0.226328,0.242682,-1.0639,-0.497001,3.58793,0.557365,-0.332092,0.223446
1266547,0.99,-1.57101,-0.522794,0.00048154,-2.09699,-0.000462457,1.57128,0.784997,-1.5708,-0.523599,4.26582e-08,-2.0944,8.27649e-08,1.5708,0.785398,-0.000331531,-0.000421753,0.000480867,-2.35412e-05,7.32626e-05,0.000659548,0.00118973,0,0,0,0,0,0,0,0.251781,-10.1892,-0.988401,22.1143,1.27199,1.32131,0.200693,0.243062,-1.06546,-0.496251,3.5883,0.557434,-0.332028,0.223506
1266550,0.96,-1.571,-0.522794,0.000482855,-2.097,-0.000459922,1.57127,0.784994,-1.5708,-0.523599,4.26582e-08,-2.0944,8.27649e-08,1.5708,0.785398,0.000149241,-0.000124964,0.00110143,-0.000192579,-0.000181743,3.71823e-05,-0.000815443,0,0,0,0,0,0,0,0.227978,-10.1892,-1.01617,22.1381,1.27748,1.33413,0.233652,0.242699,-1.06509,-0.496116,3.58825,0.557543,-0.331905,0.223645
1266551,0.96,-1.57101,-0.522793,0.00048333,-2.097,-0.000457536,1.57127,0.784991,-1.5708,-0.523599,4.26582e-08,-2.0944,8.27649e-08,1.5708,0.785398,-0.000457318,0.000473503,0.000734289,0.000428426,0.000319647,2.47882e-05,-0.00125571,0,0,0,0,0,0,0,0.251781,-10.213,-1.01617,22.1143,1.26558,1.33413,0.252878,0.241585,-1.06596,-0.497577,3.58911,0.557547,-0.331806,0.223599
1266552,0.96,-1.571,-0.522794,0.000483488,-2.09699,-0.000461089,1.57128,0.78499,-1.5708,-0.523599,4.26582e-08,-2.0944,8.27649e-08,1.5708,0.785398,0.000251933,-0.000241143,0.000489526,-0.000271195,-2.42607e-05,0.000253884,-0.00131186,0,0,0,0,0,0,0,0.227978,-10.1892,-1.01617,22.1381,1.27199,1.32772,0.265696,0.240242,-1.06696,-0.49951,3.58973,0.55753,-0.331768,0.223547
1266553,0.96,-1.57101,-0.522791,0.000479922,-2.09699,-0.000462646,1.57127,0.784993,-1.5708,-0.523599,4.26582e-08,-2.0944,8.27649e-08,1.5708,0.785398,-0.000945668,0.00104566,-0.000880075,0.000376015,-0.000219624,-0.000542821,7.48657e-05,0,0,0,0,0,0,0,0.275585,-10.2408,-0.964597,22.1143,1.27748,1.34695,0.240061,0.239586,-1.06838,-0.500505,3.59036,0.557535,-0.331757,0.223538
1266554,0.96,-1.571,-0.5228,0.000478269,-2.097,-0.000462352,1.57127,0.784999,-1.5708,-0.523599,4.26582e-08,-2.0944,8.27649e-08,1.5708,0.785398,0.000483178,-0.00227255,-0.00114353,-0.000306135,5.70343e-05,0.000112838,0.00198269,0,0,0,0,0,0,0,0.227978,-10.1139,-0.940793,22.1381,1.27199,1.33413,0.187876,0.240329,-1.06891,-0.499421,3.59052,0.557586,-0.331787,0.223599
1266555,0.96,-1.57101,-0.522798,0.000479945,-2.097,-0.000463067,1.57127,0.785,-1.5708,-0.523599,4.26582e-08,-2.0944,8.27649e-08,1.5708,0.785398,-0.000234693,-0.000958225,-0.000205541,-0.000760902,-0.000165428,-0.000162134,0.000609717,0,0,0,0,0,0,0,0.251781,-10.1377,-0.964597,22.1619,1.27748,1.34054,0.207102,0.241833,-1.06624,-0.497135,3.58949,0.557648,-0.331883,0.223704
1266556,0.96,-1.57101,-0.522793,0.000479487,-2.097,-0.000459296,1.57128,0.784996,-1.5708,-0.523599,4.26582e-08,-2.0944,8.27649e-08,1.5708,0.785398,-0.000713274,0.00112442,0.000419785,-0.000507268,9.31654e-05,-0.000108089,-6.824e-05,0,0,0,0,0,0,0,0.275585,-10.213,-0.988401,22.1619,1.27199,1.34054,0.219919,0.243147,-1.06337,-0.495181,3.5888,0.55771,-0.331929,0.223801
1266557,0.96,-1.571,-0.522789,0.000477107,-2.09699,-0.000458243,1.57128,0.784991,-1.5708,-0.523599,4.26582e-08,-2.0944,8.27649e-08,1.5708,0.785398,0.000638108,0.00195604,-0.000276955,0.000218633,6.21103e-05,-7.20595e-05,-0.00150356,0,0,0,0,0,0,0,0.227978,-10.2646,-0.964597,22.1381,1.27199,1.34054,0.259287,0.243967,-1.065,-0.494055,3.59018,0.557786,-0.331835,0.223865
1266558,0.96,-1.571,-0.522793,0.000479001,-2.097,-0.000460375,1.57127,0.784992,-1.5708,-0.523599,4.26582e-08,-2.0944,8.27649e-08,1.5708,0.785398,0.000425405,9.76009e-05,-0.000184637,-0.000411056,0.000278766,-4.80397e-05,-0.000765011,0,0,0,0,0,0,0,0.227978,-10.213,-0.964597,22.1619,1.26558,1.34054,0.252878,0.244208,-1.07007,-0.49371,3.59287,0.557851,-0.331665,0.223916
1266559,0.96,-1.57101,-0.522794,0.000479633,-2.09699,-0.000462035,1.57127,0.784995,-1.5708,-0.523599,4.26582e-08,-2.0944,8.27649e-08,1.5708,0.785398,-0.000273208,-0.000491745,-0.000123091,0.000282774,-5.15151e-05,-3.20265e-05,0.000710696,0,0,0,0,0,0,0,0.251781,-10.1892,-0.964597,22.1381,1.27199,1.34054,0.219919,0.244158,-1.07404,-0.493709,3.59495,0.557883,-0.331542,0.223991
1266560,0.96,-1.571,-0.522793,0.000479383,-2.097,-0.000459766,1.57127,0.784997,-1.5708,-0.523599,4.26582e-08,-2.0944,8.27649e-08,1.5708,0.785398,0.000374673,0.000228982,0.000474751,-0.000368296,-0.000237794,0.000216008,0.00118587,0,0,0,0,0,0,0,0.227978,-10.213,-0.988401,22.1619,1.27748,1.33413,0.200693,0.243931,-1.07536,-0.493989,3.59579,0.557874,-0.331508,0.224107
1266561,0.96,-1.571,-0.522794,0.000479203,-2.09699,-0.000460679,1.57127,0.784999,-1.5708,-0.523599,4.26582e-08,-2.0944,8.27649e-08,1.5708,0.785398,0.000249782,-0.000404157,-0.000240311,0.000311281,0.00028228,-9.33536e-05,0.0012653,0,0,0,0,0,0,0,0.227978,-10.1892,-0.964597,22.1381,1.26558,1.34054,0.187876,0.243362,-1.07523,-0.494765,3.59596,0.557828,-0.331525,0.224237
1266562,0.96,-1.57101,-0.522793,0.000477569,-2.097,-0.000458941,1.57127,0.784992,-1.5708,-0.523599,4.26582e-08,-2.0944,8.27649e-08,1.5708,0.785398,-0.000390291,0.000287374,-0.000160207,-0.000349291,-4.91721e-05,-6.22358e-05,-0.00132661,0,0,0,0,0,0,0,0.251781,-10.213,-0.964597,22.1619,1.27199,1.34054,0.24647,0.242888,-1.07442,-0.495363,3.59581,0.557778,-0.331565,0.224326
1266563,0.96,-1.57101,-0.522793,0.000480826,-2.09699,-0.00046193,1.57127,0.78499,-1.5708,-0.523599,4.26582e-08,-2.0944,8.27649e-08,1.5708,0.785398,-0.000260194,0.000191583,0.000450007,0.000880763,-0.000236232,0.000195868,-0.00159648,0,0,0,0,0,0,0,0.251781,-10.213,-0.988401,22.1143,1.27748,1.33413,0.265696,0.242766,-1.07358,-0.495479,3.59555,0.557741,-0.331617,0.224356
1266564,0.96,-1.571,-0.522793,0.000479684,-2.09699,-0.000458205,1.57127,0.784992,-1.5708,-0.523599,4.26582e-08,-2.0944,8.27649e-08,1.5708,0.785398,0.00103296,0.000127722,-0.000256807,0.000587176,0.000283321,0.000130579,-0.000352243,0,0,0,0,0,0,0,0.200207,-10.213,-0.964597,22.1143,1.26558,1.33413,0.24647,0.242479,-1.07262,-0.495827,3.59488,0.557687,-0.331723,0.224376
1266565,0.96,-1.57101,-0.522796,0.00047986,-2.097,-0.0004606,1.57128,0.784993,-1.5708,-0.523599,4.26582e-08,-2.0944,8.27649e-08,1.5708,0.785398,-0.0010746,-0.00102848,-0.000171205,-0.000722174,0.000188881,8.70526e-05,2.53001e-06,0,0,0,0,0,0,0,0.275585,-10.1654,-0.964597,22.1619,1.26558,1.33413,0.240061,0.24216,-1.07084,-0.496148,3.5938,0.557623,-0.33186,0.224439
1266566,0.96,-1.57101,-0.522794,0.000485209,-2.097,-0.00046211,1.57128,0.784996,-1.5708,-0.523599,4.26582e-08,-2.0944,8.27649e-08,1.5708,0.785398,-0.000159585,-0.000128839,0.0016491,7.53629e-05,-0.000111438,5.80351e-05,0.000985031,0,0,0,0,0,0,0,0.251781,-10.1892,-1.03998,22.1381,1.27199,1.33413,0.213511,0.241928,-1.06829,-0.496462,3.5928,0.557565,-0.331963,0.224561
1266567,0.96,-1.571,-0.522793,0.000479939,-2.097,-0.000459791,1.57128,0.784999,-1.5708,-0.523599,4.26582e-08,-2.0944,8.27649e-08,1.5708,0.785398,0.000450422,0.000470919,-0.000663837,5.02419e-05,-0.000277743,-0.000198669,0.00160612,0,0,0,0,0,0,0,0.227978,-10.213,-0.964597,22.1381,1.27748,1.34054,0.187876,0.241328,-1.06631,-0.49746,3.59228,0.557487,-0.332028,0.224727
1266568,0.96,-1.57101,-0.522791,0.000476144,-2.097,-0.00046201,1.57127,0.784996,-1.5708,-0.523599,4.26582e-08,-2.0944,8.27649e-08,1.5708,0.785398,-0.000813343,0.00096356,-0.00099937,3.34946e-05,-0.000185162,0.000342272,0.000121313,0,0,0,0,0,0,0,0.275585,-10.2408,-0.940793,22.1381,1.27748,1.32772,0.213511,0.241283,-1.06651,-0.497594,3.59266,0.557444,-0.332041,0.224885
1266569,0.96,-1.57101,-0.522795,0.000477567,-2.09699,-0.00046214,1.57127,0.784996,-1.5708,-0.523599,4.26582e-08,-2.0944,8.27649e-08,1.5708,0.785398,1.45835e-05,-7.24046e-06,-0.000666247,0.00113595,8.00093e-05,-0.000246537,8.08753e-05,0,0,0,0,0,0,0,0.251781,-10.213,-0.940793,22.0905,1.27199,1.34054,0.213511,0.24254,-1.06807,-0.495744,3.59335,0.557469,-0.332054,0.22498
1266570,0.96,-1.57101,-0.522795,0.000479711,-2.09699,-0.000462386,1.57127,0.784994,-1.5708,-0.523599,4.26582e-08,-2.0944,8.27649e-08,1.5708,0.785398,9.72235e-06,-0.000561639,0.000112648,0.00020049,5.33395e-05,-0.000401717,-0.000692068,0,0,0,0,0,0,0,0.251781,-10.1892,-0.964597,22.1143,1.27199,1.34695,0.233652,0.244029,-1.06839,-0.493526,3.59312,0.557496,-0.332151,0.225004
1266571,0.96,-1.57101,-0.522796,0.000478199,-2.097,-0.000461146,1.57127,0.78499,-1.5708,-0.523599,4.26582e-08,-2.0944,8.27649e-08,1.5708,0.785398,6.48156e-06,-0.000931238,-0.000481714,-0.000423152,0.000476369,0.000206907,-0.00164817,0,0,0,0,0,0,0,0.251781,-10.1654,-0.940793,22.1381,1.26009,1.33413,0.265696,0.244985,-1.06662,-0.492078,3.59205,0.557494,-0.332281,0.224979
1266572,0.96,-1.57101,-0.522794,0.000479922,-2.09699,-0.000463716,1.57128,0.784996,-1.5708,-0.523599,4.26582e-08,-2.0944,8.27649e-08,1.5708,0.785398,-0.000552491,-6.40133e-05,0.00023567,-0.000282101,-0.000530131,0.000375297,0.000833998,0,0,0,0,0,0,0,0.275585,-10.1892,-0.964597,22.1381,1.28298,1.32772,0.213511,0.245634,-1.06412,-0.491115,3.59108,0.557488,-0.332359,0.224948
1266573,0.96,-1.57101,-0.522793,0.00047994,-2.09699,-0.000459919,1.57127,0.785001,-1.5708,-0.523599,4.26582e-08,-2.0944,8.27649e-08,1.5708,0.785398,0.000188485,0.000514136,0.000157113,0.000368745,-0.00014997,1.28389e-05,0.00126808,0,0,0,0,0,0,0,0.251781,-10.213,-0.964597,22.1143,1.27748,1.33413,0.194285,0.245997,-1.0627,-0.490649,3.59075,0.557479,-0.332386,0.224951
1266574,0.96,-1.571,-0.522794,0.000479945,-2.09699,-0.000462663,1.57127,0.784997,-1.5708,-0.523599,4.26582e-08,-2.0944,8.27649e-08,1.5708,0.785398,0.000682468,-0.000214054,0.000104742,0.00024583,-0.000303431,-0.0002288,0.000133307,0,0,0,0,0,0,0,0.227978,-10.1892,-0.964597,22.1143,1.28298,1.34054,0.213511,0.245755,-1.06252,-0.491063,3.59081,0.557447,-0.332406,0.224969
1266575,0.96,-1.571,-0.522791,0.000479947,-2.09699,-0.000459568,1.57128,0.784994,-1.5708,-0.523599,4.26582e-08,-2.0944,8.27649e-08,1.5708,0.785398,0.000454979,0.00106372,6.9828e-05,0.000720698,1.16342e-06,-0.000152533,-0.00184391,0,0,0,0,0,0,0,0.227978,-10.2408,-0.964597,22.0905,1.27748,1.34054,0.265696,0.244915,-1.06306,-0.492243,3.59093,0.557398,-0.332439,0.224962
1266576,0.96,-1.57101,-0.522796,0.000483567,-2.09699,-0.000461326,1.57128,0.784992,-1.5708,-0.523599,4.26582e-08,-2.0944,8.27649e-08,1.5708,0.785398,-0.000253493,-0.00105409,0.00125298,-7.63463e-05,0.000204226,0.000373029,-0.000991914,0,0,0,0,0,0,0,0.251781,-10.1654,-1.01617,22.1143,1.27199,1.32772,0.259287,0.243634,-1.06373,-0.494058,3.59092,0.55735,-0.332485,0.224938
1266577,0.96,-1.571,-0.522793,0.000479488,-2.09699,-0.000462115,1.57127,0.784996,-1.5708,-0.523599,4.26582e-08,-2.0944,8.27649e-08,1.5708,0.785398,0.000387817,0.000410898,0.000185705,-0.00060771,0.000136151,-0.000226032,0.00103415,0,0,0,0,0,0,0,0.227978,-10.213,-0.988401,22.1381,1.27199,1.34054,0.213511,0.242052,-1.06382,-0.496415,3.59084,0.557312,-0.332512,0.22495
1266578,0.96,-1.57101,-0.522793,0.000477568,-2.09699,-0.00045847,1.57127,0.784997,-1.5708,-0.523599,4.26582e-08,-2.0944,8.27649e-08,1.5708,0.785398,-0.000855079,0.000273932,-0.000989821,0.000151672,0.000328126,-0.000150688,0.000926789,0,0,0,0,0,0,0,0.275585,-10.213,-0.940793,22.1143,1.26558,1.34054,0.207102,0.241167,-1.06448,-0.497783,3.5913,0.557325,-0.332471,0.225015
1266579,0.96,-1.57101,-0.522793,0.000479712,-2.09699,-0.000462011,1.57128,0.784996,-1.5708,-0.523599,4.26582e-08,-2.0944,8.27649e-08,1.5708,0.785398,-1.32409e-05,0.000182621,-0.000103069,0.000101115,-0.000222059,-0.000100459,0.0003805,0,0,0,0,0,0,0,0.251781,-10.213,-0.964597,22.1143,1.27748,1.34054,0.213511,0.241685,-1.06596,-0.49708,3.59207,0.557404,-0.332402,0.225097
1266580,0.96,-1.57101,-0.522796,0.000478199,-2.097,-0.00046275,1.57128,0.784997,-1.5708,-0.523599,4.26582e-08,-2.0944,8.27649e-08,1.5708,0.785398,-8.82729e-06,-0.000991876,-0.000625524,-0.00169583,-0.000148039,0.000407746,0.000491026,0,0,0,0,0,0,0,0.251781,-10.1654,-0.940793,22.1897,1.27748,1.32772,0.207102,0.242836,-1.06705,-0.495431,3.59281,0.557509,-0.332314,0.225156
1266581,0.96,-1.57101,-0.522789,0.000481593,-2.09699,-0.000462997,1.57128,0.784994,-1.5708,-0.523599,4.26582e-08,-2.0944,8.27649e-08,1.5708,0.785398,-0.00121231,0.0016588,0.000696608,7.58739e-05,-9.86928e-05,0.00027183,-0.000655994,0,0,0,0,0,0,0,0.303356,-10.2646,-0.988401,22.1381,1.27748,1.32772,0.233652,0.244036,-1.06857,-0.493775,3.59416,0.557631,-0.33216,0.225177
1266582,0.96,-1.57101,-0.522794,0.00047948,-2.097,-0.000463079,1.57128,0.784995,-1.5708,-0.523599,4.26582e-08,-2.0944,8.27649e-08,1.5708,0.785398,0.000398219,-0.000657372,0.000464405,-0.000506229,-6.57952e-05,-0.000293498,-0.00114941,0,0,0,0,0,0,0,0.251781,-10.1892,-0.988401,22.1619,1.27748,1.34054,0.252878,0.244877,-1.07119,-0.492823,3.596,0.557749,-0.331992,0.225164
1266583,0.96,-1.57101,-0.522794,0.000480906,-2.09699,-0.000461173,1.57127,0.784995,-1.5708,-0.523599,4.26582e-08,-2.0944,8.27649e-08,1.5708,0.785398,-0.000291333,-0.000438248,0.000309603,0.000219326,0.000600397,0.000279053,-5.41938e-05,0,0,0,0,0,0,0,0.275585,-10.1892,-0.988401,22.1381,1.26009,1.32772,0.233652,0.244992,-1.07249,-0.493043,3.59703,0.557816,-0.331917,0.225146
1266584,0.96,-1.571,-0.522794,0.000479711,-2.09699,-0.000459309,1.57127,0.784996,-1.5708,-0.523599,4.26582e-08,-2.0944,8.27649e-08,1.5708,0.785398,0.00156902,-0.000292165,-0.00035041,0.000146217,-4.05451e-05,0.000186035,0.000709856,0,0,0,0,0,0,0,0.200207,-10.1892,-0.964597,22.1381,1.27199,1.32772,0.213511,0.24458,-1.0714,-0.493978,3.59672,0.557822,-0.331976,0.225152
1266585,0.96,-1.571,-0.522791,0.00048154,-2.09699,-0.000462053,1.57127,0.784999,-1.5708,-0.523599,4.26582e-08,-2.0944,8.27649e-08,1.5708,0.785398,0.00104601,0.00101165,0.000323206,0.00065429,-0.000230481,-0.000113335,0.000473237,0,0,0,0,0,0,0,0.200207,-10.2408,-0.988401,22.1143,1.27748,1.33413,0.213511,0.243586,-1.07006,-0.495552,3.59593,0.557768,-0.332119,0.225187
1266586,0.96,-1.571,-0.522794,0.000477791,-2.097,-0.000462764,1.57127,0.785002,-1.5708,-0.523599,4.26582e-08,-2.0944,8.27649e-08,1.5708,0.785398,0.00069734,-0.000531993,-0.000341342,-0.000677431,-0.000153654,-7.5557e-05,0.00102757,0,0,0,0,0,0,0,0.200207,-10.1892,-0.964597,22.1619,1.27748,1.33413,0.194285,0.242207,-1.06971,-0.49748,3.59549,0.557687,-0.332266,0.225228
1266587,0.96,-1.571,-0.522794,0.000479229,-2.097,-0.000463001,1.57127,0.784995,-1.5708,-0.523599,4.26582e-08,-2.0944,8.27649e-08,1.5708,0.785398,-0.00018472,-0.000354662,-0.000227561,-0.00045162,-0.000102436,0.000186988,-0.000773016,0,0,0,0,0,0,0,0.227978,-10.1892,-0.964597,22.1619,1.27748,1.32772,0.233652,0.241269,-1.06938,-0.498661,3.59539,0.557642,-0.332375,0.225235
1266588,0.96,-1.571,-0.522796,0.000479249,-2.09699,-0.00046308,1.57127,0.784992,-1.5708,-0.523599,4.26582e-08,-2.0944,8.27649e-08,1.5708,0.785398,-0.000123147,-0.000793253,0.000405105,0.00201897,-6.82905e-05,-0.000112701,-0.00122742,0,0,0,0,0,0,0,0.227978,-10.1654,-0.988401,22.0627,1.27748,1.33413,0.252878,0.240987,-1.06736,-0.498872,3.59445,0.557628,-0.332558,0.225193
1266589,0.96,-1.571,-0.522793,0.000479158,-2.09699,-0.000462496,1.57128,0.784992,-1.5708,-0.523599,4.26582e-08,-2.0944,8.27649e-08,1.5708,0.785398,-8.20979e-05,0.000584788,-0.000286742,0.000139554,0.000157923,0.000162225,-0.000580922,0,0,0,0,0,0,0,0.227978,-10.213,-0.964597,22.1143,1.27199,1.32772,0.24647,0.241028,-1.06396,-0.498619,3.59224,0.557617,-0.332884,0.225132
1266590,0.96,-1.571,-0.522796,0.000479225,-2.09699,-0.000462505,1.57128,0.784994,-1.5708,-0.523599,4.26582e-08,-2.0944,8.27649e-08,1.5708,0.785398,-5.47319e-05,-0.000723765,0.00036565,9.30359e-05,0.000105282,-0.000129209,0.000358704,0,0,0,0,0,0,0,0.227978,-10.1654,-0.988401,22.1143,1.27199,1.33413,0.226328,0.24121,-1.06122,-0.498127,3.59022,0.557626,-0.333204,0.225102
1266591,0.96,-1.571,-0.522793,0.00047915,-2.09699,-0.000463118,1.57128,0.784996,-1.5708,-0.523599,4.26582e-08,-2.0944,8.27649e-08,1.5708,0.785398,0.000613126,0.000631114,-0.000313045,0.000618836,-0.000133262,-8.61392e-05,0.000713854,0,0,0,0,0,0,0,0.200207,-10.213,-0.964597,22.0905,1.27748,1.33413,0.213511,0.24128,-1.05957,-0.497718,3.58893,0.55765,-0.333449,0.225122
1266592,0.96,-1.57101,-0.522798,0.000481353,-2.09699,-0.000459923,1.57128,0.784999,-1.5708,-0.523599,4.26582e-08,-2.0944,8.27649e-08,1.5708,0.785398,-0.000797675,-0.0013425,0.000348115,-0.000701067,-8.88415e-05,-0.000294785,0.00142534,0,0,0,0,0,0,0,0.251781,-10.1377,-0.988401,22.1381,1.27748,1.34054,0.187876,0.241278,-1.0583,-0.497347,3.58804,0.557681,-0.333639,0.225172
1266593,0.96,-1.571,-0.522794,0.000477729,-2.097,-0.000460732,1.57128,0.784996,-1.5708,-0.523599,4.26582e-08,-2.0944,8.27649e-08,1.5708,0.785398,2.50285e-05,0.000311429,-0.000324735,-0.00102419,0.000381582,4.08356e-05,7.89814e-07,0,0,0,0,0,0,0,0.227978,-10.1892,-0.964597,22.1619,1.26558,1.33413,0.213511,0.241504,-1.0574,-0.496664,3.58792,0.557747,-0.333716,0.225206
1266594,0.96,-1.57101,-0.522794,0.000478749,-2.097,-0.000458958,1.57127,0.784993,-1.5708,-0.523599,4.26582e-08,-2.0944,8.27649e-08,1.5708,0.785398,-0.000540126,0.000207619,0.000340322,-0.000125981,1.70289e-05,-0.000210135,-0.00193225,0,0,0,0,0,0,0,0.251781,-10.1892,-0.988401,22.1381,1.27199,1.34054,0.265696,0.241901,-1.058,-0.495765,3.58898,0.557852,-0.333658,0.225191
1266595,0.96,-1.571,-0.522798,0.000480662,-2.097,-0.000458783,1.57127,0.784992,-1.5708,-0.523599,4.26582e-08,-2.0944,8.27649e-08,1.5708,0.785398,0.000196728,-0.00106801,0.000226881,-0.000640799,0.000859063,-0.00014009,-0.000813451,0,0,0,0,0,0,0,0.227978,-10.1377,-0.988401,22.1619,1.2491,1.34054,0.252878,0.242099,-1.05916,-0.495189,3.59038,0.557946,-0.333557,0.225143
1266596,0.96,-1.571,-0.522796,0.000479169,-2.09699,-0.000458919,1.57128,0.784997,-1.5708,-0.523599,4.26582e-08,-2.0944,8.27649e-08,1.5708,0.785398,0.000131152,0.000494417,0.000151254,0.000129612,-0.000275002,0.000381324,0.00115312,0,0,0,0,0,0,0,0.227978,-10.1892,-0.988401,22.1381,1.27199,1.32772,0.207102,0.241868,-1.05946,-0.49525,3.59134,0.557985,-0.333486,0.225122
1266597,0.96,-1.57101,-0.522793,0.000475331,-2.09699,-0.000461313,1.57127,0.784995,-1.5708,-0.523599,4.26582e-08,-2.0944,8.27649e-08,1.5708,0.785398,-0.000469377,0.000886423,-0.00101279,0.00120003,-0.000183335,0.000254216,0.000294029,0,0,0,0,0,0,0,0.251781,-10.213,-0.940793,22.0905,1.27199,1.32772,0.219919,0.241838,-1.06022,-0.494979,3.592,0.557987,-0.333476,0.225147
1266598,0.96,-1.571,-0.522797,0.000480636,-2.097,-0.000458915,1.57127,0.784996,-1.5708,-0.523599,4.26582e-08,-2.0944,8.27649e-08,1.5708,0.785398,0.000243894,3.4137e-05,0.000438432,-0.000313602,-0.000122223,-6.78814e-05,0.000433378,0,0,0,0,0,0,0,0.227978,-10.1892,-0.988401,22.1381,1.27199,1.33413,0.213511,0.242322,-1.06186,-0.493931,3.59248,0.557974,-0.333529,0.225187
1266599,0.96,-1.571,-0.52279,0.000479621,-2.097,-0.000460599,1.57127,0.784996,-1.5708,-0.523599,4.26582e-08,-2.0944,8.27649e-08,1.5708,0.785398,0.000162596,0.001786,-0.000264524,-0.00076588,0.000155877,-0.000282613,0.000288919,0,0,0,0,0,0,0,0.227978,-10.2646,-0.964597,22.1619,1.26558,1.34054,0.213511,0.242581,-1.06497,-0.493205,3.59377,0.557951,-0.333516,0.225221
1266600,0.96,-1.57101,-0.522793,0.00048151,-2.09699,-0.00046211,1.57127,0.784993,-1.5708,-0.523599,4.26582e-08,-2.0944,8.27649e-08,1.5708,0.785398,-0.000448415,-1.5762e-05,0.000380463,0.00180946,-0.000133441,-0.000188409,-0.000790732,0,0,0,0,0,0,0,0.251781,-10.213,-0.988401,22.0627,1.27199,1.34054,0.240061,0.242506,-1.06928,-0.492995,3.59567,0.557912,-0.33345,0.225234
1266601,0.96,-1.57101,-0.522796,0.000483531,-2.09699,-0.000462376,1.57127,0.784989,-1.5708,-0.523599,4.26582e-08,-2.0944,8.27649e-08,1.5708,0.785398,-0.000298943,-0.00112413,0.000903256,-0.000556929,-8.89607e-05,-0.000125606,-0.00171395,0,0,0,0,0,0,0,0.251781,-10.1654,-1.01617,22.1381,1.27199,1.34054,0.272104,0.24218,-1.07101,-0.493292,3.59604,0.557829,-0.333503,0.225224
1266602,0.96,-1.571,-0.522791,0.000481607,-2.09699,-0.000461753,1.57127,0.784996,-1.5708,-0.523599,4.26582e-08,-2.0944,8.27649e-08,1.5708,0.785398,0.000357517,0.00101382,-4.74435e-05,0.000185526,0.000178052,-0.000321096,0.00102751,0,0,0,0,0,0,0,0.227978,-10.2408,-0.988401,22.1143,1.26558,1.34695,0.213511,0.241446,-1.07024,-0.494332,3.59536,0.55771,-0.333599,0.22523
1266603,0.96,-1.571,-0.522793,0.000483564,-2.09699,-0.000458587,1.57128,0.784997,-1.5708,-0.523599,4.26582e-08,-2.0944,8.27649e-08,1.5708,0.785398,0.000887958,2.62638e-05,0.000617985,0.000680496,0.000118701,0.000260654,0.00115972,0,0,0,0,0,0,0,0.200207,-10.213,-1.01617,22.0905,1.26558,1.33413,0.200693,0.240299,-1.06988,-0.495962,3.59494,0.557571,-0.333644,0.225286
1266604,0.96,-1.571,-0.522791,0.000479947,-2.097,-0.00046205,1.57128,0.784997,-1.5708,-0.523599,4.26582e-08,-2.0944,8.27649e-08,1.5708,0.785398,-5.76418e-05,0.000667123,-0.000794436,-0.00065996,-0.000361675,0.000173769,0.000535789,0,0,0,0,0,0,0,0.227978,-10.2408,-0.964597,22.1381,1.27748,1.33413,0.207102,0.239106,-1.07026,-0.497575,3.59475,0.557428,-0.333655,0.225364
1266605,0.96,-1.57101,-0.522794,0.000481437,-2.097,-0.000463373,1.57127,0.784998,-1.5708,-0.523599,4.26582e-08,-2.0944,8.27649e-08,1.5708,0.785398,-0.00059524,-0.000761677,0.000676802,0.000116839,-0.000444567,0.000115846,0.000831911,0,0,0,0,0,0,0,0.251781,-10.1892,-1.01617,22.1143,1.28298,1.33413,0.194285,0.238565,-1.07066,-0.498263,3.59476,0.557327,-0.333621,0.225409
1266606,0.96,-1.57101,-0.522794,0.000477568,-2.097,-0.000459805,1.57127,0.784994,-1.5708,-0.523599,4.26582e-08,-2.0944,8.27649e-08,1.5708,0.785398,-0.000396827,-0.000507785,-0.00131204,-0.00047892,-9.29277e-05,7.72307e-05,-0.000903455,0,0,0,0,0,0,0,0.251781,-10.1892,-0.940793,22.1381,1.27748,1.33413,0.233652,0.238939,-1.06975,-0.497724,3.59436,0.557283,-0.333593,0.225391
1266607,0.96,-1.571,-0.522793,0.000483331,-2.097,-0.000460692,1.57127,0.78499,-1.5708,-0.523599,4.26582e-08,-2.0944,8.27649e-08,1.5708,0.785398,0.000941875,0.000218289,0.000888547,0.000237532,0.000378858,-0.000185872,-0.0017891,0,0,0,0,0,0,0,0.200207,-10.213,-1.01617,22.1143,1.26558,1.34054,0.265696,0.239589,-1.06793,-0.496781,3.59361,0.557272,-0.333581,0.225311
1266608,0.96,-1.57101,-0.522794,0.000479869,-2.097,-0.000463362,1.57128,0.784993,-1.5708,-0.523599,4.26582e-08,-2.0944,8.27649e-08,1.5708,0.785398,-0.000578509,-0.000411286,-0.000614061,-0.000955269,-0.000391688,0.000588162,-0.000243296,0,0,0,0,0,0,0,0.251781,-10.1892,-0.964597,22.1619,1.28298,1.32131,0.240061,0.239773,-1.06663,-0.496476,3.59316,0.557266,-0.333545,0.225218
1266609,0.96,-1.571,-0.522794,0.000476121,-2.097,-0.000459191,1.57127,0.784996,-1.5708,-0.523599,4.26582e-08,-2.0944,8.27649e-08,1.5708,0.785398,0.000171139,-0.000274191,-0.000966186,-0.000636846,0.000145776,-0.000319969,0.000821147,0,0,0,0,0,0,0,0.227978,-10.1892,-0.940793,22.1619,1.27199,1.34054,0.213511,0.240214,-1.06585,-0.495768,3.59321,0.557299,-0.333466,0.225164
1266610,0.96,-1.57101,-0.522793,0.000477099,-2.097,-0.000462014,1.57127,0.784996,-1.5708,-0.523599,4.26582e-08,-2.0944,8.27649e-08,1.5708,0.785398,-0.000442719,0.000374018,-8.73122e-05,-0.00107418,-0.000106267,-0.000213312,0.000547431,0,0,0,0,0,0,0,0.251781,-10.213,-0.964597,22.1897,1.27748,1.34054,0.213511,0.241273,-1.06598,-0.494104,3.59403,0.557387,-0.333326,0.225157
1266611,0.96,-1.571,-0.522793,0.000480669,-2.097,-0.000458945,1.57127,0.784991,-1.5708,-0.523599,4.26582e-08,-2.0944,8.27649e-08,1.5708,0.785398,0.000261666,0.000249345,0.000498604,0.00104712,0.000132606,9.51507e-05,-0.00109311,0,0,0,0,0,0,0,0.227978,-10.213,-0.988401,22.1143,1.27199,1.33413,0.252878,0.241991,-1.06705,-0.492945,3.59519,0.55747,-0.333189,0.225171
1266612,0.96,-1.571,-0.522794,0.000481302,-2.09699,-0.000461321,1.57128,0.784991,-1.5708,-0.523599,4.26582e-08,-2.0944,8.27649e-08,1.5708,0.785398,0.000174444,-0.000390582,0.000332403,0.000698079,8.8404e-05,0.000300793,-0.000728739,0,0,0,0,0,0,0,0.227978,-10.1892,-0.988401,22.1143,1.27199,1.32772,0.252878,0.241774,-1.06724,-0.493174,3.59525,0.55749,-0.3332,0.225198
1266613,0.96,-1.57101,-0.522793,0.000483462,-2.09699,-0.000462724,1.57128,0.784992,-1.5708,-0.523599,4.26582e-08,-2.0944,8.27649e-08,1.5708,0.785398,-0.000440516,0.000296424,0.000871216,0.000465386,-0.000144515,-3.68305e-05,-0.000248467,0,0,0,0,0,0,0,0.251781,-10.213,-1.01617,22.1143,1.27748,1.33413,0.24647,0.240842,-1.06599,-0.4945,3.59407,0.557452,-0.333358,0.225259
1266614,0.96,-1.57101,-0.522793,0.000483532,-2.097,-0.000462377,1.57128,0.784996,-1.5708,-0.523599,4.26582e-08,-2.0944,8.27649e-08,1.5708,0.785398,-0.000293677,0.000197616,0.00058081,0.000310258,0.000107108,-0.000261913,0.00105506,0,0,0,0,0,0,0,0.251781,-10.213,-1.01617,22.1143,1.27199,1.34054,0.213511,0.239682,-1.06485,-0.496312,3.59282,0.557401,-0.33354,0.225378
1266615,0.96,-1.57101,-0.522794,0.000479477,-2.09699,-0.00045927,1.57128,0.784997,-1.5708,-0.523599,4.26582e-08,-2.0944,8.27649e-08,1.5708,0.785398,-0.000752597,-0.000425068,-0.000262407,-0.000349974,7.1405e-05,6.27506e-05,0.000940731,0,0,0,0,0,0,0,0.275585,-10.1892,-0.988401,22.1381,1.27199,1.33413,0.207102,0.238916,-1.06416,-0.497706,3.59195,0.557378,-0.333679,0.225542
1266616,0.96,-1.571,-0.522793,0.000480723,-2.09699,-0.000458844,1.57127,0.784999,-1.5708,-0.523599,4.26582e-08,-2.0944,8.27649e-08,1.5708,0.785398,0.00126151,0.000273433,0.000474676,-0.000233316,-0.000155847,-0.000195525,0.00133923,0,0,0,0,0,0,0,0.200207,-10.213,-1.01617,22.1381,1.27748,1.34054,0.187876,0.238508,-1.06374,-0.498621,3.59159,0.55738,-0.333747,0.225707
1266617,0.96,-1.571,-0.522794,0.00047854,-2.09699,-0.000460372,1.57128,0.784997,-1.5708,-0.523599,4.26582e-08,-2.0944,8.27649e-08,1.5708,0.785398,0.00019139,-0.000374523,-0.000333163,-0.000155544,0.000336911,0.000107009,0.000418103,0,0,0,0,0,0,0,0.227978,-10.1892,-0.988401,22.1381,1.26558,1.33413,0.200693,0.237817,-1.06369,-0.499865,3.59168,0.557375,-0.333756,0.225826
1266618,0.96,-1.57101,-0.522794,0.000477252,-2.097,-0.000461322,1.57127,0.784991,-1.5708,-0.523599,4.26582e-08,-2.0944,8.27649e-08,1.5708,0.785398,-0.00098603,-0.000249682,-0.00133573,-0.000103696,0.000224608,0.000308698,-0.00165404,0,0,0,0,0,0,0,0.275585,-10.1892,-0.940793,22.1381,1.26558,1.32772,0.252878,0.237812,-1.06341,-0.500048,3.59174,0.557401,-0.333754,0.225857
1266619,0.96,-1.57101,-0.522794,0.000479606,-2.097,-0.000459155,1.57128,0.784992,-1.5708,-0.523599,4.26582e-08,-2.0944,8.27649e-08,1.5708,0.785398,-0.000657354,-0.000166455,-0.000333677,-0.000625943,-8.76206e-05,0.000205799,-0.000865338,0,0,0,0,0,0,0,0.275585,-10.1892,-0.964597,22.1619,1.27199,1.32772,0.24647,0.239387,-1.06291,-0.497979,3.59177,0.557498,-0.333749,0.225804
1266620,0.96,-1.57101,-0.522794,0.000481505,-2.09699,-0.000461391,1.57127,0.784992,-1.5708,-0.523599,4.26582e-08,-2.0944,8.27649e-08,1.5708,0.785398,0.000118576,-0.00011097,0.000334361,0.000696329,-5.84137e-05,-0.000337519,-0.000576892,0,0,0,0,0,0,0,0.251781,-10.1892,-0.988401,22.1143,1.27199,1.34054,0.24647,0.241244,-1.06246,-0.495599,3.59185,0.557596,-0.333752,0.225735
1266621,0.96,-1.571,-0.522793,0.00047991,-2.09699,-0.000458229,1.57127,0.784994,-1.5708,-0.523599,4.26582e-08,-2.0944,8.27649e-08,1.5708,0.785398,0.000635863,0.000482832,-0.000333905,0.000464219,0.000198416,1.23465e-05,0.000361391,0,0,0,0,0,0,0,0.227978,-10.213,-0.964597,22.1143,1.26558,1.33413,0.226328,0.242161,-1.06203,-0.494601,3.59163,0.557621,-0.333813,0.225705
1266622,0.96,-1.57101,-0.522794,0.000479936,-2.097,-0.000457412,1.57127,0.784998,-1.5708,-0.523597,2.54266e-06,-2.0944,1.57755e-06,1.5708,0.785397,-0.000689715,-0.000234924,-0.000222603,-0.000804144,0.000132278,8.23098e-06,0.00142772,-0.00325272,0.001875,0.0025,-0.003125,0.00149478,0.005,-0.0012878,0.275585,-10.1892,-0.964597,22.1619,1.26558,1.33413,0.194285,0.242556,-1.06216,-0.494316,3.59156,0.557603,-0.333877,0.225724
1266623,0.96,-1.571,-0.522794,0.000483563,-2.09699,-0.000461048,1.57127,0.784996,-1.57081,-0.523593,7.54266e-06,-2.0944,4.56712e-06,1.57081,0.785394,0.000653814,-0.000156616,0.00105802,2.07157e-05,-0.000149174,5.48732e-06,0.000239738,-0.00650544,0.00375,0.005,-0.00625,0.00298957,0.01,-0.00257561,0.227978,-10.1892,-1.01617,22.1381,1.27199,1.33413,0.213511,0.242591,-1.06262,-0.494605,3.59195,0.557564,-0.333888,0.225762
1266624,0.96,-1.571,-0.522796,0.000479947,-2.09699,-0.000459437,1.57128,0.78499,-1.57082,-0.523587,1.50427e-05,-2.09441,9.05147e-06,1.57083,0.78539,0.000435876,-0.000661223,-0.000501077,0.000570622,-0.0003029,0.000241017,-0.00177295,-0.00975816,0.005625,0.0075,-0.009375,0.00448435,0.015,-0.00386341,0.227978,-10.1654,-0.964597,22.1143,1.27748,1.32772,0.265696,0.241866,-1.06211,-0.496018,3.59196,0.55747,-0.33393,0.225782
1266625,0.96,-1.57101,-0.522796,0.000480408,-2.09699,-0.000462502,1.57127,0.784995,-1.57083,-0.52358,2.50427e-05,-2.09443,1.50306e-05,1.57085,0.785385,0.000290584,0.00222955,0.00534361,-0.00299584,-0.000405384,-0.000551399,0.000513451,-0.0130109,0.0075,0.01,-0.0125,0.00597914,0.02,-0.00515121,0.227978,-10.0107,-0.940793,21.9873,1.28298,1.34695,0.219919,0.239496,-1.06305,-0.499969,3.59298,0.55732,-0.333888,0.225796
1266626,0.96,-1.57101,-0.522802,0.000478141,-2.09699,-0.000463321,1.57127,0.784993,-1.57085,-0.52357,3.75427e-05,-2.09444,2.25045e-05,1.57087,0.785379,-0.00114334,0.00281884,0.00480839,0.00121689,-0.000270256,-0.00107968,-0.000403684,-0.0162636,0.009375,0.0125,-0.015625,0.00747392,0.025,-0.00643902,0.148632,-9.50687,-0.837644,21.5668,1.28298,1.36618,0.240061,0.234194,-1.06973,-0.508737,3.59719,0.557109,-0.333576,0.225855
1266627,0.96,-1.57101,-0.522798,0.000483031,-2.09699,-0.000458465,1.57127,0.78499,-1.57086,-0.523559,5.25427e-05,-2.09446,3.14732e-05,1.5709,0.785371,-0.00352334,0.000353965,0.0052243,-0.00117979,0.000464089,-0.000957143,-0.00906787,-0.0195163,0.01125,0.015,-0.01875,0.0089687,0.03,-0.00772682,0.124828,-8.97525,-0.762265,21.0709,1.26558,1.37258,0.233652,0.227416,-1.07902,-0.520236,3.60226,0.556879,-0.333154,0.22596
1266628,0.96,-1.57101,-0.522788,0.000489196,-2.09699,-0.000458813,1.57127,0.784995,-1.57089,-0.523546,7.00427e-05,-2.09448,4.19367e-05,1.57094,0.785362,-0.00407464,0.000345454,0.00302578,-0.00446288,-0.000131416,-0.00135017,-0.00581491,-0.022769,0.013125,0.0175,-0.021875,0.0104635,0.035,-0.00901462,0.0494498,-8.49521,-0.710691,20.6226,1.27748,1.39181,0.207102,0.222234,-1.08593,-0.529515,3.60631,0.556783,-0.332595,0.226087
1266629,0.96,-1.57102,-0.522771,0.00049402,-2.09699,-0.000457878,1.57128,0.784992,-1.57091,-0.523531,9.00427e-05,-2.09451,5.3895e-05,1.57098,0.785352,-0.00690168,0.00426,0.00340091,-0.00387231,0.00011584,0.00331475,-0.00491608,-0.0260218,0.015,0.02,-0.025,0.0119583,0.04,-0.0103024,0.0732535,-8.03897,-0.611508,20.0235,1.27199,1.40463,0.219919,0.220578,-1.09269,-0.533141,3.61081,0.556967,-0.33164,0.226211
1266630,0.96,-1.57103,-0.522753,0.000498771,-2.097,-0.00045777,1.57128,0.784987,-1.57094,-0.523514,0.000112543,-2.09454,6.73481e-05,1.57102,0.78534,-0.00657925,0.00876273,0.00423631,-0.00416897,7.72264e-05,0.00188856,-0.00492166,-0.0292745,0.016875,0.0225,-0.028125,0.0134531,0.045,-0.0115902,-0.00212494,-7.63828,-0.532163,19.5792,1.27199,1.42385,0.252878,0.222341,-1.10586,-0.530826,3.61703,0.557455,-0.330185,0.226308
1266631,0.96,-1.57103,-0.522729,0.000509062,-2.09701,-0.000458954,1.57128,0.784988,-1.57098,-0.523495,0.000137543,-2.09457,8.22959e-05,1.57107,0.785327,-0.00656174,0.0138182,0.0030417,-0.00302277,-0.000355417,0.00131478,-0.00312406,-0.0325272,0.01875,0.025,-0.03125,0.0149478,0.05,-0.012878,-0.0775034,-7.30899,-0.508359,19.2063,1.28298,1.43026,0.240061,0.225939,-1.13101,-0.524323,3.62555,0.558177,-0.328121,0.226397
1266632,0.96,-1.57105,-0.522709,0.000521572,-2.09702,-0.000460163,1.57129,0.784992,-1.57101,-0.523474,0.000166933,-2.0946,9.96242e-05,1.57113,0.785312,-0.00838251,0.0142903,0.00575026,-0.00435396,-0.000643846,0.00157106,-0.000862904,-0.0381573,0.0218234,0.0293902,-0.0375,0.0173283,0.0598248,-0.0149077,-0.0775034,-6.97971,-0.508359,18.9325,1.29396,1.41745,0.200693,0.230031,-1.16766,-0.515131,3.63507,0.559055,-0.325419,0.226513
1266633,0.96,-1.57106,-0.52269,0.000532775,-2.09703,-0.000458896,1.57129,0.784994,-1.57106,-0.523449,0.000200713,-2.09465,0.000119333,1.5712,0.785295,-0.00950861,0.0145868,0.00642954,-0.005333,0.00836663,0.000262807,-0.000279244,-0.0437874,0.0248967,0.0337804,-0.04375,0.0197087,0.0696497,-0.0169374,-0.0775034,-6.65042,-0.456784,18.6588,1.31136,1.44308,0.187876,0.233298,-1.20838,-0.505226,3.64229,0.559979,-0.322182,0.226649
1266634,0.96,-1.57107,-0.522679,0.000545209,-2.09705,-0.00045844,1.5713,0.784988,-1.57111,-0.523421,0.000238884,-2.0947,0.000141422,1.57128,0.785276,-0.0106065,0.0129437,0.00644664,-0.00816637,0.00616098,-0.002346,-0.00583353,-0.0494175,0.0279701,0.0381706,-0.05,0.0220892,0.0794745,-0.0189671,-0.204456,-6.24576,-0.381406,18.4842,1.31685,1.51449,0.213511,0.235218,-1.24421,-0.495443,3.64415,0.560885,-0.318474,0.22675
1266635,0.96,-1.57109,-0.522667,0.000564361,-2.09706,-0.000459305,1.5713,0.78499,-1.57116,-0.52339,0.000281445,-2.09475,0.000165892,1.57137,0.785255,-0.0170987,0.0155302,0.0108578,-0.0117093,0.00429042,-0.000820465,-0.00342042,-0.0550476,0.0310435,0.0425608,-0.05625,0.0244696,0.0892993,-0.0209969,-0.22826,-5.74191,-0.357602,18.1113,1.32784,1.62344,0.187876,0.236467,-1.27147,-0.485215,3.64041,0.561892,-0.314175,0.226778
1266636,0.96,-1.5711,-0.522651,0.000587317,-2.09708,-0.000457355,1.57131,0.784983,-1.57122,-0.523356,0.000328396,-2.09482,0.000192742,1.57147,0.785232,-0.0178135,0.018802,0.0129149,-0.0164608,0.00391314,5.33984e-05,-0.00359035,-0.0606777,0.0341169,0.046951,-0.0625,0.0268501,0.0991242,-0.0230266,-0.430592,-5.13492,-0.282224,17.6908,1.31136,1.74612,0.213511,0.237045,-1.29474,-0.475208,3.63463,0.563164,-0.308914,0.22674
1266637,0.96,-1.57112,-0.52263,0.00061506,-2.0971,-0.000452798,1.57131,0.784977,-1.57129,-0.523318,0.000379737,-2.09489,0.000221972,1.57158,0.785207,-0.0230534,0.0197732,0.0170109,-0.0195517,0.00338145,0.00119179,-0.00341002,-0.0663078,0.0371902,0.0513412,-0.06875,0.0292305,0.108949,-0.0250563,-0.454395,-4.45255,-0.179074,17.1155,1.29946,1.86148,0.233652,0.235967,-1.31877,-0.466943,3.62974,0.56475,-0.302301,0.226648
1266638,0.96,-1.57116,-0.522603,0.000649127,-2.09713,-0.000448668,1.57133,0.784977,-1.57136,-0.523278,0.000435468,-2.09496,0.000253583,1.5717,0.78518,-0.0265015,0.0222331,0.0207221,-0.0214532,0.00352046,0.00374528,-0.00553086,-0.0719379,0.0402636,0.0557314,-0.075,0.031611,0.118774,-0.027086,-0.478199,-3.82175,-0.103696,16.4966,1.27199,1.93289,0.187876,0.232555,-1.34212,-0.461257,3.62462,0.566595,-0.294215,0.22653
1266639,0.96,-1.5712,-0.522565,0.000690404,-2.09717,-0.00044379,1.57136,0.784977,-1.57144,-0.523235,0.00049559,-2.09504,0.000287575,1.57183,0.785151,-0.0289385,0.0263923,0.0277025,-0.0243584,0.00297447,0.0109518,-0.00257371,-0.077568,0.043337,0.0601216,-0.08125,0.0339914,0.128599,-0.0291157,-0.50597,-3.29013,-0.0798923,15.9253,1.26009,1.99057,0.143015,0.225227,-1.36349,-0.460311,3.6172,0.568548,-0.284678,0.226418
1266640,0.96,-1.57124,-0.522525,0.000731109,-2.09722,-0.000431839,1.57139,0.784972,-1.57152,-0.523188,0.000560101,-2.09513,0.000323947,1.57196,0.78512,-0.0366156,0.0307907,0.0317709,-0.0301687,0.00358105,0.0167485,-0.00236415,-0.0831981,0.0464104,0.0645117,-0.0875,0.0363719,0.138423,-0.0311454,-0.557545,-2.81009,-0.000546589,15.5008,1.22072,2.03543,0.149424,0.212829,-1.38605,-0.465854,3.60809,0.570515,-0.273548,0.226283
1266641,0.96,-1.57129,-0.522485,0.000782752,-2.09727,-0.000427338,1.57144,0.784968,-1.57161,-0.523139,0.000629003,-2.09522,0.000362699,1.57211,0.785087,-0.0428871,0.03134,0.0397751,-0.0361031,0.00208547,0.0283074,-0.00164698,-0.0888282,0.0494837,0.0689019,-0.09375,0.0387523,0.148248,-0.0331751,-0.581349,-2.35385,-0.000546589,15.1517,1.23171,2.00979,0.143015,0.196526,-1.41132,-0.476702,3.59832,0.572528,-0.26065,0.22605
1266642,0.96,-1.57134,-0.522444,0.000833027,-2.09732,-0.000422803,1.5715,0.784951,-1.57171,-0.523086,0.00070365,-2.09533,0.000404371,1.57227,0.785051,-0.0476782,0.0320631,0.0440316,-0.0390051,0.00483625,0.0387036,-0.00516082,-0.0961242,0.0528777,0.0746464,-0.103125,0.0416723,0.161023,-0.0356223,-0.605152,-1.92538,0.0748318,14.755,1.26558,1.92648,0.24647,0.17702,-1.43345,-0.492115,3.58515,0.574526,-0.246231,0.225661
1266643,0.96,-1.5714,-0.522412,0.000888227,-2.09739,-0.000418732,1.57158,0.784936,-1.57181,-0.52303,0.00078404,-2.09544,0.000448963,1.57245,0.785013,-0.0516973,0.0319431,0.0483658,-0.0497011,0.00197296,0.0513385,-0.0104323,-0.10342,0.0562716,0.0803908,-0.1125,0.0445923,0.173798,-0.0380696,-0.605152,-1.46915,0.0986355,14.5804,1.31136,1.82943,0.310557,0.154634,-1.44583,-0.511211,3.56568,0.576465,-0.230684,0.225135
1266644,0.96,-1.57147,-0.52238,0.000953596,-2.09746,-0.000413052,1.57167,0.784924,-1.57192,-0.52297,0.000870176,-2.09556,0.000496476,1.57263,0.784973,-0.0555062,0.0344591,0.0559143,-0.0572162,0.00525759,0.0666282,-0.00843865,-0.110716,0.0596655,0.0861352,-0.121875,0.0475122,0.186573,-0.0405168,-0.708302,-0.989105,0.0748318,14.4059,1.34523,1.81021,0.337107,0.129127,-1.4485,-0.533881,3.54155,0.57843,-0.214153,0.224616
1266645,0.96,-1.57153,-0.522346,0.00102021,-2.09753,-0.000402291,1.57176,0.784911,-1.57204,-0.522907,0.000962055,-2.09569,0.000546908,1.57283,0.78493,-0.0604532,0.0357583,0.0596737,-0.0644584,0.00456714,0.0717979,-0.00946254,-0.118012,0.0630594,0.0918796,-0.13125,0.0504322,0.199349,-0.0429641,-0.859058,-0.48526,0.126407,14.1837,1.33425,1.84866,0.310557,0.0998126,-1.44417,-0.56095,3.51512,0.580505,-0.196806,0.224295
1266646,0.97,-1.5716,-0.52231,0.00109568,-2.09761,-0.000390787,1.57186,0.7849,-1.57216,-0.522841,0.00105968,-2.09583,0.00060026,1.57304,0.784884,-0.0636996,0.0362124,0.062506,-0.0682861,0.00888934,0.0824337,-0.00927073,-0.125308,0.0664533,0.097624,-0.140625,0.0533522,0.212124,-0.0454113,-1.03362,0.0463562,0.174014,13.8861,1.31685,1.96493,0.24647,0.0680154,-1.43155,-0.590016,3.48539,0.582754,-0.179002,0.224287
1266647,0.97,-1.57169,-0.522265,0.00118327,-2.0977,-0.000378051,1.57198,0.784876,-1.5723,-0.522771,0.00116305,-2.09598,0.000656532,1.57327,0.784836,-0.0698233,0.0376142,0.0727752,-0.0747219,0.00773834,0.0961354,-0.0171289,-0.132604,0.0698472,0.103368,-0.15,0.0562721,0.224899,-0.0478586,-1.06139,0.526398,0.15021,13.4894,1.28847,2.06198,0.265696,0.0340663,-1.40668,-0.620171,3.44945,0.58514,-0.161174,0.224596
1266648,0.98,-1.57178,-0.522219,0.00126479,-2.0978,-0.000361464,1.57212,0.784851,-1.57244,-0.522698,0.00127216,-2.09614,0.000715724,1.57351,0.784786,-0.0769683,0.0398508,0.0736834,-0.0843548,0.00593306,0.112191,-0.022085,-0.1399,0.0732411,0.109113,-0.159375,0.0591921,0.237674,-0.0503058,-1.109,0.958832,0.277163,13.0411,1.28298,2.00979,0.259287,-0.00189676,-1.37019,-0.651327,3.40754,0.587689,-0.143367,0.225157
1266649,0.99,-1.57188,-0.522169,0.00135253,-2.09791,-0.000342134,1.57229,0.784826,-1.57258,-0.522621,0.00138702,-2.09631,0.000777836,1.57376,0.784733,-0.0850997,0.0409376,0.0802132,-0.0926665,0.00947531,0.130985,-0.024702,-0.147196,0.0766351,0.114857,-0.16875,0.0621121,0.250449,-0.0527531,-1.16057,1.4111,0.42792,12.5928,1.27199,1.89443,0.226328,-0.0367442,-1.32595,-0.679061,3.36224,0.590586,-0.125328,0.225883
1266650,1,-1.57199,-0.522114,0.00144837,-2.09804,-0.000316355,1.57247,0.784792,-1.57274,-0.522541,0.00150762,-2.09649,0.000842868,1.57402,0.784678,-0.0887258,0.0434038,0.0865135,-0.102948,0.0181913,0.144662,-0.0275828,-0.154492,0.080029,0.120602,-0.178125,0.065032,0.263224,-0.0552003,-1.18834,1.79196,0.53107,12.3191,1.23812,1.78457,0.219919,-0.0698294,-1.27654,-0.702334,3.31518,0.593799,-0.106953,0.226695
1266651,1,-1.57211,-0.522061,0.00155201,-2.09817,-0.000291063,1.57268,0.784758,-1.5729,-0.522457,0.00163397,-2.09668,0.00091082,1.5743,0.78462,-0.0979008,0.0445227,0.0884986,-0.110144,0.0225275,0.159295,-0.0289389,-0.161788,0.0834229,0.126346,-0.1875,0.067952,0.275999,-0.0576476,-1.18834,2.19662,0.606448,12.0215,1.2491,1.6683,0.187876,-0.101873,-1.22317,-0.721827,3.26683,0.597163,-0.0883402,0.227504
1266652,1,-1.57223,-0.52201,0.00165379,-2.09831,-0.000257879,1.57289,0.784717,-1.57307,-0.522371,0.00176698,-2.09688,0.000982062,1.57459,0.78456,-0.109292,0.0457778,0.0952985,-0.120508,0.0261024,0.17825,-0.0301864,-0.170166,0.0865008,0.133011,-0.19999,0.0712417,0.290605,-0.0603285,-1.109,2.57352,0.70563,11.8232,1.26009,1.5914,0.162241,-0.130117,-1.16507,-0.733637,3.21632,0.600697,-0.0698613,0.228208
1266653,1,-1.57236,-0.521959,0.00176479,-2.09847,-0.000228373,1.57313,0.784668,-1.57325,-0.522281,0.00190665,-2.09709,0.00105659,1.57489,0.784497,-0.117493,0.0468167,0.099574,-0.132535,0.0217838,0.192102,-0.0370776,-0.178545,0.0895787,0.139677,-0.21248,0.0745315,0.305211,-0.0630094,-1.06139,2.95438,0.733401,11.6724,1.32784,1.52731,0.181467,-0.152313,-1.10221,-0.73523,3.16414,0.604526,-0.0518241,0.228724
1266654,0.99,-1.5725,-0.521903,0.00188553,-2.09862,-0.000189809,1.57337,0.784608,-1.57344,-0.522189,0.002053,-2.09731,0.00113441,1.57521,0.784431,-0.125901,0.051862,0.10637,-0.14145,0.029762,0.212858,-0.0449194,-0.186923,0.0926566,0.146342,-0.22497,0.0778212,0.319817,-0.0656903,-1.06139,3.28366,0.733401,11.5256,1.35072,1.56576,0.265696,-0.16903,-1.03817,-0.727886,3.11276,0.608736,-0.0343455,0.229015
1266655,0.99,-1.57264,-0.52185,0.00200255,-2.09879,-0.000144759,1.57363,0.784552,-1.57363,-0.522093,0.002206,-2.09755,0.00121553,1.57555,0.784363,-0.128011,0.0504572,0.111041,-0.148791,0.0365328,0.225701,-0.0429495,-0.195302,0.0957345,0.153008,-0.23746,0.0811109,0.334424,-0.0683712,-1.23595,3.68832,0.884158,11.2995,1.35622,1.68844,0.272104,-0.183244,-0.973368,-0.715745,3.06152,0.613196,-0.0177473,0.229119
1266656,0.99,-1.57279,-0.521786,0.00213354,-2.09897,-9.31644e-05,1.5739,0.784487,-1.57383,-0.521994,0.00236568,-2.0978,0.00129993,1.5759,0.784292,-0.137432,0.0551078,0.116255,-0.158151,0.0423811,0.240051,-0.0525933,-0.20368,0.0988124,0.159673,-0.24995,0.0844007,0.34903,-0.0710521,-1.3629,3.98984,0.959536,11.0773,1.34523,1.8038,0.316965,-0.197747,-0.904167,-0.702349,3.0077,0.617722,-0.00224321,0.229142
1266657,0.99,-1.57296,-0.521723,0.0022791,-2.09916,-3.54805e-05,1.57419,0.784419,-1.57405,-0.521892,0.00253202,-2.09806,0.00138762,1.57626,0.784218,-0.147777,0.0565642,0.127556,-0.168409,0.0468451,0.257987,-0.0532073,-0.212059,0.10189,0.166339,-0.26244,0.0876904,0.363636,-0.073733,-1.26372,4.3707,0.959536,10.7282,1.32234,1.82943,0.316965,-0.213426,-0.831375,-0.689219,2.95178,0.622313,0.0124605,0.229216
1266658,0.99,-1.57314,-0.521656,0.00241987,-2.09936,2.62762e-05,1.5745,0.784353,-1.57427,-0.521787,0.00270502,-2.09834,0.0014786,1.57664,0.784142,-0.161666,0.0584405,0.132412,-0.178184,0.0508061,0.274957,-0.0572069,-0.220438,0.104968,0.173004,-0.27493,0.0909802,0.378242,-0.0764139,-1.109,4.72379,1.01111,10.3315,1.30586,1.8038,0.278513,-0.229541,-0.756229,-0.676291,2.89472,0.627052,0.0267531,0.229448
1266659,0.99,-1.57332,-0.521589,0.00255987,-2.09958,9.35356e-05,1.57484,0.784277,-1.5745,-0.521679,0.00288469,-2.09863,0.00157287,1.57703,0.784063,-0.167129,0.0635073,0.135995,-0.189648,0.0529342,0.295348,-0.0655375,-0.228816,0.108046,0.179669,-0.28742,0.0942699,0.392848,-0.0790948,-1.13677,5.05307,1.18964,9.95853,1.28298,1.69485,0.259287,-0.243321,-0.680246,-0.659904,2.8373,0.632071,0.0409357,0.229874
1266660,0.99,-1.57351,-0.521514,0.00271195,-2.09982,0.000169962,1.57519,0.78419,-1.57473,-0.521568,0.00307102,-2.09893,0.00167043,1.57744,0.783981,-0.175004,0.0676384,0.141596,-0.202805,0.0612826,0.314435,-0.0692725,-0.237195,0.111124,0.186335,-0.29991,0.0975597,0.407455,-0.0817757,-1.16057,5.35458,1.26502,9.66098,1.22072,1.60421,0.291331,-0.253801,-0.609616,-0.638088,2.78265,0.637412,0.0553482,0.230471
1266661,0.99,-1.57372,-0.52144,0.00287566,-2.10006,0.000245485,1.57557,0.784106,-1.57498,-0.521454,0.00326402,-2.09924,0.00177128,1.57786,0.783897,-0.185299,0.071395,0.14679,-0.21537,0.0649947,0.335991,-0.0747452,-0.245573,0.114202,0.193,-0.3124,0.100849,0.422061,-0.0844567,-1.16057,5.63229,1.28882,9.46262,1.20973,1.41745,0.278513,-0.261622,-0.548908,-0.611436,2.73338,0.642987,0.0701443,0.231194
1266662,0.99,-1.57394,-0.521361,0.00304221,-2.10032,0.000329141,1.57597,0.784022,-1.57523,-0.521337,0.00346429,-2.09956,0.00187568,1.5783,0.783809,-0.197679,0.0726423,0.153089,-0.228379,0.0671277,0.34943,-0.0737544,-0.25455,0.117015,0.200268,-0.32489,0.104406,0.437376,-0.0872818,-1.06139,5.83463,1.3404,9.16111,1.22621,1.3085,0.259287,-0.26578,-0.496799,-0.578917,2.68932,0.648729,0.0851439,0.232012
1266663,0.99,-1.57417,-0.52128,0.0032138,-2.10059,0.00041962,1.57636,0.783932,-1.5755,-0.521217,0.00367183,-2.0999,0.00198364,1.57875,0.783719,-0.2054,0.0765704,0.156541,-0.241937,0.073285,0.363341,-0.0780635,-0.263527,0.119828,0.207536,-0.33738,0.107963,0.452692,-0.0901069,-1.03362,6.03696,1.31262,8.88736,1.24361,1.35336,0.265696,-0.265171,-0.450127,-0.539316,2.64957,0.654581,0.100083,0.232891
1266664,0.99,-1.5744,-0.521199,0.00339495,-2.10087,0.000516273,1.57677,0.783841,-1.57577,-0.521094,0.00388663,-2.10025,0.00209516,1.57922,0.783626,-0.213671,0.0762566,0.162895,-0.255817,0.0794737,0.376204,-0.082439,-0.272504,0.122641,0.214804,-0.34987,0.111519,0.468007,-0.092932,-1.13677,6.23929,1.23725,8.76438,1.22621,1.44949,0.272104,-0.260598,-0.406126,-0.4937,2.61336,0.660437,0.114779,0.233793
1266665,0.99,-1.57463,-0.521115,0.00357398,-2.10117,0.000616831,1.5772,0.783745,-1.57605,-0.520969,0.0041087,-2.10061,0.00221024,1.5797,0.78353,-0.216155,0.0763004,0.170653,-0.264477,0.0827621,0.391639,-0.0855523,-0.281481,0.125454,0.222072,-0.36236,0.115076,0.483323,-0.0957571,-1.31133,6.41782,1.31262,8.61759,1.23812,1.53372,0.284922,-0.256212,-0.357281,-0.447819,2.57656,0.666019,0.128883,0.234707
1266666,0.99,-1.57488,-0.521027,0.00376982,-2.10147,0.000724252,1.57765,0.783643,-1.57634,-0.520841,0.00433804,-2.10099,0.00232887,1.5802,0.783432,-0.224722,0.0793643,0.177622,-0.284694,0.0915528,0.410202,-0.0923089,-0.290457,0.128268,0.22934,-0.37485,0.118632,0.498639,-0.0985823,-1.3391,6.46939,1.3404,8.56601,1.20973,1.56576,0.316965,-0.25695,-0.29939,-0.408558,2.53679,0.671082,0.142324,0.235654
1266667,0.99,-1.57516,-0.520938,0.00397953,-2.1018,0.000837072,1.57813,0.783544,-1.57664,-0.52071,0.00457465,-2.10138,0.00245106,1.58071,0.78333,-0.242258,0.0813722,0.185271,-0.297511,0.100747,0.428981,-0.0923026,-0.299434,0.131081,0.236608,-0.38734,0.122189,0.513954,-0.101407,-1.16057,6.517,1.26502,8.61759,1.22621,1.60421,0.310557,-0.261978,-0.237866,-0.375258,2.49765,0.67576,0.155616,0.236649
1266668,0.99,-1.57543,-0.520844,0.00418448,-2.10214,0.000956447,1.57862,0.783443,-1.57695,-0.520576,0.00481853,-2.10177,0.00257681,1.58124,0.783226,-0.253038,0.0869002,0.191817,-0.309319,0.104968,0.450624,-0.0968186,-0.308411,0.133894,0.243876,-0.39983,0.125745,0.52927,-0.104233,-1.06139,6.517,1.28882,8.6652,1.24361,1.57217,0.291331,-0.266339,-0.177832,-0.342023,2.46079,0.680324,0.168977,0.237698
1266669,0.99,-1.57571,-0.520754,0.00439656,-2.10248,0.00108378,1.57913,0.783345,-1.57727,-0.520439,0.00506967,-2.10219,0.00270611,1.58179,0.783119,-0.259638,0.0896185,0.196043,-0.321603,0.116768,0.465868,-0.0990927,-0.317388,0.136707,0.251144,-0.41232,0.129302,0.544585,-0.107058,-1.13677,6.56857,1.31262,8.71677,1.23812,1.53372,0.259287,-0.268064,-0.121534,-0.306293,2.4251,0.684831,0.182277,0.238804
1266670,0.99,-1.576,-0.520655,0.00462352,-2.10285,0.00121744,1.57965,0.783238,-1.57759,-0.520299,0.00532808,-2.10261,0.00283897,1.58235,0.783009,-0.271982,0.0932122,0.207612,-0.335096,0.121684,0.483368,-0.101987,-0.326365,0.13952,0.258412,-0.42481,0.132859,0.559901,-0.109883,-1.06139,6.54477,1.3404,8.83976,1.22072,1.48794,0.252878,-0.268796,-0.0694789,-0.270276,2.3903,0.689192,0.195504,0.239944
1266671,0.99,-1.57631,-0.520553,0.00484942,-2.10323,0.00134824,1.5802,0.783124,-1.57793,-0.520157,0.00559376,-2.10305,0.00297538,1.58292,0.782897,-0.279697,0.0992049,0.211705,-0.346717,0.124411,0.501207,-0.106401,-0.335342,0.142333,0.26568,-0.4373,0.136415,0.575216,-0.112708,-1.03362,6.517,1.3642,8.88736,1.21523,1.44308,0.291331,-0.270116,-0.0230502,-0.236533,2.35727,0.693374,0.20865,0.241078
1266672,0.99,-1.57662,-0.520442,0.00507616,-2.10361,0.00147736,1.58077,0.783015,-1.57827,-0.520012,0.00586706,-2.1035,0.00311549,1.58351,0.782781,-0.289424,0.102014,0.218456,-0.35708,0.124777,0.518757,-0.106575,-0.34458,0.144991,0.273302,-0.44979,0.140106,0.590468,-0.115587,-0.958241,6.41782,1.49115,8.88736,1.2491,1.39822,0.252878,-0.271585,0.016613,-0.204271,2.32607,0.697428,0.221498,0.242181
1266673,0.99,-1.57695,-0.520329,0.00531894,-2.10402,0.00161433,1.58136,0.782904,-1.57863,-0.519865,0.00614799,-2.10396,0.00325928,1.58412,0.782663,-0.297295,0.105736,0.226544,-0.368593,0.130517,0.536848,-0.105706,-0.353819,0.14765,0.280925,-0.46228,0.143796,0.605719,-0.118467,-0.910633,6.36624,1.51892,8.93894,1.2491,1.35336,0.194285,-0.273189,0.0525913,-0.1732,2.29471,0.701329,0.233661,0.243247
1266674,0.99,-1.57729,-0.520222,0.00558097,-2.10443,0.00176278,1.58195,0.782798,-1.57899,-0.519714,0.00643654,-2.10444,0.00340677,1.58474,0.782541,-0.313859,0.106303,0.233945,-0.382086,0.133839,0.551523,-0.105665,-0.363057,0.150308,0.288548,-0.47477,0.147487,0.62097,-0.121346,-0.78368,6.41782,1.46735,8.88736,1.18685,1.37258,0.135691,-0.274555,0.0890727,-0.143232,2.26182,0.705087,0.244928,0.244222
1266675,0.99,-1.57764,-0.520114,0.00583911,-2.10485,0.00191218,1.58256,0.782688,-1.57936,-0.519561,0.00673271,-2.10492,0.00355795,1.58538,0.782417,-0.325625,0.106742,0.242253,-0.392938,0.138943,0.577672,-0.111954,-0.372295,0.152967,0.296171,-0.48726,0.151177,0.636222,-0.124225,-0.807484,6.46939,1.56653,8.86356,1.15846,1.41745,0.122873,-0.273177,0.131598,-0.111723,2.2257,0.708798,0.255097,0.244973
1266676,0.99,-1.57799,-0.520003,0.00610709,-2.10529,0.00206004,1.58317,0.782578,-1.57974,-0.519406,0.0070365,-2.10542,0.00371281,1.58603,0.78229,-0.333174,0.110024,0.252875,-0.404828,0.140812,0.586541,-0.111557,-0.381534,0.155625,0.303794,-0.49975,0.154867,0.651473,-0.127105,-0.807484,6.54477,1.61811,8.86356,1.18685,1.47512,0.0972387,-0.269897,0.184025,-0.0803066,2.18468,0.712342,0.264017,0.245379
1266677,0.99,-1.57837,-0.519889,0.00639298,-2.10573,0.00221649,1.58381,0.782456,-1.58013,-0.519247,0.00734792,-2.10594,0.00387137,1.58669,0.78216,-0.347769,0.110509,0.262683,-0.414192,0.146901,0.598909,-0.117991,-0.390772,0.158283,0.311417,-0.51224,0.158558,0.666724,-0.129984,-0.605152,6.56857,1.56653,8.74057,1.20973,1.51449,0.135691,-0.268002,0.246385,-0.0536073,2.13885,0.715474,0.271915,0.245375
1266678,0.99,-1.57875,-0.519754,0.00667307,-2.10619,0.00236817,1.58446,0.782338,-1.58053,-0.519086,0.00766696,-2.10646,0.00403362,1.58738,0.782027,-0.357749,0.118972,0.271284,-0.423878,0.149867,0.615609,-0.121271,-0.40001,0.160942,0.319039,-0.52473,0.162248,0.681976,-0.132863,-0.478199,6.36624,1.61811,8.64139,1.29946,1.49526,0.149424,-0.267719,0.315076,-0.032019,2.08923,0.718163,0.279109,0.244943
1266679,0.99,-1.57913,-0.51962,0.0069692,-2.10665,0.00252498,1.58514,0.782217,-1.58094,-0.518923,0.00799362,-2.107,0.00419956,1.58807,0.781891,-0.366704,0.12715,0.279498,-0.434421,0.154456,0.628923,-0.119867,-0.409249,0.1636,0.326662,-0.53722,0.165939,0.697227,-0.135743,-0.557545,6.21548,1.72126,8.49063,1.32234,1.41104,0.175059,-0.268431,0.378404,-0.0144964,2.04005,0.72056,0.286004,0.244136
1266680,0.99,-1.57955,-0.519485,0.00728468,-2.10713,0.0026899,1.58583,0.7821,-1.58136,-0.518757,0.00832791,-2.10755,0.00436919,1.58879,0.781753,-0.383966,0.130743,0.29014,-0.445919,0.155003,0.648093,-0.115899,-0.418487,0.166259,0.334285,-0.54971,0.169629,0.712478,-0.138622,-0.303639,6.16391,1.64191,8.36765,1.29396,1.35336,0.122873,-0.269198,0.427011,0.000252739,1.99529,0.722921,0.292924,0.243048
1266681,0.99,-1.57996,-0.519346,0.00759993,-2.10762,0.00285371,1.58653,0.781977,-1.58179,-0.518588,0.00866981,-2.10811,0.00454251,1.58951,0.781611,-0.394215,0.1335,0.297897,-0.453392,0.15453,0.664584,-0.122372,-0.427726,0.168917,0.341908,-0.5622,0.17332,0.72773,-0.141502,-0.176685,6.11234,1.56653,8.19309,1.28298,1.34695,0.0844213,-0.267832,0.464655,0.0148831,1.9528,0.725478,0.299597,0.241742
1266682,0.99,-1.58038,-0.519208,0.00791805,-2.10811,0.00301792,1.58726,0.781844,-1.58223,-0.518416,0.00901951,-2.10868,0.00471955,1.59026,0.781467,-0.401675,0.135527,0.301165,-0.466018,0.152973,0.683852,-0.12553,-0.436969,0.171216,0.349693,-0.57469,0.177041,0.742677,-0.144373,-0.152882,6.06473,1.69348,8.01853,1.29946,1.26913,0.0972387,-0.262837,0.499857,0.031927,1.90813,0.728307,0.305538,0.24022
1266683,0.99,-1.58081,-0.519064,0.00823585,-2.10862,0.00319457,1.58799,0.781716,-1.58267,-0.518243,0.00937699,-2.10927,0.00490031,1.59101,0.78132,-0.420171,0.14011,0.307537,-0.477448,0.158382,0.702742,-0.129588,-0.446212,0.173515,0.357478,-0.58718,0.180762,0.757625,-0.147244,-0.0497324,6.01315,1.69348,7.84397,1.27199,1.21786,0.0459692,-0.251376,0.535496,0.05598,1.86039,0.731535,0.310634,0.238441
1266684,0.99,-1.58125,-0.518923,0.00857355,-2.10915,0.00337957,1.58875,0.781584,-1.58313,-0.518067,0.00974225,-2.10987,0.0050848,1.59179,0.781169,-0.420109,0.144234,0.322399,-0.488777,0.168054,0.71706,-0.129728,-0.455455,0.175814,0.365264,-0.59967,0.184484,0.772572,-0.150115,-0.101307,6.03696,1.66968,7.74479,1.22072,1.16659,0.0258276,-0.235075,0.569385,0.0845946,1.81126,0.73505,0.315001,0.236383
1266685,0.99,-1.58168,-0.518781,0.00891992,-2.10968,0.00356021,1.58954,0.781451,-1.58359,-0.517889,0.0101153,-2.11048,0.005273,1.59257,0.781016,-0.426496,0.144606,0.329729,-0.501235,0.171397,0.734396,-0.129747,-0.464698,0.178113,0.373049,-0.61216,0.188205,0.787519,-0.152987,-0.279835,6.08853,1.66968,7.69718,1.25459,1.17941,0.0130102,-0.223331,0.60228,0.104879,1.76102,0.738302,0.318672,0.234051
1266686,0.99,-1.58213,-0.518631,0.00927438,-2.11024,0.00374495,1.59031,0.781316,-1.58407,-0.517709,0.0104961,-2.11111,0.00546493,1.59338,0.780861,-0.435794,0.144149,0.338359,-0.513194,0.169289,0.750413,-0.133727,-0.473941,0.180412,0.380834,-0.62465,0.191926,0.802467,-0.155858,-0.303639,6.03696,1.54273,7.66941,1.23812,1.27554,-0.00621587,-0.220148,0.640578,0.111983,1.70765,0.741018,0.321514,0.231424
1266687,0.99,-1.5826,-0.518483,0.00964498,-2.1108,0.00393131,1.59111,0.781177,-1.58455,-0.517526,0.0108848,-2.11174,0.00566058,1.59419,0.780702,-0.446613,0.147576,0.344553,-0.528796,0.173235,0.761892,-0.137244,-0.483184,0.182711,0.388619,-0.63714,0.195648,0.817414,-0.158729,-0.279835,5.96158,1.3642,7.74479,1.26009,1.34054,-0.0318506,-0.221885,0.68695,0.111402,1.65128,0.743391,0.323689,0.228469
1266688,0.99,-1.58307,-0.518326,0.010011,-2.11139,0.00411953,1.59193,0.781031,-1.58504,-0.517341,0.0112812,-2.11239,0.00585994,1.59503,0.78054,-0.45257,0.150961,0.356686,-0.542124,0.177604,0.78169,-0.140529,-0.492427,0.18501,0.396404,-0.64963,0.199369,0.832362,-0.1616,-0.379017,5.83463,1.3404,7.91935,1.28298,1.28836,-0.0318506,-0.226675,0.735597,0.105779,1.59599,0.745592,0.325793,0.225171
1266689,0.99,-1.58354,-0.518168,0.0103934,-2.11199,0.00431414,1.59279,0.780878,-1.58554,-0.517154,0.0116853,-2.11306,0.00606303,1.59587,0.780376,-0.454954,0.153726,0.366099,-0.563655,0.180529,0.802229,-0.147906,-0.50167,0.187309,0.40419,-0.66212,0.20309,0.847309,-0.164471,-0.557545,5.70767,1.26502,8.19309,1.28298,1.19223,0.0130102,-0.237961,0.778796,0.0903788,1.54714,0.7476,0.328432,0.221552
1266690,0.99,-1.58403,-0.518005,0.010792,-2.11259,0.00452335,1.59365,0.780727,-1.58605,-0.516964,0.0120973,-2.11373,0.00626985,1.59674,0.780208,-0.467655,0.155501,0.374691,-0.578613,0.189215,0.814765,-0.148201,-0.510913,0.189608,0.411975,-0.67461,0.206812,0.862257,-0.167343,-0.656727,5.58469,1.11029,8.41526,1.22072,1.16659,0.00660151,-0.257634,0.811816,0.06281,1.50931,0.749468,0.332051,0.217662
1266691,0.99,-1.5845,-0.517833,0.0111987,-2.11322,0.00473018,1.59451,0.780576,-1.58658,-0.516772,0.0125171,-2.11442,0.00648038,1.59761,0.780038,-0.469801,0.160713,0.383915,-0.592226,0.193313,0.832448,-0.145104,-0.520156,0.191907,0.41976,-0.6871,0.210533,0.877204,-0.170214,-0.859058,5.40616,0.98334,8.56601,1.23171,1.173,-0.0648096,-0.28377,0.833642,0.0260797,1.48315,0.75125,0.336604,0.213563
1266692,0.99,-1.58501,-0.51766,0.0116092,-2.11385,0.00493882,1.59539,0.780413,-1.5871,-0.516578,0.0129446,-2.11512,0.00669459,1.59851,0.779865,-0.479473,0.16485,0.39194,-0.604792,0.197143,0.838584,-0.151963,-0.529206,0.193697,0.427557,-0.69959,0.214209,0.891703,-0.173035,-0.958241,5.22763,0.907962,8.58982,1.24361,1.19223,-0.0510767,-0.315499,0.8438,-0.018034,1.46706,0.752852,0.341757,0.209301
1266693,0.99,-1.58551,-0.517489,0.0120463,-2.11452,0.00515516,1.59627,0.780248,-1.58764,-0.516383,0.01338,-2.11583,0.00691247,1.59941,0.779689,-0.489042,0.168569,0.407435,-0.622385,0.20507,0.866772,-0.156745,-0.538255,0.195487,0.435355,-0.71208,0.217885,0.906201,-0.175856,-1.109,5.15225,0.733401,8.689,1.22072,1.34695,-0.0318506,-0.352685,0.841558,-0.069442,1.46036,0.754239,0.347317,0.204877
1266694,0.99,-1.58602,-0.51732,0.0124802,-2.1152,0.005374,1.59716,0.780074,-1.58819,-0.516186,0.0138231,-2.11655,0.00713403,1.60033,0.779511,-0.490904,0.165871,0.414481,-0.637897,0.206759,0.871577,-0.164763,-0.547305,0.197276,0.443152,-0.72457,0.221561,0.9207,-0.178677,-1.21215,5.18002,0.606448,8.76438,1.18685,1.48794,0.038645,-0.396699,0.831467,-0.130288,1.46154,0.755362,0.353205,0.200305
1266695,0.99,-1.58654,-0.517149,0.0129186,-2.11588,0.00559463,1.59808,0.779898,-1.58875,-0.515986,0.0142741,-2.11729,0.00735927,1.60127,0.779329,-0.495029,0.168712,0.414422,-0.652289,0.211822,0.883731,-0.168719,-0.556355,0.199066,0.450949,-0.73706,0.225237,0.935198,-0.181498,-1.41448,5.15225,0.658023,8.81595,1.16945,1.5209,0.122873,-0.44643,0.821856,-0.197528,1.46734,0.756203,0.35956,0.195652
1266696,0.99,-1.58706,-0.516971,0.013363,-2.11659,0.00583235,1.599,0.779722,-1.58931,-0.515786,0.0147328,-2.11804,0.00758818,1.60222,0.779145,-0.505603,0.16807,0.42595,-0.664645,0.221862,0.895537,-0.168978,-0.565404,0.200856,0.458747,-0.74955,0.228912,0.949697,-0.184319,-1.48986,5.10068,0.554873,8.86356,1.15297,1.48153,0.135691,-0.497153,0.818089,-0.263172,1.47429,0.756812,0.36651,0.191038
1266697,0.99,-1.5876,-0.51679,0.0138293,-2.1173,0.00607138,1.59996,0.779546,-1.58989,-0.515583,0.0151994,-2.1188,0.00782077,1.60318,0.778958,-0.512426,0.170736,0.433915,-0.694695,0.227685,0.914079,-0.176454,-0.574454,0.202646,0.466544,-0.76204,0.232588,0.964195,-0.18714,-1.54143,4.92612,0.479495,8.86356,1.14748,1.40463,0.135691,-0.547227,0.817717,-0.325367,1.48475,0.757256,0.374502,0.186645
1266698,0.99,-1.58816,-0.516612,0.0142945,-2.11803,0.00631192,1.60092,0.779361,-1.59047,-0.515379,0.0156737,-2.11958,0.00805703,1.60416,0.778768,-0.523027,0.174038,0.440491,-0.702741,0.234378,0.924942,-0.183326,-0.583504,0.204436,0.474342,-0.77453,0.236264,0.978694,-0.189961,-1.54143,4.82297,0.503299,8.83976,1.10719,1.43667,0.149424,-0.596017,0.812757,-0.383895,1.50463,0.757687,0.384089,0.182628
1266699,0.99,-1.58872,-0.516423,0.0147575,-2.11877,0.00655223,1.60189,0.779168,-1.59106,-0.515172,0.0161559,-2.12036,0.00829698,1.60515,0.778575,-0.534594,0.177612,0.445015,-0.709855,0.237573,0.937819,-0.183473,-0.592553,0.206225,0.482139,-0.78702,0.23994,0.993192,-0.192781,-1.51366,4.67221,0.554873,8.74057,1.09072,1.4559,0.155832,-0.639652,0.803693,-0.433497,1.52918,0.758131,0.394543,0.179037
1266700,0.99,-1.58929,-0.516242,0.015238,-2.11952,0.00679984,1.60289,0.778976,-1.59166,-0.514964,0.0166458,-2.12116,0.00854059,1.60616,0.778379,-0.54271,0.180277,0.456472,-0.719923,0.239948,0.949549,-0.190429,-0.601603,0.208015,0.489936,-0.79951,0.243616,1.00769,-0.195602,-1.43828,4.64841,0.630252,8.6652,1.07332,1.39181,0.187876,-0.676101,0.797204,-0.471602,1.54866,0.758415,0.404668,0.175884
1266701,0.99,-1.58987,-0.516051,0.0157075,-2.12027,0.00705176,1.6039,0.778791,-1.59227,-0.514754,0.0171435,-2.12198,0.00878788,1.60718,0.778181,-0.557698,0.182699,0.469553,-0.727355,0.24499,0.974699,-0.186365,-0.610653,0.209805,0.497734,-0.812,0.247292,1.02219,-0.198423,-1.43828,4.59683,0.832583,8.54221,1.09621,1.16659,0.110056,-0.70817,0.797658,-0.503171,1.55776,0.758298,0.413719,0.173192
1266702,0.99,-1.59045,-0.515865,0.0161907,-2.12105,0.00730911,1.60492,0.778595,-1.59289,-0.514544,0.017649,-2.1228,0.00903876,1.60822,0.77798,-0.573723,0.189185,0.470689,-0.73879,0.246179,0.987268,-0.187131,-0.619354,0.210983,0.505422,-0.82449,0.250876,1.03615,-0.201168,-1.3629,4.59683,1.01111,8.56601,1.06783,1.12173,0.110056,-0.734341,0.804499,-0.527099,1.55505,0.757831,0.42118,0.170917
1266703,0.99,-1.59106,-0.515675,0.0166902,-2.12183,0.00756265,1.60594,0.778394,-1.59352,-0.514331,0.0181621,-2.12364,0.00929322,1.60927,0.777776,-0.582698,0.188862,0.479404,-0.748502,0.24426,0.991208,-0.192934,-0.628055,0.212162,0.513111,-0.83698,0.25446,1.05011,-0.203912,-1.26372,4.59683,0.98334,8.51841,1.1017,1.19223,0.129282,-0.749383,0.814242,-0.535782,1.5428,0.757315,0.427018,0.168942
1266704,0.99,-1.59166,-0.515478,0.0171829,-2.12263,0.0078178,1.60696,0.778188,-1.59416,-0.514118,0.0186829,-2.12449,0.00955126,1.61033,0.777569,-0.588802,0.189681,0.483602,-0.758831,0.242892,0.997078,-0.199769,-0.636756,0.21334,0.520799,-0.84947,0.258044,1.06408,-0.206656,-1.08519,4.54526,1.06269,8.54221,1.1017,1.34695,0.09083,-0.754498,0.830118,-0.529813,1.52176,0.756767,0.43139,0.167195
1266705,0.99,-1.59229,-0.515279,0.0176829,-2.12344,0.0080812,1.608,0.777979,-1.5948,-0.513903,0.0192114,-2.12535,0.00981289,1.61141,0.77736,-0.597916,0.192228,0.484901,-0.774089,0.248167,1.00299,-0.201292,-0.645457,0.214518,0.528488,-0.86196,0.261628,1.07804,-0.2094,-1.06139,4.4183,1.16187,8.689,1.10719,1.42385,0.103647,-0.75201,0.854096,-0.51138,1.49368,0.756166,0.434749,0.165629
1266706,0.99,-1.59292,-0.515077,0.018186,-2.12427,0.00834947,1.60906,0.777769,-1.59546,-0.513688,0.0197475,-2.12622,0.0100781,1.6125,0.777148,-0.60714,0.196674,0.496329,-0.791312,0.256943,1.04395,-0.202158,-0.654157,0.215697,0.536176,-0.87445,0.265212,1.092,-0.212144,-0.986012,4.16837,1.28882,8.83976,1.15297,1.41745,0.103647,-0.742761,0.878698,-0.481612,1.46484,0.755639,0.43781,0.164162
1266707,0.99,-1.59355,-0.514876,0.0186929,-2.12512,0.00861773,1.61015,0.777557,-1.59612,-0.513471,0.0202914,-2.12711,0.0103469,1.61361,0.776933,-0.621412,0.195613,0.498395,-0.805767,0.258442,1.05744,-0.210172,-0.662858,0.216875,0.543865,-0.88694,0.268796,1.10596,-0.214888,-0.859058,3.96603,1.41577,9.08969,1.16945,1.27554,0.0844213,-0.727904,0.898586,-0.4431,1.43945,0.755323,0.440866,0.162727
1266708,0.99,-1.59421,-0.514681,0.0192145,-2.12599,0.00889292,1.61126,0.777352,-1.59679,-0.513253,0.0208429,-2.12801,0.0106193,1.61473,0.776715,-0.626459,0.192823,0.507667,-0.827163,0.261495,1.07238,-0.212125,-0.671559,0.218053,0.551553,-0.89943,0.27238,1.11992,-0.217633,-0.632923,3.83908,1.5943,9.51023,1.1136,1.22427,0.0258276,-0.707769,0.917289,-0.396898,1.41839,0.755358,0.444135,0.161289
1266709,0.99,-1.59487,-0.514479,0.0197271,-2.12687,0.00916288,1.61236,0.777148,-1.59747,-0.513034,0.0214022,-2.12892,0.0108952,1.61586,0.776495,-0.621088,0.195477,0.510147,-0.842065,0.265954,1.08513,-0.210852,-0.68026,0.219232,0.559242,-0.91192,0.275964,1.13389,-0.220377,-0.430592,3.7637,1.74506,9.85935,1.1017,1.14736,-0.0712183,-0.687858,0.937361,-0.349908,1.40372,0.755589,0.447962,0.159825
1266710,0.99,-1.59555,-0.51427,0.0202597,-2.12777,0.0094333,1.61348,0.77694,-1.59816,-0.512813,0.0219691,-2.12985,0.0111748,1.61701,0.776272,-0.638132,0.198485,0.513801,-0.86101,0.268636,1.09358,-0.207319,-0.688961,0.22041,0.56693,-0.92441,0.279548,1.14785,-0.223121,-0.279835,3.5336,1.92359,10.1807,1.14198,1.04391,-0.161856,-0.671083,0.953383,-0.305437,1.39928,0.755858,0.452571,0.158226
1266711,0.99,-1.59624,-0.514059,0.020801,-2.12869,0.00971169,1.61464,0.776719,-1.59886,-0.512592,0.0225437,-2.13078,0.0114579,1.61817,0.776046,-0.648103,0.202956,0.518627,-0.879939,0.270408,1.11104,-0.212239,-0.697662,0.221588,0.574619,-0.9369,0.283132,1.16181,-0.225865,-0.252064,3.33524,2.05054,10.5814,1.18685,0.812281,-0.155447,-0.650914,0.955884,-0.255549,1.41012,0.756441,0.458135,0.156268
1266712,0.99,-1.59692,-0.513844,0.0213348,-2.12962,0.00998447,1.61574,0.77651,-1.59957,-0.51237,0.0231258,-2.13173,0.0117445,1.61935,0.775817,-0.66325,0.20761,0.526877,-0.891173,0.269919,1.10788,-0.218257,-0.705893,0.222095,0.582102,-0.94939,0.286596,1.17519,-0.228517,-0.204456,3.08133,2.09815,10.7282,1.16396,1.01187,-0.193899,-0.622475,0.938709,-0.19523,1.43873,0.757598,0.464476,0.153755
1266713,0.99,-1.59762,-0.513624,0.0218779,-2.13055,0.0102523,1.61687,0.776289,-1.60028,-0.512147,0.0237154,-2.13269,0.0120346,1.62054,0.775586,-0.67142,0.211495,0.528601,-0.902021,0.266803,1.10453,-0.216262,-0.714123,0.222602,0.589585,-0.96188,0.290059,1.18856,-0.231168,-0.204456,2.80362,2.25287,10.8036,1.20333,1.32772,-0.174673,-0.584838,0.9031,-0.123873,1.48198,0.75931,0.471068,0.150592
1266714,0.99,-1.59833,-0.513409,0.0224295,-2.1315,0.0105291,1.61801,0.77607,-1.601,-0.511924,0.0243125,-2.13367,0.0123281,1.62174,0.775352,-0.680904,0.211482,0.538229,-0.908416,0.271867,1.1121,-0.214563,-0.722354,0.22311,0.597067,-0.97437,0.293523,1.20194,-0.23382,-0.125111,2.62509,2.27667,10.6528,1.22621,1.46871,-0.149038,-0.539519,0.858561,-0.0431888,1.53174,0.761334,0.477312,0.14675
1266715,0.99,-1.59904,-0.513193,0.0229925,-2.13245,0.0108102,1.6192,0.77585,-1.60173,-0.5117,0.024917,-2.13466,0.0126251,1.62295,0.775116,-0.68209,0.212554,0.543543,-0.943025,0.278281,1.12603,-0.21419,-0.730585,0.223617,0.60455,-0.98686,0.296986,1.21531,-0.236471,-0.152882,2.42276,2.2251,10.5536,1.26009,1.36618,-0.116079,-0.492528,0.811182,0.0391515,1.58586,0.763431,0.483551,0.14228
1266716,0.99,-1.59977,-0.512975,0.0235691,-2.13341,0.0111157,1.62039,0.775622,-1.60247,-0.511476,0.0255291,-2.13565,0.0129255,1.62418,0.774877,-0.691271,0.210717,0.548478,-0.946935,0.28661,1.13776,-0.218639,-0.738815,0.224124,0.612033,-0.99935,0.30045,1.22868,-0.239123,-0.176685,2.19662,2.25287,10.3077,1.1191,1.35336,-0.0648096,-0.448865,0.761633,0.116904,1.64738,0.765571,0.490641,0.137309
1266717,0.99,-1.6005,-0.51276,0.0241511,-2.13438,0.0114141,1.62159,0.775396,-1.60322,-0.511251,0.0261486,-2.13667,0.0132295,1.62542,0.774635,-0.708189,0.21279,0.560336,-0.953193,0.289851,1.15455,-0.221064,-0.747046,0.224631,0.619516,-1.01184,0.303913,1.24206,-0.241774,-0.152882,2.09348,2.2013,9.95853,1.00008,1.26272,-0.044668,-0.408015,0.720471,0.190531,1.70627,0.767599,0.497698,0.13198
1266718,0.99,-1.60126,-0.512548,0.0247438,-2.13534,0.0117175,1.62282,0.775186,-1.60397,-0.511026,0.0267756,-2.13769,0.0135368,1.62668,0.77439,-0.726287,0.211923,0.573895,-0.952819,0.293754,1.17293,-0.21813,-0.755276,0.225138,0.626999,-1.02433,0.307377,1.25543,-0.244425,0.0256461,1.96652,2.14972,9.58561,0.966203,1.06954,-0.155447,-0.367927,0.701493,0.261003,1.74621,0.769139,0.502852,0.126458
1266719,0.99,-1.602,-0.512323,0.0253456,-2.13634,0.0120087,1.62405,0.774969,-1.60474,-0.510801,0.0274101,-2.13873,0.0138477,1.62795,0.774143,-0.752452,0.215783,0.595348,-0.962495,0.289901,1.19263,-0.212826,-0.763507,0.225645,0.634481,-1.03682,0.310841,1.26881,-0.247077,-0.0259286,1.76419,2.05054,9.41105,1.1136,0.876368,-0.219534,-0.328009,0.708882,0.326224,1.75944,0.76988,0.504953,0.120857
1266720,0.99,-1.60276,-0.512097,0.0259544,-2.13734,0.0123038,1.62531,0.774747,-1.60551,-0.510575,0.028052,-2.13978,0.014162,1.62923,0.773894,-0.757172,0.217768,0.595027,-0.969702,0.290437,1.20585,-0.211064,-0.771737,0.226153,0.641964,-1.04931,0.314304,1.28218,-0.249728,-0.101307,1.48648,1.99897,9.23648,1.19234,0.721644,-0.23876,-0.287377,0.735837,0.386154,1.74834,0.769845,0.50384,0.115154
1266721,0.99,-1.60353,-0.511867,0.0265769,-2.13835,0.0126128,1.62657,0.774507,-1.60629,-0.510348,0.0287015,-2.14084,0.0144797,1.63053,0.773641,-0.759659,0.224187,0.604246,-0.979274,0.294408,1.21065,-0.221926,-0.779968,0.22666,0.649447,-1.0618,0.317768,1.29556,-0.25238,-0.204456,1.26035,1.92359,9.33567,1.16396,0.831508,-0.161856,-0.247069,0.770254,0.442039,1.72034,0.769225,0.499977,0.109264
1266722,0.99,-1.6043,-0.511635,0.0271972,-2.13937,0.0129198,1.62783,0.774252,-1.60708,-0.510121,0.0293581,-2.14191,0.0148008,1.63183,0.773386,-0.766477,0.224791,0.609092,-0.983425,0.296818,1.2197,-0.233584,-0.787633,0.226476,0.656647,-1.07429,0.321093,1.30832,-0.25493,-0.327442,1.05801,1.84424,9.28806,1.13008,0.954188,0.000192821,-0.211103,0.804454,0.491577,1.68046,0.768102,0.493795,0.103184
1266723,0.99,-1.60508,-0.51141,0.0278167,-2.14041,0.0132369,1.62912,0.77402,-1.60787,-0.509895,0.030022,-2.143,0.0151253,1.63316,0.773129,-0.774073,0.22325,0.606785,-1.00468,0.307085,1.22958,-0.233226,-0.795298,0.226291,0.663848,-1.08678,0.324419,1.32108,-0.25748,-0.402821,0.958832,1.94739,9.38724,1.14198,1.05032,-0.0382593,-0.178264,0.837826,0.538383,1.63222,0.766685,0.485899,0.0970296
1266724,0.99,-1.60589,-0.511192,0.0284656,-2.14147,0.013571,1.63039,0.773783,-1.60867,-0.509669,0.030693,-2.1441,0.015453,1.63449,0.772869,-0.783617,0.218645,0.61729,-1.02387,0.315688,1.25972,-0.232914,-0.802963,0.226107,0.671048,-1.09927,0.327744,1.33384,-0.26003,-0.204456,1.00644,1.87201,9.48642,1.04585,1.29476,-0.103262,-0.144556,0.871526,0.588956,1.58206,0.765317,0.477364,0.0909799
1266725,0.99,-1.60671,-0.510964,0.0291045,-2.14256,0.0138974,1.6317,0.773534,-1.60949,-0.509443,0.0313713,-2.14521,0.0157841,1.63584,0.772606,-0.793306,0.221852,0.621773,-1.03687,0.319431,1.27037,-0.242029,-0.810629,0.225923,0.678248,-1.11176,0.33107,1.34659,-0.26258,0.101024,0.931061,1.89582,9.5618,0.97719,1.41745,-0.0648096,-0.110259,0.904845,0.642409,1.5352,0.76413,0.469085,0.0851558
1266726,0.99,-1.60753,-0.510742,0.0297482,-2.14364,0.0142361,1.63304,0.773283,-1.6103,-0.509217,0.0320567,-2.14634,0.0161185,1.6372,0.772341,-0.797329,0.221618,0.627916,-1.04801,0.326786,1.29147,-0.245845,-0.818294,0.225739,0.685449,-1.12425,0.334395,1.35935,-0.26513,0.251781,0.831879,2.05054,9.66098,0.898454,1.47512,-0.0904444,-0.0766897,0.935652,0.696227,1.49228,0.762965,0.46154,0.0795885
1266727,0.99,-1.60834,-0.510518,0.0303898,-2.14475,0.0145767,1.63439,0.773021,-1.61113,-0.508992,0.0327494,-2.14747,0.0164562,1.63857,0.772073,-0.806056,0.221203,0.632371,-1.06039,0.332285,1.31459,-0.247154,-0.825959,0.225555,0.692649,-1.13674,0.337721,1.37211,-0.267679,0.303356,0.728729,2.14972,9.80777,0.836199,1.32772,-0.0510767,-0.044471,0.965138,0.74917,1.45073,0.761518,0.454841,0.0742738
1266728,0.99,-1.60917,-0.510295,0.0310545,-2.14584,0.0149129,1.63576,0.772762,-1.61196,-0.508766,0.0334492,-2.14862,0.0167972,1.63995,0.771803,-0.815017,0.223702,0.639264,-1.07561,0.332898,1.33314,-0.248166,-0.833624,0.22537,0.699849,-1.14923,0.341046,1.38487,-0.270229,0.350963,0.526398,2.07434,9.83554,0.853594,1.21786,-0.0126246,-0.0127749,0.993609,0.801616,1.40986,0.759592,0.449031,0.0692025
1266729,0.99,-1.61001,-0.510074,0.0317264,-2.14696,0.0152445,1.63714,0.772512,-1.6128,-0.508541,0.0341563,-2.14978,0.0171416,1.64135,0.77153,-0.820637,0.22354,0.645043,-1.08656,0.329352,1.34739,-0.242254,-0.841289,0.225186,0.70705,-1.16172,0.344372,1.39763,-0.272779,0.303356,0.399445,2.09815,9.73636,0.983598,1.26272,-0.10967,0.0190732,1.01775,0.853703,1.37189,0.757122,0.444222,0.0644154
1266730,0.99,-1.61084,-0.509865,0.0324008,-2.1481,0.0155824,1.63851,0.772246,-1.61365,-0.508316,0.0348705,-2.15096,0.0174893,1.64276,0.771255,-0.826588,0.220611,0.649976,-1.09582,0.33323,1.36249,-0.251481,-0.848954,0.225002,0.71425,-1.17421,0.347697,1.41039,-0.275329,0.303356,0.399445,1.97119,9.78397,1.07973,1.32131,-0.0840357,0.0500842,1.04165,0.904016,1.33435,0.754037,0.440016,0.0599384
1266731,0.99,-1.61169,-0.509657,0.0331025,-2.14924,0.0159365,1.63991,0.771981,-1.61451,-0.508091,0.035592,-2.15214,0.0178403,1.64418,0.770977,-0.829184,0.218479,0.666703,-1.1105,0.334702,1.36137,-0.253758,-0.856619,0.224818,0.72145,-1.1867,0.351023,1.42315,-0.277879,0.200207,0.399445,1.72126,10.0061,1.09621,1.35977,-0.0968531,0.0754648,1.07337,0.945885,1.29346,0.750279,0.436151,0.055742
1266732,0.99,-1.61252,-0.509443,0.0338029,-2.15041,0.0162841,1.64132,0.771708,-1.61537,-0.507867,0.0363203,-2.15334,0.0181945,1.64562,0.770697,-0.849699,0.214274,0.67989,-1.12597,0.336796,1.3757,-0.256322,-0.863649,0.22396,0.728305,-1.19919,0.354199,1.43528,-0.280321,-0.0775034,0.375641,1.51892,10.1569,1.16396,1.34054,-0.0840357,0.0901717,1.1157,0.970696,1.25062,0.745988,0.433043,0.0517974
1266733,0.99,-1.61337,-0.509231,0.0345224,-2.15158,0.0166426,1.64276,0.771428,-1.61624,-0.507644,0.0370554,-2.15455,0.0185519,1.64707,0.770414,-0.850126,0.213363,0.694068,-1.16398,0.341551,1.39072,-0.262133,-0.870678,0.223103,0.73516,-1.21168,0.357376,1.44741,-0.282763,-0.402821,0.399445,1.26502,10.4306,1.07332,1.32131,0.0194189,0.0934684,1.16047,0.975479,1.21649,0.74168,0.43187,0.048081
1266734,0.98,-1.61424,-0.509014,0.0352639,-2.1528,0.0170066,1.6442,0.771174,-1.61712,-0.507422,0.0377975,-2.15578,0.0189124,1.64853,0.770129,-0.855619,0.215137,0.702051,-1.18018,0.343811,1.3981,-0.254661,-0.877708,0.222246,0.742014,-1.22417,0.360552,1.45955,-0.285205,-0.50597,0.324066,0.98334,10.9543,1.02846,1.40463,-0.174673,0.0836392,1.19071,0.958243,1.20653,0.737813,0.434105,0.0446343
1266735,0.98,-1.61509,-0.508785,0.0359934,-2.15404,0.0173659,1.64563,0.770894,-1.61801,-0.507201,0.0385463,-2.15702,0.0192762,1.65,0.769841,-0.845275,0.218046,0.709752,-1.1952,0.349511,1.40668,-0.261174,-0.884737,0.221388,0.748869,-1.23666,0.363729,1.47168,-0.287647,-0.708302,0.0463562,0.757205,11.4502,0.971697,1.44308,-0.206716,0.0574877,1.19796,0.91725,1.22392,0.734261,0.439852,0.041488
1266736,0.98,-1.61597,-0.508561,0.0367344,-2.15528,0.0177277,1.64709,0.770619,-1.6189,-0.50698,0.039302,-2.15826,0.0196431,1.65148,0.769551,-0.850978,0.218339,0.714331,-1.21776,0.356641,1.41378,-0.265436,-0.891766,0.220531,0.755724,-1.24915,0.366905,1.48381,-0.290089,-0.831288,-0.306732,0.630252,11.9699,0.96071,1.51449,-0.252493,0.01435,1.18249,0.854317,1.26445,0.730694,0.448493,0.0385027
1266737,0.98,-1.61685,-0.508333,0.0374776,-2.15656,0.0181009,1.64852,0.770333,-1.6198,-0.50676,0.0400646,-2.15953,0.0200132,1.65298,0.769259,-0.854309,0.22086,0.733268,-1.23396,0.362816,1.41448,-0.265291,-0.898796,0.219674,0.762579,-1.26164,0.370082,1.49594,-0.292531,-0.910633,-0.659821,0.53107,12.4936,0.926836,1.62985,-0.213125,-0.0440143,1.14449,0.772186,1.32725,0.726958,0.459911,0.0354647
1266738,0.98,-1.61772,-0.508114,0.0382475,-2.15784,0.0184752,1.65,0.770028,-1.6207,-0.506542,0.0408341,-2.1608,0.0203864,1.65449,0.768964,-0.859225,0.220343,0.743345,-1.24395,0.366988,1.43427,-0.278866,-0.905825,0.218817,0.769434,-1.27413,0.373258,1.50807,-0.294973,-1.00982,-0.913727,0.404117,12.7674,0.909441,1.48794,-0.0126246,-0.117322,1.08979,0.670064,1.40681,0.722822,0.47345,0.0322401
1266739,0.98,-1.61862,-0.5079,0.0390103,-2.15911,0.0188505,1.65149,0.769742,-1.62162,-0.506324,0.0416103,-2.16209,0.0207629,1.65601,0.768666,-0.862584,0.218209,0.741141,-1.25148,0.368468,1.4436,-0.285532,-0.912854,0.217959,0.776288,-1.28662,0.376434,1.5202,-0.297415,-0.934437,-1.08829,0.404117,12.8666,0.921343,1.49526,0.0523779,-0.200217,1.03307,0.555702,1.48989,0.71814,0.487475,0.0288382
1266740,0.98,-1.6195,-0.507698,0.0397736,-2.16038,0.0192285,1.653,0.769447,-1.62254,-0.506107,0.0423935,-2.16339,0.0211425,1.65754,0.768366,-0.865934,0.215034,0.74735,-1.25266,0.36579,1.46362,-0.284206,-0.919884,0.217102,0.783143,-1.29911,0.379611,1.53234,-0.299857,-0.986012,-1.06448,0.376346,12.5174,0.921343,1.25631,0.0523779,-0.282355,0.992624,0.444946,1.56084,0.712936,0.500015,0.02544
1266741,0.98,-1.62042,-0.507492,0.0405569,-2.16164,0.0196185,1.65453,0.769152,-1.62346,-0.50589,0.0431835,-2.1647,0.0215253,1.65908,0.768064,-0.878121,0.210937,0.757659,-1.25481,0.365861,1.48025,-0.292877,-0.926913,0.216245,0.789998,-1.3116,0.382787,1.54447,-0.302299,-0.882862,-1.06448,0.451724,12.0215,0.875566,1.03109,0.038645,-0.358729,0.985035,0.344753,1.60555,0.707147,0.509186,0.0222845
1266742,0.98,-1.62134,-0.507289,0.0413574,-2.16294,0.0199967,1.65604,0.768873,-1.6244,-0.505676,0.0439799,-2.16602,0.0219111,1.66064,0.76776,-0.889871,0.205644,0.77086,-1.26374,0.373015,1.50873,-0.288432,-0.933266,0.214772,0.796447,-1.32409,0.385808,1.55597,-0.304618,-0.680531,-0.965302,0.53107,11.6486,0.926836,1.20504,-0.116079,-0.428336,1.01963,0.254604,1.61663,0.70073,0.513718,0.0195113
1266743,0.98,-1.62225,-0.507075,0.0421387,-2.16425,0.0203685,1.65757,0.768574,-1.62534,-0.505462,0.0447828,-2.16736,0.0222999,1.66221,0.767453,-0.898108,0.207387,0.773201,-1.27081,0.37487,1.52117,-0.296556,-0.939619,0.213299,0.802895,-1.33658,0.388829,1.56748,-0.306938,-0.632923,-1.08829,0.757205,11.2757,1.03395,1.10159,-0.128897,-0.489431,1.09196,0.175393,1.5969,0.693831,0.51354,0.0170847
1266744,0.98,-1.6232,-0.506855,0.0429417,-2.16555,0.0207592,1.65915,0.76828,-1.62628,-0.50525,0.0455922,-2.16871,0.0226917,1.66379,0.767143,-0.911707,0.2111,0.781892,-1.27844,0.382232,1.52853,-0.294503,-0.945973,0.211827,0.809344,-1.34907,0.391849,1.57898,-0.309257,-0.430592,-1.31839,0.781009,11.1249,1.1136,0.876368,-0.225942,-0.537948,1.18418,0.112302,1.55611,0.686824,0.509722,0.0148235
1266745,0.98,-1.62413,-0.506632,0.0437415,-2.16688,0.0211587,1.66072,0.767983,-1.62723,-0.50504,0.046408,-2.17007,0.0230866,1.66538,0.766832,-0.926255,0.213979,0.792441,-1.28924,0.389218,1.54491,-0.293183,-0.952326,0.210354,0.815793,-1.36156,0.39487,1.59049,-0.311576,-0.22826,-1.5961,0.70563,10.9543,1.04585,0.651149,-0.278127,-0.571102,1.27621,0.0682661,1.50528,0.680158,0.503531,0.0125057
1266746,0.98,-1.62507,-0.506417,0.0445371,-2.16821,0.0215598,1.66229,0.767695,-1.62819,-0.504831,0.0472302,-2.17144,0.0234845,1.66698,0.766518,-0.927539,0.213798,0.797282,-1.30135,0.40059,1.55115,-0.290925,-0.958679,0.208881,0.822242,-1.37405,0.397891,1.60199,-0.313895,-0.176685,-1.89761,0.884158,10.7798,1.02846,0.676783,-0.381582,-0.590901,1.3564,0.0399711,1.45262,0.674075,0.495737,0.00991097
1266747,0.98,-1.62602,-0.506195,0.0453451,-2.16955,0.0219764,1.66387,0.767422,-1.62916,-0.504624,0.0480589,-2.17283,0.0238854,1.66859,0.766202,-0.93078,0.214135,0.802269,-1.31219,0.40657,1.54375,-0.280597,-0.965033,0.207408,0.828691,-1.38654,0.400911,1.6135,-0.316214,-0.176685,-2.2269,1.01111,10.5536,0.949724,0.954188,-0.601309,-0.602288,1.42167,0.0218004,1.40289,0.668496,0.486915,0.00682337
1266748,0.98,-1.627,-0.505981,0.0461483,-2.17091,0.0223833,1.66545,0.767124,-1.63013,-0.504418,0.048894,-2.17423,0.0242893,1.67022,0.765883,-0.94437,0.214749,0.808698,-1.32015,0.406613,1.56049,-0.280314,-0.971386,0.205936,0.83514,-1.39903,0.403932,1.625,-0.318533,0.200207,-2.45303,1.03491,10.2561,0.870073,1.05032,-0.653494,-0.606959,1.47289,0.0123309,1.35693,0.663308,0.47746,0.0029595
1266749,0.98,-1.62797,-0.505775,0.0469576,-2.17225,0.0227965,1.66707,0.766819,-1.63111,-0.504213,0.0497356,-2.17564,0.0246963,1.67185,0.765562,-0.949666,0.211807,0.808476,-1.32546,0.409291,1.56676,-0.288332,-0.977739,0.204463,0.841588,-1.41152,0.406952,1.63651,-0.320853,0.32716,-2.53238,1.18964,9.85935,0.847185,1.08877,-0.601309,-0.60157,1.5158,0.0161903,1.30987,0.65847,0.467238,-0.00204486
1266750,0.98,-1.62894,-0.505579,0.0477656,-2.17362,0.023228,1.6687,0.766514,-1.63209,-0.50401,0.0505837,-2.17706,0.0251063,1.6735,0.765239,-0.977348,0.205279,0.817685,-1.3329,0.41607,1.58048,-0.293077,-0.984092,0.20299,0.848037,-1.42401,0.409973,1.64801,-0.323172,0.378734,-2.42923,1.31262,9.68479,0.784929,0.967006,-0.537222,-0.580301,1.56288,0.040568,1.25312,0.653904,0.455882,-0.00844626
1266751,0.98,-1.62993,-0.505388,0.0485909,-2.17502,0.0236505,1.67034,0.766194,-1.63308,-0.503809,0.0514382,-2.1785,0.0255193,1.67516,0.764914,-0.983108,0.203436,0.825108,-1.34944,0.418597,1.59398,-0.303935,-0.990446,0.201518,0.854486,-1.4365,0.412994,1.65952,-0.325491,0.505688,-2.33005,1.41577,9.73636,0.700701,1.03109,-0.336721,-0.540377,1.62155,0.087517,1.18388,0.649559,0.443544,-0.0162281
1266752,0.98,-1.63093,-0.505191,0.0494172,-2.17641,0.0240739,1.67201,0.765875,-1.63408,-0.503609,0.0522986,-2.17995,0.0259351,1.67683,0.764586,-0.983243,0.200268,0.827541,-1.36312,0.417203,1.6133,-0.31331,-0.996093,0.199529,0.860483,-1.44899,0.415853,1.67041,-0.327678,0.477917,-2.35385,1.64191,9.80777,0.688799,1.05673,-0.174673,-0.488135,1.68744,0.14867,1.10805,0.645272,0.430974,-0.025052
1266753,0.98,-1.63193,-0.504989,0.0502334,-2.17783,0.0244902,1.67367,0.765548,-1.63508,-0.503412,0.0531651,-2.18141,0.0263538,1.67851,0.764256,-0.99064,0.202542,0.824046,-1.37482,0.413684,1.63028,-0.314349,-1.00174,0.197541,0.866481,-1.46148,0.418713,1.68131,-0.329864,0.553295,-2.45303,1.84424,10.0577,0.76845,1.02468,0.000192821,-0.428874,1.75229,0.219173,1.03175,0.640877,0.418747,-0.034362
1266754,0.99,-1.63298,-0.504789,0.0510802,-2.17927,0.0249069,1.67535,0.765229,-1.63609,-0.503216,0.0540376,-2.18289,0.0267754,1.6802,0.763924,-1.00695,0.202452,0.831258,-1.40357,0.415652,1.63644,-0.317298,-1.00739,0.195553,0.872478,-1.47397,0.421572,1.6922,-0.332051,1.00953,-2.60776,1.79663,10.6052,0.853594,1.12173,0.110056,-0.359608,1.80255,0.303844,0.964795,0.636602,0.407863,-0.0435337
1266755,0.99,-1.634,-0.504574,0.0519343,-2.18074,0.0253184,1.67701,0.764914,-1.6371,-0.503023,0.0549161,-2.18437,0.0271998,1.68191,0.76359,-1.00878,0.207197,0.851681,-1.41887,0.409557,1.64554,-0.315497,-1.01304,0.193565,0.878475,-1.48646,0.424432,1.70309,-0.334238,0.957958,-2.98465,1.76886,11.1527,1.01747,1.28836,0.09083,-0.284607,1.82188,0.395036,0.921468,0.63269,0.399918,-0.0519013
1266756,0.99,-1.63499,-0.504361,0.0527787,-2.18225,0.0257391,1.67871,0.76459,-1.63812,-0.502831,0.0558005,-2.18587,0.0276271,1.68362,0.763253,-0.999119,0.207941,0.852125,-1.44233,0.409459,1.65408,-0.321181,-1.01868,0.191577,0.884472,-1.49895,0.427292,1.71398,-0.336424,0.60487,-3.38931,1.76886,11.9461,1.07973,1.43026,0.103647,-0.218881,1.80239,0.471659,0.909369,0.629047,0.395828,-0.0589018
1266757,0.99,-1.63599,-0.504159,0.0536464,-2.18375,0.0261793,1.68041,0.764261,-1.63914,-0.502642,0.056691,-2.18738,0.0280573,1.68535,0.762915,-0.995703,0.208118,0.84833,-1.45751,0.414283,1.65796,-0.319542,-1.02433,0.189589,0.89047,-1.51144,0.430151,1.72488,-0.338611,0.200207,-3.66702,1.64191,12.5174,0.989092,1.6683,0.0844213,-0.169105,1.74658,0.527476,0.928224,0.625704,0.395804,-0.0643038
1266758,0.99,-1.637,-0.503958,0.0545369,-2.18526,0.0266166,1.68211,0.763926,-1.64017,-0.502454,0.0575875,-2.18891,0.0284903,1.68708,0.762574,-1.00349,0.203729,0.861392,-1.46496,0.418356,1.67639,-0.32106,-1.02998,0.187601,0.896467,-1.52393,0.433011,1.73577,-0.340798,-0.0259286,-3.89713,1.13806,12.7912,0.903948,1.75253,0.0322363,-0.132475,1.66937,0.56874,0.968115,0.622704,0.399063,-0.0681605
1266759,0.99,-1.63802,-0.503778,0.0554187,-2.18674,0.0270651,1.68383,0.763604,-1.64121,-0.502268,0.0584899,-2.19044,0.0289262,1.68883,0.762231,-1.00871,0.1955,0.860578,-1.47309,0.421372,1.68261,-0.325581,-1.03563,0.185613,0.902464,-1.53642,0.43587,1.74666,-0.342984,-0.279835,-3.89713,0.98334,12.6444,0.796831,1.81021,-0.103262,-0.105692,1.59679,0.600082,1.01083,0.619803,0.403907,-0.0706698
1266760,0.99,-1.63905,-0.503605,0.0563304,-2.18828,0.0275217,1.68557,0.763281,-1.64225,-0.502085,0.0593984,-2.19199,0.0293649,1.69059,0.761886,-1.00911,0.18601,0.872526,-1.48575,0.437089,1.69111,-0.318947,-1.04127,0.183625,0.908462,-1.54891,0.43873,1.75756,-0.345171,-0.402821,-3.7424,0.630252,12.5928,0.643938,1.81021,-0.368765,-0.0874192,1.55264,0.623379,1.04203,0.616586,0.409185,-0.0721601
1266761,0.99,-1.64008,-0.503433,0.0572218,-2.18982,0.0279818,1.68729,0.762949,-1.6433,-0.501903,0.0603129,-2.19355,0.0298065,1.69235,0.761538,-1.01377,0.180926,0.874041,-1.50102,0.44946,1.70416,-0.324591,-1.04692,0.181636,0.914459,-1.5614,0.441589,1.76845,-0.347358,-0.50597,-3.64322,0.42792,12.4936,0.524919,1.74612,-0.504263,-0.0791357,1.54597,0.636696,1.05807,0.612598,0.414784,-0.073137
1266762,0.99,-1.6411,-0.503256,0.0581125,-2.19137,0.0284244,1.68908,0.762623,-1.64435,-0.501724,0.0612328,-2.19513,0.0302508,1.69413,0.761189,-1.0124,0.179901,0.868791,-1.51976,0.441144,1.72067,-0.320534,-1.05184,0.179511,0.919978,-1.57389,0.444278,1.77853,-0.349405,-0.958241,-3.64322,0.554873,12.6166,0.643938,1.36618,-0.601309,-0.0770088,1.56701,0.645314,1.06529,0.60775,0.421203,-0.0742559
1266763,0.99,-1.64213,-0.50307,0.0590136,-2.19296,0.0288704,1.69085,0.762269,-1.64541,-0.501546,0.0621583,-2.19671,0.0306977,1.69592,0.760838,-1.01954,0.18278,0.880327,-1.54185,0.442134,1.74014,-0.331955,-1.05677,0.177386,0.925497,-1.58638,0.446967,1.78861,-0.351452,-0.934437,-3.82175,0.42792,12.8666,0.700701,1.02468,-0.51708,-0.0757737,1.59307,0.65609,1.07676,0.602339,0.429133,-0.076102
1266764,0.99,-1.64319,-0.502876,0.0599504,-2.19453,0.0293256,1.69268,0.761908,-1.64647,-0.501371,0.0630894,-2.19831,0.0311474,1.69772,0.760484,-1.03014,0.190941,0.898203,-1.58855,0.441123,1.76173,-0.346625,-1.06169,0.175261,0.931016,-1.59887,0.449656,1.79869,-0.353499,-0.755909,-4.12326,0.15021,12.7674,0.807817,0.432338,-0.31658,-0.0780574,1.58926,0.662642,1.11629,0.596936,0.439989,-0.0789629
1266765,0.99,-1.64425,-0.502678,0.0608899,-2.19612,0.0297838,1.69448,0.761563,-1.64753,-0.501198,0.0640259,-2.19992,0.0315997,1.69953,0.760129,-1.03654,0.194778,0.913483,-1.59,0.44152,1.76925,-0.347804,-1.06661,0.173136,0.936534,-1.61136,0.452345,1.80877,-0.355546,-0.807484,-4.47635,0.0470608,12.4698,0.875566,0.451564,-0.329397,-0.0897399,1.52918,0.653392,1.20102,0.59199,0.454248,-0.0827548
1266766,0.99,-1.64528,-0.502482,0.061808,-2.19771,0.0302401,1.69621,0.761202,-1.6486,-0.501027,0.0649679,-2.20155,0.0320548,1.70135,0.759771,-1.03546,0.196062,0.915645,-1.58322,0.44133,1.75136,-0.351202,-1.07153,0.171011,0.942053,-1.62385,0.455034,1.81885,-0.357594,-1.06139,-4.78183,0.0748318,11.7994,0.898454,0.927638,-0.252493,-0.113492,1.42751,0.624748,1.31191,0.587164,0.468832,-0.0871894
