shamilmamedov/beam_handling/data/param_estimation_ICRA/ocp_Z_25cm_0.50s_4.csv
duration, success rate, q[0], q[1], q[2], q[3], q[4], q[5], q[6],q_d[0], q_d[1], q_d[2], q_d[3], q_d[4], q_d[5], q_d[6],dq[0], dq[1], dq[2], dq[3], dq[4], dq[5], dq[6],dq_d[0], dq_d[1], dq_d[2], dq_d[3], dq_d[4], dq_d[5], dq_d[6],tau_J[0], tau_J[1], tau_J[2], tau_J[3], tau_J[4], tau_J[5], tau_J[6],tau_ext_hat_filtered[0], tau_ext_hat_filtered[1], tau_ext_hat_filtered[2], tau_ext_hat_filtered[3], tau_ext_hat_filtered[4], tau_ext_hat_filtered[5], tau_ext_hat_filtered[6]
1174697,0,-1.57099,-0.522768,0.00049546,-2.097,-0.000523072,1.57126,0.784956,-1.5708,-0.523599,5.25168e-08,-2.0944,1.0192e-07,1.5708,0.785398,0.000468836,0.000657813,0.000969369,-0.00154611,-3.79206e-05,-0.000377955,-0.000793384,0,0,0,0,0,0,0,0.200207,-10.2924,-1.06378,22.1897,1.29946,1.35977,0.252878,0.218302,-1.13438,-0.555599,3.59588,0.579449,-0.320281,0.245587
1174698,1,-1.57099,-0.52277,0.00049281,-2.097,-0.000523081,1.57126,0.784956,-1.5708,-0.523599,5.25168e-08,-2.0944,1.0192e-07,1.5708,0.785398,-0.000337057,-0.000211072,-0.000467378,-0.000381128,-2.52804e-05,-1.46113e-05,-0.00100364,0,0,0,0,0,0,0,0.227978,-10.2646,-1.01617,22.1619,1.29946,1.35336,0.265696,0.219308,-1.1361,-0.553984,3.59702,0.579565,-0.320169,0.245497
1174699,1,-1.57099,-0.522776,0.00049425,-2.09699,-0.000519888,1.57126,0.784953,-1.5708,-0.523599,5.25168e-08,-2.0944,1.0192e-07,1.5708,0.785398,-0.000224705,-0.00134714,0.000802039,0.00141635,-1.68536e-05,0.000227618,-0.000669094,0,0,0,0,0,0,0,0.227978,-10.213,-1.06378,22.0905,1.29946,1.34695,0.265696,0.219703,-1.13656,-0.553307,3.59758,0.579657,-0.32009,0.245395
1174700,1,-1.57099,-0.522773,0.000490458,-2.097,-0.00052202,1.57126,0.784955,-1.5708,-0.523599,5.25168e-08,-2.0944,1.0192e-07,1.5708,0.785398,-0.000149803,0.000308332,-0.00122855,-0.000726202,-1.12357e-05,-8.56135e-05,-0.000683421,0,0,0,0,0,0,0,0.227978,-10.2646,-0.988401,22.1619,1.29946,1.35336,0.272104,0.220106,-1.1343,-0.552651,3.59644,0.579726,-0.320163,0.245316
1174701,1,-1.57099,-0.522771,0.000494576,-2.097,-0.00052212,1.57126,0.784956,-1.5708,-0.523599,5.25168e-08,-2.0944,1.0192e-07,1.5708,0.785398,0.000549745,0.000855169,0.000387396,-0.000484135,0.00019596,0.000180283,0.000968539,0,0,0,0,0,0,0,0.200207,-10.2924,-1.03998,22.1619,1.29396,1.34695,0.233652,0.220617,-1.13343,-0.551772,3.59606,0.579818,-0.32017,0.245295
1174702,1,-1.57099,-0.522769,0.000490941,-2.09699,-0.000522357,1.57126,0.78496,-1.5708,-0.523599,5.25168e-08,-2.0944,1.0192e-07,1.5708,0.785398,-0.000283117,0.000570112,-0.000298548,0.000234055,0.00013064,0.000120189,0.00115432,0,0,0,0,0,0,0,0.227978,-10.2924,-1.01617,22.1381,1.29396,1.34695,0.219919,0.220873,-1.13552,-0.551202,3.59724,0.579926,-0.320057,0.245336
1174703,1,-1.57099,-0.522772,0.000488338,-2.09699,-0.000523046,1.57126,0.784953,-1.5708,-0.523599,5.25168e-08,-2.0944,1.0192e-07,1.5708,0.785398,0.000460869,-0.000826351,-0.000848646,0.000712849,-0.000116357,8.01259e-05,-0.000925875,0,0,0,0,0,0,0,0.200207,-10.2408,-0.988401,22.1143,1.29946,1.34695,0.265696,0.221092,-1.13733,-0.55063,3.59804,0.580016,-0.319997,0.245395
1174704,1,-1.57099,-0.522768,0.000493409,-2.09699,-0.000518656,1.57126,0.784955,-1.5708,-0.523599,5.25168e-08,-2.0944,1.0192e-07,1.5708,0.785398,-0.000342368,0.000655525,0.00119747,-8.15794e-05,0.00032933,-0.000183942,-0.000854609,0,0,0,0,0,0,0,0.227978,-10.2924,-1.06378,22.1381,1.28847,1.35336,0.272104,0.221212,-1.1374,-0.550167,3.59779,0.580077,-0.320035,0.245442
1174705,1,-1.57099,-0.522774,0.000491666,-2.09699,-0.000517599,1.57126,0.784957,-1.5708,-0.523599,5.25168e-08,-2.0944,1.0192e-07,1.5708,0.785398,0.000421369,-0.000769409,0.000241504,0.000502426,0.000219553,0.000114731,-9.50213e-05,0,0,0,0,0,0,0,0.200207,-10.2408,-1.03998,22.1143,1.28847,1.34695,0.259287,0.220553,-1.13675,-0.550918,3.59721,0.580088,-0.320101,0.245502
1174706,1,-1.57099,-0.522769,0.000489971,-2.097,-0.000520443,1.57126,0.784958,-1.5708,-0.523599,5.25168e-08,-2.0944,1.0192e-07,1.5708,0.785398,0.000837724,0.000693487,-0.000395809,-0.000778673,0.000146369,0.000313846,0.00041137,0,0,0,0,0,0,0,0.176403,-10.2924,-1.01617,22.1619,1.28847,1.34054,0.24647,0.21938,-1.13608,-0.552387,3.59679,0.580064,-0.320148,0.245602
1174707,1,-1.57099,-0.52277,0.000491634,-2.09699,-0.000521391,1.57126,0.784961,-1.5708,-0.523599,5.25168e-08,-2.0944,1.0192e-07,1.5708,0.785398,-0.000647943,0.000462324,0.000292939,3.76963e-05,9.75791e-05,-0.000265487,0.00125759,0,0,0,0,0,0,0,0.227978,-10.2924,-1.03998,22.1381,1.28847,1.35336,0.219919,0.218394,-1.13679,-0.553477,3.59726,0.580045,-0.320118,0.245736
1174708,1,-1.57099,-0.522771,0.000491631,-2.09699,-0.000522317,1.57126,0.784962,-1.5708,-0.523599,5.25168e-08,-2.0944,1.0192e-07,1.5708,0.785398,-0.00154559,-0.000341398,0.000195293,0.00113875,-0.000138398,-0.000176991,0.00107575,0,0,0,0,0,0,0,0.275585,-10.2646,-1.03998,22.0905,1.29396,1.35336,0.213511,0.218174,-1.13792,-0.553583,3.59782,0.580039,-0.320094,0.245871
1174709,1,-1.57099,-0.52277,0.00048996,-2.097,-0.000523033,1.57126,0.784953,-1.5708,-0.523599,5.25168e-08,-2.0944,1.0192e-07,1.5708,0.785398,8.32333e-05,-0.000227598,-0.000426617,-0.00156088,-0.000295716,0.000119365,-0.00145297,0,0,0,0,0,0,0,0.227978,-10.2646,-1.01617,22.1897,1.29946,1.34695,0.272104,0.218818,-1.13785,-0.552638,3.59773,0.580044,-0.320121,0.245958
1174710,1,-1.57099,-0.522772,0.000489959,-2.097,-0.000523068,1.57126,0.784951,-1.5708,-0.523599,5.25168e-08,-2.0944,1.0192e-07,1.5708,0.785398,5.54889e-05,-0.000151732,-0.000284411,-0.000390973,-0.000197144,0.000316935,-0.00120601,0,0,0,0,0,0,0,0.227978,-10.2646,-1.01617,22.1619,1.29946,1.34054,0.278513,0.219731,-1.13772,-0.55132,3.59812,0.580069,-0.320075,0.245989
1174711,1,-1.57099,-0.522771,0.00049376,-2.09699,-0.00052308,1.57126,0.784956,-1.5708,-0.523599,5.25168e-08,-2.0944,1.0192e-07,1.5708,0.785398,3.69926e-05,0.000548459,0.000367204,0.000852975,-0.000131429,-0.000263428,-9.1927e-05,0,0,0,0,0,0,0,0.227978,-10.2924,-1.03998,22.1143,1.29946,1.35336,0.259287,0.220318,-1.13799,-0.550439,3.59881,0.580086,-0.320009,0.246013
1174712,1,-1.571,-0.522772,0.0004928,-2.09699,-0.000523083,1.57126,0.784959,-1.5708,-0.523599,5.25168e-08,-2.0944,1.0192e-07,1.5708,0.785398,-0.00053215,-0.000840787,-0.000312009,1.18383e-05,-8.76195e-05,-0.000175618,0.000650792,0,0,0,0,0,0,0,0.251781,-10.2408,-1.01617,22.1381,1.29946,1.35336,0.240061,0.220635,-1.13762,-0.550001,3.59877,0.580074,-0.320036,0.246073
1174713,1,-1.57099,-0.522772,0.000490906,-2.09699,-0.000519279,1.57126,0.784958,-1.5708,-0.523599,5.25168e-08,-2.0944,1.0192e-07,1.5708,0.785398,0.000851659,-3.71239e-06,-0.000208006,7.89223e-06,0.000145038,0.000357639,0.000196502,0,0,0,0,0,0,0,0.200207,-10.2646,-1.01617,22.1381,1.29396,1.34054,0.24647,0.220909,-1.13613,-0.549643,3.59805,0.580054,-0.320124,0.246167
1174714,1,-1.57099,-0.522771,0.000492405,-2.09699,-0.000518824,1.57126,0.784957,-1.5708,-0.523599,5.25168e-08,-2.0944,1.0192e-07,1.5708,0.785398,0.000567773,0.000647139,-0.000138671,0.00111889,-0.000106759,0.000238426,0.00060572,0,0,0,0,0,0,0,0.200207,-10.2924,-1.01617,22.0905,1.29946,1.34054,0.233652,0.220832,-1.13469,-0.549686,3.59718,0.580021,-0.320238,0.246275
1174715,1,-1.57099,-0.522773,0.000494576,-2.097,-0.000521055,1.57126,0.784959,-1.5708,-0.523599,5.25168e-08,-2.0944,1.0192e-07,1.5708,0.785398,-0.000271099,-0.000775,0.000464365,-0.000924512,0.000132278,-7.84083e-05,0.000403813,0,0,0,0,0,0,0,0.227978,-10.2408,-1.03998,22.1619,1.29396,1.34695,0.233652,0.22033,-1.13386,-0.550289,3.59646,0.579978,-0.32036,0.246378
1174716,1,-1.57099,-0.522768,0.000494742,-2.097,-0.000518806,1.57126,0.784954,-1.5708,-0.523599,5.25168e-08,-2.0944,1.0192e-07,1.5708,0.785398,0.000468881,0.000689759,0.000309577,-0.000616342,8.81853e-05,-5.22722e-05,-0.000442868,0,0,0,0,0,0,0,0.200207,-10.2924,-1.03998,22.1619,1.29396,1.34695,0.252878,0.219569,-1.13374,-0.55133,3.59653,0.579952,-0.320398,0.246455
1174717,1,-1.57099,-0.522772,0.000492667,-2.09699,-0.000521862,1.57126,0.784951,-1.5708,-0.523599,5.25168e-08,-2.0944,1.0192e-07,1.5708,0.785398,0.000312588,-0.000189774,0.000206384,0.000145918,-0.00014466,-0.000272207,-0.00124468,0,0,0,0,0,0,0,0.200207,-10.2646,-1.03998,22.1381,1.29946,1.35336,0.278513,0.218548,-1.13471,-0.552763,3.59749,0.57994,-0.32035,0.246502
1174718,1,-1.571,-0.522773,0.000488356,-2.09699,-0.00052339,1.57126,0.784957,-1.5708,-0.523599,5.25168e-08,-2.0944,1.0192e-07,1.5708,0.785398,-0.000998034,-0.000126516,-0.00106884,9.72784e-05,-0.000333799,0.000293247,0.000357007,0,0,0,0,0,0,0,0.251781,-10.2646,-0.988401,22.1381,1.30586,1.34054,0.24647,0.218104,-1.13548,-0.553325,3.59823,0.579955,-0.320332,0.246538
1174719,1,-1.57099,-0.522771,0.000491745,-2.097,-0.000521118,1.57126,0.784962,-1.5708,-0.523599,5.25168e-08,-2.0944,1.0192e-07,1.5708,0.785398,-0.000108544,-8.43442e-05,0.000493868,-0.00049196,0.000625178,-4.18613e-05,0.00145871,0,0,0,0,0,0,0,0.227978,-10.2646,-1.03998,22.1619,1.28298,1.34695,0.213511,0.218737,-1.13554,-0.552348,3.59852,0.58002,-0.320357,0.246588
1174720,1,-1.57099,-0.522768,0.000489998,-2.09699,-0.000518013,1.57126,0.784961,-1.5708,-0.523599,5.25168e-08,-2.0944,1.0192e-07,1.5708,0.785398,0.000577251,0.000593384,-0.000227566,0.00134246,0.000416785,-2.79075e-05,0.000735113,0,0,0,0,0,0,0,0.200207,-10.2924,-1.01617,22.0905,1.28298,1.34695,0.219919,0.219351,-1.13558,-0.551399,3.59862,0.580077,-0.320414,0.246642
1174721,1,-1.57099,-0.522768,0.000488023,-2.09699,-0.000517589,1.57126,0.784954,-1.5708,-0.523599,5.25168e-08,-2.0944,1.0192e-07,1.5708,0.785398,0.000941646,0.00039559,-0.000801325,-0.000218649,7.44063e-05,-0.000255964,-0.00191742,0,0,0,0,0,0,0,0.176403,-10.2924,-0.988401,22.1381,1.28847,1.35336,0.284922,0.219445,-1.13603,-0.551029,3.59851,0.580085,-0.320515,0.24666
1174722,1,-1.57099,-0.522772,0.000490145,-2.097,-0.000518464,1.57126,0.784952,-1.5708,-0.523599,5.25168e-08,-2.0944,1.0192e-07,1.5708,0.785398,-0.000578662,-0.000385888,-0.000534217,-0.000702578,-0.000357297,0.000304075,-0.00104092,0,0,0,0,0,0,0,0.227978,-10.2646,-0.988401,22.1619,1.29946,1.34054,0.278513,0.219689,-1.13691,-0.550235,3.59869,0.580089,-0.320579,0.246636
1174723,1,-1.57099,-0.522771,0.000488722,-2.09699,-0.000521545,1.57126,0.784954,-1.5708,-0.523599,5.25168e-08,-2.0944,1.0192e-07,1.5708,0.785398,-0.000385775,-0.000257258,-0.000356144,0.000645239,-0.000238198,0.000202717,0.000492846,0,0,0,0,0,0,0,0.227978,-10.2646,-0.988401,22.1143,1.29946,1.34054,0.24647,0.220495,-1.13714,-0.548585,3.59886,0.580113,-0.32062,0.246622
1174726,0.97,-1.57099,-0.522768,0.000491893,-2.09699,-0.000518767,1.57126,0.784958,-1.5708,-0.523599,5.25168e-08,-2.0944,1.0192e-07,1.5708,0.785398,-0.000516446,0.000171247,0.000245061,-0.00036563,-0.000319239,-0.000203668,-0.000144077,0,0,0,0,0,0,0,0.227978,-10.2924,-1.03998,22.1381,1.29946,1.35336,0.252878,0.218842,-1.13597,-0.549945,3.59759,0.579897,-0.320962,0.246825
1174727,0.97,-1.57099,-0.52277,0.000492177,-2.097,-0.000520425,1.57126,0.784958,-1.5708,-0.523599,5.25168e-08,-2.0944,1.0192e-07,1.5708,0.785398,0.000305317,-0.000535449,-0.000393438,-0.000800565,0.000194075,-0.000373138,-9.60512e-05,0,0,0,0,0,0,0,0.200207,-10.2646,-1.01617,22.1619,1.28847,1.35977,0.252878,0.21738,-1.13754,-0.551769,3.59841,0.57979,-0.32094,0.246916
1174728,0.97,-1.57099,-0.522768,0.00049088,-2.09699,-0.000522606,1.57126,0.784958,-1.5708,-0.523599,5.25168e-08,-2.0944,1.0192e-07,1.5708,0.785398,-0.00100288,0.000292648,-0.000911906,2.31017e-05,-0.000277518,-1.13994e-05,-6.40342e-05,0,0,0,0,0,0,0,0.251781,-10.2924,-0.988401,22.1381,1.29946,1.35336,0.252878,0.217216,-1.13851,-0.551665,3.59927,0.579751,-0.320862,0.246999
1174729,0.97,-1.57099,-0.522768,0.000492586,-2.09699,-0.000518509,1.57126,0.784955,-1.5708,-0.523599,5.25168e-08,-2.0944,1.0192e-07,1.5708,0.785398,-0.000111776,0.000195099,0.000598489,0.00177864,0.000221889,0.000229759,0.00019467,0,0,0,0,0,0,0,0.227978,-10.2924,-1.03998,22.0627,1.28847,1.34695,0.24647,0.218045,-1.13877,-0.550137,3.59937,0.579743,-0.320846,0.247077
1174730,0.97,-1.57099,-0.522772,0.000494079,-2.09699,-0.000518161,1.57126,0.784957,-1.5708,-0.523599,5.25168e-08,-2.0944,1.0192e-07,1.5708,0.785398,-0.000631329,-0.00107636,0.000398992,-0.000577479,-5.55243e-05,-8.41861e-05,0.00111312,0,0,0,0,0,0,0,0.251781,-10.2408,-1.03998,22.1381,1.29396,1.35336,0.219919,0.21875,-1.13747,-0.548923,3.59815,0.579701,-0.32095,0.247156
1174731,0.97,-1.57099,-0.52277,0.000492446,-2.09699,-0.000521037,1.57126,0.784962,-1.5708,-0.523599,5.25168e-08,-2.0944,1.0192e-07,1.5708,0.785398,0.00078554,-0.000160761,0.000265995,-0.000384986,-3.70162e-05,0.000418594,0.0012168,0,0,0,0,0,0,0,0.200207,-10.2646,-1.03998,22.1381,1.29396,1.34054,0.207102,0.218798,-1.135,-0.548786,3.5966,0.579624,-0.321047,0.247222
1174732,0.97,-1.57099,-0.522772,0.000491902,-2.09699,-0.000521996,1.57126,0.784956,-1.5708,-0.523599,5.25168e-08,-2.0944,1.0192e-07,1.5708,0.785398,-0.000125921,-0.000663986,0.00017733,0.000856967,-2.46775e-05,-0.000195655,-0.000409503,0,0,0,0,0,0,0,0.227978,-10.2408,-1.03998,22.0905,1.29396,1.35336,0.240061,0.218336,-1.13231,-0.549411,3.59521,0.579528,-0.321106,0.247236
1174733,0.97,-1.57099,-0.52277,0.00049005,-2.09699,-0.000522926,1.57126,0.784949,-1.5708,-0.523599,5.25168e-08,-2.0944,1.0192e-07,1.5708,0.785398,-0.000640759,0.000114154,-0.000438592,0.000571311,-0.000219902,-0.000130437,-0.00217187,0,0,0,0,0,0,0,0.251781,-10.2646,-1.01617,22.0905,1.29946,1.35336,0.291331,0.218103,-1.12946,-0.549744,3.59345,0.579438,-0.321207,0.247172
1174734,0.97,-1.57099,-0.522768,0.00049166,-2.09699,-0.000522422,1.57126,0.784952,-1.5708,-0.523599,5.25168e-08,-2.0944,1.0192e-07,1.5708,0.785398,0.000129639,0.00128253,0.000264417,-0.000175938,5.68491e-05,-8.69579e-05,-0.00049848,0,0,0,0,0,0,0,0.227978,-10.3162,-1.03998,22.1143,1.29396,1.35336,0.265696,0.218481,-1.12842,-0.549279,3.59232,0.579395,-0.321263,0.247066
1174735,0.97,-1.57099,-0.522771,0.00049164,-2.09699,-0.00052378,1.57126,0.784952,-1.5708,-0.523599,5.25168e-08,-2.0944,1.0192e-07,1.5708,0.785398,-0.000470386,-0.000351407,0.000176278,-0.000674104,-0.00040291,-0.00053269,-0.00033232,0,0,0,0,0,0,0,0.251781,-10.2646,-1.03998,22.1381,1.30586,1.36618,0.265696,0.21892,-1.13029,-0.548832,3.5928,0.579396,-0.321166,0.246991
1174736,0.97,-1.571,-0.52277,0.000491633,-2.09699,-0.000521206,1.57126,0.784954,-1.5708,-0.523599,5.25168e-08,-2.0944,1.0192e-07,1.5708,0.785398,-0.000313591,-0.000234271,0.000117519,-0.000449403,-0.000472057,0.00035695,-0.000458906,0,0,0,0,0,0,0,0.251781,-10.2646,-1.03998,22.1381,1.31136,1.34695,0.272104,0.219325,-1.13268,-0.548586,3.59399,0.579429,-0.320965,0.24698
1174737,0.97,-1.57099,-0.522768,0.00048996,-2.09699,-0.000521408,1.57126,0.784957,-1.5708,-0.523599,5.25168e-08,-2.0944,1.0192e-07,1.5708,0.785398,0.00220379,0.000493433,-0.000478466,0.000814022,0.000329555,6.07906e-07,0.000168781,0,0,0,0,0,0,0,0.148632,-10.2924,-1.01617,22.0905,1.29396,1.35336,0.259287,0.219431,-1.13425,-0.548753,3.59481,0.579462,-0.320775,0.247038
1174738,0.97,-1.57099,-0.522772,0.0004933,-2.09699,-0.00052273,1.57126,0.784957,-1.5708,-0.523599,5.25168e-08,-2.0944,1.0192e-07,1.5708,0.785398,-0.000386846,-0.000320658,0.000794647,-1.41305e-05,1.62529e-05,4.05271e-07,0.000112521,0,0,0,0,0,0,0,0.227978,-10.2646,-1.06378,22.1143,1.29946,1.35336,0.259287,0.218762,-1.1352,-0.549873,3.59496,0.579466,-0.320654,0.247166
1174739,0.97,-1.57099,-0.522771,0.0004933,-2.09699,-0.000522967,1.57126,0.784956,-1.5708,-0.523599,5.25168e-08,-2.0944,1.0192e-07,1.5708,0.785398,-0.00137152,-0.000213772,0.000529764,-0.000566232,1.08353e-05,0.000237629,-0.000399704,0,0,0,0,0,0,0,0.275585,-10.2646,-1.06378,22.1381,1.29946,1.34695,0.272104,0.218042,-1.13545,-0.551203,3.59475,0.579484,-0.320555,0.247347
1174740,0.97,-1.57099,-0.52277,0.000489959,-2.09699,-0.000518629,1.57126,0.784954,-1.5708,-0.523599,5.25168e-08,-2.0944,1.0192e-07,1.5708,0.785398,0.000199277,0.000507099,-0.000760448,0.000736136,0.000414125,0.000158419,-0.000741187,0,0,0,0,0,0,0,0.227978,-10.2924,-1.01617,22.0905,1.28847,1.34695,0.284922,0.21819,-1.13562,-0.551516,3.59455,0.579562,-0.320448,0.247565
1174741,0.97,-1.57099,-0.522774,0.000490141,-2.097,-0.000522719,1.57126,0.784961,-1.5708,-0.523599,5.25168e-08,-2.0944,1.0192e-07,1.5708,0.785398,0.000782465,-0.00086836,-0.00115658,-0.00117968,-0.000368177,0.000105613,0.00167601,0,0,0,0,0,0,0,0.200207,-10.2408,-0.988401,22.1619,1.30586,1.34695,0.226328,0.219131,-1.13583,-0.550581,3.59436,0.579681,-0.320348,0.247827
1174742,0.97,-1.57099,-0.522773,0.0004928,-2.09699,-0.000522726,1.57126,0.78496,-1.5708,-0.523599,5.25168e-08,-2.0944,1.0192e-07,1.5708,0.785398,0.000521643,-2.20946e-05,-0.000121439,-0.000229641,-8.09235e-06,-0.00016695,0.00182942,0,0,0,0,0,0,0,0.200207,-10.2646,-1.01617,22.1381,1.29946,1.35336,0.207102,0.220188,-1.13566,-0.549232,3.59432,0.579804,-0.320225,0.248125
1174743,0.97,-1.57099,-0.522773,0.000493037,-2.09699,-0.000522355,1.57126,0.784961,-1.5708,-0.523599,5.25168e-08,-2.0944,1.0192e-07,1.5708,0.785398,-0.000301852,-0.000571542,-8.09592e-05,-0.000153094,0.000198056,0.000126059,0.000982254,0,0,0,0,0,0,0,0.227978,-10.2408,-1.01617,22.1381,1.29396,1.34695,0.213511,0.220909,-1.13508,-0.548268,3.59431,0.579914,-0.320106,0.248402
1174744,0.97,-1.57099,-0.522769,0.000492655,-2.097,-0.000522435,1.57126,0.784959,-1.5708,-0.523599,5.25168e-08,-2.0944,1.0192e-07,1.5708,0.785398,-0.000201234,0.00138221,0.000502839,-0.000658874,0.000132037,-0.00015332,-0.000328508,0,0,0,0,0,0,0,0.227978,-10.3162,-1.03998,22.1619,1.29396,1.35336,0.240061,0.221314,-1.13536,-0.547809,3.59468,0.580017,-0.319981,0.248591
1174745,0.97,-1.57099,-0.522769,0.000495773,-2.09699,-0.000519266,1.57126,0.784952,-1.5708,-0.523599,5.25168e-08,-2.0944,1.0192e-07,1.5708,0.785398,-0.000134156,0.000364661,0.000892038,0.000117562,8.80247e-05,0.000135146,-0.00164316,0,0,0,0,0,0,0,0.227978,-10.2924,-1.06378,22.1381,1.29396,1.34695,0.278513,0.221209,-1.13788,-0.548201,3.59606,0.580114,-0.319805,0.248674
1174746,0.97,-1.57099,-0.52277,0.000494584,-2.09699,-0.000517599,1.57126,0.784955,-1.5708,-0.523599,5.25168e-08,-2.0944,1.0192e-07,1.5708,0.785398,-0.000646249,0.000243108,3.78801e-05,7.83749e-05,0.000262134,0.000327456,-0.00085808,0,0,0,0,0,0,0,0.251781,-10.2924,-1.03998,22.1381,1.28847,1.34054,0.272104,0.220761,-1.14099,-0.549208,3.59751,0.580187,-0.319658,0.248685
1174747,0.97,-1.57099,-0.522767,0.000490944,-2.09699,-0.000521664,1.57126,0.784953,-1.5708,-0.523599,5.25168e-08,-2.0944,1.0192e-07,1.5708,0.785398,0.000775593,0.000718884,-0.000531559,5.22499e-05,-0.000232145,-1.90549e-05,-0.000334695,0,0,0,0,0,0,0,0.200207,-10.3162,-1.01617,22.1381,1.29946,1.34695,0.265696,0.220597,-1.14344,-0.5498,3.59842,0.580246,-0.319588,0.248682
1174748,0.97,-1.57099,-0.52277,0.000491958,-2.09699,-0.000522612,1.57126,0.784955,-1.5708,-0.523599,5.25168e-08,-2.0944,1.0192e-07,1.5708,0.785398,-0.000132552,-0.00072717,0.00020244,3.48333e-05,-0.000154764,-1.27032e-05,-0.000460489,0,0,0,0,0,0,0,0.227978,-10.2646,-1.03998,22.1381,1.29946,1.34695,0.272104,0.220648,-1.14497,-0.549963,3.59882,0.580289,-0.319579,0.24871
1174749,0.97,-1.57099,-0.52277,0.000490069,-2.09699,-0.000521707,1.57126,0.784961,-1.5708,-0.523599,5.25168e-08,-2.0944,1.0192e-07,1.5708,0.785398,-8.8368e-05,-0.00048478,-0.000421852,0.000580034,0.000303725,-0.000245828,0.00162579,0,0,0,0,0,0,0,0.227978,-10.2646,-1.01617,22.1143,1.28847,1.35336,0.219919,0.220806,-1.14413,-0.549921,3.59808,0.580302,-0.319671,0.248784
1174750,0.97,-1.57099,-0.522768,0.000491666,-2.09699,-0.000522422,1.57126,0.784959,-1.5708,-0.523599,5.25168e-08,-2.0944,1.0192e-07,1.5708,0.785398,0.000590702,0.000883239,0.000275577,-0.000170123,-9.66942e-07,7.34738e-05,0.00132122,0,0,0,0,0,0,0,0.200207,-10.3162,-1.03998,22.1381,1.29396,1.34695,0.213511,0.220994,-1.14224,-0.549805,3.59678,0.580295,-0.319817,0.248889
1174751,0.97,-1.57099,-0.522771,0.000491642,-2.09699,-0.000523068,1.57126,0.784954,-1.5708,-0.523599,5.25168e-08,-2.0944,1.0192e-07,1.5708,0.785398,0.000393801,-0.0006176,0.000183718,-0.000113415,-0.000204095,4.89825e-05,-0.000577251,0,0,0,0,0,0,0,0.200207,-10.2646,-1.03998,22.1381,1.29946,1.34695,0.252878,0.220729,-1.14129,-0.550281,3.59602,0.580266,-0.319921,0.24898
1174752,0.97,-1.57099,-0.52277,0.000488475,-2.097,-0.000522469,1.57126,0.784952,-1.5708,-0.523599,5.25168e-08,-2.0944,1.0192e-07,1.5708,0.785398,0.000262534,0.000237881,-0.00164076,-0.000632422,6.73871e-05,-0.000204704,-0.000859552,0,0,0,0,0,0,0,0.200207,-10.2924,-0.964597,22.1619,1.29396,1.35336,0.265696,0.220533,-1.14074,-0.550523,3.59574,0.58025,-0.31997,0.249015
1174753,0.97,-1.57099,-0.522771,0.000492341,-2.09699,-0.000519277,1.57126,0.784958,-1.5708,-0.523599,5.25168e-08,-2.0944,1.0192e-07,1.5708,0.785398,-0.000474591,-0.000491027,0.000669398,0.000135197,4.49247e-05,0.00010089,0.00061376,0,0,0,0,0,0,0,0.227978,-10.2646,-1.03998,22.1381,1.29396,1.34695,0.233652,0.221021,-1.14018,-0.549639,3.59567,0.580275,-0.319986,0.249008
1174754,0.97,-1.57099,-0.522768,0.000493997,-2.09699,-0.000521409,1.57126,0.784962,-1.5708,-0.523599,5.25168e-08,-2.0944,1.0192e-07,1.5708,0.785398,0.00033322,0.000322263,0.000446266,0.000646943,2.99498e-05,-0.000170099,0.00115516,0,0,0,0,0,0,0,0.200207,-10.2924,-1.03998,22.1143,1.29396,1.35336,0.213511,0.2213,-1.13929,-0.54908,3.59532,0.580282,-0.320036,0.248988
1174755,0.97,-1.57099,-0.522772,0.000494089,-2.09699,-0.00052273,1.57126,0.784961,-1.5708,-0.523599,5.25168e-08,-2.0944,1.0192e-07,1.5708,0.785398,-0.000427467,-0.000434772,0.000854322,-0.000125516,-0.000183484,0.000361318,0.000295388,0,0,0,0,0,0,0,0.227978,-10.2646,-1.06378,22.1381,1.29946,1.34054,0.226328,0.220779,-1.13803,-0.549769,3.59454,0.580238,-0.320139,0.248945
1174756,0.97,-1.57099,-0.522772,0.000492353,-2.09699,-0.000519161,1.57126,0.784958,-1.5708,-0.523599,5.25168e-08,-2.0944,1.0192e-07,1.5708,0.785398,-0.00084179,-0.00084666,-0.000544076,-8.36775e-05,8.11279e-05,-0.000233839,0.000434284,0,0,0,0,0,0,0,0.251781,-10.2408,-1.01617,22.1381,1.29396,1.35336,0.219919,0.220323,-1.13617,-0.550461,3.59354,0.580196,-0.320254,0.248843
1174757,0.97,-1.57099,-0.52277,0.000492428,-2.09699,-0.00052137,1.57126,0.784955,-1.5708,-0.523599,5.25168e-08,-2.0944,1.0192e-07,1.5708,0.785398,-0.000561193,-7.62806e-06,0.000194095,0.000501027,5.40852e-05,-0.000393252,-0.0014059,0,0,0,0,0,0,0,0.251781,-10.2646,-1.03998,22.1143,1.29396,1.35977,0.265696,0.220699,-1.13361,-0.550042,3.59231,0.580194,-0.320373,0.248664
1174758,0.97,-1.57099,-0.522772,0.000491896,-2.097,-0.000520233,1.57126,0.784957,-1.5708,-0.523599,5.25168e-08,-2.0944,1.0192e-07,1.5708,0.785398,0.000182683,-0.000561897,0.000129397,-0.000779606,-0.000404753,0.00021255,-0.000699907,0,0,0,0,0,0,0,0.227978,-10.2408,-1.03998,22.1619,1.30586,1.34695,0.259287,0.221339,-1.13139,-0.549299,3.59131,0.58021,-0.320459,0.248434
1174759,0.97,-1.57099,-0.522768,0.000491718,-2.09699,-0.000521287,1.57126,0.784956,-1.5708,-0.523599,5.25168e-08,-2.0944,1.0192e-07,1.5708,0.785398,0.000121789,0.000831828,8.62644e-05,0.000593887,0.000170974,0.000379059,-0.000941322,0,0,0,0,0,0,0,0.227978,-10.2924,-1.03998,22.1143,1.29396,1.34054,0.272104,0.221578,-1.13048,-0.549158,3.59105,0.580224,-0.320479,0.248203
1174760,0.97,-1.57099,-0.52277,0.00048804,-2.097,-0.000522689,1.57126,0.784958,-1.5708,-0.523599,5.25168e-08,-2.0944,1.0192e-07,1.5708,0.785398,8.11924e-05,0.000554552,-0.00114892,-0.00136731,-8.94676e-05,0.000252706,8.45287e-05,0,0,0,0,0,0,0,0.227978,-10.2924,-0.988401,22.1897,1.29946,1.34054,0.252878,0.221859,-1.13198,-0.548898,3.59197,0.580267,-0.320411,0.248015
1174761,0.97,-1.57099,-0.522771,0.000489969,-2.09699,-0.000522953,1.57126,0.784962,-1.5708,-0.523599,5.25168e-08,-2.0944,1.0192e-07,1.5708,0.785398,5.41283e-05,-0.000279913,-0.00011633,0.000851696,-5.96451e-05,-0.000306247,0.00127706,0,0,0,0,0,0,0,0.227978,-10.2646,-1.01617,22.1143,1.29946,1.35336,0.219919,0.222608,-1.13483,-0.547872,3.59364,0.580349,-0.320293,0.247887
1174762,0.97,-1.57099,-0.522766,0.000491633,-2.09699,-0.000520558,1.57126,0.784959,-1.5708,-0.523599,5.25168e-08,-2.0944,1.0192e-07,1.5708,0.785398,3.60855e-05,0.00101982,0.000479258,0.000567797,-0.000277122,0.000507912,0.000105385,0,0,0,0,0,0,0,0.227978,-10.3162,-1.03998,22.1143,1.30586,1.33413,0.240061,0.223203,-1.13706,-0.547066,3.59471,0.580412,-0.320256,0.247803
1174763,0.97,-1.57099,-0.522768,0.000491631,-2.09699,-0.000522006,1.57126,0.784957,-1.5708,-0.523599,5.25168e-08,-2.0944,1.0192e-07,1.5708,0.785398,2.4057e-05,0.000123066,0.000319506,0.000378531,5.26107e-05,-0.00013611,0.000307616,0,0,0,0,0,0,0,0.227978,-10.2924,-1.03998,22.1143,1.29946,1.34695,0.233652,0.22313,-1.13895,-0.547312,3.59516,0.580438,-0.320313,0.247728
1174764,0.97,-1.57099,-0.52277,0.00049163,-2.09699,-0.000522725,1.57126,0.784959,-1.5708,-0.523599,5.25168e-08,-2.0944,1.0192e-07,1.5708,0.785398,0.000665652,-0.00056757,0.000213004,0.000252354,3.50738e-05,0.000146619,0.000205077,0,0,0,0,0,0,0,0.200207,-10.2646,-1.03998,22.1143,1.29946,1.34054,0.233652,0.222504,-1.13991,-0.548396,3.5951,0.580443,-0.320424,0.247641
1174765,0.97,-1.571,-0.522768,0.00049163,-2.097,-0.000522355,1.57126,0.784956,-1.5708,-0.523599,5.25168e-08,-2.0944,1.0192e-07,1.5708,0.785398,-0.00131947,0.000271234,0.000142003,-0.000945388,0.000226833,9.7746e-05,-0.00105008,0,0,0,0,0,0,0,0.275585,-10.2924,-1.03998,22.1619,1.29396,1.34054,0.265696,0.221887,-1.13978,-0.549515,3.59481,0.580464,-0.320535,0.247528
1174766,0.97,-1.57099,-0.522772,0.000489959,-2.09699,-0.000521825,1.57126,0.784953,-1.5708,-0.523599,5.25168e-08,-2.0944,1.0192e-07,1.5708,0.785398,0.000883591,-0.000468791,-0.000462144,-7.34465e-05,0.000354673,6.5164e-05,-0.000700051,0,0,0,0,0,0,0,0.200207,-10.2646,-1.01617,22.1381,1.28847,1.34054,0.265696,0.221815,-1.13979,-0.54991,3.59503,0.580535,-0.320586,0.247399
1174767,0.97,-1.57099,-0.522771,0.000490141,-2.097,-0.000521851,1.57126,0.784955,-1.5708,-0.523599,5.25168e-08,-2.0944,1.0192e-07,1.5708,0.785398,-6.05531e-05,-0.000312527,-0.00095771,-0.000605776,0.000236448,4.34427e-05,0.000482735,0,0,0,0,0,0,0,0.227978,-10.2646,-0.988401,22.1619,1.28847,1.34054,0.240061,0.222222,-1.13952,-0.549506,3.59536,0.580626,-0.320623,0.247285
1174768,0.97,-1.57099,-0.522766,0.00048705,-2.09699,-0.000519885,1.57126,0.784956,-1.5708,-0.523599,5.25168e-08,-2.0944,1.0192e-07,1.5708,0.785398,0.000609245,0.000998074,-0.00119529,0.00126658,-0.000249269,-0.000208397,0.00083045,0,0,0,0,0,0,0,0.200207,-10.3162,-0.964597,22.0905,1.29946,1.34695,0.226328,0.223168,-1.13925,-0.548087,3.59549,0.580714,-0.320704,0.247204
1174769,0.97,-1.57099,-0.522768,0.000491866,-2.09699,-0.000522731,1.57126,0.784952,-1.5708,-0.523599,5.25168e-08,-2.0944,1.0192e-07,1.5708,0.785398,-0.000800262,0.000108571,0.000966381,0.000287578,-0.000403538,9.84275e-05,-0.000904429,0,0,0,0,0,0,0,0.251781,-10.2924,-1.03998,22.1143,1.30586,1.34054,0.265696,0.224258,-1.13971,-0.546357,3.5954,0.58078,-0.320855,0.247143
1174770,0.97,-1.57099,-0.52277,0.000493379,-2.09699,-0.00052212,1.57126,0.784955,-1.5708,-0.523599,5.25168e-08,-2.0944,1.0192e-07,1.5708,0.785398,2.33037e-05,-0.000577233,0.00120107,0.000191719,0.000171784,-0.000171741,-0.000602953,0,0,0,0,0,0,0,0.227978,-10.2646,-1.06378,22.1143,1.29396,1.34695,0.265696,0.224438,-1.13973,-0.546111,3.59486,0.580791,-0.321061,0.24709
1174771,0.97,-1.57099,-0.522772,0.000489986,-2.09699,-0.000521746,1.57126,0.784956,-1.5708,-0.523599,5.25168e-08,-2.0944,1.0192e-07,1.5708,0.785398,1.55358e-05,-0.000941634,-0.000312913,0.000684624,0.000317973,-0.000114494,-0.000401968,0,0,0,0,0,0,0,0.227978,-10.2408,-1.01617,22.0905,1.28847,1.34695,0.265696,0.223725,-1.13776,-0.547314,3.59346,0.580751,-0.32132,0.247061
1174772,0.97,-1.57099,-0.522774,0.000493309,-2.09699,-0.000523758,1.57126,0.784959,-1.5708,-0.523599,5.25168e-08,-2.0944,1.0192e-07,1.5708,0.785398,-0.000546455,-0.000627756,0.000905015,-0.000657208,-0.000432278,-7.63292e-05,0.000681457,0,0,0,0,0,0,0,0.251781,-10.2408,-1.06378,22.1381,1.30586,1.34695,0.240061,0.222966,-1.13416,-0.548628,3.59144,0.580698,-0.321598,0.247073
1174773,0.97,-1.57099,-0.522771,0.000489962,-2.09699,-0.000523072,1.57126,0.784961,-1.5708,-0.523599,5.25168e-08,-2.0944,1.0192e-07,1.5708,0.785398,0.000842123,0.000138308,-0.000510281,-0.000438138,-5.08263e-05,-0.000288245,0.000962931,0,0,0,0,0,0,0,0.200207,-10.2646,-1.01617,22.1381,1.29946,1.35336,0.226328,0.222351,-1.13129,-0.549758,3.5902,0.580665,-0.321776,0.247129
1174774,0.97,-1.57099,-0.522772,0.000493761,-2.09699,-0.000523793,1.57126,0.784961,-1.5708,-0.523599,5.25168e-08,-2.0944,1.0192e-07,1.5708,0.785398,-8.81988e-05,-0.000464607,0.000216625,0.000821532,-0.000271243,4.51956e-05,0.000641954,0,0,0,0,0,0,0,0.227978,-10.2408,-1.03998,22.0905,1.30586,1.34695,0.226328,0.221839,-1.12982,-0.550662,3.58974,0.580654,-0.321871,0.247198
1174775,0.97,-1.57099,-0.522772,0.00049234,-2.09699,-0.000522474,1.57126,0.784959,-1.5708,-0.523599,5.25168e-08,-2.0944,1.0192e-07,1.5708,0.785398,-5.87992e-05,-0.000309738,0.000144417,-0.000565936,0.000259981,3.01304e-05,-8.0657e-05,0,0,0,0,0,0,0,0.227978,-10.2408,-1.03998,22.1381,1.29396,1.34695,0.240061,0.221523,-1.12854,-0.551251,3.58918,0.580658,-0.321969,0.247237
1174776,0.97,-1.57099,-0.522772,0.000491866,-2.09699,-0.000523085,1.57126,0.784958,-1.5708,-0.523599,5.25168e-08,-2.0944,1.0192e-07,1.5708,0.785398,-3.91995e-05,0.00035032,9.62778e-05,0.000179521,-3.013e-05,2.00869e-05,-0.000528489,0,0,0,0,0,0,0,0.227978,-10.2646,-1.03998,22.1143,1.29946,1.34695,0.252878,0.221376,-1.12795,-0.551644,3.58896,0.580691,-0.322026,0.247229
1174777,0.97,-1.57099,-0.522769,0.000491709,-2.09699,-0.000523085,1.57126,0.784955,-1.5708,-0.523599,5.25168e-08,-2.0944,1.0192e-07,1.5708,0.785398,0.000623481,0.000883161,6.41852e-05,0.00132611,-2.00867e-05,-0.000223968,-0.00130176,0,0,0,0,0,0,0,0.200207,-10.2924,-1.03998,22.0627,1.29946,1.35336,0.278513,0.221241,-1.12886,-0.552006,3.58915,0.580738,-0.322058,0.247186
1174778,0.97,-1.57099,-0.522768,0.000491656,-2.09699,-0.000523085,1.57126,0.784956,-1.5708,-0.523599,5.25168e-08,-2.0944,1.0192e-07,1.5708,0.785398,-0.00134758,0.000588774,4.27901e-05,-0.000879167,-1.33911e-05,0.000325406,-0.000393123,0,0,0,0,0,0,0,0.275585,-10.2924,-1.03998,22.1381,1.29946,1.34054,0.265696,0.221316,-1.13134,-0.552085,3.58971,0.580804,-0.322071,0.247143
1174779,0.97,-1.57099,-0.52277,0.000491638,-2.097,-0.000521865,1.57126,0.784962,-1.5708,-0.523599,5.25168e-08,-2.0944,1.0192e-07,1.5708,0.785398,0.000864849,-0.000257098,2.85267e-05,-0.00234935,0.000397974,0.000216937,0.00143334,0,0,0,0,0,0,0,0.200207,-10.2646,-1.03998,22.2135,1.28847,1.34054,0.219919,0.221768,-1.13537,-0.551711,3.59164,0.580925,-0.321927,0.247137
1174780,0.97,-1.57099,-0.522774,0.000491633,-2.09699,-0.00051989,1.57126,0.784959,-1.5708,-0.523599,5.25168e-08,-2.0944,1.0192e-07,1.5708,0.785398,-7.30482e-05,-0.000728211,1.90178e-05,0.000197005,-0.000141585,-0.000567452,0.00119292,0,0,0,0,0,0,0,0.227978,-10.2408,-1.03998,22.1381,1.29946,1.35977,0.213511,0.222073,-1.13896,-0.551558,3.59428,0.581056,-0.321666,0.247167
1174781,0.97,-1.57099,-0.522771,0.000491631,-2.09699,-0.00052202,1.57126,0.784954,-1.5708,-0.523599,5.25168e-08,-2.0944,1.0192e-07,1.5708,0.785398,0.00115773,7.13382e-05,1.26786e-05,0.000131337,-9.43902e-05,0.000333776,-0.000662783,0,0,0,0,0,0,0,0.176403,-10.2646,-1.03998,22.1381,1.29946,1.34054,0.252878,0.221934,-1.14015,-0.551958,3.59573,0.581129,-0.321507,0.247186
1174782,0.97,-1.57099,-0.522772,0.00049163,-2.09699,-0.00052151,1.57126,0.784954,-1.5708,-0.523599,5.25168e-08,-2.0944,1.0192e-07,1.5708,0.785398,0.000771818,-0.000509253,8.45237e-06,8.75579e-05,0.000343974,-0.000252201,-0.00139129,0,0,0,0,0,0,0,0.176403,-10.2408,-1.03998,22.1381,1.28847,1.35336,0.278513,0.221282,-1.13955,-0.552944,3.59583,0.581141,-0.321491,0.247161
1174783,0.97,-1.571,-0.52277,0.00049163,-2.09699,-0.000523679,1.57126,0.784957,-1.5708,-0.523599,5.25168e-08,-2.0944,1.0192e-07,1.5708,0.785398,-0.00124869,0.00021731,5.63491e-06,0.001172,-0.000414944,-0.000168134,-0.000215451,0,0,0,0,0,0,0,0.251781,-10.2646,-1.03998,22.0905,1.30586,1.35336,0.259287,0.220705,-1.13795,-0.55375,3.595,0.581132,-0.321576,0.247118
1174784,0.97,-1.57099,-0.52277,0.00048801,-2.09699,-0.000521825,1.57126,0.784952,-1.5708,-0.523599,5.25168e-08,-2.0944,1.0192e-07,1.5708,0.785398,-0.00027565,0.000794487,-0.00120267,-0.000332293,0.000367631,0.00012527,-0.000618352,0,0,0,0,0,0,0,0.227978,-10.2924,-0.988401,22.1381,1.28847,1.34695,0.272104,0.22132,-1.13681,-0.552876,3.59397,0.58117,-0.321698,0.247095
1174785,0.97,-1.57099,-0.522771,0.00049376,-2.09699,-0.000523072,1.57126,0.784957,-1.5708,-0.523599,5.25168e-08,-2.0944,1.0192e-07,1.5708,0.785398,-0.000183766,-0.000119956,0.000404646,0.000335283,-0.000161814,8.35131e-05,0.00152055,0,0,0,0,0,0,0,0.227978,-10.2646,-1.03998,22.1143,1.29946,1.34695,0.219919,0.222782,-1.13711,-0.550768,3.59357,0.581254,-0.321766,0.247118
1174786,0.97,-1.57099,-0.52277,0.0004928,-2.09699,-0.000522471,1.57126,0.784953,-1.5708,-0.523599,5.25168e-08,-2.0944,1.0192e-07,1.5708,0.785398,-0.000122511,0.000569643,-0.000287048,0.000780334,9.55746e-05,-0.000181684,-0.000207006,0,0,0,0,0,0,0,0.227978,-10.2924,-1.01617,22.0905,1.29396,1.35336,0.252878,0.223974,-1.13766,-0.549037,3.59327,0.581319,-0.321821,0.247181
1174787,0.97,-1.57099,-0.522771,0.000490906,-2.097,-0.000521863,1.57126,0.784955,-1.5708,-0.523599,5.25168e-08,-2.0944,1.0192e-07,1.5708,0.785398,-8.1674e-05,0.000379762,-0.000191365,-0.00115021,0.000267167,-0.000121122,-0.000612722,0,0,0,0,0,0,0,0.227978,-10.2924,-1.01617,22.1619,1.28847,1.35336,0.265696,0.224789,-1.13864,-0.547845,3.59324,0.581364,-0.321837,0.247253
1174788,0.97,-1.57099,-0.522773,0.000490275,-2.097,-0.000523797,1.57126,0.784957,-1.5708,-0.523599,5.25168e-08,-2.0944,1.0192e-07,1.5708,0.785398,0.000595165,-0.000396439,-0.000127577,-0.000766809,-0.000466149,-8.07482e-05,-0.000171122,0,0,0,0,0,0,0,0.200207,-10.2646,-1.01617,22.1619,1.30586,1.35336,0.259287,0.225268,-1.14044,-0.547077,3.59421,0.581412,-0.321721,0.247329
1174789,0.97,-1.57099,-0.522771,0.000495536,-2.09699,-0.000523085,1.57126,0.784958,-1.5708,-0.523599,5.25168e-08,-2.0944,1.0192e-07,1.5708,0.785398,0.000396776,-0.000264293,0.00102857,0.000602418,-7.34069e-05,-5.38322e-05,0.000123277,0,0,0,0,0,0,0,0.200207,-10.2646,-1.06378,22.1143,1.29946,1.35336,0.252878,0.224861,-1.14127,-0.547537,3.59509,0.581414,-0.321576,0.247426
1174790,0.97,-1.57099,-0.522772,0.000490704,-2.09699,-0.000523085,1.57126,0.784959,-1.5708,-0.523599,5.25168e-08,-2.0944,1.0192e-07,1.5708,0.785398,0.00082133,-0.000733007,-0.000427909,0.000958424,-4.89379e-05,-0.000273247,0.000556903,0,0,0,0,0,0,0,0.176403,-10.2408,-1.01617,22.0905,1.29946,1.35977,0.240061,0.223548,-1.13962,-0.549242,3.59443,0.581342,-0.321564,0.247548
1174791,0.97,-1.57099,-0.52277,0.000491878,-2.09699,-0.000522475,1.57126,0.784962,-1.5708,-0.523599,5.25168e-08,-2.0944,1.0192e-07,1.5708,0.785398,-0.000658873,6.81405e-05,0.000271539,-0.000474675,0.000170825,0.000292553,0.00135461,0,0,0,0,0,0,0,0.227978,-10.2646,-1.03998,22.1381,1.29396,1.34695,0.213511,0.222264,-1.13651,-0.550821,3.59271,0.581256,-0.32164,0.247674
1174792,0.97,-1.57099,-0.52277,0.000491712,-2.09699,-0.000521865,1.57126,0.78496,-1.5708,-0.523599,5.25168e-08,-2.0944,1.0192e-07,1.5708,0.785398,-0.000439249,0.000695041,0.000181026,0.000240362,0.000317334,0.000195035,0.00114043,0,0,0,0,0,0,0,0.227978,-10.2924,-1.03998,22.1143,1.28847,1.34695,0.207102,0.221624,-1.13467,-0.551507,3.59163,0.581221,-0.321653,0.247774
1174793,0.97,-1.57099,-0.522773,0.000491657,-2.09699,-0.000522475,1.57126,0.784955,-1.5708,-0.523599,5.25168e-08,-2.0944,1.0192e-07,1.5708,0.785398,0.000356782,-0.000186253,0.000120684,0.000160241,8.10549e-06,0.000367383,-0.00140985,0,0,0,0,0,0,0,0.200207,-10.2646,-1.03998,22.1143,1.29396,1.34054,0.265696,0.221303,-1.13455,-0.551791,3.59134,0.581217,-0.321603,0.247803
1174794,0.97,-1.57099,-0.522772,0.000491639,-2.097,-0.000523085,1.57126,0.784955,-1.5708,-0.523599,5.25168e-08,-2.0944,1.0192e-07,1.5708,0.785398,0.000237854,-0.000680981,8.04561e-05,-0.0010068,-0.000198047,0.000244922,-0.00141462,0,0,0,0,0,0,0,0.200207,-10.2408,-1.03998,22.1619,1.29946,1.34054,0.278513,0.220849,-1.13437,-0.552228,3.59118,0.581207,-0.32154,0.247754
1174795,0.97,-1.57099,-0.522768,0.000492093,-2.09699,-0.000521865,1.57126,0.784956,-1.5708,-0.523599,5.25168e-08,-2.0944,1.0192e-07,1.5708,0.785398,0.00015857,0.000752439,-0.000503175,-0.000114386,0.00027487,0.000163281,-0.00046836,0,0,0,0,0,0,0,0.200207,-10.2924,-1.01617,22.1381,1.28847,1.34054,0.265696,0.220418,-1.13432,-0.55255,3.59146,0.581207,-0.321434,0.247678
1174796,0.97,-1.57099,-0.52277,0.00049067,-2.09699,-0.000523085,1.57126,0.784955,-1.5708,-0.523599,5.25168e-08,-2.0944,1.0192e-07,1.5708,0.785398,0.000105713,-0.000147988,-0.00033545,-7.6257e-05,-0.000223655,-0.000603223,0.000162478,0,0,0,0,0,0,0,0.200207,-10.2646,-1.01617,22.1381,1.29946,1.35977,0.252878,0.220372,-1.13526,-0.552207,3.59229,0.581227,-0.321308,0.24763
1174797,0.97,-1.57099,-0.52277,0.000497617,-2.09699,-0.000519279,1.57126,0.78496,-1.5708,-0.523599,5.25168e-08,-2.0944,1.0192e-07,1.5708,0.785398,-0.000579139,-9.86588e-05,0.0015396,-5.0838e-05,5.43475e-05,-0.00016479,0.00132902,0,0,0,0,0,0,0,0.227978,-10.2646,-1.09155,22.1381,1.29396,1.35336,0.219919,0.220262,-1.13612,-0.551988,3.59299,0.58123,-0.321216,0.247632
1174798,0.96,-1.57099,-0.522772,0.000492879,-2.09699,-0.000518824,1.57126,0.784957,-1.5708,-0.523599,5.25168e-08,-2.0944,1.0192e-07,1.5708,0.785398,-0.000386092,-6.57725e-05,-0.000736835,-3.3892e-05,-0.000167219,0.000127499,0.000648655,0,0,0,0,0,0,0,0.227978,-10.2646,-1.01617,22.1381,1.29946,1.34695,0.226328,0.21993,-1.13625,-0.552257,3.59329,0.581208,-0.321167,0.24766
1174799,0.96,-1.57099,-0.522769,0.000492603,-2.097,-0.000521055,1.57126,0.784958,-1.5708,-0.523599,5.25168e-08,-2.0944,1.0192e-07,1.5708,0.785398,-0.000257395,0.000605766,6.55888e-05,-0.00122902,9.19713e-05,8.49995e-05,-7.61894e-05,0,0,0,0,0,0,0,0.227978,-10.2924,-1.03998,22.1897,1.29396,1.34695,0.240061,0.220065,-1.13691,-0.55192,3.59395,0.581215,-0.321088,0.247668
1174800,0.96,-1.57099,-0.522772,0.000491954,-2.09699,-0.000523324,1.57126,0.784956,-1.5708,-0.523599,5.25168e-08,-2.0944,1.0192e-07,1.5708,0.785398,0.000478017,-0.000802582,4.37259e-05,0.000387079,-0.000379495,5.66663e-05,-0.00100023,0,0,0,0,0,0,0,0.200207,-10.2408,-1.03998,22.1381,1.30586,1.34695,0.265696,0.220375,-1.13803,-0.551315,3.59503,0.581243,-0.320973,0.247633
1174801,0.96,-1.57099,-0.52277,0.000490067,-2.09699,-0.000519121,1.57126,0.784959,-1.5708,-0.523599,5.25168e-08,-2.0944,1.0192e-07,1.5708,0.785398,0.000318678,2.17572e-05,-0.000527661,0.000814865,0.000187813,3.77776e-05,0.000282617,0,0,0,0,0,0,0,0.200207,-10.2646,-1.01617,22.1143,1.29396,1.34695,0.240061,0.220369,-1.13752,-0.551102,3.59508,0.581237,-0.320965,0.24757
1174802,0.96,-1.57099,-0.522772,0.000489995,-2.09699,-0.000521357,1.57126,0.784961,-1.5708,-0.523599,5.25168e-08,-2.0944,1.0192e-07,1.5708,0.785398,0.000212452,-0.000542307,-0.000351774,-1.35689e-05,0.000125208,2.5185e-05,0.000697037,0,0,0,0,0,0,0,0.200207,-10.2408,-1.01617,22.1381,1.29396,1.34695,0.226328,0.220366,-1.13537,-0.550766,3.59392,0.581211,-0.321085,0.2475
1174803,0.96,-1.57099,-0.522768,0.000488022,-2.09699,-0.000521492,1.57126,0.784961,-1.5708,-0.523599,5.25168e-08,-2.0944,1.0192e-07,1.5708,0.785398,0.000141635,0.000844888,-0.00088413,0.000547766,0.000286923,1.679e-05,0.000464692,0,0,0,0,0,0,0,0.200207,-10.2924,-0.988401,22.1143,1.28847,1.34695,0.226328,0.220643,-1.13347,-0.549906,3.59274,0.581197,-0.321222,0.247421
1174804,0.96,-1.57099,-0.52277,0.000493304,-2.09699,-0.000522351,1.57126,0.78496,-1.5708,-0.523599,5.25168e-08,-2.0944,1.0192e-07,1.5708,0.785398,-0.000555191,-8.63554e-05,0.00117382,-0.000191635,-1.21687e-05,-0.000463525,3.8527e-05,0,0,0,0,0,0,0,0.227978,-10.2646,-1.06378,22.1381,1.29396,1.35977,0.233652,0.22092,-1.13294,-0.549039,3.5922,0.581192,-0.321312,0.247316
1174805,0.96,-1.57099,-0.522768,0.000491631,-2.097,-0.000518628,1.57126,0.784955,-1.5708,-0.523599,5.25168e-08,-2.0944,1.0192e-07,1.5708,0.785398,-0.000926939,0.000592044,0.000225733,-0.00133418,0.000195338,0.000165702,-0.00163583,0,0,0,0,0,0,0,0.251781,-10.2924,-1.03998,22.1897,1.28847,1.34695,0.278513,0.220844,-1.13402,-0.54889,3.59283,0.581191,-0.321283,0.247178
1174806,0.96,-1.57099,-0.52277,0.00049209,-2.09699,-0.000519523,1.57126,0.784954,-1.5708,-0.523599,5.25168e-08,-2.0944,1.0192e-07,1.5708,0.785398,-6.11475e-05,-0.000254918,-0.000406323,0.000873783,-0.000514035,0.000347827,-0.000378475,0,0,0,0,0,0,0,0.227978,-10.2646,-1.01617,22.1143,1.30586,1.34054,0.259287,0.220854,-1.13584,-0.548798,3.59418,0.581204,-0.32117,0.247022
1174807,0.96,-1.57099,-0.522768,0.0004928,-2.09699,-0.00052105,1.57126,0.784956,-1.5708,-0.523599,5.25168e-08,-2.0944,1.0192e-07,1.5708,0.785398,-4.0765e-05,0.000479668,-0.000270882,2.571e-05,9.81197e-05,-5.47452e-06,0.000697119,0,0,0,0,0,0,0,0.227978,-10.2924,-1.01617,22.1381,1.29396,1.34695,0.233652,0.221211,-1.13697,-0.548194,3.59495,0.581213,-0.321122,0.246891
1174808,0.96,-1.57099,-0.522772,0.000494707,-2.09699,-0.00052139,1.57126,0.784956,-1.5708,-0.523599,5.25168e-08,-2.0944,1.0192e-07,1.5708,0.785398,0.000622437,-0.000886647,0.000376224,0.000573952,0.000268864,-3.64968e-06,0.000736013,0,0,0,0,0,0,0,0.200207,-10.2408,-1.03998,22.1143,1.28847,1.34695,0.226328,0.221305,-1.13674,-0.547914,3.59478,0.581181,-0.321171,0.2468
1174809,0.96,-1.57099,-0.522772,0.000496456,-2.09699,-0.000522317,1.57126,0.784956,-1.5708,-0.523599,5.25168e-08,-2.0944,1.0192e-07,1.5708,0.785398,-0.000234656,-3.4286e-05,0.000807628,0.000382635,-2.42081e-05,-2.43312e-06,-0.000730028,0,0,0,0,0,0,0,0.227978,-10.2646,-1.06378,22.1143,1.29396,1.34695,0.259287,0.220601,-1.13487,-0.548817,3.59372,0.58109,-0.321297,0.246725
1174810,0.96,-1.57099,-0.522767,0.000492682,-2.09699,-0.000519227,1.57126,0.784956,-1.5708,-0.523599,5.25168e-08,-2.0944,1.0192e-07,1.5708,0.785398,0.00104999,0.00118357,-1.83934e-05,-0.000301722,-1.61387e-05,0.000473096,-0.000724044,0,0,0,0,0,0,0,0.176403,-10.3162,-1.03998,22.1381,1.29396,1.33413,0.265696,0.219265,-1.13355,-0.550683,3.5929,0.580969,-0.321411,0.246651
1174811,0.96,-1.57099,-0.522768,0.00049198,-2.09699,-0.000518807,1.57126,0.784954,-1.5708,-0.523597,2.55252e-06,-2.0944,1.5967e-06,1.5708,0.785397,-0.000506433,0.000232234,-1.22622e-05,0.000355664,-0.00021421,-0.000159321,-0.000245337,-0.00325272,0.001875,0.0025,-0.003125,0.00149478,0.005,-0.0012878,0.227978,-10.2924,-1.03998,22.1143,1.29946,1.34695,0.259287,0.217978,-1.13467,-0.552451,3.59328,0.580871,-0.321439,0.246595
1174812,0.96,-1.57099,-0.522774,0.000490258,-2.097,-0.000521659,1.57126,0.784954,-1.57081,-0.523593,7.55252e-06,-2.0944,4.58627e-06,1.57081,0.785394,-0.000337622,-0.0010516,-0.0012146,-0.000876515,-0.000142806,-0.000343573,-0.000875635,-0.00650544,0.00375,0.005,-0.00625,0.00298957,0.01,-0.00257561,0.227978,-10.2408,-0.988401,22.1619,1.29946,1.35336,0.278513,0.21772,-1.13587,-0.552712,3.59389,0.580831,-0.321439,0.246573
1174813,0.96,-1.57099,-0.522771,0.000494509,-2.09699,-0.000521389,1.57126,0.784956,-1.57082,-0.523587,1.50525e-05,-2.09441,9.07063e-06,1.57083,0.78539,-0.000225082,-0.000144257,0.000396692,-2.75312e-05,0.000311697,8.31046e-06,0.000840397,-0.00975816,0.005625,0.0075,-0.009375,0.00448435,0.015,-0.00386341,0.227978,-10.2646,-1.03998,22.1381,1.28847,1.34695,0.240061,0.218496,-1.13542,-0.55149,3.59408,0.580842,-0.321441,0.246597
1174814,0.96,-1.57099,-0.52277,0.000498521,-2.09699,-0.000522317,1.57126,0.784958,-1.57083,-0.52358,2.50525e-05,-2.09443,1.50498e-05,1.57085,0.785385,0.00105637,-0.00100274,0.00711223,-0.0028303,4.34731e-06,0.000242899,0.00154361,-0.0130109,0.0075,0.01,-0.0125,0.00597914,0.02,-0.00515121,0.176403,-10.0901,-1.06378,21.9873,1.29396,1.34054,0.213511,0.216975,-1.13444,-0.55393,3.59472,0.580764,-0.321374,0.24669
1174815,0.96,-1.57099,-0.522777,0.000493443,-2.09699,-0.000519837,1.57126,0.784958,-1.57085,-0.52357,3.75525e-05,-2.09444,2.25237e-05,1.57087,0.785379,0.00135386,-0.000216108,0.0043119,-0.00188401,-0.000200552,-0.00126222,0.00126643,-0.0162636,0.009375,0.0125,-0.015625,0.00747392,0.025,-0.00643902,0.148632,-9.55844,-0.889218,21.5668,1.29946,1.37899,0.207102,0.210209,-1.13423,-0.564548,3.59687,0.580476,-0.321134,0.246838
1174816,0.96,-1.57099,-0.522776,0.000491368,-2.09699,-0.000518807,1.57126,0.784954,-1.57086,-0.523559,5.25525e-05,-2.09446,3.14924e-05,1.5709,0.785371,-0.000232829,1.40875e-05,-9.0703e-05,-0.00020658,-0.000133702,0.00818395,-0.000613774,-0.0195163,0.01125,0.015,-0.01875,0.0089687,0.03,-0.00772682,0.0732535,-8.97525,-0.734494,21.0709,1.29946,1.39181,0.24647,0.201865,-1.13435,-0.577421,3.59912,0.580136,-0.320892,0.246949
1174817,0.96,-1.571,-0.522767,0.000499476,-2.09699,-0.000518463,1.57126,0.78495,-1.57089,-0.523546,7.00525e-05,-2.09448,4.19559e-05,1.57094,0.785362,-0.00328397,0.00210716,0.00244217,-0.000675867,-8.91344e-05,0.00553557,-0.00159598,-0.022769,0.013125,0.0175,-0.021875,0.0104635,0.035,-0.00901462,0.0732535,-8.44363,-0.686887,20.6226,1.29946,1.41104,0.278513,0.197059,-1.13451,-0.584555,3.59948,0.579978,-0.320855,0.246958
1174818,0.96,-1.57101,-0.522746,0.000506525,-2.09699,-0.000517128,1.57126,0.784952,-1.57091,-0.523531,9.00525e-05,-2.09451,5.39141e-05,1.57098,0.785352,-0.00437228,0.00698227,0.00049322,0.000784421,0.000347478,0.00357206,-0.000351908,-0.0260218,0.015,0.02,-0.025,0.0119583,0.04,-0.0103024,0.0256461,-8.03897,-0.611508,20.0751,1.28847,1.43026,0.259287,0.196799,-1.13882,-0.584393,3.59913,0.580089,-0.320762,0.246901
1174819,0.96,-1.57101,-0.522723,0.000513592,-2.097,-0.000519633,1.57126,0.784958,-1.57094,-0.523514,0.000112553,-2.09454,6.73672e-05,1.57102,0.78534,-0.00540377,0.0116029,-0.00105597,-0.00189813,-0.000616058,0.00680974,0.00169817,-0.0292745,0.016875,0.0225,-0.028125,0.0134531,0.045,-0.0115902,-0.0259286,-7.68588,-0.532163,19.6784,1.31136,1.44949,0.207102,0.201188,-1.15462,-0.576349,3.60126,0.580538,-0.320146,0.246846
1174820,0.96,-1.57102,-0.522699,0.000522525,-2.09701,-0.00051901,1.57127,0.784958,-1.57098,-0.523495,0.000137553,-2.09457,8.2315e-05,1.57107,0.785327,-0.0065095,0.012139,0.00220987,-0.00499258,-0.000207255,0.00991987,0.00113212,-0.0325272,0.01875,0.025,-0.03125,0.0149478,0.05,-0.012878,-0.0497324,-7.33279,-0.508359,19.3293,1.30586,1.44949,0.207102,0.209096,-1.18494,-0.561667,3.60792,0.581354,-0.318668,0.246808
1174821,0.96,-1.57104,-0.522682,0.000530962,-2.09702,-0.000517031,1.57127,0.784948,-1.57101,-0.523474,0.000166943,-2.0946,9.96433e-05,1.57113,0.785312,-0.00733179,0.0118452,0.00394581,-0.00719256,-0.000545071,0.0080198,-0.00165275,-0.0381573,0.0218234,0.0293902,-0.0375,0.0173283,0.0598248,-0.0149077,-0.0775034,-6.9559,-0.456784,18.9801,1.31685,1.43667,0.272104,0.217073,-1.22396,-0.545442,3.61759,0.582412,-0.31623,0.246754
1174822,0.96,-1.57105,-0.522666,0.000549253,-2.09703,-0.000519118,1.57128,0.78495,-1.57106,-0.523449,0.000200723,-2.09465,0.000119352,1.5712,0.785295,-0.00912123,0.0147531,0.00763642,-0.0081773,-0.00141454,0.0104921,-0.0001524,-0.0437874,0.0248967,0.0337804,-0.04375,0.0197087,0.0696497,-0.0169374,-0.0497324,-6.57504,-0.508359,18.7342,1.34523,1.44308,0.24647,0.222225,-1.26455,-0.53208,3.62713,0.583561,-0.312934,0.246678
1174823,0.96,-1.57106,-0.522652,0.000559966,-2.09705,-0.000518762,1.57129,0.784949,-1.57111,-0.523421,0.000238894,-2.0947,0.000141441,1.57128,0.785276,-0.00615541,0.0144368,0.00666574,-0.0105141,-0.000943028,0.010184,-0.0001016,-0.0494175,0.0279701,0.0381706,-0.05,0.0220892,0.0794745,-0.0189671,-0.204456,-6.22195,-0.409177,18.5596,1.34523,1.50808,0.24647,0.223079,-1.30309,-0.523571,3.63434,0.584714,-0.308945,0.246623
1174824,0.97,-1.57107,-0.522638,0.000580953,-2.09706,-0.000519254,1.57129,0.784945,-1.57116,-0.52339,0.000281454,-2.09475,0.000165911,1.57137,0.785255,-0.00903051,0.0143772,0.0109075,-0.0101753,-0.000832136,0.00851985,-0.00501807,-0.0550476,0.0310435,0.0425608,-0.05625,0.0244696,0.0892993,-0.0209969,-0.279835,-5.74191,-0.381406,18.1867,1.35072,1.61703,0.252878,0.219015,-1.33445,-0.52049,3.63643,0.585819,-0.304458,0.246613
1174825,0.98,-1.57109,-0.522622,0.000602943,-2.09708,-0.000519825,1.57129,0.784945,-1.57122,-0.523356,0.000328405,-2.09482,0.000192761,1.57147,0.785232,-0.0128453,0.0146704,0.0123184,-0.0146997,-0.000758208,0.00659716,-0.00350077,-0.0606777,0.0341169,0.046951,-0.0625,0.0268501,0.0991242,-0.0230266,-0.402821,-5.13492,-0.282224,17.7384,1.35622,1.75253,0.24647,0.210875,-1.35428,-0.521866,3.63159,0.586905,-0.299473,0.246647
1174826,0.99,-1.57112,-0.5226,0.000636671,-2.09711,-0.000516048,1.5713,0.784945,-1.57129,-0.523318,0.000379747,-2.09489,0.000221991,1.57158,0.785207,-0.0181278,0.0139952,0.0209794,-0.0196384,0.00074914,0.00583717,-0.00140771,-0.0663078,0.0371902,0.0513412,-0.06875,0.0292305,0.108949,-0.0250563,-0.430592,-4.47635,-0.230649,17.2147,1.32234,1.87521,0.213511,0.199478,-1.36253,-0.527271,3.62125,0.588066,-0.293579,0.246725
1174827,0.99,-1.57115,-0.522575,0.000666238,-2.09714,-0.000510304,1.57132,0.784939,-1.57136,-0.523278,0.000435478,-2.09496,0.000253602,1.5717,0.78518,-0.0242119,0.0191407,0.0219451,-0.0214492,0.00134714,0.0123059,-0.00163411,-0.0719379,0.0402636,0.0557314,-0.075,0.031611,0.118774,-0.027086,-0.478199,-3.77017,-0.0798923,16.5958,1.29946,1.9393,0.226328,0.185361,-1.36278,-0.536521,3.60773,0.589376,-0.286334,0.246824
1174828,0.99,-1.57119,-0.522533,0.000705828,-2.09717,-0.000499794,1.57135,0.784932,-1.57144,-0.523235,0.0004956,-2.09504,0.000287594,1.57183,0.785151,-0.0292621,0.025509,0.0283113,-0.0234912,0.00191534,0.0177094,-0.00200108,-0.077568,0.043337,0.0601216,-0.08125,0.0339914,0.128599,-0.0291157,-0.50597,-3.29013,-0.0283176,15.9967,1.27199,1.98416,0.24647,0.170258,-1.36334,-0.547125,3.59307,0.590918,-0.277529,0.246907
1174829,0.99,-1.57123,-0.522495,0.00075237,-2.09723,-0.000490959,1.57138,0.78493,-1.57152,-0.523188,0.000560111,-2.09513,0.000323966,1.57196,0.78512,-0.0324968,0.0294248,0.0336057,-0.0367159,0.00660506,0.0224375,-0.0051898,-0.0831981,0.0464104,0.0645117,-0.0875,0.0363719,0.138423,-0.0311454,-0.557545,-2.78232,-0.000546589,15.6238,1.24361,2.00979,0.219919,0.153857,-1.37463,-0.559225,3.58202,0.592704,-0.266662,0.246973
1174830,0.99,-1.57128,-0.522455,0.000799464,-2.09727,-0.000487048,1.57143,0.78493,-1.57161,-0.523139,0.000629013,-2.09522,0.000362718,1.57211,0.785087,-0.0391414,0.0309396,0.0362317,-0.0389139,0.00757415,0.0278465,-0.00711562,-0.0888282,0.0494837,0.0689019,-0.09375,0.0387523,0.148248,-0.0331751,-0.557545,-2.35385,0.0748318,15.1795,1.28298,1.97775,0.181467,0.135485,-1.39977,-0.573447,3.57795,0.594699,-0.253229,0.247041
1174831,0.99,-1.57134,-0.522415,0.000853604,-2.09733,-0.000482311,1.5715,0.784921,-1.57171,-0.523086,0.00070366,-2.09533,0.00040439,1.57227,0.785051,-0.0446878,0.0348256,0.0423502,-0.0431677,0.00947531,0.0437211,-0.011603,-0.0961242,0.0528777,0.0746464,-0.103125,0.0416723,0.161023,-0.0356223,-0.529774,-1.92538,0.0986355,14.8542,1.29396,1.8688,0.219919,0.116606,-1.43196,-0.587466,3.57655,0.596848,-0.237685,0.247065
1174832,0.99,-1.5714,-0.522383,0.000910097,-2.0974,-0.000476434,1.57159,0.784903,-1.57181,-0.52303,0.00078405,-2.09544,0.000448983,1.57245,0.785013,-0.0501063,0.033443,0.04831,-0.0516996,0.00944276,0.055171,-0.0165302,-0.10342,0.0562716,0.0803908,-0.1125,0.0445923,0.173798,-0.0380696,-0.557545,-1.44534,0.0748318,14.632,1.34523,1.77175,0.304148,0.0972008,-1.46271,-0.601465,3.57218,0.599082,-0.220873,0.247
1174833,0.99,-1.57146,-0.522347,0.000971441,-2.09747,-0.000468728,1.57167,0.784891,-1.57192,-0.52297,0.000870186,-2.09556,0.000496495,1.57263,0.784973,-0.0519496,0.0334872,0.0545695,-0.0554409,0.0106256,0.064702,-0.0181036,-0.110716,0.0596655,0.0861352,-0.121875,0.0475122,0.186573,-0.0405168,-0.680531,-1.01291,0.0986355,14.4574,1.36812,1.76535,0.337107,0.0752036,-1.4834,-0.618488,3.56124,0.601317,-0.203449,0.246889
1174834,0.99,-1.57152,-0.522317,0.0010395,-2.09754,-0.00045953,1.57177,0.784878,-1.57204,-0.522907,0.000962065,-2.09569,0.000546927,1.57283,0.78493,-0.0546216,0.030529,0.0592993,-0.0628998,0.0122377,0.0745057,-0.0170364,-0.118012,0.0630594,0.0918796,-0.13125,0.0504322,0.199349,-0.0429641,-0.882862,-0.457489,0.126407,14.2075,1.37361,1.82302,0.310557,0.0484205,-1.48475,-0.641306,3.53984,0.603446,-0.186067,0.246858
1174835,0.99,-1.5716,-0.522278,0.00111823,-2.09762,-0.000448547,1.57187,0.784864,-1.57216,-0.522841,0.00105969,-2.09583,0.000600279,1.57304,0.784884,-0.0616126,0.0329119,0.0633753,-0.0705153,0.0140223,0.0837607,-0.0159459,-0.125308,0.0664533,0.097624,-0.140625,0.0533522,0.212124,-0.0454113,-1.00982,0.0463562,0.126407,13.9338,1.36171,1.95852,0.272104,0.0173306,-1.46381,-0.668769,3.50752,0.60554,-0.168994,0.247011
1174836,0.99,-1.57169,-0.522238,0.00120079,-2.09771,-0.000435739,1.57199,0.784849,-1.5723,-0.522771,0.00116306,-2.09598,0.000656551,1.57327,0.784836,-0.0685428,0.0345071,0.0685125,-0.076364,0.0105752,0.0935305,-0.0155065,-0.132604,0.0698472,0.103368,-0.15,0.0562721,0.224899,-0.0478586,-1.06139,0.554169,0.174014,13.537,1.36171,2.03543,0.240061,-0.0149477,-1.42573,-0.696282,3.46745,0.607847,-0.152048,0.247361
1174837,0.99,-1.57178,-0.522191,0.00128035,-2.09781,-0.000416245,1.57213,0.784827,-1.57244,-0.522697,0.00127217,-2.09614,0.000715743,1.57351,0.784786,-0.077163,0.0397792,0.0730998,-0.0847199,0.0129731,0.109715,-0.0198677,-0.1399,0.0732411,0.109113,-0.159375,0.0591921,0.237674,-0.0503058,-1.08519,1.00644,0.328738,13.0173,1.33974,2.00338,0.207102,-0.0455777,-1.379,-0.719886,3.42337,0.610593,-0.134929,0.247846
1174838,0.99,-1.57188,-0.522134,0.00137124,-2.09792,-0.000395235,1.5723,0.784802,-1.57258,-0.522621,0.00138703,-2.09631,0.000777855,1.57376,0.784733,-0.0830009,0.0432139,0.0814275,-0.0909244,0.0147824,0.128582,-0.0238081,-0.147196,0.0766351,0.114857,-0.16875,0.0621121,0.250449,-0.0527531,-1.13677,1.36349,0.404117,12.6166,1.31685,1.90084,0.187876,-0.0741324,-1.33162,-0.739103,3.3783,0.613834,-0.117436,0.248375
1174839,0.99,-1.57199,-0.522083,0.00146878,-2.09805,-0.000364208,1.57248,0.784766,-1.57274,-0.522541,0.00150763,-2.09649,0.000842887,1.57402,0.784678,-0.0937551,0.0463814,0.0843042,-0.101836,0.0213716,0.147877,-0.0288959,-0.154492,0.080029,0.120602,-0.178125,0.065032,0.263224,-0.0552003,-1.16057,1.81577,0.503299,12.3429,1.26558,1.79098,0.226328,-0.100829,-1.28779,-0.754291,3.33363,0.617522,-0.0995797,0.248835
1174840,0.99,-1.5721,-0.522029,0.00157076,-2.09818,-0.000335979,1.57269,0.784732,-1.5729,-0.522457,0.00163398,-2.09668,0.000910839,1.5743,0.78462,-0.0988134,0.051201,0.0902918,-0.113013,0.0245501,0.166339,-0.0304574,-0.161788,0.0834229,0.126346,-0.1875,0.067952,0.275999,-0.0576476,-1.18834,2.16885,0.578677,12.0691,1.26009,1.68203,0.207102,-0.124565,-1.25078,-0.763638,3.29161,0.621641,-0.0813384,0.249143
1174841,0.99,-1.57223,-0.52198,0.00167005,-2.09832,-0.00030436,1.57291,0.784696,-1.57307,-0.522371,0.00176699,-2.09688,0.000982081,1.57459,0.78456,-0.107128,0.0495934,0.0934649,-0.121946,0.0255582,0.184441,-0.0317822,-0.170166,0.0865008,0.133011,-0.19999,0.0712417,0.290605,-0.0603285,-1.13677,2.60129,0.70563,11.847,1.28847,1.57858,0.187876,-0.145107,-1.21972,-0.766363,3.25284,0.626097,-0.0628889,0.249279
1174842,0.99,-1.57236,-0.521924,0.00178281,-2.09848,-0.000272145,1.57314,0.784649,-1.57325,-0.522281,0.00190666,-2.09709,0.00105661,1.57489,0.784497,-0.116075,0.0508723,0.0989524,-0.130607,0.0249807,0.201223,-0.0389679,-0.178545,0.0895787,0.139677,-0.21248,0.0745315,0.305211,-0.0630094,-1.08519,2.93057,0.70563,11.7002,1.36171,1.52731,0.213511,-0.162081,-1.1855,-0.7618,3.21302,0.630767,-0.0448715,0.249232
1174843,0.99,-1.5725,-0.521867,0.0018982,-2.09864,-0.000230644,1.57338,0.784598,-1.57344,-0.522189,0.00205301,-2.09731,0.00113443,1.57521,0.784431,-0.124333,0.0523256,0.104055,-0.137763,0.0315078,0.213178,-0.0396586,-0.186923,0.0926566,0.146342,-0.22497,0.0778212,0.319817,-0.0656903,-1.109,3.23209,0.781009,11.597,1.36812,1.5914,0.24647,-0.17499,-1.14119,-0.749559,3.16829,0.635595,-0.0278704,0.248994
1174844,0.99,-1.57263,-0.521814,0.00201808,-2.09881,-0.000183861,1.57364,0.784543,-1.57363,-0.522093,0.00220601,-2.09755,0.00121554,1.57555,0.784363,-0.129289,0.0506668,0.108071,-0.147684,0.0356455,0.226896,-0.0442784,-0.195302,0.0957345,0.153008,-0.23746,0.0811109,0.334424,-0.0683712,-1.28753,3.63675,0.860354,11.4264,1.39009,1.70126,0.259287,-0.184948,-1.08321,-0.731358,3.11681,0.640503,-0.0121317,0.248602
1174845,0.99,-1.57279,-0.521754,0.00214668,-2.09898,-0.000131688,1.57392,0.784476,-1.57383,-0.521994,0.00236569,-2.0978,0.00129995,1.5759,0.784292,-0.136994,0.0539612,0.116866,-0.154764,0.0396655,0.24307,-0.0486366,-0.20368,0.0988124,0.159673,-0.24995,0.0844007,0.34903,-0.0710521,-1.31133,3.98984,0.959536,11.1011,1.3846,1.78457,0.297739,-0.194543,-1.00958,-0.710808,3.05791,0.645398,0.00236179,0.248142
1174846,0.99,-1.57296,-0.521689,0.00229562,-2.09918,-7.04127e-05,1.57421,0.784409,-1.57405,-0.521892,0.00253203,-2.09806,0.00138764,1.57626,0.784218,-0.144662,0.0564387,0.127014,-0.167683,0.0433201,0.256492,-0.0566174,-0.212059,0.10189,0.166339,-0.26244,0.0876904,0.363636,-0.073733,-1.23595,4.34293,0.907962,10.8512,1.36171,1.82302,0.337107,-0.207543,-0.9251,-0.693684,2.99436,0.650214,0.01603,0.247736
1174847,0.99,-1.57314,-0.521626,0.0024327,-2.09939,-6.23809e-06,1.57452,0.78434,-1.57427,-0.521787,0.00270503,-2.09834,0.00147862,1.57664,0.784142,-0.158004,0.0575857,0.127594,-0.181841,0.0463341,0.273545,-0.0601583,-0.220438,0.104968,0.173004,-0.27493,0.0909802,0.378242,-0.0764139,-1.08519,4.72379,1.01111,10.4306,1.33425,1.82302,0.316965,-0.223271,-0.837518,-0.679575,2.93164,0.655131,0.0296802,0.247496
1174848,0.99,-1.57332,-0.521554,0.00257462,-2.09961,6.14204e-05,1.57486,0.784273,-1.5745,-0.521679,0.0028847,-2.09863,0.00157289,1.57703,0.784063,-0.162397,0.0608764,0.133021,-0.19374,0.05257,0.293742,-0.0652494,-0.228816,0.108046,0.179669,-0.28742,0.0942699,0.392848,-0.0790948,-1.16057,5.0015,1.16187,10.1093,1.31136,1.70126,0.240061,-0.236879,-0.751753,-0.661584,2.87352,0.660426,0.0439139,0.247482
1174849,0.99,-1.57352,-0.521483,0.002729,-2.09984,0.00013859,1.57521,0.7842,-1.57473,-0.521568,0.00307103,-2.09893,0.00167045,1.57744,0.783981,-0.173621,0.061805,0.143916,-0.20512,0.0585454,0.321744,-0.065795,-0.237195,0.111124,0.186335,-0.29991,0.0975597,0.407455,-0.0817757,-1.16057,5.33078,1.26502,9.78397,1.24361,1.58499,0.181467,-0.248565,-0.668635,-0.640155,2.81949,0.665997,0.0586357,0.247681
1174850,0.99,-1.57373,-0.521407,0.00288986,-2.10009,0.000216743,1.57559,0.78411,-1.57498,-0.521454,0.00326403,-2.09924,0.0017713,1.57786,0.783897,-0.183036,0.0695116,0.14874,-0.220338,0.0646812,0.337116,-0.0705958,-0.245573,0.114202,0.193,-0.3124,0.100849,0.422061,-0.0844567,-1.109,5.60849,1.28882,9.58561,1.23812,1.41745,0.240061,-0.260577,-0.591108,-0.619132,2.76978,0.671624,0.0736202,0.247982
1174851,0.99,-1.57395,-0.521324,0.00305547,-2.10035,0.0003027,1.57598,0.784023,-1.57523,-0.521337,0.0034643,-2.09956,0.0018757,1.5783,0.783809,-0.196698,0.0725169,0.154471,-0.228097,0.0691927,0.353603,-0.0768314,-0.25455,0.117015,0.200268,-0.32489,0.104406,0.437376,-0.0872818,-1.03362,5.75925,1.3404,9.26029,1.24361,1.32772,0.24647,-0.27071,-0.52525,-0.59569,2.72638,0.677296,0.0887901,0.248258
1174852,0.99,-1.57417,-0.521243,0.00322312,-2.10062,0.000394251,1.57637,0.78394,-1.5755,-0.521217,0.00367184,-2.0999,0.00198366,1.57875,0.783719,-0.209697,0.0732051,0.159726,-0.240329,0.0727472,0.367545,-0.0766521,-0.263527,0.119828,0.207536,-0.33738,0.107963,0.452692,-0.0901069,-1.06139,5.96158,1.3642,9.06192,1.25459,1.35977,0.252878,-0.275052,-0.467782,-0.564554,2.68624,0.683021,0.103631,0.248447
1174853,0.99,-1.5744,-0.521165,0.00340417,-2.1009,0.000491634,1.57678,0.783852,-1.57577,-0.521094,0.00388664,-2.10025,0.00209518,1.57922,0.783626,-0.219314,0.0756939,0.168907,-0.252633,0.0809565,0.384179,-0.0810647,-0.272504,0.122641,0.214804,-0.34987,0.111519,0.468007,-0.092932,-1.109,6.21548,1.28882,8.86356,1.23171,1.46231,0.252878,-0.273032,-0.410862,-0.525322,2.64523,0.688706,0.117634,0.248553
1174854,0.99,-1.57464,-0.52108,0.00359104,-2.10119,0.000591622,1.57721,0.783758,-1.57605,-0.520969,0.00410871,-2.10061,0.00221026,1.5797,0.78353,-0.222429,0.0765082,0.173264,-0.261978,0.0850233,0.400754,-0.0842997,-0.281481,0.125454,0.222072,-0.36236,0.115076,0.483323,-0.0957571,-1.31133,6.36624,1.31262,8.71677,1.2491,1.52731,0.252878,-0.268802,-0.349918,-0.483497,2.60114,0.694102,0.130614,0.248612
1174855,0.99,-1.57489,-0.520994,0.00378449,-2.1015,0.00070032,1.57766,0.783657,-1.57634,-0.520841,0.00433805,-2.10099,0.00232889,1.5802,0.783432,-0.234056,0.0788778,0.182085,-0.275407,0.0940022,0.417969,-0.0887428,-0.290457,0.128268,0.22934,-0.37485,0.118632,0.498639,-0.0985823,-1.28753,6.44162,1.3642,8.6652,1.23812,1.55935,0.310557,-0.266434,-0.281782,-0.444027,2.55202,0.698988,0.142553,0.248657
1174856,0.99,-1.57517,-0.520907,0.00399563,-2.10183,0.00081543,1.57813,0.783554,-1.57664,-0.52071,0.00457466,-2.10138,0.00245108,1.58071,0.78333,-0.252356,0.0809916,0.188836,-0.289432,0.0999599,0.434344,-0.0911293,-0.299434,0.131081,0.236608,-0.38734,0.122189,0.513954,-0.101407,-1.08519,6.49319,1.26502,8.6652,1.24361,1.5914,0.343516,-0.264795,-0.207894,-0.405657,2.49932,0.703485,0.153842,0.248714
1174857,0.99,-1.57545,-0.520817,0.00420217,-2.10216,0.000935263,1.57862,0.783457,-1.57695,-0.520576,0.00481854,-2.10177,0.00257683,1.58124,0.783226,-0.259263,0.0821968,0.195009,-0.303357,0.10399,0.45457,-0.0945101,-0.308411,0.133894,0.243876,-0.39983,0.125745,0.52927,-0.104233,-1.03362,6.54477,1.26502,8.689,1.26009,1.56576,0.291331,-0.260643,-0.131219,-0.364598,2.44573,0.707857,0.164956,0.248847
1174858,0.99,-1.57572,-0.520719,0.00440699,-2.10252,0.0010583,1.57913,0.783359,-1.57727,-0.520439,0.00506968,-2.10219,0.00270613,1.58179,0.783119,-0.266654,0.084968,0.199846,-0.319012,0.111902,0.470199,-0.0980087,-0.317388,0.136707,0.251144,-0.41232,0.129302,0.544585,-0.107058,-1.13677,6.517,1.39197,8.81595,1.26558,1.54013,0.259287,-0.254506,-0.0538015,-0.321363,2.39337,0.712166,0.17622,0.249131
1174859,0.99,-1.57602,-0.520624,0.00463784,-2.10288,0.00119144,1.57966,0.783254,-1.57759,-0.520299,0.00532809,-2.10261,0.00283899,1.58235,0.783009,-0.278205,0.088652,0.210271,-0.331741,0.11832,0.490928,-0.101214,-0.326365,0.13952,0.258412,-0.42481,0.132859,0.559901,-0.109883,-1.08519,6.54477,1.3642,8.88736,1.24361,1.50167,0.240061,-0.248863,0.0207214,-0.279251,2.3446,0.716366,0.187852,0.249564
1174860,0.99,-1.57632,-0.520518,0.00486327,-2.10326,0.00132387,1.58021,0.783139,-1.57793,-0.520157,0.00559377,-2.10305,0.0029754,1.58292,0.782897,-0.285108,0.0937269,0.214361,-0.352363,0.12263,0.508103,-0.104819,-0.335342,0.142333,0.26568,-0.4373,0.136415,0.575216,-0.112708,-1.00982,6.46939,1.3642,8.99051,1.2491,1.4559,0.259287,-0.245041,0.0857156,-0.240304,2.30345,0.720503,0.200098,0.250085
1174861,0.99,-1.57664,-0.520409,0.00509292,-2.10364,0.00145516,1.58078,0.783031,-1.57827,-0.520012,0.00586707,-2.1035,0.00311551,1.58351,0.782781,-0.295823,0.0979396,0.218268,-0.358125,0.125235,0.522707,-0.106217,-0.34458,0.144991,0.273302,-0.44979,0.140106,0.590468,-0.115587,-0.934437,6.36624,1.43958,8.99051,1.27199,1.40463,0.233652,-0.24177,0.136424,-0.202394,2.27222,0.724683,0.212998,0.250626
1174862,0.99,-1.57697,-0.520296,0.00533759,-2.10405,0.00159941,1.58135,0.782924,-1.57863,-0.519864,0.006148,-2.10396,0.0032593,1.58412,0.782663,-0.304066,0.0994702,0.234075,-0.368711,0.128993,0.544456,-0.101155,-0.353819,0.14765,0.280925,-0.46228,0.143796,0.605719,-0.118467,-0.910633,6.31467,1.46735,8.99051,1.23812,1.3854,0.175059,-0.239476,0.17882,-0.166375,2.24512,0.728759,0.225752,0.251141
1174863,0.99,-1.5773,-0.520193,0.00560025,-2.10446,0.00174842,1.58195,0.782812,-1.57899,-0.519714,0.00643655,-2.10444,0.00340679,1.58474,0.782541,-0.315956,0.100982,0.2398,-0.379667,0.140601,0.561349,-0.103384,-0.363057,0.150308,0.288548,-0.47477,0.147487,0.62097,-0.121346,-0.831288,6.39005,1.41577,8.96274,1.18135,1.35336,0.149424,-0.241534,0.223149,-0.138062,2.21486,0.732412,0.237452,0.251568
1174864,0.99,-1.57765,-0.520084,0.00585833,-2.10488,0.00189821,1.58256,0.782713,-1.57936,-0.519561,0.00673272,-2.10492,0.00355797,1.58538,0.782417,-0.32719,0.103004,0.246411,-0.390887,0.139973,0.574176,-0.102905,-0.372295,0.152967,0.296171,-0.48726,0.151177,0.636222,-0.124225,-0.859058,6.44162,1.51892,8.96274,1.15297,1.41104,0.0651953,-0.246425,0.274323,-0.11572,2.17916,0.735601,0.247852,0.251789
1174865,0.99,-1.57801,-0.519976,0.00612303,-2.10532,0.00204879,1.58317,0.782597,-1.57974,-0.519406,0.00703651,-2.10542,0.00371283,1.58603,0.78229,-0.336217,0.105868,0.255018,-0.401159,0.141768,0.585781,-0.10198,-0.381534,0.155625,0.303794,-0.49975,0.154867,0.651473,-0.127105,-0.78368,6.56857,1.61811,8.88736,1.18685,1.4559,0.09083,-0.251058,0.332715,-0.0948972,2.13835,0.738399,0.257071,0.251678
1174866,0.99,-1.57839,-0.519854,0.00641062,-2.10576,0.00220447,1.58381,0.782475,-1.58013,-0.519247,0.00734793,-2.10594,0.00387139,1.58669,0.78216,-0.353245,0.11347,0.262102,-0.41438,0.144103,0.597651,-0.106344,-0.390772,0.158283,0.311417,-0.51224,0.158558,0.666724,-0.129984,-0.50597,6.46939,1.54273,8.76438,1.19783,1.49526,0.129282,-0.253812,0.392285,-0.0734677,2.09598,0.7409,0.265567,0.251136
1174867,0.99,-1.57877,-0.519725,0.00669164,-2.10621,0.00235734,1.58447,0.782356,-1.58053,-0.519086,0.00766697,-2.10646,0.00403364,1.58738,0.782027,-0.362329,0.115688,0.266707,-0.427025,0.14204,0.624306,-0.10899,-0.40001,0.160942,0.319039,-0.52473,0.162248,0.681976,-0.132863,-0.478199,6.36624,1.64191,8.64139,1.29946,1.48153,0.155832,-0.251346,0.444743,-0.0469637,2.05658,0.743382,0.273822,0.250135
1174868,0.99,-1.57916,-0.519592,0.00698279,-2.10668,0.00251756,1.58514,0.782237,-1.58094,-0.518923,0.00799363,-2.107,0.00419958,1.58807,0.781891,-0.371163,0.122731,0.276282,-0.43767,0.147565,0.63233,-0.110293,-0.409249,0.1636,0.326662,-0.53722,0.165939,0.697227,-0.135743,-0.50597,6.26706,1.74506,8.51841,1.32784,1.40463,0.16865,-0.243391,0.487168,-0.0148965,2.02144,0.745992,0.281994,0.248753
1174869,0.99,-1.57957,-0.519455,0.00729847,-2.10715,0.00268063,1.58583,0.782118,-1.58136,-0.518756,0.00832792,-2.10755,0.00436921,1.58879,0.781753,-0.383417,0.125104,0.284269,-0.44776,0.15012,0.650489,-0.11062,-0.418487,0.166259,0.334285,-0.54971,0.169629,0.712478,-0.138622,-0.279835,6.18771,1.66968,8.36765,1.29946,1.32772,0.162241,-0.232961,0.520297,0.0185684,1.98937,0.748688,0.290079,0.247118
1174870,0.99,-1.57999,-0.519315,0.00760841,-2.10764,0.00284762,1.58653,0.781997,-1.58179,-0.518588,0.00866982,-2.10811,0.00454253,1.58951,0.781611,-0.394101,0.130421,0.292429,-0.457109,0.155854,0.668724,-0.114144,-0.427726,0.168917,0.341908,-0.5622,0.17332,0.72773,-0.141502,-0.125111,6.08853,1.64191,8.14548,1.28298,1.32772,0.116465,-0.221244,0.547451,0.0515811,1.95746,0.751465,0.297773,0.245329
1174871,0.99,-1.58041,-0.519177,0.00792708,-2.10813,0.00301138,1.58726,0.78187,-1.58223,-0.518416,0.00901952,-2.10868,0.00471957,1.59026,0.781467,-0.402384,0.133224,0.298937,-0.468349,0.158435,0.687073,-0.121799,-0.436969,0.171216,0.349693,-0.57469,0.177041,0.742677,-0.144373,-0.0775034,6.03696,1.72126,7.97092,1.31136,1.27554,0.071604,-0.208456,0.571927,0.0837703,1.92303,0.754309,0.304681,0.243434
1174872,0.99,-1.58085,-0.519035,0.00825805,-2.10864,0.0031846,1.588,0.781745,-1.58267,-0.518243,0.009377,-2.10927,0.00490033,1.59101,0.78132,-0.413802,0.13446,0.307842,-0.479132,0.161519,0.705379,-0.121975,-0.446212,0.173515,0.357478,-0.58718,0.180762,0.757625,-0.147244,-0.0259286,6.01315,1.64191,7.79636,1.28847,1.23709,0.000192821,-0.195112,0.597474,0.114339,1.88423,0.757176,0.310594,0.241412
1174873,0.99,-1.58127,-0.518894,0.00859143,-2.10915,0.0033699,1.58876,0.78161,-1.58313,-0.518067,0.00974226,-2.10987,0.00508482,1.59179,0.781169,-0.416883,0.137895,0.319779,-0.488388,0.169389,0.721699,-0.12479,-0.455455,0.175814,0.365264,-0.59967,0.184484,0.772572,-0.150115,-0.101307,6.03696,1.5943,7.6218,1.25459,1.173,0.00660151,-0.184234,0.628807,0.138896,1.8389,0.75988,0.315326,0.239185
1174874,0.99,-1.5817,-0.518749,0.00893264,-2.10969,0.00355443,1.58954,0.78148,-1.58359,-0.517889,0.0101153,-2.11048,0.00527302,1.59257,0.781016,-0.424617,0.141014,0.321915,-0.500799,0.173595,0.737863,-0.130336,-0.464698,0.178113,0.373049,-0.61216,0.188205,0.787519,-0.152987,-0.355213,6.03696,1.66968,7.54642,1.26009,1.14096,-0.0254419,-0.179028,0.666277,0.153465,1.78687,0.762209,0.31886,0.236659
1174875,0.99,-1.58216,-0.518602,0.00928715,-2.11025,0.00374516,1.59032,0.781345,-1.58407,-0.517709,0.0104961,-2.11111,0.00546495,1.59338,0.780861,-0.436141,0.143067,0.329398,-0.518735,0.173828,0.755286,-0.130001,-0.473941,0.180412,0.380834,-0.62465,0.191926,0.802467,-0.155858,-0.379017,6.03696,1.54273,7.57022,1.22072,1.20504,-0.0510767,-0.176651,0.705701,0.16295,1.73204,0.764334,0.32159,0.233756
1174876,0.99,-1.58263,-0.518453,0.00965775,-2.11081,0.00393252,1.59112,0.781197,-1.58455,-0.517526,0.0108848,-2.11174,0.00566059,1.59419,0.780702,-0.446962,0.147375,0.338989,-0.533429,0.177264,0.768114,-0.136269,-0.483184,0.182711,0.388619,-0.63714,0.195648,0.817414,-0.158729,-0.303639,5.93777,1.3642,7.6456,1.21523,1.27554,-0.0254419,-0.173623,0.741101,0.172358,1.68047,0.766542,0.324177,0.230428
1174877,0.99,-1.58309,-0.518298,0.0100243,-2.11139,0.00412143,1.59195,0.781059,-1.58504,-0.517341,0.0112812,-2.11239,0.00585996,1.59503,0.78054,-0.452524,0.147222,0.344654,-0.544282,0.177574,0.784125,-0.134615,-0.492427,0.18501,0.396404,-0.64963,0.199369,0.832362,-0.1616,-0.402821,5.83463,1.3642,7.79636,1.25459,1.2499,-0.044668,-0.170422,0.771691,0.180995,1.63365,0.768809,0.326919,0.226675
1174878,0.99,-1.58357,-0.518139,0.0104036,-2.11199,0.0043213,1.5928,0.780908,-1.58554,-0.517153,0.0116854,-2.11306,0.00606305,1.59587,0.780376,-0.457666,0.150865,0.356883,-0.573698,0.184716,0.809502,-0.135209,-0.50167,0.187309,0.40419,-0.66212,0.20309,0.847309,-0.164471,-0.529774,5.70767,1.31262,8.04233,1.24361,1.18582,-0.0318506,-0.170317,0.797352,0.184619,1.59345,0.771003,0.330136,0.222542
1174879,0.99,-1.58405,-0.51798,0.0108031,-2.11259,0.00452428,1.59366,0.780756,-1.58605,-0.516964,0.0120973,-2.11373,0.00626987,1.59674,0.780208,-0.469965,0.156065,0.371143,-0.588056,0.190519,0.818476,-0.143919,-0.510913,0.189608,0.411975,-0.67461,0.206812,0.862257,-0.167343,-0.656727,5.60849,1.13806,8.21689,1.22072,1.14096,-0.00621587,-0.177918,0.80917,0.176322,1.56814,0.773106,0.33467,0.218117
1174880,0.99,-1.58453,-0.51781,0.0112021,-2.11322,0.00473429,1.59452,0.780594,-1.58658,-0.516772,0.0125171,-2.11442,0.0064804,1.59761,0.780038,-0.471232,0.160834,0.386812,-0.601303,0.193123,0.836117,-0.146734,-0.520156,0.191907,0.41976,-0.6871,0.210533,0.877204,-0.170214,-0.882862,5.45773,1.08649,8.39145,1.22621,1.15377,0.0258276,-0.198041,0.802078,0.148631,1.55999,0.774928,0.340641,0.213521
1174881,0.99,-1.58502,-0.517642,0.0116192,-2.11385,0.00494131,1.59541,0.780436,-1.5871,-0.516578,0.0129446,-2.11512,0.00669461,1.59851,0.779865,-0.478266,0.163991,0.397454,-0.616413,0.194784,0.84918,-0.151174,-0.529206,0.193697,0.427557,-0.69959,0.214209,0.891703,-0.173035,-1.03362,5.33078,0.907962,8.49063,1.23171,1.16018,0.000192821,-0.234647,0.780069,0.0964234,1.56413,0.776166,0.347389,0.208889
1174882,0.99,-1.58554,-0.517471,0.012056,-2.11451,0.0051587,1.59629,0.780274,-1.58764,-0.516383,0.01338,-2.11583,0.00691249,1.59941,0.779689,-0.491403,0.165043,0.411044,-0.629683,0.19816,0.855234,-0.150899,-0.538255,0.195487,0.435355,-0.71208,0.217885,0.906201,-0.175856,-1.00982,5.2554,0.733401,8.58982,1.19234,1.33413,-0.00621587,-0.285807,0.749983,0.0229743,1.57596,0.776809,0.354466,0.204311
1174883,0.99,-1.58604,-0.5173,0.0124877,-2.11519,0.00537417,1.59717,0.780104,-1.58819,-0.516185,0.0138232,-2.11655,0.00713405,1.60033,0.779511,-0.498497,0.164189,0.417335,-0.642941,0.202953,0.870216,-0.156737,-0.547305,0.197276,0.443152,-0.72457,0.221561,0.9207,-0.178677,-1.18834,5.2554,0.606448,8.64139,1.21523,1.46871,0.0322363,-0.345033,0.721974,-0.0623751,1.58983,0.777016,0.361554,0.199791
1174884,0.99,-1.58655,-0.517134,0.012929,-2.11587,0.00559578,1.59809,0.779928,-1.58875,-0.515986,0.0142741,-2.11729,0.00735929,1.60127,0.779329,-0.50337,0.166211,0.418593,-0.652704,0.208014,0.882095,-0.166732,-0.556355,0.199066,0.450949,-0.73706,0.225237,0.935198,-0.181498,-1.46209,5.27921,0.606448,8.71677,1.19783,1.50808,0.0844213,-0.405534,0.70544,-0.148673,1.59945,0.776921,0.36833,0.195309
1174885,0.99,-1.58709,-0.516954,0.0133795,-2.11658,0.00583378,1.59902,0.779745,-1.58931,-0.515786,0.0147328,-2.11804,0.0075882,1.60222,0.779145,-0.511578,0.167996,0.428506,-0.663357,0.216111,0.92414,-0.17005,-0.565404,0.200856,0.458747,-0.74955,0.228912,0.949697,-0.184319,-1.54143,5.15225,0.503299,8.81595,1.15297,1.46231,0.149424,-0.46289,0.704698,-0.227949,1.5996,0.776617,0.37433,0.190893
1174886,0.99,-1.58762,-0.516774,0.0138415,-2.11729,0.00607444,1.59999,0.779562,-1.58989,-0.515583,0.0151994,-2.1188,0.00782079,1.60318,0.778958,-0.518652,0.175841,0.435703,-0.678392,0.224516,0.934669,-0.176225,-0.574454,0.202646,0.466544,-0.76204,0.232588,0.964195,-0.18714,-1.58904,4.97769,0.42792,8.76438,1.15297,1.36618,0.213511,-0.516998,0.714531,-0.299564,1.59082,0.77612,0.379417,0.186657
1174887,0.99,-1.58817,-0.516598,0.0143033,-2.11802,0.00631695,1.60095,0.779382,-1.59047,-0.515378,0.0156737,-2.11958,0.00805705,1.60416,0.778768,-0.533226,0.176508,0.440043,-0.692309,0.229535,0.933489,-0.177621,-0.583504,0.204436,0.474342,-0.77453,0.236264,0.978694,-0.189961,-1.58904,4.92612,0.479495,8.81595,1.1017,1.41745,0.181467,-0.566142,0.723888,-0.361401,1.58018,0.775562,0.384425,0.18277
1174888,0.99,-1.58873,-0.516412,0.0147604,-2.11876,0.00656203,1.60191,0.779201,-1.59106,-0.515172,0.0161559,-2.12036,0.00829699,1.60515,0.778575,-0.543224,0.178786,0.44349,-0.705716,0.228171,0.950892,-0.17738,-0.592553,0.206225,0.482139,-0.78702,0.23994,0.993192,-0.192781,-1.51366,4.79916,0.578677,8.74057,1.07332,1.4559,0.110056,-0.604821,0.729906,-0.406089,1.57157,0.775192,0.390043,0.179358
1174889,0.99,-1.5893,-0.516226,0.0152397,-2.11951,0.00680175,1.60291,0.779012,-1.59166,-0.514964,0.0166458,-2.12116,0.00854061,1.60616,0.778379,-0.550124,0.183162,0.456417,-0.71729,0.230225,0.962069,-0.179531,-0.601603,0.208015,0.489936,-0.79951,0.243616,1.00769,-0.195602,-1.43828,4.69998,0.658023,8.71677,1.07973,1.3854,0.09083,-0.633031,0.734229,-0.433988,1.56448,0.774986,0.396207,0.176441
1174890,0.99,-1.58988,-0.516041,0.0157136,-2.12027,0.00705263,1.60394,0.778817,-1.59227,-0.514754,0.0171435,-2.12198,0.0087879,1.60718,0.778181,-0.557778,0.183868,0.459632,-0.723715,0.234506,0.979391,-0.186566,-0.610653,0.209805,0.497734,-0.812,0.247292,1.02219,-0.198423,-1.43828,4.69998,0.884158,8.64139,1.09621,1.16659,0.09083,-0.656094,0.739604,-0.452802,1.55559,0.774613,0.40243,0.173944
1174891,0.99,-1.59046,-0.515848,0.0161939,-2.12104,0.00731518,1.60494,0.778617,-1.59289,-0.514543,0.017649,-2.1228,0.00903878,1.60822,0.77798,-0.57008,0.18663,0.464745,-0.736085,0.24045,0.99182,-0.187224,-0.619354,0.210983,0.505422,-0.82449,0.250876,1.03615,-0.201168,-1.38671,4.62064,1.01111,8.689,1.07332,1.14096,0.103647,-0.674308,0.751598,-0.46281,1.5399,0.773929,0.407989,0.171721
1174892,0.99,-1.59107,-0.51566,0.0166913,-2.12182,0.00756671,1.60596,0.778414,-1.59352,-0.514331,0.0181621,-2.12364,0.00929324,1.60927,0.777776,-0.584519,0.186879,0.474763,-0.748042,0.243452,0.987982,-0.189496,-0.628055,0.212162,0.513111,-0.83698,0.25446,1.05011,-0.203912,-1.18834,4.62064,0.98334,8.71677,1.08522,1.19863,0.155832,-0.684948,0.771674,-0.46065,1.51734,0.773044,0.412709,0.169659
1174893,0.99,-1.59168,-0.515463,0.0171852,-2.12263,0.00782174,1.60697,0.778216,-1.59416,-0.514118,0.0186829,-2.12449,0.00955128,1.61033,0.777569,-0.58943,0.192263,0.480895,-0.765534,0.245111,0.990548,-0.189958,-0.636756,0.21334,0.520799,-0.84947,0.258044,1.06408,-0.206656,-1.13677,4.52145,1.03491,8.71677,1.1017,1.35977,0.0523779,-0.689138,0.794419,-0.44873,1.49389,0.772032,0.417246,0.167753
1174894,0.99,-1.5923,-0.515266,0.0176847,-2.12344,0.00807677,1.60802,0.777999,-1.5948,-0.513903,0.0192114,-2.12535,0.00981291,1.61141,0.77736,-0.602979,0.193401,0.484271,-0.782746,0.249624,1.0064,-0.196485,-0.645457,0.214518,0.528488,-0.86196,0.261628,1.07804,-0.2094,-1.00982,4.4183,1.13806,8.88736,1.13008,1.44949,0.103647,-0.688004,0.810926,-0.428792,1.4772,0.771053,0.422428,0.16601
1174895,0.99,-1.59293,-0.51506,0.0181877,-2.12427,0.00834569,1.60908,0.777795,-1.59546,-0.513688,0.0197475,-2.12622,0.0100781,1.6125,0.777148,-0.613915,0.195327,0.48917,-0.795651,0.252426,1.02267,-0.198045,-0.654157,0.215697,0.536176,-0.87445,0.265212,1.092,-0.212144,-0.934437,4.14059,1.26502,9.01432,1.18135,1.47512,0.071604,-0.678965,0.8189,-0.397388,1.46922,0.770372,0.428458,0.164345
1174896,0.99,-1.59356,-0.514866,0.0186912,-2.12511,0.00861502,1.61016,0.777575,-1.59612,-0.513471,0.0202914,-2.12711,0.0103469,1.61361,0.776933,-0.625066,0.195808,0.492242,-0.82718,0.256353,1.0446,-0.206066,-0.662858,0.216875,0.543865,-0.88694,0.268796,1.10596,-0.214888,-0.78368,4.01761,1.43958,9.28806,1.22072,1.32772,0.110056,-0.659749,0.817824,-0.3517,1.47183,0.77029,0.435589,0.162681
1174897,0.99,-1.59422,-0.514669,0.0192145,-2.126,0.00889148,1.61126,0.777365,-1.59679,-0.513253,0.020843,-2.12801,0.0106193,1.61473,0.776715,-0.631089,0.196971,0.500456,-0.844437,0.263545,1.06261,-0.204844,-0.671559,0.218053,0.551553,-0.89943,0.27238,1.11992,-0.217633,-0.581349,3.86288,1.5943,9.76017,1.13558,1.25631,0.0587866,-0.63227,0.803282,-0.294563,1.49107,0.771031,0.444447,0.161005
1174898,1,-1.5949,-0.514463,0.0197235,-2.12689,0.00916447,1.61235,0.777164,-1.59747,-0.513034,0.0214022,-2.12892,0.0108953,1.61586,0.776495,-0.644145,0.200342,0.513218,-0.855691,0.265281,1.07977,-0.201697,-0.68026,0.219232,0.559242,-0.91192,0.275964,1.13389,-0.220377,-0.22826,3.71213,1.79663,10.0577,1.1191,1.17941,-0.044668,-0.602332,0.777265,-0.234664,1.52501,0.77236,0.454581,0.159326
1174899,1,-1.59557,-0.514257,0.0202544,-2.12778,0.00944087,1.61348,0.776952,-1.59816,-0.512813,0.0219691,-2.12985,0.0111748,1.61701,0.776272,-0.656194,0.201492,0.513038,-0.870995,0.273066,1.09422,-0.2037,-0.688961,0.22041,0.56693,-0.92441,0.279548,1.14785,-0.223121,-0.152882,3.5098,1.99897,10.3553,1.14198,1.05032,-0.161856,-0.571382,0.746143,-0.174887,1.5659,0.77394,0.464807,0.157566
1174900,1,-1.59625,-0.514045,0.0207977,-2.12871,0.00971041,1.61462,0.77674,-1.59886,-0.512592,0.0225438,-2.13078,0.0114579,1.61817,0.776046,-0.663408,0.205325,0.52126,-0.890038,0.266389,1.10493,-0.203484,-0.697662,0.221588,0.574619,-0.9369,0.283132,1.16181,-0.225865,-0.125111,3.30746,2.09815,10.752,1.19234,0.844325,-0.213125,-0.5361,0.710956,-0.110664,1.612,0.775748,0.474642,0.155521
1174901,1,-1.59694,-0.513828,0.021329,-2.12965,0.0099817,1.61573,0.776522,-1.59957,-0.512369,0.0231259,-2.13173,0.0117445,1.61935,0.775817,-0.691815,0.206714,0.52564,-0.89805,0.263784,1.10015,-0.20867,-0.705893,0.222095,0.582102,-0.94939,0.286596,1.17519,-0.228517,-0.0259286,3.02975,2.14972,10.8789,1.18685,1.05032,-0.232351,-0.492085,0.67086,-0.0363975,1.66397,0.777967,0.483915,0.15295
1174902,1,-1.59763,-0.513615,0.0218751,-2.13058,0.0102452,1.61686,0.776297,-1.60028,-0.512147,0.0237154,-2.13269,0.0120346,1.62054,0.775586,-0.694499,0.208972,0.527003,-0.907844,0.263998,1.09687,-0.214939,-0.714123,0.222602,0.589585,-0.96188,0.290059,1.18856,-0.231168,-0.125111,2.82742,2.25287,10.8789,1.23812,1.32131,-0.193899,-0.434069,0.6307,0.0548071,1.71752,0.780723,0.492142,0.149652
1174903,1,-1.59835,-0.513391,0.022428,-2.13153,0.010521,1.61799,0.776081,-1.601,-0.511924,0.0243125,-2.13367,0.0123281,1.62174,0.775352,-0.697907,0.212088,0.534462,-0.915335,0.264026,1.10163,-0.213893,-0.722354,0.22311,0.597067,-0.97437,0.293523,1.20194,-0.23382,-0.125111,2.54971,2.37586,10.8036,1.26009,1.47512,-0.174673,-0.366269,0.596112,0.158815,1.76712,0.783698,0.499019,0.145576
1174904,1,-1.59906,-0.513175,0.0229865,-2.13247,0.01081,1.61918,0.775854,-1.60173,-0.5117,0.0249171,-2.13466,0.0126251,1.62295,0.775116,-0.699593,0.215458,0.544499,-0.927024,0.277619,1.1219,-0.219553,-0.730585,0.223617,0.60455,-0.98686,0.296986,1.21531,-0.236471,-0.0775034,2.32358,2.27667,10.5814,1.2491,1.39822,-0.0968531,-0.301465,0.568333,0.259775,1.80998,0.786338,0.504611,0.140821
1174905,1,-1.59979,-0.512961,0.0235585,-2.13343,0.0111082,1.62038,0.775624,-1.60247,-0.511476,0.0255291,-2.13565,0.0129256,1.62418,0.774877,-0.70228,0.214344,0.551242,-0.933692,0.280832,1.12757,-0.224292,-0.738815,0.224124,0.612033,-0.99935,0.30045,1.22868,-0.239123,-0.0775034,2.16885,2.30048,10.2561,1.12459,1.37899,-0.00621587,-0.249447,0.54995,0.344916,1.84316,0.788235,0.508963,0.135563
1174906,1,-1.60052,-0.512746,0.0241408,-2.1344,0.0114093,1.62158,0.775404,-1.60322,-0.511251,0.0261486,-2.13667,0.0132295,1.62542,0.774635,-0.714646,0.215778,0.565744,-0.941955,0.281687,1.15143,-0.223357,-0.747046,0.224631,0.619516,-1.01184,0.303913,1.24206,-0.241774,-0.0497324,2.04587,2.25287,9.93473,1.02297,1.23709,-0.0382593,-0.213381,0.54724,0.409435,1.86194,0.7892,0.511824,0.130045
1174907,1,-1.60128,-0.512531,0.0247314,-2.13536,0.011704,1.6228,0.775191,-1.60397,-0.511026,0.0267756,-2.13769,0.0135368,1.62668,0.77439,-0.728624,0.214831,0.573994,-0.946986,0.28399,1.16893,-0.220033,-0.755276,0.225138,0.626999,-1.02433,0.307377,1.25543,-0.244425,0.0494498,1.89114,2.17353,9.53403,0.994585,1.0375,-0.141714,-0.19018,0.565204,0.455816,1.86157,0.7892,0.512638,0.124502
1174908,1,-1.60204,-0.512307,0.0253425,-2.13635,0.0119951,1.62406,0.774975,-1.60474,-0.510801,0.0274101,-2.13873,0.0138477,1.62795,0.774143,-0.739587,0.217407,0.583322,-0.950337,0.28745,1.18831,-0.218889,-0.763507,0.225645,0.634481,-1.03682,0.310841,1.26881,-0.247077,0.0256461,1.71658,2.07434,9.18888,1.1191,0.86996,-0.219534,-0.173776,0.605904,0.491115,1.83817,0.788218,0.510733,0.119012
1174909,1,-1.60279,-0.512078,0.0259439,-2.13733,0.0122893,1.62531,0.774748,-1.60551,-0.510574,0.028052,-2.13978,0.014162,1.62923,0.773894,-0.74779,0.218546,0.585149,-0.961648,0.284035,1.20651,-0.220925,-0.771737,0.226153,0.641964,-1.04931,0.314304,1.28218,-0.249728,-0.0497324,1.46268,2.05054,8.99051,1.22621,0.702418,-0.206716,-0.158615,0.665552,0.52305,1.79229,0.786395,0.505802,0.113483
1174910,1,-1.60356,-0.511853,0.0265701,-2.13835,0.0125971,1.62656,0.774512,-1.60629,-0.510348,0.0287015,-2.14084,0.0144798,1.63053,0.773641,-0.761049,0.220325,0.597747,-0.972657,0.28697,1.21353,-0.232844,-0.779968,0.22666,0.649447,-1.0618,0.317768,1.29556,-0.25238,-0.101307,1.28415,1.89582,9.03812,1.18685,0.767421,-0.141714,-0.141422,0.734687,0.556361,1.73089,0.784164,0.498293,0.1078
1174911,1,-1.60434,-0.511628,0.0271858,-2.13937,0.0129077,1.62782,0.774263,-1.60708,-0.510121,0.0293581,-2.14191,0.0148009,1.63183,0.773386,-0.762386,0.220124,0.603313,-0.978889,0.292693,1.19771,-0.235256,-0.787633,0.226476,0.656647,-1.07429,0.321093,1.30832,-0.25493,-0.279835,1.16116,1.84424,8.91513,1.14198,0.895594,-0.0254419,-0.123866,0.806924,0.588836,1.66064,0.781773,0.48904,0.101958
1174912,1,-1.60511,-0.511404,0.0278076,-2.1404,0.0132314,1.62911,0.774031,-1.60787,-0.509895,0.030022,-2.143,0.0151253,1.63316,0.773129,-0.771381,0.222685,0.608459,-1.00004,0.30727,1.21908,-0.235237,-0.795298,0.226291,0.663848,-1.08678,0.324419,1.32108,-0.25748,-0.379017,1.08182,1.87201,9.06192,1.13008,1.00546,-0.0840357,-0.108854,0.876761,0.617406,1.58789,0.779232,0.479092,0.0960813
1174913,1,-1.60592,-0.511178,0.0284522,-2.14146,0.0135605,1.6304,0.773791,-1.60867,-0.509669,0.030693,-2.1441,0.015453,1.63449,0.772869,-0.781087,0.22462,0.613093,-1.01586,0.309424,1.22821,-0.238037,-0.802963,0.226107,0.671048,-1.09927,0.327744,1.33384,-0.26003,-0.279835,1.00644,1.87201,9.18888,1.03395,1.28195,-0.0712183,-0.0945975,0.933485,0.645363,1.52238,0.776792,0.469641,0.0903161
1174914,1,-1.60674,-0.510954,0.0290918,-2.14252,0.0138927,1.63171,0.773541,-1.60949,-0.509443,0.0313713,-2.14521,0.0157841,1.63584,0.772606,-0.796877,0.224388,0.618827,-1.05894,0.315416,1.2591,-0.240856,-0.810629,0.225923,0.678248,-1.11176,0.33107,1.34659,-0.26258,0.0256461,1.00644,1.92359,9.26029,0.955217,1.37258,-0.0648096,-0.0762194,0.963056,0.678996,1.47838,0.774993,0.462373,0.0847395
1174915,1,-1.60755,-0.510732,0.0297366,-2.14362,0.0142241,1.63305,0.773292,-1.6103,-0.509217,0.0320567,-2.14634,0.0161185,1.6372,0.772341,-0.803959,0.224487,0.628864,-1.06659,0.323068,1.28119,-0.245422,-0.818294,0.225739,0.685449,-1.12425,0.334395,1.35935,-0.26513,0.148632,0.883453,2.07434,9.46262,0.898454,1.41745,-0.0968531,-0.0518775,0.959257,0.71981,1.46487,0.774071,0.458555,0.0793824
1174916,1,-1.60838,-0.510507,0.0303982,-2.14472,0.0145683,1.6344,0.773033,-1.61113,-0.508992,0.0327494,-2.14747,0.0164562,1.63857,0.772073,-0.813129,0.224545,0.647233,-1.07597,0.331492,1.3361,-0.246183,-0.825959,0.225555,0.692649,-1.13674,0.337721,1.37211,-0.267679,0.32716,0.728729,2.07434,9.63321,0.847185,1.29476,-0.0712183,-0.0282098,0.936617,0.757733,1.46886,0.773326,0.456853,0.0742607
1174917,1,-1.6092,-0.510287,0.0310508,-2.14583,0.0149099,1.63577,0.772772,-1.61196,-0.508766,0.0334492,-2.14862,0.0167972,1.63995,0.771803,-0.818307,0.225313,0.649612,-1.08868,0.336372,1.3524,-0.251029,-0.833624,0.22537,0.699849,-1.14923,0.341046,1.38487,-0.270229,0.275585,0.554169,2.05054,9.85935,0.830705,1.21145,-0.0510767,-0.0120306,0.913255,0.783133,1.47223,0.771904,0.455157,0.0693635
1174918,1,-1.61003,-0.510064,0.0317203,-2.14694,0.0152362,1.63714,0.772525,-1.6128,-0.508541,0.0341563,-2.14978,0.0171416,1.64135,0.77153,-0.821305,0.222274,0.65165,-1.09381,0.331809,1.35269,-0.251426,-0.841289,0.225186,0.70705,-1.16172,0.344372,1.39763,-0.272779,0.251781,0.399445,2.09815,9.80777,0.955217,1.32131,-0.122488,-0.00139112,0.898771,0.800086,1.46721,0.7695,0.452826,0.0646896
1174919,1,-1.61086,-0.509848,0.0324051,-2.14808,0.0155773,1.63852,0.772262,-1.61365,-0.508316,0.0348705,-2.15096,0.0174893,1.64276,0.771255,-0.830922,0.221127,0.65863,-1.10609,0.334175,1.37286,-0.255134,-0.848954,0.225002,0.71425,-1.17421,0.347697,1.41039,-0.275329,0.200207,0.324066,1.82044,9.90696,1.06233,1.32131,-0.103262,0.00816356,0.901304,0.816217,1.44923,0.766107,0.449749,0.0602292
1174920,1,-1.61171,-0.509643,0.0331018,-2.14923,0.0159202,1.63992,0.771988,-1.61451,-0.508091,0.035592,-2.15214,0.0178403,1.64418,0.770977,-0.835765,0.218134,0.669896,-1.11789,0.333244,1.37797,-0.258982,-0.856619,0.224818,0.72145,-1.1867,0.351023,1.42315,-0.277879,0.0732535,0.351837,1.64191,10.1807,1.13558,1.35977,-0.0648096,0.0166555,0.923642,0.8313,1.41811,0.761913,0.446086,0.0559411
1174921,1,-1.61255,-0.509433,0.0338133,-2.1504,0.0162699,1.64135,0.771718,-1.61537,-0.507867,0.0363203,-2.15334,0.0181945,1.64562,0.770697,-0.838475,0.215719,0.684175,-1.13135,0.332467,1.38621,-0.260688,-0.863649,0.22396,0.728305,-1.19919,0.354199,1.43528,-0.280321,-0.176685,0.375641,1.49115,10.4782,1.16945,1.3854,-0.0510767,0.0181359,0.964432,0.836202,1.37752,0.75711,0.442396,0.0518426
1174922,1,-1.61339,-0.509224,0.0345288,-2.15159,0.0166317,1.64277,0.771443,-1.61624,-0.507644,0.0370554,-2.15455,0.0185519,1.64707,0.770414,-0.843942,0.211459,0.697984,-1.15061,0.337296,1.40643,-0.26088,-0.870678,0.223103,0.73516,-1.21168,0.357376,1.44741,-0.282763,-0.478199,0.399445,1.21344,10.8274,1.1017,1.39822,-0.0510767,0.0052719,1.02111,0.82013,1.33263,0.751873,0.439279,0.0480055
1174923,1,-1.61425,-0.509002,0.0352644,-2.15281,0.0169945,1.6442,0.771186,-1.61712,-0.507422,0.0377975,-2.15578,0.0189125,1.64853,0.770129,-0.8528,0.214811,0.703245,-1.1713,0.348901,1.40676,-0.257232,-0.877708,0.222246,0.742014,-1.22417,0.360552,1.45955,-0.285205,-0.605152,0.276459,0.959536,11.4264,1.02846,1.48794,-0.168264,-0.0218118,1.08331,0.783071,1.29309,0.74657,0.437651,0.044452
1174924,1,-1.61512,-0.508771,0.0359976,-2.15405,0.0173581,1.64563,0.7709,-1.61801,-0.507201,0.0385463,-2.15702,0.0192762,1.65,0.769841,-0.861155,0.217964,0.716253,-1.18707,0.352209,1.41758,-0.265018,-0.884737,0.221388,0.748869,-1.23666,0.363729,1.47168,-0.287647,-0.755909,-0.0290222,0.630252,11.7994,0.97719,1.50808,-0.135305,-0.0572185,1.13344,0.73325,1.27044,0.741571,0.438613,0.0411177
1174925,1,-1.61598,-0.508552,0.0367339,-2.1553,0.0177138,1.64708,0.770618,-1.6189,-0.50698,0.0393021,-2.15826,0.0196431,1.65148,0.769551,-0.865866,0.219623,0.722744,-1.2092,0.359594,1.42613,-0.268546,-0.891766,0.220531,0.755724,-1.24915,0.366905,1.48381,-0.290089,-0.859058,-0.306732,0.554873,12.3429,0.97719,1.57217,-0.168264,-0.0976137,1.15893,0.675359,1.27187,0.736987,0.442744,0.0378905
1174926,1,-1.61685,-0.508322,0.0374899,-2.15658,0.0180848,1.64854,0.770344,-1.6198,-0.50676,0.0400646,-2.15953,0.0200132,1.65298,0.769259,-0.86309,0.222674,0.727502,-1.22888,0.362718,1.42366,-0.271123,-0.898796,0.219674,0.762579,-1.26164,0.370082,1.49594,-0.292531,-1.03362,-0.683624,0.479495,12.8666,0.949724,1.67471,-0.200308,-0.142606,1.15393,0.611009,1.30175,0.732758,0.450433,0.0346845
1174927,1,-1.61773,-0.508097,0.0382481,-2.15785,0.0184662,1.65001,0.770044,-1.6207,-0.506542,0.0408341,-2.1608,0.0203864,1.65449,0.768964,-0.865699,0.226828,0.735592,-1.26222,0.36618,1.44514,-0.280023,-0.905825,0.218817,0.769434,-1.27413,0.373258,1.50807,-0.294973,-1.109,-1.01291,0.376346,13.0887,0.921343,1.54653,-0.0318506,-0.192922,1.11071,0.540658,1.36704,0.728895,0.462364,0.0314445
1174928,1,-1.61862,-0.507885,0.0390097,-2.15913,0.018839,1.65149,0.769754,-1.62162,-0.506324,0.0416104,-2.16209,0.0207629,1.65601,0.768666,-0.870299,0.222386,0.734677,-1.26354,0.363731,1.44827,-0.290748,-0.912854,0.217959,0.776288,-1.28662,0.376434,1.5202,-0.297415,-1.03362,-1.16763,0.376346,13.0173,0.915849,1.55294,0.038645,-0.246309,1.03338,0.468324,1.46509,0.72541,0.478059,0.0281644
1174929,1,-1.61953,-0.507683,0.0397723,-2.1604,0.0192251,1.65299,0.769453,-1.62254,-0.506107,0.0423935,-2.16339,0.0211425,1.65754,0.768366,-0.880248,0.217339,0.756844,-1.26256,0.369144,1.47082,-0.294822,-0.919884,0.217102,0.783143,-1.29911,0.379611,1.53234,-0.299857,-0.934437,-1.11606,0.352542,12.569,0.915849,1.28195,0.09083,-0.300663,0.954684,0.39689,1.56932,0.721809,0.49445,0.0249708
1174930,1,-1.62043,-0.507479,0.0405607,-2.16166,0.0196165,1.65452,0.769156,-1.62346,-0.50589,0.0431835,-2.1647,0.0215253,1.65908,0.768064,-0.891206,0.214469,0.764619,-1.26449,0.373777,1.49524,-0.295226,-0.926913,0.216245,0.789998,-1.3116,0.382787,1.54447,-0.302299,-0.755909,-1.06448,0.352542,11.9977,0.881059,1.05673,0.0651953,-0.35809,0.909229,0.321878,1.64994,0.717387,0.507923,0.0220677
1174931,1,-1.62135,-0.507279,0.0413488,-2.16294,0.0199911,1.65603,0.768875,-1.6244,-0.505676,0.0439799,-2.16602,0.0219111,1.66064,0.767759,-0.899772,0.211617,0.76914,-1.263,0.371308,1.49618,-0.2911,-0.933266,0.214772,0.796447,-1.32409,0.385808,1.55597,-0.304618,-0.656727,-0.965302,0.578677,11.3749,0.915849,1.18582,-0.0840357,-0.41534,0.910627,0.2467,1.6927,0.711941,0.516438,0.0195853
1174932,1,-1.62226,-0.507068,0.0421252,-2.16423,0.0203744,1.65756,0.768584,-1.62534,-0.505462,0.0447828,-2.16736,0.0222999,1.66221,0.767453,-0.895195,0.210139,0.775877,-1.27035,0.373291,1.51368,-0.290038,-0.939619,0.213299,0.802895,-1.33658,0.388829,1.56748,-0.306938,-0.581349,-1.01291,0.832583,10.9781,0.989092,1.08877,-0.174673,-0.468893,0.958303,0.177015,1.69524,0.705522,0.519536,0.0175108
1174933,1,-1.62321,-0.50685,0.0429292,-2.16553,0.020757,1.65913,0.768284,-1.62628,-0.50525,0.0455922,-2.16871,0.0226918,1.66379,0.767143,-0.912956,0.209975,0.781354,-1.27345,0.373243,1.525,-0.289831,-0.945973,0.211827,0.809344,-1.34907,0.391849,1.57898,-0.309257,-0.303639,-1.24301,0.860354,10.6528,1.10719,0.81869,-0.278127,-0.518179,1.0428,0.114245,1.66269,0.698335,0.51776,0.0156512
1174934,1,-1.62417,-0.506627,0.0437351,-2.16687,0.0211585,1.66073,0.767986,-1.62723,-0.50504,0.046408,-2.17007,0.0230866,1.66538,0.766832,-0.928507,0.210385,0.790737,-1.28762,0.378075,1.57639,-0.292212,-0.952326,0.210354,0.815793,-1.36156,0.39487,1.59049,-0.311576,-0.0259286,-1.52072,0.884158,10.4544,1.06783,0.574244,-0.310171,-0.556615,1.14971,0.065942,1.60338,0.69105,0.511671,0.0136646
1174935,1,-1.6251,-0.506405,0.0445253,-2.1682,0.0215663,1.6623,0.76769,-1.62819,-0.504831,0.0472302,-2.17144,0.0234845,1.66698,0.766518,-0.929234,0.212916,0.795884,-1.3069,0.39011,1.58037,-0.292753,-0.958679,0.208881,0.822242,-1.37405,0.397891,1.60199,-0.313895,0.0256461,-1.89761,0.959536,10.4068,1.00557,0.587062,-0.362356,-0.580727,1.25933,0.0352043,1.53142,0.684349,0.502215,0.0112306
1174936,1,-1.62605,-0.506191,0.0453308,-2.16954,0.0219765,1.66387,0.76742,-1.62916,-0.504624,0.0480589,-2.17283,0.0238854,1.66859,0.766202,-0.931561,0.215435,0.797679,-1.31511,0.396523,1.56425,-0.288125,-0.965033,0.207408,0.828691,-1.38654,0.400911,1.6135,-0.316214,0.0256461,-2.17532,1.06269,10.2085,0.932329,0.844325,-0.569265,-0.594299,1.35227,0.0173436,1.46273,0.678385,0.491196,0.00816123
1174937,1,-1.62701,-0.505977,0.0461311,-2.1709,0.0223896,1.66545,0.767131,-1.63013,-0.504418,0.048894,-2.17423,0.0242894,1.67022,0.765883,-0.94159,0.215838,0.804161,-1.32084,0.397078,1.5729,-0.288242,-0.971386,0.205936,0.83514,-1.39903,0.403932,1.625,-0.318533,0.200207,-2.40543,1.13806,9.93473,0.86458,1.00546,-0.679128,-0.599131,1.42292,0.0108324,1.40157,0.672952,0.479702,0.00426856
1174938,1,-1.62799,-0.505767,0.0469371,-2.17224,0.0227939,1.66707,0.766824,-1.63111,-0.504213,0.0497356,-2.17564,0.0246963,1.67185,0.765562,-0.957528,0.214434,0.807015,-1.3305,0.403574,1.58596,-0.294458,-0.977739,0.204463,0.841588,-1.41152,0.406952,1.63651,-0.320853,0.454113,-2.55618,1.31262,9.76017,0.859087,1.0375,-0.634268,-0.591892,1.47753,0.0197722,1.34254,0.66791,0.4677,-0.000763046
1174939,1,-1.62899,-0.505565,0.0477534,-2.17361,0.0232186,1.66873,0.766516,-1.63209,-0.50401,0.0505837,-2.17706,0.0251063,1.6735,0.765239,-0.969556,0.209214,0.812226,-1.33071,0.403126,1.59936,-0.296196,-0.984092,0.20299,0.848037,-1.42401,0.409973,1.64801,-0.323172,0.60487,-2.53238,1.49115,9.68479,0.836199,0.921229,-0.523489,-0.567709,1.5287,0.049913,1.27676,0.663163,0.454737,-0.00721421
1174940,1,-1.62997,-0.505373,0.0485772,-2.17499,0.0236475,1.67036,0.766197,-1.63308,-0.503809,0.0514382,-2.1785,0.0255193,1.67516,0.764914,-0.977372,0.204896,0.823757,-1.34859,0.407479,1.61853,-0.304376,-0.990446,0.201518,0.854486,-1.4365,0.412994,1.65952,-0.325491,0.731823,-2.45303,1.49115,9.80777,0.745561,1.00546,-0.322988,-0.528564,1.58918,0.0980053,1.19758,0.658487,0.440492,-0.0150709
1174941,1,-1.63096,-0.505181,0.0494001,-2.1764,0.024072,1.67202,0.765883,-1.63408,-0.503609,0.0522986,-2.17995,0.0259351,1.67683,0.764586,-0.979363,0.202672,0.825326,-1.36909,0.412285,1.62514,-0.313164,-0.996093,0.199529,0.860483,-1.44899,0.415853,1.67041,-0.327678,0.60487,-2.40543,1.69348,10.0339,0.711687,1.108,-0.174673,-0.482154,1.65692,0.15359,1.11192,0.653741,0.425968,-0.023965
1174942,1,-1.63198,-0.504984,0.0502125,-2.17783,0.0244956,1.67368,0.765565,-1.63508,-0.503412,0.0531651,-2.18141,0.0263538,1.67851,0.764256,-0.988558,0.19923,0.825662,-1.38336,0.408699,1.60618,-0.313222,-1.00174,0.197541,0.866481,-1.46148,0.418713,1.68131,-0.329864,0.656444,-2.42923,1.89582,10.3791,0.751055,1.12814,-0.0712183,-0.430852,1.72132,0.214485,1.03279,0.648951,0.413043,-0.0333142
1174943,1,-1.63301,-0.504778,0.0510564,-2.17928,0.0249056,1.67536,0.765241,-1.63609,-0.503216,0.0540376,-2.18289,0.0267754,1.6802,0.763924,-1.00607,0.202573,0.834248,-1.4078,0.415054,1.6206,-0.318841,-1.00739,0.195553,0.872478,-1.47397,0.421572,1.6922,-0.332051,1.03334,-2.68314,1.87201,11.0257,0.847185,1.19863,0.0587866,-0.370832,1.77089,0.286153,0.970729,0.644303,0.403278,-0.042511
1174944,1,-1.63404,-0.504568,0.0519134,-2.18076,0.0253139,1.67705,0.764927,-1.6371,-0.503023,0.0549161,-2.18437,0.0271999,1.68191,0.76359,-1.0107,0.203057,0.841467,-1.42509,0.413964,1.6355,-0.319309,-1.01304,0.193565,0.878475,-1.48646,0.424432,1.70309,-0.334238,1.05714,-3.01242,1.79663,11.6724,1.02297,1.32131,0.0844213,-0.301556,1.79237,0.368249,0.934827,0.640048,0.397446,-0.0510075
1174945,1,-1.63502,-0.504353,0.0527617,-2.18225,0.0257449,1.67873,0.764599,-1.63812,-0.502831,0.0558006,-2.18587,0.0276271,1.68362,0.763253,-1.00041,0.20594,0.845523,-1.47223,0.415224,1.64732,-0.32293,-1.01868,0.191577,0.884472,-1.49895,0.427292,1.71398,-0.336424,0.656444,-3.46469,1.76886,12.3429,1.07332,1.46871,0.09083,-0.231489,1.77146,0.449498,0.937597,0.636442,0.396551,-0.0583229
1174946,1,-1.63603,-0.504154,0.0536386,-2.18377,0.026183,1.68042,0.764279,-1.63914,-0.502642,0.056691,-2.18738,0.0280573,1.68535,0.762915,-0.998363,0.205451,0.849019,-1.48177,0.421508,1.64244,-0.327354,-1.02433,0.189589,0.89047,-1.51144,0.430151,1.72488,-0.338611,0.176403,-3.69479,1.49115,13.0173,0.971697,1.7333,0.0322363,-0.171511,1.69961,0.517192,0.989425,0.633679,0.401786,-0.0641453
1174947,1,-1.63704,-0.503952,0.0545293,-2.18528,0.0266261,1.68211,0.763946,-1.64017,-0.502454,0.0575875,-2.18891,0.0284903,1.68708,0.762574,-1.00342,0.205365,0.870296,-1.48387,0.422884,1.6282,-0.328005,-1.02998,0.187601,0.896467,-1.52393,0.433011,1.73577,-0.340798,-0.152882,-3.94473,1.18964,13.0887,0.909441,1.84225,-0.0254419,-0.129685,1.59329,0.561809,1.07634,0.631343,0.412064,-0.0684091
1174948,1,-1.63805,-0.503767,0.0554048,-2.18677,0.0270749,1.68383,0.763612,-1.64121,-0.502268,0.05849,-2.19044,0.0289262,1.68883,0.762231,-1.00216,0.197257,0.863342,-1.49163,0.433437,1.65145,-0.332586,-1.03563,0.185613,0.902464,-1.53642,0.43587,1.74666,-0.342984,-0.454395,-3.9725,1.01111,12.9181,0.796831,1.90084,-0.103262,-0.108459,1.48527,0.581029,1.16993,0.628707,0.424684,-0.0712963
1174949,1,-1.63909,-0.503595,0.0563227,-2.18829,0.0275255,1.68557,0.76329,-1.64225,-0.502085,0.0593984,-2.19199,0.0293649,1.69059,0.761886,-1.0111,0.187465,0.874731,-1.49465,0.435857,1.67078,-0.326944,-1.04127,0.183625,0.908462,-1.54891,0.43873,1.75756,-0.345171,-0.402821,-3.82175,0.53107,12.5928,0.638445,1.81661,-0.310171,-0.101836,1.40705,0.584778,1.24623,0.625373,0.437063,-0.0731964
1174950,1,-1.64013,-0.503428,0.0572137,-2.1898,0.027988,1.68729,0.762961,-1.6433,-0.501903,0.0603129,-2.19355,0.0298065,1.69235,0.761538,-1.01748,0.180061,0.878664,-1.50241,0.443367,1.69021,-0.326892,-1.04692,0.181636,0.914459,-1.5614,0.441589,1.76845,-0.347358,-0.581349,-3.64322,0.352542,12.2953,0.565202,1.76535,-0.452993,-0.103474,1.38035,0.581896,1.28949,0.621058,0.447324,-0.0746048
1174951,1,-1.64113,-0.50326,0.0581154,-2.19136,0.0284337,1.68908,0.762632,-1.64435,-0.501724,0.0612328,-2.19513,0.0302508,1.69413,0.761189,-1.01822,0.176764,0.879915,-1.51889,0.439582,1.71762,-0.326579,-1.05184,0.179511,0.919978,-1.57389,0.444278,1.77853,-0.349405,-1.00982,-3.54007,0.328738,12.3706,0.62105,1.32772,-0.569265,-0.10946,1.40455,0.576858,1.29952,0.615643,0.455136,-0.0760771
1174952,1,-1.64217,-0.503073,0.0590284,-2.19295,0.0288892,1.69085,0.762282,-1.64541,-0.501546,0.0621583,-2.19671,0.0306977,1.69592,0.760838,-1.01983,0.180222,0.889513,-1.53516,0.440017,1.77249,-0.338506,-1.05677,0.177386,0.925497,-1.58638,0.446967,1.78861,-0.351452,-1.13677,-3.69479,0.277163,12.4182,0.666826,0.954188,-0.485037,-0.118837,1.45818,0.570561,1.28924,0.609328,0.460983,-0.0781326
1174953,1,-1.64321,-0.502875,0.0599471,-2.19451,0.029346,1.69268,0.761915,-1.64647,-0.501371,0.0630894,-2.19831,0.0311474,1.69772,0.760484,-1.02811,0.190094,0.902126,-1.5519,0.445903,1.78772,-0.345011,-1.06169,0.175261,0.931016,-1.59887,0.449656,1.79869,-0.353499,-0.986012,-4.07169,0.126407,12.2953,0.784929,0.373744,-0.303762,-0.134799,1.50856,0.557412,1.27654,0.602432,0.46538,-0.0810826
1174954,1,-1.64428,-0.502678,0.0608851,-2.19611,0.0297967,1.69448,0.761564,-1.64753,-0.501198,0.0640259,-2.19992,0.0315997,1.69953,0.760128,-1.03894,0.190913,0.91568,-1.56031,0.446733,1.78957,-0.345168,-1.06661,0.173136,0.936534,-1.61136,0.452345,1.80877,-0.355546,-0.831288,-4.42477,-0.000546589,12.0453,0.841692,0.328883,-0.252493,-0.15888,1.53094,0.533122,1.27471,0.595232,0.468655,-0.0849055
1174955,1,-1.64532,-0.50248,0.0618078,-2.19769,0.0302579,1.69622,0.761212,-1.6486,-0.501027,0.0649679,-2.20155,0.0320548,1.70135,0.759771,-1.04732,0.189893,0.91995,-1.56286,0.446501,1.7767,-0.349121,-1.07153,0.171011,0.942053,-1.62385,0.455034,1.81885,-0.357594,-0.986012,-4.73026,-0.0521213,11.4502,0.909441,0.805873,-0.225942,-0.188037,1.52718,0.500424,1.28176,0.587884,0.470119,-0.0893249
