shamilmamedov/beam_handling/data/param_estimation_ICRA/ocp_Z_35cm_0.61s_2.csv
duration, success rate, q[0], q[1], q[2], q[3], q[4], q[5], q[6],q_d[0], q_d[1], q_d[2], q_d[3], q_d[4], q_d[5], q_d[6],dq[0], dq[1], dq[2], dq[3], dq[4], dq[5], dq[6],dq_d[0], dq_d[1], dq_d[2], dq_d[3], dq_d[4], dq_d[5], dq_d[6],tau_J[0], tau_J[1], tau_J[2], tau_J[3], tau_J[4], tau_J[5], tau_J[6],tau_ext_hat_filtered[0], tau_ext_hat_filtered[1], tau_ext_hat_filtered[2], tau_ext_hat_filtered[3], tau_ext_hat_filtered[4], tau_ext_hat_filtered[5], tau_ext_hat_filtered[6]
1718580,0,-1.57032,-0.522942,-7.46531e-05,-2.09705,-0.00149769,1.57128,0.785845,-1.5708,-0.523599,-3.68081e-08,-2.0944,-9.84646e-08,1.5708,0.785398,0.000503045,-0.00121527,4.62173e-05,-0.00155098,0.000177853,-4.15012e-05,-0.000282902,0,0,0,0,0,0,0,-0.529774,-10.0385,-0.484555,22.2611,1.85976,1.32772,-0.271719,-0.511517,-0.971665,-0.00648953,3.70413,1.1531,-0.3358,-0.293092
1718581,1,-1.57033,-0.522939,-7.46531e-05,-2.09705,-0.00149788,1.57128,0.785843,-1.5708,-0.523599,-3.68081e-08,-2.0944,-9.84646e-08,1.5708,0.785398,-0.000221449,0.000396248,3.08115e-05,-0.000499525,-0.000288332,-0.000502385,-0.000900678,0,0,0,0,0,0,0,-0.50597,-10.0901,-0.484555,22.2373,1.87074,1.34054,-0.252493,-0.512021,-0.966455,-0.00715291,3.69984,1.15295,-0.336266,-0.293049
1718582,1,-1.57033,-0.522946,-7.66019e-05,-2.09704,-0.00149754,1.57128,0.785844,-1.5708,-0.523599,-3.68081e-08,-2.0944,-9.84646e-08,1.5708,0.785398,-0.000147633,-0.00214869,-0.000629073,0.000207031,-0.000192221,-9.75646e-05,-0.000363093,0,0,0,0,0,0,0,-0.50597,-9.98691,-0.456784,22.2135,1.87074,1.33413,-0.258901,-0.512051,-0.960757,-0.00715138,3.6955,1.15281,-0.33673,-0.292929
1718583,1,-1.57032,-0.522937,-7.29827e-05,-2.09705,-0.00149681,1.57128,0.78585,-1.5708,-0.523599,-3.68081e-08,-2.0944,-9.84646e-08,1.5708,0.785398,0.00045839,0.00153721,0.000787044,-0.000431365,7.53029e-05,-6.50431e-05,0.00189417,0,0,0,0,0,0,0,-0.529774,-10.1139,-0.508359,22.2373,1.86525,1.33413,-0.31658,-0.51184,-0.95469,-0.00681104,3.69088,1.15267,-0.337223,-0.292719
1718584,1,-1.57033,-0.522941,-7.82724e-05,-2.09705,-0.00149677,1.57128,0.785848,-1.5708,-0.523599,-3.68081e-08,-2.0944,-9.84646e-08,1.5708,0.785398,-0.000900832,-0.000181622,-0.00123854,-0.000297007,5.0202e-05,-4.3362e-05,0.000313343,0,0,0,0,0,0,0,-0.478199,-10.0623,-0.432981,22.2373,1.86525,1.33413,-0.290945,-0.511521,-0.951246,-0.00632088,3.68756,1.15257,-0.337615,-0.292438
1718585,1,-1.57033,-0.522941,-7.29827e-05,-2.09704,-0.00149615,1.57128,0.785851,-1.5708,-0.523599,-3.68081e-08,-2.0944,-9.84646e-08,1.5708,0.785398,4.90588e-05,-0.000121081,0.000937543,0.000351735,0.000236918,-0.000266267,0.00139569,0,0,0,0,0,0,0,-0.50597,-10.0623,-0.508359,22.2135,1.85976,1.34054,-0.322988,-0.510771,-0.949621,-0.00525062,3.68521,1.1525,-0.337922,-0.292147
1718586,1,-1.57033,-0.522939,-7.46531e-05,-2.09705,-0.00149614,1.57128,0.78585,-1.5708,-0.523599,-3.68081e-08,-2.0944,-9.84646e-08,1.5708,0.785398,3.27059e-05,0.000568893,6.82169e-05,-0.000884438,0.000157946,5.98476e-05,0.000693101,0,0,0,0,0,0,0,-0.50597,-10.0901,-0.484555,22.2611,1.85976,1.33413,-0.31658,-0.510351,-0.948337,-0.00474158,3.68323,1.15242,-0.338178,-0.291892
1718587,1,-1.57033,-0.522939,-7.46531e-05,-2.09705,-0.00150056,1.57128,0.785848,-1.5708,-0.523599,-3.68081e-08,-2.0944,-9.84646e-08,1.5708,0.785398,-0.000627809,0.000379262,4.54779e-05,-0.000593604,-0.000301604,0.000277257,-0.000250009,0,0,0,0,0,0,0,-0.478199,-10.0901,-0.484555,22.2611,1.87074,1.32772,-0.297354,-0.510289,-0.948732,-0.00483676,3.68251,1.15234,-0.338303,-0.291709
1718588,1,-1.57032,-0.522941,-7.29827e-05,-2.09705,-0.00149782,1.57128,0.785851,-1.5708,-0.523599,-3.68081e-08,-2.0944,-9.84646e-08,1.5708,0.785398,0.000787886,-0.000396773,0.000587131,0.000158092,2.38123e-06,-0.00028988,0.000782763,0,0,0,0,0,0,0,-0.529774,-10.0623,-0.508359,22.2373,1.86525,1.34054,-0.322988,-0.510319,-0.949647,-0.00513163,3.6824,1.15227,-0.338357,-0.291614
1718589,1,-1.57033,-0.522939,-7.82724e-05,-2.09704,-0.00149711,1.57128,0.785849,-1.5708,-0.523599,-3.68081e-08,-2.0944,-9.84646e-08,1.5708,0.785398,0.000525257,0.000385099,-0.00137182,0.00121678,1.58749e-06,0.000281465,-0.000190235,0,0,0,0,0,0,0,-0.529774,-10.0901,-0.432981,22.1897,1.86525,1.32772,-0.303762,-0.510574,-0.949152,-0.00566221,3.68144,1.15216,-0.338487,-0.291606
1718590,1,-1.57033,-0.522944,-7.66019e-05,-2.09704,-0.00150007,1.57128,0.78585,-1.5708,-0.523599,-3.68081e-08,-2.0944,-9.84646e-08,1.5708,0.785398,-0.000206641,-0.00159931,-0.000357733,0.000809509,1.05832e-06,-4.97158e-05,0.000110536,0,0,0,0,0,0,0,-0.50597,-10.0107,-0.456784,22.1897,1.86525,1.33413,-0.310171,-0.510332,-0.946236,-0.00528082,3.67887,1.15204,-0.338761,-0.291687
1718591,1,-1.57033,-0.522941,-7.82724e-05,-2.09704,-0.00149725,1.57128,0.785845,-1.5708,-0.523599,-3.68081e-08,-2.0944,-9.84646e-08,1.5708,0.785398,-0.00013776,0.000140221,-0.000795301,-1.8398e-05,0.000204156,-3.31438e-05,-0.00135046,0,0,0,0,0,0,0,-0.50597,-10.0623,-0.432981,22.2135,1.85976,1.33413,-0.271719,-0.509386,-0.941292,-0.00378985,3.67532,1.15195,-0.3391,-0.291847
1718592,1,-1.57033,-0.522941,-7.66019e-05,-2.09705,-0.00149834,1.57128,0.785843,-1.5708,-0.523599,-3.68081e-08,-2.0944,-9.84646e-08,1.5708,0.785398,-9.18402e-05,9.34807e-05,2.66115e-05,-0.00112683,-0.000474248,-2.20959e-05,-0.00161239,0,0,0,0,0,0,0,-0.50597,-10.0623,-0.456784,22.2611,1.87624,1.33413,-0.252493,-0.508262,-0.937653,-0.00202486,3.67299,1.1519,-0.339295,-0.292044
1718593,1,-1.57033,-0.522942,-7.46531e-05,-2.09705,-0.00149627,1.57128,0.785846,-1.5708,-0.523599,-3.68081e-08,-2.0944,-9.84646e-08,1.5708,0.785398,-0.00071084,-0.000494491,0.000667355,-0.000195118,0.000294187,0.000459987,-0.000125488,0,0,0,0,0,0,0,-0.478199,-10.0385,-0.484555,22.2373,1.85976,1.32131,-0.278127,-0.507517,-0.936408,-0.000884852,3.67256,1.15188,-0.339297,-0.292216
1718594,1,-1.57033,-0.522937,-7.66019e-05,-2.09705,-0.00149679,1.57128,0.785848,-1.5708,-0.523599,-3.68081e-08,-2.0944,-9.84646e-08,1.5708,0.785398,0.00017572,0.00143358,-0.000204711,-0.00013061,-7.32615e-06,-0.00016806,0.000628418,0,0,0,0,0,0,0,-0.50597,-10.1139,-0.456784,22.2373,1.86525,1.33413,-0.297354,-0.507288,-0.936788,-0.00060256,3.67319,1.15187,-0.339213,-0.292314
1718595,1,-1.57032,-0.522941,-7.46531e-05,-2.09705,-0.00149738,1.57128,0.785851,-1.5708,-0.523599,-3.68081e-08,-2.0944,-9.84646e-08,1.5708,0.785398,0.000673959,-0.000250708,0.00051314,0.00046934,-0.000208335,0.000125319,0.00136838,0,0,0,0,0,0,0,-0.529774,-10.0623,-0.484555,22.2135,1.87074,1.32772,-0.322988,-0.507591,-0.938683,-0.00106141,3.67439,1.15183,-0.339116,-0.292338
1718596,1,-1.57033,-0.522941,-7.46531e-05,-2.09704,-0.00149737,1.57128,0.785853,-1.5708,-0.523599,-3.68081e-08,-2.0944,-9.84646e-08,1.5708,0.785398,-0.000107506,-0.000167139,0.000342093,0.000312595,-0.00013889,-0.000153813,0.00142088,0,0,0,0,0,0,0,-0.50597,-10.0623,-0.484555,22.2135,1.87074,1.33413,-0.336721,-0.508521,-0.939912,-0.00236924,3.67506,1.15174,-0.339086,-0.29233
1718597,1,-1.57033,-0.522937,-7.66019e-05,-2.09705,-0.00149736,1.57128,0.785852,-1.5708,-0.523599,-3.68081e-08,-2.0944,-9.84646e-08,1.5708,0.785398,-7.16708e-05,0.001095,-0.000421552,-0.000348639,-9.25932e-05,-0.000339901,0.000675986,0,0,0,0,0,0,0,-0.50597,-10.1139,-0.456784,22.2373,1.87074,1.34054,-0.329397,-0.509399,-0.940643,-0.00359666,3.67546,1.15167,-0.339083,-0.292356
1718598,1,-1.57033,-0.522941,-7.66019e-05,-2.09705,-0.00150117,1.57128,0.785849,-1.5708,-0.523599,-3.68081e-08,-2.0944,-9.84646e-08,1.5708,0.785398,-0.000697394,-0.000476426,-0.000281034,-0.000789406,-0.000265179,0.000248117,-0.000498778,0,0,0,0,0,0,0,-0.478199,-10.0623,-0.456784,22.2611,1.87624,1.32772,-0.303762,-0.509446,-0.942476,-0.00362383,3.67666,1.15166,-0.338993,-0.292466
1718599,1,-1.57033,-0.522939,-7.46531e-05,-2.09705,-0.00149721,1.57128,0.785848,-1.5708,-0.523599,-3.68081e-08,-2.0944,-9.84646e-08,1.5708,0.785398,0.000184684,0.000331997,0.000462258,-0.000526397,0.000433565,0.000165412,-0.000569878,0,0,0,0,0,0,0,-0.50597,-10.0901,-0.484555,22.2611,1.85976,1.32772,-0.297354,-0.509029,-0.944392,-0.0030226,3.67831,1.15171,-0.338838,-0.29267
1718600,1,-1.57032,-0.522939,-7.46531e-05,-2.09705,-0.00149772,1.57128,0.785848,-1.5708,-0.523599,-3.68081e-08,-2.0944,-9.84646e-08,1.5708,0.785398,0.000679935,0.000221331,0.000308172,-0.000351026,-0.000117857,-0.000364444,-0.000617277,0,0,0,0,0,0,0,-0.529774,-10.0901,-0.484555,22.2611,1.87074,1.34054,-0.290945,-0.509155,-0.946068,-0.00322821,3.68005,1.15176,-0.338668,-0.292932
1718601,1,-1.57032,-0.522939,-7.82724e-05,-2.09705,-0.00149748,1.57128,0.785848,-1.5708,-0.523599,-3.68081e-08,-2.0944,-9.84646e-08,1.5708,0.785398,0.00045329,0.000147554,-0.00100098,-0.000234088,-7.85716e-05,0.000231756,-0.000174159,0,0,0,0,0,0,0,-0.529774,-10.0901,-0.432981,22.2611,1.87074,1.32772,-0.297354,-0.509693,-0.947664,-0.00391529,3.68173,1.15178,-0.338512,-0.293214
1718602,1,-1.57033,-0.522939,-7.46531e-05,-2.09705,-0.00149557,1.57128,0.785848,-1.5708,-0.523599,-3.68081e-08,-2.0944,-9.84646e-08,1.5708,0.785398,-0.000254619,9.83694e-05,0.000539107,-0.000156112,0.00055797,-0.000320214,-0.000116106,0,0,0,0,0,0,0,-0.50597,-10.0901,-0.484555,22.2611,1.85426,1.34054,-0.297354,-0.509947,-0.948744,-0.00407075,3.68306,1.15182,-0.338395,-0.293493
1718603,1,-1.57033,-0.522939,-7.66019e-05,-2.09704,-0.00149738,1.57128,0.785843,-1.5708,-0.523599,-3.68081e-08,-2.0944,-9.84646e-08,1.5708,0.785398,-0.000169746,6.55796e-05,-0.000290209,0.00156632,-0.000238371,0.000261242,-0.00173892,0,0,0,0,0,0,0,-0.50597,-10.0901,-0.456784,22.1897,1.87074,1.32772,-0.252493,-0.509958,-0.948681,-0.00388612,3.68343,1.15184,-0.33838,-0.293756
1718604,1,-1.57032,-0.522939,-7.66019e-05,-2.09704,-0.00149737,1.57128,0.785846,-1.5708,-0.523599,-3.68081e-08,-2.0944,-9.84646e-08,1.5708,0.785398,0.000443648,4.37197e-05,-0.000193473,0.000487372,-0.000158914,-6.31978e-05,-0.000209842,0,0,0,0,0,0,0,-0.529774,-10.0901,-0.456784,22.2135,1.87074,1.33413,-0.278127,-0.50984,-0.947124,-0.00350237,3.68243,1.15184,-0.338514,-0.293978
1718605,1,-1.57033,-0.522941,-7.66019e-05,-2.09704,-0.00149675,1.57128,0.785844,-1.5708,-0.523599,-3.68081e-08,-2.0944,-9.84646e-08,1.5708,0.785398,-0.000261047,-0.000620467,-0.000128982,0.000881704,9.75077e-05,0.000432586,-0.000851972,0,0,0,0,0,0,0,-0.50597,-10.0623,-0.456784,22.1897,1.86525,1.32131,-0.258901,-0.509644,-0.944329,-0.00292967,3.68049,1.15181,-0.338736,-0.294123
1718606,1,-1.57032,-0.522939,-7.66019e-05,-2.09705,-0.00149614,1.57128,0.785846,-1.5708,-0.523599,-3.68081e-08,-2.0944,-9.84646e-08,1.5708,0.785398,0.000382781,0.000235969,-8.59879e-05,-0.00108265,0.000268456,-0.000186327,0.000144096,0,0,0,0,0,0,0,-0.529774,-10.0901,-0.456784,22.2611,1.85976,1.33413,-0.278127,-0.509486,-0.941412,-0.0023643,3.67874,1.15179,-0.338921,-0.29417
1718607,1,-1.57032,-0.522937,-7.29827e-05,-2.09705,-0.00149614,1.57128,0.78585,-1.5708,-0.523599,-3.68081e-08,-2.0944,-9.84646e-08,1.5708,0.785398,0.000904801,0.000714125,0.0011491,-0.000164967,0.00017897,0.000113141,0.00152022,0,0,0,0,0,0,0,-0.557545,-10.1139,-0.508359,22.2373,1.85976,1.32772,-0.31658,-0.51001,-0.940615,-0.00274074,3.6786,1.15177,-0.338947,-0.294111
1718608,1,-1.57033,-0.522937,-7.66019e-05,-2.09704,-0.00149736,1.57128,0.785848,-1.5708,-0.523599,-3.68081e-08,-2.0944,-9.84646e-08,1.5708,0.785398,-0.00125284,0.000476083,-0.000440359,0.000446824,-0.000287587,0.000312786,0.000301402,0,0,0,0,0,0,0,-0.478199,-10.1139,-0.456784,22.2135,1.87074,1.32131,-0.297354,-0.511037,-0.942086,-0.00385323,3.67973,1.15174,-0.338873,-0.293977
1718609,1,-1.57032,-0.522937,-7.82724e-05,-2.09704,-0.00149675,1.57128,0.785848,-1.5708,-0.523599,-3.68081e-08,-2.0944,-9.84646e-08,1.5708,0.785398,0.0003712,0.000317389,-0.000850384,0.000854688,1.17256e-05,-0.000266194,-3.64246e-05,0,0,0,0,0,0,0,-0.529774,-10.1139,-0.432981,22.1897,1.86525,1.33413,-0.290945,-0.511134,-0.943857,-0.00362115,3.6806,1.15173,-0.338851,-0.293834
1718610,1,-1.57032,-0.522939,-7.46531e-05,-2.09704,-0.00149736,1.57128,0.785853,-1.5708,-0.523599,-3.68081e-08,-2.0944,-9.84646e-08,1.5708,0.785398,0.000247466,-0.000345219,0.000639503,0.0012194,-0.000195633,-0.000177463,0.0019085,0,0,0,0,0,0,0,-0.529774,-10.0901,-0.484555,22.1619,1.87074,1.33413,-0.34313,-0.510685,-0.944262,-0.00250558,3.6803,1.15172,-0.33895,-0.293711
1718611,1,-1.57033,-0.522941,-7.46531e-05,-2.09704,-0.00149934,1.57128,0.785849,-1.5708,-0.523599,-3.68081e-08,-2.0944,-9.84646e-08,1.5708,0.785398,-0.000391834,-0.00087976,0.000426335,-0.000393496,0.000276479,-0.000355667,-0.000185731,0,0,0,0,0,0,0,-0.50597,-10.0623,-0.484555,22.2135,1.85976,1.34054,-0.303762,-0.510821,-0.942555,-0.00223751,3.67887,1.15166,-0.339126,-0.293624
1718612,1,-1.57032,-0.522939,-7.46531e-05,-2.09705,-0.00149721,1.57128,0.785851,-1.5708,-0.523599,-3.68081e-08,-2.0944,-9.84646e-08,1.5708,0.785398,0.000945203,6.31071e-05,0.000284224,-0.000819146,0.000184319,-0.000237112,0.000588256,0,0,0,0,0,0,0,-0.557545,-10.0901,-0.484555,22.2373,1.85976,1.34054,-0.322988,-0.511548,-0.940292,-0.00287926,3.67771,1.15159,-0.339219,-0.293607
1718613,1,-1.57032,-0.522939,-7.66019e-05,-2.09705,-0.00149772,1.57128,0.78585,-1.5708,-0.523599,-3.68081e-08,-2.0944,-9.84646e-08,1.5708,0.785398,-1.94786e-05,4.20714e-05,-0.000460132,-0.000546099,-0.000284022,-0.000158074,-8.2547e-05,0,0,0,0,0,0,0,-0.529774,-10.0901,-0.456784,22.2373,1.87074,1.34054,-0.310171,-0.512467,-0.939604,-0.00372392,3.67792,1.15155,-0.339136,-0.29367
1718614,1,-1.57032,-0.522939,-7.66019e-05,-2.09704,-0.00149687,1.57128,0.785846,-1.5708,-0.523599,-3.68081e-08,-2.0944,-9.84646e-08,1.5708,0.785398,-1.29857e-05,2.80476e-05,-0.000306754,0.000192744,1.41028e-05,0.000131976,-0.00124183,0,0,0,0,0,0,0,-0.529774,-10.0901,-0.456784,22.2135,1.86525,1.33413,-0.278127,-0.512908,-0.940254,-0.00377447,3.67887,1.15153,-0.338965,-0.29381
1718615,1,-1.57033,-0.522937,-7.66019e-05,-2.09704,-0.0014974,1.57128,0.785847,-1.5708,-0.523599,-3.68081e-08,-2.0944,-9.84646e-08,1.5708,0.785398,-0.00177189,0.00057551,-0.000204503,0.000128495,-0.000194049,0.000325343,-0.000590525,0,0,0,0,0,0,0,-0.454395,-10.1139,-0.456784,22.2135,1.87074,1.32772,-0.284536,-0.512374,-0.94146,-0.00245074,3.67975,1.15157,-0.338802,-0.294006
1718616,1,-1.57033,-0.522942,-7.46531e-05,-2.09704,-0.00150057,1.57128,0.785846,-1.5708,-0.523599,-3.68081e-08,-2.0944,-9.84646e-08,1.5708,0.785398,-0.000624451,-0.00137956,0.000513279,8.56622e-05,-0.000129366,0.000216895,-0.000631042,0,0,0,0,0,0,0,-0.478199,-10.0385,-0.484555,22.2135,1.87074,1.32772,-0.278127,-0.511096,-0.942074,-0.000270607,3.68005,1.15164,-0.338696,-0.294211
1718617,1,-1.57032,-0.522941,-7.46531e-05,-2.09705,-0.00149721,1.57128,0.785845,-1.5708,-0.523599,-3.68081e-08,-2.0944,-9.84646e-08,1.5708,0.785398,0.00199655,-0.000362898,0.000342186,-0.00105652,0.000320657,-9.27621e-05,-0.000658054,0,0,0,0,0,0,0,-0.581349,-10.0623,-0.484555,22.2611,1.85976,1.33413,-0.271719,-0.510577,-0.940965,0.000710192,3.67969,1.15167,-0.338632,-0.29438
1718618,1,-1.57032,-0.522942,-7.82724e-05,-2.09704,-0.00149833,1.57128,0.785853,-1.5708,-0.523599,-3.68081e-08,-2.0944,-9.84646e-08,1.5708,0.785398,0.000124608,-0.000798744,-0.000978302,0.000409279,-0.00039658,0.000175518,0.00220615,0,0,0,0,0,0,0,-0.529774,-10.0385,-0.432981,22.2135,1.87624,1.32772,-0.34313,-0.511275,-0.938972,0.000116005,3.67919,1.15164,-0.338568,-0.294486
1718619,1,-1.57032,-0.522939,-7.46531e-05,-2.09704,-0.00149626,1.57127,0.785848,-1.5708,-0.523599,-3.68081e-08,-2.0944,-9.84646e-08,1.5708,0.785398,8.30718e-05,0.00067393,0.000554225,0.00203609,0.000345965,-0.000595065,-0.000224652,0,0,0,0,0,0,0,-0.529774,-10.0901,-0.484555,22.1381,1.85976,1.34695,-0.297354,-0.511999,-0.936753,-0.000357036,3.67809,1.15158,-0.338597,-0.294551
1718620,1,-1.57032,-0.522939,-7.46531e-05,-2.09704,-0.0014974,1.57128,0.785849,-1.5708,-0.523599,-3.68081e-08,-2.0944,-9.84646e-08,1.5708,0.785398,0.000704995,0.000449287,0.000369483,0.000150967,-0.000176258,0.000315367,8.75913e-05,0,0,0,0,0,0,0,-0.557545,-10.0901,-0.484555,22.1897,1.87074,1.32772,-0.303762,-0.51285,-0.935358,-0.00100688,3.67653,1.15151,-0.338718,-0.294619
1718621,1,-1.57032,-0.522939,-7.29827e-05,-2.09704,-0.00149677,1.57128,0.785852,-1.5708,-0.523599,-3.68081e-08,-2.0944,-9.84646e-08,1.5708,0.785398,-0.000179617,0.000299524,0.000803134,-0.000456167,8.59453e-05,-2.71144e-05,0.00100783,0,0,0,0,0,0,0,-0.529774,-10.0901,-0.508359,22.2135,1.86525,1.33413,-0.329397,-0.514267,-0.936041,-0.00251547,3.67593,1.15144,-0.33876,-0.294704
1718622,1,-1.57032,-0.522941,-7.66019e-05,-2.09704,-0.00149737,1.57128,0.785848,-1.5708,-0.523599,-3.68081e-08,-2.0944,-9.84646e-08,1.5708,0.785398,-0.000119745,-0.000449931,-0.000671003,0.0002527,-0.000146154,-1.80763e-05,-0.000514908,0,0,0,0,0,0,0,-0.529774,-10.0623,-0.456784,22.1897,1.87074,1.33413,-0.297354,-0.515477,-0.937673,-0.00377434,3.67623,1.1514,-0.338693,-0.29482
1718623,1,-1.57032,-0.522939,-7.66019e-05,-2.09704,-0.00149736,1.57128,0.78585,-1.5708,-0.523599,-3.68081e-08,-2.0944,-9.84646e-08,1.5708,0.785398,0.000569784,0.00034966,-0.000447336,0.000168467,-9.74358e-05,-1.20509e-05,0.000131446,0,0,0,0,0,0,0,-0.557545,-10.0901,-0.456784,22.1897,1.87074,1.33413,-0.310171,-0.515873,-0.938894,-0.00378237,3.67647,1.15142,-0.338607,-0.294984
1718624,1,-1.57033,-0.522941,-7.66019e-05,-2.09705,-0.00149995,1.57128,0.785848,-1.5708,-0.523599,-3.68081e-08,-2.0944,-9.84646e-08,1.5708,0.785398,-0.000269758,-0.000416507,-0.000298224,-0.00100131,0.000138493,-0.000245393,-0.000624446,0,0,0,0,0,0,0,-0.529774,-10.0623,-0.456784,22.2373,1.86525,1.34054,-0.290945,-0.515725,-0.940086,-0.00286892,3.67687,1.15148,-0.338484,-0.295186
1718625,1,-1.57033,-0.522939,-7.46531e-05,-2.09704,-0.00149843,1.57128,0.785847,-1.5708,-0.523599,-3.68081e-08,-2.0944,-9.84646e-08,1.5708,0.785398,-0.000736651,0.000371942,0.000450798,-0.00011073,-0.000111122,0.000311123,-0.000653656,0,0,0,0,0,0,0,-0.50597,-10.0901,-0.484555,22.2135,1.87074,1.32772,-0.284536,-0.515361,-0.941711,-0.00166278,3.67784,1.15157,-0.338285,-0.295404
1718626,1,-1.57033,-0.522942,-7.46531e-05,-2.09705,-0.00149772,1.57128,0.785845,-1.5708,-0.523599,-3.68081e-08,-2.0944,-9.84646e-08,1.5708,0.785398,-0.00114071,-0.000958464,0.000300532,-0.000630632,-7.40811e-05,0.000207415,0.00834525,0,0,0,0,0,0,0,-0.478199,-10.0385,-0.484555,22.2373,1.87074,1.32772,-0.271719,-0.514831,-0.943014,-0.000420775,3.67883,1.15168,-0.338078,-0.295619
1718627,0.99,-1.57033,-0.522941,-7.46531e-05,-2.09705,-0.00149748,1.57128,0.785844,-1.5708,-0.523599,-3.68081e-08,-2.0944,-9.84646e-08,1.5708,0.785398,-0.00131729,-8.21642e-05,0.000200355,-0.000420421,-4.93874e-05,0.000375636,0.00586009,0,0,0,0,0,0,0,-0.454395,-10.0623,-0.484555,22.2373,1.87074,1.32131,-0.258901,-0.513977,-0.943249,0.00101093,3.67941,1.15179,-0.337917,-0.295807
1718628,0.99,-1.57033,-0.522939,-7.29827e-05,-2.09704,-0.00149679,1.57128,0.785843,-1.5708,-0.523599,-3.68081e-08,-2.0944,-9.84646e-08,1.5708,0.785398,0.000328233,0.000594838,0.000690382,0.000833343,0.000170526,-0.000461653,0.00424785,0,0,0,0,0,0,0,-0.50597,-10.0901,-0.508359,22.1897,1.86525,1.34054,-0.252493,-0.513184,-0.943308,0.00212902,3.67974,1.15188,-0.337815,-0.295925
1718629,0.99,-1.57033,-0.522939,-7.66019e-05,-2.09704,-0.00149996,1.57128,0.785848,-1.5708,-0.523599,-3.68081e-08,-2.0944,-9.84646e-08,1.5708,0.785398,-0.000430791,0.000396559,-0.000746171,-1.25001e-06,0.000113684,0.000404308,0.00468992,0,0,0,0,0,0,0,-0.478199,-10.0901,-0.456784,22.2135,1.86525,1.32131,-0.290945,-0.512801,-0.94418,0.00257054,3.67997,1.15193,-0.337777,-0.295929
1718630,0.99,-1.57033,-0.522939,-7.66019e-05,-2.09704,-0.00149782,1.57128,0.785846,-1.5708,-0.523599,-3.68081e-08,-2.0944,-9.84646e-08,1.5708,0.785398,0.000362419,0.000264372,-0.000497448,-8.33358e-07,7.57892e-05,-0.000205179,0.00297729,0,0,0,0,0,0,0,-0.50597,-10.0901,-0.456784,22.2135,1.86525,1.33413,-0.278127,-0.512249,-0.945705,0.0032746,3.68028,1.15199,-0.337761,-0.295818
1718631,0.99,-1.57033,-0.522937,-7.46531e-05,-2.09704,-0.00149711,1.57128,0.785849,-1.5708,-0.523599,-3.68081e-08,-2.0944,-9.84646e-08,1.5708,0.785398,0.000241613,0.00073306,0.000317982,0.00120587,5.05261e-05,0.000100573,0.00317834,0,0,0,0,0,0,0,-0.50597,-10.1139,-0.484555,22.1619,1.86525,1.32772,-0.303762,-0.51174,-0.947387,0.00392869,3.68048,1.15203,-0.337775,-0.29562
1718632,0.99,-1.57033,-0.522939,-7.66019e-05,-2.09704,-0.0014988,1.57128,0.785853,-1.5708,-0.523599,-3.68081e-08,-2.0944,-9.84646e-08,1.5708,0.785398,-0.000488538,-6.81052e-05,-0.000437626,-0.000402512,-0.000610576,-0.00017031,0.00352264,0,0,0,0,0,0,0,-0.478199,-10.0901,-0.456784,22.2135,1.88265,1.33413,-0.336721,-0.511533,-0.948807,0.0040713,3.68033,1.15204,-0.337836,-0.295372
1718633,0.99,-1.57033,-0.522937,-7.66019e-05,-2.09705,-0.00149679,1.57128,0.785849,-1.5708,-0.523599,-3.68081e-08,-2.0944,-9.84646e-08,1.5708,0.785398,0.000323921,0.000511409,-0.000291751,-0.00138197,0.000237209,-0.000350899,0.001265,0,0,0,0,0,0,0,-0.50597,-10.1139,-0.456784,22.2611,1.86525,1.34054,-0.303762,-0.511156,-0.950583,0.0043652,3.68078,1.15208,-0.337816,-0.295133
1718634,0.99,-1.57033,-0.522939,-7.82724e-05,-2.09704,-0.00149616,1.57128,0.785852,-1.5708,-0.523599,-3.68081e-08,-2.0944,-9.84646e-08,1.5708,0.785398,0.000215947,-0.000215873,0.00497387,0.000192314,0.00036159,0.000240785,0.00189572,0,0,0,0,0,0,0,-0.50597,-10.0901,-0.432981,22.2135,1.85976,1.32772,-0.329397,-0.512221,-0.952766,0.00231331,3.68208,1.15209,-0.337684,-0.294947
1718635,0.99,-1.57033,-0.522937,-7.82724e-05,-2.09704,-0.00150056,1.57128,0.785852,-1.5708,-0.523599,-3.68081e-08,-2.0944,-9.84646e-08,1.5708,0.785398,0.000143965,0.000412897,0.00379301,0.000128209,-0.000165841,-0.000314194,0.00134103,0,0,0,0,0,0,0,-0.50597,-10.1139,-0.432981,22.2135,1.87074,1.34054,-0.329397,-0.516748,-0.954068,-0.00527038,3.68303,1.15193,-0.337583,-0.294825
1718636,0.99,-1.57033,-0.522939,-7.66019e-05,-2.09705,-0.00149782,1.57128,0.785848,-1.5708,-0.523599,-3.68081e-08,-2.0944,-9.84646e-08,1.5708,0.785398,0.000652789,-0.000281548,0.00344331,-0.00102815,9.28899e-05,-0.000209463,-0.000234858,0,0,0,0,0,0,0,-0.529774,-10.0901,-0.456784,22.2611,1.86525,1.34054,-0.297354,-0.523595,-0.95459,-0.0164945,3.6836,1.15166,-0.337513,-0.29479
1718637,0.99,-1.57033,-0.522939,-7.66019e-05,-2.09705,-0.00149833,1.57128,0.785848,-1.5708,-0.523599,-3.68081e-08,-2.0944,-9.84646e-08,1.5708,0.785398,-0.000771233,-0.000187698,0.00256391,-0.000128622,-0.000344974,9.77169e-05,-0.000113137,0,0,0,0,0,0,0,-0.478199,-10.0901,-0.456784,22.2373,1.87624,1.33413,-0.297354,-0.53033,-0.954684,-0.0274621,3.68422,1.15139,-0.337413,-0.294854
1718638,0.99,-1.57033,-0.522939,-7.46531e-05,-2.09704,-0.00149748,1.57128,0.785845,-1.5708,-0.523599,-3.68081e-08,-2.0944,-9.84646e-08,1.5708,0.785398,0.000135458,-0.000125132,0.00256016,0.00102788,-2.65325e-05,0.000539863,-0.000992284,0,0,0,0,0,0,0,-0.50597,-10.0901,-0.484555,22.1897,1.87074,1.32131,-0.271719,-0.535566,-0.953652,-0.0360638,3.68405,1.15118,-0.33738,-0.294992
1718639,0.99,-1.57033,-0.522941,-7.66019e-05,-2.09704,-0.0014974,1.57128,0.785843,-1.5708,-0.523599,-3.68081e-08,-2.0944,-9.84646e-08,1.5708,0.785398,9.03054e-05,-0.000733035,0.00120812,0.000128439,-1.76883e-05,-0.00011481,-0.00134917,0,0,0,0,0,0,0,-0.50597,-10.0623,-0.456784,22.2135,1.87074,1.33413,-0.252493,-0.539001,-0.951059,-0.04176,3.68256,1.15104,-0.337482,-0.295158
1718640,0.99,-1.57033,-0.522941,-7.46531e-05,-2.09704,-0.00149738,1.57128,0.785848,-1.5708,-0.523599,-3.68081e-08,-2.0944,-9.84646e-08,1.5708,0.785398,-0.00058941,-0.00048869,0.00156824,0.00129205,-1.17922e-05,-0.000313899,0.000543033,0,0,0,0,0,0,0,-0.478199,-10.0623,-0.484555,22.1619,1.87074,1.34054,-0.290945,-0.540519,-0.946991,-0.0443694,3.67999,1.15097,-0.337685,-0.295297
1718641,0.99,-1.57033,-0.522942,-7.66019e-05,-2.09705,-0.00149676,1.57128,0.785844,-1.5708,-0.523599,-3.68081e-08,-2.0944,-9.84646e-08,1.5708,0.785398,0.000256673,-0.000882605,0.000480795,-0.00090187,0.000195589,0.000265452,-0.000811029,0,0,0,0,0,0,0,-0.50597,-10.0385,-0.456784,22.2373,1.86525,1.32772,-0.258901,-0.540202,-0.942278,-0.044097,3.67707,1.15098,-0.337905,-0.295368
1718642,0.99,-1.57032,-0.522941,-7.46531e-05,-2.09705,-0.00149736,1.57128,0.78585,-1.5708,-0.523599,-3.68081e-08,-2.0944,-9.84646e-08,1.5708,0.785398,0.000727928,-3.15917e-05,0.00103383,-0.000601247,-7.30578e-05,-6.03909e-05,0.00160585,0,0,0,0,0,0,0,-0.529774,-10.0623,-0.484555,22.2373,1.87074,1.33413,-0.31658,-0.538812,-0.93868,-0.0420381,3.67518,1.15106,-0.338005,-0.29536
1718643,0.99,-1.57033,-0.522939,-7.82724e-05,-2.09704,-0.00149675,1.57128,0.78585,-1.5708,-0.523599,-3.68081e-08,-2.0944,-9.84646e-08,1.5708,0.785398,-7.15269e-05,0.000628553,-0.000469443,0.000155981,0.000154745,0.000197098,0.000840939,0,0,0,0,0,0,0,-0.50597,-10.0901,-0.432981,22.2135,1.86525,1.32772,-0.310171,-0.536677,-0.937672,-0.038656,3.67489,1.15121,-0.337961,-0.295285
1718644,0.99,-1.57032,-0.522942,-7.46531e-05,-2.09704,-0.00149797,1.57128,0.785849,-1.5708,-0.523599,-3.68081e-08,-2.0944,-9.84646e-08,1.5708,0.785398,0.000509127,-0.000787391,0.000929287,0.000103987,-0.000303738,-0.000343319,0.000329065,0,0,0,0,0,0,0,-0.529774,-10.0385,-0.484555,22.2135,1.87624,1.34054,-0.303762,-0.533824,-0.938172,-0.0340653,3.67521,1.15139,-0.337886,-0.295191
1718645,0.98,-1.57033,-0.522941,-7.66019e-05,-2.09704,-0.00150056,1.57128,0.785851,-1.5708,-0.523599,-3.68081e-08,-2.0944,-9.84646e-08,1.5708,0.785398,-0.000867007,3.18848e-05,-3.22234e-06,6.93248e-05,9.58852e-07,0.000245839,0.000935802,0,0,0,0,0,0,0,-0.478199,-10.0623,-0.456784,22.2135,1.87074,1.32772,-0.322988,-0.530627,-0.938259,-0.0289508,3.67522,1.15159,-0.337848,-0.295121
1718646,0.98,-1.57033,-0.522939,-7.46531e-05,-2.09704,-0.00150162,1.57128,0.785851,-1.5708,-0.523599,-3.68081e-08,-2.0944,-9.84646e-08,1.5708,0.785398,7.16086e-05,0.00067087,0.000667616,0.000603028,6.39235e-07,0.000163892,0.000627129,0,0,0,0,0,0,0,-0.50597,-10.0901,-0.484555,22.1897,1.87074,1.32772,-0.322988,-0.527204,-0.938599,-0.0235945,3.67518,1.15179,-0.337831,-0.295096
1718647,0.98,-1.57033,-0.522939,-7.29827e-05,-2.09704,-0.00149878,1.57128,0.78585,-1.5708,-0.523599,-3.68081e-08,-2.0944,-9.84646e-08,1.5708,0.785398,4.77391e-05,0.000447247,0.001017,-0.000154793,4.26157e-07,0.000109262,0.000183173,0,0,0,0,0,0,0,-0.50597,-10.0901,-0.508359,22.2135,1.87074,1.32772,-0.31658,-0.524169,-0.940342,-0.0189064,3.67561,1.15199,-0.337803,-0.295133
1718648,0.98,-1.57033,-0.522941,-7.46531e-05,-2.09704,-0.00149784,1.57128,0.78585,-1.5708,-0.523599,-3.68081e-08,-2.0944,-9.84646e-08,1.5708,0.785398,-0.000617787,-0.000351449,0.000132524,-0.000103195,2.84104e-07,0.0003102,0.00012395,0,0,0,0,0,0,0,-0.478199,-10.0623,-0.484555,22.2135,1.87074,1.32131,-0.31658,-0.521715,-0.942586,-0.0152033,3.67635,1.15218,-0.337757,-0.295245
1718649,0.98,-1.57033,-0.522939,-7.46531e-05,-2.09705,-0.00149691,1.57128,0.78585,-1.5708,-0.523599,-3.68081e-08,-2.0944,-9.84646e-08,1.5708,0.785398,0.000237755,0.000415314,9.68502e-05,-0.000625609,0.00020364,-3.05589e-05,-0.00015335,0,0,0,0,0,0,0,-0.50597,-10.0901,-0.484555,22.2373,1.86525,1.32772,-0.310171,-0.51921,-0.944561,-0.011549,3.67726,1.15238,-0.337692,-0.295433
1718650,0.98,-1.57033,-0.522937,-7.66019e-05,-2.09705,-0.00149939,1.57128,0.785845,-1.5708,-0.523599,-3.68081e-08,-2.0944,-9.84646e-08,1.5708,0.785398,0.000158503,0.000833688,-0.000578671,-0.000417073,0.00033921,-0.000257732,-0.00152535,0,0,0,0,0,0,0,-0.50597,-10.1139,-0.456784,22.2373,1.85976,1.33413,-0.271719,-0.516583,-0.947392,-0.00773172,3.67885,1.15259,-0.337572,-0.295681
1718651,0.98,-1.57033,-0.522939,-7.66019e-05,-2.09704,-0.00150103,1.57128,0.785847,-1.5708,-0.523599,-3.68081e-08,-2.0944,-9.84646e-08,1.5708,0.785398,-0.000543944,-1.0198e-06,-0.000380999,0.000835576,2.26898e-05,-0.000171821,-0.000541411,0,0,0,0,0,0,0,-0.478199,-10.0901,-0.456784,22.1897,1.86525,1.33413,-0.284536,-0.513716,-0.950743,-0.00355132,3.6806,1.15281,-0.337454,-0.295958
1718652,0.98,-1.57032,-0.522944,-7.66019e-05,-2.09704,-0.00149757,1.57128,0.785845,-1.5708,-0.523599,-3.68081e-08,-2.0944,-9.84646e-08,1.5708,0.785398,0.000843796,-0.00185672,-0.000250413,2.38406e-07,0.000218577,0.000597529,-0.00107244,0,0,0,0,0,0,0,-0.529774,-10.0107,-0.456784,22.2135,1.85976,1.31491,-0.26531,-0.510847,-0.95122,0.000621221,3.68069,1.15298,-0.337487,-0.296215
1718653,0.98,-1.57033,-0.522939,-7.46531e-05,-2.09704,-0.00149723,1.57128,0.785847,-1.5708,-0.523599,-3.68081e-08,-2.0944,-9.84646e-08,1.5708,0.785398,5.71849e-06,0.000618227,0.000485362,1.58937e-07,-5.77325e-05,-0.000313724,-2.44607e-06,0,0,0,0,0,0,0,-0.50597,-10.0901,-0.484555,22.2135,1.86525,1.33413,-0.284536,-0.508789,-0.948615,0.00361353,3.67929,1.15306,-0.337644,-0.296409
1718654,0.98,-1.57033,-0.522937,-7.46531e-05,-2.09704,-0.00149752,1.57128,0.785846,-1.5708,-0.523599,-3.68081e-08,-2.0944,-9.84646e-08,1.5708,0.785398,3.81233e-06,0.000968963,0.000325592,1.05958e-07,-0.000241939,-0.000209149,-0.000238663,0,0,0,0,0,0,0,-0.50597,-10.1139,-0.484555,22.2135,1.87074,1.33413,-0.278127,-0.507634,-0.947323,0.00522529,3.67859,1.15309,-0.337757,-0.296511
1718655,0.98,-1.57033,-0.522939,-7.46531e-05,-2.09704,-0.00149742,1.57128,0.78585,-1.5708,-0.523599,-3.68081e-08,-2.0944,-9.84646e-08,1.5708,0.785398,2.54155e-06,8.91634e-05,0.000218574,0.000556883,-0.000161293,-0.000376792,0.00102793,0,0,0,0,0,0,0,-0.50597,-10.0901,-0.484555,22.1897,1.87074,1.34054,-0.310171,-0.506933,-0.948411,0.00607873,3.67892,1.1531,-0.337805,-0.296523
1718656,0.98,-1.57033,-0.522941,-7.46531e-05,-2.09704,-0.00149677,1.57128,0.785849,-1.5708,-0.523599,-3.68081e-08,-2.0944,-9.84646e-08,1.5708,0.785398,1.69437e-06,-0.000590172,0.000146851,-0.000185557,9.59221e-05,-1.38356e-05,0.000448112,0,0,0,0,0,0,0,-0.50597,-10.0623,-0.484555,22.2135,1.86525,1.33413,-0.303762,-0.506418,-0.949072,0.00660532,3.67896,1.15309,-0.337866,-0.296475
1718657,0.98,-1.57033,-0.522939,-7.46531e-05,-2.09704,-0.00150118,1.57128,0.785848,-1.5708,-0.523599,-3.68081e-08,-2.0944,-9.84646e-08,1.5708,0.785398,1.12958e-06,0.000256166,9.87516e-05,0.00108272,-0.000342953,0.000228135,6.15201e-05,0,0,0,0,0,0,0,-0.50597,-10.0901,-0.484555,22.1619,1.87624,1.32772,-0.297354,-0.505966,-0.948294,0.00700203,3.67822,1.15306,-0.337972,-0.296407
1718658,0.98,-1.57033,-0.522939,-7.66019e-05,-2.09705,-0.00149782,1.57128,0.785849,-1.5708,-0.523599,-3.68081e-08,-2.0944,-9.84646e-08,1.5708,0.785398,7.53052e-07,0.000170777,-0.000583141,-0.00159824,0.000178266,0.00015209,0.000278476,0,0,0,0,0,0,0,-0.50597,-10.0901,-0.456784,22.2611,1.86525,1.32772,-0.303762,-0.505342,-0.947753,0.00765436,3.67764,1.15306,-0.338047,-0.296346
1718659,0.98,-1.57033,-0.522937,-7.46531e-05,-2.09705,-0.00150153,1.57128,0.785851,-1.5708,-0.523599,-3.68081e-08,-2.0944,-9.84646e-08,1.5708,0.785398,5.02035e-07,0.000670664,0.000261332,-0.00106549,-0.000288057,0.000101393,0.000897805,0,0,0,0,0,0,0,-0.50597,-10.1139,-0.484555,22.2611,1.87624,1.32772,-0.322988,-0.504507,-0.949419,0.00863026,3.67872,1.15311,-0.337947,-0.296299
1718660,0.98,-1.57033,-0.522941,-7.29827e-05,-2.09704,-0.00149987,1.57128,0.78585,-1.5708,-0.523599,-3.68081e-08,-2.0944,-9.84646e-08,1.5708,0.785398,3.3469e-07,-0.000759317,0.000731392,0.000403297,-0.000429397,6.75956e-05,0.000123877,0,0,0,0,0,0,0,-0.50597,-10.0623,-0.508359,22.2135,1.88265,1.32772,-0.310171,-0.504027,-0.951853,0.0090392,3.68058,1.15318,-0.33777,-0.296278
1718661,0.98,-1.57033,-0.522939,-7.66019e-05,-2.09704,-0.00149654,1.57128,0.785848,-1.5708,-0.523599,-3.68081e-08,-2.0944,-9.84646e-08,1.5708,0.785398,-0.0012062,0.000143403,-0.000718562,0.000825677,0.000561446,4.50637e-05,-0.00039209,0,0,0,0,0,0,0,-0.454395,-10.0901,-0.456784,22.1897,1.85976,1.32772,-0.297354,-0.503602,-0.952211,0.00925409,3.68101,1.15324,-0.337742,-0.29631
1718662,0.98,-1.57032,-0.522939,-7.29827e-05,-2.09704,-0.00150008,1.57128,0.785845,-1.5708,-0.523599,-3.68081e-08,-2.0944,-9.84646e-08,1.5708,0.785398,0.000959102,9.56018e-05,0.000727587,0.000550451,0.000170847,-0.000207316,-0.00144816,0,0,0,0,0,0,0,-0.529774,-10.0901,-0.508359,22.1897,1.86525,1.33413,-0.26531,-0.502905,-0.951007,0.00980257,3.68006,1.15329,-0.337866,-0.296395
1718663,0.98,-1.57032,-0.522939,-7.46531e-05,-2.09704,-0.00149786,1.57128,0.785844,-1.5708,-0.523599,-3.68081e-08,-2.0944,-9.84646e-08,1.5708,0.785398,0.000639402,6.37345e-05,-7.16027e-05,-0.000189845,0.000113898,-0.00037557,-0.00120277,0,0,0,0,0,0,0,-0.529774,-10.0901,-0.484555,22.2135,1.86525,1.34054,-0.258901,-0.50291,-0.949889,0.00938936,3.67895,1.1533,-0.338013,-0.296488
1718664,0.98,-1.57033,-0.522937,-7.66019e-05,-2.09704,-0.00150093,1.57128,0.785845,-1.5708,-0.523599,-3.68081e-08,-2.0944,-9.84646e-08,1.5708,0.785398,-0.000780157,0.000599302,-0.000697235,-0.000126563,-0.000127519,0.000224338,-0.00056447,0,0,0,0,0,0,0,-0.478199,-10.1139,-0.456784,22.2135,1.87074,1.32772,-0.26531,-0.503111,-0.949786,0.00876047,3.6785,1.15332,-0.338086,-0.296537
1718665,0.98,-1.57032,-0.522941,-7.66019e-05,-2.09704,-0.00149794,1.57128,0.785848,-1.5708,-0.523599,-3.68081e-08,-2.0944,-9.84646e-08,1.5708,0.785398,0.00068632,-0.000806891,-0.000464738,-8.43754e-05,0.000118438,-8.78003e-05,0.000573136,0,0,0,0,0,0,0,-0.529774,-10.0623,-0.456784,22.2135,1.86525,1.33413,-0.290945,-0.502529,-0.950194,0.00931587,3.67847,1.15337,-0.338102,-0.296508
1718666,0.98,-1.57032,-0.522939,-7.46531e-05,-2.09705,-0.00149715,1.57128,0.785848,-1.5708,-0.523599,-3.68081e-08,-2.0944,-9.84646e-08,1.5708,0.785398,0.000457547,0.000111686,0.000339852,-0.00116987,7.89587e-05,-5.85335e-05,0.00061946,0,0,0,0,0,0,0,-0.529774,-10.0901,-0.484555,22.2611,1.86525,1.33413,-0.297354,-0.502045,-0.950134,0.00981719,3.67855,1.15342,-0.338079,-0.296392
1718667,0.98,-1.57032,-0.522939,-7.29827e-05,-2.09704,-0.00149688,1.57128,0.785852,-1.5708,-0.523599,-3.68081e-08,-2.0944,-9.84646e-08,1.5708,0.785398,0.000305031,7.44575e-05,0.000783428,0.00089052,5.26391e-05,0.000198337,0.00159978,0,0,0,0,0,0,0,-0.529774,-10.0901,-0.508359,22.1897,1.86525,1.32772,-0.329397,-0.502504,-0.950109,0.00898996,3.67885,1.15342,-0.338026,-0.296216
1718668,0.98,-1.57032,-0.522941,-7.46531e-05,-2.09704,-0.0014968,1.57128,0.785851,-1.5708,-0.523599,-3.68081e-08,-2.0944,-9.84646e-08,1.5708,0.785398,0.000203354,-0.000599976,-3.44907e-05,3.68679e-05,3.50928e-05,0.000132224,0.000829164,0,0,0,0,0,0,0,-0.529774,-10.0623,-0.484555,22.2135,1.86525,1.32772,-0.322988,-0.503585,-0.949518,0.00725728,3.6786,1.15337,-0.338041,-0.296034
1718669,0.98,-1.57033,-0.522941,-7.46531e-05,-2.09704,-0.00149738,1.57128,0.785852,-1.5708,-0.523599,-3.68081e-08,-2.0944,-9.84646e-08,1.5708,0.785398,-0.000421243,-0.000399984,-2.29668e-05,2.45786e-05,-0.000180055,0.000562867,0.000790139,0,0,0,0,0,0,0,-0.50597,-10.0623,-0.484555,22.2135,1.87074,1.31491,-0.329397,-0.504422,-0.947668,0.00589465,3.67753,1.15331,-0.338139,-0.295906
1718671,0.96,-1.57033,-0.522939,-7.82724e-05,-2.09705,-0.00149736,1.57128,0.785848,-1.5708,-0.523599,-3.68081e-08,-2.0944,-9.84646e-08,1.5708,0.785398,-0.000836832,0.000255305,-0.000628859,-0.00094803,-0.000147841,-0.000303674,-0.000926039,0,0,0,0,0,0,0,-0.478199,-10.0901,-0.432981,22.2373,1.87074,1.33413,-0.297354,-0.502322,-0.944659,0.00893182,3.6751,1.15334,-0.338432,-0.29596
1718672,0.96,-1.57033,-0.522941,-7.66019e-05,-2.09705,-0.00149736,1.57128,0.785849,-1.5708,-0.523599,-3.68081e-08,-2.0944,-9.84646e-08,1.5708,0.785398,9.17251e-05,-0.00047941,0.000137584,-0.00183845,-9.8561e-05,3.49095e-05,-0.000379999,0,0,0,0,0,0,0,-0.50597,-10.0623,-0.456784,22.2889,1.87074,1.32772,-0.303762,-0.50022,-0.945649,0.0120755,3.67564,1.15345,-0.338419,-0.296146
1718673,0.96,-1.57033,-0.522941,-7.46531e-05,-2.09705,-0.00149736,1.57128,0.785848,-1.5708,-0.523599,-3.68081e-08,-2.0944,-9.84646e-08,1.5708,0.785398,-0.000588463,-0.000319607,0.000741345,-0.000576017,-6.57073e-05,-0.000214086,-0.00049069,0,0,0,0,0,0,0,-0.478199,-10.0623,-0.484555,22.2611,1.87074,1.33413,-0.297354,-0.499149,-0.947354,0.0136321,3.67747,1.15355,-0.338256,-0.296388
1718674,0.96,-1.57032,-0.522941,-7.46531e-05,-2.09704,-0.00149675,1.57128,0.785843,-1.5708,-0.523599,-3.68081e-08,-2.0944,-9.84646e-08,1.5708,0.785398,0.000814116,-0.000213071,0.000494237,0.00128642,0.000159646,-0.000142724,-0.00198864,0,0,0,0,0,0,0,-0.529774,-10.0623,-0.484555,22.1897,1.86525,1.33413,-0.252493,-0.499416,-0.947933,0.0131656,3.67872,1.15357,-0.338158,-0.296649
1718675,0.96,-1.57033,-0.522939,-7.46531e-05,-2.09705,-0.00149995,1.57128,0.785846,-1.5708,-0.523599,-3.68081e-08,-2.0944,-9.84646e-08,1.5708,0.785398,-1.40677e-05,0.000507566,0.000329496,-0.000256007,0.00010643,0.000379569,-0.000376322,0,0,0,0,0,0,0,-0.50597,-10.0901,-0.484555,22.2373,1.86525,1.32131,-0.278127,-0.500679,-0.947524,0.0112737,3.6788,1.15352,-0.338207,-0.296884
1718676,0.96,-1.57033,-0.522939,-7.99428e-05,-2.09704,-0.00149782,1.57128,0.785852,-1.5708,-0.523599,-3.68081e-08,-2.0944,-9.84646e-08,1.5708,0.785398,-9.37844e-06,0.000338378,-0.00154357,0.00038614,7.09536e-05,1.56868e-05,0.00164799,0,0,0,0,0,0,0,-0.50597,-10.0901,-0.409177,22.2135,1.86525,1.32772,-0.329397,-0.501664,-0.947814,0.00988613,3.67884,1.15347,-0.338292,-0.297049
1718677,0.96,-1.57033,-0.522937,-7.46531e-05,-2.09705,-0.00149772,1.57128,0.785852,-1.5708,-0.523599,-3.68081e-08,-2.0944,-9.84646e-08,1.5708,0.785398,-6.25229e-06,0.000782397,0.000734194,-0.000299385,-0.000156148,-0.000226901,0.00109866,0,0,0,0,0,0,0,-0.50597,-10.1139,-0.484555,22.2373,1.87074,1.33413,-0.329397,-0.501784,-0.949427,0.0098508,3.67944,1.15346,-0.338345,-0.297148
1718678,0.96,-1.57032,-0.522937,-7.46531e-05,-2.09704,-0.00149626,1.57128,0.785852,-1.5708,-0.523599,-3.68081e-08,-2.0944,-9.84646e-08,1.5708,0.785398,0.000552644,0.000521598,0.000489464,0.000357222,0.000302802,-0.000388626,0.000732441,0,0,0,0,0,0,0,-0.529774,-10.1139,-0.484555,22.2135,1.85976,1.34054,-0.329397,-0.502236,-0.952034,0.00933694,3.68055,1.15344,-0.338359,-0.297231
1718679,0.96,-1.57033,-0.522939,-7.66019e-05,-2.09705,-0.0014974,1.57128,0.78585,-1.5708,-0.523599,-3.68081e-08,-2.0944,-9.84646e-08,1.5708,0.785398,-0.000188383,-0.00020908,-0.000323303,-0.000875476,-0.000205033,-2.17253e-05,1.35763e-05,0,0,0,0,0,0,0,-0.50597,-10.0901,-0.456784,22.2611,1.87074,1.33413,-0.31658,-0.503222,-0.954619,0.00803079,3.68181,1.15339,-0.338338,-0.297351
1718680,0.96,-1.57033,-0.522935,-7.29827e-05,-2.09704,-0.00149799,1.57128,0.78585,-1.5708,-0.523599,-3.68081e-08,-2.0944,-9.84646e-08,1.5708,0.785398,-0.000775202,0.000974237,0.000990892,0.000529973,-0.000340139,-1.44835e-05,-0.000228308,0,0,0,0,0,0,0,-0.478199,-10.1377,-0.508359,22.2135,1.87624,1.33413,-0.310171,-0.50395,-0.956775,0.00702895,3.68305,1.15335,-0.338292,-0.297534
1718681,0.96,-1.57033,-0.522937,-7.29827e-05,-2.09704,-0.00149737,1.57127,0.78585,-1.5708,-0.523599,-3.68081e-08,-2.0944,-9.84646e-08,1.5708,0.785398,-0.000516801,9.26796e-05,0.000660595,0.000353316,-2.33089e-05,-0.000484374,-0.000152205,0,0,0,0,0,0,0,-0.478199,-10.1139,-0.508359,22.2135,1.87074,1.34695,-0.310171,-0.504505,-0.95869,0.00605686,3.68398,1.15332,-0.338263,-0.297773
1718682,0.96,-1.57033,-0.522939,-7.46531e-05,-2.09705,-0.00150117,1.57128,0.785847,-1.5708,-0.523599,-3.68081e-08,-2.0944,-9.84646e-08,1.5708,0.785398,0.000861891,-0.000495026,-0.000116414,-0.000321268,-0.00021899,0.000151802,-0.00105091,0,0,0,0,0,0,0,-0.529774,-10.0901,-0.484555,22.2373,1.87624,1.33413,-0.284536,-0.505173,-0.959384,0.00479684,3.68421,1.15329,-0.338269,-0.298049
1718683,0.96,-1.57033,-0.522942,-7.13122e-05,-2.09704,-0.00149782,1.57128,0.785845,-1.5708,-0.523599,-3.68081e-08,-2.0944,-9.84646e-08,1.5708,0.785398,-0.000631831,-0.00153644,0.00103601,0.00154906,0.000260908,0.000101201,-0.00117532,0,0,0,0,0,0,0,-0.478199,-10.0385,-0.532163,22.1619,1.86525,1.33413,-0.271719,-0.506004,-0.956937,0.00327633,3.68288,1.15323,-0.338365,-0.298337
1718684,0.96,-1.57033,-0.522937,-7.82724e-05,-2.09704,-0.0014965,1.57128,0.785846,-1.5708,-0.523599,-3.68081e-08,-2.0944,-9.84646e-08,1.5708,0.785398,0.000228392,0.000738943,-0.00162937,-0.00017372,0.000377389,-0.000169891,-0.000546189,0,0,0,0,0,0,0,-0.50597,-10.1139,-0.432981,22.2135,1.85976,1.34054,-0.278127,-0.506383,-0.952213,0.00237547,3.68019,1.15318,-0.338551,-0.298598
1718685,0.96,-1.57033,-0.522939,-7.66019e-05,-2.09705,-0.00149626,1.57128,0.785845,-1.5708,-0.523599,-3.68081e-08,-2.0944,-9.84646e-08,1.5708,0.785398,-0.000497352,-6.41836e-05,-0.000529436,-0.000672625,0.000251593,0.000124098,-0.000838844,0,0,0,0,0,0,0,-0.478199,-10.0901,-0.456784,22.2373,1.85976,1.33413,-0.26531,-0.505494,-0.949295,0.00337477,3.67845,1.15321,-0.338629,-0.298792
1718686,0.96,-1.57032,-0.522939,-7.46531e-05,-2.09704,-0.00149679,1.57128,0.785848,-1.5708,-0.523599,-3.68081e-08,-2.0944,-9.84646e-08,1.5708,0.785398,0.000874857,-4.27891e-05,0.000296657,0.000108395,-3.5722e-05,0.000320091,0.000390207,0,0,0,0,0,0,0,-0.529774,-10.0901,-0.484555,22.2135,1.86525,1.32772,-0.290945,-0.504222,-0.948716,0.00498066,3.67821,1.15328,-0.338551,-0.298889
1718687,0.96,-1.57032,-0.522939,-7.46531e-05,-2.09705,-0.00149799,1.57128,0.785847,-1.5708,-0.523599,-3.68081e-08,-2.0944,-9.84646e-08,1.5708,0.785398,0.000583238,-2.8526e-05,0.000197771,-0.000484549,-0.000430716,-2.39649e-05,0.00120957,0,0,0,0,0,0,0,-0.529774,-10.0901,-0.484555,22.2373,1.87624,1.33413,-0.31658,-0.503946,-0.948734,0.00515898,3.67843,1.15329,-0.338428,-0.29888
1718688,0.96,-1.57033,-0.522944,-7.46531e-05,-2.09705,-0.00149737,1.57128,0.785848,-1.5708,-0.523599,-3.68081e-08,-2.0944,-9.84646e-08,1.5708,0.785398,-0.000167986,-0.00187506,0.000131848,-0.000323032,-8.36933e-05,0.000221382,-0.00885672,0,0,0,0,0,0,0,-0.50597,-10.0107,-0.484555,22.2373,1.87074,1.32772,-0.303762,-0.504435,-0.947832,0.00423537,3.67843,1.15326,-0.338314,-0.298797
1718689,0.96,-1.57033,-0.522942,-7.99428e-05,-2.09704,-0.00150056,1.57128,0.78585,-1.5708,-0.523599,-3.68081e-08,-2.0944,-9.84646e-08,1.5708,0.785398,-0.000761604,-0.000600424,-0.00167534,0.000898269,-5.57955e-05,0.000384947,-0.00619546,0,0,0,0,0,0,0,-0.478199,-10.0385,-0.409177,22.1897,1.87074,1.32131,-0.31658,-0.504262,-0.944404,0.00427005,3.67723,1.15326,-0.338296,-0.298694
1718690,0.96,-1.57033,-0.522939,-7.66019e-05,-2.09705,-0.0014966,1.57128,0.785853,-1.5708,-0.523599,-3.68081e-08,-2.0944,-9.84646e-08,1.5708,0.785398,0.000141877,0.000806143,-3.26895e-06,-0.000514778,0.000573155,1.92725e-05,-0.0039586,0,0,0,0,0,0,0,-0.50597,-10.0901,-0.456784,22.2373,1.85426,1.32772,-0.336721,-0.502943,-0.940995,0.00603371,3.67573,1.15332,-0.338337,-0.298611
1718691,0.96,-1.57032,-0.522939,-7.66019e-05,-2.09704,-0.00149711,1.57128,0.785848,-1.5708,-0.523599,-3.68081e-08,-2.0944,-9.84646e-08,1.5708,0.785398,0.000651397,0.000537429,-2.17925e-06,0.000213627,-2.4798e-05,-0.00046187,-0.00452783,0,0,0,0,0,0,0,-0.529774,-10.0901,-0.456784,22.2135,1.86525,1.34054,-0.297354,-0.501875,-0.940935,0.00753307,3.67574,1.15338,-0.338297,-0.298573
1718692,0.96,-1.57032,-0.522941,-7.66019e-05,-2.09704,-0.00149748,1.57128,0.785851,-1.5708,-0.523599,-3.68081e-08,-2.0944,-9.84646e-08,1.5708,0.785398,0.000434264,-0.000291328,-1.4528e-06,0.00069923,-0.000219983,0.000404164,-0.00239215,0,0,0,0,0,0,0,-0.529774,-10.0623,-0.456784,22.1897,1.87074,1.32131,-0.322988,-0.501874,-0.942568,0.00760376,3.67644,1.15339,-0.338234,-0.298598
1718693,0.96,-1.57033,-0.522939,-7.46531e-05,-2.09704,-0.00149679,1.57128,0.785851,-1.57079,-0.523597,-2.53681e-06,-2.0944,-1.62256e-06,1.5708,0.785399,-0.000267302,0.000455395,0.000648645,0.000466153,5.67955e-05,3.20836e-05,-0.00183704,0.00304939,0.001875,-0.0025,-0.003125,-0.00152409,0.005,0.00102661,-0.50597,-10.0901,-0.484555,22.1897,1.86525,1.32772,-0.322988,-0.502523,-0.943645,0.00679014,3.67659,1.15334,-0.338252,-0.298685
1718694,0.96,-1.57033,-0.522941,-7.46531e-05,-2.09705,-0.00149677,1.57128,0.785847,-1.57079,-0.523593,-7.53681e-06,-2.0944,-4.67074e-06,1.57081,0.785401,-0.000178202,-0.000346017,0.00043243,-0.000802855,3.78637e-05,-0.00021597,-0.00283055,0.00609879,0.00375,-0.005,-0.00625,-0.00304819,0.01,0.00205323,-0.50597,-10.0623,-0.484555,22.2373,1.86525,1.33413,-0.284536,-0.50347,-0.944636,0.00548346,3.67677,1.15327,-0.338276,-0.298831
1718695,0.96,-1.57033,-0.522939,-7.46531e-05,-2.09704,-0.00150056,1.57128,0.785848,-1.57078,-0.523587,-1.50368e-05,-2.09441,-9.24302e-06,1.57083,0.785404,-0.000118801,0.000418936,0.000288287,0.000578387,-0.000178208,9.3379e-05,-0.00154859,0.00914818,0.005625,-0.0075,-0.009375,-0.00457228,0.015,0.00307984,-0.50597,-10.0901,-0.484555,22.1897,1.87074,1.32772,-0.297354,-0.504442,-0.9459,0.00407056,3.67738,1.15321,-0.338252,-0.299025
1718696,0.96,-1.57033,-0.522942,-8.0863e-05,-2.09705,-0.0015004,1.57128,0.785845,-1.57077,-0.52358,-2.50368e-05,-2.09443,-1.53394e-05,1.57085,0.785409,-7.92007e-05,0.00112743,-0.00330775,-0.000588733,0.000288096,6.22527e-05,-0.00208404,0.0121976,0.0075,-0.01,-0.0125,-0.00609637,0.02,0.00410645,-0.50597,-9.85995,-0.456784,22.0905,1.85976,1.32772,-0.271719,-0.504266,-0.94823,0.0044692,3.67851,1.15321,-0.338189,-0.299234
1718697,0.96,-1.57033,-0.522944,-7.61467e-05,-2.09704,-0.001497,1.57128,0.785849,-1.57075,-0.523571,-3.75368e-05,-2.09444,-2.29599e-05,1.57087,0.785414,-0.00125923,-0.00047939,-0.00114051,0.00354054,0.00144668,-0.00114529,-0.00122866,0.015247,0.009375,-0.0125,-0.015625,-0.00762046,0.025,0.00513307,-0.454395,-9.37991,-0.635312,21.6422,1.82588,1.35977,-0.278127,-0.501812,-0.950368,0.00843193,3.67889,1.15328,-0.338203,-0.299432
1718698,0.96,-1.57032,-0.522942,-8.56023e-05,-2.09703,-0.00149716,1.57128,0.785846,-1.57073,-0.523559,-5.25368e-05,-2.09446,-3.21044e-05,1.5709,0.78542,-0.000839484,-0.000794339,-0.00352538,0.00470053,0.00201561,0.00791835,-0.00233466,0.0182964,0.01125,-0.015,-0.01875,-0.00914456,0.03,0.00615968,-0.454395,-8.77292,-0.659116,21.1185,1.7975,1.37899,-0.23876,-0.497418,-0.946859,0.0152206,3.67454,1.15332,-0.338684,-0.299593
1718699,0.96,-1.57032,-0.522926,-9.05946e-05,-2.09704,-0.00149891,1.57128,0.785845,-1.57071,-0.523546,-7.00368e-05,-2.09448,-4.27731e-05,1.57094,0.785427,0.00316887,0.00279938,-0.000492644,0.00400953,0.00219145,0.00487493,-0.000853573,0.0213458,0.013125,-0.0175,-0.021875,-0.0106687,0.035,0.00718629,-0.478199,-8.29288,-0.762265,20.6226,1.77461,1.41104,-0.258901,-0.493208,-0.9381,0.0216238,3.6649,1.15318,-0.339679,-0.299669
1718700,0.96,-1.57031,-0.522902,-9.95744e-05,-2.09704,-0.00149593,1.57128,0.785845,-1.57069,-0.523531,-9.00368e-05,-2.09451,-5.49658e-05,1.57098,0.785435,0.00237689,0.0106413,-0.00251073,0.00412037,0.00186787,0.00359972,-0.000364029,0.0243952,0.015,-0.02,-0.025,-0.0121927,0.04,0.0082129,-0.478199,-7.88821,-0.81384,20.0751,1.76363,1.41745,-0.26531,-0.491494,-0.93594,0.0242433,3.65592,1.1528,-0.3405,-0.299589
1718701,0.96,-1.57031,-0.522877,-0.000112756,-2.09704,-0.00149656,1.57128,0.785846,-1.57066,-0.523514,-0.000112537,-2.09454,-6.86826e-05,1.57102,0.785444,0.00313648,0.017052,-0.00736754,0.0060963,0.000838345,0.00236544,0.000207777,0.0274445,0.016875,-0.0225,-0.028125,-0.0137168,0.045,0.00923952,-0.402821,-7.51132,-0.837644,19.5792,1.77461,1.43026,-0.278127,-0.490172,-0.953603,0.0261442,3.65325,1.15233,-0.340471,-0.299333
1718702,0.96,-1.5703,-0.522853,-0.00012261,-2.09705,-0.00149834,1.57128,0.785851,-1.57063,-0.523496,-0.000137537,-2.09457,-8.39236e-05,1.57107,0.785455,0.00499803,0.0220644,-0.00746412,0.00261859,0.000965797,0.00190721,0.000595045,0.0304939,0.01875,-0.025,-0.03125,-0.0152409,0.05,0.0102661,-0.379017,-7.15427,-0.889218,19.2817,1.76363,1.43026,-0.290945,-0.486236,-0.996481,0.0318139,3.65884,1.15193,-0.339254,-0.298935
1718703,0.96,-1.5703,-0.522831,-0.000136265,-2.09706,-0.00149812,1.57129,0.785844,-1.57059,-0.523473,-0.000167065,-2.0946,-0.000101605,1.57113,0.785467,0.00460444,0.0194002,-0.0104769,-0.000382446,0.00105077,0.00643691,-0.00127846,0.0358261,0.0225,-0.029528,-0.0375,-0.0176816,0.06,0.011887,-0.279835,-6.77737,-0.940793,18.881,1.75264,1.42385,-0.246084,-0.479655,-1.0586,0.0410655,3.67115,1.15164,-0.336748,-0.298444
1718704,0.96,-1.57029,-0.522815,-0.000146175,-2.09707,-0.00149652,1.5713,0.78585,-1.57055,-0.523447,-0.000201121,-2.09465,-0.000121727,1.5712,0.78548,0.005702,0.0192887,-0.0109513,-0.00320544,0.00134477,0.00894862,0.000324256,0.0411582,0.02625,-0.034056,-0.04375,-0.0201223,0.07,0.013508,-0.22826,-6.34891,-1.06378,18.635,1.73525,1.44308,-0.278127,-0.470586,-1.12507,0.0531287,3.68478,1.15141,-0.333231,-0.297908
1718705,0.96,-1.57028,-0.522794,-0.00016152,-2.09708,-0.00149922,1.5713,0.785845,-1.57051,-0.523417,-0.000239705,-2.0947,-0.00014429,1.57128,0.785495,0.00457012,0.0221766,-0.013231,-0.00575685,0.00109996,0.00907363,-0.00148692,0.0464904,0.03,-0.038584,-0.05,-0.022563,0.08,0.0151289,-0.22826,-6.04343,-1.11535,18.4327,1.72975,1.50808,-0.232351,-0.458938,-1.18665,0.0675111,3.69588,1.15121,-0.328948,-0.297339
1718706,0.96,-1.57026,-0.522774,-0.000181726,-2.09709,-0.0015023,1.57131,0.785842,-1.57045,-0.523383,-0.000282817,-2.09475,-0.000169294,1.57137,0.785512,0.0106283,0.0226159,-0.0171472,-0.0106698,0.00114021,0.00794923,-0.00218383,0.0518226,0.03375,-0.043112,-0.05625,-0.0250037,0.09,0.0167498,-0.252064,-5.53958,-1.19073,18.0875,1.71877,1.61062,-0.200308,-0.444968,-1.24315,0.0837107,3.70485,1.15101,-0.323775,-0.296725
1718707,0.96,-1.57024,-0.522753,-0.000201132,-2.09711,-0.00150184,1.57131,0.78584,-1.5704,-0.523346,-0.000330457,-2.09482,-0.000196739,1.57147,0.78553,0.0139645,0.0222723,-0.0176363,-0.0133139,0.00245556,0.00560819,-0.00217228,0.0571547,0.0375,-0.04764,-0.0625,-0.0274444,0.1,0.0183707,-0.22826,-4.85721,-1.36926,17.5638,1.67299,1.75894,-0.181082,-0.430749,-1.29285,0.099232,3.71169,1.1507,-0.317518,-0.296014
1718708,0.96,-1.57021,-0.522731,-0.000237803,-2.09713,-0.00150418,1.57132,0.785842,-1.57033,-0.523304,-0.000382625,-2.09489,-0.000226624,1.57158,0.78555,0.0186329,0.0221318,-0.0220056,-0.0153218,0.003502,0.010918,-0.00192614,0.0624869,0.04125,-0.0521679,-0.06875,-0.029885,0.11,0.0199916,-0.303639,-4.02011,-1.39306,16.8933,1.62264,1.85507,-0.168264,-0.418605,-1.33047,0.11105,3.71364,1.15009,-0.310207,-0.295136
1718709,0.96,-1.57018,-0.522692,-0.000274843,-2.09717,-0.00150691,1.57133,0.785845,-1.57027,-0.523259,-0.000439321,-2.09496,-0.000258949,1.5717,0.785572,0.0246392,0.0255618,-0.0264522,-0.0224516,-0.000240751,0.0105811,-0.000574447,0.067819,0.045,-0.0566959,-0.075,-0.0323257,0.12,0.0216125,-0.355213,-3.31393,-1.47241,16.2983,1.56587,1.9393,-0.18749,-0.408706,-1.35553,0.119265,3.70989,1.14913,-0.301709,-0.294033
1718710,0.96,-1.57014,-0.522645,-0.000316634,-2.09719,-0.00150878,1.57136,0.785847,-1.57019,-0.523211,-0.000500544,-2.09504,-0.000293716,1.57183,0.785595,0.0315501,0.0339669,-0.0290189,-0.0237011,-0.00266101,0.0158533,-0.000859504,0.0731512,0.04875,-0.0612239,-0.08125,-0.0347664,0.13,0.0232334,-0.379017,-2.70694,-1.5954,15.5246,1.49812,2.00338,-0.174673,-0.401448,-1.3778,0.123873,3.70458,1.14781,-0.291497,-0.292659
1718711,0.96,-1.57011,-0.522589,-0.0003692,-2.09724,-0.00151003,1.57139,0.785845,-1.57011,-0.523158,-0.000566296,-2.09513,-0.000330923,1.57197,0.78562,0.033724,0.038726,-0.0372273,-0.031788,-0.000755941,0.0215332,-0.00179507,0.0784833,0.0525,-0.0657519,-0.0875,-0.0372071,0.14,0.0248543,-0.279835,-2.17532,-1.57159,15.0287,1.45235,2.0162,-0.141714,-0.396017,-1.40898,0.126384,3.70197,1.14618,-0.27913,-0.291014
1718712,0.96,-1.57007,-0.522538,-0.000415606,-2.09729,-0.00151792,1.57145,0.785854,-1.57003,-0.523102,-0.000636576,-2.09522,-0.000370571,1.57212,0.785647,0.0367553,0.0410971,-0.0394449,-0.0363604,-0.00552307,0.0325826,0.000735041,0.0838155,0.05625,-0.0702799,-0.09375,-0.0396478,0.15,0.0264752,-0.22826,-1.5961,-1.69854,14.6082,1.44686,1.96493,-0.193899,-0.389179,-1.45139,0.13121,3.70251,1.1443,-0.264517,-0.289129
1718713,0.96,-1.57002,-0.522488,-0.000470905,-2.09734,-0.00152653,1.57151,0.785849,-1.56994,-0.52304,-0.000712856,-2.09533,-0.000413237,1.57229,0.785675,0.0421152,0.0413192,-0.0435885,-0.0419004,-0.00425249,0.0459275,-0.00168088,0.0908067,0.061875,-0.0762795,-0.103125,-0.042666,0.165,0.0284338,-0.152882,-1.08829,-1.75012,14.1599,1.44136,1.88803,-0.135305,-0.380274,-1.49644,0.138636,3.70172,1.1421,-0.248129,-0.287037
1718714,0.96,-1.56996,-0.522447,-0.000527866,-2.09741,-0.00153722,1.57159,0.78585,-1.56984,-0.522972,-0.000795135,-2.09544,-0.000458921,1.57247,0.785705,0.0469649,0.0389028,-0.045526,-0.0484759,-0.00382231,0.0570305,-0.0020706,0.0977978,0.0675,-0.0822791,-0.1125,-0.0456841,0.18,0.0303924,-0.125111,-0.48526,-1.8255,13.9615,1.45235,1.78457,-0.10967,-0.371464,-1.53078,0.144982,3.693,1.13933,-0.230751,-0.284779
1718715,0.96,-1.5699,-0.522406,-0.000586578,-2.09747,-0.00154752,1.57168,0.785846,-1.56974,-0.522899,-0.000883414,-2.09556,-0.000507623,1.57266,0.785738,0.0512323,0.0377709,-0.0488118,-0.0519887,-0.0113848,0.0671618,0.000543468,0.104789,0.073125,-0.0882787,-0.121875,-0.0487023,0.195,0.0323511,-0.125111,0.0979309,-1.95245,13.7354,1.43038,1.75253,-0.0382593,-0.364322,-1.54228,0.147435,3.67083,1.13588,-0.213144,-0.282355
1718716,0.96,-1.56983,-0.522367,-0.000652831,-2.09754,-0.00155745,1.57178,0.785845,-1.56963,-0.522821,-0.000977692,-2.09569,-0.000559343,1.57287,0.785772,0.0536169,0.0398222,-0.0556719,-0.0621152,-0.0131576,0.0767558,3.06742e-05,0.11178,0.07875,-0.0942783,-0.13125,-0.0517204,0.21,0.0343097,-0.101307,0.831879,-2.02783,13.4616,1.42397,1.79739,-0.0190333,-0.357446,-1.52799,0.147584,3.6345,1.13189,-0.19574,-0.279706
1718717,0.96,-1.56975,-0.522315,-0.000725294,-2.09762,-0.00157138,1.57188,0.785848,-1.56951,-0.522736,-0.00107797,-2.09583,-0.000614082,1.5731,0.785808,0.0623088,0.0440875,-0.0591423,-0.0678943,-0.00812017,0.0849865,6.84197e-05,0.118771,0.084375,-0.100278,-0.140625,-0.0547386,0.225,0.0362683,-0.125111,1.58963,-2.15478,13.0649,1.37361,1.9393,-0.0126246,-0.349143,-1.49645,0.147984,3.58943,1.12756,-0.178372,-0.276739
1718718,0.96,-1.56966,-0.52226,-0.000812073,-2.09771,-0.00158314,1.572,0.785849,-1.56938,-0.522646,-0.00118425,-2.09598,-0.000671839,1.57334,0.785847,0.0707581,0.0459047,-0.0657343,-0.0784522,-0.00853054,0.0926934,-0.000927185,0.125763,0.09,-0.106277,-0.15,-0.0577568,0.24,0.0382269,-0.204456,2.42276,-2.15478,12.5452,1.30586,2.06198,0.0194189,-0.341184,-1.45714,0.146744,3.54139,1.12289,-0.160634,-0.273368
1718719,0.96,-1.56956,-0.522188,-0.000893875,-2.0978,-0.00160305,1.57215,0.78585,-1.56925,-0.522551,-0.00129652,-2.09614,-0.000732614,1.57359,0.785887,0.0791608,0.0520898,-0.0723063,-0.0835684,-0.00957072,0.108314,-0.00191569,0.132754,0.095625,-0.112277,-0.159375,-0.0607749,0.255,0.0401855,-0.252064,3.18051,-2.28174,11.8985,1.25459,2.04916,0.0587866,-0.335063,-1.41568,0.142542,3.49348,1.11781,-0.142201,-0.269546
1718720,0.96,-1.56946,-0.522105,-0.000992108,-2.09791,-0.00162507,1.57233,0.785854,-1.56911,-0.522449,-0.0014148,-2.09631,-0.000796407,1.57386,0.785929,0.0844001,0.0630179,-0.0782768,-0.0928302,-0.0103969,0.127365,-0.00139411,0.139745,0.10125,-0.118277,-0.16875,-0.0637931,0.27,0.0421441,-0.22826,3.78751,-2.25396,11.3272,1.20333,1.95211,0.0651953,-0.329941,-1.38136,0.137048,3.44881,1.11239,-0.122867,-0.265242
1718721,0.96,-1.56935,-0.522021,-0.00108681,-2.09804,-0.00164595,1.57252,0.785857,-1.56896,-0.522342,-0.00153908,-2.09649,-0.000863218,1.57415,0.785973,0.0919098,0.0686153,-0.0831208,-0.103219,-0.0151358,0.15287,-0.00226328,0.146736,0.106875,-0.124276,-0.178125,-0.0668113,0.285,0.0441027,-0.252064,4.3945,-2.33331,10.8789,1.13558,1.8038,0.103647,-0.324974,-1.36481,0.131383,3.41125,1.10673,-0.102528,-0.260426
1718722,0.96,-1.56924,-0.521931,-0.00118933,-2.09817,-0.00167718,1.57275,0.785873,-1.56881,-0.52223,-0.00166935,-2.09668,-0.000933047,1.57445,0.786019,0.100206,0.0736903,-0.0898713,-0.112558,-0.0210113,0.176387,0.0053156,0.153727,0.1125,-0.130276,-0.1875,-0.0698294,0.3,0.0460613,-0.152882,4.94992,-2.38092,10.506,1.13008,1.64907,0.0459692,-0.320411,-1.3661,0.125108,3.3808,1.1008,-0.0814925,-0.255089
1718723,0.96,-1.56913,-0.521847,-0.00128833,-2.09832,-0.00171078,1.57299,0.785882,-1.56865,-0.52211,-0.00180665,-2.09688,-0.00100632,1.57477,0.786067,0.104269,0.0761634,-0.0931478,-0.12168,-0.0257402,0.197478,0.0076922,0.161866,0.119954,-0.137296,-0.199509,-0.0732695,0.31999,0.0482125,-0.0497324,5.55692,-2.53564,10.2561,1.13558,1.51449,0.071604,-0.316444,-1.37583,0.117704,3.35295,1.09452,-0.0604907,-0.249276
1718724,0.96,-1.56899,-0.521763,-0.00140044,-2.09847,-0.00175247,1.57324,0.78589,-1.56848,-0.521983,-0.00195097,-2.09709,-0.00108303,1.57511,0.786118,0.115114,0.0752716,-0.100707,-0.133612,-0.0295918,0.215727,0.00830185,0.170004,0.127408,-0.144317,-0.211519,-0.0767097,0.33998,0.0503638,-0.125111,6.14011,-2.58325,10.0815,1.15297,1.44949,0.129282,-0.313112,-1.38101,0.108606,3.32235,1.08777,-0.0402414,-0.243078
1718725,0.96,-1.56885,-0.521682,-0.00151736,-2.09863,-0.00179768,1.57351,0.785896,-1.5683,-0.521848,-0.0021023,-2.09731,-0.00116318,1.57547,0.78617,0.122877,0.0766862,-0.107019,-0.142567,-0.0364537,0.229683,0.00380912,0.178142,0.134862,-0.151337,-0.223528,-0.0801498,0.35997,0.052515,-0.204456,6.7709,-2.7102,9.93473,1.15297,1.49526,0.200693,-0.31074,-1.3696,0.0973482,3.28488,1.08052,-0.0212434,-0.236559
1718726,0.96,-1.56869,-0.521593,-0.001632,-2.0988,-0.00184847,1.57379,0.785903,-1.56811,-0.521705,-0.00226066,-2.09755,-0.00124677,1.57585,0.786225,0.136189,0.0808746,-0.111351,-0.150427,-0.0428085,0.247206,0.00427318,0.18628,0.142315,-0.158358,-0.235538,-0.0835899,0.37996,0.0546662,-0.355213,7.4017,-2.88873,9.70859,1.18685,1.62344,0.297739,-0.310912,-1.337,0.08198,3.23874,1.07275,-0.00378778,-0.229673
1718727,0.97,-1.56853,-0.521501,-0.0017633,-2.09897,-0.00189995,1.57409,0.785918,-1.56792,-0.521556,-0.00242604,-2.09779,-0.0013338,1.57625,0.786282,0.15081,0.0884954,-0.115874,-0.159092,-0.0451557,0.260396,0.00714159,0.194418,0.149769,-0.165378,-0.247547,-0.08703,0.39995,0.0568175,-0.478199,8.23483,-2.98791,9.33567,1.16396,1.76535,0.330698,-0.317993,-1.28822,0.056805,3.18558,1.06435,0.012207,-0.222284
1718728,0.97,-1.56835,-0.521394,-0.00189849,-2.09916,-0.00195639,1.57442,0.785928,-1.56771,-0.521398,-0.00259844,-2.09805,-0.00142427,1.57667,0.786341,0.155389,0.0949561,-0.122205,-0.169177,-0.050222,0.275882,0.0110878,0.202557,0.157223,-0.172399,-0.259557,-0.0904701,0.41994,0.0589687,-0.557545,9.07193,-3.11487,8.86356,1.10719,1.89443,0.434153,-0.333609,-1.23308,0.0198258,3.12989,1.05541,0.0273354,-0.214238
1718729,0.97,-1.56818,-0.521271,-0.00204665,-2.09936,-0.00201843,1.57477,0.785947,-1.5675,-0.521234,-0.00277786,-2.09833,-0.00151818,1.57711,0.786402,0.164101,0.103102,-0.132623,-0.180316,-0.0544757,0.296166,0.0130321,0.210695,0.164677,-0.179419,-0.271566,-0.0939102,0.43993,0.06112,-0.605152,9.77811,-3.11487,8.29227,1.04585,1.93289,0.44697,-0.352604,-1.17987,-0.0217229,3.07604,1.04632,0.0423692,-0.205432
1718730,0.97,-1.56799,-0.521135,-0.00219746,-2.09958,-0.00208301,1.57515,0.785971,-1.56728,-0.521062,-0.0029643,-2.09861,-0.00161553,1.57757,0.786465,0.173766,0.114595,-0.137306,-0.191526,-0.057968,0.323444,0.0151225,0.218833,0.172131,-0.18644,-0.283575,-0.0973504,0.45992,0.0632712,-0.632923,10.3851,-3.21801,7.77256,0.989092,1.8688,0.440561,-0.370626,-1.13665,-0.0614673,3.02787,1.03736,0.0579434,-0.195777
1718731,0.97,-1.56779,-0.52099,-0.00236473,-2.09981,-0.00214827,1.57557,0.785997,-1.56706,-0.520882,-0.00315776,-2.0989,-0.00171632,1.57805,0.78653,0.179044,0.122852,-0.145564,-0.204887,-0.0606638,0.360833,0.0209855,0.226971,0.179585,-0.19346,-0.295585,-0.10079,0.47991,0.0654224,-0.581349,10.8651,-3.19421,7.32425,0.932329,1.6683,0.440561,-0.386883,-1.11026,-0.0982722,2.98793,1.02859,0.074313,-0.185247
1718732,0.97,-1.56759,-0.520844,-0.00253498,-2.10006,-0.00222391,1.576,0.786037,-1.56682,-0.520695,-0.00335824,-2.09921,-0.00182055,1.57855,0.786598,0.186158,0.130828,-0.152008,-0.216245,-0.0637797,0.381812,0.0277495,0.23511,0.187038,-0.200481,-0.307594,-0.104231,0.4999,0.0675737,-0.50597,11.373,-3.19421,7.05051,0.909441,1.4559,0.36915,-0.399824,-1.10018,-0.13033,2.95551,1.02,0.0913034,-0.173928
1718733,0.97,-1.56738,-0.520702,-0.00271104,-2.10032,-0.00230111,1.57646,0.786067,-1.56658,-0.5205,-0.00356649,-2.09953,-0.00192843,1.57907,0.786668,0.192067,0.133308,-0.157217,-0.225749,-0.0670746,0.403787,0.0243337,0.243969,0.194528,-0.208255,-0.320084,-0.107882,0.51989,0.0698478,-0.454395,11.9006,-3.19421,6.72519,0.909441,1.31491,0.394785,-0.408717,-1.09639,-0.157097,2.9256,1.01142,0.108368,-0.161978
1718734,0.97,-1.56715,-0.520556,-0.00288207,-2.10059,-0.00238568,1.57693,0.786101,-1.56633,-0.520298,-0.00378252,-2.09986,-0.00203996,1.57961,0.78674,0.204124,0.138623,-0.159254,-0.238917,-0.0744943,0.425545,0.026772,0.252828,0.202018,-0.216028,-0.332574,-0.111533,0.53988,0.0721219,-0.478199,12.4084,-3.29339,6.52683,0.921343,1.28836,0.414011,-0.416716,-1.08531,-0.183562,2.892,1.00252,0.124754,-0.149571
1718735,0.97,-1.56691,-0.520416,-0.00306988,-2.10086,-0.0024766,1.57743,0.786135,-1.56606,-0.520089,-0.00400632,-2.10021,-0.00215515,1.58017,0.786814,0.214862,0.139419,-0.169475,-0.250152,-0.0803246,0.446978,0.0284568,0.261688,0.209508,-0.223802,-0.345064,-0.115184,0.55987,0.074396,-0.557545,13.0392,-3.34497,6.25309,0.943315,1.35336,0.44697,-0.427598,-1.05698,-0.214932,2.85098,0.993105,0.13988,-0.136844
1718736,0.97,-1.56665,-0.520263,-0.00326688,-2.10115,-0.00257635,1.57794,0.78617,-1.56579,-0.519872,-0.0042379,-2.10057,-0.00227398,1.58075,0.786891,0.226226,0.144488,-0.177792,-0.263144,-0.0848258,0.466669,0.0287085,0.270547,0.216998,-0.231576,-0.357554,-0.118835,0.57986,0.0766701,-0.78368,13.4955,-3.42035,6.05472,0.971697,1.48794,0.504648,-0.441075,-1.00551,-0.249887,2.80066,0.983208,0.153488,-0.123894
1718737,0.97,-1.56639,-0.520098,-0.0034701,-2.10146,-0.00267379,1.57847,0.786219,-1.56551,-0.519647,-0.00447725,-2.10094,-0.00239647,1.58135,0.78697,0.240612,0.151891,-0.182778,-0.274001,-0.0874806,0.487592,0.0367538,0.279406,0.224488,-0.23935,-0.370044,-0.122486,0.59985,0.0789442,-0.882862,13.9001,-3.51953,5.90793,0.983598,1.5914,0.472605,-0.457399,-0.93303,-0.28789,2.74223,0.972927,0.165771,-0.110747
1718738,0.97,-1.56612,-0.519925,-0.00367992,-2.10178,-0.00277614,1.57903,0.786271,-1.56523,-0.519415,-0.00472437,-2.10132,-0.00252261,1.58196,0.787051,0.251099,0.162644,-0.189285,-0.286306,-0.0938087,0.504968,0.0374938,0.288265,0.231978,-0.247124,-0.382534,-0.126138,0.61984,0.0812183,-0.958241,14.1778,-3.62268,5.80875,0.983598,1.64266,0.459788,-0.479318,-0.850366,-0.332338,2.68039,0.962321,0.177347,-0.0973818
1718739,0.97,-1.56584,-0.519743,-0.00389844,-2.1021,-0.00288182,1.57961,0.786326,-1.56493,-0.519176,-0.00497927,-2.10171,-0.00265239,1.5826,0.787135,0.258104,0.169983,-0.200799,-0.296088,-0.0979622,0.524848,0.042933,0.297125,0.239468,-0.254897,-0.395024,-0.129789,0.63983,0.0834924,-1.03362,14.3802,-3.72583,5.60642,0.966203,1.65548,0.434153,-0.504825,-0.767471,-0.380218,2.61917,0.951668,0.188851,-0.083841
1718740,0.97,-1.56555,-0.519541,-0.00412606,-2.10245,-0.00298367,1.58023,0.786382,-1.56462,-0.518929,-0.00524194,-2.10212,-0.00278583,1.58326,0.78722,0.269216,0.179835,-0.208875,-0.315884,-0.0990645,0.55151,0.0507445,0.305984,0.246958,-0.262671,-0.407514,-0.13344,0.65982,0.0857665,-1.06139,14.3802,-3.80121,5.65799,0.898454,1.5978,0.434153,-0.528888,-0.690685,-0.424305,2.56205,0.941347,0.200841,-0.0702502
1718741,0.97,-1.56526,-0.519342,-0.00436451,-2.10281,-0.00309185,1.58088,0.786446,-1.56431,-0.518675,-0.00551239,-2.10254,-0.00292293,1.58394,0.787308,0.277333,0.187398,-0.219792,-0.325523,-0.101243,0.574993,0.0581925,0.314843,0.254448,-0.270445,-0.420004,-0.137091,0.67981,0.0880406,-1.06139,14.4793,-3.72583,5.55881,0.853594,1.44949,0.394785,-0.549155,-0.62438,-0.461198,2.51225,0.931537,0.21369,-0.0567433
1718742,0.97,-1.56496,-0.519133,-0.00460629,-2.10318,-0.00320498,1.58155,0.786515,-1.56398,-0.518413,-0.00579061,-2.10297,-0.00306367,1.58464,0.787399,0.282751,0.194293,-0.228207,-0.339209,-0.103034,0.602029,0.0626959,0.323703,0.261938,-0.278219,-0.432494,-0.140742,0.6998,0.0903147,-1.03362,14.5071,-3.72583,5.55881,0.81331,1.29476,0.381968,-0.563665,-0.566025,-0.488448,2.46789,0.922211,0.227086,-0.0434516
1718743,0.97,-1.56465,-0.518922,-0.00485991,-2.10356,-0.00332728,1.58225,0.786592,-1.56365,-0.518143,-0.00607712,-2.10342,-0.00320813,1.58536,0.787491,0.292863,0.200411,-0.23579,-0.351995,-0.105876,0.636008,0.0711813,0.332975,0.269428,-0.286517,-0.444984,-0.14446,0.71979,0.0926466,-0.986012,14.6301,-3.74963,5.53501,0.81331,1.10159,0.356333,-0.571726,-0.509143,-0.50569,2.42477,0.913222,0.240254,-0.0304998
1718744,0.97,-1.56431,-0.518712,-0.00512695,-2.10395,-0.00344615,1.58294,0.786672,-1.56331,-0.517866,-0.00637194,-2.10388,-0.0033563,1.5861,0.787586,0.30277,0.200319,-0.241455,-0.368122,-0.110943,0.659807,0.0723724,0.342247,0.276918,-0.294815,-0.457474,-0.148177,0.73978,0.0949786,-1.06139,14.8086,-3.64648,5.53501,0.76845,1.10159,0.343516,-0.576604,-0.445269,-0.518042,2.37952,0.904298,0.252431,-0.0179771
1718745,0.98,-1.56397,-0.518489,-0.0053927,-2.10435,-0.0035725,1.58365,0.786747,-1.56296,-0.517582,-0.00667505,-2.10435,-0.0035082,1.58686,0.787684,0.317911,0.206999,-0.248176,-0.379786,-0.111145,0.671746,0.075094,0.351519,0.284408,-0.303113,-0.469964,-0.151895,0.75977,0.0973105,-1.18834,14.9594,-3.67425,5.38425,0.757463,1.26913,0.401194,-0.583573,-0.36624,-0.533005,2.32984,0.895085,0.263211,-0.00592757
1718746,0.98,-1.56363,-0.518257,-0.00567368,-2.10476,-0.00370451,1.58438,0.786825,-1.5626,-0.51729,-0.00698646,-2.10483,-0.00366381,1.58764,0.787783,0.327012,0.214807,-0.258138,-0.389003,-0.120481,0.680611,0.0771544,0.36079,0.291898,-0.311411,-0.482454,-0.155612,0.77976,0.0996425,-1.21215,15.011,-3.67425,5.28507,0.757463,1.46871,0.459788,-0.595444,-0.2731,-0.553952,2.2762,0.885349,0.272746,0.00566141
1718747,0.98,-1.56327,-0.518014,-0.00594786,-2.10517,-0.00384743,1.58513,0.786909,-1.56223,-0.516991,-0.00730617,-2.10532,-0.00382314,1.58844,0.787885,0.334892,0.224248,-0.263401,-0.404182,-0.124512,0.703396,0.0750281,0.370062,0.299388,-0.319709,-0.494944,-0.159329,0.79975,0.101974,-1.31133,15.0348,-3.77343,5.0629,0.784929,1.49526,0.49824,-0.610744,-0.174434,-0.578543,2.22153,0.87517,0.281574,0.0168817
1718748,0.98,-1.5629,-0.517756,-0.00623443,-2.10561,-0.00398993,1.58591,0.786993,-1.56185,-0.516684,-0.00763418,-2.10583,-0.00398619,1.58926,0.78799,0.342755,0.236143,-0.269816,-0.415517,-0.126281,0.725346,0.0777821,0.379334,0.306878,-0.328007,-0.507434,-0.163047,0.81974,0.104306,-1.3391,14.9872,-3.84881,4.98752,0.784929,1.47512,0.556833,-0.627983,-0.081748,-0.605179,2.17053,0.864766,0.290371,0.0278812
1718749,0.98,-1.56252,-0.517501,-0.00653262,-2.10606,-0.00412889,1.5867,0.787084,-1.56146,-0.516369,-0.00797048,-2.10635,-0.00415295,1.5901,0.788096,0.351906,0.243535,-0.279696,-0.426133,-0.132118,0.765037,0.0810671,0.388606,0.314368,-0.336305,-0.519924,-0.166764,0.83973,0.106638,-1.41448,14.9872,-3.90039,4.88834,0.773943,1.50167,0.582468,-0.646059,-0.00108343,-0.632519,2.12402,0.854305,0.299219,0.0388018
1718750,0.98,-1.56214,-0.517219,-0.0068499,-2.1065,-0.00427149,1.58753,0.787189,-1.56106,-0.516048,-0.00831508,-2.10688,-0.00432343,1.59096,0.788205,0.36116,0.256202,-0.288108,-0.434204,-0.136564,0.782622,0.0861559,0.397878,0.321858,-0.344603,-0.532414,-0.170482,0.85972,0.10897,-1.41448,14.7848,-3.84881,4.76139,0.773943,1.47512,0.52479,-0.663094,0.0686436,-0.657597,2.07854,0.843906,0.307696,0.0497661
1718751,0.98,-1.56176,-0.51694,-0.00717408,-2.10697,-0.00441809,1.58838,0.787293,-1.56065,-0.515718,-0.00866798,-2.10743,-0.00449763,1.59184,0.788317,0.365517,0.264791,-0.298236,-0.443159,-0.140136,0.802031,0.0932245,0.40715,0.329348,-0.352901,-0.544904,-0.174199,0.87971,0.111302,-1.28753,14.757,-3.87658,4.68998,0.773943,1.37258,0.491831,-0.676746,0.128168,-0.676973,2.03188,0.833658,0.315723,0.0608384
1718752,0.98,-1.56136,-0.516639,-0.00750688,-2.10745,-0.00456029,1.58927,0.787397,-1.56024,-0.515381,-0.00902918,-2.10799,-0.00467555,1.59274,0.78843,0.374977,0.274879,-0.310675,-0.454897,-0.141855,0.825502,0.0931974,0.416422,0.336838,-0.361199,-0.557394,-0.177917,0.8997,0.113634,-1.18834,14.5825,-3.74963,4.51542,0.751055,1.15377,0.485422,-0.683737,0.178442,-0.686047,1.98353,0.823697,0.323435,0.0719628
1718753,0.98,-1.56096,-0.516332,-0.0078443,-2.10793,-0.00470586,1.59017,0.787505,-1.55981,-0.515037,-0.00939901,-2.10856,-0.00485716,1.59366,0.788546,0.3854,0.280403,-0.321526,-0.464403,-0.141388,0.848,0.0989095,0.42587,0.344328,-0.369829,-0.569884,-0.181613,0.91969,0.115978,-1.109,14.4793,-3.69806,4.36466,0.677812,1.05673,0.453379,-0.682851,0.223501,-0.682813,1.93244,0.814055,0.33067,0.0830216
1718754,0.98,-1.56054,-0.516027,-0.00818585,-2.10843,-0.00485005,1.59108,0.787608,-1.55938,-0.514685,-0.00977747,-2.10914,-0.00504247,1.5946,0.788665,0.399924,0.288316,-0.327184,-0.473357,-0.144665,0.862951,0.100369,0.435318,0.351818,-0.37846,-0.582374,-0.185308,0.93968,0.118322,-1.16057,14.4793,-3.72583,4.1901,0.565202,1.14736,0.504648,-0.678194,0.270306,-0.6729,1.87589,0.804441,0.336955,0.0939229
1718755,0.98,-1.56011,-0.515715,-0.00855213,-2.10893,-0.005009,1.592,0.787726,-1.55893,-0.514326,-0.0101646,-2.10973,-0.00523147,1.59556,0.788785,0.410813,0.294279,-0.336691,-0.48277,-0.146135,0.882635,0.103447,0.444766,0.359308,-0.38709,-0.594864,-0.189004,0.95967,0.120666,-1.31133,14.4555,-3.59887,3.96793,0.547807,1.15377,0.485422,-0.675781,0.324383,-0.665015,1.81159,0.794404,0.341929,0.104627
1718756,0.98,-1.55968,-0.515404,-0.00892415,-2.10946,-0.00517571,1.59296,0.787848,-1.55848,-0.513959,-0.0105603,-2.11034,-0.00542417,1.59654,0.788908,0.418384,0.307884,-0.344661,-0.498014,-0.14812,0.899618,0.110324,0.454214,0.366798,-0.39572,-0.607354,-0.1927,0.97966,0.123009,-1.21215,14.5309,-3.5473,3.94413,0.558794,1.17941,0.485422,-0.677054,0.381534,-0.661508,1.7427,0.783776,0.345897,0.11513
1718757,0.98,-1.55924,-0.515075,-0.00929391,-2.11001,-0.00534522,1.59393,0.787972,-1.55801,-0.513585,-0.0109646,-2.11096,-0.00562057,1.59754,0.789034,0.418944,0.310951,-0.351171,-0.50824,-0.155692,0.928132,0.112042,0.463662,0.374288,-0.404351,-0.619844,-0.196395,0.99965,0.125353,-1.03362,14.6063,-3.51953,3.86875,0.610063,1.21145,0.453379,-0.67875,0.435022,-0.658683,1.67397,0.772737,0.349346,0.125412
1718758,0.98,-1.55879,-0.514733,-0.00968553,-2.11056,-0.00551483,1.59493,0.788097,-1.55754,-0.513203,-0.0113776,-2.11159,-0.00582066,1.59856,0.789161,0.439675,0.319294,-0.364601,-0.523892,-0.159937,0.950837,0.116816,0.47311,0.381778,-0.412981,-0.632334,-0.200091,1.01964,0.127697,-1.109,14.5547,-3.42035,4.01554,0.638445,1.20504,0.440561,-0.678881,0.487421,-0.654099,1.60532,0.76147,0.352325,0.135433
1718759,0.98,-1.55832,-0.514383,-0.0100817,-2.11114,-0.00568533,1.59595,0.78822,-1.55706,-0.512814,-0.0117992,-2.11224,-0.00602445,1.5996,0.789291,0.451564,0.330511,-0.374701,-0.535657,-0.163298,0.963724,0.123849,0.482558,0.389268,-0.421612,-0.644824,-0.203787,1.03963,0.130041,-1.18834,14.4278,-3.39654,4.11472,0.666826,1.19863,0.44697,-0.679576,0.537246,-0.649359,1.53876,0.750024,0.355174,0.145161
1718760,0.98,-1.55784,-0.514015,-0.0104858,-2.11172,-0.00585742,1.59697,0.788344,-1.55657,-0.512417,-0.0122295,-2.1129,-0.00623193,1.60066,0.789424,0.457239,0.344407,-0.38753,-0.553176,-0.168996,0.9852,0.128007,0.492006,0.396758,-0.430242,-0.657314,-0.207483,1.05962,0.132385,-1.18834,14.1778,-3.36877,4.26548,0.649431,1.25631,0.485422,-0.680296,0.572074,-0.642844,1.48158,0.738668,0.35871,0.154568
1718761,0.98,-1.55737,-0.513635,-0.010894,-2.11231,-0.00604067,1.59803,0.788468,-1.55606,-0.512013,-0.0126683,-2.11357,-0.00644311,1.60174,0.789558,0.463989,0.357382,-0.390277,-0.568816,-0.174015,1.00639,0.127144,0.501454,0.404248,-0.438872,-0.669804,-0.211178,1.07961,0.134729,-1.109,13.9477,-3.3172,4.38846,0.654924,1.24349,0.550425,-0.678342,0.578801,-0.631616,1.4414,0.727819,0.363641,0.163664
1718762,0.98,-1.55689,-0.513249,-0.0113032,-2.11292,-0.0062276,1.59909,0.788602,-1.55555,-0.511601,-0.0131158,-2.11425,-0.00665798,1.60284,0.789695,0.464835,0.369939,-0.390576,-0.578403,-0.180642,1.0274,0.129169,0.510902,0.411738,-0.447503,-0.682294,-0.214874,1.0996,0.137072,-1.00982,13.7216,-3.29339,4.44004,0.610063,1.28195,0.52479,-0.675699,0.553233,-0.620497,1.42008,0.717552,0.370057,0.172552
1718763,0.98,-1.55638,-0.512861,-0.0117274,-2.11356,-0.00641568,1.6002,0.788738,-1.55503,-0.511182,-0.0135722,-2.11494,-0.00687648,1.60396,0.789835,0.47761,0.37433,-0.396255,-0.598675,-0.179807,1.04529,0.130295,0.52034,0.419228,-0.45631,-0.694784,-0.218495,1.11959,0.139399,-0.986012,13.67,-3.34497,4.6384,0.547807,1.25631,0.491831,-0.676489,0.503593,-0.616897,1.41336,0.707637,0.377629,0.181356
1718764,0.98,-1.55587,-0.512481,-0.0121633,-2.11422,-0.00659717,1.60132,0.788873,-1.5545,-0.510755,-0.0140373,-2.11565,-0.00709859,1.6051,0.789977,0.491097,0.37589,-0.407715,-0.617926,-0.178429,1.07099,0.134683,0.529778,0.426718,-0.465117,-0.707274,-0.222115,1.13958,0.141726,-1.13677,13.7454,-3.29339,4.78916,0.474565,1.27554,0.479014,-0.683275,0.446047,-0.623722,1.41646,0.697796,0.386196,0.190097
1718765,0.98,-1.55534,-0.512087,-0.012601,-2.11488,-0.00679023,1.60245,0.78901,-1.55396,-0.510321,-0.0145112,-2.11637,-0.00732433,1.60626,0.790121,0.507633,0.379994,-0.415695,-0.650253,-0.179855,1.09113,0.138846,0.539215,0.434208,-0.473924,-0.719764,-0.225736,1.15957,0.144053,-1.28753,13.8485,-3.26959,4.91214,0.435198,1.28195,0.453379,-0.697271,0.391688,-0.640734,1.42964,0.687859,0.396082,0.198719
1718766,0.98,-1.55482,-0.511677,-0.013044,-2.11557,-0.00698956,1.6036,0.789146,-1.55342,-0.509879,-0.0149939,-2.1171,-0.00755368,1.60744,0.790267,0.5124,0.390213,-0.422401,-0.661804,-0.186699,1.10253,0.139689,0.548653,0.441698,-0.482731,-0.732254,-0.229356,1.17956,0.14638,-1.28753,13.9239,-3.36877,4.98752,0.428789,1.32131,0.49824,-0.718228,0.33869,-0.666604,1.45724,0.677786,0.407837,0.207169
1718767,0.98,-1.55429,-0.511263,-0.0135089,-2.11627,-0.00719615,1.60478,0.789284,-1.55286,-0.50943,-0.0154855,-2.11785,-0.00778666,1.60864,0.790416,0.517131,0.397355,-0.438645,-0.670702,-0.194246,1.14445,0.141776,0.558091,0.449188,-0.491537,-0.744744,-0.232976,1.19955,0.148707,-1.31133,13.9001,-3.34497,4.96372,0.480058,1.35336,0.511057,-0.73959,0.287505,-0.692232,1.4938,0.667648,0.420665,0.215384
1718768,0.98,-1.55374,-0.51084,-0.0139929,-2.11698,-0.00741644,1.60595,0.789423,-1.55229,-0.508973,-0.0159858,-2.1186,-0.00802326,1.60986,0.790567,0.524815,0.404973,-0.447076,-0.681708,-0.19929,1.15073,0.137172,0.567528,0.456678,-0.500344,-0.757234,-0.236597,1.21954,0.151034,-1.3629,13.8723,-3.29339,4.93595,0.536821,1.34054,0.544016,-0.752754,0.246055,-0.705605,1.52719,0.657556,0.433024,0.223322
1718769,0.98,-1.55318,-0.510409,-0.0144821,-2.11771,-0.00763603,1.60715,0.789567,-1.55171,-0.508509,-0.016495,-2.11937,-0.00826347,1.6111,0.79072,0.535765,0.413797,-0.459593,-0.692003,-0.205218,1.15705,0.144533,0.576966,0.464168,-0.509151,-0.769724,-0.240217,1.23953,0.153361,-1.38671,13.7732,-3.21801,4.91214,0.519426,1.39181,0.531199,-0.756415,0.217666,-0.704564,1.55248,0.647494,0.444591,0.23104
1718770,0.99,-1.55262,-0.50997,-0.0149783,-2.11844,-0.00785053,1.60835,0.789712,-1.55113,-0.508037,-0.0170129,-2.12016,-0.00850731,1.61235,0.790876,0.543057,0.421055,-0.471844,-0.701376,-0.209253,1.16932,0.141103,0.586404,0.471658,-0.517958,-0.782214,-0.243838,1.25952,0.155688,-1.28753,13.7454,-3.09106,4.76139,0.491045,1.39822,0.52479,-0.751994,0.20172,-0.690547,1.56887,0.637445,0.455604,0.238613
1718771,1,-1.55207,-0.509518,-0.0154736,-2.11918,-0.0080778,1.60961,0.789848,-1.55053,-0.507558,-0.0175397,-2.12095,-0.00875477,1.61363,0.791034,0.547454,0.430195,-0.471471,-0.714123,-0.218173,1.19593,0.136274,0.595842,0.479148,-0.526765,-0.794704,-0.247458,1.27951,0.158015,-1.08519,13.67,-3.11487,4.71378,0.502947,1.17941,0.595286,-0.741813,0.197357,-0.667326,1.57578,0.627415,0.465997,0.246087
1718772,1,-1.55149,-0.509075,-0.015977,-2.11994,-0.00829579,1.6109,0.789993,-1.54993,-0.507072,-0.0180753,-2.12176,-0.00900585,1.61493,0.791194,0.555242,0.435905,-0.484724,-0.724535,-0.217627,1.21941,0.135505,0.605279,0.486638,-0.535572,-0.807194,-0.251079,1.2995,0.160342,-0.910633,13.67,-3.06726,4.6384,0.435198,0.999049,0.582468,-0.729431,0.203835,-0.641281,1.57306,0.617366,0.475451,0.253508
1718773,1,-1.5509,-0.508626,-0.0164921,-2.1207,-0.00852886,1.61217,0.790142,-1.54931,-0.506578,-0.0186197,-2.12258,-0.00926044,1.61625,0.791357,0.565572,0.435982,-0.495515,-0.737915,-0.222805,1.24175,0.138273,0.61456,0.493815,-0.544429,-0.819684,-0.254592,1.31949,0.162635,-0.78368,13.797,-3.14264,4.59079,0.389421,0.927638,0.588877,-0.714872,0.227424,-0.612719,1.558,0.607255,0.483346,0.260905
1718774,1,-1.5503,-0.508178,-0.0170414,-2.12148,-0.00877697,1.61348,0.790304,-1.54869,-0.506077,-0.019173,-2.12341,-0.00951855,1.61759,0.791522,0.571221,0.446248,-0.507769,-0.752978,-0.229448,1.26212,0.143263,0.62384,0.500991,-0.553286,-0.832174,-0.258104,1.33948,0.164928,-0.859058,13.9755,-3.03949,4.6146,0.412309,0.825099,0.531199,-0.696062,0.271814,-0.578633,1.53054,0.5971,0.489343,0.268288
1718775,1,-1.54969,-0.507711,-0.0175806,-2.12227,-0.00903368,1.61481,0.790483,-1.54805,-0.505569,-0.0197351,-2.12425,-0.00978016,1.61895,0.791689,0.57901,0.450534,-0.518602,-0.764705,-0.233839,1.2891,0.156108,0.633121,0.508168,-0.562144,-0.844664,-0.261617,1.35947,0.167221,-0.859058,14.0231,-2.9403,4.53922,0.547807,0.587062,0.343516,-0.671171,0.330283,-0.53685,1.4953,0.586992,0.493491,0.275627
1718776,1,-1.54908,-0.507231,-0.0181318,-2.12308,-0.00928417,1.61614,0.790642,-1.54741,-0.505053,-0.0203061,-2.12511,-0.0100453,1.62033,0.791858,0.601028,0.458767,-0.522826,-0.780015,-0.237009,1.30024,0.158226,0.642401,0.515344,-0.571001,-0.857154,-0.26513,1.37946,0.169514,-0.732105,13.9755,-2.98791,4.6146,0.581682,0.728053,0.330698,-0.645329,0.397117,-0.494298,1.45584,0.576796,0.495767,0.282801
1718777,1,-1.54845,-0.506743,-0.0186901,-2.12389,-0.0095357,1.61748,0.790816,-1.54676,-0.504531,-0.020886,-2.12598,-0.0103139,1.62173,0.79203,0.614341,0.468679,-0.531657,-0.784538,-0.240743,1.31058,0.163175,0.651681,0.522521,-0.579858,-0.869644,-0.268642,1.39945,0.171807,-0.755909,13.9001,-3.03949,4.46384,0.638445,0.954188,0.272104,-0.629616,0.467632,-0.465596,1.41436,0.566204,0.496216,0.289613
1718778,1,-1.54781,-0.50624,-0.019244,-2.12469,-0.00979448,1.61886,0.790992,-1.5461,-0.504001,-0.0214747,-2.12686,-0.0105861,1.62315,0.792204,0.620362,0.475623,-0.539288,-0.793997,-0.250374,1.33227,0.165705,0.660962,0.529697,-0.588715,-0.882134,-0.272155,1.41944,0.1741,-0.882862,13.6978,-3.06726,4.36466,0.62105,0.927638,0.200693,-0.626344,0.539635,-0.454164,1.36948,0.555267,0.494794,0.295847
1718779,1,-1.54718,-0.505745,-0.0198091,-2.12555,-0.0100485,1.62027,0.791166,-1.54543,-0.503464,-0.0220723,-2.12776,-0.0108618,1.62459,0.792381,0.622071,0.479557,-0.541855,-0.816144,-0.253241,1.3498,0.169415,0.670242,0.536873,-0.597572,-0.894624,-0.275668,1.43943,0.176393,-0.859058,13.67,-3.24182,4.6384,0.485552,0.831508,0.226328,-0.630137,0.613693,-0.454256,1.32156,0.544452,0.491939,0.301294
1718780,1,-1.54652,-0.505248,-0.020384,-2.12642,-0.0103052,1.62168,0.791342,-1.54475,-0.50292,-0.0226787,-2.12866,-0.0111409,1.62605,0.792559,0.632934,0.484572,-0.540525,-0.833544,-0.253504,1.39046,0.168307,0.679523,0.54405,-0.606429,-0.907114,-0.279181,1.45942,0.178686,-0.831288,13.6978,-3.3172,4.83677,0.406816,0.683192,0.240061,-0.640627,0.688239,-0.467239,1.27611,0.534021,0.488522,0.305821
1718781,1,-1.54585,-0.504733,-0.0209866,-2.1273,-0.0105707,1.62312,0.791537,-1.54406,-0.502369,-0.023294,-2.12958,-0.0114236,1.62753,0.79274,0.642738,0.489781,-0.558777,-0.850541,-0.259859,1.4043,0.175813,0.688803,0.551226,-0.615287,-0.919604,-0.282693,1.47941,0.180979,-0.882862,13.6224,-3.19421,5.03513,0.389421,0.728053,0.135691,-0.658437,0.762141,-0.49397,1.23648,0.523898,0.484844,0.309407
1718782,1,-1.54519,-0.504225,-0.0215898,-2.1282,-0.0108338,1.62457,0.791723,-1.54336,-0.501811,-0.0239181,-2.13052,-0.0117098,1.62903,0.792924,0.654078,0.496075,-0.57038,-0.86243,-0.268315,1.41544,0.180283,0.698083,0.558403,-0.624144,-0.932094,-0.286206,1.4994,0.183272,-0.708302,13.6224,-3.21801,5.30887,0.372942,0.876368,0.16865,-0.677071,0.835253,-0.52351,1.203,0.514071,0.48099,0.312052
1718783,1,-1.54451,-0.503687,-0.0221899,-2.12909,-0.0111182,1.62603,0.791906,-1.54266,-0.501246,-0.0245511,-2.13146,-0.0119994,1.63055,0.793109,0.658583,0.505363,-0.580606,-0.893771,-0.273634,1.43232,0.17997,0.707093,0.564844,-0.632947,-0.944158,-0.289591,1.51835,0.185521,-0.557545,13.4439,-3.21801,5.38425,0.412309,0.94778,0.213511,-0.690285,0.900073,-0.545974,1.18151,0.504687,0.477819,0.313758
1718784,1,-1.54382,-0.503139,-0.0228159,-2.13001,-0.0114013,1.6275,0.792082,-1.54194,-0.500674,-0.0251928,-2.13242,-0.0122924,1.63208,0.793297,0.667987,0.514462,-0.591635,-0.901159,-0.272594,1.44306,0.180427,0.716102,0.571285,-0.64175,-0.956222,-0.292977,1.53731,0.187769,-0.680531,13.2931,-3.06726,5.33664,0.451677,1.10159,0.36915,-0.695785,0.944922,-0.558373,1.18004,0.495867,0.476441,0.314612
1718785,1,-1.54311,-0.502587,-0.0234268,-2.13095,-0.0116637,1.62902,0.792245,-1.54121,-0.500097,-0.0258434,-2.13339,-0.0125888,1.63364,0.793487,0.680508,0.529689,-0.601215,-0.908013,-0.272042,1.45098,0.177574,0.725111,0.577726,-0.650553,-0.968286,-0.296362,1.55626,0.190017,-0.807484,13.0392,-3.11487,5.36045,0.366533,1.12814,0.634653,-0.694624,0.967181,-0.562084,1.19503,0.487373,0.476761,0.314841
1718786,1,-1.54239,-0.502018,-0.0240512,-2.13187,-0.0119404,1.63052,0.792432,-1.54048,-0.499513,-0.0265027,-2.13437,-0.0128885,1.63522,0.793679,0.68533,0.54117,-0.602004,-0.911301,-0.269146,1.463,0.178237,0.73412,0.584168,-0.659356,-0.98035,-0.299748,1.57521,0.192265,-0.732105,12.7377,-3.11487,5.26126,0.34456,1.31491,0.679514,-0.691918,0.969568,-0.56419,1.21666,0.47871,0.477982,0.314894
1718787,1,-1.54168,-0.501451,-0.0246899,-2.13282,-0.0122278,1.63207,0.792621,-1.53974,-0.498922,-0.0271709,-2.13536,-0.0131916,1.63681,0.793874,0.698239,0.548643,-0.610301,-0.916787,-0.277297,1.48187,0.180147,0.74313,0.590609,-0.668159,-0.992414,-0.303133,1.59417,0.194513,-0.656727,12.3806,-3.14264,5.0867,0.339067,1.34695,0.706064,-0.692945,0.960661,-0.572608,1.23509,0.46945,0.479297,0.315351
1718788,1,-1.54097,-0.500878,-0.025339,-2.13377,-0.0125137,1.63361,0.792818,-1.53898,-0.498325,-0.0278478,-2.13636,-0.0134982,1.63842,0.794071,0.701043,0.552677,-0.62191,-0.927086,-0.282856,1.50248,0.184951,0.752139,0.59705,-0.676962,-1.00448,-0.306519,1.61312,0.196761,-0.478199,12.0791,-3.03949,4.91214,0.321672,1.35336,0.628245,-0.696992,0.955324,-0.586544,1.24144,0.459509,0.48009,0.316628
1718789,1,-1.54025,-0.500303,-0.0260018,-2.13473,-0.0128046,1.6352,0.793014,-1.53822,-0.497721,-0.0285336,-2.13738,-0.0138081,1.64005,0.79427,0.709638,0.55528,-0.630961,-0.934934,-0.281304,1.52135,0.189944,0.761148,0.603492,-0.685766,-1.01654,-0.309904,1.63207,0.199009,-0.379017,11.9006,-2.98791,4.76139,0.293291,1.26272,0.518381,-0.698439,0.967283,-0.598331,1.23028,0.44908,0.480158,0.318856
1718790,1,-1.5395,-0.499726,-0.0266775,-2.1357,-0.0130825,1.63681,0.793199,-1.53745,-0.497111,-0.0292282,-2.13841,-0.0141214,1.64171,0.794471,0.723276,0.561521,-0.64951,-0.942195,-0.276842,1.54247,0.196422,0.770157,0.609933,-0.694569,-1.02861,-0.313289,1.65103,0.201257,-0.454395,11.6983,-2.98791,4.6384,0.157793,1.26272,0.531199,-0.69373,1.0046,-0.602535,1.19839,0.438207,0.479354,0.321904
1718791,1,-1.53873,-0.499135,-0.0273558,-2.13668,-0.0133821,1.63843,0.793394,-1.53667,-0.496495,-0.0299315,-2.13945,-0.014438,1.64338,0.794674,0.737339,0.568587,-0.654999,-0.951408,-0.283784,1.57583,0.194688,0.779167,0.616374,-0.703372,-1.04067,-0.316675,1.66998,0.203506,-0.581349,11.4721,-2.78558,4.71378,0.163286,1.14096,0.485422,-0.684311,1.06539,-0.599905,1.14633,0.426776,0.477512,0.325537
1718792,1,-1.53797,-0.498526,-0.0280339,-2.13769,-0.013692,1.64009,0.793583,-1.53589,-0.495872,-0.0306437,-2.1405,-0.0147581,1.64506,0.79488,0.749802,0.581678,-0.653395,-0.965765,-0.289228,1.59253,0.187081,0.788176,0.622815,-0.712175,-1.05273,-0.32006,1.68893,0.205754,-0.656727,11.119,-2.86493,4.86057,0.186174,1.0375,0.504648,-0.679296,1.13579,-0.602955,1.08214,0.414589,0.474979,0.329606
1718793,1,-1.5372,-0.497908,-0.0287175,-2.13871,-0.0140045,1.64173,0.793781,-1.53509,-0.495244,-0.0313646,-2.14156,-0.0150814,1.64677,0.795088,0.754473,0.592839,-0.660204,-0.980381,-0.296718,1.60878,0.190282,0.796829,0.628049,-0.720835,-1.06374,-0.323307,1.70548,0.207948,-0.605152,10.8136,-2.83716,5.03513,0.293291,1.18582,0.414011,-0.686499,1.19464,-0.623319,1.01982,0.401667,0.4728,0.334027
1718794,1,-1.53642,-0.497288,-0.0294188,-2.13974,-0.0143174,1.6434,0.793984,-1.53428,-0.494611,-0.0320941,-2.14264,-0.015408,1.64849,0.795298,0.776732,0.595246,-0.669018,-0.998804,-0.299581,1.6247,0.189018,0.805482,0.633282,-0.729496,-1.07475,-0.326554,1.72203,0.210143,-0.680531,10.5874,-2.76178,5.28507,0.366533,1.3854,0.394785,-0.706207,1.23206,-0.661127,0.969009,0.388297,0.471869,0.338654
1718795,1,-1.53563,-0.496659,-0.0301234,-2.14081,-0.0146248,1.64511,0.794184,-1.53347,-0.493972,-0.0328322,-2.14373,-0.0157378,1.65023,0.79551,0.777124,0.607657,-0.676142,-1.01193,-0.303878,1.64597,0.192864,0.814135,0.638515,-0.738157,-1.08575,-0.329801,1.73857,0.212337,-0.656727,10.3613,-2.88873,5.65799,0.350054,1.48153,0.401194,-0.735982,1.24993,-0.712143,0.932249,0.374827,0.472609,0.343274
1718796,1,-1.53481,-0.496026,-0.0308409,-2.14188,-0.0149421,1.64682,0.794371,-1.53265,-0.493329,-0.033579,-2.14482,-0.0160708,1.65199,0.795725,0.778696,0.607939,-0.694479,-1.03446,-0.305881,1.66846,0.191319,0.822788,0.643749,-0.746817,-1.09676,-0.333047,1.75512,0.214531,-0.732105,10.1074,-2.76178,6.03092,0.293291,1.37899,0.49824,-0.764881,1.25055,-0.761557,0.910378,0.361916,0.475378,0.347655
1718797,1,-1.53401,-0.495391,-0.0315808,-2.14297,-0.0152641,1.64856,0.794568,-1.53182,-0.49268,-0.0343345,-2.14593,-0.0164071,1.65376,0.795942,0.77241,0.61568,-0.708941,-1.05072,-0.314148,1.67773,0.192662,0.831441,0.648982,-0.755478,-1.10777,-0.336294,1.77167,0.216726,-0.859058,9.80588,-2.65863,6.38004,0.293291,1.26913,0.582468,-0.775383,1.23883,-0.786008,0.90371,0.350362,0.48055,0.35165
1718798,1,-1.5332,-0.494768,-0.0323065,-2.14408,-0.0155717,1.65031,0.794771,-1.53098,-0.492025,-0.0350986,-2.14705,-0.0167466,1.65555,0.796161,0.775759,0.61426,-0.721255,-1.06359,-0.312161,1.73753,0.198404,0.840093,0.654215,-0.764138,-1.11877,-0.339541,1.78821,0.21892,-0.708302,9.55197,-2.65863,6.82438,0.197161,1.14096,0.641062,-0.757645,1.22538,-0.772397,0.906779,0.340452,0.487387,0.355289
1718799,1,-1.53237,-0.494145,-0.0330534,-2.14518,-0.0159041,1.65208,0.794987,-1.53013,-0.491366,-0.0358714,-2.14818,-0.0170894,1.65735,0.796382,0.791149,0.614539,-0.724743,-1.07711,-0.313598,1.74831,0.201528,0.848746,0.659449,-0.772799,-1.12978,-0.342787,1.80476,0.221114,-0.656727,9.44882,-2.65863,7.09812,0.191667,1.06314,0.588877,-0.719078,1.22727,-0.730646,0.908176,0.331621,0.494039,0.358768
1718800,1,-1.53153,-0.493521,-0.0338193,-2.1463,-0.0162457,1.65393,0.795223,-1.52927,-0.490701,-0.0366529,-2.14932,-0.0174355,1.65917,0.796605,0.803494,0.614626,-0.728293,-1.08621,-0.326463,1.77,0.215391,0.857399,0.664682,-0.781459,-1.14078,-0.346034,1.82131,0.223309,-0.882862,9.29807,-2.4563,7.29648,0.282305,0.625514,0.453379,-0.678366,1.25779,-0.685834,0.900105,0.322857,0.499307,0.362347
1718801,1,-1.53068,-0.492885,-0.0345691,-2.14741,-0.0165747,1.65572,0.795463,-1.5284,-0.490031,-0.037443,-2.15047,-0.0177847,1.66101,0.796831,0.817925,0.620139,-0.733515,-1.09321,-0.328736,1.77824,0.219142,0.866052,0.669915,-0.79012,-1.15179,-0.349281,1.83785,0.225503,-0.986012,9.17111,-2.50787,7.39963,0.26491,0.64474,0.278513,-0.649856,1.31921,-0.657192,0.879878,0.313446,0.502517,0.366125
1718802,1,-1.52982,-0.492226,-0.0353316,-2.14853,-0.0168999,1.65754,0.795689,-1.52753,-0.489356,-0.0382418,-2.15163,-0.0181373,1.66286,0.797058,0.829003,0.631112,-0.735399,-1.10075,-0.325196,1.78744,0.220194,0.874705,0.675149,-0.798781,-1.1628,-0.352528,1.8544,0.227698,-1.06139,8.76645,-2.65863,7.32425,0.242937,0.74087,0.252878,-0.640489,1.40073,-0.653482,0.850002,0.303105,0.503291,0.369934
1718803,1,-1.52893,-0.491568,-0.0361066,-2.14968,-0.0172468,1.6594,0.795925,-1.52665,-0.488677,-0.039049,-2.15281,-0.0184929,1.66473,0.797288,0.855751,0.641504,-0.749091,-1.10969,-0.331414,1.80163,0.227513,0.88294,0.678799,-0.807223,-1.17224,-0.355631,1.86786,0.22983,-1.43828,8.38956,-2.63482,7.32425,0.310686,0.767421,0.181467,-0.653998,1.48274,-0.678152,0.817987,0.291778,0.501942,0.373473
1718804,1,-1.52805,-0.49089,-0.0368985,-2.15081,-0.0175925,1.66125,0.796162,-1.52575,-0.487995,-0.0398647,-2.15399,-0.0188516,1.66661,0.79752,0.866273,0.650018,-0.754386,-1.11405,-0.332443,1.82181,0.229571,0.891174,0.68245,-0.815666,-1.18169,-0.358735,1.88132,0.231963,-1.51366,7.93332,-2.58325,7.27268,0.304277,0.657557,0.175059,-0.690484,1.55266,-0.729358,0.787944,0.279568,0.498732,0.376457
1718805,1,-1.52718,-0.490214,-0.0376909,-2.15199,-0.0179281,1.66313,0.796399,-1.52485,-0.487309,-0.0406888,-2.15518,-0.0192135,1.66851,0.797754,0.870797,0.670808,-0.758863,-1.13076,-0.329654,1.83028,0.228923,0.899409,0.686101,-0.824109,-1.19114,-0.361838,1.89478,0.234096,-1.31133,7.52866,-2.6864,7.44724,0.186174,0.767421,0.272104,-0.744939,1.59688,-0.800204,0.765634,0.266883,0.494269,0.378681
1718806,1,-1.52629,-0.489523,-0.0385163,-2.15319,-0.0182725,1.66498,0.796657,-1.52395,-0.486619,-0.0415214,-2.15638,-0.0195784,1.67042,0.79799,0.874508,0.675459,-0.774333,-1.14193,-0.33745,1.84036,0.23638,0.907644,0.689752,-0.832552,-1.20059,-0.364942,1.90823,0.236229,-1.18834,7.07242,-2.28174,7.77256,0.197161,0.954188,0.155832,-0.806132,1.5997,-0.876642,0.76105,0.254374,0.489849,0.380064
1718807,1,-1.52541,-0.488829,-0.0393601,-2.15438,-0.0186297,1.66687,0.796908,-1.52303,-0.485926,-0.0423624,-2.15759,-0.0199465,1.67234,0.798229,0.876058,0.678619,-0.789898,-1.15733,-0.33722,1.85195,0.242234,0.915879,0.693403,-0.840995,-1.21004,-0.368045,1.92169,0.238361,-0.910633,6.46939,-1.87707,8.29227,0.197161,1.18582,0.162241,-0.858278,1.56865,-0.93815,0.77402,0.242552,0.486121,0.380582
1718808,1,-1.52454,-0.48813,-0.0402019,-2.1556,-0.0189777,1.6688,0.79715,-1.52211,-0.485229,-0.0432118,-2.15881,-0.0203176,1.67427,0.798469,0.872452,0.684676,-0.80363,-1.17049,-0.342019,1.86527,0.245094,0.924113,0.697054,-0.849438,-1.21948,-0.371149,1.93515,0.240494,-0.402821,5.70767,-1.64697,8.86356,0.186174,1.23068,0.291331,-0.887566,1.52149,-0.966955,0.798576,0.231733,0.483302,0.380178
1718809,1,-1.52364,-0.487414,-0.04105,-2.15681,-0.0193298,1.6707,0.797398,-1.52117,-0.484528,-0.0440697,-2.16004,-0.0206919,1.67622,0.798712,0.870832,0.690198,-0.81834,-1.18942,-0.342598,1.87648,0.244213,0.932348,0.700704,-0.85788,-1.22893,-0.374252,1.94861,0.242627,-0.0259286,4.82297,-1.31769,9.33567,0.208147,1.36618,0.407602,-0.885772,1.46403,-0.953194,0.834233,0.222162,0.482026,0.378897
1718810,1,-1.52273,-0.486697,-0.0419128,-2.15804,-0.0196951,1.67265,0.797634,-1.52023,-0.483824,-0.044936,-2.16128,-0.0210692,1.67818,0.798957,0.877965,0.700997,-0.826283,-1.19953,-0.350928,1.88645,0.239065,0.940583,0.704355,-0.866323,-1.23838,-0.377356,1.96207,0.244759,-0.00212494,3.96603,-1.01617,9.66098,0.202654,1.43026,0.679514,-0.853838,1.39364,-0.89923,0.883422,0.213837,0.482952,0.377036
1718811,1,-1.52182,-0.485977,-0.0427748,-2.15927,-0.0200637,1.67456,0.797888,-1.51929,-0.483116,-0.0458108,-2.16252,-0.0214497,1.68016,0.799204,0.881968,0.706391,-0.838389,-1.20664,-0.35408,1.89508,0.234862,0.948817,0.708006,-0.874766,-1.24783,-0.380459,1.97553,0.246892,0.251781,3.33524,-0.837644,9.80777,0.236528,1.58499,0.712473,-0.800436,1.30955,-0.817293,0.944081,0.206406,0.486049,0.375119
1718812,1,-1.5209,-0.485268,-0.0436534,-2.16048,-0.020439,1.67649,0.798142,-1.51833,-0.482404,-0.046694,-2.16378,-0.0218332,1.68215,0.799453,0.89859,0.707349,-0.841559,-1.20833,-0.355767,1.90331,0.236997,0.957052,0.711657,-0.883209,-1.25727,-0.383563,1.98898,0.249025,0.303356,2.95438,-0.762265,9.63321,0.276811,1.8688,0.69874,-0.73742,1.22446,-0.723478,1.00509,0.199218,0.490351,0.373748
1718813,1,-1.51995,-0.484567,-0.0445558,-2.1617,-0.0208138,1.67847,0.798402,-1.51736,-0.48169,-0.0475853,-2.16505,-0.0222198,1.68415,0.799704,0.912056,0.704403,-0.850856,-1.20968,-0.358561,1.91893,0.24178,0.964826,0.713606,-0.891374,-1.26494,-0.386519,1.99901,0.251088,0.200207,2.77585,-0.611508,9.28806,0.26491,1.86148,0.641062,-0.678603,1.16212,-0.636298,1.04996,0.191495,0.494479,0.373352
1718814,1,-1.519,-0.48386,-0.0454342,-2.16294,-0.0211942,1.68044,0.798673,-1.51639,-0.480975,-0.0484849,-2.16632,-0.0226092,1.68616,0.799957,0.925577,0.703412,-0.859458,-1.22229,-0.361684,1.93225,0.248818,0.9726,0.715555,-0.899538,-1.27261,-0.389476,2.00904,0.25315,0.148632,2.70047,-0.710691,9.26029,0.231035,1.83584,0.434153,-0.632014,1.1395,-0.566198,1.06862,0.182864,0.497803,0.374059
1718815,1,-1.51805,-0.483132,-0.0463308,-2.16421,-0.0215705,1.68248,0.798929,-1.51541,-0.480257,-0.0493926,-2.1676,-0.0230017,1.68818,0.800212,0.932087,0.705768,-0.867163,-1.23319,-0.362684,1.95372,0.246206,0.980374,0.717504,-0.907703,-1.28028,-0.392432,2.01907,0.255213,0.0732535,2.52591,-0.913022,9.43485,0.163286,1.49526,0.44697,-0.597932,1.15446,-0.513244,1.06442,0.173493,0.500883,0.375706
1718816,1,-1.51706,-0.482411,-0.0472354,-2.16549,-0.0219471,1.68452,0.799191,-1.51442,-0.479538,-0.0503084,-2.16889,-0.0233971,1.6902,0.800469,0.949561,0.707173,-0.886474,-1.23992,-0.370313,2.01192,0.248922,0.988148,0.719453,-0.915868,-1.28795,-0.395389,2.0291,0.257276,-0.204456,2.12125,-0.940793,9.73636,0.129411,1.24349,0.330698,-0.572521,1.19744,-0.471714,1.04239,0.163696,0.503645,0.377915
1718817,1,-1.51607,-0.481669,-0.0481602,-2.16679,-0.0223328,1.68651,0.799469,-1.51343,-0.478816,-0.0512325,-2.17018,-0.0237954,1.69224,0.800729,0.960131,0.713891,-0.893967,-1.26165,-0.370356,2.00757,0.257379,0.995922,0.721402,-0.924032,-1.29562,-0.398345,2.03913,0.259339,-0.430592,1.3873,-0.964597,10.3553,0.10103,1.23709,0.135691,-0.552373,1.25474,-0.435788,1.00997,0.153714,0.505807,0.380303
1718818,1,-1.51511,-0.480941,-0.0490748,-2.16809,-0.0227365,1.68855,0.799742,-1.51242,-0.478093,-0.0521647,-2.17149,-0.0241967,1.69429,0.80099,0.965718,0.721817,-0.896734,-1.27021,-0.382308,2.01445,0.266437,1.0037,0.723351,-0.932197,-1.30329,-0.401302,2.04916,0.261401,-0.22826,0.704926,-1.16693,10.8274,0.180681,1.21145,0.0844213,-0.538837,1.30357,-0.407087,0.983242,0.143675,0.508469,0.382524
1718819,1,-1.51413,-0.48021,-0.0499974,-2.16942,-0.0231407,1.69057,0.800016,-1.51141,-0.477368,-0.053105,-2.1728,-0.024601,1.69635,0.801254,0.966971,0.726766,-0.90348,-1.28426,-0.394999,2.01727,0.271722,1.01147,0.7253,-0.940362,-1.31096,-0.404258,2.05918,0.263464,-0.101307,0.0463562,-1.11535,11.351,0.304277,1.30117,0.0258276,-0.532076,1.3285,-0.387336,0.972744,0.133706,0.512436,0.384192
1718820,1,-1.51316,-0.479485,-0.050948,-2.17072,-0.023545,1.69269,0.800288,-1.51039,-0.476641,-0.0540536,-2.17412,-0.0250082,1.69842,0.801519,0.969491,0.72374,-0.910982,-1.2909,-0.394823,2.03516,0.270398,1.01924,0.727249,-0.948526,-1.31863,-0.407215,2.06921,0.265527,0.0732535,-0.358307,-0.889218,11.7716,0.327165,0.773829,0.0844213,-0.527081,1.33438,-0.371703,0.976053,0.12402,0.517212,0.384941
1718821,1,-1.51217,-0.478784,-0.0519018,-2.17206,-0.0239329,1.6948,0.800547,-1.50937,-0.475911,-0.0550103,-2.17544,-0.0254183,1.7005,0.801787,0.969667,0.720313,-0.915509,-1.30046,-0.388464,2.05243,0.270665,1.02702,0.729199,-0.956691,-1.3263,-0.410172,2.07924,0.26759,0.227978,-0.509064,-0.786069,12.1723,0.282305,0.522059,0.226328,-0.51893,1.341,-0.355216,0.982306,0.114706,0.52134,0.384529
1718822,1,-1.51115,-0.478078,-0.0528621,-2.17335,-0.0243347,1.69685,0.800834,-1.50833,-0.47518,-0.0559751,-2.17678,-0.0258315,1.70259,0.802056,0.981933,0.71314,-0.930821,-1.30454,-0.390678,2.05963,0.27262,1.03479,0.731148,-0.964856,-1.33396,-0.413128,2.08927,0.269653,0.251781,-0.509064,-0.583737,12.1723,0.304277,0.805873,0.194285,-0.505339,1.36978,-0.335239,0.979615,0.105654,0.522941,0.382963
1718823,1,-1.51014,-0.477372,-0.0538332,-2.17466,-0.024744,1.69892,0.801123,-1.50729,-0.474449,-0.0569478,-2.17812,-0.0262474,1.70469,0.802328,0.995195,0.721011,-0.939524,-1.29836,-0.397282,2.04853,0.279987,1.04208,0.731437,-0.972692,-1.33982,-0.415935,2.09587,0.271635,0.251781,-0.636017,-0.409177,11.9461,0.316179,1.07595,0.162241,-0.487284,1.42973,-0.311639,0.960415,0.0966134,0.520739,0.380496
1718824,1,-1.50913,-0.476648,-0.054785,-2.176,-0.0251597,1.701,0.801422,-1.50624,-0.473717,-0.0579283,-2.17946,-0.0266662,1.70679,0.802602,0.992493,0.723428,-0.9453,-1.30657,-0.400603,2.06375,0.287866,1.04937,0.731726,-0.980528,-1.34567,-0.418742,2.10247,0.273617,0.553295,-0.838348,-0.508359,11.9223,0.417803,1.00546,0.0587866,-0.466746,1.5114,-0.286006,0.925228,0.087469,0.514831,0.377389
1718825,1,-1.50813,-0.475904,-0.0557665,-2.17731,-0.0255713,1.70313,0.801718,-1.50518,-0.472985,-0.0589167,-2.18081,-0.0270877,1.7089,0.802877,0.992457,0.729144,-0.945746,-1.31241,-0.403608,2.08092,0.292328,1.05666,0.732016,-0.988364,-1.35152,-0.421549,2.10907,0.275599,0.731823,-1.21524,-0.456784,11.8232,0.435198,0.895594,0.00660151,-0.443286,1.59879,-0.258823,0.881473,0.0784967,0.506255,0.373746
1718826,1,-1.50707,-0.475152,-0.0567582,-2.17867,-0.0259814,1.70525,0.802021,-1.50412,-0.472253,-0.0599129,-2.18217,-0.0275121,1.71101,0.803155,1.01308,0.735116,-0.948773,-1.3146,-0.404532,2.0844,0.302094,1.06394,0.732305,-0.9962,-1.35738,-0.424356,2.11567,0.277581,0.454113,-1.92538,-0.381406,12.0969,0.394914,1.01187,-0.0318506,-0.422596,1.67965,-0.238455,0.835681,0.0698307,0.495864,0.369571
1718827,1,-1.506,-0.474389,-0.0577396,-2.18003,-0.0263857,1.70734,0.802321,-1.50305,-0.47152,-0.0609169,-2.18353,-0.0279392,1.71313,0.803434,1.02816,0.740714,-0.959329,-1.33314,-0.398464,2.07331,0.301204,1.07123,0.732595,-1.00404,-1.36323,-0.427163,2.12227,0.279564,0.148632,-2.78232,-0.432981,12.5452,0.287798,1.23709,-0.0840357,-0.415337,1.74101,-0.237359,0.796781,0.0613429,0.484996,0.364862
1718828,1,-1.50496,-0.473615,-0.0587308,-2.18141,-0.0267943,1.70945,0.802637,-1.50197,-0.470787,-0.0619288,-2.1849,-0.0283692,1.71526,0.803716,1.03466,0.748682,-0.965822,-1.34593,-0.400894,2.07239,0.302069,1.07852,0.732884,-1.01187,-1.36908,-0.42997,2.12887,0.281546,0.0494498,-3.92093,-0.611508,13.2395,0.242937,1.46871,-0.141714,-0.423271,1.76678,-0.255532,0.779216,0.0531434,0.475921,0.359588
1718829,1,-1.50389,-0.47286,-0.0597058,-2.1828,-0.02721,1.71156,0.802934,-1.50088,-0.470054,-0.0629485,-2.18628,-0.028802,1.7174,0.803999,1.03531,0.752143,-0.986635,-1.35719,-0.405685,2.08781,0.303926,1.08581,0.733173,-1.01971,-1.37494,-0.432777,2.13547,0.283528,0.0256461,-4.85721,-0.988401,13.9099,0.270403,1.52731,-0.10967,-0.435282,1.74927,-0.277225,0.79018,0.0455644,0.470025,0.353639
1718830,1,-1.50284,-0.472115,-0.0607141,-2.18418,-0.0276314,1.71369,0.803228,-1.49979,-0.469321,-0.0639761,-2.18766,-0.0292375,1.71954,0.804285,1.06734,0.745462,-0.986992,-1.36975,-0.408189,2.09627,0.300941,1.0931,0.733463,-1.02754,-1.38079,-0.435584,2.14208,0.28551,0.0732535,-5.4642,-1.09155,14.5328,0.293291,1.62344,0.0194189,-0.446447,1.70072,-0.295342,0.823788,0.0385612,0.467075,0.346939
1718831,1,-1.50175,-0.471387,-0.0617366,-2.18556,-0.0280377,1.71581,0.803509,-1.49869,-0.468587,-0.0650114,-2.18904,-0.0296759,1.72169,0.804572,1.0752,0.745951,-0.992412,-1.36878,-0.414067,2.09232,0.291757,1.10038,0.733752,-1.03538,-1.38664,-0.438391,2.14868,0.287492,-0.125111,-5.81729,-1.09155,14.8542,0.220049,1.89443,0.284922,-0.468644,1.6442,-0.325795,0.867562,0.0315276,0.466096,0.339642
1718832,1,-1.50065,-0.470649,-0.0627689,-2.18692,-0.0284484,1.7179,0.803797,-1.49758,-0.467853,-0.0660546,-2.19044,-0.0301171,1.72385,0.804862,1.07771,0.744041,-1.01147,-1.39122,-0.409527,2.09652,0.291527,1.10767,0.734042,-1.04322,-1.39249,-0.441198,2.15528,0.289475,-0.355213,-6.04343,-0.861447,14.7788,0.0845506,2.20297,0.459788,-0.500974,1.5913,-0.368638,0.915166,0.0242928,0.466866,0.332098
1718833,1,-1.49957,-0.469905,-0.0638227,-2.1883,-0.0288589,1.72001,0.80409,-1.49647,-0.46712,-0.0671053,-2.19183,-0.030561,1.726,0.805153,1.06645,0.744284,-1.01987,-1.38729,-0.403108,2.09234,0.291757,1.11446,0.732909,-1.05068,-1.39671,-0.443852,2.15876,0.291366,-0.279835,-6.32114,-0.508359,14.5804,-0.000593394,2.4996,0.563242,-0.523698,1.54315,-0.399159,0.966372,0.0171824,0.47002,0.324765
