shamilmamedov/beam_handling/data/param_estimation_ICRA/ocp_Xdown_15cm_0.35s_4.csv
duration, success rate, q[0], q[1], q[2], q[3], q[4], q[5], q[6],q_d[0], q_d[1], q_d[2], q_d[3], q_d[4], q_d[5], q_d[6],dq[0], dq[1], dq[2], dq[3], dq[4], dq[5], dq[6],dq_d[0], dq_d[1], dq_d[2], dq_d[3], dq_d[4], dq_d[5], dq_d[6],tau_J[0], tau_J[1], tau_J[2], tau_J[3], tau_J[4], tau_J[5], tau_J[6],tau_ext_hat_filtered[0], tau_ext_hat_filtered[1], tau_ext_hat_filtered[2], tau_ext_hat_filtered[3], tau_ext_hat_filtered[4], tau_ext_hat_filtered[5], tau_ext_hat_filtered[6]
2199220,0,-1.57087,-0.522771,-0.000536694,-2.09578,-1.57083,1.5715,0.785741,-1.5708,-0.523599,-4.56351e-08,-2.09439,-1.5708,1.5708,0.785399,0.00118329,2.82707e-05,0.00015332,0.000500258,-0.000125662,-0.000296602,0.000123271,0,0,0,0,0,0,0,-0.0259286,-10.2924,0.907962,20.7456,-0.764143,-0.546361,-0.193899,0.0265769,-1.17043,0.741863,2.24124,-0.201895,-0.551509,-0.255797
2199221,1,-1.57087,-0.522768,-0.000536694,-2.09579,-1.57083,1.5715,0.785741,-1.5708,-0.523599,-4.56351e-08,-2.09439,-1.5708,1.5708,0.785399,-0.000417564,0.00113247,0.000102214,-0.00142973,0.000119676,0.000310892,8.21808e-05,0,0,0,0,0,0,0,0.0256461,-10.34,0.907962,20.821,-0.769636,-0.560094,-0.193899,0.0251836,-1.17139,0.740009,2.24208,-0.202002,-0.551751,-0.255396
2199222,1,-1.57087,-0.522773,-0.000536694,-2.09579,-1.57083,1.5715,0.78574,-1.5708,-0.523599,-4.56351e-08,-2.09439,-1.5708,1.5708,0.785399,0.000371238,-0.00100826,6.81423e-05,-0.000953155,-0.000123667,0.000207261,-0.000182572,0,0,0,0,0,0,0,-0.00212494,-10.2646,0.907962,20.821,-0.764143,-0.560094,-0.18749,0.024323,-1.17436,0.739019,2.2442,-0.202138,-0.551927,-0.254979
2199223,1,-1.57087,-0.522773,-0.000535024,-2.09578,-1.57083,1.5715,0.785744,-1.5708,-0.523599,-4.56351e-08,-2.09439,-1.5708,1.5708,0.785399,-0.000402122,-0.000672171,0.00060224,0.000570989,0.000324457,-0.000607811,0.00106508,0,0,0,0,0,0,0,0.0256461,-10.2646,0.884158,20.7694,-0.77513,-0.539952,-0.219534,0.023902,-1.1759,0.73861,2.24581,-0.20224,-0.552012,-0.254561
2199224,1,-1.57087,-0.522769,-0.000536694,-2.09579,-1.57083,1.5715,0.785739,-1.5708,-0.523599,-4.56351e-08,-2.09439,-1.5708,1.5708,0.785399,-0.000268081,0.000758312,-0.000155319,-0.000825766,0.000216304,0.000103419,-0.0007141,0,0,0,0,0,0,0,0.0256461,-10.3162,0.907962,20.821,-0.77513,-0.553685,-0.181082,0.0238334,-1.17577,0.73861,2.24635,-0.202292,-0.55202,-0.254159
2199225,1,-1.57087,-0.522769,-0.000536694,-2.09578,-1.57083,1.5715,0.785742,-1.5708,-0.523599,-4.56351e-08,-2.09439,-1.5708,1.5708,0.785399,-0.000178721,0.000505541,-0.000103546,0.000655915,-0.000466149,-0.000202321,0.00023601,0,0,0,0,0,0,0,0.0256461,-10.3162,0.907962,20.7694,-0.75865,-0.546361,-0.200308,0.0242627,-1.17682,0.739342,2.24717,-0.20234,-0.551959,-0.253778
2199226,1,-1.57087,-0.522771,-0.000538643,-2.09579,-1.57083,1.5715,0.785742,-1.5708,-0.523599,-4.56351e-08,-2.09439,-1.5708,1.5708,0.785399,-0.000119147,-0.000219785,-0.000718644,-0.000769149,-0.000107315,0.000136386,0.00015734,0,0,0,0,0,0,0,0.0256461,-10.2924,0.935733,20.821,-0.764143,-0.553685,-0.200308,0.0251944,-1.17854,0.740869,2.24812,-0.202376,-0.551823,-0.253415
2199227,1,-1.57087,-0.522771,-0.000538643,-2.09578,-1.57083,1.5715,0.78574,-1.5708,-0.523599,-4.56351e-08,-2.09439,-1.5708,1.5708,0.785399,-7.94315e-05,-0.000146523,-0.000479096,0.00069366,0.000335358,-0.000417702,-0.000369825,0,0,0,0,0,0,0,0.0256461,-10.2924,0.935733,20.7694,-0.77513,-0.539952,-0.18749,0.0265649,-1.17926,0.743078,2.24856,-0.202373,-0.551596,-0.253074
2199228,1,-1.57088,-0.522769,-0.000538643,-2.09578,-1.57083,1.5715,0.78574,-1.5708,-0.523599,-4.56351e-08,-2.09439,-1.5708,1.5708,0.785399,-0.00116658,0.00045913,-0.000319398,-0.000187174,-0.000183329,-4.11091e-05,-0.00024655,0,0,0,0,0,0,0,0.0732535,-10.3162,0.935733,20.7972,-0.764143,-0.546361,-0.18749,0.0282959,-1.17917,0.745786,2.24851,-0.202337,-0.551293,-0.252754
2199229,1,-1.57088,-0.522769,-0.000538643,-2.09578,-1.57083,1.5715,0.785739,-1.5708,-0.523599,-4.56351e-08,-2.09439,-1.5708,1.5708,0.785399,-0.000220907,0.000306087,-0.000212932,-0.000124783,8.1231e-05,0.000243861,-0.000639084,0,0,0,0,0,0,0,0.0494498,-10.3162,0.935733,20.7972,-0.769636,-0.553685,-0.174673,0.0301725,-1.17954,0.748618,2.24865,-0.202303,-0.550966,-0.252438
2199230,1,-1.57088,-0.522768,-0.000538643,-2.09578,-1.57083,1.5715,0.785742,-1.5708,-0.523599,-4.56351e-08,-2.09439,-1.5708,1.5708,0.785399,-0.000704083,0.00076087,-0.000141954,-8.31885e-05,5.4154e-05,-0.000108693,0.000760738,0,0,0,0,0,0,0,0.0732535,-10.34,0.935733,20.7972,-0.769636,-0.546361,-0.206716,0.0318088,-1.18092,0.751032,2.24938,-0.2023,-0.550687,-0.252109
2199231,1,-1.57087,-0.522771,-0.000536694,-2.09579,-1.57083,1.5715,0.785741,-1.5708,-0.523599,-4.56351e-08,-2.09439,-1.5708,1.5708,0.785399,0.000644235,-0.000606377,0.000554978,-0.000612271,-0.000167348,-7.24621e-05,3.24411e-05,0,0,0,0,0,0,0,0.0256461,-10.2924,0.907962,20.821,-0.764143,-0.546361,-0.193899,0.0326991,-1.18246,0.752283,2.25033,-0.202331,-0.550525,-0.251764
2199232,1,-1.57087,-0.522769,-0.000536694,-2.09579,-1.57083,1.5715,0.785742,-1.5708,-0.523599,-4.56351e-08,-2.09439,-1.5708,1.5708,0.785399,0.00042949,0.00015256,0.000369985,-0.000408181,-0.000111565,-4.83081e-05,0.000258986,0,0,0,0,0,0,0,0.0256461,-10.3162,0.907962,20.821,-0.764143,-0.546361,-0.200308,0.0323713,-1.18312,0.751693,2.25115,-0.202396,-0.550536,-0.251422
2199233,1,-1.57087,-0.522769,-0.000535024,-2.09579,-1.57083,1.5715,0.785741,-1.5708,-0.523599,-4.56351e-08,-2.09439,-1.5708,1.5708,0.785399,0.000286327,0.000101707,0.000803469,0.000284692,-7.43768e-05,-3.22054e-05,-6.47014e-05,0,0,0,0,0,0,0,0.0256461,-10.3162,0.884158,20.7972,-0.764143,-0.546361,-0.193899,0.0310165,-1.18314,0.749555,2.25173,-0.202477,-0.550691,-0.251096
2199234,1,-1.57088,-0.522773,-0.000540313,-2.09578,-1.57083,1.5715,0.785743,-1.5708,-0.523599,-4.56351e-08,-2.09439,-1.5708,1.5708,0.785399,-0.000365927,-0.00113862,-0.00122759,0.000839408,0.000153866,-2.14703e-05,0.000668943,0,0,0,0,0,0,0,0.0494498,-10.2646,0.959536,20.7694,-0.769636,-0.546361,-0.213125,0.0298337,-1.18166,0.747599,2.25128,-0.202502,-0.550797,-0.250794
2199235,1,-1.57087,-0.522773,-0.000540313,-2.09579,-1.57083,1.5715,0.785744,-1.5708,-0.523599,-4.56351e-08,-2.09439,-1.5708,1.5708,0.785399,0.00031286,-0.000759081,-0.000818395,-0.00064682,0.000102577,-1.43135e-05,0.000683321,0,0,0,0,0,0,0,0.0256461,-10.2646,0.959536,20.821,-0.769636,-0.546361,-0.219534,0.0299292,-1.17774,0.747522,2.24955,-0.202435,-0.550672,-0.250527
2199236,1,-1.57088,-0.522768,-0.000536694,-2.09578,-1.57083,1.5715,0.785742,-1.5708,-0.523599,-4.56351e-08,-2.09439,-1.5708,1.5708,0.785399,-0.00090505,0.00125718,0.000660829,0.000775212,6.83849e-05,0.000261725,-1.91708e-05,0,0,0,0,0,0,0,0.0732535,-10.34,0.907962,20.7694,-0.769636,-0.553685,-0.206716,0.0307418,-1.17417,0.748533,2.24808,-0.202354,-0.550438,-0.250304
2199237,1,-1.57087,-0.522771,-0.000536694,-2.09578,-1.57083,1.5715,0.785746,-1.5708,-0.523599,-4.56351e-08,-2.09439,-1.5708,1.5708,0.785399,0.000510257,-0.000275501,0.000440553,-0.000132806,4.55899e-05,-9.6784e-05,0.00117401,0,0,0,0,0,0,0,0.0256461,-10.2924,0.907962,20.7972,-0.769636,-0.546361,-0.23876,0.0310711,-1.17302,0.748784,2.24764,-0.202329,-0.550313,-0.250134
2199238,1,-1.57087,-0.522771,-0.000536694,-2.09579,-1.57083,1.5715,0.785744,-1.5708,-0.523599,-4.56351e-08,-2.09439,-1.5708,1.5708,0.785399,0.000340171,-0.000183668,0.000293702,-0.00120216,3.03933e-05,0.000206745,0.000307958,0,0,0,0,0,0,0,0.0256461,-10.2924,0.907962,20.8448,-0.769636,-0.553685,-0.225942,0.0305793,-1.17305,0.747807,2.24799,-0.202366,-0.550331,-0.25003
2199239,1,-1.57087,-0.522766,-0.000536694,-2.09578,-1.57083,1.5715,0.785745,-1.5708,-0.523599,-4.56351e-08,-2.09439,-1.5708,1.5708,0.785399,0.000226781,0.000991179,0.000195801,0.000312183,2.02622e-05,0.00013783,0.000442664,0,0,0,0,0,0,0,0.0256461,-10.34,0.907962,20.7972,-0.769636,-0.553685,-0.232351,0.0296283,-1.17411,0.746215,2.24925,-0.202457,-0.550433,-0.250009
2199240,1,-1.57088,-0.522767,-0.000536694,-2.09579,-1.57083,1.5715,0.785744,-1.5708,-0.523599,-4.56351e-08,-2.09439,-1.5708,1.5708,0.785399,-0.000962437,0.000660786,0.000130534,-0.00034869,0.000216959,9.18865e-05,-0.000179608,0,0,0,0,0,0,0,0.0732535,-10.34,0.907962,20.821,-0.77513,-0.553685,-0.219534,0.0289333,-1.1768,0.745,2.25124,-0.20257,-0.550527,-0.250079
2199241,1,-1.57088,-0.522771,-0.000536694,-2.09579,-1.57083,1.5715,0.785745,-1.5708,-0.523599,-4.56351e-08,-2.09439,-1.5708,1.5708,0.785399,-8.48125e-05,-0.0006731,8.70228e-05,-0.000789272,0.000144639,6.12577e-05,0.000354979,0,0,0,0,0,0,0,0.0494498,-10.2924,0.907962,20.8448,-0.77513,-0.553685,-0.232351,0.0289021,-1.17968,0.744641,2.25335,-0.202677,-0.550537,-0.250235
2199242,1,-1.57087,-0.522773,-0.000536694,-2.09578,-1.57083,1.5715,0.785743,-1.5708,-0.523599,-4.56351e-08,-2.09439,-1.5708,1.5708,0.785399,0.00050027,-0.00109835,5.80152e-05,0.00123706,-0.000513925,-0.000230429,-0.000475424,0,0,0,0,0,0,0,0.0256461,-10.2646,0.907962,20.7694,-0.75865,-0.546361,-0.213125,0.0291328,-1.17976,0.744534,2.25417,-0.202742,-0.55049,-0.250472
2199243,1,-1.57087,-0.522771,-0.000536694,-2.09579,-1.57083,1.5715,0.78574,-1.5708,-0.523599,-4.56351e-08,-2.09439,-1.5708,1.5708,0.785399,0.00153994,-8.26176e-05,3.86768e-05,-0.000381721,6.4284e-05,-0.000153619,-0.000316949,0,0,0,0,0,0,0,-0.0259286,-10.2924,0.907962,20.821,-0.769636,-0.546361,-0.213125,0.0288979,-1.17678,0.74377,2.25323,-0.202756,-0.550487,-0.250777
2199244,1,-1.57088,-0.522769,-0.000538643,-2.09579,-1.57083,1.5715,0.785743,-1.5708,-0.523599,-4.56351e-08,-2.09439,-1.5708,1.5708,0.785399,-0.000736612,0.000501734,0.00554803,-0.000254481,4.2856e-05,0.000406213,0.000263418,0,0,0,0,0,0,0,0.0494498,-10.3162,0.935733,20.821,-0.769636,-0.560094,-0.225942,0.0267566,-1.17428,0.74011,2.25247,-0.20283,-0.550781,-0.251115
2199245,1,-1.57087,-0.522769,-0.000536694,-2.09578,-1.57083,1.5715,0.785746,-1.5708,-0.523599,-4.56351e-08,-2.09439,-1.5708,1.5708,0.785399,6.57376e-05,0.000334489,0.00486262,0.00103677,-0.00017488,3.345e-05,0.00065033,0,0,0,0,0,0,0,0.0256461,-10.3162,0.907962,20.7694,-0.764143,-0.553685,-0.23876,0.0213801,-1.17368,0.731188,2.25252,-0.203034,-0.5516,-0.251462
2199246,1,-1.57087,-0.522769,-0.000535024,-2.09578,-1.57083,1.5715,0.785741,-1.5708,-0.523599,-4.56351e-08,-2.09439,-1.5708,1.5708,0.785399,4.38251e-05,0.000222993,0.0041843,4.15673e-05,8.6864e-05,2.23e-05,-0.00122796,0,0,0,0,0,0,0,0.0256461,-10.3162,0.884158,20.7972,-0.769636,-0.553685,-0.193899,0.0138267,-1.17371,0.718685,2.25249,-0.2033,-0.552775,-0.251827
2199247,1,-1.57088,-0.522769,-0.000536694,-2.09578,-1.57083,1.5715,0.78574,-1.5708,-0.523599,-4.56351e-08,-2.09439,-1.5708,1.5708,0.785399,-0.00108441,0.000148662,0.00252203,0.00123414,-0.000789801,1.48667e-05,-0.001056,0,0,0,0,0,0,0,0.0732535,-10.3162,0.907962,20.7456,-0.746748,-0.553685,-0.18749,0.00679266,-1.17359,0.706942,2.25214,-0.203528,-0.553878,-0.252208
2199248,1,-1.57087,-0.522768,-0.000536694,-2.09578,-1.57083,1.5715,0.785747,-1.5708,-0.523599,-4.56351e-08,-2.09439,-1.5708,1.5708,0.785399,0.0010403,0.00065592,0.00189833,0.000822758,-8.57247e-05,-0.000261356,0.00146614,0,0,0,0,0,0,0,-0.00212494,-10.34,0.907962,20.7456,-0.75865,-0.546361,-0.246084,0.00193799,-1.17328,0.69864,2.25137,-0.203656,-0.554656,-0.252568
2199249,1,-1.57087,-0.522771,-0.000538643,-2.09578,-1.57083,1.5715,0.785742,-1.5708,-0.523599,-4.56351e-08,-2.09439,-1.5708,1.5708,0.785399,4.39192e-05,-0.000676344,0.000778676,-8.30642e-06,0.000146301,9.70299e-05,-0.000717994,0,0,0,0,0,0,0,0.0256461,-10.2924,0.935733,20.7694,-0.764143,-0.553685,-0.200308,-0.000659942,-1.17282,0.694111,2.25046,-0.20368,-0.555083,-0.252889
2199250,1,-1.57087,-0.522769,-0.000536694,-2.09578,-1.57083,1.5715,0.785739,-1.5708,-0.523599,-4.56351e-08,-2.09439,-1.5708,1.5708,0.785399,0.000678893,0.000105916,0.00129078,-5.53761e-06,0.000300984,6.46866e-05,-0.0014281,0,0,0,0,0,0,0,-0.00212494,-10.3162,0.907962,20.7694,-0.769636,-0.553685,-0.174673,-0.00131857,-1.172,0.692887,2.24976,-0.203626,-0.555193,-0.253189
2199251,1,-1.57087,-0.522771,-0.000536694,-2.09578,-1.57083,1.5715,0.785742,-1.5708,-0.523599,-4.56351e-08,-2.09439,-1.5708,1.5708,0.785399,-0.000197018,-0.000486201,0.00095206,-3.69174e-06,-0.000206245,-0.000228143,-2.63002e-06,0,0,0,0,0,0,0,0.0256461,-10.2924,0.907962,20.7694,-0.75865,-0.546361,-0.200308,-0.000582081,-1.17106,0.694029,2.24937,-0.203525,-0.555073,-0.253452
2199252,1,-1.57087,-0.522769,-0.000538643,-2.09578,-1.57083,1.5715,0.785745,-1.5708,-0.523599,-4.56351e-08,-2.09439,-1.5708,1.5708,0.785399,-0.000131346,0.000232678,5.37461e-05,0.00111116,0.000269405,-0.000152095,0.00118504,0,0,0,0,0,0,0,0.0256461,-10.3162,0.935733,20.7218,-0.769636,-0.546361,-0.232351,0.00144079,-1.16996,0.697264,2.24887,-0.203376,-0.554743,-0.253645
2199253,1,-1.57087,-0.522769,-0.000538643,-2.09578,-1.57083,1.5715,0.785742,-1.5708,-0.523599,-4.56351e-08,-2.09439,-1.5708,1.5708,0.785399,0.00056205,0.000155118,8.7321e-05,-0.000372849,0.000179603,0.00016987,-0.000159408,0,0,0,0,0,0,0,-0.00212494,-10.3162,0.935733,20.7694,-0.769636,-0.553685,-0.206716,0.00463279,-1.16921,0.702443,2.24832,-0.203187,-0.554227,-0.253778
2199254,1,-1.57087,-0.522769,-0.000540313,-2.09578,-1.57083,1.5715,0.785742,-1.5708,-0.523599,-4.56351e-08,-2.09439,-1.5708,1.5708,0.785399,-0.000274914,0.000103412,-0.00045998,-0.000248566,-0.000287166,-0.00015802,-0.000343631,0,0,0,0,0,0,0,0.0256461,-10.3162,0.959536,20.7694,-0.75865,-0.546361,-0.200308,0.00848128,-1.16967,0.708855,2.24847,-0.203008,-0.553608,-0.253883
2199255,1,-1.57087,-0.522768,-0.000536694,-2.09578,-1.57083,1.5715,0.78574,-1.5708,-0.523599,-4.56351e-08,-2.09439,-1.5708,1.5708,0.785399,0.000466338,0.000625754,0.000928736,0.000391101,-0.000428803,-0.000105347,-0.000703805,0,0,0,0,0,0,0,-0.00212494,-10.34,0.907962,20.7456,-0.752241,-0.546361,-0.18749,0.012392,-1.17123,0.715529,2.24925,-0.202854,-0.552979,-0.253968
2199256,1,-1.57087,-0.522769,-0.000538643,-2.09578,-1.57083,1.5715,0.785741,-1.5708,-0.523599,-4.56351e-08,-2.09439,-1.5708,1.5708,0.785399,0.000310892,-0.000139643,-8.7344e-06,0.000260734,0.000154941,0.000201036,-0.000231845,0,0,0,0,0,0,0,-0.00212494,-10.3162,0.935733,20.7456,-0.764143,-0.553685,-0.193899,0.0155814,-1.17307,0.721228,2.24993,-0.202709,-0.55245,-0.254022
2199257,1,-1.57087,-0.522769,-0.000535024,-2.09578,-1.57083,1.5715,0.785742,-1.5708,-0.523599,-4.56351e-08,-2.09439,-1.5708,1.5708,0.785399,-0.000442353,-9.30953e-05,0.00121689,-0.000382989,0.000306744,0.000134024,8.27959e-05,0,0,0,0,0,0,0,0.0256461,-10.3162,0.884158,20.7694,-0.769636,-0.553685,-0.200308,0.0179803,-1.17434,0.725758,2.25024,-0.202566,-0.552023,-0.254034
2199258,1,-1.57087,-0.522769,-0.000538643,-2.09579,-1.57083,1.5715,0.785741,-1.5708,-0.523599,-4.56351e-08,-2.09439,-1.5708,1.5708,0.785399,-0.000294902,-6.20635e-05,-0.000382944,-0.00090494,1.04581e-06,-0.000181918,-0.000182162,0,0,0,0,0,0,0,0.0256461,-10.3162,0.935733,20.7972,-0.764143,-0.546361,-0.193899,0.0201243,-1.17537,0.72982,2.25073,-0.202439,-0.551624,-0.253996
2199259,1,-1.57087,-0.522773,-0.000540313,-2.09578,-1.57083,1.5715,0.785743,-1.5708,-0.523599,-4.56351e-08,-2.09439,-1.5708,1.5708,0.785399,0.000453013,-0.0012478,-0.000802944,0.00115994,-0.000202753,0.000149989,0.000590636,0,0,0,0,0,0,0,-0.00212494,-10.2646,0.959536,20.7218,-0.75865,-0.553685,-0.213125,0.0226021,-1.17527,0.734365,2.25078,-0.20229,-0.551156,-0.253919
2199260,1,-1.57087,-0.522771,-0.000536694,-2.09578,-1.57083,1.5715,0.785737,-1.5708,-0.523599,-4.56351e-08,-2.09439,-1.5708,1.5708,0.785399,0.000302009,-0.000182254,0.000678003,-0.000340328,0.000271732,9.99925e-05,-0.00150511,0,0,0,0,0,0,0,-0.00212494,-10.2924,0.907962,20.7694,-0.769636,-0.553685,-0.161856,0.0250185,-1.17294,0.738878,2.24946,-0.202092,-0.550671,-0.253821
2199261,1,-1.57088,-0.522769,-0.000538643,-2.09578,-1.57083,1.5715,0.78574,-1.5708,-0.523599,-4.56351e-08,-2.09439,-1.5708,1.5708,0.785399,-0.0015619,0.000435309,-0.000192457,-0.000226885,0.000181155,0.000304021,-5.39738e-05,0,0,0,0,0,0,0,0.0732535,-10.3162,0.935733,20.7694,-0.769636,-0.560094,-0.18749,0.0270113,-1.17095,0.742722,2.24821,-0.20191,-0.550262,-0.253692
2199262,1,-1.57088,-0.522768,-0.000536694,-2.09578,-1.57083,1.5715,0.78574,-1.5708,-0.523599,-4.56351e-08,-2.09439,-1.5708,1.5708,0.785399,-0.000484454,0.000847018,0.000525175,0.000405555,0.00012077,-3.46786e-05,-3.59826e-05,0,0,0,0,0,0,0,0.0494498,-10.34,0.907962,20.7456,-0.769636,-0.553685,-0.18749,0.0290825,-1.17149,0.746524,2.24813,-0.201782,-0.549892,-0.253505
2199263,1,-1.57087,-0.522769,-0.000538643,-2.09578,-1.57083,1.5715,0.785745,-1.5708,-0.523599,-4.56351e-08,-2.09439,-1.5708,1.5708,0.785399,0.000883457,7.86687e-06,-0.000296597,0.00027037,8.05132e-05,-0.000294386,0.00163752,0,0,0,0,0,0,0,-0.00212494,-10.3162,0.935733,20.7456,-0.769636,-0.546361,-0.232351,0.0307934,-1.17344,0.749717,2.24844,-0.201697,-0.549619,-0.253259
2199264,1,-1.57087,-0.522768,-0.000536694,-2.09578,-1.57083,1.5715,0.785741,-1.5708,-0.523599,-4.56351e-08,-2.09439,-1.5708,1.5708,0.785399,-6.06429e-05,0.000562057,0.000454057,-0.000376565,5.36755e-05,-0.000433617,-0.000332471,0,0,0,0,0,0,0,0.0256461,-10.34,0.907962,20.7694,-0.769636,-0.539952,-0.193899,0.0316398,-1.17565,0.751672,2.24877,-0.201658,-0.549493,-0.252985
2199265,1,-1.57087,-0.522769,-0.000536694,-2.09579,-1.57083,1.5715,0.785745,-1.5708,-0.523599,-4.56351e-08,-2.09439,-1.5708,1.5708,0.785399,-4.04286e-05,-0.000182108,0.000304336,-0.00145747,0.000239234,-0.000289078,0.00120251,0,0,0,0,0,0,0,0.0256461,-10.3162,0.907962,20.821,-0.77513,-0.539952,-0.232351,0.0319063,-1.17832,0.75273,2.24971,-0.201684,-0.549452,-0.252723
2199266,1,-1.57087,-0.522771,-0.000536694,-2.09578,-1.57083,1.5715,0.785744,-1.5708,-0.523599,-4.56351e-08,-2.09439,-1.5708,1.5708,0.785399,0.000622662,-0.000678217,0.000204114,0.00023478,0.000159489,0.000553267,0.000564312,0,0,0,0,0,0,0,-0.00212494,-10.2924,0.907962,20.7694,-0.77513,-0.560094,-0.225942,0.0317519,-1.18037,0.753068,2.25083,-0.201753,-0.54945,-0.252498
2199267,1,-1.57088,-0.522769,-0.000538643,-2.09578,-1.57083,1.5715,0.785746,-1.5708,-0.523599,-4.56351e-08,-2.09439,-1.5708,1.5708,0.785399,-0.000791318,0.000104667,-0.000512621,0.00127014,0.000106326,0.000368845,0.000850926,0,0,0,0,0,0,0,0.0494498,-10.3162,0.935733,20.7218,-0.77513,-0.560094,-0.23876,0.0316347,-1.18018,0.753368,2.25057,-0.201788,-0.549411,-0.252345
2199268,1,-1.57088,-0.522769,-0.000536694,-2.09578,-1.57083,1.5715,0.785741,-1.5708,-0.523599,-4.56351e-08,-2.09439,-1.5708,1.5708,0.785399,-0.00108436,6.97782e-05,0.000308555,-0.000266861,-0.000336017,0.000245896,9.2566e-05,0,0,0,0,0,0,0,0.0732535,-10.3162,0.907962,20.7694,-0.764143,-0.560094,-0.225942,0.0322655,-1.17877,0.754595,2.24913,-0.201774,-0.549263,-0.252284
2199269,1,-1.57088,-0.522769,-0.000540313,-2.09578,-1.57083,1.5715,0.785741,-1.5708,-0.523599,-4.56351e-08,-2.09439,-1.5708,1.5708,0.785399,-0.000166093,4.65188e-05,-0.00100021,0.000378904,-0.000224011,-0.000582054,-0.000650366,0,0,0,0,0,0,0,0.0494498,-10.3162,0.959536,20.7456,-0.764143,-0.539952,-0.206716,0.0336656,-1.17774,0.756777,2.24775,-0.20176,-0.549026,-0.252319
2199270,1,-1.57087,-0.522771,-0.000536694,-2.09579,-1.57083,1.5715,0.785745,-1.5708,-0.523599,-4.56351e-08,-2.09439,-1.5708,1.5708,0.785399,0.000446083,-0.000525799,0.000540009,-0.00151063,-0.000149341,0.00012059,0.000515858,0,0,0,0,0,0,0,0.0256461,-10.2924,0.907962,20.821,-0.764143,-0.553685,-0.232351,0.0350537,-1.17722,0.758898,2.24698,-0.201777,-0.548812,-0.252431
2199271,1,-1.57087,-0.522771,-0.000538643,-2.09579,-1.57083,1.5715,0.785744,-1.5708,-0.523599,-4.56351e-08,-2.09439,-1.5708,1.5708,0.785399,0.000297389,-0.000350533,-0.000289318,-0.00100709,0.00010389,8.03934e-05,0.000106547,0,0,0,0,0,0,0,0.0256461,-10.2924,0.935733,20.821,-0.769636,-0.553685,-0.225942,0.0356287,-1.17714,0.759839,2.24715,-0.201852,-0.548729,-0.252599
2199272,1,-1.57087,-0.522768,-0.000538643,-2.09579,-1.57083,1.5715,0.785745,-1.5708,-0.523599,-4.56351e-08,-2.09439,-1.5708,1.5708,0.785399,0.000198259,0.000879935,-0.000192661,-0.000671393,6.926e-05,-0.000217672,0.00030839,0,0,0,0,0,0,0,0.0256461,-10.34,0.935733,20.821,-0.769636,-0.546361,-0.232351,0.0356378,-1.17825,0.759995,2.24838,-0.201976,-0.548748,-0.252815
2199273,1,-1.57087,-0.522769,-0.000535024,-2.09578,-1.57083,1.5715,0.785744,-1.5708,-0.523599,-4.56351e-08,-2.09439,-1.5708,1.5708,0.785399,0.000132173,2.98116e-05,0.00107815,0.00075883,0.000249624,-0.000145115,-3.17656e-05,0,0,0,0,0,0,0,0.0256461,-10.3162,0.884158,20.7694,-0.77513,-0.546361,-0.225942,0.035236,-1.1804,0.759543,2.24986,-0.20211,-0.548846,-0.25308
2199274,1,-1.57087,-0.522769,-0.000540313,-2.09579,-1.57083,1.5715,0.785743,-1.5708,-0.523599,-4.56351e-08,-2.09439,-1.5708,1.5708,0.785399,0.000737729,1.98744e-05,-0.00104435,-0.000700539,-3.70346e-05,-9.6743e-05,0.000724808,0,0,0,0,0,0,0,-0.00212494,-10.3162,0.959536,20.821,-0.769636,-0.546361,-0.246084,0.0344062,-1.18208,0.758431,2.25069,-0.202226,-0.549001,-0.253396
2199275,1,-1.57087,-0.522771,-0.000536694,-2.09578,-1.57083,1.5715,0.785741,-1.5708,-0.523599,-4.56351e-08,-2.09439,-1.5708,1.5708,0.785399,-0.000157795,-0.000543562,0.000510285,8.9786e-05,-2.46898e-05,0.000444131,-0.000974857,0,0,0,0,0,0,0,0.0256461,-10.2924,0.907962,20.7972,-0.769636,-0.560094,-0.206716,0.0337088,-1.18255,0.757556,2.25089,-0.202312,-0.549111,-0.253763
2199276,1,-1.57087,-0.522771,-0.000538643,-2.09578,-1.57083,1.5715,0.785745,-1.5708,-0.523599,-4.56351e-08,-2.09439,-1.5708,1.5708,0.785399,0.000544418,-0.000362375,-0.000309355,0.000709471,0.000390441,5.87284e-05,0.000299531,0,0,0,0,0,0,0,-0.00212494,-10.2924,0.935733,20.7694,-0.780623,-0.553685,-0.232351,0.0331502,-1.18136,0.756891,2.25022,-0.202361,-0.549173,-0.254175
2199277,1,-1.57088,-0.522771,-0.000538643,-2.09579,-1.57083,1.5715,0.785743,-1.5708,-0.523599,-4.56351e-08,-2.09439,-1.5708,1.5708,0.785399,-0.000843481,-0.000241583,-0.000206185,-0.000733445,-0.000350057,-0.000232115,-0.000512389,0,0,0,0,0,0,0,0.0494498,-10.2924,0.935733,20.821,-0.764143,-0.546361,-0.213125,0.0328857,-1.17906,0.75664,2.24891,-0.202382,-0.549177,-0.254609
2199278,1,-1.57088,-0.522768,-0.000536694,-2.09578,-1.57083,1.5715,0.785742,-1.5708,-0.523599,-4.56351e-08,-2.09439,-1.5708,1.5708,0.785399,-0.000562321,0.000952568,0.000512196,0.000717463,-2.99211e-05,0.000116524,-0.000578952,0,0,0,0,0,0,0,0.0494498,-10.34,0.907962,20.7694,-0.769636,-0.553685,-0.206716,0.0331565,-1.17773,0.757128,2.24814,-0.202416,-0.549113,-0.25504
2199279,1,-1.57087,-0.522769,-0.000536694,-2.09578,-1.57083,1.5715,0.785739,-1.5708,-0.523599,-4.56351e-08,-2.09439,-1.5708,1.5708,0.785399,0.000181932,7.82336e-05,0.000341493,-0.000171306,-1.99474e-05,-0.000193585,-0.00157276,0,0,0,0,0,0,0,0.0256461,-10.3162,0.907962,20.7972,-0.769636,-0.546361,-0.174673,0.0333229,-1.17805,0.757386,2.24808,-0.20248,-0.549091,-0.255448
2199280,1,-1.57088,-0.522771,-0.000536694,-2.09578,-1.57083,1.5715,0.785742,-1.5708,-0.523599,-4.56351e-08,-2.09439,-1.5708,1.5708,0.785399,-0.000435524,-0.000504656,0.000227684,0.00053541,-0.000420199,0.000142211,0.000138286,0,0,0,0,0,0,0,0.0494498,-10.2924,0.907962,20.7694,-0.75865,-0.553685,-0.206716,0.0331156,-1.17832,0.757028,2.24793,-0.202549,-0.549129,-0.255803
2199281,1,-1.57088,-0.522771,-0.000540313,-2.09578,-1.57083,1.5715,0.78574,-1.5708,-0.523599,-4.56351e-08,-2.09439,-1.5708,1.5708,0.785399,-0.000290349,-0.000336437,-0.00105462,0.00035694,0.000126768,-0.00017646,-0.000619886,0,0,0,0,0,0,0,0.0494498,-10.2924,0.959536,20.7694,-0.769636,-0.546361,-0.18749,0.0332968,-1.17702,0.757171,2.24703,-0.202571,-0.549092,-0.256076
2199282,1,-1.57087,-0.522773,-0.000536694,-2.09578,-1.57083,1.5715,0.785739,-1.5708,-0.523599,-4.56351e-08,-2.09439,-1.5708,1.5708,0.785399,0.000363246,-0.000873906,0.000503358,0.000794772,8.45121e-05,0.000390986,-0.000650616,0,0,0,0,0,0,0,0.0256461,-10.2646,0.907962,20.7456,-0.769636,-0.560094,-0.181082,0.0339328,-1.17412,0.757956,2.24528,-0.202538,-0.548971,-0.256263
2199283,1,-1.57088,-0.522766,-0.000538643,-2.09578,-1.57083,1.5715,0.785742,-1.5708,-0.523599,-4.56351e-08,-2.09439,-1.5708,1.5708,0.785399,-0.000314648,0.00183025,-0.000314033,-2.69639e-05,-0.000147109,-0.000485328,0.000278333,0,0,0,0,0,0,0,0.0494498,-10.3678,0.935733,20.7694,-0.764143,-0.539952,-0.200308,0.0343063,-1.17192,0.758373,2.24378,-0.202511,-0.548904,-0.256353
2199284,1,-1.57088,-0.522769,-0.000536694,-2.09578,-1.57083,1.5715,0.785737,-1.5708,-0.523599,-4.56351e-08,-2.09439,-1.5708,1.5708,0.785399,-0.000209765,1.37395e-05,0.000440266,0.000538836,0.000105378,0.000185074,-0.0012386,0,0,0,0,0,0,0,0.0494498,-10.3162,0.907962,20.7456,-0.769636,-0.553685,-0.161856,0.0344387,-1.17272,0.75845,2.24369,-0.202539,-0.548914,-0.256338
2199285,1,-1.57087,-0.522771,-0.000538643,-2.09578,-1.57083,1.5715,0.785739,-1.5708,-0.523599,-4.56351e-08,-2.09439,-1.5708,1.5708,0.785399,0.00106658,-0.000547652,-0.000356098,-0.000847202,-0.000133199,0.000123383,-0.000113656,0,0,0,0,0,0,0,-0.00212494,-10.2924,0.935733,20.7972,-0.764143,-0.553685,-0.181082,0.0342934,-1.1744,0.758127,2.24423,-0.202595,-0.548976,-0.256226
2199286,1,-1.57087,-0.522769,-0.000536694,-2.09578,-1.57083,1.5715,0.78574,-1.5708,-0.523599,-4.56351e-08,-2.09439,-1.5708,1.5708,0.785399,6.14409e-05,0.00019171,0.000412219,8.48127e-05,0.000318102,8.22553e-05,0.000161589,0,0,0,0,0,0,0,0.0256461,-10.3162,0.907962,20.7694,-0.77513,-0.553685,-0.18749,0.0336603,-1.17526,0.757141,2.24479,-0.202664,-0.549097,-0.256018
2199287,1,-1.57087,-0.522769,-0.000538825,-2.09578,-1.57083,1.5715,0.785744,-1.5708,-0.523599,-4.56351e-08,-2.09439,-1.5708,1.5708,0.785399,4.09606e-05,0.000127807,0.000274816,-0.000593072,-0.000194833,-0.000453789,0.00153188,0,0,0,0,0,0,0,0.0256461,-10.3162,0.907962,20.7972,-0.764143,-0.539952,-0.225942,0.032791,-1.17628,0.755819,2.24564,-0.202754,-0.549251,-0.255716
2199288,1,-1.57088,-0.522768,-0.000537404,-2.09578,-1.57083,1.5715,0.785735,-1.5708,-0.523599,-4.56351e-08,-2.09439,-1.5708,1.5708,0.785399,-0.000529505,0.000642017,0.000183213,-0.000395381,-0.000129889,-6.51673e-05,-0.00111498,0,0,0,0,0,0,0,0.0494498,-10.34,0.907962,20.7972,-0.764143,-0.546361,-0.168264,0.0320984,-1.1782,0.754693,2.24703,-0.202862,-0.549384,-0.255359
2199289,1,-1.57087,-0.522769,-0.000536931,-2.09579,-1.57083,1.5715,0.785738,-1.5708,-0.523599,-4.56351e-08,-2.09439,-1.5708,1.5708,0.785399,0.000853423,-0.000128801,0.000122143,-0.0008204,-0.000290043,0.000227822,-0.000505959,0,0,0,0,0,0,0,-0.00212494,-10.3162,0.907962,20.821,-0.75865,-0.553685,-0.174673,0.0315898,-1.18088,0.753821,2.24894,-0.202976,-0.549485,-0.254981
2199290,1,-1.57087,-0.522768,-0.000536773,-2.09578,-1.57083,1.5715,0.785741,-1.5708,-0.523599,-4.56351e-08,-2.09439,-1.5708,1.5708,0.785399,0.000568948,0.000470945,8.14301e-05,0.00177312,-0.000430721,-0.000356745,0.000612129,0,0,0,0,0,0,0,-0.00212494,-10.34,0.907962,20.7218,-0.752241,-0.539952,-0.200308,0.0308524,-1.1829,0.752678,2.25024,-0.203053,-0.549601,-0.254583
2199291,1,-1.57088,-0.522769,-0.000538669,-2.09578,-1.57083,1.5715,0.785743,-1.5708,-0.523599,-4.56351e-08,-2.09439,-1.5708,1.5708,0.785399,-0.000827127,-0.000242849,-0.000595326,0.00118208,0.000153662,0.000270797,0.000882804,0,0,0,0,0,0,0,0.0494498,-10.3162,0.935733,20.7218,-0.764143,-0.553685,-0.213125,0.0303893,-1.18285,0.751959,2.24963,-0.203021,-0.549645,-0.254163
2199292,1,-1.57087,-0.522769,-0.000540322,-2.09578,-1.57083,1.5715,0.785741,-1.5708,-0.523599,-4.56351e-08,-2.09439,-1.5708,1.5708,0.785399,5.39399e-06,-0.000161899,-0.000953695,-0.000325572,-0.000101009,-9.07363e-05,-0.000123541,0,0,0,0,0,0,0,0.0256461,-10.3162,0.959536,20.7694,-0.75865,-0.546361,-0.193899,0.031071,-1.18115,0.752904,2.24777,-0.202881,-0.549485,-0.253745
2199293,1,-1.57087,-0.522775,-0.000536697,-2.09578,-1.57083,1.5715,0.785743,-1.5708,-0.523599,-4.56351e-08,-2.09439,-1.5708,1.5708,0.785399,3.59599e-06,-0.00187117,0.000570629,0.000339764,0.000136111,0.000210776,0.000629716,0,0,0,0,0,0,0,0.0256461,-10.2408,0.907962,20.7456,-0.764143,-0.553685,-0.213125,0.0322478,-1.17795,0.754574,2.24553,-0.202697,-0.549218,-0.253355
2199294,1,-1.57087,-0.522773,-0.000535025,-2.09578,-1.57083,1.5715,0.785744,-1.5708,-0.523599,-4.56351e-08,-2.09439,-1.5708,1.5708,0.785399,2.39733e-06,-0.000690635,0.000937232,-0.000330303,9.07408e-05,0.000377877,0.000894529,0,0,0,0,0,0,0,0.0256461,-10.2646,0.884158,20.7694,-0.764143,-0.560094,-0.225942,0.0325826,-1.17279,0.754914,2.24279,-0.202512,-0.549052,-0.253006
2199295,1,-1.57087,-0.522773,-0.000535024,-2.09578,-1.57083,1.5715,0.785744,-1.5708,-0.523599,-4.56351e-08,-2.09439,-1.5708,1.5708,0.785399,0.000651212,-0.000460423,-0.00566363,-0.000869816,-0.000142957,1.45588e-05,0.000358994,0,0,0,0,0,0,0,-0.00212494,-10.2646,0.884158,20.7972,-0.75865,-0.553685,-0.219534,0.0334578,-1.16794,0.756259,2.24066,-0.202323,-0.54881,-0.25271
2199296,1,-1.57087,-0.522769,-0.000538643,-2.09578,-1.57083,1.5715,0.785738,-1.5708,-0.523599,-4.56351e-08,-2.09439,-1.5708,1.5708,0.785399,0.000434141,0.000899477,-0.00550621,6.97368e-05,0.000311597,-0.000261562,-0.000710107,0,0,0,0,0,0,0,-0.00212494,-10.3162,0.935733,20.7694,-0.769636,-0.546361,-0.193899,0.03781,-1.16609,0.763472,2.24031,-0.202078,-0.548072,-0.252484
2199297,1,-1.57087,-0.522769,-0.000541984,-2.09578,-1.57083,1.5715,0.785741,-1.5708,-0.523599,-4.56351e-08,-2.09439,-1.5708,1.5708,0.785399,-0.000360186,0.000599651,-0.00517746,0.000603303,4.28054e-06,0.000334252,1.31341e-06,0,0,0,0,0,0,0,0.0256461,-10.3162,0.98334,20.7456,-0.764143,-0.560094,-0.206716,0.0454694,-1.16738,0.77618,2.24124,-0.201763,-0.546869,-0.252323
2199298,1,-1.57087,-0.522773,-0.000538643,-2.09578,-1.57083,1.5715,0.785746,-1.5708,-0.523599,-4.56351e-08,-2.09439,-1.5708,1.5708,0.785399,-0.000240124,-0.000806658,-0.00263279,-0.00015461,2.85369e-06,-1.45243e-05,0.00118767,0,0,0,0,0,0,0,0.0256461,-10.2646,0.935733,20.7694,-0.764143,-0.553685,-0.23876,0.0537654,-1.16941,0.789885,2.24216,-0.201426,-0.545589,-0.252211
2199299,1,-1.57088,-0.522771,-0.000536694,-2.09578,-1.57083,1.5715,0.785744,-1.5708,-0.523599,-4.56351e-08,-2.09439,-1.5708,1.5708,0.785399,-0.000716895,0.000111842,-0.00132666,-0.000103073,1.90246e-06,-9.68287e-06,7.97034e-05,0,0,0,0,0,0,0,0.0494498,-10.2924,0.907962,20.7694,-0.764143,-0.553685,-0.219534,0.0601483,-1.17029,0.800399,2.24253,-0.201143,-0.544606,-0.252145
2199300,1,-1.57087,-0.522766,-0.000536694,-2.09578,-1.57083,1.5715,0.785744,-1.5708,-0.523599,-4.56351e-08,-2.09439,-1.5708,1.5708,0.785399,7.88821e-05,0.0018378,-0.00105025,0.000488096,0.000204719,-6.45524e-06,5.31356e-05,0,0,0,0,0,0,0,0.0256461,-10.3678,0.907962,20.7456,-0.769636,-0.553685,-0.219534,0.0634517,-1.17209,0.805924,2.24325,-0.200982,-0.544126,-0.25214
2199301,1,-1.57087,-0.522769,-0.000535024,-2.09578,-1.57083,1.5715,0.785744,-1.5708,-0.523599,-4.56351e-08,-2.09439,-1.5708,1.5708,0.785399,5.25881e-05,1.87734e-05,-0.000267709,-0.000231414,-0.000270422,-4.3035e-06,0.00125613,0,0,0,0,0,0,0,0.0256461,-10.3162,0.884158,20.7694,-0.75865,-0.553685,-0.252493,0.063768,-1.17602,0.806713,2.24472,-0.20095,-0.544148,-0.252196
2199302,1,-1.57087,-0.522773,-0.000535024,-2.09578,-1.57083,1.5715,0.785741,-1.5708,-0.523599,-4.56351e-08,-2.09439,-1.5708,1.5708,0.785399,3.50587e-05,-0.00119391,-0.00027174,-0.000154276,2.31693e-05,-2.869e-06,9.14327e-05,0,0,0,0,0,0,0,0.0256461,-10.2646,0.884158,20.7694,-0.764143,-0.553685,-0.232351,0.0617319,-1.17878,0.803683,2.2457,-0.200985,-0.544528,-0.252325
2199303,1,-1.57087,-0.522768,-0.000536694,-2.09578,-1.57083,1.5715,0.785745,-1.5708,-0.523599,-4.56351e-08,-2.09439,-1.5708,1.5708,0.785399,2.33725e-05,0.000967298,-0.000807922,-0.000752465,-0.000188004,-0.000510539,0.000569581,0,0,0,0,0,0,0,0.0256461,-10.34,0.907962,20.7972,-0.75865,-0.539952,-0.246084,0.058482,-1.17951,0.798566,2.24604,-0.201043,-0.545071,-0.252543
2199304,1,-1.57088,-0.522769,-0.000538643,-2.09578,-1.57083,1.5715,0.785743,-1.5708,-0.523599,-4.56351e-08,-2.09439,-1.5708,1.5708,0.785399,-0.00054123,8.80532e-05,-0.00124069,0.000147971,0.000281565,-0.000103,-0.000840982,0,0,0,0,0,0,0,0.0494498,-10.3162,0.935733,20.7694,-0.769636,-0.546361,-0.213125,0.0552911,-1.18079,0.793415,2.24679,-0.201116,-0.545606,-0.252848
2199305,1,-1.57087,-0.522766,-0.000535024,-2.09579,-1.57083,1.5715,0.785743,-1.5708,-0.523599,-4.56351e-08,-2.09439,-1.5708,1.5708,0.785399,0.000845606,0.000615514,0.000339951,-0.000550967,-1.57406e-05,-0.000306026,0.000388781,0,0,0,0,0,0,0,-0.00212494,-10.34,0.884158,20.7972,-0.764143,-0.539952,-0.23876,0.0521999,-1.18283,0.788362,2.24787,-0.201193,-0.546121,-0.253226
2199306,1,-1.57088,-0.522772,-0.000540313,-2.09578,-1.57083,1.5715,0.785741,-1.5708,-0.523599,-4.56351e-08,-2.09439,-1.5708,1.5708,0.785399,-0.000642689,-0.0013529,-0.00156611,0.000839115,0.000192957,0.000304609,-0.000927607,0,0,0,0,0,0,0,0.0494498,-10.2646,0.959536,20.7456,-0.769636,-0.553685,-0.206716,0.0489615,-1.18355,0.783041,2.24818,-0.201246,-0.546624,-0.253657
2199307,1,-1.57087,-0.522771,-0.000538643,-2.09578,-1.57083,1.5715,0.785746,-1.5708,-0.523599,-4.56351e-08,-2.09439,-1.5708,1.5708,0.785399,0.000128353,-0.000252316,-0.000509397,0.00055941,0.000128638,0.000440432,0.000839657,0,0,0,0,0,0,0,0.0256461,-10.2924,0.935733,20.7456,-0.769636,-0.560094,-0.246084,0.0463425,-1.18118,0.778584,2.24669,-0.201218,-0.546984,-0.254125
2199308,1,-1.57088,-0.522768,-0.000540313,-2.09579,-1.57083,1.5715,0.785743,-1.5708,-0.523599,-4.56351e-08,-2.09439,-1.5708,1.5708,0.785399,-0.000471243,0.000945413,-0.00091301,-0.0013903,8.57586e-05,5.62622e-05,-0.000660932,0,0,0,0,0,0,0,0.0494498,-10.34,0.959536,20.821,-0.769636,-0.553685,-0.213125,0.044366,-1.17868,0.775122,2.24513,-0.201179,-0.547245,-0.254603
2199309,1,-1.57088,-0.522771,-0.000536694,-2.09579,-1.57083,1.5715,0.785743,-1.5708,-0.523599,-4.56351e-08,-2.09439,-1.5708,1.5708,0.785399,-0.000870974,-0.000483348,0.000585303,-0.000926865,5.71724e-05,3.75081e-05,-0.000440621,0,0,0,0,0,0,0,0.0732535,-10.2924,0.907962,20.821,-0.769636,-0.553685,-0.213125,0.0425615,-1.179,0.771951,2.24552,-0.201228,-0.54752,-0.255076
2199310,1,-1.57088,-0.522769,-0.000538643,-2.09578,-1.57083,1.5715,0.785739,-1.5708,-0.523599,-4.56351e-08,-2.09439,-1.5708,1.5708,0.785399,-2.38375e-05,0.00023458,-0.000268749,0.00170214,-0.000165336,2.50054e-05,-0.00148054,0,0,0,0,0,0,0,0.0494498,-10.3162,0.935733,20.7218,-0.764143,-0.553685,-0.181082,0.040668,-1.1796,0.76854,2.24613,-0.201305,-0.547832,-0.255536
2199311,1,-1.57087,-0.522769,-0.000538643,-2.09579,-1.57083,1.5715,0.785744,-1.5708,-0.523599,-4.56351e-08,-2.09439,-1.5708,1.5708,0.785399,0.00054092,0.000156386,-0.000186169,-0.00118529,-0.000110224,1.66703e-05,0.000437126,0,0,0,0,0,0,0,0.0256461,-10.3162,0.935733,20.821,-0.764143,-0.553685,-0.219534,0.0385208,-1.17937,0.764752,2.24588,-0.201365,-0.548196,-0.255954
2199312,1,-1.57087,-0.522773,-0.000536694,-2.09579,-1.57083,1.5715,0.785742,-1.5708,-0.523599,-4.56351e-08,-2.09439,-1.5708,1.5708,0.785399,0.00101023,-0.00110217,0.000520249,-0.000790193,-0.000276933,1.11135e-05,-0.000183301,0,0,0,0,0,0,0,-0.00212494,-10.2646,0.907962,20.821,-0.75865,-0.553685,-0.206716,0.0358494,-1.17909,0.760345,2.24586,-0.201454,-0.548651,-0.256301
2199313,1,-1.57087,-0.522769,-0.000535024,-2.09578,-1.57083,1.5715,0.785738,-1.5708,-0.523599,-4.56351e-08,-2.09439,-1.5708,1.5708,0.785399,2.3871e-05,0.000471647,0.000899705,0.00067963,0.000222279,7.40901e-06,-0.00154635,0,0,0,0,0,0,0,0.0256461,-10.3162,0.884158,20.7694,-0.769636,-0.553685,-0.168264,0.0324358,-1.17822,0.754916,2.24588,-0.201563,-0.549216,-0.256578
2199314,0.99,-1.57088,-0.522771,-0.000536694,-2.09578,-1.57083,1.5715,0.785741,-1.5708,-0.523599,-4.56351e-08,-2.09439,-1.5708,1.5708,0.785399,-0.000540898,-0.000242381,4.00373e-05,-0.000196527,0.000351637,0.000479657,-8.1467e-05,0,0,0,0,0,0,0,0.0494498,-10.2924,0.907962,20.7972,-0.77513,-0.566503,-0.193899,0.0290996,-1.17714,0.749551,2.24553,-0.201647,-0.549776,-0.256782
2199315,0.99,-1.57088,-0.522769,-0.000538643,-2.09578,-1.57083,1.5715,0.785738,-1.5708,-0.523599,-4.56351e-08,-2.09439,-1.5708,1.5708,0.785399,-0.000360599,0.000395225,-0.000625138,0.00107541,-0.000172477,-0.000663573,-0.00100375,0,0,0,0,0,0,0,0.0494498,-10.3162,0.935733,20.7456,-0.764143,-0.539952,-0.168264,0.0270351,-1.17626,0.746012,2.24494,-0.201683,-0.550159,-0.256888
2199316,0.99,-1.57088,-0.522769,-0.000536694,-2.09579,-1.57083,1.5715,0.785742,-1.5708,-0.523599,-4.56351e-08,-2.09439,-1.5708,1.5708,0.785399,-0.000240399,0.000263483,0.000231193,-0.00160311,-0.000114984,-0.000442382,0.00051763,0,0,0,0,0,0,0,0.0494498,-10.3162,0.907962,20.8448,-0.764143,-0.539952,-0.200308,0.0262836,-1.17616,0.744422,2.24474,-0.201704,-0.550356,-0.256878
2199317,0.99,-1.57087,-0.522769,-0.000540313,-2.09579,-1.57083,1.5715,0.785738,-1.5708,-0.523599,-4.56351e-08,-2.09439,-1.5708,1.5708,0.785399,0.000396546,0.000175656,-0.00105354,-0.000511929,-7.66563e-05,-0.000294921,-0.000841708,0,0,0,0,0,0,0,0.0256461,-10.3162,0.959536,20.821,-0.764143,-0.539952,-0.168264,0.0261797,-1.17768,0.743882,2.24587,-0.201763,-0.550458,-0.256755
2199318,0.99,-1.57087,-0.522768,-0.000540313,-2.09578,-1.57083,1.5715,0.785741,-1.5708,-0.523599,-4.56351e-08,-2.09439,-1.5708,1.5708,0.785399,0.000264364,0.000673916,-0.000703297,0.00086514,0.000559247,0.000312012,0.000388297,0,0,0,0,0,0,0,0.0256461,-10.34,0.959536,20.7694,-0.780623,-0.553685,-0.193899,0.0265185,-1.17989,0.744182,2.24749,-0.201822,-0.550476,-0.256536
2199319,0.99,-1.57087,-0.522768,-0.000540313,-2.09578,-1.57083,1.5715,0.785739,-1.5708,-0.523599,-4.56351e-08,-2.09439,-1.5708,1.5708,0.785399,0.000176243,0.000449277,-0.000469566,-7.2854e-05,-0.00023752,0.000445367,-0.000453212,0,0,0,0,0,0,0,0.0256461,-10.34,0.959536,20.7972,-0.764143,-0.560094,-0.174673,0.0270636,-1.18195,0.74497,2.24859,-0.201849,-0.550443,-0.256239
2199320,0.99,-1.57087,-0.522771,-0.000536694,-2.09579,-1.57083,1.5715,0.785741,-1.5708,-0.523599,-4.56351e-08,-2.09439,-1.5708,1.5708,0.785399,0.000117495,-0.000814106,0.000892856,-0.00116219,-0.000158347,5.95524e-05,0.000409935,0,0,0,0,0,0,0,0.0256461,-10.2924,0.907962,20.8448,-0.764143,-0.553685,-0.193899,0.0271578,-1.18339,0.745149,2.24945,-0.201888,-0.550464,-0.255874
2199321,0.99,-1.57087,-0.522769,-0.000535024,-2.09579,-1.57083,1.5715,0.78574,-1.5708,-0.523599,-4.56351e-08,-2.09439,-1.5708,1.5708,0.785399,7.83301e-05,1.40747e-05,0.00115166,-0.000774795,9.78861e-05,3.97016e-05,3.59313e-05,0,0,0,0,0,0,0,0.0256461,-10.3162,0.884158,20.8448,-0.769636,-0.553685,-0.18749,0.0261977,-1.18382,0.743687,2.25043,-0.201976,-0.55063,-0.255454
2199322,0.99,-1.57087,-0.522773,-0.000535024,-2.09578,-1.57083,1.5715,0.785737,-1.5708,-0.523599,-4.56351e-08,-2.09439,-1.5708,1.5708,0.785399,5.222e-05,-0.00119704,0.000767474,0.00236033,-0.000341644,0.000263827,-0.000925482,0,0,0,0,0,0,0,0.0256461,-10.2646,0.884158,20.7218,-0.75865,-0.560094,-0.161856,0.024372,-1.18213,0.740787,2.25026,-0.202047,-0.550909,-0.255004
2199323,0.99,-1.57088,-0.522771,-0.000536694,-2.09578,-1.57083,1.5715,0.78574,-1.5708,-0.523599,-4.56351e-08,-2.09439,-1.5708,1.5708,0.785399,-0.00107881,-0.000148415,-4.53843e-05,0.00045993,-0.000227762,-0.000332742,0.000332448,0,0,0,0,0,0,0,0.0732535,-10.2924,0.907962,20.7694,-0.75865,-0.546361,-0.18749,0.0228793,-1.17741,0.738191,2.24777,-0.20201,-0.55112,-0.254534
2199324,0.99,-1.57087,-0.522771,-0.000538643,-2.09578,-1.57083,1.5715,0.785736,-1.5708,-0.523599,-4.56351e-08,-2.09439,-1.5708,1.5708,0.785399,0.000394417,-9.8943e-05,-0.000680036,0.00030662,-0.000151842,-0.000221828,-0.000253086,0,0,0,0,0,0,0,0.0256461,-10.2924,0.935733,20.7694,-0.75865,-0.546361,-0.174673,0.0226376,-1.17227,0.737381,2.24472,-0.201903,-0.551147,-0.254026
2199325,0.99,-1.57088,-0.522771,-0.000536694,-2.09578,-1.57083,1.5715,0.785741,-1.5708,-0.523599,-4.56351e-08,-2.09439,-1.5708,1.5708,0.785399,-0.000293867,-6.5962e-05,0.000196132,0.000204414,0.000102223,0.000123382,0.00101807,0,0,0,0,0,0,0,0.0494498,-10.2924,0.907962,20.7694,-0.764143,-0.553685,-0.206716,0.0232004,-1.16889,0.737851,2.24274,-0.201796,-0.551069,-0.25348
2199326,0.99,-1.57088,-0.522771,-0.000538643,-2.09578,-1.57083,1.5715,0.785739,-1.5708,-0.523599,-4.56351e-08,-2.09439,-1.5708,1.5708,0.785399,-0.00140234,-4.39747e-05,-0.000518953,0.000693088,-0.000135302,-0.000189013,0.000916073,0,0,0,0,0,0,0,0.101024,-10.2924,0.935733,20.7456,-0.75865,-0.546361,-0.213125,0.0242973,-1.16677,0.739086,2.24146,-0.201685,-0.550925,-0.252917
2199327,0.99,-1.57088,-0.522768,-0.000538643,-2.09578,-1.57083,1.5715,0.785741,-1.5708,-0.523599,-4.56351e-08,-2.09439,-1.5708,1.5708,0.785399,0.000271534,0.00108431,0.00595729,-0.000744367,0.000113249,0.000145259,0.000373356,0,0,0,0,0,0,0,0.0494498,-10.34,0.935733,20.7972,-0.764143,-0.553685,-0.206716,0.0242764,-1.16652,0.738338,2.24119,-0.201641,-0.550982,-0.252372
2199328,0.99,-1.57087,-0.522768,-0.000536694,-2.09578,-1.57083,1.5715,0.785743,-1.5708,-0.523599,-4.56351e-08,-2.09439,-1.5708,1.5708,0.785399,0.000737835,0.000722872,0.00514637,0.000153369,0.00027895,9.68393e-05,0.000723622,0,0,0,0,0,0,0,0.0256461,-10.34,0.907962,20.7694,-0.769636,-0.553685,-0.219534,0.0198933,-1.16927,0.730667,2.24255,-0.201787,-0.551749,-0.251877
2199329,0.99,-1.57088,-0.522771,-0.000538643,-2.09578,-1.57083,1.5715,0.785745,-1.5708,-0.523599,-4.56351e-08,-2.09439,-1.5708,1.5708,0.785399,-6.49221e-05,-0.000631709,0.00317522,-0.000547368,-0.000458293,-0.000206708,0.000957133,0,0,0,0,0,0,0,0.0494498,-10.2924,0.935733,20.7972,-0.752241,-0.546361,-0.232351,0.0122954,-1.17292,0.717991,2.24451,-0.202051,-0.553021,-0.251458
2199330,0.99,-1.57087,-0.522771,-0.000540313,-2.09579,-1.57083,1.5715,0.785743,-1.5708,-0.523599,-4.56351e-08,-2.09439,-1.5708,1.5708,0.785399,0.000513531,-0.00042114,0.00185544,-0.000921724,0.000135281,-0.000137805,0.000875447,0,0,0,0,0,0,0,0.0256461,-10.2924,0.959536,20.821,-0.764143,-0.546361,-0.23876,0.00539945,-1.17497,0.706466,2.24605,-0.202279,-0.55416,-0.251139
2199331,0.99,-1.57087,-0.522766,-0.000538643,-2.09578,-1.57083,1.5715,0.785743,-1.5708,-0.523599,-4.56351e-08,-2.09439,-1.5708,1.5708,0.785399,0.000342354,0.00148248,0.00201535,0.000591943,0.000293638,-9.18701e-05,0.000108914,0,0,0,0,0,0,0,0.0256461,-10.3678,0.935733,20.7694,-0.769636,-0.546361,-0.225942,0.000624967,-1.17672,0.698459,2.24762,-0.20243,-0.554954,-0.250942
2199332,0.99,-1.57087,-0.522769,-0.000536694,-2.09578,-1.57083,1.5715,0.785746,-1.5708,-0.523597,-2.54564e-06,-2.09439,-1.5708,1.5708,0.785399,0.000228236,-0.000218107,0.00215937,-0.000254985,0.000399209,0.00044738,0.000818594,-0.00327632,0.00177864,-0.0025,0.00165757,-0.00155807,0.005,0.000207453,0.0256461,-10.3162,0.907962,20.7972,-0.77513,-0.560094,-0.246084,-0.00243237,-1.17937,0.693402,2.24928,-0.202521,-0.555483,-0.250875
2199333,0.99,-1.57088,-0.522768,-0.000536694,-2.09578,-1.57083,1.5715,0.785744,-1.57081,-0.523593,-7.54564e-06,-2.09439,-1.5708,1.57081,0.7854,-0.000404655,0.000411407,0.00156422,-0.00016999,-0.000344212,-0.000447732,-0.000200256,-0.00655263,0.00355727,-0.005,0.00331513,-0.00311614,0.01,0.000414907,0.0494498,-10.34,0.907962,20.7972,-0.75865,-0.539952,-0.225942,-0.00399748,-1.18172,0.690789,2.25063,-0.202558,-0.555769,-0.250935
2199334,0.99,-1.57088,-0.522771,-0.000535024,-2.09578,-1.57083,1.5715,0.785745,-1.57082,-0.523588,-1.50456e-05,-2.09439,-1.57081,1.57083,0.7854,-0.00026977,-0.000839352,0.0016931,0.0010931,0.000177426,0.000210138,0.000103855,-0.00982895,0.00533591,-0.0075,0.0049727,-0.00467421,0.015,0.00062236,0.0494498,-10.2924,0.884158,20.7456,-0.769636,-0.553685,-0.232351,-0.00398339,-1.18229,0.690581,2.25097,-0.202522,-0.555785,-0.251119
2199335,0.99,-1.57088,-0.52277,-0.000540387,-2.09578,-1.57083,1.5715,0.785742,-1.57083,-0.523581,-2.50456e-05,-2.09438,-1.57081,1.57085,0.785401,-0.000376899,0.00450633,-0.00332142,0.000171921,0.000965995,-0.000131175,6.92368e-05,-0.0131053,0.00711455,-0.01,0.00663027,-0.00623228,0.02,0.000829814,-0.0775034,-10.2408,0.80878,20.7694,-0.792525,-0.546361,-0.232351,-0.00147622,-1.18395,0.694312,2.25134,-0.202416,-0.555427,-0.2514
2199336,0.99,-1.57088,-0.522776,-0.000532197,-2.09578,-1.57083,1.5715,0.785742,-1.57085,-0.523572,-3.75456e-05,-2.09437,-1.57082,1.57087,0.785402,-0.000889678,0.000688336,0.000391119,0.000114614,0.00169516,-0.000324809,0.000554784,-0.0163816,0.00889318,-0.0125,0.00828783,-0.00779035,0.025,0.00103727,-0.327442,-9.98691,0.277163,20.7694,-0.820906,-0.539952,-0.246084,0.00402411,-1.1905,0.702906,2.25374,-0.202317,-0.554654,-0.25175
2199337,0.99,-1.57087,-0.522773,-0.000547134,-2.09578,-1.57083,1.5715,0.785738,-1.57087,-0.523561,-5.25456e-05,-2.09436,-1.57083,1.5709,0.785403,-0.000556617,0.00209933,-0.00139981,0.001365,0.00238472,-0.000453898,-0.000850847,-0.0196579,0.0106718,-0.015,0.0099454,-0.00934842,0.03,0.00124472,-0.755909,-9.76077,-0.103696,20.8448,-0.85478,-0.533544,-0.213125,0.0106139,-1.19833,0.713193,2.25674,-0.202276,-0.553671,-0.252167
2199338,0.99,-1.57087,-0.522767,-0.000559935,-2.09578,-1.57083,1.5715,0.785739,-1.57089,-0.523549,-7.00456e-05,-2.09435,-1.57084,1.57094,0.785405,0.000159866,0.00131478,-0.00585517,0.0044561,0.00158981,-0.000539958,-0.00151667,-0.0229342,0.0124505,-0.0175,0.011603,-0.0109065,0.035,0.00145217,-1.23595,-9.58224,-0.635312,20.8448,-0.85478,-0.527135,-0.18749,0.0177296,-1.20265,0.724387,2.25745,-0.202237,-0.55242,-0.252652
2199339,0.99,-1.57088,-0.522758,-0.000580839,-2.09578,-1.57083,1.5715,0.785741,-1.57091,-0.523535,-9.00456e-05,-2.09434,-1.57085,1.57098,0.785406,-0.00332364,0.00152557,-0.011533,0.00343579,0.00105987,-0.000597331,-0.000536394,-0.0262105,0.0142291,-0.02,0.0132605,-0.0124646,0.04,0.00165963,-1.56524,-9.43149,-1.09155,20.8448,-0.85478,-0.520726,-0.200308,0.0282678,-1.20174,0.741381,2.25485,-0.202091,-0.5503,-0.253164
2199340,0.99,-1.57089,-0.522748,-0.00060204,-2.09577,-1.57083,1.57151,0.78574,-1.57094,-0.523519,-0.000112546,-2.09432,-1.57087,1.57102,0.785408,-0.00429115,0.00223004,-0.0140563,0.00319613,6.23227e-05,7.64973e-05,-0.000832314,-0.0294868,0.0160077,-0.0225,0.0149181,-0.0140226,0.045,0.00186708,-1.9699,-9.30453,-1.49621,20.821,-0.837385,-0.533544,-0.18749,0.0445824,-1.19669,0.768027,2.25059,-0.201827,-0.546799,-0.253635
2199341,0.99,-1.5709,-0.522734,-0.000628065,-2.09577,-1.57083,1.57151,0.785744,-1.57098,-0.523501,-0.000137546,-2.0943,-1.57088,1.57107,0.78541,-0.00578829,0.0069882,-0.0164289,0.00359877,4.15485e-05,0.00545542,0.000869278,-0.0327632,0.0177864,-0.025,0.0165757,-0.0155807,0.05,0.00207453,-2.34679,-9.22916,-1.87707,20.7694,-0.837385,-0.553685,-0.225942,0.0650498,-1.19335,0.802215,2.24827,-0.201584,-0.542118,-0.254013
2199342,0.99,-1.57091,-0.522722,-0.000654317,-2.09576,-1.57083,1.57152,0.785741,-1.57102,-0.52348,-0.000167546,-2.09428,-1.5709,1.57113,0.785413,-0.0087832,0.00981143,-0.0169796,0.00259537,0.000875409,0.00521194,-0.000607276,-0.0384892,0.0208342,-0.03,0.0194205,-0.0182686,0.06,0.0023951,-2.6483,-9.12601,-2.17859,20.7694,-0.860274,-0.585729,-0.193899,0.0860952,-1.19945,0.838912,2.25164,-0.20154,-0.536824,-0.254277
2199343,0.99,-1.57093,-0.522717,-0.000675352,-2.09576,-1.57083,1.57153,0.785749,-1.57106,-0.523456,-0.000202546,-2.09426,-1.57092,1.5712,0.785415,-0.00778978,0.00962658,-0.0184844,0.00067097,0.00143132,0.00352842,0.00224001,-0.0442153,0.023882,-0.035,0.0222653,-0.0209564,0.07,0.00271567,-2.95379,-8.92368,-2.55945,20.821,-0.883162,-0.57932,-0.26531,0.10444,-1.21722,0.873407,2.26239,-0.201835,-0.531341,-0.254435
2199344,0.99,-1.57095,-0.52271,-0.000697532,-2.09576,-1.57083,1.57153,0.785747,-1.57111,-0.523429,-0.000242546,-2.09424,-1.57095,1.57128,0.785418,-0.00867726,0.00967931,-0.0182975,0.00152551,-0.00327459,0.00450473,0.00101862,-0.0499414,0.0269298,-0.04,0.0251101,-0.0236443,0.08,0.00303624,-3.17992,-8.72531,-2.86493,20.9201,-0.917036,-0.5015,-0.252493,0.116725,-1.24106,0.900904,2.27852,-0.20249,-0.526028,-0.25453
2199345,0.99,-1.57097,-0.522702,-0.000725183,-2.09576,-1.57083,1.57154,0.785747,-1.57116,-0.523399,-0.000287546,-2.09421,-1.57097,1.57137,0.785422,-0.01593,0.0122681,-0.0237971,0.00266236,-0.000775044,0.00530272,0.00067908,-0.0556675,0.0299776,-0.045,0.0279549,-0.0263321,0.09,0.0033568,-3.38225,-8.49521,-3.19421,20.9955,-0.96739,-0.418187,-0.252493,0.123255,-1.26549,0.921675,2.29691,-0.203386,-0.520743,-0.254637
2199346,0.99,-1.571,-0.52269,-0.000752127,-2.09575,-1.57083,1.57154,0.785747,-1.57123,-0.523366,-0.000337546,-2.09418,-1.571,1.57147,0.785426,-0.0227966,0.0131543,-0.0255943,0.00267575,0.00144636,0.00614783,0.00045272,-0.0613936,0.0330254,-0.05,0.0307997,-0.02902,0.1,0.00367737,-3.65996,-8.2175,-3.74963,21.1185,-1.02965,-0.340367,-0.252493,0.128934,-1.28901,0.942234,2.31632,-0.204413,-0.514645,-0.25481
2199347,0.99,-1.57103,-0.522671,-0.000802586,-2.09574,-1.57083,1.57155,0.785751,-1.57129,-0.52333,-0.000392546,-2.09414,-1.57103,1.57158,0.78543,-0.0212392,0.0121644,-0.0348569,0.00389281,0.00216527,0.011561,0.000539172,-0.0671197,0.0360732,-0.055,0.0336445,-0.0317078,0.11,0.00399794,-4.21538,-7.99136,-4.10272,21.1939,-1.06901,-0.263463,-0.258901,0.13693,-1.30879,0.967058,2.33562,-0.205545,-0.507069,-0.255082
2199348,0.99,-1.57107,-0.522647,-0.000848065,-2.09573,-1.57083,1.57157,0.785749,-1.57137,-0.523291,-0.000452546,-2.09411,-1.57107,1.5717,0.785434,-0.0267842,0.0150995,-0.0405363,0.00544117,0.00294616,0.0169711,-0.000623896,-0.0728458,0.039121,-0.06,0.0364894,-0.0343957,0.12,0.0043185,-4.64385,-7.78903,-4.66211,21.2455,-1.11479,-0.218602,-0.232351,0.147803,-1.3216,0.997748,2.35334,-0.206779,-0.497719,-0.255476
2199349,0.99,-1.57112,-0.522611,-0.000895317,-2.09572,-1.57084,1.57161,0.78574,-1.57144,-0.523249,-0.000517546,-2.09407,-1.5711,1.57183,0.785438,-0.0336143,0.0202559,-0.0445094,0.00717636,-0.00396939,0.0263042,-0.00255216,-0.0785718,0.0421688,-0.065,0.0393342,-0.0370835,0.13,0.00463907,-4.96917,-7.71365,-5.24133,21.2693,-1.10289,-0.192968,-0.174673,0.161751,-1.33116,1.03499,2.37072,-0.208183,-0.486476,-0.255969
2199350,0.99,-1.57116,-0.522581,-0.000952255,-2.0957,-1.57085,1.57164,0.785739,-1.57153,-0.523204,-0.000587546,-2.09403,-1.57114,1.57197,0.785443,-0.0392617,0.0219866,-0.044444,0.012594,-0.00812935,0.033648,-0.0019388,-0.0842979,0.0452167,-0.07,0.042179,-0.0397714,0.14,0.00495964,-5.39763,-7.55893,-5.69757,21.2455,-1.11479,-0.172826,-0.168264,0.176586,-1.34152,1.07498,2.38841,-0.209822,-0.473662,-0.256481
2199351,0.99,-1.57122,-0.522553,-0.00101103,-2.09569,-1.57086,1.5717,0.785733,-1.57162,-0.523155,-0.000662546,-2.09398,-1.57119,1.57212,0.785449,-0.0428415,0.0245824,-0.0485887,0.0142359,-0.00587573,0.0408869,-0.00298795,-0.090024,0.0482645,-0.075,0.0450238,-0.0424592,0.15,0.0052802,-5.72692,-7.33279,-6.10223,21.3169,-1.12578,-0.205785,-0.122488,0.188148,-1.35062,1.11097,2.40428,-0.211719,-0.459827,-0.256924
2199352,0.99,-1.57129,-0.522519,-0.0010656,-2.09567,-1.57087,1.57178,0.785729,-1.57172,-0.523103,-0.000745046,-2.09393,-1.57123,1.57229,0.785454,-0.051544,0.0276318,-0.0504737,0.0155052,-0.00942132,0.0533187,-0.00341612,-0.0975663,0.0521734,-0.0825,0.04868,-0.046191,0.164879,0.0056568,-5.92925,-7.15427,-6.55847,21.3922,-1.14317,-0.301915,-0.0840357,0.194132,-1.35774,1.13941,2.41847,-0.213937,-0.445294,-0.257206
2199353,0.99,-1.57137,-0.522493,-0.0011248,-2.09565,-1.57088,1.57186,0.785724,-1.57182,-0.523047,-0.000835046,-2.09388,-1.57128,1.57247,0.78546,-0.060542,0.027296,-0.0542536,0.0170766,-0.0124762,0.0660435,-0.00397284,-0.105109,0.0560822,-0.09,0.0523363,-0.0499227,0.179759,0.0060334,-6.00463,-6.85275,-6.91552,21.4438,-1.14866,-0.373326,-0.0382593,0.195176,-1.36236,1.16079,2.43209,-0.216461,-0.430142,-0.257225
2199354,0.99,-1.57145,-0.522463,-0.00119305,-2.09563,-1.57089,1.57195,0.785725,-1.57193,-0.522987,-0.000932546,-2.09382,-1.57134,1.57266,0.785467,-0.0633341,0.0289812,-0.0554493,0.0182805,-0.00802192,0.0715218,-0.00217384,-0.112651,0.0599911,-0.0975,0.0559925,-0.0536545,0.194638,0.00641,-6.10381,-6.62662,-7.19323,21.4914,-1.18803,-0.340367,-0.0510767,0.191328,-1.36084,1.17453,2.44457,-0.219255,-0.414606,-0.256883
2199355,0.99,-1.57154,-0.522431,-0.00125948,-2.09561,-1.5709,1.57204,0.785724,-1.57205,-0.522923,-0.00103755,-2.09376,-1.57139,1.57287,0.785474,-0.0715793,0.0290959,-0.06012,0.0177823,-0.00516866,0.0789755,-0.00192394,-0.120193,0.0639,-0.105,0.0596487,-0.0573862,0.209518,0.0067866,-6.17919,-6.34891,-7.57409,21.5906,-1.21641,-0.263463,-0.0382593,0.181647,-1.35128,1.1789,2.45633,-0.222422,-0.399019,-0.25611
2199356,0.99,-1.57164,-0.522391,-0.00133401,-2.09558,-1.57091,1.57215,0.785728,-1.57218,-0.522855,-0.00115005,-2.0937,-1.57145,1.57309,0.785481,-0.0848268,0.032919,-0.0638037,0.0207878,-0.00687221,0.0891591,0.000175432,-0.127735,0.0678089,-0.1125,0.0633049,-0.061118,0.224397,0.00716319,-6.33391,-6.095,-8.07794,21.6898,-1.28416,-0.172826,-0.077627,0.169044,-1.33469,1.17732,2.46867,-0.225986,-0.383125,-0.254879
2199357,0.99,-1.57173,-0.522342,-0.00142913,-2.09555,-1.57093,1.57229,0.785729,-1.57232,-0.522784,-0.00127005,-2.09363,-1.57152,1.57333,0.785488,-0.0863662,0.0377032,-0.0728855,0.0247861,-0.00803285,0.10341,0.000354314,-0.135278,0.0717178,-0.12,0.0669611,-0.0648497,0.239277,0.00753979,-6.73461,-5.91647,-8.4588,21.7176,-1.36381,-0.127965,-0.0840357,0.157558,-1.31479,1.17519,2.48236,-0.22986,-0.36649,-0.253213
2199358,0.99,-1.57183,-0.52229,-0.0015325,-2.09552,-1.57094,1.57245,0.78573,-1.57246,-0.522708,-0.00139755,-2.09356,-1.57159,1.57359,0.785496,-0.0908643,0.0422158,-0.0827447,0.0266963,-0.0146263,0.121674,-0.000238509,-0.14282,0.0756267,-0.1275,0.0706174,-0.0685815,0.254156,0.00791639,-7.01232,-5.78952,-8.83966,21.789,-1.43706,-0.160009,-0.0712183,0.147932,-1.29671,1.17466,2.49845,-0.234029,-0.349102,-0.251188
2199359,0.99,-1.57196,-0.52223,-0.00162915,-2.09547,-1.57097,1.57263,0.785727,-1.57261,-0.522629,-0.00153255,-2.09349,-1.57166,1.57386,0.785505,-0.103064,0.0460012,-0.0846638,0.0335047,-0.0158181,0.141791,-0.000633724,-0.150362,0.0795356,-0.135,0.0742736,-0.0723132,0.269036,0.00829299,-7.19085,-5.69034,-9.44665,21.7652,-1.46544,-0.257054,-0.0584009,0.139676,-1.28213,1.17565,2.51668,-0.238529,-0.331106,-0.248893
2199360,0.99,-1.57209,-0.522171,-0.00173942,-2.09543,-1.571,1.57283,0.785729,-1.57277,-0.522545,-0.00167505,-2.09341,-1.57174,1.57414,0.785513,-0.111356,0.0481953,-0.0933948,0.0406875,-0.021778,0.164728,0.000526953,-0.157904,0.0834445,-0.1425,0.0779298,-0.076045,0.283915,0.00866959,-7.39318,-5.56339,-9.90289,21.7652,-1.49931,-0.340367,-0.0840357,0.132661,-1.26633,1.177,2.53297,-0.2433,-0.312645,-0.246409
2199361,0.99,-1.57222,-0.522107,-0.00186601,-2.09538,-1.57104,1.57305,0.785732,-1.57293,-0.522458,-0.00182505,-2.09333,-1.57182,1.57444,0.785522,-0.117642,0.0504498,-0.102816,0.0427874,-0.0328032,0.182826,0.0015381,-0.165447,0.0873534,-0.15,0.081586,-0.0797767,0.298794,0.00904619,-7.74627,-5.4642,-10.2322,21.789,-1.49931,-0.418187,-0.116079,0.127691,-1.24353,1.17944,2.54368,-0.248221,-0.293782,-0.243795
2199362,0.99,-1.57236,-0.522046,-0.00198551,-2.09533,-1.57109,1.57329,0.785725,-1.57311,-0.522366,-0.00198504,-2.09324,-1.5719,1.57476,0.785532,-0.126638,0.0557848,-0.101501,0.0436637,-0.0373391,0.201527,-0.0013821,-0.174037,0.0917964,-0.15999,0.0857532,-0.0842096,0.31596,0.00944466,-7.9486,-5.26187,-10.6368,21.8405,-1.45994,-0.514318,-0.0510767,0.122975,-1.21553,1.1803,2.55128,-0.253433,-0.275013,-0.2411
2199363,0.99,-1.57251,-0.521983,-0.00209867,-2.09529,-1.57114,1.57355,0.785729,-1.57329,-0.52227,-0.00215502,-2.09315,-1.57199,1.57509,0.785542,-0.134118,0.0574569,-0.105681,0.0463116,-0.0391115,0.217696,-0.000650133,-0.182627,0.0962395,-0.16998,0.0899203,-0.0886425,0.333126,0.00984314,-8.07158,-5.08334,-11.0931,21.9397,-1.45354,-0.546361,-0.0584009,0.113321,-1.1873,1.1714,2.5602,-0.259257,-0.257341,-0.238358
2199364,0.99,-1.57266,-0.521917,-0.00222196,-2.09523,-1.57119,1.57381,0.785723,-1.57348,-0.522169,-0.00233499,-2.09306,-1.57208,1.57544,0.785552,-0.137309,0.0617171,-0.111542,0.0490751,-0.0442262,0.234374,-0.00284092,-0.191218,0.100682,-0.17997,0.0940874,-0.0930753,0.350292,0.0102416,-8.30169,-4.90482,-11.4224,22.0151,-1.48741,-0.456639,0.00660151,0.0954776,-1.15943,1.14798,2.57164,-0.265772,-0.24139,-0.235572
2199365,0.99,-1.57282,-0.521848,-0.00234934,-2.09518,-1.57124,1.5741,0.785724,-1.57368,-0.522064,-0.00252495,-2.09296,-1.57218,1.57581,0.785562,-0.149495,0.0625265,-0.121968,0.0537584,-0.0475593,0.248873,-0.000707152,-0.199808,0.105126,-0.18996,0.0982545,-0.0975082,0.367458,0.0106401,-8.45244,-4.75406,-11.8508,22.0905,-1.53868,-0.398961,-0.0254419,0.0716522,-1.12917,1.1137,2.58427,-0.272763,-0.226822,-0.232712
2199366,0.99,-1.57299,-0.521773,-0.00248132,-2.09511,-1.5713,1.57441,0.785721,-1.57389,-0.521954,-0.0027249,-2.09286,-1.57228,1.57619,0.785573,-0.157612,0.0668582,-0.125591,0.0596994,-0.0498106,0.265641,-0.000946152,-0.208399,0.109569,-0.19995,0.102422,-0.101941,0.384623,0.0110386,-8.70238,-4.62711,-12.5094,22.0905,-1.58995,-0.366002,-0.0126246,0.0466031,-1.09254,1.07531,2.59541,-0.279954,-0.212764,-0.229741
2199367,0.99,-1.57316,-0.521684,-0.00264505,-2.09504,-1.57137,1.57474,0.785717,-1.57411,-0.52184,-0.00293484,-2.09275,-1.57239,1.57659,0.785585,-0.161537,0.0756259,-0.133331,0.0626043,-0.0520307,0.285025,-0.00205492,-0.216989,0.114012,-0.20994,0.106589,-0.106374,0.401789,0.0114371,-9.18242,-4.6033,-12.9656,22.1381,-1.6403,-0.398961,0.0258276,0.0203185,-1.05333,1.03267,2.6059,-0.287394,-0.19908,-0.22664
2199368,0.99,-1.57334,-0.52159,-0.00280768,-2.09497,-1.57144,1.57509,0.785725,-1.57433,-0.521722,-0.00315477,-2.09264,-1.5725,1.57701,0.785597,-0.168133,0.0819741,-0.143365,0.0660137,-0.0532905,0.30639,0.000528924,-0.22558,0.118455,-0.21993,0.110756,-0.110807,0.418955,0.0118355,-9.63866,-4.5795,-13.5211,22.1381,-1.70256,-0.475866,-0.0254419,-0.00921809,-1.02282,0.983752,2.62108,-0.295363,-0.186045,-0.223377
2199369,0.99,-1.57354,-0.521488,-0.00297624,-2.09489,-1.57152,1.57547,0.785726,-1.57457,-0.521599,-0.00338469,-2.09253,-1.57261,1.57745,0.785609,-0.178184,0.0874485,-0.150903,0.074579,-0.055913,0.327226,0.000352616,-0.23417,0.122898,-0.22992,0.114923,-0.11524,0.436121,0.012234,-9.94017,-4.6033,-14.0804,22.0151,-1.71355,-0.566503,-0.0254419,-0.0409268,-1.00458,0.930865,2.64211,-0.30392,-0.173456,-0.219949
2199370,0.99,-1.57375,-0.521385,-0.0031578,-2.09481,-1.5716,1.57587,0.785729,-1.57481,-0.521472,-0.0036246,-2.09241,-1.57273,1.5779,0.785622,-0.188452,0.0935344,-0.159973,0.0768706,-0.0644219,0.353587,0.000947154,-0.242761,0.127341,-0.23991,0.11909,-0.119673,0.453287,0.0126325,-10.2179,-4.6033,-14.6359,22.0627,-1.71355,-0.688268,-0.044668,-0.0729157,-0.995406,0.876725,2.66635,-0.312941,-0.161062,-0.216406
2199371,0.99,-1.57395,-0.521278,-0.00335141,-2.09472,-1.57169,1.57628,0.785727,-1.57506,-0.52134,-0.0038745,-2.09229,-1.57286,1.57837,0.785635,-0.189966,0.0985972,-0.168399,0.0829883,-0.0701282,0.371251,-0.00126744,-0.251351,0.131784,-0.2499,0.123257,-0.124105,0.470453,0.013031,-10.6225,-4.6033,-14.9889,22.0627,-1.70805,-0.766088,0.00660151,-0.105773,-0.993493,0.820695,2.69286,-0.322369,-0.149079,-0.212807
2199372,0.99,-1.57417,-0.521174,-0.00354087,-2.09463,-1.57179,1.57672,0.785725,-1.57532,-0.521203,-0.00413439,-2.09216,-1.57299,1.57886,0.785648,-0.197189,0.0987059,-0.172028,0.0871229,-0.0749667,0.392472,-0.00179439,-0.260345,0.136498,-0.25989,0.127696,-0.128867,0.488346,0.0134316,-10.9241,-4.45255,-15.4214,22.0627,-1.69157,-0.830175,0.0322363,-0.143793,-0.992794,0.756856,2.71905,-0.332173,-0.138203,-0.209202
2199373,0.99,-1.57439,-0.521066,-0.00372337,-2.09453,-1.5719,1.57716,0.785729,-1.57559,-0.521062,-0.00440427,-2.09203,-1.57312,1.57937,0.785662,-0.203306,0.100347,-0.179642,0.0943208,-0.0843158,0.406305,0.000227892,-0.269339,0.141213,-0.26988,0.132134,-0.133629,0.50624,0.0138322,-11.174,-4.3494,-15.9292,22.0389,-1.6577,-0.810948,-0.00621587,-0.190435,-0.981672,0.679871,2.73942,-0.342191,-0.128903,-0.2056
2199374,0.99,-1.57462,-0.520948,-0.00393575,-2.09443,-1.572,1.57763,0.78573,-1.57587,-0.520916,-0.00468414,-2.09189,-1.57326,1.57989,0.785676,-0.209061,0.105845,-0.192083,0.0986024,-0.0943391,0.425115,0.000389287,-0.278332,0.145928,-0.27987,0.136573,-0.138391,0.524134,0.0142328,-11.4517,-4.30179,-16.1553,22.0627,-1.67418,-0.759679,-0.0126246,-0.244248,-0.955194,0.591997,2.75144,-0.352161,-0.120926,-0.201974
2199375,0.99,-1.57485,-0.520826,-0.00415018,-2.09431,-1.5721,1.57814,0.785732,-1.57616,-0.520766,-0.004974,-2.09175,-1.5734,1.58043,0.785691,-0.214531,0.10939,-0.196009,0.103388,-0.0966844,0.444884,0.000971601,-0.287326,0.150642,-0.28986,0.141011,-0.143153,0.542028,0.0146334,-11.6064,-4.22244,-16.4608,22.0151,-1.71355,-0.733129,-0.0318506,-0.303575,-0.917922,0.496282,2.75748,-0.361983,-0.114015,-0.198329
2199376,0.99,-1.5751,-0.520701,-0.00437059,-2.0942,-1.57221,1.57865,0.785732,-1.57645,-0.52061,-0.00527385,-2.0916,-1.57355,1.58099,0.785706,-0.22538,0.114697,-0.200618,0.105709,-0.098577,0.467466,0.000647734,-0.296319,0.155357,-0.29985,0.14545,-0.147915,0.559922,0.015034,-11.7056,-4.12326,-16.6869,22.0151,-1.74193,-0.772496,-0.0318506,-0.370047,-0.875958,0.390096,2.76141,-0.371823,-0.108377,-0.194704
2199377,0.99,-1.57536,-0.520561,-0.00460393,-2.09408,-1.57232,1.5792,0.785739,-1.57676,-0.52045,-0.00558369,-2.09145,-1.5737,1.58157,0.785721,-0.232381,0.120796,-0.209523,0.108541,-0.104205,0.490199,0.00165253,-0.305313,0.160072,-0.30984,0.149888,-0.152677,0.577815,0.0154346,-11.7294,-4.12326,-16.9131,21.9635,-1.79869,-0.875035,-0.0648096,-0.443794,-0.83598,0.272734,2.76761,-0.381892,-0.104027,-0.191138
2199378,0.99,-1.57563,-0.52042,-0.00484019,-2.09396,-1.57244,1.57976,0.785742,-1.57707,-0.520285,-0.00590352,-2.0913,-1.57386,1.58217,0.785737,-0.243097,0.127958,-0.218186,0.113865,-0.108891,0.52248,0.0015764,-0.314307,0.164786,-0.31983,0.154327,-0.157439,0.595709,0.0158352,-11.7572,-4.09946,-17.0678,21.9159,-1.84447,-0.940038,-0.077627,-0.521993,-0.804483,0.148388,2.77931,-0.392257,-0.100712,-0.187668
2199379,0.99,-1.5759,-0.520271,-0.00509365,-2.09382,-1.57256,1.58035,0.785749,-1.5774,-0.520116,-0.00623334,-2.09114,-1.57402,1.58278,0.785753,-0.250332,0.134474,-0.229988,0.121501,-0.113255,0.54235,0.00223773,-0.3233,0.169501,-0.32982,0.158765,-0.162201,0.613603,0.0162358,-11.8326,-4.12326,-17.1194,21.8405,-1.86644,-0.92722,-0.10967,-0.600971,-0.783652,0.0225843,2.79596,-0.402847,-0.0981306,-0.184358
2199380,0.99,-1.57618,-0.520114,-0.00534456,-2.09368,-1.57269,1.58096,0.785753,-1.57773,-0.519942,-0.00657315,-2.09098,-1.57419,1.58341,0.78577,-0.258828,0.140391,-0.237395,0.127268,-0.121343,0.557919,0.00125446,-0.332294,0.174216,-0.33981,0.163204,-0.166963,0.631497,0.0166364,-11.8326,-4.19864,-17.3455,21.7652,-1.87193,-0.946447,-0.103262,-0.677889,-0.77139,-0.100546,2.81467,-0.41358,-0.0959182,-0.181277
2199381,0.99,-1.57647,-0.519959,-0.00561931,-2.09354,-1.57282,1.58158,0.785755,-1.57807,-0.519763,-0.00692295,-2.09081,-1.57436,1.58406,0.785787,-0.26814,0.146183,-0.251032,0.133447,-0.128304,0.580398,0.00012423,-0.341287,0.17893,-0.3498,0.167642,-0.171725,0.649391,0.0170371,-11.8802,-4.19864,-17.3693,21.7414,-1.85545,-0.984899,-0.0840357,-0.750624,-0.764586,-0.218033,2.83316,-0.424394,-0.0936782,-0.178474
2199382,0.99,-1.57676,-0.519806,-0.00589809,-2.09339,-1.57297,1.58222,0.785753,-1.57842,-0.519579,-0.00728274,-2.09064,-1.57454,1.58473,0.785804,-0.276985,0.147803,-0.25842,0.13706,-0.134044,0.596824,-0.00208732,-0.350129,0.183705,-0.35979,0.172163,-0.176586,0.667099,0.0174296,-12.0071,-4.09946,-17.4725,21.7414,-1.84447,-1.02976,-0.0254419,-0.81722,-0.758587,-0.327305,2.84968,-0.435197,-0.0910558,-0.175963
2199383,0.99,-1.57707,-0.519643,-0.00618479,-2.09324,-1.57313,1.58288,0.785761,-1.57878,-0.51939,-0.00765252,-2.09046,-1.57472,1.58541,0.785822,-0.284073,0.153459,-0.267134,0.143482,-0.143188,0.613331,0.00424379,-0.358972,0.188479,-0.36978,0.176684,-0.181447,0.684808,0.017822,-12.0071,-4.07169,-17.5994,21.7414,-1.81608,-1.05539,-0.0510767,-0.878604,-0.747979,-0.430049,2.86248,-0.445944,-0.0881201,-0.173699
2199384,0.99,-1.57738,-0.519474,-0.00647941,-2.09308,-1.57329,1.58355,0.785766,-1.57915,-0.519197,-0.00803229,-2.09028,-1.5749,1.58611,0.78584,-0.294275,0.15602,-0.273144,0.148358,-0.15074,0.622006,0.00444039,-0.367814,0.193253,-0.37977,0.181205,-0.186309,0.702516,0.0182145,-12.0349,-4.07169,-17.7502,21.7414,-1.7877,-0.97849,-0.0840357,-0.937169,-0.729917,-0.530101,2.87047,-0.456617,-0.0851579,-0.171594
2199385,0.99,-1.5777,-0.5193,-0.00678631,-2.09291,-1.57345,1.58424,0.785766,-1.57952,-0.518999,-0.00842205,-2.09009,-1.5751,1.58684,0.785859,-0.303398,0.161106,-0.282798,0.151766,-0.158334,0.637534,0.00671464,-0.376656,0.198027,-0.38976,0.185726,-0.19117,0.720225,0.018607,-12.1341,-4.07169,-17.8018,21.7414,-1.7932,-0.919896,-0.0510767,-0.993456,-0.704,-0.628658,2.87406,-0.46717,-0.0821574,-0.169595
2199386,0.99,-1.57803,-0.519121,-0.00710713,-2.09274,-1.57361,1.58495,0.785769,-1.57991,-0.518796,-0.0088218,-2.0899,-1.57529,1.58757,0.785878,-0.308628,0.168686,-0.297451,0.159148,-0.161324,0.660853,0.00912053,-0.385498,0.202802,-0.39975,0.190247,-0.196031,0.737933,0.0189995,-12.2848,-4.09946,-17.8018,21.6898,-1.80418,-0.991307,-0.0318506,-1.04643,-0.674368,-0.723632,2.87555,-0.47754,-0.0789202,-0.167693
2199387,0.99,-1.57836,-0.518932,-0.00743508,-2.09257,-1.57378,1.58569,0.785772,-1.5803,-0.518589,-0.00923154,-2.08971,-1.57549,1.58833,0.785897,-0.328558,0.174403,-0.305813,0.165131,-0.166778,0.684942,0.0110988,-0.39434,0.207576,-0.40974,0.194767,-0.200892,0.755642,0.019392,-12.3602,-4.14706,-17.9009,21.7414,-1.86094,-1.1204,-0.0190333,-1.0933,-0.646443,-0.810185,2.87662,-0.487602,-0.075101,-0.165867
2199388,0.99,-1.57872,-0.518734,-0.00778107,-2.09238,-1.57395,1.58644,0.785774,-1.58071,-0.518376,-0.00965127,-2.08951,-1.5757,1.5891,0.785917,-0.33489,0.18456,-0.32105,0.174107,-0.162489,0.702278,0.00747616,-0.403182,0.21235,-0.41973,0.199288,-0.205754,0.77335,0.0197845,-12.3602,-4.22244,-17.9009,21.6144,-1.90031,-1.12681,0.00660151,-1.13071,-0.624156,-0.883371,2.87792,-0.497284,-0.0703313,-0.164066
2199389,0.99,-1.57908,-0.518532,-0.00812668,-2.09219,-1.57413,1.58718,0.785787,-1.58112,-0.518159,-0.010081,-2.0893,-1.57591,1.58989,0.785937,-0.342933,0.190878,-0.32856,0.17812,-0.173697,0.711091,0.0123879,-0.412024,0.217125,-0.42972,0.203809,-0.210615,0.791059,0.020177,-12.3364,-4.32559,-17.9287,21.5906,-1.95708,-1.01053,-0.044668,-1.15947,-0.611799,-0.943616,2.88091,-0.506747,-0.0647901,-0.162225
2199390,0.99,-1.57944,-0.518318,-0.00847967,-2.09199,-1.57433,1.58796,0.78579,-1.58154,-0.517937,-0.0105207,-2.0891,-1.57612,1.5907,0.785958,-0.349066,0.197511,-0.335771,0.180648,-0.182528,0.728291,0.00709432,-0.420866,0.221899,-0.43971,0.20833,-0.215476,0.808767,0.0205695,-12.3126,-4.52792,-17.9803,21.5668,-1.96806,-0.946447,0.0130102,-1.18523,-0.611428,-0.998559,2.88778,-0.516319,-0.0592564,-0.160284
2199391,0.99,-1.57981,-0.518114,-0.00885653,-2.0918,-1.57452,1.58875,0.7858,-1.58197,-0.517711,-0.0109704,-2.08888,-1.57634,1.59153,0.785979,-0.3526,0.198285,-0.350423,0.186037,-0.186153,0.750209,0.0101389,-0.429708,0.226673,-0.4497,0.212851,-0.220337,0.826475,0.020962,-12.4356,-4.55173,-17.8256,21.543,-1.95708,-0.965673,0.0130102,-1.21283,-0.618444,-1.05493,2.89811,-0.526196,-0.0542904,-0.15824
2199392,0.99,-1.58019,-0.5179,-0.00924524,-2.09159,-1.57472,1.58958,0.785799,-1.58241,-0.517479,-0.0114301,-2.08867,-1.57657,1.59237,0.786,-0.35791,0.202116,-0.363488,0.189851,-0.194204,0.774078,0.00803716,-0.437907,0.231335,-0.45969,0.217306,-0.225152,0.843502,0.0213431,-12.4872,-4.5795,-17.6986,21.543,-1.9232,-1.0618,0.129282,-1.2429,-0.623216,-1.11277,2.90799,-0.536288,-0.0497991,-0.156112
2199393,0.99,-1.58059,-0.517679,-0.00964622,-2.09139,-1.57492,1.59042,0.785811,-1.58285,-0.517243,-0.0118998,-2.08844,-1.5768,1.59323,0.786022,-0.370005,0.210136,-0.370472,0.193857,-0.19264,0.790312,0.0102852,-0.446106,0.235996,-0.46968,0.221761,-0.229968,0.860528,0.0217242,-12.3126,-4.67868,-17.6748,21.6144,-1.91221,-1.01694,0.149424,-1.27451,-0.624014,-1.17046,2.91678,-0.546545,-0.0456131,-0.15384
2199394,0.99,-1.58099,-0.517458,-0.0100429,-2.09117,-1.57513,1.59125,0.785821,-1.58331,-0.517003,-0.0123794,-2.08822,-1.57703,1.59411,0.786044,-0.37701,0.215543,-0.379611,0.203013,-0.196526,0.804972,0.0124881,-0.454305,0.240658,-0.47967,0.226216,-0.234783,0.877554,0.0221053,-12.3126,-4.75406,-17.6232,21.5668,-1.91221,-0.875035,0.155832,-1.30761,-0.625331,-1.22865,2.92573,-0.557014,-0.0417738,-0.151286
2199395,0.99,-1.58139,-0.517221,-0.010461,-2.09096,-1.57534,1.59213,0.785838,-1.58377,-0.516757,-0.0128691,-2.08799,-1.57727,1.595,0.786067,-0.386097,0.220441,-0.388381,0.204738,-0.200206,0.821722,0.015568,-0.462504,0.24532,-0.48966,0.230672,-0.239598,0.894581,0.0224863,-12.3126,-4.88101,-17.5994,21.5906,-1.88933,-0.92722,0.122873,-1.34243,-0.62742,-1.28845,2.93393,-0.567642,-0.0382416,-0.148338
2199396,0.99,-1.58181,-0.516984,-0.0108921,-2.09074,-1.57556,1.59302,0.785853,-1.58424,-0.516507,-0.0133687,-2.08775,-1.57752,1.59592,0.786089,-0.389256,0.22482,-0.410973,0.21471,-0.209037,0.86711,0.0166758,-0.470702,0.249981,-0.49965,0.235127,-0.244413,0.911607,0.0228674,-12.4634,-5.03177,-17.4725,21.6144,-1.89482,-1.0618,0.116465,-1.37702,-0.628166,-1.34641,2.94015,-0.578176,-0.0347339,-0.144979
2199397,0.99,-1.58224,-0.516736,-0.0113331,-2.0905,-1.57579,1.59394,0.785861,-1.58472,-0.516253,-0.0138784,-2.08751,-1.57777,1.59684,0.786113,-0.399271,0.231884,-0.421894,0.21871,-0.20929,0.883563,0.0153263,-0.478901,0.254643,-0.50964,0.239582,-0.249229,0.928633,0.0232485,-12.4356,-5.2103,-17.4447,21.5668,-1.91771,-1.11399,0.16865,-1.40761,-0.626894,-1.39565,2.9433,-0.588277,-0.0309009,-0.141276
2199398,0.99,-1.58267,-0.516481,-0.0117836,-2.09027,-1.57601,1.59487,0.785884,-1.58521,-0.515994,-0.014398,-2.08727,-1.57802,1.59779,0.786136,-0.406971,0.237573,-0.429848,0.221818,-0.215417,0.895642,0.0193012,-0.4871,0.259305,-0.51963,0.244037,-0.254044,0.94566,0.0236296,-12.4118,-5.41263,-17.4209,21.6422,-1.97996,-1.0618,0.09083,-1.43374,-0.62729,-1.43549,2.94562,-0.597997,-0.026767,-0.137268
2199399,0.99,-1.58312,-0.516228,-0.0122448,-2.09003,-1.57624,1.59581,0.785911,-1.5857,-0.51573,-0.0149276,-2.08702,-1.57828,1.59875,0.78616,-0.41913,0.242547,-0.444629,0.22817,-0.218098,0.912145,0.0220518,-0.495299,0.263966,-0.52962,0.248492,-0.258859,0.962686,0.0240107,-12.4634,-5.51181,-17.4447,21.5668,-1.99644,-1.04258,0.0130102,-1.45584,-0.631872,-1.46761,2.94948,-0.60756,-0.0223291,-0.13298
2199400,0.99,-1.58355,-0.515972,-0.0127346,-2.0898,-1.57648,1.59677,0.785931,-1.5862,-0.515461,-0.0154672,-2.08677,-1.57854,1.59973,0.786185,-0.421063,0.244721,-0.46063,0.228175,-0.221747,0.926966,0.0215819,-0.503497,0.268628,-0.53961,0.252947,-0.263674,0.979712,0.0243917,-12.7411,-5.56339,-17.3693,21.666,-2.03032,-1.00412,-0.00621587,-1.47184,-0.638047,-1.48913,2.9546,-0.617018,-0.0171557,-0.128544
2199401,0.99,-1.584,-0.515711,-0.0132137,-2.08955,-1.57672,1.59776,0.785947,-1.58672,-0.515188,-0.0160168,-2.08651,-1.57881,1.60073,0.786209,-0.428965,0.254803,-0.464734,0.232274,-0.228656,0.943952,0.0197093,-0.511696,0.27329,-0.5496,0.257402,-0.26849,0.996739,0.0247728,-12.8918,-5.61496,-17.3971,21.6144,-2.03673,-0.965673,0.0194189,-1.48438,-0.647542,-1.5033,2.96308,-0.626598,-0.0115225,-0.124144
2199402,0.99,-1.58447,-0.515444,-0.0137243,-2.0893,-1.57697,1.59875,0.785964,-1.58724,-0.51491,-0.0165764,-2.08625,-1.57909,1.60174,0.786235,-0.438597,0.259018,-0.480081,0.239458,-0.232985,0.960054,0.0174352,-0.518868,0.277698,-0.55959,0.261678,-0.273162,1.01281,0.0251453,-12.8918,-5.58719,-17.2939,21.666,-2.04222,-1.01053,0.071604,-1.49795,-0.664819,-1.51655,2.97639,-0.636512,-0.00602574,-0.11991
2199403,0.99,-1.58495,-0.515165,-0.0142353,-2.08905,-1.57722,1.59978,0.785989,-1.58776,-0.514628,-0.017146,-2.08598,-1.57936,1.60277,0.78626,-0.451764,0.266725,-0.487199,0.243782,-0.240021,0.971879,0.0183272,-0.52604,0.282106,-0.56958,0.265953,-0.277834,1.02888,0.0255178,-12.8918,-5.61496,-17.3217,21.7176,-2.06419,-0.991307,0.0587866,-1.51132,-0.688794,-1.52754,2.99231,-0.646669,-0.000361277,-0.11588
2199404,0.99,-1.58544,-0.514884,-0.0147549,-2.0888,-1.57746,1.60081,0.786007,-1.58829,-0.514341,-0.0177256,-2.08571,-1.57965,1.60382,0.786286,-0.465375,0.273919,-0.499604,0.250384,-0.241817,0.996182,0.0175073,-0.533212,0.286514,-0.57957,0.270228,-0.282507,1.04495,0.0258902,-12.8165,-5.69034,-17.2424,21.666,-2.08159,-1.05539,0.0844213,-1.52185,-0.718755,-1.53311,3.00976,-0.656975,0.00587622,-0.112017
2199405,0.99,-1.58592,-0.514588,-0.0152915,-2.08853,-1.57772,1.60189,0.786036,-1.58884,-0.51405,-0.0183151,-2.08544,-1.57993,1.60488,0.786312,-0.476224,0.281071,-0.508756,0.254425,-0.246513,1.02064,0.0191147,-0.540384,0.290922,-0.58956,0.274503,-0.287179,1.06102,0.0262627,-12.7649,-5.86887,-17.167,21.6422,-2.06419,-1.17167,0.0523779,-1.52883,-0.756159,-1.53271,3.02923,-0.667427,0.01259,-0.108279
2199406,0.99,-1.58643,-0.514294,-0.0158453,-2.08827,-1.57799,1.60297,0.78606,-1.58938,-0.513755,-0.0189147,-2.08516,-1.58023,1.60595,0.786339,-0.484715,0.283364,-0.523979,0.255165,-0.253284,1.03205,0.0234488,-0.547556,0.29533,-0.59955,0.278778,-0.291852,1.07708,0.0266352,-12.8165,-6.04343,-17.1432,21.7176,-2.04222,-1.24216,0.0587866,-1.53229,-0.799234,-1.52618,3.05108,-0.678026,0.0195988,-0.104642
2199407,0.99,-1.58692,-0.513998,-0.0164026,-2.08801,-1.57827,1.60405,0.786086,-1.58994,-0.513455,-0.0195242,-2.08488,-1.58052,1.60705,0.786366,-0.489635,0.291224,-0.530905,0.257773,-0.255976,1.04722,0.0227882,-0.554728,0.299738,-0.60954,0.283053,-0.296524,1.09315,0.0270076,-12.9156,-6.22195,-17.0162,21.7176,-2.0706,-1.23575,0.0459692,-1.53402,-0.845832,-1.5156,3.07635,-0.688836,0.0265485,-0.101098
2199408,0.99,-1.58744,-0.513694,-0.0169727,-2.08773,-1.57855,1.60515,0.786117,-1.5905,-0.513151,-0.0201438,-2.08459,-1.58082,1.60816,0.786393,-0.498374,0.295005,-0.541659,0.262774,-0.260734,1.05929,0.0232344,-0.5619,0.304146,-0.61953,0.287328,-0.301196,1.10922,0.0273801,-12.8165,-6.32114,-16.9924,21.8167,-2.04771,-1.17167,0.00660151,-1.53811,-0.895488,-1.50663,3.10516,-0.69994,0.0327379,-0.0976533
2199409,0.99,-1.58797,-0.513397,-0.0175471,-2.08746,-1.57882,1.60624,0.786138,-1.59107,-0.512843,-0.0207733,-2.0843,-1.58113,1.60928,0.786421,-0.509458,0.296015,-0.552278,0.26473,-0.261714,1.06709,0.0243025,-0.569072,0.308554,-0.62952,0.291603,-0.305869,1.12529,0.0277526,-12.6141,-6.32114,-16.9409,21.8882,-2.08159,-1.13962,0.071604,-1.54512,-0.942472,-1.5004,3.13439,-0.711237,0.0381581,-0.0943486
2199410,0.99,-1.58851,-0.513086,-0.0181326,-2.08719,-1.57911,1.60736,0.786171,-1.59164,-0.51253,-0.0214128,-2.084,-1.58144,1.61042,0.786449,-0.514281,0.299517,-0.556867,0.267346,-0.268748,1.07244,0.0288832,-0.576244,0.312963,-0.63951,0.295878,-0.310541,1.14136,0.028125,-12.5903,-6.44809,-16.8655,21.9159,-2.13286,-1.09385,0.038645,-1.55456,-0.979234,-1.49711,3.161,-0.722631,0.0431176,-0.0912198
2199411,0.99,-1.58904,-0.512774,-0.0187329,-2.0869,-1.5794,1.60849,0.786206,-1.59223,-0.512212,-0.0220623,-2.0837,-1.58175,1.61158,0.786478,-0.521201,0.301327,-0.567862,0.269438,-0.272121,1.08179,0.0274605,-0.583416,0.317371,-0.6495,0.300154,-0.315214,1.15743,0.0284975,-12.5625,-6.52347,-16.8655,22.0627,-2.1887,-1.07462,0.00660151,-1.56906,-1.0035,-1.50118,3.18444,-0.734201,0.0474108,-0.0882478
2199412,0.99,-1.58958,-0.512455,-0.0193421,-2.08662,-1.5797,1.60964,0.786232,-1.59282,-0.511891,-0.0227218,-2.0834,-1.58207,1.61275,0.786507,-0.526975,0.308744,-0.582746,0.273049,-0.273107,1.09928,0.0249749,-0.58935,0.321417,-0.65949,0.304154,-0.31967,1.17234,0.028862,-12.5903,-6.7258,-16.8655,22.1381,-2.15483,-1.18448,0.0130102,-1.58782,-1.01841,-1.51112,3.20602,-0.746003,0.0511928,-0.0854264
2199413,0.99,-1.59013,-0.512127,-0.0199701,-2.08633,-1.58,1.61082,0.78627,-1.59341,-0.511565,-0.0233913,-2.08309,-1.5824,1.61394,0.786536,-0.529354,0.314788,-0.598328,0.278974,-0.278795,1.1128,0.0257636,-0.595283,0.325464,-0.66948,0.308155,-0.324127,1.18725,0.0292266,-12.6141,-6.85275,-16.7901,22.1897,-2.12095,-1.2678,-0.0510767,-1.60735,-1.03135,-1.52066,3.22792,-0.758007,0.0548463,-0.0827846
2199414,1,-1.59071,-0.511803,-0.0206083,-2.08603,-1.5803,1.61199,0.786296,-1.59401,-0.511236,-0.0240707,-2.08278,-1.58273,1.61514,0.786565,-0.544333,0.318953,-0.621642,0.289176,-0.287706,1.15301,0.0273201,-0.601217,0.329511,-0.67947,0.312155,-0.328584,1.20215,0.0295911,-12.4872,-6.92813,-16.6354,22.2135,-2.09807,-1.28061,-0.0190333,-1.62167,-1.04405,-1.52018,3.24821,-0.769837,0.0589003,-0.0803846
2199415,1,-1.5913,-0.511467,-0.021252,-2.08573,-1.58061,1.61319,0.786339,-1.59462,-0.510902,-0.0247602,-2.08246,-1.58306,1.61636,0.786595,-0.55788,0.322795,-0.622727,0.29135,-0.290121,1.16548,0.0331801,-0.607151,0.333557,-0.68946,0.316156,-0.333041,1.21706,0.0299556,-12.261,-7.03128,-16.6354,22.2611,-2.10448,-1.37766,-0.10967,-1.62538,-1.05235,-1.50289,3.26311,-0.781055,0.063727,-0.0783032
2199416,1,-1.59188,-0.511124,-0.0219197,-2.08543,-1.58092,1.61445,0.786372,-1.59523,-0.510565,-0.0254596,-2.08214,-1.5834,1.61759,0.786626,-0.569955,0.329707,-0.631631,0.293111,-0.299007,1.18709,0.0341347,-0.613084,0.337604,-0.69945,0.320156,-0.337498,1.23197,0.0303201,-12.0825,-7.18204,-16.433,22.3127,-2.09807,-1.73197,-0.10967,-1.62179,-1.05835,-1.47604,3.27505,-0.791808,0.0685855,-0.0765744
2199417,1,-1.59247,-0.510784,-0.0225842,-2.08512,-1.58123,1.61566,0.786405,-1.59585,-0.510223,-0.0261691,-2.08182,-1.58374,1.61884,0.786656,-0.573713,0.333609,-0.644563,0.294935,-0.301962,1.19608,0.0348181,-0.619018,0.341651,-0.70944,0.324157,-0.341955,1.24688,0.0306847,-11.9318,-7.28122,-16.2307,22.3365,-2.10448,-1.73197,-0.10967,-1.61592,-1.06851,-1.44793,3.28951,-0.802426,0.0724847,-0.0752307
2199418,1,-1.59307,-0.510434,-0.0232552,-2.08482,-1.58156,1.61686,0.786444,-1.59648,-0.509877,-0.0268885,-2.08149,-1.58409,1.6201,0.786687,-0.587562,0.336569,-0.651717,0.297433,-0.312041,1.19399,0.0372282,-0.624952,0.345697,-0.71943,0.328157,-0.346412,1.26179,0.0310492,-11.7572,-7.40817,-16.1038,22.4356,-2.11546,-1.28061,-0.161856,-1.60839,-1.08293,-1.41946,3.30797,-0.813001,0.0751209,-0.0743021
2199419,1,-1.59367,-0.510087,-0.0239234,-2.0845,-1.58188,1.61809,0.786485,-1.59711,-0.509528,-0.0276179,-2.08116,-1.58444,1.62138,0.786719,-0.593856,0.345889,-0.657618,0.306477,-0.315684,1.19757,0.0384649,-0.630885,0.349744,-0.72942,0.332158,-0.350869,1.27669,0.0314137,-11.6064,-7.48355,-16.1315,22.388,-2.15483,-0.97849,-0.200308,-1.59984,-1.09961,-1.39239,3.32865,-0.823559,0.0765482,-0.0737961
2199420,1,-1.59428,-0.50973,-0.0246264,-2.08418,-1.58221,1.61936,0.786521,-1.59775,-0.509174,-0.0283573,-2.08082,-1.58479,1.62267,0.786751,-0.59137,0.346525,-0.666358,0.31251,-0.313783,1.21588,0.037274,-0.636819,0.353791,-0.73941,0.336158,-0.355326,1.2916,0.0317783,-11.6064,-7.6105,-15.9768,22.3603,-2.16673,-1.10666,-0.181082,-1.59576,-1.11678,-1.37466,3.34805,-0.834191,0.0765341,-0.0737751
2199421,1,-1.5949,-0.509372,-0.025346,-2.08386,-1.58254,1.62066,0.786555,-1.59839,-0.508816,-0.0291067,-2.08048,-1.58515,1.62397,0.786783,-0.600994,0.345626,-0.6793,0.31458,-0.319685,1.22634,0.0393298,-0.642752,0.357837,-0.7494,0.340159,-0.359783,1.30651,0.0321428,-11.4279,-7.68588,-15.9014,22.388,-2.22258,-1.24216,-0.10967,-1.5999,-1.12575,-1.37086,3.36168,-0.844898,0.0752229,-0.0743249
2199422,1,-1.59555,-0.509015,-0.0260561,-2.08354,-1.58287,1.62195,0.786593,-1.59904,-0.508455,-0.0298661,-2.08014,-1.58552,1.6253,0.786815,-0.614521,0.349246,-0.686732,0.319049,-0.332126,1.24177,0.0385807,-0.647383,0.361441,-0.75939,0.343806,-0.363958,1.32009,0.0324993,-11.174,-7.78903,-15.9768,22.3365,-2.25645,-1.39689,-0.0968531,-1.60737,-1.11918,-1.37422,3.36768,-0.855516,0.0736552,-0.0754052
2199423,1,-1.59618,-0.508649,-0.0267862,-2.0832,-1.58322,1.62325,0.786649,-1.59969,-0.50809,-0.0306355,-2.07979,-1.58588,1.62663,0.786848,-0.634059,0.353905,-0.698252,0.323395,-0.334667,1.25071,0.0431751,-0.652014,0.365045,-0.76938,0.347453,-0.368133,1.33366,0.0328558,-11.0748,-7.86441,-15.953,22.2373,-2.25096,-1.35203,-0.225942,-1.60967,-1.09977,-1.37397,3.36778,-0.865936,0.0728956,-0.0768468
2199424,1,-1.5968,-0.50827,-0.0275259,-2.08286,-1.58357,1.62456,0.786683,-1.60034,-0.507721,-0.0314149,-2.07944,-1.58626,1.62798,0.786881,-0.629356,0.359582,-0.711295,0.326959,-0.342026,1.26164,0.0396263,-0.656644,0.368649,-0.77937,0.351101,-0.372307,1.34724,0.0332123,-11.301,-8.01517,-15.9768,22.1143,-2.1887,-1.29343,-0.181082,-1.60287,-1.07551,-1.36477,3.36544,-0.876258,0.073206,-0.0785365
2199425,1,-1.59743,-0.507894,-0.0282569,-2.08252,-1.58393,1.62588,0.786725,-1.60101,-0.507349,-0.0322042,-2.07908,-1.58663,1.62934,0.786915,-0.617657,0.36435,-0.721615,0.331542,-0.35171,1.28369,0.0379113,-0.661275,0.372252,-0.78936,0.354748,-0.376482,1.36081,0.0335688,-11.6064,-8.1937,-16.0046,22.0389,-2.14384,-1.35843,-0.149038,-1.596,-1.05433,-1.35681,3.36386,-0.886761,0.0730665,-0.0804832
2199426,1,-1.59808,-0.507512,-0.0290051,-2.08217,-1.5843,1.62722,0.786748,-1.60167,-0.506973,-0.0330036,-2.07872,-1.58701,1.63071,0.786949,-0.625944,0.370977,-0.730118,0.335287,-0.35153,1.29852,0.0309385,-0.665905,0.375856,-0.79935,0.358395,-0.380657,1.37439,0.0339252,-11.654,-8.39603,-16.08,21.9397,-2.15483,-1.30076,0.038645,-1.60076,-1.04186,-1.36424,3.36494,-0.897639,0.0706599,-0.082678
2199427,1,-1.59872,-0.507137,-0.0297385,-2.08183,-1.58465,1.62854,0.786774,-1.60234,-0.506593,-0.0338129,-2.07836,-1.5874,1.6321,0.786983,-0.632556,0.373213,-0.73158,0.335882,-0.354375,1.3156,0.0286741,-0.670536,0.37946,-0.80934,0.362042,-0.384832,1.38796,0.0342817,-11.654,-8.47141,-16.2823,21.9397,-2.22899,-1.19089,0.162241,-1.61967,-1.04034,-1.39097,3.37004,-0.908924,0.0656469,-0.0849629
2199428,1,-1.59937,-0.506756,-0.0305096,-2.08148,-1.58501,1.62989,0.786825,-1.60302,-0.50621,-0.0346323,-2.078,-1.58779,1.6335,0.787018,-0.636675,0.373412,-0.74695,0.338803,-0.360216,1.31999,0.0354665,-0.675167,0.383064,-0.81933,0.36569,-0.389007,1.40154,0.0346382,-11.7056,-8.47141,-16.2823,21.8405,-2.26835,-0.997716,0.0587866,-1.64978,-1.04473,-1.43402,3.37805,-0.920534,0.0587477,-0.0870229
2199429,1,-1.60001,-0.506367,-0.0312817,-2.08111,-1.58538,1.63127,0.786861,-1.6037,-0.505824,-0.0354616,-2.07763,-1.58818,1.63492,0.787053,-0.637576,0.377957,-0.750321,0.346894,-0.363638,1.33367,0.0365382,-0.679797,0.386667,-0.82932,0.369337,-0.393182,1.41512,0.0349947,-11.8564,-8.52298,-16.3815,21.7414,-2.27385,-0.97849,0.0459692,-1.68782,-1.04651,-1.48888,3.38442,-0.932323,0.0509672,-0.088579
2199430,1,-1.60068,-0.505985,-0.032065,-2.08075,-1.58577,1.63266,0.786906,-1.60438,-0.505433,-0.0363009,-2.07725,-1.58858,1.63634,0.787088,-0.63812,0.377254,-0.761409,0.349646,-0.366911,1.35471,0.0393294,-0.684428,0.390271,-0.83931,0.372984,-0.397357,1.42869,0.0353512,-11.8326,-8.52298,-16.3577,21.666,-2.25645,-1.10026,-0.0190333,-1.73471,-1.04027,-1.55661,3.38472,-0.944251,0.0425968,-0.0895701
2199431,1,-1.60133,-0.505595,-0.0328652,-2.08039,-1.58615,1.63408,0.786944,-1.60507,-0.505039,-0.0371502,-2.07688,-1.58898,1.63779,0.787124,-0.643587,0.380277,-0.767098,0.351838,-0.37322,1.36697,0.0399096,-0.689058,0.393875,-0.8493,0.376632,-0.401532,1.44227,0.0357077,-11.9079,-8.57059,-16.2585,21.666,-2.27934,-1.19089,-0.0510767,-1.79122,-1.02389,-1.63809,3.37809,-0.956328,0.033691,-0.0900813
2199432,1,-1.60201,-0.505197,-0.0336699,-2.08001,-1.58654,1.63551,0.786971,-1.60576,-0.504642,-0.0380093,-2.0765,-1.58938,1.63924,0.78716,-0.657003,0.384645,-0.795479,0.367976,-0.376951,1.37306,0.0355797,-0.692514,0.396975,-0.859101,0.379862,-0.405347,1.45428,0.0360576,-11.7056,-8.67374,-16.1791,21.543,-2.33061,-1.19089,0.0459692,-1.84677,-0.996478,-1.71798,3.36298,-0.968201,0.0258196,-0.0902566
2199433,1,-1.6027,-0.504789,-0.0344766,-2.07963,-1.58692,1.63691,0.78701,-1.60646,-0.504242,-0.0388782,-2.07611,-1.58979,1.64071,0.787196,-0.667582,0.391692,-0.79855,0.377418,-0.380176,1.3807,0.0341874,-0.695969,0.400074,-0.868902,0.383093,-0.409163,1.4663,0.0364075,-11.4795,-8.80069,-16.2823,21.4914,-2.3416,-0.984899,-0.0254419,-1.88646,-0.957872,-1.77512,3.33504,-0.979343,0.0210919,-0.0902131
2199434,1,-1.60338,-0.504377,-0.0353219,-2.07924,-1.58731,1.63837,0.787037,-1.60716,-0.503839,-0.0397569,-2.07573,-1.59021,1.64219,0.787233,-0.670293,0.397004,-0.807948,0.381398,-0.386808,1.4011,0.0270931,-0.699424,0.403173,-0.878703,0.386323,-0.412978,1.47831,0.0367574,-11.4517,-8.95145,-16.1791,21.416,-2.3416,-0.933629,0.0587866,-1.91093,-0.914611,-1.81126,3.29597,-0.989883,0.0191936,-0.0899752
2199435,1,-1.60406,-0.503976,-0.0361824,-2.07886,-1.58772,1.63983,0.787071,-1.60786,-0.503433,-0.0406454,-2.07534,-1.59062,1.64368,0.78727,-0.669443,0.396347,-0.821416,0.381975,-0.3918,1.4202,0.0252785,-0.702879,0.406273,-0.888504,0.389554,-0.416794,1.49033,0.0371074,-11.4795,-9.02682,-15.6991,21.4676,-2.26286,-0.919896,0.0587866,-1.92979,-0.873346,-1.84007,3.25247,-1.00029,0.0185572,-0.0895445
2199436,1,-1.60477,-0.503573,-0.0370492,-2.07847,-1.58812,1.64131,0.787106,-1.60857,-0.503024,-0.0415437,-2.07495,-1.59104,1.64518,0.787308,-0.689187,0.395961,-0.833455,0.384021,-0.395214,1.43498,0.0250047,-0.706334,0.409372,-0.898305,0.392784,-0.420609,1.50234,0.0374573,-11.0986,-9.00302,-15.473,21.4438,-2.25645,-0.849401,0.0258276,-1.94341,-0.830984,-1.86185,3.20784,-1.01065,0.0191819,-0.088911
2199437,1,-1.60551,-0.503174,-0.0379338,-2.07807,-1.58852,1.64281,0.787138,-1.60928,-0.502611,-0.0424518,-2.07455,-1.59147,1.64669,0.787345,-0.709791,0.401618,-0.848312,0.388764,-0.395065,1.44751,0.0278745,-0.709789,0.412472,-0.908106,0.396015,-0.424425,1.51436,0.0378072,-10.3171,-8.89987,-15.1675,21.4438,-2.25645,-0.791722,0.0322363,-1.94162,-0.784651,-1.86329,3.16326,-1.02069,0.0226617,-0.0880627
2199438,1,-1.60624,-0.502775,-0.0388361,-2.07767,-1.58893,1.64431,0.787186,-1.60999,-0.502196,-0.0433697,-2.07415,-1.5919,1.64822,0.787384,-0.71474,0.401666,-0.870823,0.391977,-0.398152,1.46453,0.0341688,-0.713244,0.415571,-0.917907,0.399245,-0.42824,1.52638,0.0381571,-9.94017,-8.89987,-14.6359,21.4676,-2.29033,-0.817357,-0.0712183,-1.91432,-0.736077,-1.83059,3.11988,-1.03015,0.0304967,-0.0870382
2199439,1,-1.60695,-0.502366,-0.0397598,-2.07727,-1.58935,1.64584,0.787214,-1.61071,-0.501777,-0.0442974,-2.07375,-1.59233,1.64976,0.787422,-0.714894,0.399677,-0.886233,0.391923,-0.409712,1.4785,0.0316089,-0.7167,0.418671,-0.927708,0.402476,-0.432056,1.53839,0.038507,-9.73784,-8.95145,-14.0527,21.543,-2.30223,-0.965673,0.0130102,-1.8618,-0.682689,-1.76317,3.07737,-1.03893,0.0425656,-0.0859394
2199440,1,-1.60769,-0.501951,-0.0406639,-2.07687,-1.58976,1.64735,0.787247,-1.61143,-0.501355,-0.0452349,-2.07334,-1.59277,1.65131,0.787461,-0.73084,0.405463,-0.894122,0.39668,-0.407005,1.49243,0.0327317,-0.720155,0.42177,-0.937509,0.405706,-0.435871,1.55041,0.0388569,-9.2578,-9.05063,-13.8027,21.5906,-2.26835,-1.01053,0.0258276,-1.79155,-0.623248,-1.6715,3.03605,-1.04724,0.0575123,-0.0848682
2199441,1,-1.60842,-0.501523,-0.0415939,-2.07646,-1.59019,1.64887,0.787287,-1.61215,-0.50093,-0.0461822,-2.07293,-1.5932,1.65287,0.7875,-0.740566,0.411056,-0.906812,0.399964,-0.416789,1.48804,0.0347057,-0.72361,0.42487,-0.94731,0.408937,-0.439687,1.56242,0.0392068,-9.08324,-9.22916,-13.5964,21.666,-2.26835,-0.907079,0.00660151,-1.70827,-0.565524,-1.56362,2.99866,-1.05536,0.0742621,-0.083819
2199442,1,-1.60914,-0.50109,-0.0425426,-2.07604,-1.59061,1.6504,0.787329,-1.61288,-0.500503,-0.0471384,-2.07252,-1.59365,1.65444,0.78754,-0.730488,0.413431,-0.910528,0.402773,-0.414448,1.49955,0.0320174,-0.726028,0.427417,-0.956171,0.4117,-0.443036,1.57272,0.0395574,-9.15862,-9.45529,-13.4734,21.7414,-2.32512,-0.766088,-0.0318506,-1.62031,-0.516826,-1.45175,2.96756,-1.06363,0.0913442,-0.0827424
2199443,1,-1.60987,-0.500663,-0.0434737,-2.07563,-1.59104,1.65193,0.787365,-1.61361,-0.500073,-0.0481035,-2.07211,-1.59409,1.65603,0.78758,-0.719654,0.420238,-0.917632,0.405012,-0.419941,1.51283,0.0288034,-0.728447,0.429963,-0.965033,0.414462,-0.446384,1.58302,0.039908,-9.38475,-9.63382,-13.5964,21.789,-2.33061,-0.785314,-0.0382593,-1.54675,-0.481693,-1.36138,2.94451,-1.07259,0.105865,-0.0816584
2199444,1,-1.6106,-0.500219,-0.0444043,-2.07523,-1.5915,1.65355,0.787409,-1.61434,-0.49964,-0.0490773,-2.07169,-1.59454,1.65762,0.78762,-0.716078,0.42519,-0.91164,0.403331,-0.43152,1.54308,0.0321168,-0.730866,0.43251,-0.973895,0.417225,-0.449733,1.59332,0.0402585,-9.61089,-9.83615,-14.0289,21.9635,-2.27385,-1.30076,-0.0712183,-1.5063,-0.46753,-1.31756,2.93321,-1.08278,0.114937,-0.080616
2199445,1,-1.61131,-0.499786,-0.0453601,-2.07481,-1.59195,1.65513,0.787459,-1.61507,-0.499205,-0.0500601,-2.07127,-1.595,1.65922,0.78766,-0.709887,0.425139,-0.925087,0.40941,-0.434018,1.59321,0.0359694,-0.733284,0.435057,-0.982756,0.419988,-0.453082,1.60362,0.0406091,-10.1147,-9.98691,-14.0804,21.9873,-2.23448,-1.50675,-0.141714,-1.50729,-0.474329,-1.33166,2.93374,-1.09428,0.116821,-0.0796989
2199446,1,-1.61204,-0.499351,-0.0463207,-2.0744,-1.5924,1.65671,0.787507,-1.61581,-0.498768,-0.0510517,-2.07085,-1.59545,1.66084,0.787701,-0.70976,0.427869,-0.93796,0.409631,-0.442775,1.58248,0.037676,-0.735703,0.437604,-0.991618,0.422751,-0.456431,1.61392,0.0409596,-10.3686,-10.1139,-14.1796,22.0627,-2.21159,-1.28702,-0.18749,-1.54219,-0.491632,-1.39213,2.94064,-1.10655,0.112082,-0.0790391
2199447,1,-1.61276,-0.498905,-0.0472778,-2.07398,-1.59285,1.65832,0.787546,-1.61654,-0.498328,-0.0520522,-2.07042,-1.59591,1.66246,0.787743,-0.716387,0.434382,-0.935701,0.408085,-0.442232,1.59063,0.0349251,-0.738121,0.440151,-1.00048,0.425513,-0.459779,1.62422,0.0413102,-10.4956,-10.3162,-14.4573,22.2135,-2.17222,-1.28702,-0.122488,-1.59762,-0.517075,-1.47967,2.95367,-1.11921,0.102785,-0.0787343
2199448,1,-1.61346,-0.49847,-0.0482481,-2.07357,-1.59332,1.65994,0.787596,-1.61728,-0.497885,-0.0530615,-2.06999,-1.59638,1.6641,0.787784,-0.709615,0.436627,-0.949434,0.410441,-0.441863,1.60002,0.0413056,-0.74054,0.442698,-1.00934,0.428276,-0.463128,1.63451,0.0416607,-10.8963,-10.3916,-14.255,22.2135,-2.13286,-1.40329,-0.149038,-1.6675,-0.555202,-1.58603,2.97618,-1.13224,0.0902356,-0.0788308
2199449,1,-1.61416,-0.498021,-0.0492251,-2.07314,-1.59378,1.66161,0.787636,-1.61803,-0.49744,-0.0540797,-2.06956,-1.59684,1.66574,0.787826,-0.70432,0.439733,-0.947063,0.416042,-0.452807,1.61188,0.0422368,-0.742959,0.445244,-1.0182,0.431039,-0.466477,1.64481,0.0420113,-11.2256,-10.5701,-14.1042,22.2611,-2.18321,-1.73197,-0.077627,-1.75251,-0.602466,-1.71143,3.00524,-1.14545,0.0746479,-0.0793394
2199450,1,-1.6149,-0.49758,-0.0501934,-2.07273,-1.59423,1.66326,0.787703,-1.61877,-0.496992,-0.0551068,-2.06913,-1.59731,1.6674,0.787869,-0.71458,0.447545,-0.973271,0.417193,-0.444727,1.6175,0.0474984,-0.745377,0.447791,-1.02706,0.433802,-0.469826,1.65511,0.0423619,-10.9994,-10.6455,-14.1558,22.3603,-2.28483,-1.58365,-0.246084,-1.84751,-0.655762,-1.84712,3.03747,-1.15848,0.0568615,-0.0802031
2199451,1,-1.61565,-0.497129,-0.0511874,-2.07229,-1.59468,1.66488,0.787757,-1.61952,-0.496541,-0.0561427,-2.06869,-1.59779,1.66906,0.787911,-0.724121,0.446587,-0.983128,0.420496,-0.439546,1.61907,0.0457462,-0.747796,0.450338,-1.03593,0.436565,-0.473174,1.66541,0.0427124,-10.6702,-10.7209,-14.0804,22.3603,-2.3416,-1.33921,-0.278127,-1.9341,-0.714214,-1.96613,3.07252,-1.17097,0.0395926,-0.0813824
2199452,1,-1.61637,-0.496669,-0.0522044,-2.07187,-1.59514,1.66652,0.787806,-1.62027,-0.496089,-0.0571861,-2.06825,-1.59826,1.67073,0.787955,-0.717081,0.450543,-0.988756,0.420229,-0.450452,1.61099,0.0468981,-0.749335,0.452302,-1.04338,0.438812,-0.475892,1.67387,0.0430711,-10.7455,-10.8478,-13.8781,22.4356,-2.36449,-1.05539,-0.246084,-2.00439,-0.77198,-2.05797,3.10859,-1.1829,0.024301,-0.0829529
2199453,1,-1.61708,-0.49621,-0.0532134,-2.07144,-1.59561,1.66819,0.787857,-1.62102,-0.495635,-0.058237,-2.06781,-1.59874,1.67242,0.787998,-0.707829,0.455105,-0.997436,0.421781,-0.458393,1.63372,0.0430101,-0.750874,0.454266,-1.05083,0.441059,-0.47861,1.68233,0.0434299,-10.9479,-11.0501,-13.6758,22.4634,-2.3416,-1.13321,-0.206716,-2.06982,-0.829277,-2.13911,3.1462,-1.19471,0.00974389,-0.0849848
2199454,1,-1.61781,-0.495755,-0.054224,-2.07101,-1.59607,1.66987,0.787901,-1.62177,-0.495179,-0.0592952,-2.06737,-1.59922,1.67411,0.788042,-0.72484,0.451038,-0.995775,0.423368,-0.461029,1.65043,0.0383012,-0.752414,0.45623,-1.05829,0.443306,-0.481329,1.69079,0.0437886,-10.9479,-11.1255,-13.775,22.4634,-2.34709,-1.10666,-0.116079,-2.13959,-0.884743,-2.22328,3.18469,-1.20666,-0.00515544,-0.0874604
2199455,1,-1.61854,-0.495297,-0.0552645,-2.07057,-1.59654,1.67157,0.787944,-1.62253,-0.49472,-0.060361,-2.06692,-1.59971,1.67581,0.788086,-0.726356,0.456375,-1.00489,0.425344,-0.460209,1.655,0.0351101,-0.753953,0.458193,-1.06574,0.445553,-0.484047,1.69925,0.0441473,-10.7971,-11.0977,-13.648,22.4356,-2.34709,-1.02335,-0.0254419,-2.21229,-0.930762,-2.31083,3.22028,-1.21865,-0.0199648,-0.0902684
2199456,1,-1.61929,-0.494835,-0.0562869,-2.07013,-1.597,1.67324,0.78799,-1.62328,-0.49426,-0.0614342,-2.06648,-1.60019,1.67751,0.78813,-0.732269,0.45757,-1.01035,0.427974,-0.454306,1.66361,0.0384856,-0.755492,0.460157,-1.0732,0.4478,-0.486765,1.70771,0.044506,-10.5194,-11.2247,-13.4219,22.3603,-2.33061,-0.933629,0.038645,-2.28407,-0.967764,-2.39716,3.25269,-1.23069,-0.0338347,-0.0931869
2199457,1,-1.62003,-0.494374,-0.0573356,-2.06968,-1.59748,1.67497,0.788026,-1.62404,-0.493798,-0.0625148,-2.06603,-1.60068,1.67923,0.788175,-0.738095,0.457493,-1.01838,0.431211,-0.471511,1.67302,0.0343952,-0.757031,0.462121,-1.08065,0.450047,-0.489483,1.71617,0.0448648,-10.0671,-11.3279,-13.0648,22.3127,-2.22899,-0.997716,0.155832,-2.35215,-0.995705,-2.47852,3.28099,-1.24268,-0.0461481,-0.09594
2199458,1,-1.62077,-0.493919,-0.058385,-2.06924,-1.59795,1.67667,0.788074,-1.6248,-0.493334,-0.0636029,-2.06557,-1.60117,1.68096,0.78822,-0.741695,0.456595,-1.03005,0.43214,-0.474711,1.68799,0.0368892,-0.758571,0.464085,-1.08811,0.452294,-0.492201,1.72463,0.0452235,-9.73784,-11.3755,-12.6879,22.2611,-2.17772,-0.965673,0.129282,-2.41266,-1.00936,-2.54991,3.30227,-1.25429,-0.0563387,-0.0982369
2199459,1,-1.6215,-0.493453,-0.0594669,-2.0688,-1.59841,1.6784,0.788104,-1.62556,-0.492868,-0.0646985,-2.06512,-1.60167,1.68269,0.788266,-0.734255,0.458498,-1.05068,0.433868,-0.470094,1.69184,0.0325782,-0.76011,0.466049,-1.09556,0.454541,-0.494919,1.73309,0.0455822,-9.71404,-11.4032,-12.1801,22.2611,-2.25096,-0.855809,0.259287,-2.46161,-1.00836,-2.60467,3.3167,-1.2652,-0.0639404,-0.0998426
2199460,1,-1.62224,-0.492999,-0.0605615,-2.06835,-1.59888,1.68013,0.788149,-1.62632,-0.4924,-0.0658015,-2.06466,-1.60217,1.68443,0.788312,-0.734278,0.453501,-1.06045,0.437937,-0.468991,1.69428,0.0369761,-0.761649,0.468013,-1.10302,0.456788,-0.497637,1.74155,0.045941,-9.46013,-11.2763,-11.7516,22.3127,-2.33061,-0.598546,0.187876,-2.49737,-0.991908,-2.63897,3.32397,-1.27532,-0.0686849,-0.10062
2199461,1,-1.62301,-0.492551,-0.0616356,-2.0679,-1.59934,1.68184,0.788183,-1.62708,-0.49193,-0.066912,-2.0642,-1.60267,1.68618,0.788358,-0.738825,0.450388,-1.06633,0.443467,-0.462385,1.69839,0.0373597,-0.763189,0.469976,-1.11047,0.459035,-0.500355,1.75001,0.0462997,-8.82933,-11.1493,-11.5215,22.2373,-2.43773,-0.392553,0.187876,-2.52174,-0.951159,-2.65601,3.31894,-1.2847,-0.0706102,-0.100512
2199462,1,-1.62378,-0.492083,-0.0627527,-2.06744,-1.59981,1.68361,0.78822,-1.62785,-0.491459,-0.0680283,-2.06374,-1.60317,1.68794,0.788405,-0.744915,0.450647,-1.08049,0.447661,-0.466435,1.70828,0.0382642,-0.764032,0.471357,-1.11629,0.460706,-0.502219,1.75651,0.0466605,-8.34929,-11.1493,-11.0415,22.1143,-2.45512,-0.450231,0.16865,-2.53491,-0.881257,-2.65788,3.29816,-1.29347,-0.0694986,-0.0995582
2199463,1,-1.62455,-0.49161,-0.0638759,-2.06699,-1.60029,1.68534,0.788254,-1.62861,-0.490986,-0.0691504,-2.06328,-1.60367,1.6897,0.788452,-0.750826,0.45455,-1.1141,0.461212,-0.471064,1.7168,0.0346485,-0.764875,0.472738,-1.12211,0.462377,-0.504082,1.76301,0.0470213,-8.07158,-11.3001,-10.3829,21.9873,-2.42033,-0.553685,0.135691,-2.52629,-0.787508,-2.62982,3.26203,-1.30152,-0.0637325,-0.0978573
2199464,1,-1.62534,-0.491136,-0.0650047,-2.06654,-1.60078,1.68712,0.788295,-1.62938,-0.490512,-0.0702783,-2.06282,-1.60418,1.69147,0.788499,-0.763817,0.457471,-1.12235,0.459103,-0.470256,1.73487,0.0381298,-0.765718,0.474119,-1.12793,0.464048,-0.505946,1.76951,0.0473821,-7.56774,-11.4548,-9.97827,21.9635,-2.33061,-0.72672,0.0587866,-2.48317,-0.680923,-2.55327,3.21431,-1.30867,-0.0517434,-0.0955337
2199465,1,-1.62614,-0.490661,-0.0661642,-2.06607,-1.60129,1.6889,0.788355,-1.63014,-0.490036,-0.0714121,-2.06235,-1.60469,1.69325,0.788547,-0.777022,0.461531,-1.13256,0.456881,-0.482203,1.74046,0.0457001,-0.766562,0.4755,-1.13375,0.465719,-0.507809,1.77601,0.0477429,-6.93694,-11.554,-9.52203,21.9397,-2.20061,-0.823766,-0.155447,-2.40619,-0.577936,-2.43019,3.1659,-1.31524,-0.0342884,-0.0927343
2199466,1,-1.62692,-0.490183,-0.0673159,-2.06562,-1.60178,1.69066,0.788398,-1.63091,-0.489559,-0.0725516,-2.06188,-1.6052,1.69503,0.788595,-0.779755,0.467373,-1.13788,0.453638,-0.483734,1.74147,0.0495066,-0.767405,0.476882,-1.13957,0.46739,-0.509673,1.78251,0.0481037,-6.76238,-11.7801,-8.93884,21.8882,-2.12645,-0.868627,-0.206716,-2.30545,-0.495612,-2.27642,3.12932,-1.32172,-0.0135738,-0.0897066
2199467,1,-1.6277,-0.4897,-0.0684653,-2.06515,-1.60228,1.69247,0.788436,-1.63168,-0.489081,-0.073697,-2.06141,-1.60571,1.69682,0.788644,-0.787344,0.468653,-1.13767,0.451556,-0.493814,1.76056,0.043587,-0.768248,0.478263,-1.14539,0.469061,-0.511536,1.78901,0.0484645,-6.4569,-12.0578,-8.73651,21.9159,-2.0587,-1.19089,-0.149038,-2.19515,-0.443288,-2.11295,3.11113,-1.32842,0.00764232,-0.0868371
2199468,1,-1.6285,-0.489231,-0.0695957,-2.06469,-1.60278,1.69429,0.788494,-1.63245,-0.488602,-0.0748482,-2.06094,-1.60622,1.69861,0.788692,-0.790826,0.477582,-1.14356,0.456678,-0.495371,1.77045,0.051373,-0.769092,0.479644,-1.15121,0.470732,-0.5134,1.79551,0.0488254,-6.13158,-12.2364,-8.73651,21.8405,-2.03032,-1.39048,-0.278127,-2.08818,-0.422282,-1.95852,3.11094,-1.33535,0.0267302,-0.0844588
2199469,1,-1.62928,-0.488748,-0.0707433,-2.06421,-1.60327,1.69602,0.788541,-1.63322,-0.488121,-0.0760053,-2.06047,-1.60674,1.70041,0.788742,-0.789395,0.474587,-1.13988,0.463569,-0.4868,1.7571,0.0511801,-0.769935,0.481025,-1.15703,0.472403,-0.515264,1.80202,0.0491862,-6.17919,-12.4149,-8.7127,21.7652,-2.09257,-0.887853,-0.252493,-1.99296,-0.425056,-1.82555,3.12113,-1.34238,0.0419013,-0.0827926
2199470,1,-1.63002,-0.488264,-0.0719198,-2.06374,-1.60378,1.69779,0.788603,-1.63399,-0.487638,-0.0771681,-2.06,-1.60725,1.70222,0.788791,-0.774671,0.477907,-1.14881,0.464676,-0.501333,1.7414,0.0547744,-0.770778,0.482406,-1.16285,0.474074,-0.517127,1.80852,0.049547,-6.63543,-12.5656,-8.53418,21.8405,-2.12645,-0.560094,-0.310171,-1.91727,-0.437342,-1.72504,3.13193,-1.34947,0.0521291,-0.082005
2199471,1,-1.63078,-0.487784,-0.0730688,-2.06326,-1.60429,1.69958,0.788653,-1.63476,-0.487154,-0.0783368,-2.05952,-1.60777,1.70404,0.788841,-0.768486,0.474796,-1.15321,0.471099,-0.500322,1.75901,0.0526732,-0.771622,0.483787,-1.16867,0.475745,-0.518991,1.81502,0.0499078,-7.01232,-12.7442,-8.55798,21.7176,-2.12645,-0.604955,-0.252493,-1.86637,-0.448606,-1.6624,3.13765,-1.3566,0.0573478,-0.0821767
2199472,1,-1.63156,-0.487296,-0.0742349,-2.06278,-1.6048,1.70143,0.788692,-1.63553,-0.48667,-0.0795095,-2.05904,-1.60829,1.70586,0.788891,-0.783933,0.479506,-1.15173,0.473186,-0.507483,1.78106,0.0465558,-0.771958,0.484594,-1.17269,0.476802,-0.519969,1.81944,0.0502548,-7.0877,-12.8672,-8.60956,21.6898,-2.15483,-1.07462,-0.0648096,-1.83898,-0.45394,-1.63448,3.13563,-1.36363,0.0583564,-0.0833058
2199473,1,-1.63235,-0.48679,-0.0754419,-2.06229,-1.6053,1.70326,0.788763,-1.63631,-0.486184,-0.0806862,-2.05857,-1.60881,1.70768,0.788942,-0.787548,0.487135,-1.16605,0.472806,-0.502997,1.78987,0.0580066,-0.772295,0.485402,-1.1767,0.477859,-0.520948,1.82386,0.0506017,-7.04009,-13.1211,-8.2287,21.6144,-2.21159,-1.13321,-0.174673,-1.82539,-0.46128,-1.62705,3.13055,-1.37046,0.0567156,-0.0851934
2199474,1,-1.63316,-0.4863,-0.0766045,-2.06182,-1.60582,1.70505,0.788818,-1.63708,-0.485698,-0.0818669,-2.05809,-1.60934,1.70951,0.788993,-0.791112,0.4903,-1.16645,0.478411,-0.505969,1.78456,0.0612938,-0.772632,0.486209,-1.18072,0.478916,-0.521926,1.82828,0.0509487,-6.63543,-13.2718,-8.2287,21.5906,-2.25096,-0.997716,-0.149038,-1.81571,-0.482762,-1.62444,3.12926,-1.3772,0.0537891,-0.0875198
