shamilmamedov/beam_handling/data/param_estimation_ICRA/ocp_Xdown_35cm_0.57s_2.csv
duration, success rate, q[0], q[1], q[2], q[3], q[4], q[5], q[6],q_d[0], q_d[1], q_d[2], q_d[3], q_d[4], q_d[5], q_d[6],dq[0], dq[1], dq[2], dq[3], dq[4], dq[5], dq[6],dq_d[0], dq_d[1], dq_d[2], dq_d[3], dq_d[4], dq_d[5], dq_d[6],tau_J[0], tau_J[1], tau_J[2], tau_J[3], tau_J[4], tau_J[5], tau_J[6],tau_ext_hat_filtered[0], tau_ext_hat_filtered[1], tau_ext_hat_filtered[2], tau_ext_hat_filtered[3], tau_ext_hat_filtered[4], tau_ext_hat_filtered[5], tau_ext_hat_filtered[6]
3309895,0,-1.57101,-0.522852,-0.000670239,-2.096,-1.57094,1.57158,0.785655,-1.5708,-0.523599,-6.06119e-08,-2.0944,-1.5708,1.5708,0.785399,0.000169694,3.49484e-05,-0.000172854,0.00204951,0.000152157,-0.000193987,-0.00142701,0,0,0,0,0,0,0,0.148632,-10.1377,1.03491,20.9955,-0.707381,-0.611364,-0.0712183,0.168137,-1.00809,0.844554,2.51753,-0.139917,-0.617465,-0.149409
3309896,1,-1.57101,-0.522854,-0.000670239,-2.09601,-1.57094,1.57158,0.785657,-1.5708,-0.523599,-6.06119e-08,-2.0944,-1.5708,1.5708,0.785399,-0.000536484,-0.000533513,-0.000115236,-0.000396896,0.000304889,0.000345393,-0.000476619,0,0,0,0,0,0,0,0.176403,-10.1139,1.03491,21.0709,-0.712874,-0.624181,-0.0840357,0.168203,-1.00692,0.845048,2.5166,-0.139878,-0.617338,-0.149393
3309897,1,-1.57101,-0.522852,-0.00066662,-2.096,-1.57094,1.57158,0.785656,-1.5708,-0.523599,-6.06119e-08,-2.0944,-1.5708,1.5708,0.785399,-0.000357656,0.000201137,0.0011296,0.000385017,-1.91392e-07,-0.000244456,-0.000555105,0,0,0,0,0,0,0,0.176403,-10.1377,0.98334,21.0431,-0.707381,-0.611364,-0.077627,0.168237,-1.00434,0.84536,2.5148,-0.13981,-0.617205,-0.149368
3309898,1,-1.57101,-0.522854,-0.00066662,-2.09601,-1.57094,1.57158,0.785659,-1.5708,-0.523599,-6.06119e-08,-2.0944,-1.5708,1.5708,0.785399,-0.000238437,-0.000422721,0.000753068,-0.000392936,-0.000407029,7.43883e-05,0.000579366,0,0,0,0,0,0,0,0.176403,-10.1139,0.98334,21.0709,-0.696394,-0.617772,-0.103262,0.167708,-1.00188,0.844668,2.51327,-0.139784,-0.617168,-0.149295
3309899,1,-1.57101,-0.522852,-0.000670699,-2.096,-1.57094,1.57158,0.785661,-1.5708,-0.523599,-6.06119e-08,-2.0944,-1.5708,1.5708,0.785399,-0.00071577,0.000274998,-0.000147569,0.000944469,-0.000271352,4.95922e-05,0.00109832,0,0,0,0,0,0,0,0.200207,-10.1377,1.01111,21.0193,-0.696394,-0.617772,-0.122488,0.167053,-0.999582,0.843643,2.51187,-0.139774,-0.617165,-0.149174
3309900,1,-1.57101,-0.522852,-0.000669279,-2.096,-1.57094,1.57158,0.785656,-1.5708,-0.523599,-6.06119e-08,-2.0944,-1.5708,1.5708,0.785399,7.96318e-05,0.000183332,-9.83791e-05,7.28337e-05,2.25489e-05,3.30615e-05,-0.000929299,0,0,0,0,0,0,0,0.176403,-10.1377,1.01111,21.0431,-0.701887,-0.617772,-0.077627,0.166989,-0.997732,0.84342,2.51054,-0.139741,-0.617092,-0.149035
3309901,1,-1.57101,-0.522854,-0.000665186,-2.09601,-1.57094,1.57159,0.785655,-1.5708,-0.523599,-6.06119e-08,-2.0944,-1.5708,1.5708,0.785399,-0.000503724,-0.000434591,0.00114084,4.85558e-05,1.50326e-05,0.000496759,-0.00109425,0,0,0,0,0,0,0,0.200207,-10.1139,0.959536,21.0431,-0.701887,-0.63059,-0.0648096,0.16703,-0.996351,0.843265,2.50946,-0.139698,-0.617024,-0.148901
3309902,1,-1.57101,-0.522856,-0.000670318,-2.09601,-1.57094,1.57158,0.785658,-1.5708,-0.523599,-6.06119e-08,-2.0944,-1.5708,1.5708,0.785399,0.00087061,-0.000846539,-0.00100268,-0.00117406,-0.000193429,-0.000143545,0.000457294,0,0,0,0,0,0,0,0.148632,-10.0901,1.03491,21.0947,-0.696394,-0.617772,-0.0968531,0.166837,-0.994738,0.842667,2.50875,-0.139664,-0.617006,-0.148751
3309903,1,-1.57101,-0.522854,-0.000668595,-2.096,-1.57094,1.57158,0.78566,-1.5708,-0.523599,-6.06119e-08,-2.0944,-1.5708,1.5708,0.785399,-0.00127563,-7.5474e-06,-0.00011164,0.000423722,7.4498e-05,0.000141662,0.000779581,0,0,0,0,0,0,0,0.227978,-10.1139,1.01111,21.0431,-0.701887,-0.624181,-0.10967,0.167172,-0.992914,0.842823,2.50843,-0.13962,-0.616925,-0.14856
3309904,1,-1.57101,-0.522854,-0.000670248,-2.09601,-1.57094,1.57158,0.78566,-1.5708,-0.523599,-6.06119e-08,-2.0944,-1.5708,1.5708,0.785399,-0.000200808,-5.0316e-06,-0.000631239,-0.000367132,4.96653e-05,-0.000142918,0.000519721,0,0,0,0,0,0,0,0.200207,-10.1139,1.03491,21.0709,-0.701887,-0.617772,-0.10967,0.168457,-0.991616,0.844292,2.50839,-0.139549,-0.616732,-0.148344
3309905,1,-1.57101,-0.522856,-0.000670242,-2.096,-1.57094,1.57158,0.785658,-1.5708,-0.523599,-6.06119e-08,-2.0944,-1.5708,1.5708,0.785399,-0.000133872,-0.000560166,-0.000420826,0.000404859,0.000440011,0.000142081,-0.000128238,0,0,0,0,0,0,0,0.200207,-10.0901,1.03491,21.0431,-0.712874,-0.624181,-0.0968531,0.170189,-0.990651,0.846326,2.50839,-0.139457,-0.616503,-0.148138
3309906,1,-1.57101,-0.522856,-0.00067024,-2.09601,-1.57094,1.57158,0.785654,-1.5708,-0.523599,-6.06119e-08,-2.0944,-1.5708,1.5708,0.785399,-8.92481e-05,-0.000373444,-0.000280551,0.000269906,-0.000317011,-0.000142639,-0.00150965,0,0,0,0,0,0,0,0.200207,-10.0901,1.03491,21.0431,-0.696394,-0.617772,-0.0584009,0.171821,-0.989047,0.848165,2.50794,-0.139349,-0.616307,-0.147963
3309907,1,-1.57101,-0.522852,-0.000668569,-2.096,-1.57094,1.57158,0.78566,-1.5708,-0.523599,-6.06119e-08,-2.0944,-1.5708,1.5708,0.785399,0.00114693,0.000864661,0.000369778,0.00129356,-7.88996e-06,-9.50924e-05,0.0011298,0,0,0,0,0,0,0,0.148632,-10.1377,1.01111,20.9955,-0.701887,-0.617772,-0.116079,0.172697,-0.987477,0.848897,2.50711,-0.139248,-0.616248,-0.147798
3309908,1,-1.571,-0.522854,-0.000672188,-2.096,-1.57094,1.57159,0.785662,-1.5708,-0.523599,-6.06119e-08,-2.0944,-1.5708,1.5708,0.785399,0.00132143,1.96288e-05,-0.000959907,-0.00025125,0.000198191,0.000411323,0.00122792,0,0,0,0,0,0,0,0.124828,-10.1139,1.06269,21.0431,-0.707381,-0.63059,-0.128897,0.172441,-0.987291,0.848168,2.50657,-0.13919,-0.61639,-0.147619
3309909,1,-1.57101,-0.522852,-0.000670239,-2.09601,-1.57094,1.57159,0.785664,-1.5708,-0.523599,-6.06119e-08,-2.0944,-1.5708,1.5708,0.785399,-0.0015319,0.000569898,9.67592e-06,-0.000817114,0.000132127,3.68564e-05,0.0015646,0,0,0,0,0,0,0,0.227978,-10.1377,1.03491,21.0709,-0.707381,-0.624181,-0.149038,0.172096,-0.988798,0.847504,2.50713,-0.139183,-0.616567,-0.14745
3309910,1,-1.57101,-0.522852,-0.000670239,-2.096,-1.57094,1.57158,0.785655,-1.5708,-0.523599,-6.06119e-08,-2.0944,-1.5708,1.5708,0.785399,0.00018516,0.000379932,6.45061e-06,0.000661683,-0.000115366,-0.000212788,-0.00183915,0,0,0,0,0,0,0,0.176403,-10.1377,1.03491,21.0193,-0.701887,-0.617772,-0.0712183,0.172416,-0.991518,0.847778,2.50865,-0.139208,-0.616663,-0.147344
3309911,1,-1.57101,-0.52285,-0.000670239,-2.096,-1.57094,1.57158,0.785657,-1.5708,-0.523599,-6.06119e-08,-2.0944,-1.5708,1.5708,0.785399,0.000773054,0.000902902,4.30041e-06,0.000441122,-7.69106e-05,9.55003e-05,-0.000751383,0,0,0,0,0,0,0,0.148632,-10.1654,1.03491,21.0193,-0.701887,-0.624181,-0.0840357,0.172592,-0.994559,0.84784,2.5101,-0.13924,-0.616793,-0.14732
3309912,1,-1.57101,-0.522852,-0.000670239,-2.09601,-1.57094,1.57159,0.785661,-1.5708,-0.523599,-6.06119e-08,-2.0944,-1.5708,1.5708,0.785399,-0.000134245,-4.76794e-05,2.86694e-06,-0.000912344,0.000152177,6.36668e-05,0.000923232,0,0,0,0,0,0,0,0.176403,-10.1377,1.03491,21.0709,-0.707381,-0.624181,-0.122488,0.172232,-0.997652,0.847242,2.51147,-0.139287,-0.617005,-0.147331
3309913,1,-1.57101,-0.522854,-0.000672188,-2.09601,-1.57094,1.57159,0.785658,-1.5708,-0.523599,-6.06119e-08,-2.0944,-1.5708,1.5708,0.785399,-8.94963e-05,-0.000588598,-0.000647703,-0.00060823,0.000304902,-0.000194914,-0.000333948,0,0,0,0,0,0,0,0.176403,-10.1139,1.06269,21.0709,-0.712874,-0.617772,-0.0968531,0.172054,-0.99998,0.846978,2.51294,-0.139346,-0.617172,-0.147345
3309914,1,-1.57101,-0.522854,-0.000670239,-2.09601,-1.57094,1.57159,0.785662,-1.5708,-0.523599,-6.06119e-08,-2.0944,-1.5708,1.5708,0.785399,-5.96642e-05,-0.000392399,0.000217812,0.000244128,-1.82699e-07,0.000107416,0.000964163,0,0,0,0,0,0,0,0.176403,-10.1139,1.03491,21.0431,-0.707381,-0.624181,-0.128897,0.172315,-1.00031,0.84737,2.51376,-0.139383,-0.617241,-0.147374
3309915,1,-1.57101,-0.522854,-0.000670239,-2.09601,-1.57094,1.57158,0.785655,-1.5708,-0.523599,-6.06119e-08,-2.0944,-1.5708,1.5708,0.785399,0.000609838,-0.000261599,0.000145208,0.000162752,-1.218e-07,7.16107e-05,-0.00149346,0,0,0,0,0,0,0,0.148632,-10.1139,1.03491,21.0431,-0.707381,-0.624181,-0.0712183,0.172348,-0.998881,0.847452,2.51354,-0.139401,-0.617323,-0.147428
3309916,1,-1.57101,-0.52285,-0.000670699,-2.09601,-1.57094,1.57158,0.785655,-1.5708,-0.523599,-6.06119e-08,-2.0944,-1.5708,1.5708,0.785399,-0.000799867,0.00103203,0.000653617,-0.000541113,-8.11997e-08,-0.000189618,-0.000995637,0,0,0,0,0,0,0,0.200207,-10.1654,1.01111,21.0709,-0.707381,-0.617772,-0.0712183,0.171896,-0.99788,0.846857,2.51332,-0.139442,-0.617482,-0.147498
3309917,1,-1.57101,-0.52285,-0.000670949,-2.096,-1.57094,1.57158,0.785654,-1.5708,-0.523599,-6.06119e-08,-2.0944,-1.5708,1.5708,0.785399,2.3567e-05,0.000688018,-0.000121067,0.000845684,-5.41331e-08,-0.000363771,-0.00113848,0,0,0,0,0,0,0,0.176403,-10.1654,1.03491,21.0193,-0.707381,-0.611364,-0.0584009,0.171452,-0.998978,0.846278,2.51392,-0.139523,-0.617663,-0.147538
3309918,1,-1.57101,-0.522852,-0.000666856,-2.096,-1.57094,1.57158,0.785659,-1.5708,-0.523599,-6.06119e-08,-2.0944,-1.5708,1.5708,0.785399,1.57114e-05,-0.000190936,0.00112571,0.000563789,-3.60887e-08,-0.000242514,0.000902529,0,0,0,0,0,0,0,0.176403,-10.1377,0.98334,21.0193,-0.707381,-0.611364,-0.103262,0.170976,-1.0004,0.845608,2.51425,-0.139602,-0.617844,-0.147507
3309919,1,-1.57101,-0.52285,-0.000673937,-2.09601,-1.57094,1.57158,0.785662,-1.5708,-0.523599,-6.06119e-08,-2.0944,-1.5708,1.5708,0.785399,0.000660088,0.000522324,-0.00166238,-0.000830566,0.000203426,-0.000161676,0.00155112,0,0,0,0,0,0,0,0.148632,-10.1654,1.08649,21.0709,-0.712874,-0.611364,-0.128897,0.170512,-1.0011,0.845002,2.51412,-0.139675,-0.617992,-0.147398
3309920,1,-1.57101,-0.52285,-0.000666646,-2.09601,-1.57094,1.57159,0.785656,-1.5708,-0.523599,-6.06119e-08,-2.0944,-1.5708,1.5708,0.785399,-0.000766367,0.000348216,0.0013046,9.59031e-05,0.000135618,0.000604293,-0.00086479,0,0,0,0,0,0,0,0.200207,-10.1654,0.98334,21.0431,-0.712874,-0.63059,-0.077627,0.170451,-1.00238,0.8451,2.51458,-0.139769,-0.618055,-0.147246
3309921,1,-1.57101,-0.522856,-0.000668577,-2.09601,-1.57094,1.57159,0.785659,-1.5708,-0.523599,-6.06119e-08,-2.0944,-1.5708,1.5708,0.785399,4.59005e-05,-0.00153109,0.00022012,6.39354e-05,9.04118e-05,0.000402862,0.000372909,0,0,0,0,0,0,0,0.176403,-10.0901,1.01111,21.0431,-0.712874,-0.63059,-0.103262,0.170333,-1.00266,0.844994,2.51471,-0.139866,-0.618102,-0.147099
3309922,1,-1.57101,-0.522856,-0.000668571,-2.09601,-1.57094,1.57159,0.785655,-1.5708,-0.523599,-6.06119e-08,-2.0944,-1.5708,1.5708,0.785399,0.000680214,-0.00102073,0.000146747,-0.00060699,-0.000143176,0.000505933,-0.000938189,0,0,0,0,0,0,0,0.148632,-10.0901,1.01111,21.0709,-0.707381,-0.636998,-0.0712183,0.169852,-0.999758,0.844193,2.51347,-0.139938,-0.618171,-0.146966
3309923,1,-1.57101,-0.52285,-0.000666621,-2.09601,-1.57094,1.57159,0.78566,-1.5708,-0.523599,-6.06119e-08,-2.0944,-1.5708,1.5708,0.785399,-0.00075295,0.00108275,0.000747445,0.000244954,-9.54507e-05,-0.000137429,0.00103605,0,0,0,0,0,0,0,0.200207,-10.1654,0.98334,21.0431,-0.707381,-0.624181,-0.116079,0.169249,-0.996394,0.843187,2.51215,-0.140022,-0.618272,-0.146827
3309924,1,-1.57101,-0.522854,-0.000670239,-2.096,-1.57094,1.57159,0.78566,-1.5708,-0.523599,-6.06119e-08,-2.0944,-1.5708,1.5708,0.785399,0.000704459,-0.000484591,-0.000708129,0.000163302,-0.000267084,-9.16193e-05,0.000690702,0,0,0,0,0,0,0,0.148632,-10.1139,1.03491,21.0431,-0.701887,-0.624181,-0.116079,0.168889,-0.995017,0.842538,2.51158,-0.140131,-0.618387,-0.146674
3309925,1,-1.57101,-0.522854,-0.000670239,-2.096,-1.57094,1.57158,0.78566,-1.5708,-0.523599,-6.06119e-08,-2.0944,-1.5708,1.5708,0.785399,-0.000736786,-0.000323061,-0.000472086,0.00066568,-0.000178056,-0.000535797,0.000223109,0,0,0,0,0,0,0,0.200207,-10.1139,1.03491,21.0193,-0.701887,-0.611364,-0.10967,0.169312,-0.993799,0.843072,2.51081,-0.140204,-0.618404,-0.146536
3309926,1,-1.57101,-0.522856,-0.000673858,-2.096,-1.57094,1.57158,0.785655,-1.5708,-0.523599,-6.06119e-08,-2.0944,-1.5708,1.5708,0.785399,0.000715235,-0.000772186,-0.00152115,0.0010006,0.000288197,0.00011752,-0.00127541,0,0,0,0,0,0,0,0.148632,-10.0901,1.08649,20.9955,-0.712874,-0.624181,-0.0712183,0.170734,-0.991097,0.845127,2.50901,-0.140197,-0.618256,-0.146446
3309927,1,-1.57101,-0.522854,-0.00066662,-2.09601,-1.57094,1.57158,0.785657,-1.5708,-0.523599,-6.06119e-08,-2.0944,-1.5708,1.5708,0.785399,-0.000172791,4.20213e-05,0.00139875,-0.00165298,0.000192131,-0.000159013,-0.000375558,0,0,0,0,0,0,0,0.176403,-10.1139,0.98334,21.0947,-0.712874,-0.617772,-0.0840357,0.172153,-0.988316,0.847256,2.50729,-0.14018,-0.618098,-0.146389
3309928,1,-1.57101,-0.522854,-0.000670239,-2.096,-1.57094,1.57158,0.785662,-1.5708,-0.523599,-6.06119e-08,-2.0944,-1.5708,1.5708,0.785399,0.00053442,2.80142e-05,-0.000273925,0.000104437,-0.000278814,0.000131351,0.00141114,0,0,0,0,0,0,0,0.148632,-10.1139,1.03491,21.0431,-0.701887,-0.624181,-0.128897,0.172472,-0.98757,0.847807,2.50714,-0.140257,-0.61812,-0.14632
3309929,1,-1.57101,-0.522852,-0.000670239,-2.09601,-1.57094,1.57159,0.785661,-1.5708,-0.523599,-6.06119e-08,-2.0944,-1.5708,1.5708,0.785399,0.00035628,0.000575488,-0.000182616,6.96244e-05,-0.000185876,-0.00062451,0.000703401,0,0,0,0,0,0,0,0.148632,-10.1377,1.03491,21.0431,-0.701887,-0.604955,-0.122488,0.172165,-0.988695,0.847533,2.50802,-0.140391,-0.618248,-0.146237
3309930,1,-1.57101,-0.522852,-0.00066662,-2.09601,-1.57094,1.57158,0.78566,-1.5708,-0.523599,-6.06119e-08,-2.0944,-1.5708,1.5708,0.785399,0.00023752,0.000383659,0.00108468,-0.00116001,-0.000123917,-0.000178981,0.000231575,0,0,0,0,0,0,0,0.148632,-10.1377,0.98334,21.0947,-0.701887,-0.611364,-0.116079,0.171532,-0.991281,0.846899,2.50957,-0.140548,-0.618421,-0.146179
3309931,1,-1.57101,-0.522854,-0.000668569,-2.09601,-1.57094,1.57158,0.785658,-1.5708,-0.523599,-6.06119e-08,-2.0944,-1.5708,1.5708,0.785399,-0.000491267,-0.000301039,7.35071e-05,-0.000216528,-8.26114e-05,0.000118038,-0.000795052,0,0,0,0,0,0,0,0.176403,-10.1139,1.01111,21.0709,-0.701887,-0.617772,-0.0904444,0.170528,-0.994601,0.84569,2.51174,-0.140725,-0.618626,-0.146175
3309932,1,-1.57101,-0.52285,-0.00067237,-2.096,-1.57094,1.57159,0.785655,-1.5708,-0.523599,-6.06119e-08,-2.0944,-1.5708,1.5708,0.785399,0.000322102,0.00100573,-0.000507807,0.00106207,0.000555277,0.000316051,-0.00124211,0,0,0,0,0,0,0,0.148632,-10.1654,1.03491,21.0193,-0.718367,-0.624181,-0.0712183,0.169876,-0.997307,0.844969,2.51344,-0.14085,-0.618741,-0.146223
3309933,1,-1.57101,-0.522852,-0.000669279,-2.09601,-1.57094,1.57159,0.785657,-1.5708,-0.523599,-6.06119e-08,-2.0944,-1.5708,1.5708,0.785399,-0.0016413,2.08747e-05,0.000218274,-0.00105519,-3.67162e-05,-2.66582e-05,-0.000353357,0,0,0,0,0,0,0,0.227978,-10.1377,1.01111,21.0947,-0.707381,-0.617772,-0.0840357,0.170075,-0.999757,0.845478,2.51465,-0.140913,-0.618708,-0.146284
3309934,1,-1.57101,-0.522852,-0.000670476,-2.09601,-1.57094,1.57159,0.785658,-1.5708,-0.523599,-6.06119e-08,-2.0944,-1.5708,1.5708,0.785399,0.000761837,1.39164e-05,-0.000411296,0.000502967,-0.000431378,0.000456946,0.000239147,0,0,0,0,0,0,0,0.148632,-10.1377,1.03491,21.0431,-0.696394,-0.63059,-0.0968531,0.170839,-1.00184,0.846734,2.51574,-0.140956,-0.618582,-0.146313
3309935,1,-1.57101,-0.522854,-0.000668647,-2.09601,-1.57094,1.57158,0.785662,-1.5708,-0.523599,-6.06119e-08,-2.0944,-1.5708,1.5708,0.785399,0.000507891,-0.000547534,0.000282615,-0.000314303,-8.41351e-05,-0.000407446,0.00134623,0,0,0,0,0,0,0,0.148632,-10.1139,1.01111,21.0709,-0.701887,-0.611364,-0.128897,0.171287,-1.00238,0.847534,2.51613,-0.140982,-0.618492,-0.146299
3309936,1,-1.57101,-0.522852,-0.000672214,-2.09601,-1.57094,1.57159,0.785658,-1.5708,-0.523599,-6.06119e-08,-2.0944,-1.5708,1.5708,0.785399,-0.00151745,0.000191789,-0.00101802,-0.000209535,0.00014736,0.000677805,-0.000289311,0,0,0,0,0,0,0,0.227978,-10.1377,1.06269,21.0709,-0.707381,-0.636998,-0.0968531,0.171712,-1.00172,0.848313,2.51601,-0.140981,-0.618398,-0.146269
3309937,1,-1.57101,-0.522854,-0.000668759,-2.096,-1.57094,1.57158,0.785655,-1.5708,-0.523599,-6.06119e-08,-2.0944,-1.5708,1.5708,0.785399,-0.000362017,-0.000428953,0.00117736,0.000509924,-0.00010521,-0.000497566,-0.00137967,0,0,0,0,0,0,0,0.200207,-10.1139,0.98334,21.0431,-0.701887,-0.611364,-0.0648096,0.172716,-1.00061,0.849772,2.51571,-0.140947,-0.618227,-0.146252
3309938,1,-1.57101,-0.522852,-0.000669282,-2.09601,-1.57094,1.57158,0.785657,-1.5708,-0.523599,-6.06119e-08,-2.0944,-1.5708,1.5708,0.785399,0.000315468,0.000270844,0.000135294,0.000339949,0.00013331,0.000143007,-0.000207702,0,0,0,0,0,0,0,0.176403,-10.1377,1.01111,21.0431,-0.707381,-0.624181,-0.0840357,0.173246,-0.999031,0.850337,2.51494,-0.140901,-0.618144,-0.146238
3309939,1,-1.57101,-0.522852,-0.000668806,-2.096,-1.57094,1.57158,0.785661,-1.5708,-0.523599,-6.06119e-08,-2.0944,-1.5708,1.5708,0.785399,-0.000996114,0.000180562,9.01962e-05,0.000783445,-0.000114577,-0.000142021,0.00128569,0,0,0,0,0,0,0,0.227978,-10.1377,1.01111,21.0193,-0.701887,-0.617772,-0.122488,0.173234,-0.997564,0.849988,2.51393,-0.140857,-0.618165,-0.146193
3309940,1,-1.57101,-0.522854,-0.000668648,-2.09601,-1.57094,1.57158,0.785662,-1.5708,-0.523599,-6.06119e-08,-2.0944,-1.5708,1.5708,0.785399,0.00119196,-0.000436437,6.01308e-05,-0.00179775,0.000127066,-9.46805e-05,0.00133184,0,0,0,0,0,0,0,0.148632,-10.1139,1.01111,21.1185,-0.707381,-0.617772,-0.135305,0.17322,-0.996798,0.849593,2.51343,-0.140834,-0.618207,-0.146113
3309941,1,-1.57101,-0.522856,-0.000670265,-2.09601,-1.57094,1.57158,0.785661,-1.5708,-0.523599,-6.06119e-08,-2.0944,-1.5708,1.5708,0.785399,-0.000411783,-0.00084777,-0.000516725,0.000564736,8.47106e-05,-6.31203e-05,0.000413176,0,0,0,0,0,0,0,0.200207,-10.0901,1.03491,21.0431,-0.707381,-0.617772,-0.122488,0.173123,-0.995953,0.849094,2.51349,-0.140839,-0.618258,-0.146051
3309942,1,-1.57101,-0.522852,-0.000672197,-2.096,-1.57094,1.57158,0.785655,-1.5708,-0.523599,-6.06119e-08,-2.0944,-1.5708,1.5708,0.785399,0.000931904,0.000548444,-0.000994097,0.000933302,5.64737e-05,-4.20802e-05,-0.00162342,0,0,0,0,0,0,0,0.148632,-10.1377,1.06269,21.0193,-0.707381,-0.617772,-0.0712183,0.173392,-0.994284,0.849205,2.51307,-0.140811,-0.618241,-0.146054
3309943,1,-1.57101,-0.522852,-0.000666623,-2.09601,-1.57094,1.57158,0.785658,-1.5708,-0.523599,-6.06119e-08,-2.0944,-1.5708,1.5708,0.785399,-2.83449e-05,0.000365629,0.00119331,-0.00114104,0.0002411,-0.000265412,-0.000132845,0,0,0,0,0,0,0,0.176403,-10.1377,0.98334,21.0947,-0.712874,-0.611364,-0.0968531,0.173612,-0.993584,0.849338,2.5128,-0.140785,-0.618237,-0.146112
3309944,1,-1.57101,-0.522854,-0.000667081,-2.096,-1.57094,1.57158,0.78566,-1.5708,-0.523599,-6.06119e-08,-2.0944,-1.5708,1.5708,0.785399,-0.000575709,-0.000313059,0.00135235,0.00100255,0.000160733,6.04173e-05,0.000386155,0,0,0,0,0,0,0,0.200207,-10.1139,0.959536,21.0193,-0.712874,-0.617772,-0.10967,0.172903,-0.994233,0.847988,2.51326,-0.140827,-0.61838,-0.146177
3309945,1,-1.57101,-0.522854,-0.000670949,-2.09601,-1.57094,1.57158,0.785662,-1.5708,-0.523599,-6.06119e-08,-2.0944,-1.5708,1.5708,0.785399,-0.000383806,-0.000208706,-0.000861671,-0.000538061,0.000107155,-0.000197081,0.000969513,0,0,0,0,0,0,0,0.200207,-10.1139,1.03491,21.0709,-0.712874,-0.611364,-0.128897,0.172095,-0.994264,0.846251,2.51341,-0.140884,-0.61852,-0.146236
3309946,1,-1.571,-0.522854,-0.000668805,-2.096,-1.57094,1.57158,0.785659,-1.5708,-0.523599,-6.06119e-08,-2.0944,-1.5708,1.5708,0.785399,0.00150737,-0.000139137,-1.76351e-05,0.000290906,-0.000132014,0.000105972,-0.000303094,0,0,0,0,0,0,0,0.124828,-10.1139,1.01111,21.0431,-0.707381,-0.617772,-0.103262,0.171892,-0.993708,0.845432,2.51332,-0.140931,-0.618548,-0.146309
3309947,1,-1.571,-0.522852,-0.000670318,-2.09601,-1.57094,1.57158,0.785655,-1.5708,-0.523599,-6.06119e-08,-2.0944,-1.5708,1.5708,0.785399,0.00100491,0.000464054,-0.000568569,-0.000455676,-0.00029146,0.000308007,-0.00162622,0,0,0,0,0,0,0,0.124828,-10.1377,1.03491,21.0709,-0.701887,-0.624181,-0.0648096,0.171535,-0.993745,0.844668,2.5136,-0.141003,-0.618586,-0.146412
3309948,1,-1.57101,-0.522849,-0.000668595,-2.09601,-1.57094,1.57158,0.785661,-1.5708,-0.523599,-6.06119e-08,-2.0944,-1.5708,1.5708,0.785399,-0.000536485,0.0015158,0.000177766,-0.000303784,0.000416045,-0.00026938,0.00105209,0,0,0,0,0,0,0,0.176403,-10.1892,1.01111,21.0709,-0.718367,-0.611364,-0.122488,0.171047,-0.996008,0.84396,2.515,-0.141121,-0.618652,-0.146518
3309949,1,-1.57101,-0.522852,-0.000668577,-2.09601,-1.57094,1.57158,0.785658,-1.5708,-0.523599,-6.06119e-08,-2.0944,-1.5708,1.5708,0.785399,-0.000357657,-0.000195896,0.000118511,-0.000202523,-0.000332988,-0.000654305,-0.000248045,0,0,0,0,0,0,0,0.176403,-10.1377,1.01111,21.0709,-0.701887,-0.598546,-0.0968531,0.171024,-1.00016,0.84395,2.51737,-0.141268,-0.618652,-0.146596
3309950,1,-1.57101,-0.52285,-0.000674321,-2.09601,-1.57094,1.57158,0.785662,-1.5708,-0.523599,-6.06119e-08,-2.0944,-1.5708,1.5708,0.785399,-0.000238438,0.000519017,-0.00112742,-0.000135015,-0.000425443,0.000275874,0.00102143,0,0,0,0,0,0,0,0.176403,-10.1654,1.06269,21.0709,-0.696394,-0.617772,-0.128897,0.1717,-1.00369,0.844916,2.51944,-0.141391,-0.618516,-0.14666
3309951,1,-1.57101,-0.522852,-0.000667331,-2.096,-1.57094,1.57158,0.785658,-1.5708,-0.523599,-6.06119e-08,-2.0944,-1.5708,1.5708,0.785399,0.000490655,-0.000303603,0.00110443,0.00167323,0.000123273,0.000421275,-0.000743199,0,0,0,0,0,0,0,0.148632,-10.1377,0.98334,20.9955,-0.707381,-0.624181,-0.0904444,0.172515,-1.00521,0.846103,2.52019,-0.14145,-0.618318,-0.146737
3309952,1,-1.57101,-0.522856,-0.000666857,-2.096,-1.57094,1.57158,0.785655,-1.5708,-0.523599,-6.06119e-08,-2.0944,-1.5708,1.5708,0.785399,0.000327104,-0.00131603,0.000736285,0.000558673,8.21818e-05,4.34909e-05,-0.0014449,0,0,0,0,0,0,0,0.148632,-10.0901,0.98334,21.0193,-0.707381,-0.617772,-0.0648096,0.172228,-1.00329,0.845598,2.51869,-0.141437,-0.618239,-0.146843
3309953,1,-1.571,-0.522856,-0.000670318,-2.09601,-1.57094,1.57158,0.785657,-1.5708,-0.523599,-6.06119e-08,-2.0944,-1.5708,1.5708,0.785399,0.000774881,-0.000877351,-0.000715569,-0.00139079,5.47878e-05,2.89939e-05,-0.000251191,0,0,0,0,0,0,0,0.124828,-10.0901,1.03491,21.0947,-0.707381,-0.617772,-0.0840357,0.171167,-0.998601,0.843946,2.51602,-0.141394,-0.618234,-0.146945
3309954,1,-1.57101,-0.522852,-0.000670265,-2.09601,-1.57094,1.57158,0.785659,-1.5708,-0.523599,-6.06119e-08,-2.0944,-1.5708,1.5708,0.785399,-4.02246e-05,0.000528724,-0.000477046,-0.000927193,3.65252e-05,0.000256688,0.000544616,0,0,0,0,0,0,0,0.148632,-10.1377,1.03491,21.0947,-0.707381,-0.624181,-0.103262,0.170549,-0.995093,0.843176,2.51484,-0.141392,-0.618161,-0.146989
3309955,1,-1.57101,-0.522854,-0.000672197,-2.09601,-1.57094,1.57158,0.785664,-1.5708,-0.523599,-6.06119e-08,-2.0944,-1.5708,1.5708,0.785399,-2.68164e-05,-0.00020433,-0.000967645,-6.13165e-05,-0.000382551,-0.000540951,0.0020585,0,0,0,0,0,0,0,0.148632,-10.1139,1.06269,21.0709,-0.696394,-0.604955,-0.149038,0.170816,-0.994361,0.84397,2.51545,-0.141427,-0.617982,-0.146965
3309956,1,-1.57101,-0.522852,-0.000668571,-2.096,-1.57094,1.57158,0.785656,-1.5708,-0.523599,-6.06119e-08,-2.0944,-1.5708,1.5708,0.785399,-0.000667492,0.000420592,0.000561329,0.00116555,-0.000255034,-0.000123275,-0.00127252,0,0,0,0,0,0,0,0.176403,-10.1377,1.01111,21.0193,-0.696394,-0.611364,-0.077627,0.171643,-0.994478,0.845678,2.51609,-0.141436,-0.617729,-0.146926
3309957,1,-1.571,-0.522854,-0.00067024,-2.09601,-1.57094,1.57158,0.785664,-1.5708,-0.523599,-6.06119e-08,-2.0944,-1.5708,1.5708,0.785399,0.000761432,-0.000276417,-0.000182592,0.00022022,-0.000170023,0.000392534,0.00179651,0,0,0,0,0,0,0,0.124828,-10.1139,1.03491,21.0431,-0.696394,-0.624181,-0.149038,0.172138,-0.994164,0.846899,2.51586,-0.141399,-0.617524,-0.146918
3309958,1,-1.57101,-0.522854,-0.00066662,-2.096,-1.57094,1.57158,0.785656,-1.5708,-0.523599,-6.06119e-08,-2.0944,-1.5708,1.5708,0.785399,-4.91909e-05,-0.000184278,0.0010847,0.000703625,9.01021e-05,0.00026169,-0.00144719,0,0,0,0,0,0,0,0.148632,-10.1139,0.98334,21.0193,-0.701887,-0.624181,-0.077627,0.171668,-0.993224,0.846736,2.51499,-0.141339,-0.617458,-0.146951
3309959,1,-1.57101,-0.52285,-0.000668569,-2.09601,-1.57094,1.57159,0.785658,-1.5708,-0.523599,-6.06119e-08,-2.0944,-1.5708,1.5708,0.785399,-3.2794e-05,0.00108357,7.35178e-05,-8.77283e-05,0.000263519,0.00017446,-0.000490072,0,0,0,0,0,0,0,0.148632,-10.1654,1.01111,21.0431,-0.707381,-0.624181,-0.0904444,0.170455,-0.992831,0.845506,2.51433,-0.141283,-0.617517,-0.147023
3309960,1,-1.57101,-0.522852,-0.000670239,-2.096,-1.57094,1.57159,0.785661,-1.5708,-0.523599,-6.06119e-08,-2.0944,-1.5708,1.5708,0.785399,-2.18626e-05,7.27686e-05,-0.0005078,-5.84856e-05,-2.77715e-05,-0.000121052,0.00086008,0,0,0,0,0,0,0,0.148632,-10.1377,1.03491,21.0431,-0.701887,-0.617772,-0.122488,0.169417,-0.994321,0.844601,2.51469,-0.141246,-0.61758,-0.147104
3309961,1,-1.57101,-0.52285,-0.000673858,-2.09601,-1.57094,1.57159,0.785661,-1.5708,-0.523599,-6.06119e-08,-2.0944,-1.5708,1.5708,0.785399,-0.000664189,0.000698126,-0.00154496,-0.00124542,0.000184936,0.000156657,0.000573387,0,0,0,0,0,0,0,0.176403,-10.1654,1.08649,21.0947,-0.707381,-0.624181,-0.122488,0.169554,-0.997281,0.845574,2.51617,-0.141215,-0.61749,-0.147173
3309962,1,-1.571,-0.52285,-0.00066662,-2.096,-1.57094,1.57158,0.785657,-1.5708,-0.523599,-6.06119e-08,-2.0944,-1.5708,1.5708,0.785399,0.000763633,0.000465418,0.00138288,0.00093296,0.000123291,-0.000132921,-0.0010419,0,0,0,0,0,0,0,0.124828,-10.1654,0.98334,21.0193,-0.707381,-0.617772,-0.0840357,0.170192,-1.00094,0.847381,2.51824,-0.141193,-0.617342,-0.147254
3309963,1,-1.57101,-0.522854,-0.000668569,-2.096,-1.57094,1.57159,0.785655,-1.5708,-0.523599,-6.06119e-08,-2.0944,-1.5708,1.5708,0.785399,-4.77231e-05,-0.000896148,0.000272305,0.00117879,8.21939e-05,0.000386104,-0.00116932,0,0,0,0,0,0,0,0.148632,-10.1139,1.01111,20.9955,-0.707381,-0.63059,-0.0712183,0.169703,-1.00278,0.847464,2.51895,-0.141157,-0.617362,-0.147362
3309964,1,-1.571,-0.522854,-0.000668569,-2.096,-1.57094,1.57158,0.785658,-1.5708,-0.523599,-6.06119e-08,-2.0944,-1.5708,1.5708,0.785399,0.000524997,-0.000597432,0.000181537,0.000229045,-0.000148655,-0.000692033,-6.74666e-05,0,0,0,0,0,0,0,0.124828,-10.1139,1.01111,21.0193,-0.701887,-0.604955,-0.0904444,0.168381,-1.00098,0.846203,2.5174,-0.14107,-0.61748,-0.147468
3309965,1,-1.57101,-0.522849,-0.00066662,-2.09601,-1.57094,1.57158,0.78566,-1.5708,-0.523599,-6.06119e-08,-2.0944,-1.5708,1.5708,0.785399,-0.000856428,0.00136495,0.000770639,-0.00105373,0.000307798,0.000250721,0.000667099,0,0,0,0,0,0,0,0.176403,-10.1892,0.98334,21.0709,-0.712874,-0.624181,-0.10967,0.167077,-0.999109,0.844928,2.516,-0.141007,-0.617597,-0.147522
3309966,1,-1.571,-0.522852,-0.000668569,-2.09601,-1.57094,1.57158,0.785662,-1.5708,-0.523599,-6.06119e-08,-2.0944,-1.5708,1.5708,0.785399,0.000635474,-0.000296459,-0.000135855,-5.28722e-05,-0.000405153,-7.02113e-05,0.00115681,0,0,0,0,0,0,0,0.124828,-10.1377,1.01111,21.0431,-0.696394,-0.617772,-0.128897,0.165889,-1.00007,0.843823,2.51642,-0.141025,-0.617727,-0.147518
3309967,1,-1.57101,-0.522852,-0.00066662,-2.096,-1.57094,1.57159,0.78566,-1.5708,-0.523599,-6.06119e-08,-2.0944,-1.5708,1.5708,0.785399,-0.000782777,-0.000197639,0.000559044,0.00107838,0.000136799,0.00042791,5.91295e-05,0,0,0,0,0,0,0,0.176403,-10.1377,0.98334,20.9955,-0.707381,-0.63059,-0.10967,0.164926,-1.00103,0.843001,2.51678,-0.141044,-0.617826,-0.147504
3309968,1,-1.57101,-0.52285,-0.000668569,-2.096,-1.57094,1.57158,0.785658,-1.5708,-0.523599,-6.06119e-08,-2.0944,-1.5708,1.5708,0.785399,0.000127763,0.000517854,-0.000276918,0.000162105,-0.000315702,4.79146e-05,-0.000435298,0,0,0,0,0,0,0,0.148632,-10.1654,1.01111,21.0193,-0.696394,-0.624181,-0.0968531,0.164336,-1.00064,0.842613,2.51603,-0.141009,-0.617866,-0.14752
3309969,1,-1.57101,-0.522852,-0.00066662,-2.09601,-1.57094,1.57158,0.785656,-1.5708,-0.523599,-6.06119e-08,-2.0944,-1.5708,1.5708,0.785399,-0.00112125,-0.000304378,0.000465002,-0.00109836,0.000399884,-0.000680134,-0.00100228,0,0,0,0,0,0,0,0.200207,-10.1377,0.98334,21.0709,-0.712874,-0.604955,-0.077627,0.164256,-1.0007,0.842852,2.51556,-0.140969,-0.617846,-0.147563
3309970,1,-1.57101,-0.522852,-0.000668569,-2.096,-1.57094,1.57158,0.78566,-1.5708,-0.523599,-6.06119e-08,-2.0944,-1.5708,1.5708,0.785399,0.000458925,-0.000202918,-0.000339613,0.001031,0.000266589,2.12954e-05,0.00075597,0,0,0,0,0,0,0,0.148632,-10.1377,1.01111,20.9955,-0.712874,-0.617772,-0.116079,0.164553,-1.00084,0.843504,2.51543,-0.140938,-0.61777,-0.147608
3309971,1,-1.57101,-0.522849,-0.00066662,-2.09601,-1.57094,1.57158,0.78566,-1.5708,-0.523599,-6.06119e-08,-2.0944,-1.5708,1.5708,0.785399,-0.000900476,0.00107115,0.000423206,-0.00042629,-0.000432625,0.000251556,0.00050398,0,0,0,0,0,0,0,0.200207,-10.1892,0.98334,21.0431,-0.696394,-0.624181,-0.116079,0.164923,-1.00105,0.844151,2.51516,-0.140908,-0.617688,-0.147638
3309972,1,-1.57101,-0.522852,-0.000670239,-2.09601,-1.57094,1.57159,0.785662,-1.5708,-0.523599,-6.06119e-08,-2.0944,-1.5708,1.5708,0.785399,-4.35051e-05,-0.000492328,-0.000924289,-0.000933807,0.000118484,-0.000307014,0.00104806,0,0,0,0,0,0,0,0.176403,-10.1377,1.03491,21.0709,-0.707381,-0.611364,-0.135305,0.165527,-1.00253,0.845068,2.51557,-0.140907,-0.61759,-0.147664
3309973,1,-1.57101,-0.522854,-0.000670239,-2.09601,-1.57094,1.57159,0.785655,-1.5708,-0.523599,-6.06119e-08,-2.0944,-1.5708,1.5708,0.785399,0.000620611,-0.000885031,-0.000616193,-0.000622538,7.89894e-05,3.2683e-05,-0.00167488,0,0,0,0,0,0,0,0.148632,-10.1139,1.03491,21.0709,-0.707381,-0.617772,-0.0712183,0.166505,-1.00368,0.846517,2.51632,-0.140914,-0.617428,-0.147719
3309974,1,-1.57101,-0.52285,-0.000670239,-2.09601,-1.57094,1.57158,0.785656,-1.5708,-0.523599,-6.06119e-08,-2.0944,-1.5708,1.5708,0.785399,0.00041374,0.000616405,-0.000410795,0.000234588,5.26596e-05,2.17886e-05,-0.000879228,0,0,0,0,0,0,0,0.148632,-10.1654,1.03491,21.0431,-0.707381,-0.617772,-0.077627,0.167335,-1.00368,0.847826,2.51666,-0.140906,-0.617269,-0.147812
3309975,1,-1.57101,-0.522854,-0.000668569,-2.096,-1.57094,1.57159,0.785659,-1.5708,-0.523599,-6.06119e-08,-2.0944,-1.5708,1.5708,0.785399,0.000275827,-0.000795489,0.000282949,0.000713204,-0.000168344,1.45258e-05,0.000363284,0,0,0,0,0,0,0,0.148632,-10.1139,1.01111,21.0193,-0.701887,-0.617772,-0.103262,0.167569,-1.00314,0.848297,2.51631,-0.140885,-0.617193,-0.147899
3309976,1,-1.57101,-0.522854,-0.000668569,-2.09601,-1.57094,1.57159,0.785658,-1.5708,-0.523599,-6.06119e-08,-2.0944,-1.5708,1.5708,0.785399,0.000183885,-0.000530326,0.000188632,-0.000730956,-0.000112229,0.000247043,-0.000232529,0,0,0,0,0,0,0,0.148632,-10.1139,1.01111,21.0709,-0.701887,-0.624181,-0.0904444,0.16715,-1.00143,0.847758,2.5151,-0.140853,-0.617204,-0.147949
3309977,1,-1.57101,-0.522852,-0.000668569,-2.096,-1.57094,1.57159,0.78566,-1.5708,-0.523599,-6.06119e-08,-2.0944,-1.5708,1.5708,0.785399,0.00012259,0.000203261,0.000125755,0.000719122,-0.00027827,0.000164695,0.000794417,0,0,0,0,0,0,0,0.148632,-10.1377,1.01111,21.0193,-0.696394,-0.624181,-0.116079,0.166324,-0.999365,0.846595,2.51377,-0.140827,-0.617275,-0.14796
3309978,1,-1.57101,-0.522852,-0.000670699,-2.09601,-1.57094,1.57159,0.785654,-1.5708,-0.523599,-6.06119e-08,-2.0944,-1.5708,1.5708,0.785399,-0.0011247,0.000135508,8.38366e-05,-0.000727011,0.000221388,-0.000127562,-0.00160662,0,0,0,0,0,0,0,0.200207,-10.1377,1.01111,21.0709,-0.707381,-0.617772,-0.0584009,0.165695,-0.998481,0.845693,2.51299,-0.140807,-0.617338,-0.147943
3309979,1,-1.57101,-0.522852,-0.000670949,-2.09601,-1.57094,1.57158,0.785659,-1.5708,-0.523599,-6.06119e-08,-2.0944,-1.5708,1.5708,0.785399,-0.000192988,9.03384e-05,-0.000500921,0.00016494,0.000554493,-8.50414e-05,0.000590433,0,0,0,0,0,0,0,0.176403,-10.1377,1.03491,21.0431,-0.718367,-0.617772,-0.103262,0.165791,-0.998894,0.845788,2.51296,-0.140786,-0.617314,-0.147899
3309980,1,-1.57101,-0.522852,-0.000668805,-2.096,-1.57094,1.57158,0.785657,-1.5708,-0.523599,-6.06119e-08,-2.0944,-1.5708,1.5708,0.785399,0.000520956,6.02256e-05,0.000222865,0.000666772,0.000369662,0.000180665,-0.000318455,0,0,0,0,0,0,0,0.148632,-10.1377,1.01111,21.0193,-0.718367,-0.624181,-0.0840357,0.166135,-0.99962,0.846254,2.51301,-0.140764,-0.617263,-0.147817
3309981,1,-1.57101,-0.52285,-0.000670318,-2.096,-1.57094,1.57158,0.78566,-1.5708,-0.523599,-6.06119e-08,-2.0944,-1.5708,1.5708,0.785399,0.000347304,0.000689764,-0.000408235,0.00100133,-0.00016046,-0.000116916,0.000974491,0,0,0,0,0,0,0,0.148632,-10.1654,1.03491,20.9955,-0.707381,-0.617772,-0.116079,0.166035,-1.00018,0.846164,2.51252,-0.14075,-0.61729,-0.147701
3309982,1,-1.57101,-0.522852,-0.000668595,-2.09601,-1.57094,1.57159,0.785659,-1.5708,-0.523599,-6.06119e-08,-2.0944,-1.5708,1.5708,0.785399,-0.00097489,-0.000189771,0.000284655,-0.000446073,-0.000310424,-7.79439e-05,0.000174943,0,0,0,0,0,0,0,0.200207,-10.1377,1.01111,21.0431,-0.701887,-0.617772,-0.103262,0.165867,-1.00094,0.846004,2.51191,-0.140758,-0.617339,-0.147565
3309983,1,-1.57101,-0.522854,-0.000668577,-2.09601,-1.57094,1.57159,0.785653,-1.5708,-0.523599,-6.06119e-08,-2.0944,-1.5708,1.5708,0.785399,-9.31148e-05,-0.000683326,0.00018977,-0.000946996,-0.000206949,-5.19626e-05,-0.00181615,0,0,0,0,0,0,0,0.176403,-10.1139,1.01111,21.0709,-0.701887,-0.617772,-0.0510767,0.16595,-1.00154,0.84609,2.51171,-0.140797,-0.61735,-0.14743
3309984,1,-1.57101,-0.522854,-0.000670242,-2.09601,-1.57094,1.57158,0.785654,-1.5708,-0.523599,-6.06119e-08,-2.0944,-1.5708,1.5708,0.785399,-6.20765e-05,-0.000455551,-0.000430299,-0.000631331,6.54844e-05,-0.000272001,-0.0009395,0,0,0,0,0,0,0,0.176403,-10.1139,1.03491,21.0709,-0.707381,-0.611364,-0.0584009,0.166134,-1.00148,0.84623,2.51194,-0.140858,-0.61733,-0.147291
3309985,1,-1.57101,-0.522852,-0.00067024,-2.096,-1.57094,1.57159,0.78566,-1.5708,-0.523599,-6.06119e-08,-2.0944,-1.5708,1.5708,0.785399,0.00060823,0.000253112,-0.000286866,0.00134235,-0.000159794,5.60252e-05,0.00127254,0,0,0,0,0,0,0,0.148632,-10.1377,1.03491,20.9955,-0.701887,-0.617772,-0.10967,0.166349,-1.0009,0.846464,2.51194,-0.140904,-0.617296,-0.147105
3309986,1,-1.57101,-0.522854,-0.000670239,-2.09601,-1.57094,1.57159,0.785662,-1.5708,-0.523599,-6.06119e-08,-2.0944,-1.5708,1.5708,0.785399,-0.000244128,-0.000388071,-0.000191244,-0.000868337,0.000503822,3.73501e-05,0.00156044,0,0,0,0,0,0,0,0.176403,-10.1139,1.03491,21.0709,-0.718367,-0.617772,-0.128897,0.166492,-1.00015,0.846681,2.51147,-0.140927,-0.617268,-0.146859
3309987,1,-1.57101,-0.522856,-0.00067237,-2.09601,-1.57094,1.57159,0.78566,-1.5708,-0.523599,-6.06119e-08,-2.0944,-1.5708,1.5708,0.785399,-0.000162752,-0.000815526,-0.000127496,7.07224e-05,-7.10197e-05,0.000499618,0.000328214,0,0,0,0,0,0,0,0.176403,-10.0901,1.03491,21.0431,-0.707381,-0.63059,-0.10967,0.166665,-0.999097,0.846951,2.51094,-0.14095,-0.61723,-0.1466
3309988,1,-1.57101,-0.52285,-0.000670949,-2.09601,-1.57094,1.57158,0.785655,-1.5708,-0.523599,-6.06119e-08,-2.0944,-1.5708,1.5708,0.785399,0.000541113,0.00121955,-8.49973e-05,4.71483e-05,-4.73464e-05,9.57197e-05,-0.00120534,0,0,0,0,0,0,0,0.148632,-10.1654,1.03491,21.0431,-0.707381,-0.624181,-0.0712183,0.166751,-0.998446,0.847116,2.51071,-0.14099,-0.617215,-0.146382
3309989,1,-1.571,-0.522854,-0.000668805,-2.09601,-1.57094,1.57158,0.785655,-1.5708,-0.523599,-6.06119e-08,-2.0944,-1.5708,1.5708,0.785399,0.000917554,-0.00039339,0.000500147,-0.000618182,-3.15643e-05,-0.000173546,-0.00104092,0,0,0,0,0,0,0,0.124828,-10.1139,1.01111,21.0709,-0.707381,-0.617772,-0.0648096,0.166155,-0.999511,0.846419,2.51124,-0.141078,-0.617335,-0.146206
3309990,1,-1.57101,-0.522854,-0.000672267,-2.096,-1.57094,1.57158,0.785658,-1.5708,-0.523599,-6.06119e-08,-2.0944,-1.5708,1.5708,0.785399,5.48906e-05,-0.00026226,-0.000872994,0.000794305,-2.10429e-05,0.000121662,0.000492847,0,0,0,0,0,0,0,0.148632,-10.1139,1.06269,21.0193,-0.707381,-0.624181,-0.0968531,0.165144,-1.00064,0.845245,2.51181,-0.141177,-0.617522,-0.146032
3309991,1,-1.57101,-0.522852,-0.000668595,-2.096,-1.57094,1.57159,0.785662,-1.5708,-0.523599,-6.06119e-08,-2.0944,-1.5708,1.5708,0.785399,-0.00061302,0.000381972,0.00062443,-2.72755e-05,0.000189422,0.000318467,0.00151536,0,0,0,0,0,0,0,0.176403,-10.1377,1.01111,21.0431,-0.712874,-0.63059,-0.128897,0.164567,-1.00072,0.844741,2.51169,-0.141241,-0.617638,-0.145836
3309992,1,-1.57101,-0.522854,-0.000668577,-2.09601,-1.57094,1.57158,0.785661,-1.5708,-0.523599,-6.06119e-08,-2.0944,-1.5708,1.5708,0.785399,0.000240934,-0.000302164,0.000416286,-0.000667798,-7.71692e-05,-0.000262407,0.000772881,0,0,0,0,0,0,0,0.148632,-10.1139,1.01111,21.0709,-0.707381,-0.617772,-0.122488,0.164141,-1.00101,0.844408,2.5117,-0.141313,-0.617745,-0.145635
3309993,1,-1.57101,-0.52285,-0.000670242,-2.09601,-1.57094,1.57158,0.785655,-1.5708,-0.523599,-6.06119e-08,-2.0944,-1.5708,1.5708,0.785399,-0.000488991,0.00100498,-0.000279288,0.000204416,-0.000254897,-0.000649656,-0.00138362,0,0,0,0,0,0,0,0.176403,-10.1654,1.03491,21.0431,-0.701887,-0.604955,-0.0712183,0.163683,-1.00222,0.844011,2.51238,-0.141418,-0.617871,-0.145476
3309994,1,-1.57101,-0.522854,-0.00067024,-2.09601,-1.57094,1.57158,0.785656,-1.5708,-0.523599,-6.06119e-08,-2.0944,-1.5708,1.5708,0.785399,-0.00153242,-0.000536437,-0.000186192,-0.000513337,0.00023697,4.16141e-05,-0.000685053,0,0,0,0,0,0,0,0.227978,-10.1139,1.03491,21.0709,-0.712874,-0.617772,-0.077627,0.164055,-1.00398,0.844775,2.51339,-0.14151,-0.617873,-0.145369
3309995,1,-1.57101,-0.522852,-0.000670699,-2.096,-1.57094,1.57158,0.78566,-1.5708,-0.523599,-6.06119e-08,-2.0944,-1.5708,1.5708,0.785399,0.000834426,0.000199187,0.000432684,0.000307389,-0.000248921,0.000265102,0.000967452,0,0,0,0,0,0,0,0.148632,-10.1377,1.01111,21.0431,-0.701887,-0.624181,-0.116079,0.164931,-1.00509,0.846155,2.51412,-0.141573,-0.617784,-0.145279
3309996,1,-1.57101,-0.522852,-0.000669279,-2.09601,-1.57094,1.57158,0.785661,-1.5708,-0.523599,-6.06119e-08,-2.0944,-1.5708,1.5708,0.785399,-9.33297e-05,0.000132791,0.000288456,-0.000444688,-0.000369398,-6.06245e-05,0.000882327,0,0,0,0,0,0,0,0.176403,-10.1377,1.01111,21.0709,-0.696394,-0.617772,-0.122488,0.165089,-1.00561,0.846453,2.51455,-0.141639,-0.617797,-0.145187
3309997,1,-1.57101,-0.522852,-0.000672425,-2.096,-1.57094,1.57158,0.785661,-1.5708,-0.523599,-6.06119e-08,-2.0944,-1.5708,1.5708,0.785399,0.000587394,8.85277e-05,-0.00101412,0.00146678,0.000364086,-4.04163e-05,0.000588218,0,0,0,0,0,0,0,0.148632,-10.1377,1.06269,20.9955,-0.712874,-0.617772,-0.122488,0.164867,-1.00581,0.846251,2.51456,-0.141686,-0.617864,-0.145118
3309998,1,-1.57101,-0.522849,-0.000668647,-2.09601,-1.57094,1.57159,0.785655,-1.5708,-0.523599,-6.06119e-08,-2.0944,-1.5708,1.5708,0.785399,-0.000258018,0.00126544,0.000530345,-0.000785385,3.92737e-05,-2.69442e-05,-0.00150673,0,0,0,0,0,0,0,0.176403,-10.1892,1.01111,21.0709,-0.707381,-0.617772,-0.0712183,0.164871,-1.00634,0.846455,2.51442,-0.141703,-0.617898,-0.145103
3309999,1,-1.57101,-0.522852,-0.000668595,-2.096,-1.57094,1.57159,0.785658,-1.5708,-0.523599,-6.06119e-08,-2.0944,-1.5708,1.5708,0.785399,-0.000172012,-0.000362796,0.000353563,0.000682836,2.61824e-05,0.000219396,-5.50484e-05,0,0,0,0,0,0,0,0.176403,-10.1377,1.01111,21.0193,-0.707381,-0.624181,-0.0968531,0.164736,-1.0079,0.84642,2.51478,-0.141734,-0.61796,-0.145133
3310000,1,-1.57101,-0.522858,-0.000668577,-2.096,-1.57094,1.57159,0.785655,-1.5708,-0.523599,-6.06119e-08,-2.0944,-1.5708,1.5708,0.785399,-0.000114675,-0.0020051,0.000235709,0.00101204,1.7455e-05,0.000146264,-0.000986135,0,0,0,0,0,0,0,0.176403,-10.0623,1.01111,20.9955,-0.707381,-0.624181,-0.0712183,0.164424,-1.00682,0.845918,2.51382,-0.141723,-0.618018,-0.14518
3310001,1,-1.57101,-0.522854,-0.000670242,-2.096,-1.57094,1.57158,0.785662,-1.5708,-0.523599,-6.06119e-08,-2.0944,-1.5708,1.5708,0.785399,0.000573164,-0.000130309,-0.000399673,0.000117879,1.16366e-05,9.75094e-05,0.00171617,0,0,0,0,0,0,0,0.148632,-10.1139,1.03491,21.0193,-0.707381,-0.624181,-0.135305,0.164188,-1.0017,0.845391,2.51078,-0.141638,-0.618025,-0.145219
3310002,1,-1.57101,-0.522854,-0.000666621,-2.09601,-1.57094,1.57158,0.785656,-1.5708,-0.523599,-6.06119e-08,-2.0944,-1.5708,1.5708,0.785399,-0.000267504,-8.68725e-05,0.000939977,-0.000478226,0.000211208,6.50063e-05,0.000194675,0,0,0,0,0,0,0,0.176403,-10.1139,0.98334,21.0431,-0.712874,-0.624181,-0.10967,0.163868,-0.996947,0.844767,2.50814,-0.141579,-0.618056,-0.145235
3310003,1,-1.57101,-0.522854,-0.00066495,-2.09601,-1.57094,1.57159,0.785656,-1.5708,-0.523599,-6.06119e-08,-2.0944,-1.5708,1.5708,0.785399,-0.000178336,-5.7915e-05,0.00118346,-0.000318817,-6.2645e-05,-0.000194021,-0.000582293,0,0,0,0,0,0,0,0.176403,-10.1139,0.959536,21.0431,-0.707381,-0.617772,-0.0904444,0.163075,-0.994787,0.843377,2.50715,-0.141607,-0.618198,-0.145255
3310004,1,-1.57101,-0.522852,-0.000668569,-2.096,-1.57094,1.57159,0.78566,-1.5708,-0.523599,-6.06119e-08,-2.0944,-1.5708,1.5708,0.785399,-0.000675703,0.000518202,-0.00041745,0.000344267,-0.000245214,0.000108011,0.00056124,0,0,0,0,0,0,0,0.200207,-10.1377,1.01111,21.0193,-0.701887,-0.624181,-0.116079,0.162295,-0.994551,0.841857,2.50721,-0.141684,-0.618371,-0.145293
3310005,1,-1.57101,-0.52285,-0.000668569,-2.096,-1.57094,1.57158,0.785655,-1.5708,-0.523599,-6.06119e-08,-2.0944,-1.5708,1.5708,0.785399,0.000106343,0.000995082,-0.0002783,0.000229511,0.000243425,-0.00040271,-0.00128735,0,0,0,0,0,0,0,0.176403,-10.1654,1.01111,21.0193,-0.712874,-0.611364,-0.0712183,0.162413,-0.996188,0.841626,2.50792,-0.141757,-0.61844,-0.145343
3310006,1,-1.57101,-0.522852,-0.00066662,-2.096,-1.57094,1.57159,0.785663,-1.5708,-0.523599,-6.06119e-08,-2.0944,-1.5708,1.5708,0.785399,-0.000485916,1.3774e-05,0.000464081,-0.000403804,-4.11671e-05,0.000443603,0.00175271,0,0,0,0,0,0,0,0.200207,-10.1377,0.98334,21.0431,-0.707381,-0.63059,-0.141714,0.163098,-0.999247,0.842212,2.50916,-0.141833,-0.618445,-0.145395
3310007,1,-1.57101,-0.522854,-0.000673858,-2.096,-1.57094,1.57159,0.785659,-1.5708,-0.523597,-2.17137e-06,-2.09439,-1.5708,1.5708,0.785399,-0.000323944,-0.000547629,-0.00210346,0.000287609,-2.74447e-05,0.000295736,-0.000255678,-0.00362688,0.001875,-0.00211076,0.00261762,-0.00132195,0.005,-0.00046918,0.200207,-10.1139,1.08649,21.0193,-0.707381,-0.63059,-0.103262,0.164395,-1.00159,0.843632,2.51016,-0.141885,-0.618356,-0.145451
3310008,1,-1.57101,-0.522852,-0.000668569,-2.096,-1.57094,1.57159,0.785662,-1.57081,-0.523593,-6.3929e-06,-2.09439,-1.5708,1.57081,0.785398,0.000340849,0.000191726,0.000360928,0.000191739,-0.000425198,-4.02019e-05,0.00101634,-0.00725376,0.00375,-0.00422152,0.00523524,-0.0026439,0.01,-0.00093836,0.176403,-10.1377,1.01111,21.0193,-0.696394,-0.624181,-0.135305,0.166448,-1.00216,0.846155,2.51027,-0.141883,-0.618149,-0.145535
3310009,1,-1.57101,-0.522852,-0.000668569,-2.096,-1.57094,1.57159,0.785657,-1.57082,-0.523587,-1.27252e-05,-2.09438,-1.57081,1.57083,0.785397,0.000227233,0.000127817,0.000240619,0.000127826,-0.000486916,-2.68013e-05,-0.000983951,-0.0108806,0.005625,-0.00633229,0.00785286,-0.00396586,0.015,-0.00140754,0.176403,-10.1377,1.01111,21.0193,-0.690901,-0.624181,-0.0904444,0.1679,-1.0022,0.847785,2.50997,-0.141877,-0.618048,-0.145664
3310010,1,-1.571,-0.522855,-0.000671983,-2.096,-1.57094,1.57158,0.785657,-1.57083,-0.52358,-2.11682e-05,-2.09437,-1.57081,1.57085,0.785395,7.53176e-05,0.0014106,-0.00372755,-0.000471594,0.00113345,-0.000729944,-0.000893326,-0.0145075,0.0075,-0.00844305,0.0104705,-0.00528781,0.02,-0.00187672,0.0494498,-10.0623,0.907962,21.0431,-0.730269,-0.604955,-0.0840357,0.169362,-1.00364,0.849573,2.51033,-0.141876,-0.61797,-0.145831
3310011,1,-1.57101,-0.522856,-0.000665282,-2.09601,-1.57094,1.57158,0.785658,-1.57085,-0.523571,-3.1722e-05,-2.09436,-1.57082,1.57087,0.785392,-0.00112515,0.000281214,-0.00117309,-0.00256067,-0.00753929,0.000225447,-0.000120833,-0.0181344,0.009375,-0.0105538,0.0130881,-0.00660976,0.025,-0.0023459,-0.176685,-9.88773,0.42792,21.2693,-0.75865,-0.624181,-0.0968531,0.172601,-1.00777,0.854279,2.51252,-0.141852,-0.617642,-0.145995
3310012,1,-1.571,-0.522852,-0.000672089,-2.09601,-1.57094,1.57158,0.785658,-1.57087,-0.523559,-4.43866e-05,-2.09434,-1.57082,1.5709,0.785389,0.000388105,-0.000395818,-0.00072642,-0.00129288,-0.00499123,-0.0010365,-8.05553e-05,-0.0217613,0.01125,-0.0126646,0.0157057,-0.00793171,0.03,-0.00281508,-0.656727,-9.7092,-0.0283176,21.3922,-0.780623,-0.592137,-0.0968531,0.17621,-1.01261,0.859588,2.5161,-0.141839,-0.617224,-0.146117
3310013,1,-1.571,-0.52285,-0.000679499,-2.096,-1.57094,1.57159,0.785664,-1.5709,-0.523546,-5.91619e-05,-2.09432,-1.57083,1.57094,0.785386,-0.00113813,0.0018845,0.000196085,0.00109574,-0.00326736,-0.000690998,0.00187908,-0.0253882,0.013125,-0.0147753,0.0183233,-0.00925366,0.035,-0.00328426,-1.06139,-9.50687,-0.532163,21.4676,-0.798018,-0.592137,-0.149038,0.177829,-1.01595,0.861821,2.51943,-0.141914,-0.616951,-0.146202
3310014,1,-1.57101,-0.522841,-0.000691566,-2.096,-1.57094,1.57159,0.785659,-1.57093,-0.523531,-7.6048e-05,-2.0943,-1.57084,1.57098,0.785382,-0.00409236,0.00617487,-0.00375794,0.00258791,-0.00346405,0.00892553,-0.000442703,-0.029015,0.015,-0.0168861,0.020941,-0.0105756,0.04,-0.00375344,-1.38671,-9.40768,-0.988401,21.543,-0.77513,-0.598546,-0.103262,0.177921,-1.0213,0.861916,2.52314,-0.142129,-0.616702,-0.14628
3310015,1,-1.57102,-0.522822,-0.000709361,-2.09599,-1.57094,1.57159,0.785657,-1.57096,-0.523514,-9.50449e-05,-2.09428,-1.57086,1.57102,0.785378,-0.00474424,0.0127027,-0.00870595,0.00252043,-0.00243449,0.00623804,-0.00100721,-0.0326419,0.016875,-0.0189969,0.0235586,-0.0118976,0.045,-0.00422262,-1.79137,-9.45529,-1.36926,21.666,-0.780623,-0.585729,-0.0840357,0.179479,-1.03782,0.865099,2.53142,-0.142519,-0.616037,-0.146369
3310016,1,-1.57103,-0.522813,-0.000727302,-2.09598,-1.57094,1.5716,0.785649,-1.571,-0.523496,-0.000116153,-2.09425,-1.57087,1.57107,0.785374,-0.00605249,0.0113281,-0.012431,0.00550244,-0.00163206,0.00567993,-0.00212954,-0.0362688,0.01875,-0.0211076,0.0261762,-0.0132195,0.05,-0.0046918,-2.16826,-9.37991,-1.75012,21.666,-0.787031,-0.611364,-0.044668,0.184855,-1.0687,0.875655,2.54626,-0.14305,-0.614425,-0.14645
3310017,1,-1.57104,-0.522802,-0.00074511,-2.09597,-1.57094,1.5716,0.785651,-1.57104,-0.523473,-0.000141166,-2.09422,-1.57089,1.57113,0.785368,-0.0082726,0.0107908,-0.0127491,0.00577502,-0.000865963,0.00868694,-0.000436347,-0.0429278,0.0225,-0.0250136,0.0308256,-0.0153429,0.06,-0.00536125,-2.49755,-9.32834,-2.10321,21.7414,-0.798018,-0.611364,-0.0712183,0.19336,-1.10436,0.892635,2.56365,-0.143569,-0.61166,-0.146488
3310018,1,-1.57106,-0.522794,-0.000763253,-2.09596,-1.57094,1.57161,0.785655,-1.57109,-0.523447,-0.000170086,-2.09418,-1.5709,1.5712,0.785362,-0.00855221,0.00748443,-0.0115366,0.00745837,0.000335236,0.0105817,0.00113326,-0.0495869,0.02625,-0.0289195,0.0354751,-0.0174662,0.07,-0.00603071,-2.75145,-9.15378,-2.38092,21.7652,-0.826399,-0.598546,-0.10967,0.201049,-1.13268,0.909847,2.57865,-0.143997,-0.608118,-0.14646
3310019,1,-1.57107,-0.522787,-0.000780955,-2.09595,-1.57094,1.57161,0.785658,-1.57114,-0.523417,-0.000202911,-2.09414,-1.57092,1.57128,0.785355,-0.00860193,0.00518765,-0.0115179,0.00684423,0.00137414,0.00989445,0.00170494,-0.056246,0.03,-0.0328254,0.0401246,-0.0195896,0.08,-0.00670017,-3.00139,-8.97525,-2.61102,21.8644,-0.860274,-0.527135,-0.135305,0.203139,-1.14527,0.920042,2.58828,-0.144376,-0.604355,-0.146385
3310020,1,-1.5711,-0.522779,-0.000795616,-2.09594,-1.57094,1.57161,0.785659,-1.57121,-0.523383,-0.000239642,-2.0941,-1.57094,1.57137,0.785348,-0.016493,0.00858775,-0.0170075,0.00856581,0.00144847,0.00877385,0.00164525,-0.062905,0.03375,-0.0367314,0.044774,-0.0217129,0.09,-0.00736962,-3.17992,-8.74911,-2.98791,22.0151,-0.876753,-0.431005,-0.149038,0.200111,-1.14227,0.923949,2.59327,-0.144755,-0.600186,-0.146314
3310021,1,-1.57113,-0.522764,-0.000818994,-2.09593,-1.57093,1.57162,0.785653,-1.57128,-0.523346,-0.00028028,-2.09405,-1.57097,1.57147,0.78534,-0.0243395,0.0114511,-0.0208453,0.010967,0.00321294,0.00773212,-0.000835945,-0.0695641,0.0375,-0.0406373,0.0494235,-0.0238363,0.1,-0.00803908,-3.53301,-8.52298,-3.39654,22.1143,-0.939009,-0.32755,-0.0968531,0.198622,-1.13226,0.931162,2.59729,-0.145124,-0.594574,-0.146293
3310022,1,-1.57115,-0.522744,-0.000851018,-2.09591,-1.57093,1.57163,0.785651,-1.57135,-0.523304,-0.000324823,-2.094,-1.57099,1.57158,0.785331,-0.0270087,0.0130596,-0.0264727,0.011972,-0.00074825,0.00757349,-0.00126937,-0.0762231,0.04125,-0.0445433,0.0540729,-0.0259596,0.11,-0.00870853,-4.03685,-8.26907,-3.82501,22.2373,-0.990278,-0.237828,-0.077627,0.203469,-1.12186,0.948624,2.60293,-0.145474,-0.586688,-0.146334
3310023,1,-1.57119,-0.522709,-0.00088703,-2.09589,-1.57094,1.57165,0.785648,-1.57144,-0.523259,-0.000373272,-2.09394,-1.57102,1.5717,0.785322,-0.027495,0.0193138,-0.0297035,0.0199341,-0.00477643,0.0133567,-0.000846249,-0.0828822,0.045,-0.0484492,0.0587224,-0.028083,0.12,-0.00937799,-4.48912,-8.09055,-4.30505,22.3365,-1.01317,-0.179235,-0.077627,0.213018,-1.11413,0.974705,2.61048,-0.145865,-0.576616,-0.1464
3310024,1,-1.57125,-0.522671,-0.000921959,-2.09585,-1.57093,1.57167,0.785649,-1.57153,-0.523211,-0.000425627,-2.09387,-1.57105,1.57183,0.785312,-0.0341141,0.0252552,-0.0310346,0.0276611,-0.00308315,0.0173957,0.000147911,-0.0895412,0.04875,-0.0523552,0.0633719,-0.0302063,0.13,-0.0100474,-4.81841,-7.96359,-4.83667,22.3603,-1.03514,-0.115148,-0.0968531,0.222674,-1.11216,1.00342,2.61848,-0.146387,-0.56494,-0.146442
3310025,1,-1.57131,-0.522622,-0.000963023,-2.09582,-1.57094,1.57171,0.785646,-1.57162,-0.523158,-0.000481889,-2.09381,-1.57108,1.57197,0.785301,-0.0433029,0.0306687,-0.0341755,0.028797,-0.00238648,0.0216825,9.86072e-05,-0.0962003,0.0525,-0.0562611,0.0680213,-0.0323297,0.14,-0.0107169,-5.09612,-7.88821,-5.2929,22.4356,-1.04063,-0.089513,-0.0968531,0.230624,-1.11956,1.03177,2.62751,-0.147182,-0.55184,-0.146431
3310026,1,-1.57138,-0.522574,-0.0010092,-2.09578,-1.57094,1.57175,0.78564,-1.57172,-0.523102,-0.000542056,-2.09373,-1.57112,1.57212,0.78529,-0.0486359,0.0368293,-0.038732,0.0334753,-0.0058282,0.030614,-0.00040898,-0.102859,0.05625,-0.060167,0.0726708,-0.0344531,0.15,-0.0113864,-5.4254,-7.78903,-5.64996,22.4872,-1.06352,-0.0959217,-0.0840357,0.237833,-1.14006,1.06063,2.64099,-0.148393,-0.537124,-0.146355
3310027,1,-1.57145,-0.522531,-0.00104808,-2.09574,-1.57093,1.57182,0.785624,-1.57184,-0.52304,-0.00060776,-2.09365,-1.57116,1.57229,0.785278,-0.05521,0.0367131,-0.0365699,0.0324656,-0.00206724,0.0427542,-0.00291751,-0.112158,0.061875,-0.0657047,0.0789231,-0.0370526,0.164712,-0.0120393,-5.65154,-7.6105,-6.10223,22.5864,-1.13127,-0.134374,-0.0126246,0.242538,-1.17242,1.08709,2.6606,-0.150119,-0.521093,-0.146217
3310028,1,-1.57153,-0.522488,-0.00109446,-2.0957,-1.57094,1.57189,0.785615,-1.57196,-0.522972,-0.000679003,-2.09357,-1.5712,1.57247,0.785265,-0.0603402,0.0393057,-0.0390786,0.0368502,-0.000845243,0.05319,-0.0031318,-0.121456,0.0675,-0.0712423,0.0851754,-0.0396522,0.179425,-0.0126923,-5.85387,-7.40817,-6.38391,22.7332,-1.15965,-0.205785,0.0194189,0.240529,-1.20903,1.10439,2.68489,-0.152462,-0.504453,-0.146006
3310029,1,-1.5716,-0.522449,-0.00114538,-2.09566,-1.57093,1.57197,0.785611,-1.57209,-0.522899,-0.000755782,-2.09348,-1.57124,1.57266,0.785252,-0.0629544,0.0390804,-0.0419051,0.0361488,0.000743242,0.0661614,-0.000663714,-0.130755,0.073125,-0.0767799,0.0914277,-0.0422517,0.194137,-0.0133453,-6.10381,-7.10666,-6.61004,22.9355,-1.20543,-0.179235,-0.0190333,0.229394,-1.24238,1.10886,2.71174,-0.155473,-0.487725,-0.145657
3310030,1,-1.5717,-0.522404,-0.001194,-2.0956,-1.57093,1.57206,0.785603,-1.57223,-0.522821,-0.0008381,-2.09338,-1.57128,1.57287,0.785238,-0.0759318,0.0389652,-0.0470821,0.0407526,-0.00214868,0.0777844,-0.0037233,-0.140053,0.07875,-0.0823175,0.09768,-0.0448513,0.208849,-0.0139983,-6.15538,-6.80118,-6.96313,23.0585,-1.26768,-0.089513,-0.0584009,0.211133,-1.26581,1.10335,2.73886,-0.159049,-0.470831,-0.145105
3310031,1,-1.57181,-0.522355,-0.00124415,-2.09554,-1.57093,1.57217,0.785587,-1.57238,-0.522736,-0.000925955,-2.09328,-1.57133,1.57309,0.785223,-0.0875164,0.043151,-0.0480345,0.0459639,0.000673385,0.0883264,-0.00809012,-0.149352,0.084375,-0.0878552,0.103932,-0.0474508,0.223562,-0.0146513,-6.23076,-6.39651,-7.44714,23.1061,-1.34093,-0.0254261,-0.044668,0.191179,-1.27489,1.0948,2.76363,-0.162982,-0.453144,-0.144359
3310032,1,-1.57192,-0.522287,-0.00131939,-2.09548,-1.57094,1.5723,0.785568,-1.57254,-0.522646,-0.00101935,-2.09317,-1.57138,1.57333,0.785208,-0.0965439,0.050195,-0.0554822,0.0531616,0.00185876,0.0978387,-0.0126867,-0.15865,0.09,-0.0933928,0.110185,-0.0500504,0.238274,-0.0153043,-6.53228,-6.14658,-7.77643,23.1339,-1.39128,0.000208706,0.00660151,0.173738,-1.27356,1.08836,2.78589,-0.167235,-0.434164,-0.143472
3310033,1,-1.57203,-0.52221,-0.00139557,-2.09541,-1.57094,1.57245,0.785542,-1.57271,-0.522551,-0.00111828,-2.09305,-1.57143,1.57358,0.785192,-0.106156,0.0582798,-0.0637763,0.0618438,-0.00230348,0.11364,-0.0179404,-0.167949,0.095625,-0.0989304,0.116437,-0.0526499,0.252986,-0.0159573,-6.88933,-5.89267,-8.12951,23.1339,-1.43156,-0.089513,0.110056,0.161859,-1.27062,1.08858,2.80735,-0.171845,-0.413567,-0.142452
3310034,1,-1.57217,-0.522123,-0.00147029,-2.09533,-1.57095,1.57263,0.785521,-1.57288,-0.522449,-0.00122275,-2.09293,-1.57149,1.57385,0.785175,-0.112785,0.0675265,-0.0664057,0.0663296,-0.00721752,0.130276,-0.019915,-0.177247,0.10125,-0.104468,0.122689,-0.0552495,0.267699,-0.0166103,-7.13927,-5.76572,-8.63733,23.1061,-1.42515,-0.199376,0.16865,0.15569,-1.27491,1.09639,2.83061,-0.176891,-0.391565,-0.141212
3310035,1,-1.57232,-0.52203,-0.00155519,-2.09524,-1.57097,1.57282,0.785505,-1.57307,-0.522342,-0.00133275,-2.0928,-1.57155,1.57413,0.785158,-0.12114,0.0733962,-0.0717119,0.0735727,-0.00967843,0.152074,-0.0175032,-0.186546,0.106875,-0.110006,0.128942,-0.057849,0.282411,-0.0172632,-7.39318,-5.61496,-9.01422,23.0347,-1.44255,-0.218602,0.122873,0.150949,-1.29179,1.10602,2.85823,-0.182559,-0.369138,-0.139586
3310036,1,-1.57247,-0.52194,-0.00163802,-2.09516,-1.57098,1.57303,0.785484,-1.57326,-0.52223,-0.0014483,-2.09266,-1.57161,1.57443,0.78514,-0.130821,0.0747948,-0.0755211,0.0767021,-0.0119841,0.165676,-0.021885,-0.195844,0.1125,-0.115543,0.135194,-0.0604486,0.297123,-0.0179162,-7.61931,-5.33725,-9.39508,23.0585,-1.44804,-0.257054,0.110056,0.144631,-1.31639,1.11292,2.88894,-0.188864,-0.346979,-0.137462
3310037,1,-1.57264,-0.521845,-0.00172284,-2.09506,-1.57099,1.57326,0.785463,-1.57347,-0.52211,-0.00157035,-2.09252,-1.57167,1.57474,0.785121,-0.144577,0.0771696,-0.0744622,0.0836364,-0.012994,0.186919,-0.0200833,-0.206832,0.11999,-0.122052,0.14253,-0.0633133,0.314164,-0.0185597,-7.71849,-5.10715,-9.79974,23.0069,-1.47093,-0.340367,0.0844213,0.135524,-1.33698,1.11422,2.91863,-0.195683,-0.32534,-0.134854
3310038,1,-1.5728,-0.521753,-0.00180842,-2.09497,-1.57101,1.57351,0.785435,-1.57369,-0.521983,-0.00169891,-2.09237,-1.57174,1.57508,0.785102,-0.151307,0.0806552,-0.0800246,0.0841928,-0.0129469,0.209989,-0.0247696,-0.217819,0.12748,-0.12856,0.149865,-0.0661779,0.331205,-0.0192033,-7.9486,-4.82944,-10.1806,23.1577,-1.51579,-0.418187,0.09083,0.121815,-1.34698,1.10625,2.94558,-0.202979,-0.304641,-0.131852
3310039,1,-1.57298,-0.521664,-0.0019014,-2.09486,-1.57103,1.57377,0.785406,-1.57392,-0.521848,-0.00183398,-2.09221,-1.5718,1.57542,0.785082,-0.159461,0.0849094,-0.080341,0.0899444,-0.0171621,0.222594,-0.0285398,-0.228806,0.13497,-0.135069,0.157201,-0.0690426,0.348246,-0.0198468,-8.17473,-4.50412,-10.4821,23.2331,-1.57805,-0.346776,0.103647,0.101421,-1.34739,1.08608,2.9716,-0.210838,-0.285406,-0.128551
3310040,1,-1.57317,-0.521561,-0.00199155,-2.09475,-1.57105,1.57405,0.785383,-1.57416,-0.521705,-0.00197555,-2.09205,-1.57188,1.57579,0.785062,-0.171889,0.0894429,-0.0847804,0.0983926,-0.0202044,0.243996,-0.0240678,-0.239793,0.14246,-0.141578,0.164536,-0.0719072,0.365287,-0.0204903,-8.27391,-4.19864,-10.863,23.2569,-1.6403,-0.250646,0.0459692,0.0738277,-1.3388,1.05298,2.99643,-0.219247,-0.267816,-0.125027
3310041,1,-1.57338,-0.521447,-0.00208538,-2.09463,-1.57107,1.57435,0.785359,-1.57441,-0.521555,-0.00212364,-2.09188,-1.57195,1.57617,0.785041,-0.180317,0.0966478,-0.0902908,0.106218,-0.0223714,0.258324,-0.0213478,-0.250781,0.14995,-0.148086,0.171872,-0.0747719,0.382327,-0.0211338,-8.40087,-3.92093,-11.2954,23.2331,-1.71355,-0.172826,0.00660151,0.0414612,-1.32136,1.01045,3.01801,-0.228096,-0.251467,-0.12137
3310042,1,-1.57359,-0.521325,-0.00219315,-2.0945,-1.5711,1.57468,0.785328,-1.57467,-0.521398,-0.00227823,-2.0917,-1.57203,1.57657,0.785019,-0.187978,0.106695,-0.0967036,0.116167,-0.0250864,0.277847,-0.0254604,-0.261768,0.15744,-0.154595,0.179207,-0.0776366,0.399368,-0.0217773,-8.73015,-3.56784,-11.6247,23.1577,-1.75932,-0.205785,0.000192821,0.00668181,-1.30059,0.962501,3.03705,-0.237407,-0.235855,-0.117697
3310043,1,-1.5738,-0.521184,-0.00230574,-2.09436,-1.57114,1.57504,0.785291,-1.57494,-0.521233,-0.00243934,-2.09151,-1.57211,1.57699,0.784997,-0.196926,0.116851,-0.0979827,0.124109,-0.0328105,0.302747,-0.0312715,-0.272755,0.16493,-0.161103,0.186543,-0.0805012,0.416409,-0.0224208,-9.08324,-3.33774,-11.9778,23.0585,-1.7758,-0.321141,0.0651953,-0.0312289,-1.28525,0.908622,3.05623,-0.247329,-0.221003,-0.114116
3310044,1,-1.57404,-0.521037,-0.00241919,-2.09421,-1.57119,1.57542,0.785255,-1.57523,-0.52106,-0.00260695,-2.09132,-1.57219,1.57742,0.784974,-0.207681,0.130675,-0.103201,0.132455,-0.0396844,0.3226,-0.0302004,-0.283743,0.17242,-0.167612,0.193879,-0.0833659,0.43345,-0.0230643,-9.2578,-3.13541,-12.4102,22.8363,-1.75932,-0.443822,0.122873,-0.0739404,-1.28473,0.846642,3.07938,-0.258043,-0.207257,-0.11066
3310045,1,-1.57429,-0.520886,-0.0025446,-2.09405,-1.57124,1.57581,0.785217,-1.57552,-0.52088,-0.00278107,-2.09112,-1.57228,1.57787,0.78495,-0.218342,0.136806,-0.108767,0.141099,-0.0448473,0.343133,-0.0290469,-0.29473,0.17991,-0.17412,0.201214,-0.0862306,0.450491,-0.0237079,-9.46013,-2.8577,-12.7633,22.761,-1.73643,-0.469457,0.175059,-0.120361,-1.30265,0.778374,3.10824,-0.269557,-0.194584,-0.107266
3310046,1,-1.57454,-0.520718,-0.00267152,-2.09388,-1.57129,1.57621,0.785185,-1.57583,-0.520693,-0.0029617,-2.09091,-1.57237,1.57834,0.784925,-0.231512,0.144375,-0.114464,0.152788,-0.0477547,0.35863,-0.0271089,-0.305717,0.1874,-0.180629,0.20855,-0.0890952,0.467531,-0.0243514,-9.71404,-2.70694,-13.0648,22.6102,-1.73094,-0.488683,0.200693,-0.167248,-1.33009,0.70831,3.13844,-0.281585,-0.182505,-0.103836
3310047,1,-1.57481,-0.520552,-0.00279854,-2.09371,-1.57135,1.57665,0.785157,-1.57615,-0.520498,-0.00314926,-2.09069,-1.57246,1.57882,0.7849,-0.240751,0.147519,-0.116737,0.159547,-0.0506486,0.379671,-0.0280716,-0.317577,0.19489,-0.187559,0.216559,-0.0920749,0.485497,-0.0249921,-9.8648,-2.45303,-13.4457,22.5348,-1.71355,-0.527135,0.155832,-0.21339,-1.35362,0.637649,3.1638,-0.293804,-0.170752,-0.100267
3310048,1,-1.57508,-0.520386,-0.00292682,-2.09353,-1.5714,1.5771,0.78512,-1.57647,-0.520296,-0.00334375,-2.09047,-1.57256,1.57933,0.784875,-0.249337,0.151145,-0.116533,0.166671,-0.0512042,0.410287,-0.0259008,-0.329438,0.20238,-0.194489,0.224568,-0.0950546,0.503463,-0.0256329,-10.0671,-2.12772,-13.775,22.511,-1.73643,-0.533544,0.162241,-0.26286,-1.3629,0.56012,3.18106,-0.306115,-0.159914,-0.0965054
3310049,1,-1.57536,-0.520213,-0.00306535,-2.09335,-1.57146,1.57756,0.785094,-1.57682,-0.520086,-0.00354516,-2.09023,-1.57265,1.57985,0.784849,-0.258263,0.158471,-0.125606,0.171142,-0.0505437,0.420253,-0.0223792,-0.341298,0.20987,-0.201419,0.232576,-0.0980343,0.521429,-0.0262736,-10.2695,-1.85001,-13.9773,22.5348,-1.7932,-0.482274,0.116465,-0.318942,-1.35537,0.471173,3.1913,-0.318566,-0.150496,-0.0925658
3310050,1,-1.57566,-0.520033,-0.00320607,-2.09315,-1.57152,1.57805,0.785059,-1.57717,-0.519869,-0.00375351,-2.08999,-1.57275,1.58039,0.784822,-0.270649,0.163252,-0.131955,0.179888,-0.0546241,0.437188,-0.0260955,-0.353158,0.21736,-0.208348,0.240585,-0.101014,0.539395,-0.0269144,-10.3924,-1.67148,-14.3066,22.5864,-1.85545,-0.424596,0.110056,-0.377916,-1.33429,0.376867,3.19754,-0.331135,-0.141783,-0.088487
3310051,1,-1.57597,-0.519848,-0.00334687,-2.09294,-1.57159,1.57855,0.785023,-1.57753,-0.519644,-0.00396879,-2.08974,-1.57286,1.58095,0.784794,-0.280567,0.16935,-0.132683,0.192154,-0.0533699,0.448127,-0.0236469,-0.365018,0.22485,-0.215278,0.248594,-0.103994,0.55736,-0.0275552,-10.4678,-1.49295,-14.6874,22.634,-1.91221,-0.398961,0.09083,-0.436673,-1.29864,0.281684,3.19845,-0.343718,-0.133031,-0.0843497
3310052,1,-1.57628,-0.519652,-0.00350718,-2.09272,-1.57166,1.5791,0.784994,-1.57791,-0.519411,-0.004191,-2.08949,-1.57297,1.58152,0.784766,-0.287794,0.17533,-0.141906,0.202285,-0.0597534,0.471911,-0.0255823,-0.376878,0.23234,-0.222208,0.256603,-0.106973,0.575326,-0.0281959,-10.7971,-1.49295,-14.8382,22.6856,-1.90031,-0.5015,0.0459692,-0.496341,-1.24574,0.183784,3.19064,-0.356278,-0.124207,-0.0802604
3310053,1,-1.57661,-0.519443,-0.00366712,-2.09249,-1.57174,1.57967,0.784961,-1.5783,-0.519172,-0.00442014,-2.08922,-1.57308,1.58211,0.784737,-0.301586,0.187369,-0.147294,0.210407,-0.0636969,0.506574,-0.0282669,-0.388738,0.23983,-0.229138,0.264612,-0.109953,0.593292,-0.0288367,-10.9479,-1.56833,-15.0405,22.7094,-1.90031,-0.624181,0.0322363,-0.556878,-1.18176,0.0838333,3.17625,-0.368852,-0.115456,-0.076305
3310054,1,-1.57696,-0.519228,-0.00382833,-2.09224,-1.57183,1.58025,0.784933,-1.5787,-0.518924,-0.00465621,-2.08895,-1.57319,1.58273,0.784708,-0.316152,0.194938,-0.1506,0.220733,-0.0677479,0.529077,-0.0301356,-0.400598,0.24732,-0.236068,0.272621,-0.112933,0.611258,-0.0294774,-11.0232,-1.5961,-15.2706,22.7094,-1.87193,-0.707494,0.0130102,-0.617083,-1.11794,-0.0161855,3.16074,-0.381517,-0.10702,-0.0725573
3310055,1,-1.57732,-0.51901,-0.00399793,-2.09199,-1.57192,1.58085,0.784894,-1.57911,-0.518669,-0.0048992,-2.08867,-1.5733,1.58336,0.784677,-0.326125,0.202319,-0.157868,0.227152,-0.0744293,0.54334,-0.034175,-0.412459,0.25481,-0.242998,0.28063,-0.115912,0.629224,-0.0301182,-11.1502,-1.56833,-15.5483,22.7332,-1.86644,-0.707494,0.0651953,-0.676077,-1.05847,-0.115229,3.14672,-0.39428,-0.0989916,-0.0690821
3310056,1,-1.57768,-0.518781,-0.0041782,-2.09172,-1.57201,1.58146,0.784859,-1.57954,-0.518407,-0.00514913,-2.08838,-1.57342,1.584,0.784647,-0.336833,0.208416,-0.168622,0.238109,-0.0800662,0.57386,-0.0356991,-0.424319,0.2623,-0.249928,0.288638,-0.118892,0.64719,-0.0307589,-11.4041,-1.5961,-15.6991,22.6618,-1.84447,-0.720311,0.0844213,-0.732167,-1.00112,-0.210366,3.13389,-0.406987,-0.0911743,-0.0659067
3310057,1,-1.57805,-0.51855,-0.00436352,-2.09146,-1.5721,1.58211,0.784815,-1.57997,-0.518137,-0.00540594,-2.08808,-1.57355,1.58467,0.784615,-0.349954,0.215882,-0.173785,0.248244,-0.0831068,0.59019,-0.0398747,-0.43633,0.26979,-0.256813,0.297,-0.12186,0.665307,-0.031405,-11.5549,-1.5961,-15.8776,22.761,-1.85545,-0.849401,0.175059,-0.783752,-0.942273,-0.298744,3.12022,-0.419396,-0.0833736,-0.0630014
3310058,1,-1.57845,-0.518307,-0.00455311,-2.09118,-1.57219,1.58277,0.784779,-1.58042,-0.51786,-0.00566964,-2.08778,-1.57367,1.58535,0.784583,-0.3647,0.222,-0.181198,0.254272,-0.0849951,0.618522,-0.0389779,-0.448341,0.27728,-0.263698,0.305361,-0.124828,0.683424,-0.0320511,-11.5271,-1.6199,-16.0284,22.7848,-1.87193,-0.913488,0.175059,-0.830427,-0.880583,-0.379943,3.10512,-0.431417,-0.0755554,-0.0602596
3310059,1,-1.57885,-0.518054,-0.00474987,-2.09089,-1.57228,1.58343,0.784757,-1.58088,-0.517575,-0.00594023,-2.08747,-1.5738,1.58605,0.784551,-0.374154,0.226616,-0.186984,0.264048,-0.0899303,0.619424,-0.0306717,-0.460351,0.28477,-0.270583,0.313722,-0.127796,0.701541,-0.0326972,-11.5549,-1.64767,-16.1791,22.7332,-1.91221,-0.798131,0.09083,-0.872542,-0.814959,-0.454731,3.0893,-0.443105,-0.0677489,-0.0575305
3310060,1,-1.57927,-0.517796,-0.00495811,-2.0906,-1.57238,1.58411,0.784721,-1.58135,-0.517283,-0.00621769,-2.08714,-1.57393,1.58677,0.784517,-0.388769,0.23552,-0.193363,0.270885,-0.0943849,0.629652,-0.0323757,-0.472362,0.29226,-0.277469,0.322083,-0.130764,0.719658,-0.0333433,-11.654,-1.77066,-16.2307,22.8363,-1.95158,-0.669042,0.0844213,-0.910442,-0.744607,-0.523879,3.07293,-0.454557,-0.0598135,-0.054725
3310061,1,-1.57968,-0.517525,-0.00516831,-2.09029,-1.57249,1.58483,0.784691,-1.58184,-0.516983,-0.00650205,-2.08681,-1.57406,1.58751,0.784483,-0.395383,0.245241,-0.197579,0.28637,-0.099113,0.662205,-0.0314018,-0.484373,0.29975,-0.284354,0.330444,-0.133732,0.737775,-0.0339894,-11.6818,-1.92538,-16.3061,22.7848,-1.95708,-0.707494,0.0194189,-0.946533,-0.673627,-0.59089,3.05656,-0.465901,-0.0519971,-0.0518721
3310062,1,-1.58012,-0.517247,-0.00538399,-2.08998,-1.57259,1.58556,0.78465,-1.58234,-0.516676,-0.00679329,-2.08647,-1.5742,1.58827,0.784449,-0.408005,0.260531,-0.20669,0.295202,-0.101852,0.678837,-0.0354222,-0.496384,0.30724,-0.291239,0.338805,-0.1367,0.755892,-0.0346355,-11.7294,-2.07614,-16.3815,22.8363,-1.97996,-0.823766,0.0780126,-0.984486,-0.611299,-0.660355,3.04185,-0.477276,-0.0449326,-0.0490655
3310063,1,-1.58055,-0.516954,-0.00561762,-2.08965,-1.5727,1.5863,0.784621,-1.58284,-0.516361,-0.00709141,-2.08613,-1.57434,1.58904,0.784413,-0.424766,0.268969,-0.214213,0.306458,-0.104175,0.716083,-0.0342923,-0.508395,0.31473,-0.298124,0.347166,-0.139669,0.774009,-0.0352816,-11.8048,-2.30228,-16.4092,22.7848,-1.99095,-0.849401,0.0322363,-1.02308,-0.567049,-0.730058,3.03213,-0.488765,-0.0386016,-0.0463807
3310064,1,-1.58101,-0.516653,-0.00585789,-2.08932,-1.57282,1.58705,0.784586,-1.58336,-0.516039,-0.00739642,-2.08577,-1.57448,1.58983,0.784377,-0.435997,0.276765,-0.221382,0.31494,-0.106348,0.720248,-0.03088,-0.520406,0.32222,-0.30501,0.355528,-0.142637,0.792126,-0.0359277,-11.781,-2.4808,-16.3815,22.7848,-1.99644,-0.746862,0.038645,-1.05887,-0.539733,-0.795329,3.02756,-0.500338,-0.0325535,-0.043863
3310065,1,-1.58149,-0.516354,-0.00609116,-2.08897,-1.57295,1.58783,0.784555,-1.5839,-0.515709,-0.00770832,-2.08541,-1.57463,1.59064,0.784341,-0.446902,0.281198,-0.224415,0.325878,-0.11431,0.732089,-0.0319837,-0.532417,0.32971,-0.311895,0.363889,-0.145605,0.810243,-0.0365738,-11.7572,-2.57999,-16.5878,22.7094,-1.95708,-0.733129,0.0194189,-1.09217,-0.518991,-0.857113,3.0242,-0.511958,-0.0265281,-0.0415506
3310066,1,-1.58195,-0.516039,-0.00635466,-2.08862,-1.57308,1.58864,0.784516,-1.58444,-0.515372,-0.0080271,-2.08504,-1.57478,1.59147,0.784304,-0.449823,0.291831,-0.235297,0.332601,-0.119494,0.765992,-0.0295294,-0.544428,0.3372,-0.31878,0.37225,-0.148573,0.82836,-0.0372199,-11.9833,-2.73471,-16.56,22.6856,-1.92869,-0.798131,0.038645,-1.12684,-0.498907,-0.920567,3.02,-0.523636,-0.0208498,-0.0394732
3310067,1,-1.58244,-0.515717,-0.00661441,-2.08827,-1.57321,1.58947,0.784478,-1.585,-0.515027,-0.00835252,-2.08465,-1.57493,1.59232,0.784266,-0.458583,0.30383,-0.242902,0.337994,-0.122502,0.781486,-0.0326401,-0.556159,0.34469,-0.325418,0.380743,-0.151394,0.846056,-0.0378556,-12.1579,-2.78232,-16.56,22.7848,-1.92869,-0.946447,0.0651953,-1.16625,-0.48719,-0.989017,3.01984,-0.535494,-0.0161388,-0.037622
3310068,1,-1.58294,-0.515392,-0.00687151,-2.08791,-1.57334,1.59031,0.78444,-1.58556,-0.514675,-0.00868457,-2.08427,-1.57508,1.59318,0.784227,-0.471949,0.312719,-0.247472,0.348557,-0.12292,0.790644,-0.0341927,-0.56789,0.35218,-0.332056,0.389236,-0.154216,0.863753,-0.0384913,-12.2333,-2.81009,-16.7108,22.8363,-1.97447,-0.919896,0.071604,-1.2101,-0.492363,-1.06146,3.02863,-0.547632,-0.0124101,-0.0359386
3310069,1,-1.58346,-0.515047,-0.00713403,-2.08752,-1.57348,1.59114,0.784404,-1.58614,-0.514316,-0.00902326,-2.08387,-1.57524,1.59406,0.784188,-0.482689,0.317909,-0.258279,0.361465,-0.123844,0.798014,-0.0345237,-0.579621,0.35967,-0.338694,0.397729,-0.157037,0.88145,-0.039127,-12.261,-2.93704,-16.9131,22.761,-2.01384,-0.766088,0.0587866,-1.25488,-0.507342,-1.13357,3.04186,-0.559831,-0.00897835,-0.0343721
3310070,1,-1.58398,-0.514691,-0.00741457,-2.08715,-1.57361,1.59202,0.784359,-1.58674,-0.513948,-0.0093686,-2.08346,-1.5754,1.59496,0.784148,-0.4958,0.327672,-0.264743,0.368704,-0.129328,0.812605,-0.0374425,-0.591352,0.36716,-0.345331,0.406222,-0.159859,0.899146,-0.0397627,-12.4356,-3.16318,-16.9924,22.8601,-2.05321,-0.759679,0.116465,-1.29663,-0.521627,-1.20014,3.0534,-0.571821,-0.00504097,-0.0328939
3310071,1,-1.58449,-0.514331,-0.00770364,-2.08676,-1.57375,1.59294,0.784324,-1.58734,-0.513574,-0.00972057,-2.08305,-1.57556,1.59588,0.784108,-0.50079,0.336796,-0.271965,0.374222,-0.134187,0.857621,-0.0363399,-0.603083,0.37465,-0.351969,0.414716,-0.16268,0.916843,-0.0403983,-12.7411,-3.33774,-16.9647,22.9593,-2.0587,-0.913488,0.09083,-1.33676,-0.537212,-1.26305,3.06516,-0.583702,-0.000884717,-0.0314516
3310072,1,-1.58503,-0.513957,-0.00798794,-2.08637,-1.57389,1.59387,0.784283,-1.58795,-0.513192,-0.0100792,-2.08262,-1.57573,1.59681,0.784067,-0.509977,0.346208,-0.275111,0.381178,-0.137678,0.8716,-0.0376221,-0.614813,0.38214,-0.358607,0.423209,-0.165502,0.93454,-0.041034,-12.8165,-3.49246,-17.04,23.1061,-2.08159,-1.03617,0.116465,-1.38185,-0.56107,-1.33099,3.08204,-0.595799,0.00222822,-0.0299798
3310073,1,-1.5856,-0.513588,-0.00827704,-2.08596,-1.57404,1.59481,0.784248,-1.58858,-0.512802,-0.0104444,-2.08219,-1.57589,1.59776,0.784025,-0.530452,0.350792,-0.279791,0.389267,-0.140427,0.886255,-0.0351957,-0.626544,0.38963,-0.365245,0.431702,-0.168323,0.952236,-0.0416697,-12.7133,-3.54007,-17.1194,23.2569,-2.09807,-1.01053,0.0523779,-1.43333,-0.591741,-1.4064,3.10409,-0.608228,0.00403238,-0.0284366
3310074,1,-1.58616,-0.513203,-0.00857489,-2.08554,-1.5742,1.59577,0.784218,-1.58922,-0.512405,-0.0108163,-2.08175,-1.57607,1.59873,0.783983,-0.541768,0.360995,-0.294491,0.395966,-0.142955,0.910589,-0.032926,-0.638275,0.39712,-0.371883,0.440195,-0.171145,0.969933,-0.0423054,-12.7649,-3.64322,-17.0678,23.4076,-2.09807,-1.01694,-0.0318506,-1.48424,-0.624013,-1.48009,3.12912,-0.620817,0.00556377,-0.0268273
3310075,1,-1.58674,-0.512803,-0.00888027,-2.08512,-1.57436,1.59673,0.784172,-1.58987,-0.512,-0.0111948,-2.0813,-1.57624,1.59972,0.78394,-0.545804,0.381837,-0.295355,0.402282,-0.145537,0.922273,-0.0359266,-0.650006,0.40461,-0.378521,0.448688,-0.173966,0.98763,-0.042941,-12.8165,-3.94473,-17.1194,23.479,-2.08708,-0.952855,0.00660151,-1.5323,-0.668843,-1.54789,3.16228,-0.633684,0.00696955,-0.0252118
3310076,1,-1.58733,-0.512404,-0.00919781,-2.08469,-1.57452,1.59773,0.784132,-1.59053,-0.511588,-0.01158,-2.08085,-1.57642,1.60073,0.783896,-0.562681,0.387272,-0.301329,0.412491,-0.146741,0.953855,-0.0413518,-0.661737,0.4121,-0.385158,0.457181,-0.176788,1.00533,-0.0435767,-12.8641,-4.02011,-17.0678,23.5544,-2.08159,-0.894261,0.0130102,-1.58277,-0.739823,-1.61678,3.20916,-0.64713,0.00730609,-0.0236868
3310077,1,-1.58793,-0.511982,-0.00953275,-2.08426,-1.57467,1.59872,0.784078,-1.5912,-0.511169,-0.0119714,-2.08038,-1.5766,1.60175,0.783852,-0.571588,0.394454,-0.311602,0.420666,-0.150197,0.961332,-0.0455953,-0.67288,0.41959,-0.391471,0.465648,-0.179286,1.02224,-0.0441857,-12.9434,-4.22244,-16.9131,23.6536,-2.11546,-0.842992,0.149424,-1.6355,-0.82688,-1.68727,3.26411,-0.660902,0.00677381,-0.0223408
3310078,1,-1.58856,-0.51157,-0.00987099,-2.08382,-1.57483,1.59976,0.784037,-1.59189,-0.510742,-0.0123692,-2.07991,-1.57678,1.60279,0.783807,-0.590818,0.402962,-0.314911,0.428948,-0.153933,0.971514,-0.0429829,-0.684022,0.42708,-0.397783,0.474115,-0.181784,1.03915,-0.0447946,-12.7411,-4.27402,-16.7901,23.6536,-2.14384,-0.810948,0.143015,-1.68562,-0.914978,-1.75302,3.31996,-0.674615,0.00658016,-0.0211434
3310079,1,-1.5892,-0.51115,-0.0102144,-2.08336,-1.57498,1.60083,0.783997,-1.59258,-0.510307,-0.0127733,-2.07942,-1.57696,1.60385,0.783762,-0.602637,0.410001,-0.325621,0.439137,-0.156446,1.01048,-0.0406261,-0.695165,0.43457,-0.404096,0.482581,-0.184282,1.05606,-0.0454036,-12.511,-4.25021,-16.7108,23.606,-2.18321,-0.913488,0.122873,-1.73035,-0.997973,-1.81049,3.37363,-0.688099,0.00738021,-0.0199559
3310080,1,-1.58986,-0.510722,-0.0105698,-2.08291,-1.57515,1.6019,0.783961,-1.59329,-0.509865,-0.0131837,-2.07893,-1.57715,1.60492,0.783716,-0.614526,0.427363,-0.335413,0.443458,-0.156541,1.02543,-0.0420635,-0.706307,0.44206,-0.410408,0.491048,-0.18678,1.07297,-0.0460126,-12.3364,-4.27402,-16.56,23.5782,-2.14934,-0.997716,0.0587866,-1.76864,-1.08053,-1.8577,3.42718,-0.701395,0.00912481,-0.0186582
3310081,1,-1.59052,-0.51028,-0.0109488,-2.08243,-1.57531,1.60299,0.78392,-1.59401,-0.509415,-0.0136005,-2.07843,-1.57734,1.60601,0.783669,-0.643216,0.429763,-0.345242,0.449394,-0.159328,1.03395,-0.0450852,-0.71745,0.44955,-0.41672,0.499515,-0.189279,1.08988,-0.0466215,-12.261,-4.27402,-16.2585,23.5068,-2.15483,-1.00412,0.038645,-1.79537,-1.17054,-1.8876,3.48574,-0.714617,0.0124009,-0.0172058
3310082,1,-1.5912,-0.509823,-0.0113171,-2.08196,-1.57549,1.60407,0.783872,-1.59473,-0.508958,-0.0140235,-2.07792,-1.57753,1.60711,0.783622,-0.65737,0.437493,-0.353241,0.456814,-0.162343,1.06564,-0.0448211,-0.728593,0.45704,-0.423033,0.507981,-0.191777,1.1068,-0.0472305,-12.1341,-4.40097,-16.08,23.3561,-2.14384,-0.991307,0.0780126,-1.80384,-1.26062,-1.89231,3.54717,-0.727573,0.0181291,-0.0156709
3310083,1,-1.5919,-0.509365,-0.0116966,-2.08146,-1.57566,1.60518,0.783823,-1.59547,-0.508494,-0.0144528,-2.07741,-1.57772,1.60824,0.783574,-0.66998,0.444811,-0.356876,0.469326,-0.164218,1.07181,-0.0449767,-0.739735,0.46453,-0.429345,0.516448,-0.194275,1.12371,-0.0478395,-11.9318,-4.5795,-16.0046,23.1577,-2.13835,-0.946447,0.129282,-1.79725,-1.34019,-1.87711,3.60507,-0.740106,0.0257023,-0.0141642
3310084,1,-1.5926,-0.5089,-0.0120845,-2.08096,-1.57584,1.6063,0.783777,-1.59623,-0.508022,-0.0148885,-2.07688,-1.57792,1.60938,0.783526,-0.679516,0.449759,-0.366002,0.478253,-0.170425,1.09699,-0.0475942,-0.750878,0.47202,-0.435658,0.524915,-0.196773,1.14062,-0.0484484,-11.7294,-4.62711,-15.9292,22.9593,-2.12095,-0.887853,0.129282,-1.78416,-1.40335,-1.85381,3.65383,-0.752209,0.0338576,-0.012711
3310085,1,-1.59332,-0.508425,-0.0124908,-2.08045,-1.57601,1.60742,0.783739,-1.59699,-0.507542,-0.0153305,-2.07635,-1.57812,1.61054,0.783477,-0.685002,0.454006,-0.378525,0.486343,-0.170181,1.09583,-0.0431422,-0.76202,0.47951,-0.44197,0.533381,-0.199271,1.15753,-0.0490574,-11.5549,-4.67868,-15.7507,22.8363,-2.11546,-0.830175,0.0780126,-1.76874,-1.44463,-1.82747,3.68973,-0.76383,0.0421741,-0.01127
3310086,1,-1.59406,-0.507962,-0.0129139,-2.07993,-1.5762,1.60856,0.783701,-1.59776,-0.507055,-0.0157787,-2.07581,-1.57832,1.61171,0.783427,-0.695729,0.456643,-0.389885,0.496448,-0.174607,1.09481,-0.0437171,-0.773163,0.487,-0.448282,0.541848,-0.201769,1.17444,-0.0496664,-11.4041,-4.5795,-15.5999,22.6102,-2.10997,-0.810948,0.000192821,-1.75014,-1.45933,-1.7961,3.71067,-0.774894,0.0512035,-0.00982356
3310087,1,-1.5948,-0.50749,-0.0133309,-2.07939,-1.57638,1.60972,0.783662,-1.59854,-0.506561,-0.016233,-2.07526,-1.57853,1.6129,0.783377,-0.710804,0.460607,-0.395325,0.519922,-0.175545,1.1256,-0.0443414,-0.783511,0.49449,-0.454216,0.550188,-0.203869,1.19032,-0.0502277,-11.3525,-4.45255,-15.473,22.5626,-2.04771,-0.92722,-0.077627,-1.72681,-1.43922,-1.75822,3.70976,-0.785117,0.0614225,-0.00847016
3310088,1,-1.59556,-0.507004,-0.0137781,-2.07885,-1.57658,1.6109,0.783621,-1.59934,-0.506059,-0.0166931,-2.0747,-1.57873,1.61411,0.783326,-0.726221,0.467732,-0.409615,0.526658,-0.184482,1.12972,-0.0419296,-0.79386,0.50198,-0.46015,0.558529,-0.205969,1.2062,-0.0507891,-11.3287,-4.45255,-15.1675,22.4356,-2.01384,-1.01053,-0.10967,-1.69709,-1.38149,-1.7127,3.68182,-0.794167,0.0728519,-0.00739425
3310089,1,-1.59634,-0.506512,-0.0142136,-2.07829,-1.57677,1.6121,0.783581,-1.60014,-0.505549,-0.0171592,-2.07413,-1.57894,1.61533,0.783275,-0.747963,0.475863,-0.416945,0.536214,-0.188727,1.15621,-0.0447169,-0.804208,0.50947,-0.466084,0.566869,-0.208068,1.22209,-0.0513505,-11.0986,-4.42477,-15.1437,22.2373,-2.03673,-1.02335,-0.141714,-1.6566,-1.29909,-1.65363,3.63431,-0.802033,0.0857225,-0.00673841
3310090,1,-1.59714,-0.50601,-0.0146552,-2.07772,-1.57696,1.61331,0.783534,-1.60096,-0.505032,-0.0176312,-2.07356,-1.57915,1.61657,0.783223,-0.765831,0.479164,-0.421182,0.545007,-0.187656,1.15506,-0.0487116,-0.814557,0.51696,-0.472018,0.575209,-0.210168,1.23797,-0.0519118,-10.9241,-4.42477,-15.0405,22.1619,-2.06419,-1.13321,-0.116079,-1.60358,-1.20489,-1.57917,3.57672,-0.808933,0.0999471,-0.00659945
3310091,1,-1.59794,-0.505494,-0.0150957,-2.07715,-1.57716,1.61456,0.783499,-1.60178,-0.504508,-0.0181092,-2.07297,-1.57936,1.61782,0.78317,-0.779171,0.490013,-0.424941,0.549252,-0.187523,1.17272,-0.0446847,-0.824905,0.52445,-0.477951,0.583549,-0.212267,1.25385,-0.0524732,-10.8487,-4.50412,-15.0167,22.1381,-2.0706,-1.37766,-0.155447,-1.54265,-1.10715,-1.49674,3.51565,-0.815314,0.114645,-0.00702736
3310092,1,-1.59872,-0.504975,-0.0155508,-2.07656,-1.57736,1.6158,0.783457,-1.60262,-0.503976,-0.018593,-2.07238,-1.57958,1.61909,0.783117,-0.783747,0.498091,-0.432091,0.562436,-0.192914,1.19521,-0.04315,-0.835253,0.53194,-0.483885,0.59189,-0.214367,1.26973,-0.0530346,-11.051,-4.50412,-14.866,22.1143,-2.0587,-1.34562,-0.155447,-1.48256,-1.01727,-1.41809,3.45777,-0.821696,0.12807,-0.00801733
3310093,1,-1.59952,-0.504461,-0.0160041,-2.07598,-1.57756,1.61701,0.783429,-1.60346,-0.503437,-0.0190829,-2.07178,-1.57979,1.62038,0.783064,-0.788491,0.51164,-0.438578,0.568699,-0.196048,1.18514,-0.0378835,-0.845602,0.53943,-0.489819,0.60023,-0.216466,1.28561,-0.0535959,-11.2771,-4.50412,-15.0405,22.2611,-2.0706,-1.01694,-0.26531,-1.43151,-0.944914,-1.35284,3.40682,-0.828411,0.138583,-0.00954489
3310094,1,-1.60032,-0.503927,-0.0164696,-2.07537,-1.57776,1.61826,0.783399,-1.60432,-0.50289,-0.0195786,-2.07117,-1.58001,1.62168,0.78301,-0.798392,0.517522,-0.441898,0.573664,-0.196956,1.20654,-0.0364061,-0.85595,0.54692,-0.495753,0.60857,-0.218566,1.30149,-0.0541573,-11.4517,-4.47635,-15.1437,22.2373,-2.10997,-0.772496,-0.31658,-1.39381,-0.8964,-1.30548,3.3667,-0.835736,0.145688,-0.0116003
3310095,1,-1.60115,-0.503392,-0.0169418,-2.07478,-1.57796,1.61954,0.783358,-1.60518,-0.502335,-0.0200803,-2.07056,-1.58023,1.623,0.782955,-0.810651,0.521,-0.455441,0.580809,-0.200286,1.21677,-0.0384939,-0.866298,0.55441,-0.501687,0.61691,-0.220666,1.31738,-0.0547187,-11.5787,-4.40097,-15.0921,22.388,-2.18321,-0.90067,-0.278127,-1.36776,-0.866571,-1.27301,3.33745,-0.843653,0.150227,-0.0142669
3310096,1,-1.60199,-0.502859,-0.0174091,-2.07417,-1.57818,1.62086,0.783314,-1.60606,-0.501773,-0.0205879,-2.06993,-1.58045,1.62433,0.7829,-0.820764,0.52462,-0.453879,0.586194,-0.200286,1.22955,-0.0413842,-0.876647,0.5619,-0.50762,0.625251,-0.222765,1.33326,-0.05528,-11.654,-4.3494,-15.2429,22.5348,-2.23997,-1.08744,-0.200308,-1.34967,-0.841352,-1.25017,3.31401,-0.851949,0.1535,-0.0176387
3310097,1,-1.60285,-0.502302,-0.0178855,-2.07355,-1.57839,1.62222,0.783273,-1.60695,-0.501204,-0.0211011,-2.0693,-1.58068,1.62568,0.782844,-0.83767,0.534899,-0.454017,0.592785,-0.201998,1.27781,-0.041741,-0.886064,0.56939,-0.513141,0.633417,-0.224438,1.34795,-0.0557631,-11.4795,-4.40097,-15.3698,22.5864,-2.23997,-1.36484,-0.161856,-1.34235,-0.81633,-1.24176,3.29494,-0.860749,0.155218,-0.0216652
3310098,1,-1.60371,-0.501724,-0.0183642,-2.07293,-1.57861,1.62353,0.783233,-1.60784,-0.500627,-0.0216197,-2.06866,-1.58091,1.62704,0.782788,-0.845841,0.54734,-0.461085,0.603386,-0.205414,1.28512,-0.0401009,-0.895481,0.57688,-0.518662,0.641583,-0.226112,1.36264,-0.0562461,-11.4795,-4.6033,-15.346,22.6618,-2.1887,-1.35203,-0.174673,-1.34868,-0.799643,-1.25233,3.28295,-0.870267,0.154367,-0.0261539
3310099,1,-1.60456,-0.501148,-0.0188635,-2.0723,-1.57883,1.62487,0.783203,-1.60875,-0.500043,-0.0221439,-2.06801,-1.58113,1.62842,0.782731,-0.866435,0.557861,-0.472003,0.604036,-0.208984,1.28505,-0.0375485,-0.904898,0.58437,-0.524183,0.649749,-0.227785,1.37733,-0.0567292,-11.7056,-4.88101,-15.2944,22.8363,-2.09807,-1.2678,-0.225942,-1.36142,-0.801694,-1.27133,3.28229,-0.88049,0.151683,-0.0308615
3310100,1,-1.60544,-0.500551,-0.019359,-2.07167,-1.57906,1.62621,0.783158,-1.60966,-0.499451,-0.0226736,-2.06735,-1.58136,1.62981,0.782674,-0.867364,0.570003,-0.479738,0.629591,-0.213339,1.31783,-0.0391312,-0.914316,0.59186,-0.529705,0.657915,-0.229458,1.39201,-0.0572122,-11.6818,-5.13492,-15.2944,22.9355,-2.08708,-1.16526,-0.18749,-1.37283,-0.823844,-1.28707,3.29154,-0.891076,0.1483,-0.0356532
3310101,1,-1.60633,-0.49996,-0.0198618,-2.07103,-1.57928,1.62757,0.783102,-1.61059,-0.498851,-0.0232088,-2.06668,-1.58159,1.63122,0.782616,-0.864574,0.575715,-0.481326,0.630613,-0.214159,1.31709,-0.0478146,-0.923733,0.59935,-0.535226,0.66608,-0.231132,1.4067,-0.0576952,-11.654,-5.33725,-15.2191,23.0347,-2.14384,-1.04258,-0.0712183,-1.38925,-0.857662,-1.30722,3.30282,-0.901691,0.14343,-0.0405193
3310102,1,-1.60723,-0.499364,-0.0203757,-2.07038,-1.5795,1.62896,0.783039,-1.61152,-0.498245,-0.0237496,-2.06601,-1.58183,1.63264,0.782558,-0.869397,0.579388,-0.489058,0.632295,-0.20788,1.34713,-0.0555516,-0.93315,0.60684,-0.540747,0.674246,-0.232805,1.42139,-0.0581783,-11.5033,-5.41263,-15.1159,23.2053,-2.25096,-0.959264,0.0844213,-1.4209,-0.896091,-1.34531,3.31562,-0.912487,0.136002,-0.0453743
3310103,1,-1.60814,-0.498754,-0.0208825,-2.06973,-1.57971,1.63033,0.782987,-1.61246,-0.49763,-0.0242959,-2.06533,-1.58206,1.63407,0.782499,-0.878936,0.584916,-0.496644,0.640423,-0.211409,1.33744,-0.0564827,-0.942567,0.61433,-0.546268,0.682412,-0.234478,1.43608,-0.0586613,-11.3287,-5.43643,-15.0683,23.2569,-2.29033,-0.733129,0.122873,-1.46615,-0.933659,-1.39931,3.33256,-0.923611,0.126807,-0.0499711
3310104,1,-1.60906,-0.498151,-0.0214063,-2.06906,-1.57993,1.63174,0.782939,-1.61341,-0.497008,-0.0248476,-2.06464,-1.5823,1.63552,0.78244,-0.88983,0.588775,-0.500417,0.642379,-0.215969,1.33972,-0.0587913,-0.951985,0.62182,-0.551789,0.690578,-0.236152,1.45077,-0.0591444,-11.2533,-5.43643,-14.9136,23.2807,-2.27934,-0.656224,0.071604,-1.51652,-0.964123,-1.45872,3.3521,-0.935003,0.117774,-0.0539772
3310105,1,-1.60997,-0.497532,-0.0219302,-2.06839,-1.58015,1.63318,0.782888,-1.61437,-0.496379,-0.025405,-2.06394,-1.58253,1.63699,0.78238,-0.893618,0.593424,-0.521347,0.648246,-0.219214,1.38746,-0.0607189,-0.961402,0.62931,-0.55731,0.698744,-0.237825,1.46546,-0.0596274,-11.3763,-5.43643,-14.7112,23.2807,-2.26835,-0.707494,0.0194189,-1.56478,-0.984768,-1.51391,3.37375,-0.946549,0.110319,-0.0571725
3310106,1,-1.6109,-0.496907,-0.0224555,-2.06771,-1.58038,1.63463,0.782835,-1.61535,-0.495742,-0.0259678,-2.06323,-1.58277,1.63847,0.78232,-0.903204,0.602665,-0.519658,0.65561,-0.225353,1.39993,-0.058501,-0.970819,0.6368,-0.562831,0.70691,-0.239498,1.48015,-0.0601105,-11.4279,-5.48801,-14.6874,23.1577,-2.27934,-0.907079,-0.0126246,-1.60865,-0.997901,-1.56094,3.3977,-0.958102,0.104581,-0.0595621
3310107,1,-1.61186,-0.496269,-0.0229864,-2.06702,-1.58059,1.63609,0.782769,-1.61632,-0.495098,-0.0265357,-2.06251,-1.58302,1.63996,0.78226,-0.929476,0.610915,-0.519861,0.663493,-0.221566,1.42687,-0.0609774,-0.979214,0.64429,-0.567921,0.714902,-0.240731,1.49354,-0.060467,-11.0232,-5.58719,-14.739,22.9831,-2.37547,-0.875035,0.0651953,-1.64958,-1.00923,-1.6034,3.42407,-0.969703,0.100041,-0.0612703
3310108,1,-1.61281,-0.495618,-0.0235181,-2.06633,-1.58081,1.63753,0.78271,-1.61731,-0.494446,-0.0271087,-2.06179,-1.58326,1.64147,0.782199,-0.933235,0.621958,-0.525443,0.672585,-0.21646,1.42883,-0.0590382,-0.98761,0.65178,-0.573012,0.722894,-0.241964,1.50693,-0.0608235,-10.9756,-5.63876,-14.7112,22.8839,-2.42674,-0.681859,0.0459692,-1.6875,-1.02447,-1.64351,3.45306,-0.981523,0.0964484,-0.0624193
3310109,1,-1.61378,-0.494973,-0.0240596,-2.06562,-1.58103,1.63903,0.782639,-1.61831,-0.493787,-0.0276868,-2.06106,-1.5835,1.64299,0.782138,-0.933127,0.628235,-0.52696,0.680149,-0.215149,1.43357,-0.0652317,-0.996005,0.65927,-0.578102,0.730886,-0.243196,1.52032,-0.06118,-11.051,-5.71414,-14.7628,22.7094,-2.40935,-0.694677,0.103647,-1.72623,-1.04631,-1.68664,3.48401,-0.993868,0.0932946,-0.0630761
3310110,1,-1.61473,-0.494316,-0.0246159,-2.06489,-1.58126,1.64056,0.782584,-1.61931,-0.49312,-0.02827,-2.06032,-1.58374,1.64452,0.782076,-0.940235,0.63486,-0.534076,0.686675,-0.217677,1.47778,-0.063655,-1.0044,0.66676,-0.583193,0.738878,-0.244429,1.53371,-0.0615365,-11.1502,-5.69034,-14.739,22.5348,-2.29033,-0.746862,0.000192821,-1.77265,-1.07237,-1.7416,3.51507,-1.00695,0.0896291,-0.0632834
3310111,1,-1.61572,-0.493672,-0.0251792,-2.06417,-1.58149,1.64206,0.782516,-1.62033,-0.492446,-0.0288583,-2.05958,-1.58399,1.64607,0.782014,-0.95227,0.650177,-0.549618,0.699041,-0.221792,1.47392,-0.0661388,-1.0128,0.67425,-0.588284,0.74687,-0.245662,1.5471,-0.061893,-10.9994,-5.51181,-14.5367,22.4356,-2.22899,-0.636998,-0.0190333,-1.82294,-1.10366,-1.80198,3.54558,-1.02051,0.0858174,-0.0630943
3310112,1,-1.61671,-0.493032,-0.0257498,-2.06343,-1.58173,1.6436,0.782454,-1.62135,-0.491764,-0.0294517,-2.05882,-1.58424,1.64763,0.781952,-0.968326,0.643799,-0.552833,0.708924,-0.22371,1.50614,-0.066605,-1.02119,0.68174,-0.593374,0.754862,-0.246895,1.56049,-0.0622495,-10.7217,-5.08334,-14.3582,22.3365,-2.18321,-0.592137,-0.0712183,-1.86581,-1.13369,-1.85189,3.57066,-1.03384,0.0835285,-0.0626441
3310113,1,-1.61774,-0.492369,-0.0263227,-2.06269,-1.58196,1.64513,0.782391,-1.62238,-0.491075,-0.0300501,-2.05806,-1.58449,1.64921,0.78189,-0.989021,0.645508,-0.5543,0.721511,-0.229003,1.50175,-0.067513,-1.02959,0.68923,-0.598465,0.762854,-0.248127,1.57389,-0.062606,-10.2417,-4.78183,-14.128,22.1381,-2.13835,-0.656224,-0.116079,-1.89533,-1.13634,-1.88549,3.57751,-1.04622,0.083891,-0.0621559
3310114,1,-1.61877,-0.491697,-0.0269086,-2.06194,-1.58218,1.64672,0.782321,-1.62341,-0.490378,-0.0306537,-2.05729,-1.58473,1.65079,0.781827,-0.997394,0.652166,-0.566248,0.727016,-0.227318,1.50714,-0.0708209,-1.03798,0.69672,-0.603555,0.770846,-0.24936,1.58728,-0.0629625,-9.99175,-4.80563,-13.8265,22.1897,-2.15483,-0.868627,-0.0904444,-1.90902,-1.09926,-1.90123,3.56135,-1.0573,0.0874996,-0.0618132
3310115,1,-1.61979,-0.491,-0.0275025,-2.06118,-1.58241,1.6483,0.782254,-1.62446,-0.489674,-0.0312623,-2.05651,-1.58499,1.65239,0.781763,-1.0074,0.662525,-0.57443,0.731611,-0.225549,1.54211,-0.0732188,-1.04638,0.70421,-0.608646,0.778837,-0.250593,1.60067,-0.0633191,-9.73784,-4.98416,-13.5726,22.1143,-2.17772,-0.933629,-0.0584009,-1.90681,-1.03943,-1.89802,3.53273,-1.06729,0.0940028,-0.0617104
3310116,1,-1.62084,-0.490281,-0.0280916,-2.06043,-1.58264,1.64986,0.782198,-1.62552,-0.488962,-0.0318761,-2.05572,-1.58524,1.65401,0.7817,-1.01745,0.677982,-0.576752,0.736547,-0.22357,1.53876,-0.0667468,-1.05477,0.7117,-0.613736,0.786829,-0.251826,1.61406,-0.0636756,-9.53551,-5.30948,-13.3187,22.2611,-2.23448,-0.894261,-0.122488,-1.8938,-0.984599,-1.88153,3.50721,-1.07672,0.101789,-0.0618406
3310117,1,-1.62187,-0.48958,-0.0286873,-2.05965,-1.58288,1.65145,0.782132,-1.62658,-0.488243,-0.0324945,-2.05493,-1.58549,1.65563,0.781636,-1.04171,0.687626,-0.577324,0.740545,-0.227032,1.53439,-0.0690994,-1.06209,0.71919,-0.618388,0.794662,-0.252612,1.62608,-0.0638617,-9.55931,-5.48801,-13.2195,22.4634,-2.27934,-0.823766,-0.122488,-1.8729,-0.955748,-1.85647,3.49589,-1.08614,0.109974,-0.0621329
3310118,1,-1.62293,-0.488859,-0.0292861,-2.05889,-1.58312,1.65307,0.782076,-1.62765,-0.487517,-0.0331175,-2.05412,-1.58574,1.65727,0.781572,-1.04406,0.693696,-0.586195,0.758638,-0.230528,1.57594,-0.0625671,-1.0694,0.72668,-0.62304,0.802494,-0.253399,1.63811,-0.0640479,-9.53551,-5.66653,-13.1918,22.8363,-2.31871,-1.03617,-0.219534,-1.8446,-0.950729,-1.8244,3.49628,-1.09559,0.118315,-0.0626088
3310119,1,-1.62399,-0.488149,-0.02989,-2.05811,-1.58336,1.65473,0.782019,-1.62872,-0.486782,-0.0337452,-2.05331,-1.586,1.65892,0.781507,-1.04852,0.697471,-0.589376,0.764344,-0.23272,1.58932,-0.05929,-1.07672,0.73417,-0.627691,0.810326,-0.254185,1.65014,-0.064234,-9.66246,-5.76572,-13.2195,23.1339,-2.36449,-1.30076,-0.278127,-1.81519,-0.951363,-1.79306,3.49679,-1.10491,0.125595,-0.0634194
3310120,1,-1.62505,-0.487419,-0.0305043,-2.05733,-1.5836,1.65636,0.781957,-1.62981,-0.486041,-0.0343775,-2.0525,-1.58625,1.66058,0.781443,-1.05555,0.707498,-0.593871,0.764182,-0.234986,1.60747,-0.059731,-1.08403,0.74166,-0.632343,0.818158,-0.254972,1.66216,-0.0644202,-9.73784,-5.78952,-13.2949,23.4552,-2.37547,-1.11399,-0.258901,-1.79228,-0.951803,-1.77157,3.49662,-1.11433,0.130403,-0.0647106
3310121,1,-1.62612,-0.486674,-0.031116,-2.05654,-1.58385,1.65799,0.781893,-1.6309,-0.485292,-0.0350145,-2.05167,-1.58651,1.66226,0.781378,-1.05147,0.714178,-0.595663,0.771845,-0.239763,1.60112,-0.0614316,-1.09135,0.74915,-0.636994,0.825991,-0.255758,1.67419,-0.0646063,-9.8886,-5.89267,-13.3187,23.6298,-2.31871,-0.972081,-0.200308,-1.78112,-0.95939,-1.76612,3.50367,-1.12435,0.13189,-0.0665474
3310122,1,-1.6272,-0.485915,-0.0317307,-2.05574,-1.58411,1.65965,0.781831,-1.632,-0.484535,-0.0356562,-2.05084,-1.58676,1.66394,0.781314,-1.05831,0.727938,-0.600843,0.779894,-0.247377,1.6054,-0.0616271,-1.09867,0.75664,-0.641646,0.833823,-0.256545,1.68621,-0.0647925,-9.91637,-6.19418,-13.3941,23.606,-2.27385,-0.933629,-0.161856,-1.78508,-0.979232,-1.7804,3.52087,-1.13519,0.129939,-0.0688914
3310123,1,-1.62826,-0.48515,-0.0323421,-2.05492,-1.58436,1.66137,0.781762,-1.6331,-0.483771,-0.0363025,-2.04999,-1.58702,1.66564,0.781249,-1.06198,0.730258,-0.614103,0.79374,-0.24815,1.6461,-0.0640824,-1.10598,0.76413,-0.646298,0.841655,-0.257331,1.69824,-0.0649786,-10.1663,-6.39651,-13.3941,23.4314,-2.22899,-1.15244,-0.0584009,-1.80068,-1.00819,-1.8087,3.54439,-1.14651,0.125431,-0.0716399
3310124,1,-1.62935,-0.48439,-0.032969,-2.05409,-1.5846,1.66305,0.781706,-1.63422,-0.482999,-0.0369534,-2.04914,-1.58728,1.66735,0.781183,-1.06072,0.740187,-0.612563,0.804229,-0.245439,1.63957,-0.0598693,-1.1133,0.77162,-0.650949,0.849487,-0.258118,1.71027,-0.0651648,-10.2179,-6.49966,-13.3465,23.1061,-2.27385,-1.14603,-0.10967,-1.82511,-1.0354,-1.84656,3.56621,-1.15779,0.118946,-0.0746569
3310125,1,-1.63046,-0.483616,-0.0335917,-2.05324,-1.58486,1.66475,0.781655,-1.63534,-0.48222,-0.037609,-2.04829,-1.58754,1.66908,0.781118,-1.08003,0.747589,-0.613708,0.818569,-0.249744,1.67076,-0.056413,-1.12061,0.77911,-0.655601,0.857319,-0.258904,1.72229,-0.065351,-9.91637,-6.44809,-13.4457,22.6856,-2.26835,-1.12681,-0.174673,-1.85948,-1.05496,-1.89639,3.58102,-1.16888,0.110432,-0.0777625
3310126,1,-1.63159,-0.482838,-0.0342213,-2.05239,-1.5851,1.66643,0.781596,-1.63647,-0.481433,-0.0382693,-2.04742,-1.5878,1.67081,0.781053,-1.09701,0.752073,-0.620922,0.834325,-0.25203,1.65552,-0.0567739,-1.12793,0.7866,-0.660253,0.865152,-0.259691,1.73432,-0.0655371,-9.61089,-6.34891,-13.4457,22.2373,-2.30223,-0.92722,-0.161856,-1.89571,-1.06098,-1.94917,3.58342,-1.17944,0.101184,-0.080861
3310127,1,-1.6327,-0.48206,-0.0348768,-2.05152,-1.58537,1.66815,0.781526,-1.6376,-0.480639,-0.0389337,-2.04655,-1.58806,1.67255,0.780987,-1.08904,0.759108,-0.635155,0.841434,-0.250828,1.65884,-0.0599626,-1.13413,0.79409,-0.664461,0.872811,-0.260035,1.74494,-0.0655449,-9.76165,-6.29733,-13.168,22.0389,-2.28483,-0.855809,-0.077627,-1.92307,-1.04696,-1.99057,3.56944,-1.18917,0.0932135,-0.0839618
3310128,1,-1.6338,-0.481276,-0.0355465,-2.05065,-1.58563,1.66988,0.781463,-1.63874,-0.479838,-0.0396024,-2.04567,-1.58832,1.67431,0.780921,-1.09465,0.767396,-0.643825,0.848717,-0.250551,1.69217,-0.0647999,-1.14034,0.80158,-0.66867,0.88047,-0.260379,1.75556,-0.0655527,-9.99175,-6.22195,-12.8387,21.789,-2.25096,-0.662633,-0.044668,-1.94188,-1.01964,-2.01906,3.54442,-1.19829,0.0867899,-0.0870342
3310129,1,-1.63494,-0.480496,-0.0361997,-2.04977,-1.58589,1.6716,0.781404,-1.63989,-0.479029,-0.0402753,-2.04478,-1.58858,1.67608,0.780856,-1.10312,0.787687,-0.644305,0.858891,-0.253584,1.68597,-0.0667267,-1.14654,0.80907,-0.672879,0.888129,-0.260723,1.76618,-0.0655605,-9.83702,-6.095,-12.7355,21.6144,-2.25096,-0.566503,-0.0584009,-1.95719,-0.998857,-2.04026,3.51919,-1.2072,0.0812093,-0.0899321
3310130,1,-1.63607,-0.479708,-0.0368592,-2.04888,-1.58614,1.67335,0.781348,-1.64104,-0.478212,-0.0409524,-2.04388,-1.58884,1.67785,0.78079,-1.1298,0.788683,-0.646441,0.8624,-0.253897,1.7122,-0.0656549,-1.15275,0.81656,-0.677087,0.895788,-0.261067,1.7768,-0.0655683,-9.63866,-5.89267,-12.6602,21.543,-2.29033,-0.443822,-0.141714,-1.96867,-0.998699,-2.05472,3.5012,-1.2161,0.0767889,-0.0924938
3310131,1,-1.63722,-0.478916,-0.0375277,-2.04799,-1.5864,1.6751,0.781276,-1.6422,-0.477388,-0.0416337,-2.04298,-1.5891,1.67964,0.780725,-1.137,0.787053,-0.655733,0.868212,-0.262078,1.7452,-0.0689493,-1.15895,0.82405,-0.681296,0.903447,-0.261411,1.78742,-0.0655761,-9.61089,-5.56339,-12.434,21.5668,-2.3416,-0.456639,-0.122488,-1.97114,-1.00485,-2.05709,3.48657,-1.22475,0.0745349,-0.0947331
3310132,1,-1.63838,-0.478122,-0.0381914,-2.04709,-1.58666,1.67688,0.781218,-1.64336,-0.476557,-0.0423192,-2.04207,-1.58936,1.68144,0.780659,-1.13863,0.792782,-0.659684,0.878983,-0.263465,1.74005,-0.0673155,-1.16516,0.83154,-0.685505,0.911107,-0.261755,1.79804,-0.0655839,-9.33318,-5.38882,-12.3309,21.5906,-2.31871,-0.527135,-0.213125,-1.96511,-0.994781,-2.04817,3.46628,-1.23291,0.0746369,-0.0967901
3310133,1,-1.63952,-0.477305,-0.0388756,-2.04619,-1.58692,1.67869,0.781142,-1.64453,-0.475718,-0.0430089,-2.04115,-1.58963,1.68325,0.780594,-1.13817,0.799826,-0.663132,0.877198,-0.263835,1.7698,-0.07237,-1.17136,0.83903,-0.689713,0.918766,-0.262099,1.80866,-0.0655917,-9.38475,-5.30948,-12.1047,21.8882,-2.30772,-0.636998,-0.135305,-1.95953,-0.967901,-2.03917,3.44064,-1.24093,0.0759958,-0.0987831
3310134,1,-1.64068,-0.476479,-0.0395677,-2.04529,-1.58717,1.68048,0.781077,-1.64571,-0.474871,-0.0437028,-2.04022,-1.58989,1.68507,0.780528,-1.13655,0.810983,-0.669924,0.883358,-0.258956,1.75918,-0.0685369,-1.17757,0.84652,-0.693922,0.926425,-0.262443,1.81928,-0.0655995,-9.28557,-5.30948,-11.6723,22.0905,-2.31322,-0.611364,-0.149038,-1.96283,-0.940143,-2.0404,3.41948,-1.2494,0.0772378,-0.100778
3310135,1,-1.64187,-0.475647,-0.0402636,-2.04438,-1.58742,1.68228,0.781012,-1.6469,-0.474017,-0.0444009,-2.03929,-1.59015,1.6869,0.780462,-1.15114,0.817451,-0.675509,0.884405,-0.253767,1.75682,-0.0645893,-1.18377,0.85401,-0.698131,0.934084,-0.262787,1.8299,-0.0656073,-8.98009,-5.43643,-11.3946,22.3127,-2.35258,-0.450231,-0.174673,-1.97339,-0.923943,-2.04893,3.41046,-1.25861,0.0785102,-0.102772
3310136,1,-1.64306,-0.474792,-0.0409387,-2.04344,-1.58767,1.6841,0.780944,-1.64809,-0.473155,-0.0451033,-2.03835,-1.59041,1.68874,0.780397,-1.16921,0.830066,-0.675288,0.914072,-0.254748,1.78653,-0.0679239,-1.18998,0.8615,-0.702339,0.941743,-0.263131,1.84052,-0.0656151,-8.47625,-5.63876,-11.3946,22.388,-2.39836,-0.373326,-0.161856,-1.98265,-0.916291,-2.05426,3.40842,-1.26825,0.0808906,-0.104785
3310137,1,-1.64425,-0.473946,-0.0416572,-2.04252,-1.58793,1.68591,0.780877,-1.64928,-0.472286,-0.0458094,-2.0374,-1.59068,1.69059,0.780331,-1.17163,0.83655,-0.692923,0.917649,-0.252601,1.78051,-0.0660406,-1.19506,0.86899,-0.706103,0.949218,-0.263042,1.84972,-0.0654392,-8.25011,-5.74191,-11.0415,22.5348,-2.39287,-0.418187,-0.135305,-1.98314,-0.907422,-2.04745,3.40202,-1.27775,0.0852007,-0.106878
3310138,1,-1.64543,-0.473083,-0.0423981,-2.04159,-1.58818,1.68776,0.780801,-1.65048,-0.47141,-0.0465193,-2.03644,-1.59094,1.69245,0.780266,-1.17953,0.846795,-0.710442,0.920853,-0.255713,1.81142,-0.0660535,-1.20014,0.87648,-0.709867,0.956693,-0.262954,1.85891,-0.0652633,-8.22234,-5.91647,-10.6091,22.634,-2.37547,-0.539952,-0.077627,-1.96718,-0.898733,-2.01676,3.39308,-1.28693,0.0924189,-0.109041
3310139,1,-1.64665,-0.472226,-0.0431122,-2.04065,-1.58844,1.6896,0.780728,-1.65169,-0.470526,-0.0472329,-2.03548,-1.5912,1.69431,0.780201,-1.18532,0.847045,-0.710957,0.931059,-0.260335,1.81346,-0.070127,-1.20523,0.88397,-0.713631,0.964169,-0.262865,1.86811,-0.0650875,-7.9486,-5.86887,-10.4583,22.5864,-2.30223,-0.643407,-0.0254419,-1.933,-0.891286,-1.95891,3.38681,-1.29581,0.10253,-0.111187
3310140,1,-1.64788,-0.471373,-0.0438435,-2.0397,-1.5887,1.69146,0.780655,-1.6529,-0.469635,-0.0479503,-2.03451,-1.59147,1.69619,0.780136,-1.19907,0.852471,-0.708946,0.932226,-0.262208,1.80412,-0.0660365,-1.21031,0.89146,-0.717395,0.971644,-0.262776,1.8773,-0.0649116,-7.67089,-5.76572,-10.3314,22.4872,-2.26835,-0.713903,-0.0382593,-1.888,-0.875153,-1.88627,3.3804,-1.3045,0.114281,-0.113191
3310141,1,-1.64908,-0.470496,-0.0445861,-2.03872,-1.58897,1.69338,0.780573,-1.65411,-0.468736,-0.0486714,-2.03353,-1.59173,1.69808,0.780071,-1.19385,0.850187,-0.730277,0.942209,-0.266585,1.85631,-0.0715859,-1.21539,0.89895,-0.721159,0.979119,-0.262688,1.88649,-0.0647357,-7.67089,-5.74191,-9.9505,22.1619,-2.14934,-1.17807,0.0523779,-1.83774,-0.840644,-1.80777,3.37066,-1.31296,0.126513,-0.114947
3310142,1,-1.6503,-0.469621,-0.045327,-2.03775,-1.58923,1.69524,0.780507,-1.65533,-0.467829,-0.0493964,-2.03254,-1.59199,1.69997,0.780007,-1.19739,0.871228,-0.731957,0.951022,-0.266725,1.83863,-0.0652948,-1.22047,0.90644,-0.724923,0.986594,-0.262599,1.89569,-0.0645598,-7.67089,-5.74191,-9.77594,21.8882,-2.11546,-1.18448,-0.00621587,-1.78492,-0.792115,-1.72551,3.35813,-1.321,0.138033,-0.11637
3310143,1,-1.65151,-0.468722,-0.046054,-2.03676,-1.58949,1.69712,0.780436,-1.65656,-0.466915,-0.050125,-2.03155,-1.59225,1.70188,0.779942,-1.19584,0.873825,-0.721743,0.959384,-0.261227,1.86709,-0.0674557,-1.22556,0.91393,-0.728688,0.994069,-0.262511,1.90488,-0.064384,-7.69469,-5.84109,-9.9505,21.5668,-2.09257,-0.933629,-0.0126246,-1.74066,-0.747101,-1.6544,3.34781,-1.32888,0.146497,-0.117359
3310144,1,-1.6527,-0.467815,-0.0467843,-2.03577,-1.58975,1.69897,0.78038,-1.65779,-0.465994,-0.0508575,-2.03055,-1.59252,1.70379,0.779878,-1.19546,0.881701,-0.72903,0.97252,-0.263287,1.84285,-0.0641228,-1.23064,0.92142,-0.732452,1.00154,-0.262422,1.91408,-0.0642081,-8.12316,-5.86887,-9.97827,21.2931,-2.13286,-0.707494,-0.155447,-1.71714,-0.707631,-1.61251,3.338,-1.33685,0.149977,-0.117913
3310145,1,-1.65391,-0.466929,-0.0475254,-2.03478,-1.59,1.70089,0.780325,-1.65902,-0.465065,-0.0515937,-2.02954,-1.59278,1.70572,0.779814,-1.18916,0.883402,-0.733145,0.980303,-0.259695,1.84676,-0.0579156,-1.23572,0.92891,-0.736216,1.00902,-0.262333,1.92327,-0.0640322,-8.45244,-5.76572,-10.0298,21.2455,-2.22899,-0.778905,-0.284536,-1.71435,-0.662028,-1.59959,3.32123,-1.34472,0.149148,-0.118182
3310146,1,-1.65513,-0.46602,-0.0482595,-2.03378,-1.59026,1.70282,0.780277,-1.66027,-0.464129,-0.0523337,-2.02852,-1.59304,1.70765,0.77975,-1.20242,0.884915,-0.732384,0.9812,-0.255524,1.87738,-0.0516513,-1.24081,0.9364,-0.73998,1.01649,-0.262245,1.93247,-0.0638563,-8.52782,-5.69034,-10.1806,21.416,-2.36998,-0.862218,-0.459402,-1.72822,-0.603,-1.60925,3.29548,-1.35243,0.145258,-0.11846
3310147,1,-1.65639,-0.465102,-0.0489867,-2.03279,-1.59052,1.70472,0.780236,-1.66151,-0.463185,-0.053077,-2.0275,-1.5933,1.70959,0.779687,-1.21496,0.900664,-0.731753,0.985343,-0.258482,1.86734,-0.0521959,-1.24477,0.94389,-0.743299,1.02378,-0.261739,1.94023,-0.0634928,-8.14696,-5.84109,-10.3076,21.7414,-2.36449,-0.842992,-0.634268,-1.7534,-0.538419,-1.63436,3.268,-1.3602,0.139225,-0.119116
3310148,1,-1.65764,-0.464161,-0.0497369,-2.03178,-1.59079,1.70664,0.780188,-1.66276,-0.462233,-0.0538236,-2.02647,-1.59356,1.71154,0.779624,-1.25035,0.910832,-0.73346,0.984457,-0.260339,1.86704,-0.0517647,-1.24874,0.95138,-0.746619,1.03106,-0.261233,1.948,-0.0631293,-7.9486,-6.04343,-10.1568,22.0151,-2.34709,-0.713903,-0.704763,-1.77571,-0.490986,-1.6566,3.25218,-1.36829,0.133252,-0.120503
3310149,1,-1.65889,-0.463201,-0.0504882,-2.03079,-1.59105,1.70855,0.78013,-1.66401,-0.461274,-0.0545736,-2.02543,-1.59382,1.71349,0.779561,-1.24528,0.921176,-0.736814,1.00932,-0.268231,1.89767,-0.0566524,-1.25271,0.95887,-0.749938,1.03834,-0.260727,1.95576,-0.0627658,-7.82164,-6.37271,-9.97827,22.4356,-2.25096,-0.649816,-0.634268,-1.78421,-0.46797,-1.66213,3.24965,-1.37656,0.128957,-0.123025
3310150,1,-1.66015,-0.46225,-0.051255,-2.02977,-1.59132,1.7105,0.780071,-1.66527,-0.460308,-0.0553268,-2.02438,-1.59408,1.71546,0.779498,-1.24398,0.928633,-0.734116,1.00892,-0.267248,1.89152,-0.0579413,-1.25668,0.96636,-0.753258,1.04562,-0.260221,1.96353,-0.0624022,-7.9486,-6.62662,-9.72436,22.5626,-2.23997,-0.643407,-0.485037,-1.78782,-0.460216,-1.6627,3.25151,-1.38492,0.125067,-0.126994
