shamilmamedov/beam_handling/data/param_estimation_ICRA/ocp_Xdown_25cm_0.44s_4.csv
duration, success rate, q[0], q[1], q[2], q[3], q[4], q[5], q[6],q_d[0], q_d[1], q_d[2], q_d[3], q_d[4], q_d[5], q_d[6],dq[0], dq[1], dq[2], dq[3], dq[4], dq[5], dq[6],dq_d[0], dq_d[1], dq_d[2], dq_d[3], dq_d[4], dq_d[5], dq_d[6],tau_J[0], tau_J[1], tau_J[2], tau_J[3], tau_J[4], tau_J[5], tau_J[6],tau_ext_hat_filtered[0], tau_ext_hat_filtered[1], tau_ext_hat_filtered[2], tau_ext_hat_filtered[3], tau_ext_hat_filtered[4], tau_ext_hat_filtered[5], tau_ext_hat_filtered[6]
2914886,0,-1.57091,-0.522833,-0.000499023,-2.09654,-1.57078,1.57148,0.785556,-1.5708,-0.523599,-2.50583e-07,-2.0944,-1.5708,1.5708,0.785399,-0.000293427,-0.000324975,-0.00106466,0.000495577,0.000491397,-5.58453e-05,0.00108398,0,0,0,0,0,0,0,0.0494498,-10.1892,0.781009,21.5668,-0.787031,-0.527135,-0.128897,0.0383615,-1.07586,0.583451,3.06692,-0.214368,-0.524437,-0.145564
2914887,1,-1.57091,-0.522831,-0.000497353,-2.09655,-1.57078,1.57148,0.785552,-1.5708,-0.523599,-2.50583e-07,-2.0944,-1.5708,1.5708,0.785399,-0.000195618,-0.00021665,-0.000152963,-0.000226427,8.83579e-05,-0.000274589,-0.000701499,0,0,0,0,0,0,0,0.0494498,-10.1892,0.757205,21.5906,-0.780623,-0.520726,-0.0904444,0.0382202,-1.0727,0.583016,3.06498,-0.21424,-0.524426,-0.145573
2914888,1,-1.57091,-0.522826,-0.000497353,-2.09655,-1.57078,1.57148,0.785556,-1.5708,-0.523599,-2.50583e-07,-2.0944,-1.5708,1.5708,0.785399,-0.000130412,0.00106199,-0.000101975,-0.000707764,-0.000145956,5.42995e-05,0.000719129,0,0,0,0,0,0,0,0.0494498,-10.2408,0.757205,21.6144,-0.77513,-0.527135,-0.122488,0.0388236,-1.07161,0.583734,3.06438,-0.214148,-0.524329,-0.145607
2914889,1,-1.57091,-0.52283,-0.000497353,-2.09654,-1.57078,1.57148,0.785553,-1.5708,-0.523599,-2.50583e-07,-2.0944,-1.5708,1.5708,0.785399,0.000469871,5.83812e-05,-6.79835e-05,0.000641782,0.000342447,3.61997e-05,-0.000232658,0,0,0,0,0,0,0,0.0256461,-10.213,0.757205,21.5668,-0.787031,-0.527135,-0.103262,0.0392957,-1.0731,0.584335,3.06519,-0.214124,-0.524286,-0.145665
2914890,1,-1.57091,-0.522834,-0.000500972,-2.09655,-1.57078,1.57148,0.785555,-1.5708,-0.523599,-2.50583e-07,-2.0944,-1.5708,1.5708,0.785399,-0.000243565,-0.0010747,-0.00125175,-0.000128958,-9.85475e-06,-0.000213226,0.000319613,0,0,0,0,0,0,0,0.0494498,-10.1654,0.80878,21.5906,-0.780623,-0.520726,-0.116079,0.0398634,-1.07407,0.585138,3.06563,-0.214093,-0.524222,-0.145755
2914891,1,-1.57091,-0.522833,-0.000500972,-2.09655,-1.57078,1.57148,0.785556,-1.5708,-0.523599,-2.50583e-07,-2.0944,-1.5708,1.5708,0.785399,0.000394435,-0.000159657,-0.000834499,-8.59717e-05,-0.000414066,0.000332567,0.000450434,0,0,0,0,0,0,0,0.0256461,-10.1892,0.80878,21.5906,-0.769636,-0.533544,-0.122488,0.0410477,-1.07297,0.586935,3.06511,-0.214023,-0.524037,-0.145883
2914892,1,-1.57091,-0.522831,-0.000497353,-2.09655,-1.57078,1.57148,0.785556,-1.5708,-0.523599,-2.50583e-07,-2.0944,-1.5708,1.5708,0.785399,0.000262957,0.000450374,0.000650093,-0.000614126,-0.000276491,0.00045907,0.000300289,0,0,0,0,0,0,0,0.0256461,-10.213,0.757205,21.6144,-0.769636,-0.539952,-0.122488,0.0420184,-1.07213,0.588555,3.06488,-0.213978,-0.523892,-0.146043
2914893,1,-1.57091,-0.522831,-0.000497353,-2.09655,-1.57078,1.57148,0.785556,-1.5708,-0.523599,-2.50583e-07,-2.0944,-1.5708,1.5708,0.785399,0.000175305,0.000300249,0.000433396,-0.000409418,0.000222239,6.86881e-05,0.000437552,0,0,0,0,0,0,0,0.0256461,-10.213,0.757205,21.6144,-0.780623,-0.533544,-0.128897,0.0417937,-1.07324,0.588498,3.06572,-0.214004,-0.523964,-0.146241
2914894,1,-1.57091,-0.522829,-0.000500972,-2.09655,-1.57078,1.57148,0.785552,-1.5708,-0.523599,-2.50583e-07,-2.0944,-1.5708,1.5708,0.785399,0.00011687,0.000200166,-0.000917496,-0.000922559,-5.55423e-05,-0.000191567,-0.00113245,0,0,0,0,0,0,0,0.0256461,-10.213,0.80878,21.6422,-0.77513,-0.527135,-0.0904444,0.0410897,-1.07569,0.587815,3.06739,-0.214065,-0.524137,-0.146485
2914895,1,-1.57091,-0.522827,-0.000499023,-2.09655,-1.57078,1.57148,0.785551,-1.5708,-0.523599,-2.50583e-07,-2.0944,-1.5708,1.5708,0.785399,-0.000478899,0.00133987,3.79503e-05,-0.000615039,-0.000240667,-0.00036507,-0.00122969,0,0,0,0,0,0,0,0.0494498,-10.2646,0.781009,21.6422,-0.769636,-0.520726,-0.077627,0.0409021,-1.07946,0.588018,3.06986,-0.214131,-0.524254,-0.146762
2914896,1,-1.57091,-0.522832,-0.000499023,-2.09655,-1.57078,1.57148,0.785549,-1.5708,-0.523599,-2.50583e-07,-2.0944,-1.5708,1.5708,0.785399,-0.00152569,-0.0014268,2.53002e-05,0.000239588,4.28646e-05,-6.0212e-06,-0.00129451,0,0,0,0,0,0,0,0.101024,-10.1654,0.781009,21.6144,-0.77513,-0.527135,-0.0648096,0.0413877,-1.08291,0.589141,3.07213,-0.214158,-0.52427,-0.147033
2914897,1,-1.57091,-0.522832,-0.000497353,-2.09655,-1.57078,1.57148,0.785553,-1.5708,-0.523599,-2.50583e-07,-2.0944,-1.5708,1.5708,0.785399,0.000189298,-0.00039439,0.000573679,-0.000489889,2.84704e-05,0.000233345,0.000561148,0,0,0,0,0,0,0,0.0494498,-10.1892,0.757205,21.6422,-0.77513,-0.533544,-0.103262,0.0420629,-1.08302,0.590285,3.07265,-0.214105,-0.524225,-0.147252
2914898,1,-1.57091,-0.522831,-0.000499023,-2.09655,-1.57078,1.57148,0.785556,-1.5708,-0.523599,-2.50583e-07,-2.0944,-1.5708,1.5708,0.785399,0.00133262,0.000293885,-0.000174359,0.000879833,1.89008e-05,-8.17957e-05,0.00108618,0,0,0,0,0,0,0,-0.00212494,-10.213,0.781009,21.5906,-0.77513,-0.527135,-0.122488,0.0419346,-1.08104,0.590218,3.07194,-0.214019,-0.524288,-0.147392
2914899,1,-1.5709,-0.522833,-0.000495682,-2.09655,-1.57078,1.57148,0.785556,-1.5708,-0.523599,-2.50583e-07,-2.0944,-1.5708,1.5708,0.785399,0.000888416,-0.000360888,0.000997384,0.000586556,1.25409e-05,-5.45305e-05,0.000724117,0,0,0,0,0,0,0,-0.00212494,-10.1892,0.733401,21.5906,-0.77513,-0.527135,-0.122488,0.0405068,-1.07882,0.588424,3.07064,-0.213936,-0.524552,-0.147478
2914900,1,-1.57091,-0.522829,-0.000497353,-2.09655,-1.57078,1.57148,0.785556,-1.5708,-0.523599,-2.50583e-07,-2.0944,-1.5708,1.5708,0.785399,-5.73363e-05,0.00031622,0.000108111,-0.000165775,0.000211766,-0.000273713,0.000482745,0,0,0,0,0,0,0,0.0256461,-10.213,0.757205,21.6144,-0.780623,-0.520726,-0.122488,0.0383933,-1.07662,0.58571,3.0691,-0.213858,-0.524915,-0.147555
2914901,1,-1.57091,-0.522832,-0.000497353,-2.09655,-1.57078,1.57148,0.785552,-1.5708,-0.523599,-2.50583e-07,-2.0944,-1.5708,1.5708,0.785399,-3.82242e-05,-0.000345999,7.20739e-05,-0.000760131,-0.000265757,-0.000182475,-0.000864965,0,0,0,0,0,0,0,0.0256461,-10.1892,0.757205,21.6422,-0.769636,-0.520726,-0.0904444,0.036711,-1.07536,0.583637,3.06834,-0.213798,-0.525202,-0.147652
2914902,1,-1.57091,-0.52283,-0.000499023,-2.09655,-1.57078,1.57148,0.78555,-1.5708,-0.523599,-2.50583e-07,-2.0944,-1.5708,1.5708,0.785399,-0.000582295,-0.000230666,-0.000508763,0.000699672,-0.000177196,0.000115709,-0.00128872,0,0,0,0,0,0,0,0.0494498,-10.1892,0.781009,21.5906,-0.769636,-0.527135,-0.0712183,0.0361177,-1.07442,0.583154,3.06807,-0.213723,-0.525304,-0.147774
2914903,1,-1.57091,-0.522832,-0.000495222,-2.09655,-1.57078,1.57148,0.785553,-1.5708,-0.523599,-2.50583e-07,-2.0944,-1.5708,1.5708,0.785399,-0.000388197,-0.000153777,0.000217637,0.000466448,0.000288751,0.000314498,9.0289e-05,0,0,0,0,0,0,0,0.0494498,-10.1892,0.757205,21.5906,-0.780623,-0.533544,-0.0968531,0.0364679,-1.07277,0.583998,3.06733,-0.213594,-0.52524,-0.147893
2914904,1,-1.57091,-0.522829,-0.000496642,-2.09655,-1.57078,1.57148,0.785556,-1.5708,-0.523599,-2.50583e-07,-2.0944,-1.5708,1.5708,0.785399,-0.000258798,0.00110391,0.000145091,-0.00145227,0.000192487,-2.76935e-05,0.00100963,0,0,0,0,0,0,0,0.0494498,-10.2408,0.757205,21.666,-0.780623,-0.527135,-0.122488,0.0370662,-1.07228,0.585163,3.06717,-0.213477,-0.525149,-0.147966
2914905,1,-1.57091,-0.522829,-0.000498786,-2.09655,-1.57078,1.57148,0.785553,-1.5708,-0.523599,-2.50583e-07,-2.0944,-1.5708,1.5708,0.785399,-0.000729344,0.000735938,-0.000460084,0.00190868,0.000128314,-0.00049318,-3.89912e-05,0,0,0,0,0,0,0,0.0732535,-10.2408,0.781009,21.543,-0.780623,-0.514318,-0.103262,0.0377877,-1.07434,0.586496,3.06832,-0.213413,-0.52507,-0.147998
2914906,1,-1.57091,-0.522831,-0.000495603,-2.09655,-1.57078,1.57148,0.785556,-1.5708,-0.523599,-2.50583e-07,-2.0944,-1.5708,1.5708,0.785399,7.05828e-05,-0.000158988,0.000806901,0.000715641,-0.000321366,-0.000328787,0.000686083,0,0,0,0,0,0,0,0.0494498,-10.213,0.733401,21.5668,-0.769636,-0.514318,-0.122488,0.0386159,-1.07622,0.587877,3.06877,-0.213332,-0.524977,-0.148026
2914907,1,-1.57091,-0.522833,-0.000497326,-2.09655,-1.57078,1.57148,0.785549,-1.5708,-0.523599,-2.50583e-07,-2.0944,-1.5708,1.5708,0.785399,0.000603867,-0.000662804,-1.8878e-05,-0.00128614,0.00043001,0.000255527,-0.00167884,0,0,0,0,0,0,0,0.0256461,-10.1892,0.757205,21.6422,-0.787031,-0.527135,-0.0648096,0.0388151,-1.07626,0.588212,3.06826,-0.213247,-0.524945,-0.148074
2914908,1,-1.57091,-0.522831,-0.000499014,-2.09655,-1.57078,1.57148,0.785551,-1.5708,-0.523599,-2.50583e-07,-2.0944,-1.5708,1.5708,0.785399,-0.000154234,0.000114943,-0.000569397,0.000348997,-0.000357591,0.000170351,-0.00064451,0,0,0,0,0,0,0,0.0494498,-10.213,0.781009,21.5906,-0.769636,-0.527135,-0.077627,0.038645,-1.07565,0.588006,3.06807,-0.213196,-0.524939,-0.148127
2914909,1,-1.57091,-0.522833,-0.000500969,-2.09655,-1.57078,1.57148,0.785553,-1.5708,-0.523599,-2.50583e-07,-2.0944,-1.5708,1.5708,0.785399,-0.000102823,-0.000480184,-0.00102921,0.000232665,0.000168503,0.000350926,0.000282403,0,0,0,0,0,0,0,0.0494498,-10.1892,0.80878,21.5906,-0.780623,-0.533544,-0.0968531,0.0391378,-1.07468,0.588824,3.06785,-0.21313,-0.524819,-0.148149
2914910,1,-1.57091,-0.522829,-0.000499022,-2.09654,-1.57078,1.57148,0.785553,-1.5708,-0.523599,-2.50583e-07,-2.0944,-1.5708,1.5708,0.785399,0.00113788,0.00023669,-3.65275e-05,0.000711922,0.000349692,-3.40804e-06,0.000425628,0,0,0,0,0,0,0,-0.00212494,-10.213,0.781009,21.5668,-0.787031,-0.527135,-0.103262,0.0399655,-1.0732,0.590225,3.0671,-0.213041,-0.524648,-0.148119
2914911,1,-1.57091,-0.52283,-0.000495682,-2.09655,-1.57078,1.57148,0.785556,-1.5708,-0.523599,-2.50583e-07,-2.0944,-1.5708,1.5708,0.785399,0.000108971,0.000157793,0.00108927,-0.00184544,-4.23278e-06,-0.000239631,0.00123319,0,0,0,0,0,0,0,0.0256461,-10.213,0.733401,21.666,-0.780623,-0.520726,-0.128897,0.0398382,-1.07266,0.590324,3.0669,-0.213016,-0.524635,-0.148046
2914912,1,-1.57091,-0.522831,-0.000495682,-2.09655,-1.57078,1.57148,0.785554,-1.5708,-0.523599,-2.50583e-07,-2.0944,-1.5708,1.5708,0.785399,-0.000484165,0.000105195,0.000726182,-2.38643e-05,-2.82327e-06,7.7605e-05,0.000110048,0,0,0,0,0,0,0,0.0494498,-10.213,0.733401,21.6144,-0.780623,-0.527135,-0.10967,0.0386841,-1.07393,0.588858,3.06808,-0.2131,-0.524797,-0.14796
2914913,1,-1.5709,-0.522831,-0.000497352,-2.09654,-1.57078,1.57148,0.785552,-1.5708,-0.523599,-2.50583e-07,-2.0944,-1.5708,1.5708,0.785399,0.00088365,7.01302e-05,-7.2691e-05,0.00165453,0.000235476,5.17366e-05,-0.000638711,0,0,0,0,0,0,0,-0.00212494,-10.213,0.757205,21.543,-0.787031,-0.527135,-0.0904444,0.0373289,-1.07506,0.586999,3.06898,-0.213194,-0.524988,-0.147904
2914914,1,-1.57091,-0.522833,-0.000499023,-2.09654,-1.57078,1.57148,0.785551,-1.5708,-0.523599,-2.50583e-07,-2.0944,-1.5708,1.5708,0.785399,-6.05143e-05,-0.000510058,-0.000605273,0.000546206,-8.03759e-05,3.44911e-05,-0.000900525,0,0,0,0,0,0,0,0.0256461,-10.1892,0.781009,21.5668,-0.780623,-0.527135,-0.077627,0.0363814,-1.07423,0.585783,3.06811,-0.213216,-0.525097,-0.14789
2914915,1,-1.57091,-0.522831,-0.000495682,-2.09655,-1.57078,1.57148,0.785555,-1.5708,-0.523599,-2.50583e-07,-2.0944,-1.5708,1.5708,0.785399,-0.00115397,-0.000340039,0.000710109,-0.000192675,-0.000257035,2.29941e-05,0.000823803,0,0,0,0,0,0,0,0.0732535,-10.1892,0.733401,21.5906,-0.77513,-0.527135,-0.116079,0.0362301,-1.072,0.585715,3.06635,-0.213196,-0.525068,-0.147885
2914916,1,-1.57091,-0.522832,-0.000495682,-2.09655,-1.57078,1.57148,0.785554,-1.5708,-0.523599,-2.50583e-07,-2.0944,-1.5708,1.5708,0.785399,0.000344313,-0.000226693,0.000473406,-0.000685262,-0.000171357,1.53294e-05,0.000311843,0,0,0,0,0,0,0,0.0256461,-10.1892,0.733401,21.6144,-0.77513,-0.527135,-0.10967,0.0363693,-1.07,0.585929,3.06514,-0.213207,-0.524999,-0.147861
2914917,1,-1.57091,-0.522829,-0.000497352,-2.09655,-1.57078,1.57148,0.785554,-1.5708,-0.523599,-2.50583e-07,-2.0944,-1.5708,1.5708,0.785399,0.000229542,0.0010553,-0.000241208,9.99707e-05,-0.000521139,-0.000227139,0.000207896,0,0,0,0,0,0,0,0.0256461,-10.2408,0.757205,21.5906,-0.764143,-0.520726,-0.10967,0.0362232,-1.06983,0.58573,3.06515,-0.213276,-0.524997,-0.147831
2914918,1,-1.5709,-0.522831,-0.000499023,-2.09655,-1.57078,1.57148,0.785556,-1.5708,-0.523599,-2.50583e-07,-2.0944,-1.5708,1.5708,0.785399,0.000802642,5.39177e-05,-0.000717617,-0.000490165,5.94745e-05,8.59327e-05,0.000613315,0,0,0,0,0,0,0,-0.00212494,-10.213,0.781009,21.6144,-0.77513,-0.527135,-0.122488,0.0360949,-1.0718,0.585753,3.06623,-0.213365,-0.525015,-0.147815
2914919,1,-1.57091,-0.522829,-0.000497353,-2.09654,-1.57078,1.57148,0.785549,-1.5708,-0.523599,-2.50583e-07,-2.0944,-1.5708,1.5708,0.785399,-0.000671331,0.000685559,7.84004e-05,0.00134366,0.0002431,5.72885e-05,-0.00172735,0,0,0,0,0,0,0,0.0494498,-10.2408,0.757205,21.543,-0.780623,-0.527135,-0.0648096,0.0362878,-1.07431,0.58638,3.06733,-0.213416,-0.524985,-0.14783
2914920,1,-1.57091,-0.522833,-0.000497353,-2.09654,-1.57078,1.57148,0.785556,-1.5708,-0.523599,-2.50583e-07,-2.0944,-1.5708,1.5708,0.785399,0.000109258,-0.000749387,5.22669e-05,0.000338961,0.000602876,-0.000199167,0.00122202,0,0,0,0,0,0,0,0.0256461,-10.1892,0.757205,21.5668,-0.792525,-0.520726,-0.128897,0.0366855,-1.07543,0.587238,3.06727,-0.2134,-0.524903,-0.147873
2914921,1,-1.57091,-0.522833,-0.000495682,-2.09655,-1.57078,1.57148,0.78555,-1.5708,-0.523599,-2.50583e-07,-2.0944,-1.5708,1.5708,0.785399,-0.00104079,-0.000499591,0.000591657,-0.000330838,-0.000242343,0.00034194,-0.00132155,0,0,0,0,0,0,0,0.0732535,-10.1892,0.733401,21.5906,-0.77513,-0.533544,-0.0712183,0.0370652,-1.07448,0.587883,3.06616,-0.213351,-0.524799,-0.14792
2914922,1,-1.57091,-0.522829,-0.000497353,-2.09654,-1.57078,1.57148,0.785556,-1.5708,-0.523599,-2.50583e-07,-2.0944,-1.5708,1.5708,0.785399,-0.000137045,0.000873365,-0.000162374,0.000336253,0.000279248,-9.39885e-06,0.00101784,0,0,0,0,0,0,0,0.0494498,-10.2408,0.757205,21.5668,-0.787031,-0.527135,-0.122488,0.0374548,-1.0733,0.588383,3.06518,-0.213324,-0.524694,-0.147957
2914923,1,-1.57091,-0.522833,-0.000499023,-2.09654,-1.57078,1.57148,0.785553,-1.5708,-0.523599,-2.50583e-07,-2.0944,-1.5708,1.5708,0.785399,-9.13633e-05,-0.000624182,-0.000665061,0.000780981,0.000186165,0.000231093,-3.35182e-05,0,0,0,0,0,0,0,0.0494498,-10.1892,0.781009,21.543,-0.787031,-0.533544,-0.103262,0.038081,-1.07287,0.589206,3.06443,-0.213313,-0.524578,-0.147982
2914924,1,-1.57091,-0.522833,-0.000497353,-2.09655,-1.57078,1.57148,0.785557,-1.5708,-0.523599,-2.50583e-07,-2.0944,-1.5708,1.5708,0.785399,-6.09089e-05,-0.000416122,0.000113438,-0.00059297,-0.000113249,0.000154062,0.00116445,0,0,0,0,0,0,0,0.0494498,-10.1892,0.757205,21.5906,-0.780623,-0.533544,-0.135305,0.038877,-1.07178,0.59029,3.06329,-0.213301,-0.524446,-0.148008
2914925,1,-1.57091,-0.522829,-0.000500972,-2.09655,-1.57078,1.57148,0.785556,-1.5708,-0.523599,-2.50583e-07,-2.0944,-1.5708,1.5708,0.785399,-0.000597418,0.000929011,-0.0011308,-0.000395313,-7.54994e-05,-0.000134651,0.000301582,0,0,0,0,0,0,0,0.0732535,-10.2408,0.80878,21.5906,-0.780623,-0.527135,-0.122488,0.0398791,-1.07127,0.591684,3.06274,-0.213328,-0.52431,-0.148053
2914926,1,-1.57091,-0.522831,-0.000495682,-2.09655,-1.57078,1.57148,0.785553,-1.5708,-0.523599,-2.50583e-07,-2.0944,-1.5708,1.5708,0.785399,0.000158533,-3.0273e-05,0.00100937,-0.000820354,0.000187026,-0.000327126,-0.000748381,0,0,0,0,0,0,0,0.0494498,-10.213,0.733401,21.6144,-0.787031,-0.520726,-0.0968531,0.0408933,-1.073,0.593102,3.06361,-0.213425,-0.524217,-0.148138
2914927,1,-1.57091,-0.522829,-0.000499023,-2.09655,-1.57078,1.57148,0.78555,-1.5708,-0.523599,-2.50583e-07,-2.0944,-1.5708,1.5708,0.785399,0.000105689,0.000629432,-0.00044071,9.90916e-06,0.000124684,-0.000692802,-0.00144836,0,0,0,0,0,0,0,0.0494498,-10.2408,0.781009,21.5906,-0.787031,-0.507909,-0.0712183,0.0412564,-1.07589,0.593518,3.06516,-0.213579,-0.524241,-0.148266
2914928,1,-1.57091,-0.522833,-0.000495682,-2.09654,-1.57078,1.57148,0.78555,-1.5708,-0.523599,-2.50583e-07,-2.0944,-1.5708,1.5708,0.785399,7.04593e-05,-0.000786805,0.000819817,0.000563418,-0.000154236,0.000250209,-0.000965571,0,0,0,0,0,0,0,0.0494498,-10.1892,0.733401,21.5668,-0.780623,-0.527135,-0.0712183,0.0409995,-1.07786,0.592944,3.06605,-0.213735,-0.524342,-0.148404
2914929,1,-1.57091,-0.522831,-0.000497353,-2.09655,-1.57078,1.57148,0.785555,-1.5708,-0.523599,-2.50583e-07,-2.0944,-1.5708,1.5708,0.785399,4.69728e-05,3.22756e-05,-1.02672e-05,-0.0001812,-0.000306275,-7.05531e-05,0.0010178,0,0,0,0,0,0,0,0.0494498,-10.213,0.757205,21.5906,-0.77513,-0.520726,-0.116079,0.0403866,-1.07782,0.591732,3.06563,-0.21386,-0.524463,-0.148504
2914930,0.99,-1.57091,-0.522833,-0.000497353,-2.09655,-1.57078,1.57148,0.785554,-1.5708,-0.523599,-2.50583e-07,-2.0944,-1.5708,1.5708,0.785399,0.000588127,-0.000535295,-6.84479e-06,-0.0001208,-7.32642e-07,0.000190324,0.000441173,0,0,0,0,0,0,0,0.0256461,-10.1892,0.757205,21.5906,-0.780623,-0.527135,-0.10967,0.0396277,-1.07668,0.59027,3.06467,-0.213972,-0.524581,-0.148543
2914931,0.98,-1.57091,-0.522827,-0.000497353,-2.09655,-1.57078,1.57148,0.785556,-1.5708,-0.523599,-2.50583e-07,-2.0944,-1.5708,1.5708,0.785399,-0.000164727,0.000849563,-4.56319e-06,-0.00128696,-0.000407389,0.000364241,0.00100619,0,0,0,0,0,0,0,0.0494498,-10.2408,0.757205,21.6422,-0.769636,-0.533544,-0.128897,0.038977,-1.07641,0.589039,3.06441,-0.2141,-0.524682,-0.148545
2914932,0.98,-1.57091,-0.52283,-0.000499023,-2.09655,-1.57078,1.57148,0.785554,-1.5708,-0.523599,-2.50583e-07,-2.0944,-1.5708,1.5708,0.785399,0.000446994,-8.32389e-05,-0.000559854,0.000348453,-6.81425e-05,0.000242828,-4.12819e-05,0,0,0,0,0,0,0,0.0256461,-10.213,0.781009,21.5906,-0.77513,-0.533544,-0.10967,0.0386298,-1.07778,0.588351,3.06518,-0.214239,-0.524753,-0.148546
2914933,0.98,-1.57091,-0.522831,-0.000497353,-2.09655,-1.57078,1.57148,0.785551,-1.5708,-0.523599,-2.50583e-07,-2.0944,-1.5708,1.5708,0.785399,-0.000258816,-5.54926e-05,0.000183576,-0.000974124,-4.54283e-05,-0.000550192,-0.000976957,0,0,0,0,0,0,0,0.0494498,-10.213,0.757205,21.6422,-0.77513,-0.514318,-0.0840357,0.0386628,-1.07938,0.588274,3.06608,-0.214345,-0.524772,-0.148577
2914934,0.98,-1.5709,-0.52283,-0.000499023,-2.09654,-1.57078,1.57148,0.785551,-1.5708,-0.523599,-2.50583e-07,-2.0944,-1.5708,1.5708,0.785399,0.00103388,-0.000593807,-0.000434428,0.00111382,-3.02855e-05,0.000107923,-0.000651305,0,0,0,0,0,0,0,-0.00212494,-10.1892,0.781009,21.5668,-0.77513,-0.527135,-0.0840357,0.0387548,-1.07959,0.588306,3.06621,-0.214392,-0.524762,-0.148636
2914935,0.98,-1.57091,-0.522834,-0.000497353,-2.09655,-1.57078,1.57148,0.785555,-1.5708,-0.523599,-2.50583e-07,-2.0944,-1.5708,1.5708,0.785399,-0.00107398,-0.000952683,0.000267193,-0.00102069,-0.000223641,-0.000402769,0.000752592,0,0,0,0,0,0,0,0.0732535,-10.1654,0.757205,21.6422,-0.769636,-0.514318,-0.116079,0.0388728,-1.07773,0.588374,3.06522,-0.214372,-0.524716,-0.148691
2914936,0.98,-1.57091,-0.522832,-0.000495682,-2.09654,-1.57078,1.57148,0.785557,-1.5708,-0.523599,-2.50583e-07,-2.0944,-1.5708,1.5708,0.785399,0.000397635,-7.83102e-05,0.000734941,0.00108278,5.43566e-05,-3.11537e-05,0.0012138,0,0,0,0,0,0,0,0.0256461,-10.1892,0.733401,21.5668,-0.77513,-0.520726,-0.135305,0.0389667,-1.07453,0.58831,3.06357,-0.214309,-0.524648,-0.148725
2914937,0.98,-1.57091,-0.522829,-0.000499023,-2.09655,-1.57078,1.57148,0.785552,-1.5708,-0.523599,-2.50583e-07,-2.0944,-1.5708,1.5708,0.785399,-0.000291722,0.00115422,-0.000623663,-0.00104139,-0.000167213,0.000453949,-0.00085231,0,0,0,0,0,0,0,0.0494498,-10.2408,0.781009,21.6422,-0.769636,-0.533544,-0.0904444,0.0388773,-1.07278,0.587981,3.06257,-0.214252,-0.524614,-0.148758
2914938,0.98,-1.57091,-0.522833,-0.000495682,-2.09655,-1.57078,1.57148,0.785553,-1.5708,-0.523599,-2.50583e-07,-2.0944,-1.5708,1.5708,0.785399,0.000362331,-0.000436947,0.000697848,-4.46433e-05,-0.000111475,-0.000172085,-9.34885e-05,0,0,0,0,0,0,0,0.0256461,-10.1892,0.733401,21.6144,-0.769636,-0.520726,-0.103262,0.0387419,-1.07363,0.587709,3.06295,-0.214219,-0.52461,-0.148811
2914939,0.98,-1.57091,-0.522834,-0.000495682,-2.09655,-1.57078,1.57148,0.785548,-1.5708,-0.523599,-2.50583e-07,-2.0944,-1.5708,1.5708,0.785399,-0.000315258,-0.00084811,0.000465232,0.00052705,0.000569943,-0.000352083,-0.00199511,0,0,0,0,0,0,0,0.0494498,-10.1654,0.733401,21.5906,-0.787031,-0.514318,-0.0510767,0.0383705,-1.07395,0.587052,3.0632,-0.214166,-0.524629,-0.148881
2914940,0.98,-1.5709,-0.522831,-0.000499023,-2.09655,-1.57078,1.57148,0.785551,-1.5708,-0.523599,-2.50583e-07,-2.0944,-1.5708,1.5708,0.785399,0.000996254,0.000548217,-0.000803469,-0.000205445,-6.08473e-05,0.000239996,-0.000346726,0,0,0,0,0,0,0,-0.00212494,-10.213,0.781009,21.6144,-0.77513,-0.527135,-0.077627,0.0378964,-1.07274,0.586224,3.06261,-0.214069,-0.524633,-0.148932
2914941,0.98,-1.5709,-0.522833,-0.000500972,-2.09655,-1.57078,1.57148,0.785553,-1.5708,-0.523599,-2.50583e-07,-2.0944,-1.5708,1.5708,0.785399,0.000664169,-0.000191334,-0.00118526,-0.00134339,-4.05649e-05,-7.73615e-05,0.000718285,0,0,0,0,0,0,0,-0.00212494,-10.1892,0.80878,21.666,-0.77513,-0.520726,-0.103262,0.0378499,-1.07265,0.586306,3.06281,-0.213984,-0.524567,-0.148912
2914942,0.98,-1.57091,-0.522831,-0.000497353,-2.09655,-1.57078,1.57148,0.785556,-1.5708,-0.523599,-2.50583e-07,-2.0944,-1.5708,1.5708,0.785399,-0.00132046,0.000429256,0.000416253,0.000310833,0.000176407,0.000185785,0.00142829,0,0,0,0,0,0,0,0.0732535,-10.213,0.757205,21.6144,-0.780623,-0.527135,-0.128897,0.038403,-1.07397,0.587481,3.0641,-0.213925,-0.524413,-0.14881
2914943,0.98,-1.57091,-0.522831,-0.000495682,-2.09655,-1.57078,1.57148,0.785553,-1.5708,-0.523599,-2.50583e-07,-2.0944,-1.5708,1.5708,0.785399,-0.000323494,0.000286171,0.000834314,0.000207222,0.000117605,0.000123856,2.75917e-06,0,0,0,0,0,0,0,0.0494498,-10.213,0.733401,21.6144,-0.780623,-0.527135,-0.103262,0.0390536,-1.07552,0.588658,3.06536,-0.213872,-0.52425,-0.148674
2914944,0.98,-1.57091,-0.522831,-0.000497353,-2.09655,-1.57078,1.57148,0.785552,-1.5708,-0.523599,-2.50583e-07,-2.0944,-1.5708,1.5708,0.785399,-0.000215662,0.000190781,-6.02847e-07,-0.000511466,-0.000125047,8.25709e-05,-0.000472878,0,0,0,0,0,0,0,0.0494498,-10.213,0.757205,21.6422,-0.77513,-0.527135,-0.0904444,0.0392514,-1.07703,0.588995,3.06639,-0.213831,-0.524167,-0.148553
2914945,0.98,-1.57091,-0.522831,-0.000499023,-2.09655,-1.57078,1.57148,0.785551,-1.5708,-0.523599,-2.50583e-07,-2.0944,-1.5708,1.5708,0.785399,-0.000143775,0.000127187,-0.000557214,0.000308637,-8.33649e-05,0.000292406,-0.00078997,0,0,0,0,0,0,0,0.0494498,-10.213,0.781009,21.6144,-0.77513,-0.533544,-0.077627,0.0394291,-1.07837,0.589283,3.06737,-0.213795,-0.524098,-0.148455
2914946,0.98,-1.57091,-0.522833,-0.000497353,-2.09655,-1.57078,1.57148,0.785553,-1.5708,-0.523599,-2.50583e-07,-2.0944,-1.5708,1.5708,0.785399,-0.000652662,-0.000472021,0.000185336,0.00076257,0.000147874,-4.24215e-05,0.00018543,0,0,0,0,0,0,0,0.0732535,-10.1892,0.757205,21.5906,-0.780623,-0.527135,-0.0968531,0.0400066,-1.07847,0.590123,3.06758,-0.21372,-0.523975,-0.148361
2914947,0.98,-1.57091,-0.522829,-0.000493552,-2.09655,-1.57078,1.57148,0.785556,-1.5708,-0.523599,-2.50583e-07,-2.0944,-1.5708,1.5708,0.785399,0.000678516,0.000891745,0.000680369,-0.000698046,9.85826e-05,-2.8281e-05,0.00131041,0,0,0,0,0,0,0,0.0256461,-10.2408,0.733401,21.6422,-0.780623,-0.527135,-0.128897,0.0403145,-1.07786,0.59048,3.06732,-0.213643,-0.52391,-0.148251
2914948,0.98,-1.5709,-0.522834,-0.000498313,-2.09655,-1.57078,1.57148,0.785556,-1.5708,-0.523599,-2.50583e-07,-2.0944,-1.5708,1.5708,0.785399,0.00110196,-0.00181835,-0.000660044,0.00018425,-0.000341179,-1.8854e-05,0.000636251,0,0,0,0,0,0,0,-0.00212494,-10.1377,0.781009,21.6144,-0.769636,-0.527135,-0.122488,0.0397957,-1.07698,0.589667,3.06716,-0.213606,-0.523982,-0.148138
2914949,0.98,-1.57091,-0.522828,-0.000496656,-2.09655,-1.57078,1.57148,0.785558,-1.5708,-0.523599,-2.50583e-07,-2.0944,-1.5708,1.5708,0.785399,-0.000471787,0.00120062,-0.00044003,0.000679645,-2.40023e-05,-0.000249928,0.00113624,0,0,0,0,0,0,0,0.0494498,-10.2408,0.781009,21.5906,-0.77513,-0.520726,-0.141714,0.0392793,-1.07499,0.58898,3.0665,-0.213554,-0.524047,-0.148065
2914950,0.98,-1.57091,-0.522832,-0.000498234,-2.09654,-1.57078,1.57148,0.785551,-1.5708,-0.523599,-2.50583e-07,-2.0944,-1.5708,1.5708,0.785399,0.000242287,-0.000406016,-0.000293353,0.00156672,-1.60016e-05,7.07401e-05,-0.00137873,0,0,0,0,0,0,0,0.0256461,-10.1892,0.781009,21.543,-0.77513,-0.527135,-0.0840357,0.0394211,-1.07287,0.589319,3.06528,-0.213454,-0.524017,-0.148065
2914951,0.98,-1.57091,-0.522829,-0.000497089,-2.09654,-1.57078,1.57148,0.785551,-1.5708,-0.523599,-2.50583e-07,-2.0944,-1.5708,1.5708,0.785399,-0.000395287,0.000935749,0.000361243,0.000487669,-0.000621019,4.71601e-05,-0.00115652,0,0,0,0,0,0,0,0.0494498,-10.2408,0.757205,21.5668,-0.75865,-0.527135,-0.077627,0.0397306,-1.07131,0.589903,3.06377,-0.213326,-0.523971,-0.148138
2914952,0.98,-1.57091,-0.522833,-0.000498935,-2.09655,-1.57078,1.57148,0.78555,-1.5708,-0.523599,-2.50583e-07,-2.0944,-1.5708,1.5708,0.785399,0.000293287,-0.000582593,-0.000315983,-0.000788512,0.000399789,-0.000205919,-0.00100837,0,0,0,0,0,0,0,0.0256461,-10.1892,0.781009,21.6144,-0.780623,-0.520726,-0.0712183,0.0398609,-1.07068,0.590227,3.06286,-0.213216,-0.523959,-0.148234
2914953,0.98,-1.57091,-0.522831,-0.000497323,-2.09655,-1.57078,1.57148,0.785549,-1.5708,-0.523599,-2.50583e-07,-2.0944,-1.5708,1.5708,0.785399,-0.000361287,0.000168416,0.000346157,-0.000525674,-0.000140375,-0.000137279,-0.000909605,0,0,0,0,0,0,0,0.0494498,-10.213,0.757205,21.6144,-0.769636,-0.520726,-0.0648096,0.0398846,-1.071,0.590419,3.06313,-0.213148,-0.523959,-0.148291
2914954,0.98,-1.57091,-0.522833,-0.000499013,-2.09655,-1.57078,1.57148,0.785557,-1.5708,-0.523599,-2.50583e-07,-2.0944,-1.5708,1.5708,0.785399,0.000315954,-0.000444534,-0.000326041,0.000206362,0.000109867,0.000145839,0.00200455,0,0,0,0,0,0,0,0.0256461,-10.1892,0.781009,21.5906,-0.77513,-0.527135,-0.135305,0.0398387,-1.07136,0.590521,3.06385,-0.213094,-0.523956,-0.148275
2914955,0.98,-1.57091,-0.522831,-0.000497349,-2.09655,-1.57078,1.57148,0.785554,-1.5708,-0.523599,-2.50583e-07,-2.0944,-1.5708,1.5708,0.785399,-0.000346176,0.000260456,0.000339451,-0.000419237,7.32448e-05,0.000334585,0.000386928,0,0,0,0,0,0,0,0.0494498,-10.213,0.757205,21.6144,-0.77513,-0.533544,-0.10967,0.0397218,-1.07153,0.590536,3.06448,-0.213035,-0.523959,-0.148194
2914956,0.98,-1.57091,-0.522831,-0.000499022,-2.09655,-1.57078,1.57148,0.785558,-1.5708,-0.523599,-2.50583e-07,-2.0944,-1.5708,1.5708,0.785399,0.000326028,0.000173637,-0.000330511,0.000277321,4.88299e-05,-0.000251661,0.00144475,0,0,0,0,0,0,0,0.0256461,-10.213,0.781009,21.5906,-0.77513,-0.520726,-0.141714,0.0395557,-1.07205,0.590507,3.06518,-0.212979,-0.523976,-0.148099
2914957,0.98,-1.57091,-0.522831,-0.000499023,-2.09655,-1.57078,1.57148,0.785552,-1.5708,-0.523599,-2.50583e-07,-2.0944,-1.5708,1.5708,0.785399,-0.00033946,0.000115758,-0.000220341,-0.00102155,0.000236004,0.000306944,-0.000935707,0,0,0,0,0,0,0,0.0494498,-10.213,0.781009,21.6422,-0.780623,-0.533544,-0.0904444,0.0395308,-1.07326,0.59074,3.06621,-0.212931,-0.523983,-0.148039
2914958,0.98,-1.57091,-0.522833,-0.000497352,-2.09655,-1.57078,1.57148,0.78555,-1.5708,-0.523599,-2.50583e-07,-2.0944,-1.5708,1.5708,0.785399,-0.000226307,-0.00047964,0.000409918,0.000525396,-0.000453016,-0.000507448,-0.00133588,0,0,0,0,0,0,0,0.0494498,-10.1892,0.757205,21.5906,-0.764143,-0.514318,-0.0712183,0.039678,-1.07429,0.591206,3.06723,-0.21288,-0.523964,-0.148034
2914959,0.98,-1.57091,-0.522831,-0.000499023,-2.09655,-1.57078,1.57148,0.785553,-1.5708,-0.523599,-2.50583e-07,-2.0944,-1.5708,1.5708,0.785399,-0.000707683,-0.00031976,-0.000283533,-0.000206548,-9.85599e-05,0.000136419,5.8848e-05,0,0,0,0,0,0,0,0.0732535,-10.1892,0.781009,21.6144,-0.769636,-0.527135,-0.0968531,0.039973,-1.07395,0.591754,3.06747,-0.212797,-0.523911,-0.148056
2914960,0.98,-1.57091,-0.52283,-0.000497352,-2.09655,-1.57078,1.57148,0.785552,-1.5708,-0.523599,-2.50583e-07,-2.0944,-1.5708,1.5708,0.785399,8.50232e-05,0.000343639,0.00036779,-0.000137699,0.000578553,9.09463e-05,-0.000198127,0,0,0,0,0,0,0,0.0494498,-10.213,0.757205,21.6144,-0.787031,-0.527135,-0.0904444,0.0403731,-1.07312,0.592356,3.06735,-0.212694,-0.523841,-0.14806
2914961,0.98,-1.5709,-0.522832,-0.000495682,-2.09655,-1.57078,1.57148,0.785556,-1.5708,-0.523599,-2.50583e-07,-2.0944,-1.5708,1.5708,0.785399,0.00126311,-0.00032772,0.000802005,0.000465013,-0.000258558,6.06309e-05,0.00129207,0,0,0,0,0,0,0,-0.00212494,-10.1892,0.733401,21.5906,-0.769636,-0.527135,-0.128897,0.0399939,-1.07271,0.591819,3.06733,-0.212616,-0.5239,-0.148035
2914962,0.98,-1.57091,-0.522831,-0.000495682,-2.09655,-1.57078,1.57148,0.785554,-1.5708,-0.523599,-2.50583e-07,-2.0944,-1.5708,1.5708,0.785399,-0.000921166,0.000338332,0.00053467,0.000310008,3.10787e-05,0.00027778,0.000149303,0,0,0,0,0,0,0,0.0732535,-10.213,0.733401,21.5906,-0.77513,-0.533544,-0.10967,0.0386529,-1.07218,0.589846,3.06697,-0.212559,-0.524112,-0.147998
2914963,0.98,-1.57091,-0.522833,-0.000499023,-2.09654,-1.57078,1.57148,0.785553,-1.5708,-0.523599,-2.50583e-07,-2.0944,-1.5708,1.5708,0.785399,0.000499513,-0.000331257,-0.000757177,0.0013203,0.00022417,-5.21726e-05,-0.000137824,0,0,0,0,0,0,0,0.0256461,-10.1892,0.781009,21.543,-0.780623,-0.527135,-0.103262,0.0376579,-1.07117,0.588301,3.06601,-0.212473,-0.524278,-0.14798
2914964,0.98,-1.57091,-0.522832,-0.000499023,-2.09655,-1.57078,1.57148,0.785551,-1.5708,-0.523599,-2.50583e-07,-2.0944,-1.5708,1.5708,0.785399,-0.000780615,-0.00077765,-0.000504785,-0.000233426,-0.000257455,0.000202577,-0.000803959,0,0,0,0,0,0,0,0.0732535,-10.1654,0.781009,21.5906,-0.769636,-0.533544,-0.0840357,0.037819,-1.06903,0.588426,3.06431,-0.212331,-0.524267,-0.147996
2914965,0.98,-1.57091,-0.52283,-0.000497353,-2.09654,-1.57078,1.57148,0.785551,-1.5708,-0.523599,-2.50583e-07,-2.0944,-1.5708,1.5708,0.785399,3.6402e-05,3.83786e-05,0.000220289,0.000401194,3.18141e-05,-0.000339666,-0.000535973,0,0,0,0,0,0,0,0.0494498,-10.1892,0.757205,21.5668,-0.77513,-0.520726,-0.0840357,0.0387345,-1.06631,0.589617,3.0625,-0.212174,-0.524143,-0.148024
2914966,0.98,-1.57091,-0.522828,-0.000495682,-2.09654,-1.57078,1.57148,0.785555,-1.5708,-0.523599,-2.50583e-07,-2.0944,-1.5708,1.5708,0.785399,2.4268e-05,0.000582398,0.000703671,0.000267463,2.12094e-05,1.09147e-05,0.000829479,0,0,0,0,0,0,0,0.0494498,-10.213,0.733401,21.5668,-0.77513,-0.527135,-0.116079,0.0393314,-1.06484,0.590274,3.06142,-0.212063,-0.524094,-0.148032
2914967,0.98,-1.57091,-0.522828,-0.000495682,-2.09655,-1.57078,1.57148,0.785555,-1.5708,-0.523599,-2.50583e-07,-2.0944,-1.5708,1.5708,0.785399,0.000572991,0.000388265,0.000469114,-0.000378503,1.41396e-05,7.27645e-06,0.000552986,0,0,0,0,0,0,0,0.0256461,-10.213,0.733401,21.5906,-0.77513,-0.527135,-0.116079,0.0389962,-1.06555,0.589548,3.06141,-0.212028,-0.524218,-0.148011
2914968,0.98,-1.57091,-0.522832,-0.000493552,-2.09655,-1.57078,1.57148,0.785558,-1.5708,-0.523599,-2.50583e-07,-2.0944,-1.5708,1.5708,0.785399,-0.00073163,-0.000297969,0.000312743,-0.000809148,0.000212877,4.85096e-06,0.00131809,0,0,0,0,0,0,0,0.0732535,-10.1892,0.733401,21.6144,-0.780623,-0.527135,-0.141714,0.0382604,-1.06761,0.588196,3.06239,-0.212052,-0.524417,-0.147987
2914969,0.98,-1.57091,-0.52283,-0.000498313,-2.09654,-1.57078,1.57148,0.785553,-1.5708,-0.523599,-2.50583e-07,-2.0944,-1.5708,1.5708,0.785399,6.90585e-05,-0.000198646,-0.000905129,0.000574192,0.000141918,3.23398e-06,-0.000782784,0,0,0,0,0,0,0,0.0494498,-10.1892,0.781009,21.5668,-0.780623,-0.527135,-0.0968531,0.0381629,-1.0692,0.587695,3.06343,-0.21207,-0.524511,-0.147999
2914970,0.98,-1.57091,-0.52283,-0.000495445,-2.09655,-1.57078,1.57148,0.785551,-1.5708,-0.523599,-2.50583e-07,-2.0944,-1.5708,1.5708,0.785399,4.6039e-05,0.000424381,0.000510205,-0.000174017,-0.00051574,2.15598e-06,-0.000996574,0,0,0,0,0,0,0,0.0494498,-10.213,0.733401,21.5906,-0.764143,-0.527135,-0.0840357,0.0387238,-1.07001,0.588126,3.06393,-0.212055,-0.524497,-0.148071
2914971,0.98,-1.57091,-0.522834,-0.000497274,-2.09655,-1.57078,1.57148,0.785553,-1.5708,-0.523599,-2.50583e-07,-2.0944,-1.5708,1.5708,0.785399,0.000587505,-0.00148032,-0.000216675,-0.000116011,6.30746e-05,1.43732e-06,-0.000189665,0,0,0,0,0,0,0,0.0256461,-10.1377,0.757205,21.5906,-0.77513,-0.527135,-0.0968531,0.0391043,-1.06993,0.588277,3.0639,-0.212027,-0.524502,-0.148175
2914972,0.98,-1.57091,-0.522828,-0.000498997,-2.09655,-1.57078,1.57148,0.785552,-1.5708,-0.523599,-2.50583e-07,-2.0944,-1.5708,1.5708,0.785399,0.00104128,0.00142597,-0.000701262,-7.73409e-05,-0.000161401,-0.00047376,-0.000363802,0,0,0,0,0,0,0,-0.00212494,-10.2408,0.781009,21.5906,-0.769636,-0.514318,-0.0904444,0.0391822,-1.06934,0.588085,3.06368,-0.211995,-0.524538,-0.148272
2914973,0.98,-1.57091,-0.52283,-0.000495213,-2.09655,-1.57078,1.57148,0.785556,-1.5708,-0.523599,-2.50583e-07,-2.0944,-1.5708,1.5708,0.785399,-0.00106905,-0.000255777,8.93038e-05,-5.15606e-05,9.585e-05,-0.000553199,0.00094426,0,0,0,0,0,0,0,0.0732535,-10.1892,0.757205,21.5906,-0.77513,-0.507909,-0.122488,0.0394689,-1.07008,0.588353,3.06402,-0.21197,-0.524539,-0.148338
2914974,0.98,-1.57091,-0.522827,-0.00049831,-2.09655,-1.57078,1.57148,0.785556,-1.5708,-0.523599,-2.50583e-07,-2.0944,-1.5708,1.5708,0.785399,-0.000712699,0.00159272,-0.000497276,-0.0012408,0.000267351,0.000343278,0.000629507,0,0,0,0,0,0,0,0.0732535,-10.2646,0.781009,21.6422,-0.780623,-0.527135,-0.122488,0.0404254,-1.07284,0.589582,3.06544,-0.211963,-0.524435,-0.148375
2914975,0.98,-1.57091,-0.522832,-0.000495444,-2.09655,-1.57078,1.57148,0.785559,-1.5708,-0.523599,-2.50583e-07,-2.0944,-1.5708,1.5708,0.785399,0.000638491,-0.000701424,0.000782107,0.000379226,-0.000432118,0.000228852,0.00140302,0,0,0,0,0,0,0,0.0256461,-10.1892,0.733401,21.5906,-0.764143,-0.527135,-0.149038,0.0414149,-1.07659,0.590806,3.0675,-0.211978,-0.524316,-0.148416
2914976,0.98,-1.57091,-0.522829,-0.000497273,-2.09655,-1.57078,1.57148,0.785552,-1.5708,-0.523599,-2.50583e-07,-2.0944,-1.5708,1.5708,0.785399,0.00107527,0.00073881,-3.54076e-05,-0.000303995,0.000118822,0.000152568,-0.0012348,0,0,0,0,0,0,0,-0.00212494,-10.2408,0.757205,21.6144,-0.77513,-0.527135,-0.0904444,0.0412723,-1.07926,0.590417,3.06891,-0.211995,-0.524344,-0.148508
2914977,0.98,-1.57091,-0.522831,-0.000495656,-2.09655,-1.57078,1.57148,0.785553,-1.5708,-0.523599,-2.50583e-07,-2.0944,-1.5708,1.5708,0.785399,-0.000489576,-0.000157074,0.000533207,-0.000852277,0.000282665,-0.000373006,-0.000348479,0,0,0,0,0,0,0,0.0494498,-10.213,0.733401,21.6422,-0.780623,-0.514318,-0.103262,0.0403183,-1.08104,0.5889,3.06988,-0.212007,-0.524469,-0.148663
2914978,0.98,-1.57091,-0.522833,-0.000495673,-2.09654,-1.57078,1.57148,0.785549,-1.5708,-0.523599,-2.50583e-07,-2.0944,-1.5708,1.5708,0.785399,0.000230428,-0.000661528,0.000355471,0.00119505,-1.50069e-05,0.000226047,-0.00165647,0,0,0,0,0,0,0,0.0256461,-10.1892,0.733401,21.5668,-0.77513,-0.527135,-0.0648096,0.0393863,-1.08147,0.587348,3.0702,-0.21199,-0.52456,-0.148854
2914979,0.98,-1.57091,-0.522827,-0.00049902,-2.09655,-1.57078,1.57148,0.78555,-1.5708,-0.523599,-2.50583e-07,-2.0944,-1.5708,1.5708,0.785399,-0.000403193,0.000765407,-0.000876643,-0.000966536,-1.00046e-05,0.000150698,-0.000866956,0,0,0,0,0,0,0,0.0494498,-10.2408,0.781009,21.6422,-0.77513,-0.527135,-0.0712183,0.0389678,-1.08031,0.586494,3.06954,-0.21192,-0.524545,-0.149033
2914980,0.98,-1.57091,-0.522828,-0.000495681,-2.09655,-1.57078,1.57148,0.78555,-1.5708,-0.523599,-2.50583e-07,-2.0944,-1.5708,1.5708,0.785399,-0.000268796,-0.000139343,0.000529195,5.2568e-06,0.000196781,0.000100465,-0.000577971,0,0,0,0,0,0,0,0.0494498,-10.213,0.733401,21.6144,-0.780623,-0.527135,-0.0712183,0.0392619,-1.07987,0.586731,3.0693,-0.211848,-0.524428,-0.149142
2914981,0.98,-1.57091,-0.52283,-0.000499023,-2.09655,-1.57078,1.57148,0.785556,-1.5708,-0.523599,-2.50583e-07,-2.0944,-1.5708,1.5708,0.785399,0.000377615,-9.2895e-05,-0.000760827,3.50454e-06,-7.22633e-05,0.000541695,0.00151356,0,0,0,0,0,0,0,0.0256461,-10.213,0.781009,21.6144,-0.77513,-0.539952,-0.122488,0.0397815,-1.07967,0.587325,3.06928,-0.211786,-0.524288,-0.149153
2914982,0.98,-1.57091,-0.522832,-0.000497352,-2.09655,-1.57078,1.57148,0.785554,-1.5708,-0.523599,-2.50583e-07,-2.0944,-1.5708,1.5708,0.785399,-0.000305069,-0.000618742,4.95939e-05,0.000559148,-4.81755e-05,-0.000113588,0.000534321,0,0,0,0,0,0,0,0.0494498,-10.1892,0.757205,21.5906,-0.77513,-0.527135,-0.10967,0.040341,-1.07816,0.588011,3.06847,-0.211702,-0.524145,-0.149084
2914983,0.98,-1.5709,-0.522829,-0.000497352,-2.09655,-1.57078,1.57148,0.785556,-1.5708,-0.523599,-2.50583e-07,-2.0944,-1.5708,1.5708,0.785399,0.00100305,0.000793931,3.30626e-05,0.000372766,0.000408692,-7.57253e-05,0.00106829,0,0,0,0,0,0,0,-0.00212494,-10.2408,0.757205,21.5906,-0.787031,-0.527135,-0.128897,0.0406784,-1.07602,0.588427,3.06711,-0.211614,-0.524052,-0.148984
2914984,0.98,-1.57091,-0.52283,-0.000497352,-2.09655,-1.57078,1.57148,0.785553,-1.5708,-0.523599,-2.50583e-07,-2.0944,-1.5708,1.5708,0.785399,-0.000537728,-0.000677138,2.20417e-05,-0.000957916,-0.000168348,-0.000287842,-0.000237242,0,0,0,0,0,0,0,0.0494498,-10.1892,0.757205,21.6422,-0.77513,-0.520726,-0.103262,0.0405603,-1.07469,0.588254,3.06619,-0.211567,-0.524049,-0.148897
2914985,0.98,-1.57091,-0.52283,-0.000500972,-2.09654,-1.57078,1.57148,0.785551,-1.5708,-0.523599,-2.50583e-07,-2.0944,-1.5708,1.5708,0.785399,-0.000358485,0.000105386,-0.00119173,0.00112463,-0.000112232,4.54639e-05,-0.0011076,0,0,0,0,0,0,0,0.0494498,-10.213,0.80878,21.5668,-0.77513,-0.527135,-0.077627,0.0408982,-1.07358,0.588784,3.0656,-0.211534,-0.523981,-0.148846
2914986,0.98,-1.57091,-0.522832,-0.000491603,-2.09655,-1.57078,1.57148,0.78555,-1.5708,-0.523599,-2.50583e-07,-2.0944,-1.5708,1.5708,0.785399,-0.00023899,-0.000486554,0.00161836,-0.000363872,-7.48213e-05,-0.00020705,-0.000975757,0,0,0,0,0,0,0,0.0494498,-10.1892,0.70563,21.6144,-0.77513,-0.520726,-0.0712183,0.0415999,-1.07185,0.589793,3.06464,-0.211482,-0.523854,-0.148823
2914987,0.98,-1.5709,-0.522833,-0.000496642,-2.09655,-1.57078,1.57148,0.785549,-1.5708,-0.523599,-2.50583e-07,-2.0944,-1.5708,1.5708,0.785399,0.0010471,-0.00032437,-0.000127516,-0.000242581,0.00015357,9.93258e-05,-0.00112522,0,0,0,0,0,0,0,-0.00212494,-10.1892,0.757205,21.6144,-0.780623,-0.527135,-0.0584009,0.0413304,-1.06999,0.589324,3.06371,-0.211465,-0.523872,-0.148782
2914988,0.98,-1.57091,-0.522833,-0.000498786,-2.09655,-1.57078,1.57148,0.785553,-1.5708,-0.523599,-2.50583e-07,-2.0944,-1.5708,1.5708,0.785399,-0.00106517,-0.000216246,-0.000641823,-0.000161721,0.00010238,6.62172e-05,0.000911364,0,0,0,0,0,0,0,0.0732535,-10.1892,0.781009,21.6144,-0.780623,-0.527135,-0.103262,0.0407254,-1.06846,0.588417,3.06322,-0.211478,-0.523938,-0.148679
2914989,0.98,-1.57091,-0.522829,-0.000498944,-2.09655,-1.57078,1.57148,0.785556,-1.5708,-0.523599,-2.50583e-07,-2.0944,-1.5708,1.5708,0.785399,-0.000153303,0.00106226,-0.000427882,-0.000757428,-0.000135197,-0.000193214,0.00131965,0,0,0,0,0,0,0,0.0494498,-10.2408,0.781009,21.6422,-0.77513,-0.520726,-0.122488,0.0411127,-1.0685,0.589046,3.06368,-0.211505,-0.52387,-0.148498
2914990,0.98,-1.57091,-0.522831,-0.000495656,-2.09654,-1.57078,1.57148,0.785556,-1.5708,-0.523599,-2.50583e-07,-2.0944,-1.5708,1.5708,0.785399,-0.000102202,5.85605e-05,0.000828369,0.00125829,-9.01316e-05,-0.000366168,0.00111713,0,0,0,0,0,0,0,0.0494498,-10.213,0.733401,21.5668,-0.77513,-0.514318,-0.128897,0.0417637,-1.07034,0.59007,3.06488,-0.211559,-0.523787,-0.148277
2914991,0.98,-1.57091,-0.522831,-0.000500963,-2.09655,-1.57078,1.57148,0.785553,-1.5708,-0.523599,-2.50583e-07,-2.0944,-1.5708,1.5708,0.785399,-0.000624946,3.90403e-05,-0.00121099,-0.000274767,-0.000263538,0.000230606,-0.000442043,0,0,0,0,0,0,0,0.0732535,-10.213,0.80878,21.6144,-0.769636,-0.527135,-0.0968531,0.0422497,-1.0719,0.590794,3.06553,-0.211597,-0.523725,-0.148084
2914992,0.98,-1.5709,-0.522832,-0.000495679,-2.09655,-1.57078,1.57148,0.785553,-1.5708,-0.523599,-2.50583e-07,-2.0944,-1.5708,1.5708,0.785399,0.00134661,-0.0010876,0.00095591,-0.000832792,0.000231209,0.000391096,-0.000294695,0,0,0,0,0,0,0,-0.00212494,-10.1654,0.733401,21.6422,-0.780623,-0.533544,-0.0968531,0.0425777,-1.07214,0.591277,3.0657,-0.211614,-0.523665,-0.147952
2914993,0.98,-1.57091,-0.522832,-0.000499022,-2.09655,-1.57078,1.57148,0.78555,-1.5708,-0.523599,-2.50583e-07,-2.0944,-1.5708,1.5708,0.785399,-0.000308688,-0.000168253,-0.000476351,-0.000555194,-0.000252762,2.33718e-05,-0.0011459,0,0,0,0,0,0,0,0.0494498,-10.1892,0.781009,21.6422,-0.769636,-0.527135,-0.0712183,0.042156,-1.07141,0.590709,3.06597,-0.211648,-0.5237,-0.147867
2914994,0.98,-1.57091,-0.522832,-0.000499023,-2.09654,-1.57078,1.57148,0.785554,-1.5708,-0.523599,-2.50583e-07,-2.0944,-1.5708,1.5708,0.785399,-0.000762604,-0.000112168,-0.000317567,0.00139311,0.000238393,1.55812e-05,0.000660221,0,0,0,0,0,0,0,0.0732535,-10.1892,0.781009,21.5668,-0.780623,-0.527135,-0.10967,0.0419042,-1.07009,0.590367,3.06592,-0.211655,-0.523709,-0.147797
2914995,0.98,-1.57091,-0.522831,-0.000493733,-2.09654,-1.57078,1.57148,0.785552,-1.5708,-0.523599,-2.50583e-07,-2.0944,-1.5708,1.5708,0.785399,0.000605221,0.000482033,0.00155153,0.000928739,-4.45217e-05,1.03874e-05,-0.00027193,0,0,0,0,0,0,0,0.0256461,-10.213,0.70563,21.5668,-0.77513,-0.527135,-0.0904444,0.0418263,-1.06851,0.590176,3.06502,-0.211616,-0.523709,-0.14772
2914996,0.98,-1.57091,-0.522831,-0.000497352,-2.09655,-1.57078,1.57148,0.785555,-1.5708,-0.523599,-2.50583e-07,-2.0944,-1.5708,1.5708,0.785399,-0.000710143,0.000321355,-0.000172075,-0.0022577,0.000173769,0.000244284,0.000768149,0,0,0,0,0,0,0,0.0732535,-10.213,0.757205,21.6898,-0.780623,-0.533544,-0.116079,0.0410199,-1.06841,0.588837,3.06474,-0.211623,-0.523853,-0.14763
2914997,0.98,-1.57091,-0.522829,-0.000495682,-2.09655,-1.57078,1.57148,0.785556,-1.5708,-0.523599,-2.50583e-07,-2.0944,-1.5708,1.5708,0.785399,8.33833e-05,0.000863851,0.000442095,0.000258103,0.000353205,-0.000311862,0.000749458,0,0,0,0,0,0,0,0.0494498,-10.2408,0.733401,21.6144,-0.787031,-0.520726,-0.122488,0.0402409,-1.07115,0.587515,3.06656,-0.211717,-0.524033,-0.147532
2914998,0.98,-1.57091,-0.522831,-0.000497352,-2.09655,-1.57078,1.57148,0.78555,-1.5708,-0.523597,-2.75058e-06,-2.09439,-1.5708,1.5708,0.785399,-0.000501223,-0.000630525,-0.000262082,0.000172069,-1.88882e-06,2.9451e-05,-0.00139923,-0.00312521,0.001875,-0.0025,0.00231151,-0.00155837,0.005,-0.000158103,0.0732535,-10.1892,0.757205,21.6144,-0.780623,-0.527135,-0.0712183,0.0399923,-1.07427,0.586902,3.06869,-0.211817,-0.524146,-0.147459
2914999,0.98,-1.57091,-0.522832,-0.000495682,-2.09654,-1.57078,1.57148,0.785551,-1.57081,-0.523593,-7.75058e-06,-2.09439,-1.5708,1.57081,0.785398,0.000779475,-0.00042035,0.000382091,0.00122834,-0.00040816,0.000494352,-0.000458104,-0.00625042,0.00375,-0.005,0.00462301,-0.00311674,0.01,-0.000316207,0.0256461,-10.1892,0.733401,21.5668,-0.769636,-0.539952,-0.0840357,0.0399491,-1.07464,0.586475,3.06902,-0.211852,-0.524209,-0.147424
2915000,0.98,-1.57091,-0.522831,-0.000497352,-2.09655,-1.57078,1.57148,0.785551,-1.57082,-0.523587,-1.52506e-05,-2.09438,-1.57081,1.57083,0.785398,-3.71618e-05,0.000276578,-0.000302085,-0.000944347,0.000134794,-0.00014515,-0.000542761,-0.00937563,0.005625,-0.0075,0.00693452,-0.00467511,0.015,-0.00047431,0.0494498,-10.213,0.757205,21.6422,-0.780623,-0.527135,-0.077627,0.0397987,-1.07325,0.585858,3.06827,-0.211854,-0.524283,-0.147391
2915001,0.98,-1.57091,-0.52283,-0.000495477,-2.09655,-1.57078,1.57148,0.785557,-1.57083,-0.52358,-2.52506e-05,-2.09437,-1.57081,1.57085,0.785397,-0.00198507,0.00798851,-0.00216394,-0.000629565,0.000734123,-0.000334126,0.00177439,-0.0125008,0.0075,-0.01,0.00924603,-0.00623348,0.02,-0.000632413,-0.00212494,-10.1377,0.578677,21.6422,-0.798018,-0.520726,-0.135305,0.0407463,-1.0789,0.587042,3.07097,-0.211955,-0.524287,-0.147302
2915002,0.98,-1.57091,-0.522831,-0.000497685,-2.09655,-1.57078,1.57148,0.785557,-1.57084,-0.52357,-3.77506e-05,-2.09436,-1.57082,1.57087,0.785396,-0.00141709,0.00828007,-0.00319479,0.000837951,0.00154058,1.46085e-05,0.00118293,-0.0156261,0.009375,-0.0125,0.0115575,-0.00779185,0.025,-0.000790516,-0.279835,-9.9631,0.225589,21.7176,-0.826399,-0.527135,-0.135305,0.0444611,-1.10029,0.5927,3.08076,-0.212245,-0.524068,-0.147147
2915003,0.98,-1.5709,-0.522829,-0.000509781,-2.09655,-1.57077,1.57148,0.785557,-1.57086,-0.523559,-5.27506e-05,-2.09435,-1.57083,1.5709,0.785395,0.00318245,0.0084551,-0.00688957,-0.00150967,0.00268856,-0.000939697,0.000788618,-0.0187513,0.01125,-0.015,0.013869,-0.00935022,0.03,-0.00094862,-0.755909,-9.76077,-0.155271,21.8167,-0.87126,-0.5015,-0.135305,0.0503952,-1.13473,0.60241,3.09633,-0.212712,-0.523625,-0.14699
2915004,0.98,-1.5709,-0.52282,-0.000526743,-2.09654,-1.57078,1.57148,0.785553,-1.57088,-0.523546,-7.02506e-05,-2.09433,-1.57084,1.57094,0.785394,0.00512629,0.0103535,-0.00591461,0.000551781,0.00179238,-0.000389106,-0.000898409,-0.0218765,0.013125,-0.0175,0.0161806,-0.0109086,0.035,-0.00110672,-1.18834,-9.63382,-0.583737,21.8882,-0.87126,-0.507909,-0.0968531,0.0558611,-1.17581,0.612842,3.1154,-0.213382,-0.523162,-0.1469
2915005,0.98,-1.57091,-0.522811,-0.00054069,-2.09653,-1.57078,1.57148,0.78555,-1.57091,-0.523531,-9.02506e-05,-2.09431,-1.57085,1.57098,0.785393,0.000971329,0.00919683,-0.00742955,0.00202989,0.00119492,0.00892317,-0.00154837,-0.0250017,0.015,-0.02,0.0184921,-0.012467,0.04,-0.00126483,-1.54143,-9.53067,-1.06378,21.9635,-0.87126,-0.5015,-0.0712183,0.058903,-1.21791,0.621159,3.13516,-0.214224,-0.522827,-0.146898
2915006,0.98,-1.57092,-0.522796,-0.0005656,-2.09653,-1.57078,1.57148,0.785552,-1.57094,-0.523514,-0.000112751,-2.09429,-1.57087,1.57102,0.785392,0.00149332,0.0127443,-0.0149775,0.00318339,0.00038971,0.00673378,-0.000320173,-0.0281269,0.016875,-0.0225,0.0208036,-0.0140253,0.045,-0.00142293,-1.91832,-9.48306,-1.42083,22.0389,-0.860274,-0.5015,-0.0904444,0.0617462,-1.2568,0.63059,3.15321,-0.215073,-0.52216,-0.146949
2915007,0.98,-1.57092,-0.522781,-0.000591106,-2.09651,-1.57078,1.57149,0.785551,-1.57097,-0.523495,-0.000137751,-2.09427,-1.57088,1.57107,0.78539,-0.00143565,0.0126086,-0.0181341,0.00581905,-0.00379739,0.00673944,-0.000688167,-0.0312521,0.01875,-0.025,0.0231151,-0.0155837,0.05,-0.00158103,-2.29522,-9.45529,-1.75012,22.0389,-0.876753,-0.546361,-0.077627,0.0682276,-1.29194,0.647264,3.16921,-0.215758,-0.520387,-0.146991
2915008,0.98,-1.57093,-0.522773,-0.000605121,-2.09651,-1.57078,1.5715,0.785553,-1.57101,-0.523473,-0.000167751,-2.09424,-1.5709,1.57113,0.785388,-0.00466934,0.00952466,-0.0174184,0.00536754,-0.00312401,0.010932,0.000253299,-0.037128,0.0225,-0.03,0.0272517,-0.0182673,0.06,-0.00174171,-2.6245,-9.30453,-2.20636,22.1381,-0.87126,-0.57932,-0.0968531,0.0784623,-1.31896,0.671192,3.18147,-0.216178,-0.51729,-0.146997
2915009,0.98,-1.57094,-0.522764,-0.000632293,-2.0965,-1.57078,1.57151,0.785553,-1.57105,-0.523447,-0.000202751,-2.09421,-1.57092,1.5712,0.785386,-0.00481165,0.00988887,-0.0194644,0.00647305,-0.000678974,0.010774,0.000168866,-0.0430039,0.02625,-0.035,0.0313884,-0.020951,0.07,-0.0019024,-2.92601,-9.12601,-2.43249,22.1897,-0.917036,-0.527135,-0.0968531,0.0890424,-1.33243,0.696888,3.18851,-0.216379,-0.513274,-0.146975
2915010,0.98,-1.57096,-0.522757,-0.000660598,-2.09648,-1.57078,1.57151,0.785551,-1.5711,-0.523417,-0.000242751,-2.09417,-1.57095,1.57128,0.785384,-0.00951624,0.00720228,-0.0206575,0.00677797,0.000583171,0.0052721,-0.000362141,-0.0488798,0.03,-0.04,0.035525,-0.0236346,0.08,-0.00206308,-3.15215,-8.95145,-2.65863,22.2611,-0.950911,-0.450231,-0.0840357,0.097679,-1.33101,0.720904,3.19066,-0.216478,-0.508568,-0.14694
2915011,0.98,-1.57098,-0.522749,-0.000684997,-2.09647,-1.57077,1.57152,0.785549,-1.57115,-0.523383,-0.000287751,-2.09413,-1.57097,1.57137,0.785382,-0.017223,0.00656489,-0.0233826,0.0100174,0.00253046,0.00109845,-0.00119086,-0.0547557,0.03375,-0.045,0.0396617,-0.0263183,0.09,-0.00222376,-3.33068,-8.69754,-3.06726,22.3365,-1.01317,-0.366002,-0.0584009,0.105993,-1.31312,0.745202,3.18733,-0.216488,-0.502716,-0.146902
2915012,0.98,-1.57101,-0.522734,-0.000716333,-2.09646,-1.57077,1.57152,0.785551,-1.57121,-0.523345,-0.000337751,-2.09409,-1.571,1.57147,0.78538,-0.0192959,0.00894023,-0.026524,0.0101451,0.00322542,0.00346702,-8.18317e-05,-0.0606316,0.0375,-0.05,0.0437983,-0.0290019,0.1,-0.00238444,-3.65996,-8.41983,-3.5711,22.511,-1.05803,-0.295507,-0.077627,0.116174,-1.28115,0.772736,3.17938,-0.216459,-0.49525,-0.146839
2915013,0.98,-1.57103,-0.52271,-0.000765742,-2.09643,-1.57078,1.57153,0.785548,-1.57128,-0.523304,-0.000392751,-2.09404,-1.57103,1.57158,0.785377,-0.0201948,0.0142724,-0.0369794,0.0143109,0.00371949,0.00492589,-0.0010379,-0.0665075,0.04125,-0.055,0.047935,-0.0316856,0.11,-0.00254512,-4.29076,-8.14212,-4.00354,22.511,-1.10289,-0.218602,-0.0510767,0.12885,-1.2454,0.8054,3.17114,-0.216576,-0.486075,-0.146708
2915014,0.98,-1.57106,-0.522674,-0.000807715,-2.09641,-1.57078,1.57155,0.785551,-1.57135,-0.523259,-0.000452751,-2.09399,-1.57107,1.5717,0.785374,-0.0260147,0.020528,-0.0372848,0.015723,-0.000790878,0.0120001,0.00147821,-0.0723834,0.045,-0.06,0.0520716,-0.0343692,0.12,-0.0027058,-4.71923,-7.96359,-4.63434,22.5864,-1.14317,-0.179235,-0.10967,0.143776,-1.21816,0.844007,3.16763,-0.217038,-0.475268,-0.146471
2915015,0.98,-1.57111,-0.522635,-0.000864742,-2.09637,-1.57079,1.57158,0.785546,-1.57143,-0.52321,-0.000517751,-2.09393,-1.5711,1.57183,0.785372,-0.0329768,0.0258571,-0.0408491,0.0227051,-0.00553986,0.012896,-0.000201324,-0.0782594,0.04875,-0.065,0.0562083,-0.0370529,0.13,-0.00286648,-5.04454,-7.81284,-5.14215,22.5348,-1.14866,-0.140783,-0.077627,0.159185,-1.20655,0.885898,3.171,-0.217983,-0.463076,-0.146114
2915016,0.98,-1.57116,-0.522588,-0.000920109,-2.09634,-1.5708,1.57161,0.785547,-1.57151,-0.523158,-0.000587751,-2.09387,-1.57114,1.57197,0.785369,-0.0393848,0.0333688,-0.0463054,0.026599,-0.00839788,0.0232305,-0.000846293,-0.0841353,0.0525,-0.07,0.0603449,-0.0397365,0.14,-0.00302716,-5.44921,-7.68588,-5.67376,22.5348,-1.16514,-0.115148,-0.0584009,0.174236,-1.21217,0.929327,3.18056,-0.219406,-0.449563,-0.145663
2915017,0.98,-1.57121,-0.522544,-0.000980586,-2.0963,-1.5708,1.57166,0.785538,-1.5716,-0.523102,-0.000662751,-2.09381,-1.57119,1.57212,0.785365,-0.0438106,0.0380362,-0.0527642,0.0314725,-0.00527357,0.0326366,-0.00273433,-0.0900112,0.05625,-0.075,0.0644816,-0.0424201,0.15,-0.00318785,-5.85387,-7.51132,-6.10223,22.5864,-1.19902,-0.134374,0.000192821,0.189189,-1.235,0.974726,3.19572,-0.221268,-0.43467,-0.14514
2915018,0.98,-1.57128,-0.522499,-0.00103312,-2.09627,-1.57081,1.57174,0.78553,-1.5717,-0.52304,-0.000745251,-2.09374,-1.57123,1.57229,0.785362,-0.0497329,0.0374463,-0.0516795,0.029714,-0.00776135,0.0473584,-0.00446775,-0.0984782,0.061875,-0.0825,0.0701127,-0.046137,0.165,-0.0031804,-6.02843,-7.30899,-6.63385,22.7332,-1.23289,-0.237828,0.071604,0.20144,-1.26971,1.01817,3.21566,-0.223625,-0.418772,-0.144524
2915019,0.98,-1.57135,-0.522462,-0.00109191,-2.09622,-1.57082,1.57182,0.785527,-1.57181,-0.522972,-0.000835251,-2.09366,-1.57128,1.57247,0.785359,-0.0533625,0.0379651,-0.0566854,0.0353179,-0.00911007,0.061362,-0.00369057,-0.106945,0.0675,-0.09,0.0757438,-0.0498538,0.18,-0.00317296,-6.23076,-7.00351,-7.04248,22.7332,-1.27867,-0.301915,0.09083,0.206505,-1.30458,1.05242,3.23727,-0.226499,-0.402584,-0.143739
2915020,0.98,-1.57142,-0.522421,-0.00115743,-2.09618,-1.57083,1.57191,0.785524,-1.57193,-0.522899,-0.000932751,-2.09358,-1.57134,1.57266,0.785356,-0.0596449,0.0383763,-0.0601237,0.0368503,-0.00994792,0.0690815,-0.00246038,-0.115412,0.073125,-0.0975,0.081375,-0.0535706,0.195,-0.00316552,-6.40929,-6.702,-7.34399,22.8363,-1.32902,-0.295507,0.09083,0.202924,-1.32902,1.07468,3.25646,-0.229803,-0.386482,-0.142678
2915021,0.98,-1.57151,-0.522379,-0.00122249,-2.09613,-1.57084,1.57201,0.785528,-1.57205,-0.52282,-0.00103775,-2.0935,-1.57139,1.57287,0.785353,-0.0722968,0.0410358,-0.0680133,0.0446743,-0.0161688,0.082135,2.12574e-05,-0.123879,0.07875,-0.105,0.0870061,-0.0572874,0.21,-0.00315808,-6.48467,-6.37271,-7.80023,22.9077,-1.3574,-0.23142,0.0459692,0.194655,-1.3378,1.08984,3.27032,-0.233368,-0.370103,-0.141253
2915022,0.98,-1.57161,-0.522327,-0.00130166,-2.09607,-1.57086,1.57212,0.785526,-1.57218,-0.522736,-0.00115025,-2.0934,-1.57145,1.5731,0.78535,-0.0831532,0.0461318,-0.0710751,0.0447778,-0.0152495,0.0910964,-0.000460546,-0.132346,0.084375,-0.1125,0.0926372,-0.0610043,0.225,-0.00315063,-6.61162,-6.01962,-8.25647,22.9831,-1.40867,-0.134374,0.0587866,0.187673,-1.33328,1.10539,3.2796,-0.237109,-0.352816,-0.139437
2915023,0.98,-1.5717,-0.52226,-0.00139451,-2.09601,-1.57087,1.57225,0.785525,-1.57232,-0.522646,-0.00127025,-2.0933,-1.57152,1.57334,0.785346,-0.0837412,0.0513481,-0.0789597,0.0459988,-0.0195911,0.104801,-0.000781749,-0.140814,0.09,-0.12,0.0982684,-0.0647211,0.24,-0.00314319,-7.0877,-5.71414,-8.73651,23.0069,-1.45354,-0.089513,0.071604,0.18297,-1.32536,1.12238,3.29028,-0.241273,-0.334654,-0.137255
2915024,0.98,-1.5718,-0.522184,-0.00149118,-2.09595,-1.57089,1.57241,0.785516,-1.57247,-0.52255,-0.00139775,-2.0932,-1.57159,1.57359,0.785343,-0.0888333,0.0575845,-0.0834544,0.0529196,-0.0178662,0.123292,-0.00340338,-0.149281,0.095625,-0.1275,0.1039,-0.0684379,0.255,-0.00313575,-7.51616,-5.51181,-9.2959,23.0347,-1.5048,-0.140783,0.149424,0.176531,-1.32225,1.13567,3.30686,-0.24616,-0.316271,-0.134755
2915025,0.98,-1.57192,-0.522101,-0.00158977,-2.09587,-1.57091,1.57259,0.78551,-1.57263,-0.522449,-0.00153275,-2.09309,-1.57166,1.57386,0.78534,-0.100858,0.0645041,-0.0887208,0.0648295,-0.017453,0.144197,-0.00321836,-0.157748,0.10125,-0.135,0.109531,-0.0721547,0.27,-0.00312831,-7.74627,-5.28568,-9.90289,22.9077,-1.53319,-0.257054,0.175059,0.166043,-1.3243,1.14207,3.32654,-0.251743,-0.298057,-0.131971
2915026,0.98,-1.57205,-0.522014,-0.00169753,-2.09578,-1.57094,1.57279,0.785512,-1.5728,-0.522342,-0.00167525,-2.09298,-1.57174,1.57415,0.785337,-0.10801,0.0703141,-0.0944635,0.0692084,-0.0215637,0.157574,-0.000958776,-0.166215,0.106875,-0.1425,0.115162,-0.0758716,0.285,-0.00312086,-8.02398,-5.08334,-10.4345,22.8363,-1.56706,-0.333959,0.143015,0.152522,-1.32907,1.14237,3.34514,-0.257865,-0.279953,-0.128873
2915027,0.98,-1.5722,-0.521922,-0.0018217,-2.0957,-1.57097,1.573,0.78551,-1.57297,-0.52223,-0.00182525,-2.09286,-1.57182,1.57445,0.785334,-0.117787,0.077438,-0.106127,0.0744114,-0.0252988,0.172072,-0.000367917,-0.174682,0.1125,-0.15,0.120793,-0.0795884,0.3,-0.00311342,-8.27391,-4.85721,-10.8114,22.8086,-1.58354,-0.398961,0.135691,0.138768,-1.33721,1.14051,3.36317,-0.264476,-0.26168,-0.12541
2915028,0.98,-1.57234,-0.521831,-0.00193641,-2.09561,-1.57101,1.57324,0.785517,-1.57315,-0.52211,-0.00198524,-2.09273,-1.5719,1.57477,0.785331,-0.124257,0.0816829,-0.108228,0.0767736,-0.0278034,0.193821,0.00260303,-0.184801,0.119423,-0.15999,0.127417,-0.0838764,0.319216,-0.00301908,-8.55162,-4.6033,-11.3192,22.8363,-1.60643,-0.5015,0.0587866,0.125964,-1.35027,1.13836,3.38329,-0.271635,-0.243275,-0.121593
2915029,0.98,-1.5725,-0.521744,-0.00205084,-2.09551,-1.57105,1.5735,0.785515,-1.57335,-0.521984,-0.00215522,-2.09259,-1.57199,1.5751,0.785328,-0.133474,0.0841757,-0.107328,0.0816762,-0.0349723,0.217572,0.00126063,-0.194919,0.126345,-0.16998,0.134041,-0.0881644,0.338431,-0.00292475,-8.75396,-4.30179,-11.7993,22.8839,-1.61192,-0.553685,0.071604,0.108978,-1.36458,1.12779,3.40545,-0.279454,-0.2258,-0.117525
2915030,0.99,-1.57265,-0.521645,-0.00217678,-2.09541,-1.5711,1.57376,0.785509,-1.57355,-0.521851,-0.00233519,-2.09245,-1.57208,1.57546,0.785325,-0.140575,0.0907565,-0.113934,0.0870692,-0.0388878,0.229564,-0.00129581,-0.205038,0.133268,-0.17997,0.140664,-0.0924524,0.357647,-0.00283041,-9.00786,-4.07169,-12.1047,22.9831,-1.6577,-0.450231,0.129282,0.082753,-1.37488,1.10059,3.42772,-0.287948,-0.210241,-0.113354
2915031,1,-1.57283,-0.521541,-0.00229725,-2.0953,-1.57115,1.57405,0.785504,-1.57377,-0.521711,-0.00252515,-2.09231,-1.57218,1.57584,0.785322,-0.151178,0.0926879,-0.115853,0.093076,-0.0411639,0.248681,-0.0013725,-0.215157,0.140191,-0.18996,0.147288,-0.0967403,0.376863,-0.00273607,-9.13085,-3.84555,-12.6363,23.0069,-1.71995,-0.359594,0.143015,0.0477745,-1.37797,1.0572,3.44832,-0.297002,-0.196537,-0.109169
2915032,1,-1.57301,-0.521434,-0.00243249,-2.09519,-1.57121,1.57436,0.785503,-1.574,-0.521563,-0.0027251,-2.09215,-1.57228,1.57623,0.78532,-0.161786,0.0991283,-0.12623,0.0988887,-0.0483702,0.272279,-0.000914998,-0.225276,0.147113,-0.19995,0.153912,-0.101028,0.396079,-0.00264174,-9.38475,-3.56784,-13.2195,22.9831,-1.76481,-0.301915,0.143015,0.00737799,-1.37119,1.00243,3.46578,-0.306459,-0.184064,-0.104974
2915033,1,-1.57319,-0.52131,-0.00258664,-2.09506,-1.57127,1.5747,0.785505,-1.57423,-0.521409,-0.00293504,-2.09199,-1.57238,1.57665,0.785317,-0.163254,0.108024,-0.13451,0.107325,-0.0486749,0.295404,0.000373345,-0.235394,0.154036,-0.20994,0.160536,-0.105316,0.415294,-0.0025474,-9.8886,-3.33774,-13.8027,22.9077,-1.82158,-0.333959,0.116465,-0.0355165,-1.35783,0.941366,3.48088,-0.31625,-0.172257,-0.100747
2915034,1,-1.57338,-0.521173,-0.00275859,-2.09494,-1.57134,1.57506,0.785506,-1.57448,-0.521248,-0.00315497,-2.09182,-1.57249,1.57708,0.785315,-0.171116,0.117288,-0.14603,0.112678,-0.0553718,0.315167,0.000486256,-0.245513,0.160959,-0.21993,0.16716,-0.109604,0.43451,-0.00245306,-10.4202,-3.21475,-14.2828,22.8601,-1.82158,-0.450231,0.110056,-0.0803004,-1.34669,0.876443,3.49673,-0.326479,-0.16088,-0.0964768
2915035,1,-1.5736,-0.521032,-0.0029209,-2.09479,-1.57141,1.57545,0.785506,-1.57473,-0.521081,-0.00338489,-2.09165,-1.57261,1.57754,0.785312,-0.189586,0.127375,-0.151752,0.125062,-0.0608517,0.336392,0.00032417,-0.255632,0.167881,-0.22992,0.173784,-0.113892,0.453726,-0.00235873,-10.7217,-3.06003,-14.8898,22.7332,-1.81608,-0.604955,0.110056,-0.124152,-1.34364,0.812068,3.51487,-0.33714,-0.14941,-0.0921828
2915036,1,-1.57382,-0.520881,-0.00309787,-2.09465,-1.57149,1.57587,0.785501,-1.575,-0.520906,-0.0036248,-2.09147,-1.57272,1.57801,0.78531,-0.201435,0.137199,-0.155625,0.132691,-0.0642114,0.359781,-0.000258604,-0.265751,0.174804,-0.23991,0.180407,-0.11818,0.472941,-0.00226439,-10.9756,-2.90927,-15.4968,22.6618,-1.83256,-0.72672,0.122873,-0.164407,-1.35005,0.750976,3.53416,-0.348106,-0.137537,-0.0878967
2915037,1,-1.57405,-0.520725,-0.0032918,-2.09449,-1.57158,1.57629,0.785499,-1.57527,-0.520724,-0.0038747,-2.09128,-1.57285,1.5785,0.785308,-0.205689,0.142702,-0.17192,0.139837,-0.0717158,0.379246,-0.000647121,-0.27587,0.181726,-0.2499,0.187031,-0.122468,0.492157,-0.00217005,-11.3763,-2.78232,-15.9014,22.5348,-1.83806,-0.772496,0.135691,-0.20192,-1.36381,0.691953,3.55347,-0.359296,-0.125562,-0.0836485
2915038,1,-1.57428,-0.520568,-0.00348239,-2.09432,-1.57166,1.57674,0.785491,-1.57556,-0.520535,-0.00413459,-2.09109,-1.57297,1.57902,0.785306,-0.214772,0.148967,-0.175729,0.147337,-0.0774223,0.403004,-0.00165212,-0.286861,0.189216,-0.25989,0.194259,-0.127002,0.512147,-0.00203487,-11.7056,-2.53238,-16.3061,22.4356,-1.83806,-0.817357,0.16865,-0.238579,-1.37875,0.633468,3.5712,-0.37061,-0.113878,-0.0794527
2915039,1,-1.57453,-0.520405,-0.00366508,-2.09415,-1.57176,1.57722,0.785489,-1.57586,-0.520338,-0.00440447,-2.09089,-1.57311,1.57955,0.785304,-0.223769,0.154777,-0.178254,0.152654,-0.0817084,0.423523,-0.000626693,-0.297852,0.196706,-0.26988,0.201487,-0.131535,0.532137,-0.0018997,-11.8802,-2.35385,-16.8377,22.3603,-1.83806,-0.817357,0.155832,-0.279426,-1.38922,0.568208,3.58593,-0.382079,-0.103319,-0.0752937
2915040,1,-1.57478,-0.520241,-0.00387038,-2.09398,-1.57186,1.57771,0.785481,-1.57617,-0.520134,-0.00468434,-2.09068,-1.57324,1.5801,0.785302,-0.227318,0.158513,-0.186414,0.160959,-0.0881629,0.442294,-0.00136723,-0.308843,0.204196,-0.27987,0.208715,-0.136069,0.552127,-0.00176452,-12.2095,-2.09995,-17.1432,22.3603,-1.87834,-0.75327,0.181467,-0.330039,-1.39069,0.487689,3.5965,-0.393786,-0.0947029,-0.0711433
2915041,1,-1.57504,-0.520063,-0.00408625,-2.09379,-1.57196,1.57822,0.785486,-1.57649,-0.519922,-0.0049742,-2.09046,-1.57338,1.58067,0.785301,-0.236458,0.163711,-0.195111,0.171521,-0.0928287,0.465688,0.00220809,-0.319834,0.211686,-0.28986,0.215942,-0.140603,0.572117,-0.00162934,-12.4356,-1.94919,-17.4209,22.3127,-1.9232,-0.67545,0.0972387,-0.39127,-1.37668,0.391063,3.59944,-0.405574,-0.0879927,-0.066997
2915042,1,-1.57532,-0.519885,-0.0042999,-2.0936,-1.57206,1.57877,0.785488,-1.57682,-0.519703,-0.00527405,-2.09024,-1.57353,1.58126,0.785299,-0.24596,0.169573,-0.199624,0.174326,-0.0972642,0.493267,0.00265885,-0.330825,0.219176,-0.29985,0.22317,-0.145136,0.592107,-0.00149416,-12.511,-1.74686,-17.8018,22.3603,-1.94609,-0.733129,0.0651953,-0.461474,-1.34566,0.280928,3.59395,-0.417354,-0.0827929,-0.0628804
2915043,1,-1.57561,-0.519695,-0.00453034,-2.09339,-1.57217,1.57935,0.78549,-1.57716,-0.519476,-0.00558389,-2.09001,-1.57368,1.58188,0.785298,-0.260488,0.174904,-0.209316,0.182794,-0.101868,0.516207,0.00394271,-0.341816,0.226666,-0.30984,0.230398,-0.14967,0.612097,-0.00135899,-12.5387,-1.5961,-18.0279,22.2611,-1.93419,-0.868627,0.00660151,-0.537826,-1.30184,0.160984,3.58349,-0.429216,-0.0785916,-0.0588697
2915044,1,-1.5759,-0.519491,-0.00477973,-2.09318,-1.57229,1.57995,0.785488,-1.57751,-0.519242,-0.00590372,-2.08977,-1.57383,1.58251,0.785297,-0.269938,0.185271,-0.22228,0.19078,-0.108051,0.53871,0.00239111,-0.352807,0.234156,-0.31983,0.237626,-0.154203,0.632087,-0.00122381,-12.7133,-1.56833,-18.1033,22.2373,-1.97447,-0.940038,0.0130102,-0.614366,-1.25053,0.0396619,3.57076,-0.441111,-0.0745142,-0.0550829
2915045,1,-1.57621,-0.519283,-0.00501511,-2.09297,-1.57241,1.58056,0.785489,-1.57788,-0.519001,-0.00623354,-2.08953,-1.57399,1.58316,0.785295,-0.281803,0.192909,-0.225035,0.199535,-0.109253,0.560575,0.00183143,-0.363798,0.241646,-0.32982,0.244853,-0.158737,0.652077,-0.00108863,-12.7411,-1.52072,-18.3572,22.2373,-1.98546,-0.97849,0.00660151,-0.687884,-1.1984,-0.0783198,3.55773,-0.45302,-0.0702635,-0.0516291
2915046,1,-1.57653,-0.519063,-0.00527188,-2.09273,-1.57253,1.5812,0.785484,-1.57825,-0.518751,-0.00657335,-2.08927,-1.57415,1.58383,0.785295,-0.297086,0.200307,-0.235533,0.211426,-0.114403,0.581023,-0.000474465,-0.374789,0.249136,-0.33981,0.252081,-0.16327,0.672067,-0.000953452,-12.7133,-1.46915,-18.5119,22.1143,-1.99644,-0.991307,0.0523779,-0.758671,-1.14721,-0.193958,3.54386,-0.464967,-0.0660729,-0.0485795
2915047,1,-1.57685,-0.518836,-0.00554588,-2.09249,-1.57265,1.58187,0.785483,-1.57864,-0.518495,-0.00692315,-2.08902,-1.57432,1.58452,0.785294,-0.306355,0.204225,-0.248459,0.218946,-0.118111,0.601505,0.000429675,-0.38578,0.256626,-0.3498,0.259309,-0.167804,0.692057,-0.000818274,-12.8918,-1.49295,-18.6111,22.0627,-2.01933,-1.01694,0.0322363,-0.823909,-1.09183,-0.303537,3.52581,-0.476774,-0.0615805,-0.0459476
2915048,1,-1.57718,-0.518606,-0.00582024,-2.09224,-1.57279,1.58256,0.785476,-1.57903,-0.518231,-0.00728294,-2.08875,-1.57449,1.58524,0.785293,-0.315245,0.211565,-0.256645,0.22575,-0.126882,0.633326,-0.00164633,-0.396985,0.264116,-0.35979,0.266848,-0.172378,0.712047,-0.000662276,-13.0188,-1.41757,-18.738,22.1143,-2.00834,-1.10026,0.0844213,-0.882516,-1.02913,-0.404844,3.50286,-0.488352,-0.0566968,-0.0436886
2915049,1,-1.57753,-0.518366,-0.00610712,-2.09199,-1.57293,1.58326,0.785481,-1.57944,-0.517959,-0.00765272,-2.08847,-1.57467,1.58597,0.785293,-0.330457,0.219724,-0.266318,0.235266,-0.132569,0.651713,0.000835227,-0.40819,0.271606,-0.36978,0.274387,-0.176952,0.732037,-0.000506279,-13.0664,-1.41757,-18.9404,22.1143,-2.01933,-1.06821,0.0322363,-0.936464,-0.962149,-0.500251,3.47724,-0.499785,-0.0518847,-0.0417169
2915050,1,-1.5779,-0.518117,-0.00639717,-2.09173,-1.57309,1.58397,0.785482,-1.57986,-0.51768,-0.00803249,-2.08819,-1.57485,1.58672,0.785292,-0.340392,0.225566,-0.272724,0.243753,-0.137369,0.668869,0.00103154,-0.419395,0.279096,-0.37977,0.281926,-0.181527,0.752027,-0.000350281,-13.0426,-1.44534,-19.0911,22.0627,-2.01933,-0.965673,0.0194189,-0.986564,-0.89346,-0.59117,3.45002,-0.511124,-0.0472881,-0.0399501
2915051,1,-1.57826,-0.517867,-0.00670043,-2.09146,-1.57324,1.5847,0.785482,-1.58029,-0.517393,-0.00842225,-2.0879,-1.57504,1.58749,0.785292,-0.35458,0.231117,-0.282886,0.249774,-0.144892,0.683324,0.00068769,-0.4306,0.286586,-0.38976,0.289465,-0.186101,0.772017,-0.000194284,-13.1695,-1.41757,-19.1427,22.1143,-2.02482,-0.90067,0.0194189,-1.03322,-0.821958,-0.678604,3.42121,-0.522399,-0.0427443,-0.0383587
2915052,1,-1.57864,-0.517605,-0.00701751,-2.09118,-1.5734,1.58548,0.785479,-1.58073,-0.517099,-0.008822,-2.08761,-1.57523,1.58828,0.785292,-0.359638,0.239622,-0.291279,0.264625,-0.155527,0.711373,-0.000524884,-0.441805,0.294076,-0.39975,0.297004,-0.190675,0.792007,-3.8286e-05,-13.3203,-1.54453,-19.2697,22.0905,-2.00194,-1.05539,0.0459692,-1.0777,-0.746535,-0.764209,3.38995,-0.533557,-0.0381967,-0.0369511
2915053,1,-1.57904,-0.517323,-0.00734247,-2.09088,-1.57357,1.58626,0.785477,-1.58119,-0.516798,-0.00923174,-2.0873,-1.57542,1.5891,0.785292,-0.375945,0.254454,-0.302237,0.272497,-0.157938,0.7406,-0.001062,-0.45301,0.301566,-0.40974,0.304543,-0.195249,0.811997,0.000117711,-13.3719,-1.72305,-19.345,22.0151,-2.02482,-1.16526,0.0651953,-1.12178,-0.673665,-0.849658,3.35721,-0.544553,-0.033955,-0.0357134
2915054,1,-1.57944,-0.517034,-0.00768857,-2.09058,-1.57374,1.58706,0.785473,-1.58165,-0.516489,-0.00965147,-2.08699,-1.57562,1.58993,0.785292,-0.378578,0.264307,-0.312078,0.279224,-0.164248,0.755391,-0.00118272,-0.464214,0.309056,-0.41973,0.312082,-0.199823,0.831987,0.000273709,-13.3441,-1.92538,-19.3212,22.0151,-2.0587,-1.10666,0.0780126,-1.1663,-0.617136,-0.935048,3.32932,-0.555571,-0.0303801,-0.0345734
2915055,1,-1.57985,-0.516741,-0.00803292,-2.09027,-1.5739,1.58787,0.785474,-1.58213,-0.516172,-0.0100812,-2.08667,-1.57583,1.59078,0.785293,-0.388828,0.275461,-0.319884,0.287881,-0.164339,0.775535,-7.64015e-05,-0.475419,0.316546,-0.42972,0.319621,-0.204398,0.851977,0.000429707,-13.3719,-2.12772,-19.4204,22.0151,-2.09807,-1.02976,0.0587866,-1.2134,-0.584248,-1.02259,3.31116,-0.566889,-0.0278521,-0.0334475
2915056,1,-1.58027,-0.516435,-0.00838456,-2.08997,-1.57409,1.58871,0.78548,-1.58261,-0.515848,-0.0105209,-2.08634,-1.57604,1.59165,0.785293,-0.395552,0.284878,-0.330503,0.292685,-0.174602,0.794458,0.00116977,-0.486624,0.324036,-0.43971,0.32716,-0.208972,0.871967,0.000585704,-13.3957,-2.30228,-19.4482,22.0627,-2.10997,-1.04258,0.0258276,-1.26488,-0.574871,-1.11464,3.30371,-0.578676,-0.0265392,-0.0322851
2915057,1,-1.5807,-0.516134,-0.0087617,-2.08964,-1.57428,1.58959,0.785477,-1.58311,-0.515517,-0.0109706,-2.08601,-1.57625,1.59254,0.785294,-0.40592,0.291156,-0.339802,0.298104,-0.182808,0.816292,0.000305128,-0.497829,0.331526,-0.4497,0.3347,-0.213546,0.891957,0.000741702,-13.5226,-2.37766,-19.3966,22.0627,-2.11546,-1.15885,0.038645,-1.31979,-0.585074,-1.20996,3.30667,-0.590941,-0.0261459,-0.0310824
2915058,1,-1.58114,-0.51582,-0.0091429,-2.08932,-1.57448,1.59045,0.785477,-1.58362,-0.515178,-0.0114303,-2.08567,-1.57647,1.59346,0.785295,-0.412337,0.296934,-0.354645,0.30728,-0.18391,0.836618,0.000678137,-0.508677,0.339016,-0.45969,0.342339,-0.218025,0.911947,0.000919523,-13.6734,-2.40543,-19.3212,22.1143,-2.12645,-1.10026,0.0258276,-1.37574,-0.604755,-1.30513,3.31604,-0.603505,-0.0261624,-0.0298925
2915059,1,-1.58161,-0.515497,-0.00953349,-2.08898,-1.57468,1.59134,0.785475,-1.58414,-0.514831,-0.0119,-2.08532,-1.57669,1.59439,0.785296,-0.432358,0.308321,-0.361215,0.318073,-0.184385,0.844169,-0.000293894,-0.519525,0.346506,-0.46968,0.349978,-0.222504,0.931937,0.00109734,-13.5464,-2.37766,-19.3966,22.0905,-2.13835,-0.965673,0.0459692,-1.42849,-0.625607,-1.39437,3.3266,-0.616142,-0.0258205,-0.0287712
2915060,1,-1.58208,-0.515163,-0.00993557,-2.08864,-1.57488,1.59227,0.785474,-1.58467,-0.514477,-0.0123796,-2.08496,-1.57692,1.59534,0.785297,-0.447145,0.314589,-0.369163,0.328419,-0.191397,0.865756,-0.000433288,-0.530373,0.353996,-0.47967,0.357618,-0.226983,0.951927,0.00127517,-13.5226,-2.45303,-19.3728,22.0151,-2.10997,-0.997716,0.0523779,-1.47415,-0.644619,-1.47345,3.33486,-0.628698,-0.0243821,-0.0277322
2915061,1,-1.58255,-0.514808,-0.010348,-2.08829,-1.57508,1.59322,0.785466,-1.58521,-0.514116,-0.0128693,-2.08459,-1.57715,1.59631,0.785299,-0.454162,0.325097,-0.381185,0.332045,-0.196187,0.889561,-0.00289981,-0.541221,0.361486,-0.48966,0.365257,-0.231462,0.971917,0.00145299,-13.6972,-2.65536,-19.345,22.0905,-2.08708,-1.10666,0.122873,-1.51297,-0.662005,-1.54325,3.34087,-0.641137,-0.021817,-0.0267548
2915062,1,-1.58303,-0.514452,-0.0107745,-2.08793,-1.5753,1.5942,0.785462,-1.58576,-0.513747,-0.013369,-2.08422,-1.57739,1.5973,0.7853,-0.461982,0.336293,-0.394829,0.339447,-0.203441,0.917256,-0.00217056,-0.55207,0.368976,-0.49965,0.372896,-0.235942,0.991907,0.00163081,-13.8995,-2.8577,-19.345,22.1143,-2.08708,-1.17167,0.129282,-1.54775,-0.68491,-1.60623,3.34959,-0.653558,-0.0187038,-0.0257679
2915063,1,-1.58354,-0.514092,-0.011199,-2.08757,-1.57552,1.59518,0.785465,-1.58633,-0.51337,-0.0138786,-2.08384,-1.57763,1.59832,0.785302,-0.473349,0.345526,-0.40726,0.345222,-0.204045,0.956698,-0.000260248,-0.562918,0.376466,-0.50964,0.380536,-0.240421,1.0119,0.00180863,-13.8995,-2.98465,-19.4204,22.1381,-2.09807,-1.20371,0.0972387,-1.58019,-0.720388,-1.66298,3.36519,-0.665984,-0.0156399,-0.0246753
2915064,1,-1.58404,-0.513716,-0.0116374,-2.0872,-1.57574,1.59618,0.78547,-1.5869,-0.512986,-0.0143982,-2.08345,-1.57787,1.59935,0.785304,-0.484582,0.355881,-0.414514,0.347407,-0.202634,0.969744,0.00294608,-0.573766,0.383956,-0.51963,0.388175,-0.2449,1.03189,0.00198645,-14.0265,-3.13541,-19.4958,22.2135,-2.14384,-1.13962,0.0130102,-1.6115,-0.771001,-1.71484,3.38993,-0.678485,-0.0130573,-0.0234217
2915065,1,-1.58456,-0.51334,-0.0121008,-2.08683,-1.57596,1.59721,0.785473,-1.58748,-0.512595,-0.0149278,-2.08305,-1.57812,1.6004,0.785306,-0.494667,0.363968,-0.429668,0.352713,-0.215331,0.986203,0.00220141,-0.584614,0.391446,-0.52962,0.395815,-0.249379,1.05188,0.00216427,-14.1772,-3.29013,-19.5236,22.3127,-2.17772,-1.02976,0.00660151,-1.64179,-0.837018,-1.76226,3.42553,-0.691183,-0.0108464,-0.022029
2915066,1,-1.58508,-0.51295,-0.0125686,-2.08644,-1.57619,1.59826,0.785475,-1.58808,-0.512196,-0.0154675,-2.08265,-1.57837,1.60147,0.785309,-0.5028,0.373118,-0.442622,0.360058,-0.217476,1.00972,0.00170497,-0.595462,0.398936,-0.53961,0.403454,-0.253858,1.07187,0.00234209,-14.3796,-3.44089,-19.6227,22.4118,-2.20061,-1.04899,0.000192821,-1.66934,-0.91402,-1.80255,3.4697,-0.703973,-0.00843963,-0.0206049
2915067,1,-1.58562,-0.512551,-0.013054,-2.08605,-1.57641,1.59934,0.785463,-1.58869,-0.511789,-0.0160171,-2.08224,-1.57863,1.60256,0.785311,-0.517555,0.381236,-0.448437,0.365854,-0.218206,1.02635,-0.00174557,-0.60631,0.406426,-0.5496,0.411093,-0.258337,1.09186,0.00251992,-14.4787,-3.61942,-19.5751,22.634,-2.25096,-1.09385,0.0780126,-1.69462,-0.996327,-1.83651,3.51849,-0.716791,-0.00561612,-0.0192744
2915068,1,-1.58618,-0.51215,-0.0135521,-2.08566,-1.57665,1.60045,0.785466,-1.5893,-0.511375,-0.0165766,-2.08182,-1.57889,1.60367,0.785314,-0.530698,0.38822,-0.474024,0.372963,-0.225383,1.04505,-0.000926356,-0.61629,0.413916,-0.55959,0.418693,-0.262621,1.11106,0.00274184,-14.4787,-3.69479,-19.472,22.761,-2.25096,-1.13962,0.071604,-1.71493,-1.07865,-1.86066,3.56882,-0.729556,-0.00172596,-0.018081
2915069,1,-1.58674,-0.511739,-0.0140619,-2.08525,-1.5769,1.60157,0.785461,-1.58993,-0.510954,-0.0171462,-2.0814,-1.57916,1.6048,0.785317,-0.535911,0.392129,-0.485776,0.38059,-0.229926,1.0737,-0.00132965,-0.626271,0.421406,-0.56958,0.426293,-0.266905,1.13027,0.00296377,-14.4549,-3.77017,-19.3966,22.7332,-2.25096,-1.20371,0.09083,-1.72512,-1.15283,-1.86674,3.61648,-0.741997,0.00408781,-0.0169968
2915070,1,-1.58732,-0.511321,-0.0145791,-2.08484,-1.57713,1.60272,0.785466,-1.59056,-0.510525,-0.0177258,-2.08096,-1.57943,1.60595,0.78532,-0.547633,0.399706,-0.492672,0.396346,-0.236191,1.09415,0.00104635,-0.636251,0.428896,-0.57957,0.433892,-0.271189,1.14948,0.00318569,-14.3796,-3.86935,-19.3728,22.8601,-2.26835,-1.27421,0.038645,-1.72956,-1.20907,-1.86087,3.65474,-0.75398,0.011057,-0.0159966
2915071,1,-1.58791,-0.510893,-0.0151054,-2.08443,-1.57738,1.60387,0.785464,-1.59121,-0.510089,-0.0183154,-2.08052,-1.57971,1.60712,0.785324,-0.573182,0.407431,-0.503832,0.401027,-0.238455,1.11568,-4.84197e-05,-0.646231,0.436386,-0.58956,0.441492,-0.275472,1.16869,0.00340762,-14.2804,-3.92093,-19.2697,22.8839,-2.26835,-1.33921,0.0587866,-1.73196,-1.24438,-1.85036,3.67995,-0.765509,0.0183865,-0.0150647
2915072,1,-1.58851,-0.510449,-0.0156617,-2.08399,-1.57763,1.60504,0.785464,-1.59187,-0.509645,-0.0189149,-2.08007,-1.57999,1.60831,0.785327,-0.582979,0.417474,-0.521778,0.408274,-0.239745,1.13214,-3.22798e-05,-0.656211,0.443876,-0.59955,0.449092,-0.279756,1.18789,0.00362954,-14.3042,-4.02011,-19.0911,22.8601,-2.27934,-1.28702,0.0587866,-1.72693,-1.26672,-1.82899,3.69706,-0.77667,0.0265953,-0.0141803
2915073,1,-1.58912,-0.510009,-0.0162232,-2.08357,-1.57788,1.60623,0.785461,-1.59253,-0.509194,-0.0195244,-2.07961,-1.58027,1.60952,0.785331,-0.588133,0.428068,-0.527623,0.413115,-0.245292,1.14449,-0.000970956,-0.666192,0.451366,-0.60954,0.456691,-0.28404,1.2071,0.00385147,-14.201,-4.04788,-19.0157,22.8601,-2.29674,-1.25498,0.0844213,-1.71518,-1.28841,-1.79708,3.71407,-0.787777,0.0354115,-0.0133142
2915074,1,-1.58974,-0.509552,-0.0167872,-2.08313,-1.57814,1.60741,0.785464,-1.59321,-0.508735,-0.020144,-2.07915,-1.58056,1.61074,0.785335,-0.599747,0.436782,-0.537444,0.418883,-0.248479,1.15175,0.000539491,-0.676172,0.458856,-0.61953,0.464291,-0.288324,1.22631,0.0040734,-14.1534,-4.19864,-18.9642,22.8601,-2.3361,-1.13321,0.0523779,-1.70504,-1.31795,-1.76591,3.73618,-0.799257,0.0436404,-0.0124217
2915075,1,-1.59038,-0.509098,-0.0173713,-2.08267,-1.57841,1.60862,0.785468,-1.5939,-0.508268,-0.0207735,-2.07868,-1.58085,1.61199,0.785339,-0.611356,0.448617,-0.54751,0.431387,-0.256793,1.16002,0.00158036,-0.686152,0.466346,-0.62952,0.47189,-0.292607,1.24551,0.00429532,-14.0027,-4.27402,-18.8888,22.7094,-2.34709,-1.05539,0.0194189,-1.69954,-1.35702,-1.74028,3.76359,-0.811236,0.0510289,-0.0114744
2915076,1,-1.59104,-0.508634,-0.0179492,-2.08222,-1.57868,1.60985,0.785473,-1.59459,-0.507794,-0.021413,-2.0782,-1.58115,1.61325,0.785344,-0.618424,0.454625,-0.555742,0.43893,-0.263892,1.18307,0.00271509,-0.696132,0.473836,-0.63951,0.47949,-0.296891,1.26472,0.00451725,-13.8479,-4.25021,-18.8372,22.6102,-2.3361,-1.1973,-0.0254419,-1.69893,-1.40171,-1.7211,3.79221,-0.82358,0.0577265,-0.0105106
2915077,1,-1.5917,-0.508162,-0.0185476,-2.08176,-1.57897,1.61113,0.785469,-1.5953,-0.507313,-0.0220625,-2.07771,-1.58145,1.61454,0.785349,-0.630032,0.458677,-0.569931,0.442591,-0.269049,1.21035,0.000385905,-0.706113,0.481326,-0.6495,0.48709,-0.301175,1.28393,0.00473917,-13.725,-4.27402,-18.8372,22.5348,-2.31322,-1.36484,0.0130102,-1.70408,-1.44424,-1.7099,3.81856,-0.836144,0.0635873,-0.00963581
2915078,1,-1.59237,-0.507703,-0.0191701,-2.08128,-1.57925,1.61241,0.785475,-1.59601,-0.506824,-0.022722,-2.07722,-1.58176,1.61584,0.785354,-0.635229,0.457411,-0.582003,0.453622,-0.272704,1.23131,0.00144406,-0.714748,0.488816,-0.65949,0.494575,-0.30523,1.30175,0.00505434,-13.6734,-4.14706,-18.7896,22.2889,-2.30223,-1.44175,-0.0190333,-1.71328,-1.47093,-1.70449,3.83773,-0.848665,0.0686783,-0.00897037
2915079,1,-1.59304,-0.507217,-0.0197908,-2.08079,-1.57954,1.61371,0.785476,-1.59674,-0.506328,-0.0233915,-2.07671,-1.58207,1.61716,0.785359,-0.64624,0.465665,-0.594961,0.463054,-0.276811,1.2576,0.00096271,-0.723383,0.496306,-0.66948,0.50206,-0.309285,1.31956,0.0053695,-13.6734,-4.14706,-18.7142,22.0905,-2.25645,-1.66788,-0.0190333,-1.7247,-1.46996,-1.70269,3.84326,-0.860816,0.0729756,-0.00859163
2915080,1,-1.59374,-0.506721,-0.0204263,-2.0803,-1.57984,1.61504,0.785488,-1.59747,-0.505824,-0.0240709,-2.07621,-1.58238,1.6185,0.785365,-0.660997,0.476039,-0.604316,0.469012,-0.281692,1.27681,0.00447346,-0.732018,0.503796,-0.67947,0.509545,-0.313339,1.33738,0.00568467,-13.6734,-4.17484,-18.7142,21.9397,-2.16032,-1.84733,-0.122488,-1.73627,-1.44822,-1.70204,3.8371,-0.872539,0.0762795,-0.00850047
2915081,1,-1.59445,-0.506232,-0.0210711,-2.07979,-1.58014,1.61634,0.785495,-1.59821,-0.505313,-0.0247604,-2.07569,-1.5827,1.61985,0.785371,-0.678497,0.482802,-0.61723,0.482311,-0.288137,1.31343,0.00515244,-0.740653,0.511286,-0.68946,0.51703,-0.317394,1.3552,0.00599984,-13.5464,-4.17484,-18.5873,21.6898,-2.10997,-1.64133,-0.181082,-1.74431,-1.41872,-1.69806,3.82442,-0.883773,0.0784591,-0.00870925
2915082,1,-1.59515,-0.505726,-0.0217238,-2.07927,-1.58044,1.61766,0.785502,-1.59896,-0.504794,-0.0254599,-2.07516,-1.58302,1.62123,0.785377,-0.682638,0.490532,-0.627131,0.493109,-0.289244,1.31415,0.00462176,-0.749288,0.518776,-0.69945,0.524516,-0.321449,1.37301,0.006315,-13.598,-4.17484,-18.5595,21.4914,-2.14384,-1.33921,-0.213125,-1.74736,-1.38313,-1.68902,3.80397,-0.894258,0.0794071,-0.00933599
2915083,1,-1.59587,-0.505219,-0.0223856,-2.07874,-1.58074,1.61904,0.785504,-1.59972,-0.504268,-0.0261693,-2.07463,-1.58334,1.62262,0.785384,-0.695531,0.49317,-0.636516,0.500419,-0.296439,1.32942,0.00800627,-0.757923,0.526266,-0.70944,0.532001,-0.325504,1.39083,0.00663017,-13.4949,-4.14706,-18.5357,21.3684,-2.22899,-1.30716,-0.219534,-1.74781,-1.33793,-1.67817,3.77349,-0.903909,0.0792629,-0.0105258
2915084,1,-1.59659,-0.504709,-0.0230398,-2.07821,-1.58104,1.62041,0.785511,-1.60048,-0.503734,-0.0268887,-2.07409,-1.58367,1.62402,0.785391,-0.69985,0.496808,-0.644069,0.508413,-0.299498,1.35101,0.00694886,-0.766558,0.533756,-0.71943,0.539486,-0.329559,1.40864,0.00694533,-13.5226,-4.04788,-18.5119,21.2693,-2.31871,-1.39689,-0.252493,-1.74964,-1.27855,-1.6712,3.73241,-0.912859,0.0782107,-0.0123729
2915085,1,-1.59734,-0.504184,-0.0237243,-2.07765,-1.58135,1.62182,0.785517,-1.60126,-0.503193,-0.0276181,-2.07355,-1.58401,1.62545,0.785398,-0.707896,0.508904,-0.653807,0.521238,-0.303995,1.35978,0.00563764,-0.775193,0.541246,-0.72942,0.546971,-0.333613,1.42646,0.0072605,-13.3719,-3.99631,-18.3849,21.1423,-2.35258,-1.4802,-0.271719,-1.7571,-1.20691,-1.67378,3.68193,-0.921405,0.0760886,-0.0149094
2915086,1,-1.59812,-0.503659,-0.0244022,-2.07711,-1.58167,1.62324,0.785535,-1.60204,-0.502644,-0.0283576,-2.07299,-1.58434,1.6269,0.785406,-0.717401,0.515352,-0.659266,0.52819,-0.31394,1.37066,0.00828453,-0.783828,0.548736,-0.73941,0.554456,-0.337668,1.44428,0.00757567,-12.991,-3.99631,-18.4603,21.1423,-2.3361,-1.50675,-0.387991,-1.77204,-1.13249,-1.68819,3.6257,-0.929934,0.0728025,-0.0181102
2915087,1,-1.59887,-0.503125,-0.0251125,-2.07654,-1.58199,1.62465,0.785539,-1.60283,-0.502088,-0.029107,-2.07243,-1.58469,1.62836,0.785413,-0.732068,0.52057,-0.674829,0.533055,-0.312015,1.38836,0.00545047,-0.792462,0.556226,-0.7494,0.561942,-0.341723,1.46209,0.00789083,-12.991,-3.9725,-18.3849,21.0947,-2.29033,-1.5452,-0.381582,-1.79066,-1.06022,-1.70945,3.56772,-0.938679,0.0688774,-0.021979
2915088,1,-1.59961,-0.502589,-0.0258374,-2.07597,-1.58232,1.6261,0.785539,-1.60363,-0.501524,-0.0298663,-2.07186,-1.58503,1.62984,0.785422,-0.730832,0.526082,-0.68465,0.542592,-0.32213,1.40438,0.00589067,-0.799298,0.563705,-0.75939,0.569297,-0.345517,1.47826,0.0083875,-13.3441,-3.9725,-18.3572,21.1701,-2.20061,-1.60288,-0.310171,-1.80858,-0.98872,-1.7314,3.50975,-0.947649,0.0648115,-0.0265841
2915089,1,-1.60038,-0.502017,-0.026546,-2.07539,-1.58264,1.62754,0.785533,-1.60444,-0.500953,-0.0306357,-2.07128,-1.58538,1.63133,0.785431,-0.741111,0.538459,-0.69396,0.549109,-0.32599,1.41715,0.000348996,-0.806134,0.571184,-0.76938,0.576653,-0.349311,1.49442,0.00888417,-13.4473,-4.22244,-18.4326,21.1185,-2.20061,-1.49393,-0.200308,-1.82753,-0.920819,-1.75568,3.4535,-0.956828,0.0601818,-0.0319076
2915090,1,-1.60115,-0.501442,-0.0272573,-2.07481,-1.58298,1.629,0.785528,-1.60525,-0.500374,-0.0314151,-2.0707,-1.58573,1.63284,0.78544,-0.750886,0.552177,-0.696481,0.557753,-0.325986,1.43038,-0.00251874,-0.81297,0.578662,-0.77937,0.584009,-0.353105,1.51059,0.00938084,-13.5702,-4.45255,-18.7618,21.2693,-2.27385,-1.32639,-0.116079,-1.8511,-0.869298,-1.78699,3.40465,-0.966333,0.0543527,-0.0377333
2915091,1,-1.60193,-0.500866,-0.0279832,-2.07423,-1.5833,1.63046,0.785521,-1.60607,-0.499788,-0.0322045,-2.07011,-1.58609,1.63437,0.78545,-0.758934,0.565744,-0.706724,0.564548,-0.328971,1.43022,-0.00452261,-0.819805,0.586141,-0.78936,0.591365,-0.3569,1.52675,0.00987751,-13.6972,-4.65488,-18.8888,21.3446,-2.41484,-0.984899,-0.0318506,-1.88067,-0.84744,-1.82731,3.36919,-0.976345,0.0473161,-0.0437168
2915092,1,-1.60272,-0.500284,-0.0287086,-2.07364,-1.58364,1.63195,0.785509,-1.6069,-0.499195,-0.0330038,-2.06951,-1.58645,1.63591,0.78546,-0.772741,0.571012,-0.714324,0.567642,-0.329197,1.44922,-0.00569019,-0.826641,0.593619,-0.79935,0.59872,-0.360694,1.54292,0.0103742,-13.6734,-4.73026,-18.9642,21.4676,-2.489,-1.03617,0.0459692,-1.91419,-0.85678,-1.87373,3.34907,-0.986973,0.0399745,-0.0495003
2915093,1,-1.60353,-0.499692,-0.029456,-2.07304,-1.58399,1.6335,0.785501,-1.60773,-0.498594,-0.0338131,-2.0689,-1.58682,1.63747,0.785471,-0.786731,0.574389,-0.718133,0.572069,-0.332379,1.48435,-0.00601173,-0.833477,0.601098,-0.80934,0.606076,-0.364488,1.55909,0.0108708,-13.5464,-4.80563,-18.8888,21.6898,-2.48259,-1.22934,0.110056,-1.94933,-0.884678,-1.92378,3.34103,-0.998237,0.0332012,-0.054789
2915094,1,-1.60434,-0.499099,-0.0302214,-2.07244,-1.58434,1.63503,0.785497,-1.60857,-0.497985,-0.0346325,-2.06829,-1.58718,1.63904,0.785483,-0.789812,0.583135,-0.734152,0.577036,-0.337063,1.50603,-0.00534939,-0.840312,0.608576,-0.81933,0.613432,-0.368282,1.57525,0.0113675,-13.5464,-4.88101,-18.6111,21.8644,-2.41484,-1.37125,0.149424,-1.98628,-0.91836,-1.97789,3.34068,-1.01012,0.0270408,-0.0593444
2915095,1,-1.60517,-0.498487,-0.0310036,-2.07184,-1.58469,1.63657,0.785493,-1.60942,-0.497369,-0.0354618,-2.06767,-1.58756,1.64064,0.785494,-0.808489,0.591459,-0.740169,0.579246,-0.342104,1.50566,-0.00466569,-0.847148,0.616055,-0.82932,0.620788,-0.372076,1.59142,0.0118642,-13.1933,-4.98416,-18.3849,22.0151,-2.40385,-1.1973,0.181467,-2.02217,-0.956591,-2.03115,3.3482,-1.02256,0.0217788,-0.0629473
2915096,1,-1.60601,-0.49788,-0.0317968,-2.07124,-1.58504,1.63813,0.785487,-1.61027,-0.496745,-0.0363011,-2.06704,-1.58793,1.64224,0.785507,-0.821834,0.59625,-0.750874,0.5888,-0.350509,1.52438,-0.00521507,-0.853984,0.623533,-0.83931,0.628143,-0.37587,1.60758,0.0123609,-12.7649,-5.08334,-18.2818,22.1619,-2.40935,-1.01053,0.240061,-2.05126,-0.997507,-2.07575,3.36264,-1.03535,0.0181868,-0.0654448
2915097,1,-1.60683,-0.497247,-0.0325856,-2.07063,-1.58541,1.6397,0.785477,-1.61113,-0.496114,-0.0371504,-2.0664,-1.58831,1.64387,0.78552,-0.825071,0.608635,-0.759839,0.588097,-0.351674,1.53691,0.00295062,-0.860819,0.631012,-0.8493,0.635499,-0.379664,1.62375,0.0128575,-12.6657,-5.2341,-18.1826,22.3603,-2.42674,-0.90067,0.323374,-2.07253,-1.03964,-2.11061,3.38276,-1.04831,0.0163607,-0.0667704
2915098,1,-1.60767,-0.496606,-0.033411,-2.07001,-1.58577,1.6413,0.785481,-1.612,-0.495476,-0.0380097,-2.06576,-1.5887,1.64551,0.785533,-0.826146,0.615131,-0.777989,0.599677,-0.351892,1.54886,0.00397939,-0.865636,0.638238,-0.85929,0.642569,-0.38317,1.63805,0.0134816,-12.6895,-5.43643,-17.8771,22.4634,-2.46611,-0.810948,0.291331,-2.08932,-1.08759,-2.13917,3.41029,-1.06151,0.0159079,-0.0668833
2915099,1,-1.60853,-0.49598,-0.0342141,-2.06939,-1.58613,1.64292,0.785486,-1.61287,-0.494831,-0.038879,-2.06511,-1.58908,1.64716,0.785547,-0.840489,0.623098,-0.780024,0.605001,-0.355572,1.5967,0.00493357,-0.870452,0.645464,-0.86928,0.649638,-0.386676,1.65235,0.0141056,-12.4872,-5.43643,-17.9009,22.5864,-2.54484,-0.720311,0.24647,-2.10448,-1.13919,-2.16486,3.4424,-1.07486,0.0164516,-0.065796
2915100,1,-1.60939,-0.495336,-0.0350581,-2.06876,-1.5865,1.64454,0.785506,-1.61375,-0.494178,-0.0397582,-2.06446,-1.58947,1.64882,0.785562,-0.853817,0.62506,-0.794548,0.607606,-0.358749,1.60433,0.0104673,-0.875268,0.65269,-0.87927,0.656708,-0.390182,1.66665,0.0147296,-12.3126,-5.41263,-17.774,22.6856,-2.59062,-0.701085,0.0651953,-2.1179,-1.18688,-2.18874,3.47525,-1.08824,0.0179467,-0.0636252
2915101,1,-1.61026,-0.494708,-0.0359262,-2.06812,-1.58687,1.6462,0.78552,-1.61463,-0.493518,-0.0406475,-2.06379,-1.58987,1.65051,0.785577,-0.851194,0.620407,-0.806438,0.629216,-0.368691,1.61817,0.0109207,-0.880084,0.659916,-0.88926,0.663777,-0.393688,1.68096,0.0153536,-12.3126,-5.28568,-17.4447,22.6618,-2.52287,-0.842992,-0.0318506,-2.12679,-1.21069,-2.20794,3.49851,-1.10136,0.0211561,-0.060675
2915102,1,-1.61115,-0.494054,-0.0367858,-2.06747,-1.58725,1.64786,0.78552,-1.61551,-0.492851,-0.0415468,-2.06312,-1.59026,1.6522,0.785593,-0.872902,0.628465,-0.819837,0.636187,-0.372497,1.64063,0.0108713,-0.884901,0.667142,-0.89925,0.670847,-0.397194,1.69526,0.0159777,-11.9595,-5.26187,-17.1948,22.4872,-2.48259,-1.11399,0.00660151,-2.12815,-1.18922,-2.21857,3.49815,-1.11376,0.0267962,-0.057422
2915103,1,-1.61205,-0.493406,-0.0376585,-2.06682,-1.58764,1.64956,0.785522,-1.6164,-0.492177,-0.042456,-2.06244,-1.59066,1.65391,0.78561,-0.882875,0.627356,-0.82629,0.638923,-0.374865,1.65142,0.00689018,-0.889717,0.674368,-0.90924,0.677917,-0.400699,1.70956,0.0166017,-11.4517,-5.05954,-17.0162,22.4118,-2.44871,-1.44175,0.0322363,-2.11829,-1.12568,-2.21606,3.47614,-1.12539,0.0350231,-0.0542532
2915104,1,-1.61293,-0.492765,-0.0385534,-2.06616,-1.58801,1.65126,0.785527,-1.61729,-0.491495,-0.0433752,-2.06176,-1.59107,1.65563,0.785627,-0.874973,0.633394,-0.85676,0.647256,-0.378871,1.66431,0.00622428,-0.894533,0.681594,-0.91923,0.684986,-0.404205,1.72386,0.0172257,-11.4041,-4.82944,-16.7901,22.1897,-2.48259,-1.48752,0.000192821,-2.09591,-1.03193,-2.19748,3.44159,-1.13641,0.0453184,-0.0513522
2915105,1,-1.6138,-0.492087,-0.0394456,-2.06548,-1.58841,1.65297,0.785537,-1.61819,-0.490806,-0.0443044,-2.06107,-1.59148,1.65737,0.785645,-0.870166,0.64314,-0.867186,0.655575,-0.379975,1.68483,0.0113478,-0.899349,0.68882,-0.92922,0.692056,-0.407711,1.73817,0.0178497,-11.5033,-4.90482,-16.5084,21.9159,-2.42033,-1.6157,-0.0584009,-2.0652,-0.921905,-2.16542,3.40125,-1.147,0.0561623,-0.0487942
2915106,1,-1.6147,-0.49141,-0.0403526,-2.06479,-1.58881,1.6547,0.785553,-1.6191,-0.49011,-0.0452437,-2.06037,-1.59189,1.65912,0.785663,-0.866904,0.666197,-0.879649,0.662228,-0.391746,1.699,0.0129873,-0.904165,0.696046,-0.93921,0.699125,-0.411217,1.75247,0.0184738,-11.3763,-5.10715,-16.3815,21.7176,-2.33061,-1.64133,-0.18749,-2.03644,-0.824737,-2.13194,3.36686,-1.15764,0.065067,-0.0465987
2915107,1,-1.61561,-0.490703,-0.0412485,-2.0641,-1.58921,1.6564,0.785563,-1.62001,-0.489407,-0.0461929,-2.05966,-1.5923,1.66089,0.785683,-0.8766,0.682726,-0.890797,0.668282,-0.392507,1.70022,0.0115465,-0.908982,0.703272,-0.9492,0.706195,-0.414723,1.76677,0.0190978,-11.301,-5.41263,-16.3815,21.5906,-2.33061,-1.30716,-0.252493,-2.01565,-0.774565,-2.10503,3.35297,-1.16882,0.0704986,-0.044797
2915108,1,-1.6165,-0.490004,-0.0421826,-2.06341,-1.5896,1.65813,0.785572,-1.62092,-0.488697,-0.047152,-2.05895,-1.59272,1.66267,0.785702,-0.8792,0.685626,-0.903992,0.675377,-0.389612,1.71097,0.0082956,-0.91167,0.710067,-0.95919,0.712843,-0.417899,1.77911,0.0198114,-11.3763,-5.58719,-16.2823,21.5668,-2.40385,-1.0618,-0.258901,-1.99914,-0.776771,-2.08076,3.36194,-1.18045,0.0730858,-0.0435592
2915109,1,-1.61742,-0.489299,-0.0431155,-2.06271,-1.58999,1.65991,0.785585,-1.62183,-0.48798,-0.0481212,-2.05823,-1.59314,1.66446,0.785723,-0.881164,0.692151,-0.910505,0.685019,-0.392165,1.72438,0.0110275,-0.914359,0.716861,-0.96918,0.71949,-0.421075,1.79144,0.020525,-11.4517,-5.84109,-16.4092,21.416,-2.50548,-1.05539,-0.271719,-1.98559,-0.806622,-2.05939,3.38202,-1.1922,0.0737464,-0.0431322
2915110,1,-1.61834,-0.48858,-0.0440467,-2.06201,-1.59042,1.66172,0.785598,-1.62275,-0.487256,-0.0491004,-2.0575,-1.59356,1.66627,0.785744,-0.899778,0.699683,-0.915325,0.68665,-0.399843,1.75048,0.0171807,-0.917048,0.723656,-0.97917,0.726138,-0.424251,1.80378,0.0212386,-11.5787,-5.99185,-16.5084,21.4914,-2.44871,-1.42252,-0.26531,-1.9767,-0.84527,-2.04544,3.40445,-1.20394,0.0729226,-0.0436441
2915111,1,-1.61922,-0.487863,-0.0450081,-2.06129,-1.59084,1.66353,0.785622,-1.62367,-0.486526,-0.0500896,-2.05677,-1.59399,1.66808,0.785766,-0.896534,0.705048,-0.918171,0.688888,-0.405927,1.76224,0.0207636,-0.919736,0.73045,-0.98916,0.732785,-0.427427,1.81611,0.0219523,-11.9079,-6.04343,-16.433,21.543,-2.39836,-1.57724,-0.355947,-1.97476,-0.888636,-2.04378,3.42933,-1.21586,0.0705288,-0.0450757
2915112,1,-1.62014,-0.487141,-0.0459649,-2.06057,-1.59127,1.66531,0.785637,-1.62459,-0.485789,-0.0510887,-2.05603,-1.59442,1.66991,0.785789,-0.901223,0.713546,-0.929331,0.695409,-0.416139,1.76301,0.0201065,-0.922425,0.737244,-0.99915,0.739432,-0.430603,1.82845,0.0226659,-11.8802,-6.17038,-16.3577,21.5668,-2.31322,-1.51316,-0.355947,-1.98366,-0.93511,-2.05944,3.45737,-1.22808,0.0660175,-0.047371
2915113,1,-1.62104,-0.48639,-0.0469383,-2.05984,-1.59171,1.66712,0.785643,-1.62552,-0.485044,-0.0520978,-2.05528,-1.59486,1.67175,0.785812,-0.897395,0.727481,-0.94517,0.703638,-0.419598,1.77277,0.0146599,-0.925114,0.744039,-1.00914,0.74608,-0.433779,1.84078,0.0233795,-11.8326,-6.57504,-16.3577,21.7652,-2.30772,-1.31998,-0.225942,-2.002,-0.987364,-2.08808,3.48843,-1.24045,0.0595972,-0.0504936
2915114,1,-1.62194,-0.485629,-0.0479416,-2.05912,-1.59214,1.66896,0.785643,-1.62645,-0.484294,-0.053117,-2.05453,-1.59529,1.6736,0.785836,-0.887789,0.740729,-0.962046,0.705319,-0.424476,1.77843,0.00743551,-0.927802,0.750833,-1.01913,0.752727,-0.436955,1.85312,0.0240931,-12.0825,-7.03128,-16.0046,21.9873,-2.26286,-1.22294,0.00660151,-2.02697,-1.05688,-2.12228,3.52667,-1.25278,0.0517789,-0.0543218
2915115,1,-1.62283,-0.484861,-0.0489201,-2.05838,-1.59256,1.67079,0.785649,-1.62738,-0.483536,-0.0541461,-2.05377,-1.59573,1.67547,0.785861,-0.887555,0.748394,-0.968582,0.713749,-0.427068,1.78967,0.00471616,-0.930491,0.757628,-1.02912,0.759375,-0.440131,1.86545,0.0248067,-12.1857,-7.40817,-15.8776,22.1897,-2.38096,-1.17807,0.181467,-2.06039,-1.14995,-2.16244,3.57531,-1.26506,0.0426039,-0.0585254
2915116,1,-1.62376,-0.484102,-0.0499142,-2.05764,-1.59299,1.67264,0.785659,-1.62831,-0.482772,-0.0551852,-2.05301,-1.59618,1.67735,0.785887,-0.895115,0.750932,-0.969267,0.716052,-0.422628,1.80094,0.00593987,-0.93318,0.764422,-1.03911,0.766022,-0.443307,1.87779,0.0255204,-11.9318,-7.38437,-15.8499,22.4118,-2.54484,-1.01053,0.272104,-2.10519,-1.25523,-2.21382,3.62959,-1.27725,0.0320677,-0.0626048
2915117,1,-1.62469,-0.483345,-0.0509128,-2.0569,-1.59341,1.6745,0.785688,-1.62924,-0.482,-0.0562343,-2.05223,-1.59662,1.67924,0.785913,-0.900389,0.751781,-0.979286,0.725295,-0.416215,1.81133,0.0166415,-0.935868,0.771217,-1.0491,0.77267,-0.446483,1.89012,0.026234,-11.7056,-7.3566,-15.7745,22.5864,-2.68675,-0.798131,0.226328,-2.16017,-1.35143,-2.27753,3.68034,-1.28937,0.0207797,-0.0660587
2915118,1,-1.6256,-0.482577,-0.0519542,-2.05615,-1.59385,1.67634,0.785705,-1.63018,-0.481223,-0.0572934,-2.05145,-1.59707,1.68114,0.78594,-0.903787,0.751451,-0.99426,0.728871,-0.418748,1.81904,0.0169216,-0.936418,0.777445,-1.05909,0.778781,-0.449263,1.90047,0.0270145,-11.7056,-7.25742,-15.5206,22.7094,-2.73161,-0.611364,0.252878,-2.21749,-1.41895,-2.34419,3.71912,-1.30141,0.0103887,-0.0685502
2915119,1,-1.62652,-0.481812,-0.0529858,-2.0554,-1.59429,1.67824,0.785726,-1.63112,-0.480439,-0.0583625,-2.05067,-1.59752,1.68305,0.785968,-0.909973,0.751855,-0.997983,0.753988,-0.432719,1.83303,0.0182908,-0.936967,0.783673,-1.06908,0.784892,-0.452042,1.91083,0.027795,-11.6302,-7.25742,-15.5483,22.6618,-2.65837,-0.643407,0.240061,-2.27022,-1.44028,-2.40517,3.7353,-1.31318,0.00239886,-0.0699567
2915120,1,-1.62743,-0.481024,-0.0540143,-2.05463,-1.59473,1.68015,0.785738,-1.63206,-0.479649,-0.0594415,-2.04988,-1.59798,1.68497,0.785996,-0.914984,0.761009,-1.00236,0.756757,-0.435771,1.85448,0.0160745,-0.937517,0.789902,-1.07907,0.791003,-0.454822,1.92118,0.0285755,-11.6818,-7.3566,-15.5483,22.5348,-2.58513,-0.842992,0.310557,-2.31965,-1.41096,-2.46358,3.72246,-1.32464,-0.00319593,-0.0702752
2915121,1,-1.62835,-0.480235,-0.0550829,-2.05383,-1.59518,1.68206,0.785763,-1.63299,-0.478853,-0.0605306,-2.04908,-1.59844,1.6869,0.786026,-0.908352,0.76566,-1.0172,0.766864,-0.442851,1.87007,0.0202746,-0.938066,0.79613,-1.08906,0.797115,-0.457602,1.93154,0.0293561,-11.7294,-7.3566,-15.346,22.1897,-2.50548,-0.785314,0.226328,-2.37027,-1.34854,-2.52504,3.68933,-1.33605,-0.00729797,-0.0695131
2915122,1,-1.62931,-0.479452,-0.0561359,-2.05305,-1.59562,1.684,0.785778,-1.63393,-0.478051,-0.0616297,-2.04828,-1.5989,1.68884,0.786056,-0.913836,0.773849,-1.02581,0.774544,-0.441626,1.88517,0.0199146,-0.938615,0.802359,-1.09905,0.803226,-0.460381,1.94189,0.0301366,-11.2018,-7.3566,-15.3976,21.9397,-2.46611,-0.817357,0.226328,-2.42296,-1.27135,-2.58865,3.64672,-1.34754,-0.0104019,-0.0677269
2915123,1,-1.63026,-0.478663,-0.0571952,-2.05224,-1.59607,1.68593,0.785802,-1.63487,-0.477242,-0.0627387,-2.04747,-1.59936,1.6908,0.786087,-0.927683,0.774171,-1.0361,0.785271,-0.448051,1.90132,0.0227839,-0.939165,0.808587,-1.10904,0.809337,-0.463161,1.95224,0.0309171,-10.6464,-7.23361,-15.2191,21.543,-2.34709,-0.984899,0.143015,-2.47235,-1.18395,-2.64715,3.59705,-1.35884,-0.012043,-0.0650818
2915124,1,-1.63119,-0.477884,-0.0582976,-2.05141,-1.59654,1.68789,0.785829,-1.63581,-0.476427,-0.0638577,-2.04665,-1.59983,1.69276,0.786118,-0.924258,0.792823,-1.05265,0.794521,-0.448648,1.90381,0.0258853,-0.939714,0.814816,-1.11903,0.815448,-0.465941,1.9626,0.0316976,-10.5432,-7.07889,-14.866,21.1701,-2.22258,-1.1204,0.0258276,-2.51087,-1.09299,-2.69118,3.54288,-1.36962,-0.0115017,-0.0617903
2915125,1,-1.63214,-0.477095,-0.0594078,-2.05058,-1.59698,1.68984,0.785861,-1.63675,-0.475606,-0.0649867,-2.04583,-1.6003,1.69473,0.786151,-0.927304,0.795491,-1.07691,0.806248,-0.450061,1.92648,0.0274128,-0.940263,0.821044,-1.12902,0.821559,-0.468721,1.97295,0.0324781,-10.3924,-6.85275,-14.3343,20.821,-2.18321,-1.1973,-0.077627,-2.53277,-1.01164,-2.71187,3.48913,-1.37959,-0.00849827,-0.0581296
2915126,1,-1.63308,-0.476302,-0.060523,-2.04976,-1.59744,1.69182,0.785906,-1.63769,-0.474779,-0.0661258,-2.045,-1.60077,1.69671,0.786184,-0.932903,0.79616,-1.08316,0.806102,-0.448784,1.93541,0.0317973,-0.940813,0.827272,-1.13901,0.827671,-0.4715,1.9833,0.0332586,-9.99175,-6.65042,-14.1042,20.7972,-2.20061,-1.31998,-0.271719,-2.53495,-0.937062,-2.70463,3.43568,-1.3884,-0.00318367,-0.0544928
2915127,1,-1.63405,-0.475505,-0.0616656,-2.04894,-1.59789,1.69384,0.785948,-1.63863,-0.473946,-0.0672748,-2.04417,-1.60124,1.69871,0.786218,-0.9388,0.806602,-1.0989,0.81559,-0.446846,1.96177,0.0353749,-0.941362,0.833501,-1.149,0.833782,-0.47428,1.99366,0.0340392,-9.55931,-6.57504,-13.8503,20.7218,-2.26835,-1.6807,-0.355947,-2.51966,-0.862752,-2.67377,3.38245,-1.39599,0.00354429,-0.0513275
2915128,1,-1.63498,-0.474674,-0.0628189,-2.04809,-1.59834,1.69581,0.785988,-1.63957,-0.473107,-0.0684333,-2.04333,-1.60172,1.70071,0.786253,-0.942143,0.817345,-1.11802,0.822309,-0.446116,1.97132,0.0406821,-0.94008,0.839064,-1.15855,0.839267,-0.476555,2.00188,0.0348761,-9.40856,-6.77737,-13.2949,20.6464,-2.32512,-1.57084,-0.381582,-2.48804,-0.797064,-2.62108,3.33374,-1.40251,0.0108083,-0.0490728
2915129,1,-1.63594,-0.473831,-0.0639725,-2.04724,-1.59881,1.6978,0.786021,-1.64051,-0.472262,-0.0696014,-2.04249,-1.6022,1.70272,0.786289,-0.937929,0.826983,-1.11892,0.826993,-0.45043,1.95737,0.0412178,-0.938797,0.844627,-1.16809,0.844751,-0.47883,2.0101,0.035713,-9.28557,-7.05508,-13.0172,20.7694,-2.38646,-1.3328,-0.310171,-2.44378,-0.750418,-2.55149,3.29397,-1.40836,0.0176033,-0.0480402
2915130,1,-1.6369,-0.472992,-0.0651101,-2.04639,-1.59927,1.6998,0.786081,-1.64145,-0.471412,-0.070779,-2.04164,-1.60268,1.70474,0.786325,-0.939122,0.838825,-1.13219,0.830987,-0.45461,2.00292,0.0428424,-0.937515,0.850191,-1.17764,0.850236,-0.481105,2.01833,0.0365499,-9.18242,-7.40817,-13.0926,20.8725,-2.42674,-1.08103,-0.381582,-2.39863,-0.730718,-2.48135,3.26755,-1.41419,0.0221117,-0.0483164
2915131,1,-1.63783,-0.472145,-0.0662868,-2.04554,-1.59973,1.7018,0.786135,-1.64239,-0.470556,-0.0719662,-2.04078,-1.60316,1.70677,0.786363,-0.933426,0.841984,-1.14181,0.833617,-0.45273,2.00711,0.0462089,-0.936232,0.855754,-1.18719,0.855721,-0.48338,2.02655,0.0373868,-9.30938,-7.63828,-13.0172,21.1939,-2.44871,-1.08744,-0.394399,-2.36075,-0.738816,-2.42148,3.25614,-1.42041,0.0232925,-0.049859
2915132,1,-1.63877,-0.471311,-0.0674764,-2.0447,-1.60019,1.70383,0.786192,-1.64332,-0.469695,-0.073163,-2.03992,-1.60365,1.7088,0.786401,-0.924701,0.843996,-1.15427,0.833807,-0.451338,2.00365,0.0489907,-0.934949,0.861317,-1.19674,0.861206,-0.485655,2.03477,0.0382238,-9.48394,-7.73746,-12.8625,21.543,-2.489,-1.18448,-0.407217,-2.33295,-0.762987,-2.37535,3.25654,-1.42726,0.0215684,-0.0526148
2915133,1,-1.63973,-0.470456,-0.0686351,-2.04385,-1.60067,1.70584,0.786245,-1.64426,-0.468828,-0.0743692,-2.03905,-1.60413,1.71084,0.78644,-0.938035,0.85167,-1.15079,0.839117,-0.457516,2.01178,0.0492336,-0.933667,0.866881,-1.20628,0.866691,-0.487931,2.04299,0.0390607,-9.15862,-7.88821,-13.0926,21.8644,-2.4716,-1.14603,-0.368765,-2.3164,-0.791579,-2.34547,3.26494,-1.43494,0.0176886,-0.0564954
2915134,1,-1.64068,-0.469591,-0.0698284,-2.04298,-1.60116,1.70786,0.786282,-1.64519,-0.467955,-0.0755851,-2.03818,-1.60462,1.71289,0.78648,-0.938425,0.856156,-1.15371,0.841543,-0.469308,2.00646,0.0430581,-0.932384,0.872444,-1.21583,0.872175,-0.490206,2.05122,0.0398976,-8.95629,-8.06674,-13.1442,21.9397,-2.38096,-0.972081,-0.155447,-2.31102,-0.82093,-2.33403,3.27934,-1.44345,0.0120461,-0.0613256
2915135,1,-1.64159,-0.468727,-0.0710291,-2.04212,-1.60164,1.70986,0.786309,-1.64612,-0.467077,-0.0768105,-2.0373,-1.60512,1.71495,0.78652,-0.919825,0.863043,-1.1912,0.84857,-0.473765,1.99723,0.0367347,-0.931102,0.878007,-1.22538,0.87766,-0.492481,2.05944,0.0407345,-9.51171,-8.34445,-12.8625,21.9635,-2.27934,-0.598546,0.122873,-2.31105,-0.849234,-2.33242,3.29814,-1.45251,0.00588421,-0.0668022
2915136,1,-1.64249,-0.467856,-0.0722471,-2.04124,-1.60212,1.71189,0.78634,-1.64705,-0.466194,-0.0780454,-2.03642,-1.60561,1.71702,0.786562,-0.902288,0.863539,-1.19402,0.851733,-0.472438,2.00991,0.0350791,-0.929819,0.883571,-1.23493,0.883145,-0.494756,2.06766,0.0415715,-9.83702,-8.41983,-12.7117,21.8405,-2.25645,-0.617772,0.337107,-2.31266,-0.872702,-2.33146,3.31876,-1.46169,0.000397391,-0.0724284
2915137,1,-1.64344,-0.467006,-0.0734563,-2.04036,-1.6026,1.71396,0.786374,-1.64798,-0.465305,-0.0792899,-2.03553,-1.60611,1.7191,0.786604,-0.908332,0.872633,-1.19224,0.878062,-0.481203,2.01384,0.0376389,-0.928537,0.889134,-1.24447,0.88863,-0.497031,2.07588,0.0424084,-9.58709,-8.34445,-12.9656,21.5906,-2.30772,-0.733129,0.453379,-2.32533,-0.882313,-2.34365,3.33219,-1.47075,-0.00522961,-0.0775452
2915138,1,-1.64435,-0.46614,-0.0746902,-2.03946,-1.60306,1.71597,0.78641,-1.6489,-0.464411,-0.0805429,-2.03464,-1.60661,1.72118,0.786648,-0.92685,0.868491,-1.20245,0.877023,-0.475976,2.01529,0.0382905,-0.925822,0.893966,-1.25309,0.893407,-0.498625,2.08189,0.0432975,-9.63866,-8.2175,-12.6879,21.3684,-2.49998,-0.57932,0.472605,-2.34827,-0.865259,-2.37128,3.32698,-1.47929,-0.0105902,-0.0814843
2915139,1,-1.64529,-0.465246,-0.0759541,-2.03855,-1.60354,1.71802,0.786435,-1.64983,-0.463512,-0.0818046,-2.03374,-1.60711,1.72327,0.786692,-0.929345,0.87788,-1.21622,0.882959,-0.481664,2.02117,0.036898,-0.923107,0.898799,-1.26171,0.898185,-0.500218,2.0879,0.0441866,-9.61089,-8.39603,-12.2555,21.0431,-2.57323,-0.379735,0.531199,-2.36493,-0.81954,-2.3933,3.30439,-1.48705,-0.0132427,-0.083726
2915140,1,-1.64625,-0.464356,-0.0772083,-2.03766,-1.60403,1.72011,0.786473,-1.65075,-0.462608,-0.083075,-2.03284,-1.60761,1.72536,0.786737,-0.933564,0.883095,-1.22532,0.886848,-0.48466,2.03852,0.0368464,-0.920392,0.903632,-1.27032,0.902963,-0.501812,2.09391,0.0450757,-9.15862,-8.59836,-12.2039,20.9201,-2.56224,-0.386144,0.434153,-2.36773,-0.759355,-2.39775,3.27477,-1.4943,-0.0121692,-0.0839762
