shamilmamedov/beam_handling/data/param_estimation_ICRA/ocp_Xup_15cm_0.35s_2.csv
duration, success rate, q[0], q[1], q[2], q[3], q[4], q[5], q[6],q_d[0], q_d[1], q_d[2], q_d[3], q_d[4], q_d[5], q_d[6],dq[0], dq[1], dq[2], dq[3], dq[4], dq[5], dq[6],dq_d[0], dq_d[1], dq_d[2], dq_d[3], dq_d[4], dq_d[5], dq_d[6],tau_J[0], tau_J[1], tau_J[2], tau_J[3], tau_J[4], tau_J[5], tau_J[6],tau_ext_hat_filtered[0], tau_ext_hat_filtered[1], tau_ext_hat_filtered[2], tau_ext_hat_filtered[3], tau_ext_hat_filtered[4], tau_ext_hat_filtered[5], tau_ext_hat_filtered[6]
4090199,0,-1.57045,-0.522812,-3.41365e-05,-2.09589,1.57053,1.57175,0.785021,-1.5708,-0.523599,5.9297e-08,-2.09439,1.5708,1.5708,0.785397,-0.000883197,-0.00161356,0.000411381,0.00059891,1.30223e-05,-0.000203192,0.000289803,0,0,0,0,0,0,0,-0.402821,-10.2408,-0.409177,20.9201,0.825212,-0.720311,0.116465,-0.443395,-1.15714,0.00933466,2.41303,0.261269,-0.728228,0.17949
4090200,1,-1.57045,-0.522808,-3.27161e-05,-2.0959,1.57053,1.57175,0.785022,-1.5708,-0.523599,5.9297e-08,-2.09439,1.5708,1.5708,0.785397,0.000617628,0.000687528,0.000274254,-0.000807153,-0.000194769,0.000339257,0.000430561,0,0,0,0,0,0,0,-0.454395,-10.3162,-0.409177,20.9717,0.830705,-0.733129,0.110056,-0.444088,-1.15453,0.00812992,2.4116,0.261234,-0.728071,0.179341
4090201,1,-1.57045,-0.522809,-3.22426e-05,-2.0959,1.57053,1.57175,0.785017,-1.5708,-0.523599,5.9297e-08,-2.09439,1.5708,1.5708,0.785397,0.000411752,-9.84597e-05,0.000182836,-0.000538102,7.36045e-05,-0.000248547,-0.00140838,0,0,0,0,0,0,0,-0.454395,-10.2924,-0.409177,20.9717,0.825212,-0.720311,0.155832,-0.444857,-1.1539,0.00675213,2.41152,0.26126,-0.727903,0.179161
4090202,1,-1.57045,-0.522808,-3.57041e-05,-2.09589,1.57053,1.57175,0.785016,-1.5708,-0.523599,5.9297e-08,-2.09439,1.5708,1.5708,0.785397,0.000274501,0.000491172,-0.00108454,0.000847691,0.00025252,0.00030902,-0.00117628,0,0,0,0,0,0,0,-0.454395,-10.3162,-0.357602,20.9201,0.819719,-0.733129,0.162241,-0.445367,-1.15528,0.00584379,2.41247,0.261315,-0.727785,0.178961
4090203,1,-1.57045,-0.522808,-3.76003e-05,-2.0959,1.57053,1.57175,0.785023,-1.5708,-0.523599,5.9297e-08,-2.09439,1.5708,1.5708,0.785397,-0.000373811,0.000327448,-0.00137264,-0.000641298,-0.000238554,0.000206013,0.00162331,0,0,0,0,0,0,0,-0.430592,-10.3162,-0.329831,20.9717,0.830705,-0.733129,0.0972387,-0.444615,-1.15735,0.00698169,2.41347,0.261317,-0.727863,0.178786
4090204,1,-1.57045,-0.522808,-3.39635e-05,-2.0959,1.57053,1.57175,0.785016,-1.5708,-0.523599,5.9297e-08,-2.09439,1.5708,1.5708,0.785397,0.000307605,0.000218299,0.000291334,0.000222082,0.000485224,0.000137342,-0.00132529,0,0,0,0,0,0,0,-0.454395,-10.3162,-0.381406,20.9439,0.81331,-0.733129,0.162241,-0.442996,-1.16008,0.00951578,2.41472,0.26129,-0.728086,0.178655
4090205,1,-1.57045,-0.522809,-3.39577e-05,-2.0959,1.57053,1.57175,0.785018,-1.5708,-0.523599,5.9297e-08,-2.09439,1.5708,1.5708,0.785397,-0.00100136,-0.00106089,0.000194223,0.000704866,-0.000320777,9.15615e-05,-0.00017145,0,0,0,0,0,0,0,-0.402821,-10.2646,-0.381406,20.9201,0.830705,-0.733129,0.143015,-0.441738,-1.1614,0.0114523,2.4152,0.261253,-0.728248,0.178558
4090206,1,-1.57045,-0.522809,-3.20069e-05,-2.09589,1.57053,1.57175,0.785022,-1.5708,-0.523599,5.9297e-08,-2.09439,1.5708,1.5708,0.785397,-1.79569e-05,-5.76483e-05,0.000779096,0.00158353,0.000193049,-0.000413677,0.0011064,0,0,0,0,0,0,0,-0.430592,-10.2924,-0.409177,20.8725,0.819719,-0.720311,0.110056,-0.441162,-1.15957,0.0122157,2.41371,0.261172,-0.728283,0.178508
4090207,1,-1.57045,-0.522806,-3.20062e-05,-2.09589,1.57053,1.57175,0.785019,-1.5708,-0.523599,5.9297e-08,-2.09439,1.5708,1.5708,0.785397,-0.000661585,0.00107519,0.000519397,-0.000614746,-0.000481652,-3.84256e-05,-0.000211834,0,0,0,0,0,0,0,-0.402821,-10.34,-0.409177,20.9439,0.836199,-0.72672,0.135691,-0.441217,-1.15759,0.0118687,2.41183,0.261101,-0.728227,0.1785
4090208,1,-1.57045,-0.522811,-3.2006e-05,-2.09589,1.57053,1.57175,0.785017,-1.5708,-0.523599,5.9297e-08,-2.09439,1.5708,1.5708,0.785397,0.000765369,-0.00104644,0.000346265,0.000146981,0.00028925,-2.56171e-05,-0.000887208,0,0,0,0,0,0,0,-0.454395,-10.2646,-0.409177,20.9201,0.819719,-0.72672,0.155832,-0.441778,-1.15756,0.0106464,2.41115,0.2611,-0.728107,0.178498
4090209,1,-1.57045,-0.522808,-3.20059e-05,-2.0959,1.57053,1.57175,0.785022,-1.5708,-0.523599,5.9297e-08,-2.09439,1.5708,1.5708,0.785397,0.000510246,0.000508797,0.000230843,-0.000458824,-1.0617e-05,0.000220281,0.00110395,0,0,0,0,0,0,0,-0.454395,-10.3162,-0.409177,20.9439,0.825212,-0.733129,0.110056,-0.442769,-1.15783,0.00879667,2.41102,0.261141,-0.727912,0.178505
4090210,1,-1.57045,-0.522811,-3.39548e-05,-2.0959,1.57053,1.57175,0.785021,-1.5708,-0.523599,5.9297e-08,-2.09439,1.5708,1.5708,0.785397,-0.000216648,-0.000867228,-0.000495718,-0.000305883,0.000196373,-9.0505e-05,0.000498607,0,0,0,0,0,0,0,-0.430592,-10.2646,-0.381406,20.9439,0.819719,-0.72672,0.116465,-0.443639,-1.15806,0.00719339,2.41113,0.261184,-0.72773,0.178524
4090211,1,-1.57045,-0.522811,-3.39548e-05,-2.0959,1.57053,1.57175,0.785014,-1.5708,-0.523599,5.9297e-08,-2.09439,1.5708,1.5708,0.785397,0.00041238,-0.000578152,-0.000330479,-0.000853536,-7.25355e-05,0.000177022,-0.00183773,0,0,0,0,0,0,0,-0.454395,-10.2646,-0.381406,20.9717,0.825212,-0.733129,0.175059,-0.443751,-1.15783,0.00677292,2.41132,0.261199,-0.727655,0.178534
4090212,1,-1.57045,-0.522809,-3.7574e-05,-2.09589,1.57053,1.57175,0.78502,-1.5708,-0.523599,5.9297e-08,-2.09439,1.5708,1.5708,0.785397,-0.000281892,0.000264179,-0.00142675,0.00119421,-4.8357e-05,0.000118015,0.000707624,0,0,0,0,0,0,0,-0.430592,-10.2924,-0.329831,20.8963,0.825212,-0.733129,0.122873,-0.442977,-1.15701,0.00779633,2.41117,0.26116,-0.727714,0.178535
4090213,1,-1.57045,-0.522809,-3.03355e-05,-2.0959,1.57053,1.57175,0.785017,-1.5708,-0.523599,5.9297e-08,-2.09439,1.5708,1.5708,0.785397,-0.000837542,0.00017612,0.00146169,-0.000967095,0.000171213,-0.000158682,-0.000511595,0,0,0,0,0,0,0,-0.402821,-10.2924,-0.432981,20.9717,0.819719,-0.72672,0.149424,-0.441708,-1.15691,0.00955755,2.41103,0.261098,-0.72787,0.178557
4090214,1,-1.57045,-0.522808,-3.39547e-05,-2.0959,1.57053,1.57175,0.785015,-1.5708,-0.523599,5.9297e-08,-2.09439,1.5708,1.5708,0.785397,0.00120488,0.000674225,-0.000231967,-0.00064473,-0.000292759,-0.000105788,-0.00105314,0,0,0,0,0,0,0,-0.478199,-10.3162,-0.381406,20.9717,0.830705,-0.72672,0.16865,-0.441149,-1.15879,0.010124,2.41199,0.261104,-0.72795,0.178606
4090215,1,-1.57045,-0.522811,-3.39547e-05,-2.0959,1.57053,1.57175,0.785021,-1.5708,-0.523599,5.9297e-08,-2.09439,1.5708,1.5708,0.785397,-0.000959987,-0.000756943,-0.000154645,0.000219794,-0.000398623,-0.000307884,0.00123069,0,0,0,0,0,0,0,-0.402821,-10.2646,-0.381406,20.9439,0.836199,-0.720311,0.116465,-0.441208,-1.16144,0.00976139,2.41353,0.261153,-0.727946,0.178693
4090216,1,-1.57045,-0.522811,-3.41364e-05,-2.0959,1.57053,1.57175,0.785019,-1.5708,-0.523599,5.9297e-08,-2.09439,1.5708,1.5708,0.785397,9.62275e-06,-0.000504628,0.000546517,-0.000503085,0.000344603,3.21026e-05,0.000108381,0,0,0,0,0,0,0,-0.430592,-10.2646,-0.409177,20.9717,0.819719,-0.72672,0.135691,-0.441078,-1.16218,0.00966675,2.41411,0.261165,-0.727942,0.178827
4090217,1,-1.57045,-0.522809,-3.46649e-05,-2.0959,1.57053,1.57175,0.785019,-1.5708,-0.523599,5.9297e-08,-2.09439,1.5708,1.5708,0.785397,0.000563227,0.000313195,-0.000285269,-0.00033539,0.000229735,2.14018e-05,7.22539e-05,0,0,0,0,0,0,0,-0.454395,-10.2924,-0.381406,20.9717,0.819719,-0.72672,0.135691,-0.441068,-1.16182,0.00935871,2.41422,0.261174,-0.727895,0.178979
4090218,1,-1.57045,-0.522809,-3.6322e-05,-2.0959,1.57053,1.57175,0.785021,-1.5708,-0.523599,5.9297e-08,-2.09439,1.5708,1.5708,0.785397,-0.000830941,0.000208797,-0.000190179,0.000426021,-5.02938e-05,0.000251627,0.000760246,0,0,0,0,0,0,0,-0.402821,-10.2924,-0.381406,20.9439,0.825212,-0.733129,0.116465,-0.440986,-1.16216,0.00920327,2.41458,0.261187,-0.727861,0.179127
4090221,0.97,-1.57045,-0.522809,-3.57129e-05,-2.0959,1.57053,1.57175,0.785024,-1.5708,-0.523599,5.9297e-08,-2.09439,1.5708,1.5708,0.785397,-0.000390563,-0.000247474,-0.000571916,-0.000523386,-4.50427e-05,-0.000110056,0.00192445,0,0,0,0,0,0,0,-0.430592,-10.2924,-0.357602,20.9717,0.825212,-0.72672,0.09083,-0.440916,-1.1666,0.00890706,2.41586,0.261153,-0.727805,0.179444
4090222,0.97,-1.57045,-0.522811,-3.41657e-05,-2.0959,1.57053,1.57175,0.785022,-1.5708,-0.523599,5.9297e-08,-2.09439,1.5708,1.5708,0.785397,-0.000260376,-0.000814597,0.000825149,-0.000905736,0.000173422,-7.3371e-05,0.000570888,0,0,0,0,0,0,0,-0.430592,-10.2646,-0.409177,20.9955,0.819719,-0.72672,0.110056,-0.440293,-1.16721,0.00983031,2.41629,0.261106,-0.727876,0.179517
4090223,0.97,-1.57045,-0.522809,-3.27258e-05,-2.0959,1.57053,1.57175,0.785016,-1.5708,-0.523599,5.9297e-08,-2.09439,1.5708,1.5708,0.785397,-0.000173584,0.000106549,0.000550099,0.000602602,-8.78358e-05,0.000459712,-0.00155219,0,0,0,0,0,0,0,-0.430592,-10.2924,-0.409177,20.9439,0.825212,-0.740453,0.162241,-0.440173,-1.16634,0.00986495,2.41634,0.261074,-0.727855,0.179551
4090224,0.97,-1.57045,-0.522809,-3.41947e-05,-2.0959,1.57053,1.57175,0.78502,-1.5708,-0.523599,5.9297e-08,-2.09439,1.5708,1.5708,0.785397,0.000441089,7.10329e-05,-0.000282881,0.000401735,-5.85572e-05,-0.000202151,0.00042327,0,0,0,0,0,0,0,-0.454395,-10.2924,-0.381406,20.9439,0.825212,-0.72672,0.122873,-0.440517,-1.16483,0.00916256,2.4158,0.261038,-0.72777,0.179542
4090225,0.97,-1.57045,-0.522809,-3.42164e-05,-2.0959,1.57053,1.57175,0.785022,-1.5708,-0.523599,5.9297e-08,-2.09439,1.5708,1.5708,0.785397,0.00029406,4.73553e-05,0.000461026,-0.000381791,0.000164412,0.000102591,0.000756898,0,0,0,0,0,0,0,-0.454395,-10.2924,-0.409177,20.9717,0.819719,-0.733129,0.110056,-0.441022,-1.1636,0.00830767,2.41517,0.260993,-0.727679,0.179518
4090226,0.97,-1.57045,-0.522811,-3.27427e-05,-2.0959,1.57053,1.57175,0.785017,-1.5708,-0.523599,5.9297e-08,-2.09439,1.5708,1.5708,0.785397,0.00019604,-0.000618044,0.000307351,0.000395087,0.000346967,-0.000168965,-0.000953464,0,0,0,0,0,0,0,-0.454395,-10.2646,-0.409177,20.9439,0.81331,-0.72672,0.149424,-0.441795,-1.16232,0.00710453,2.41461,0.260954,-0.727559,0.179481
4090227,0.97,-1.57045,-0.522809,-3.42004e-05,-2.0959,1.57053,1.57175,0.785019,-1.5708,-0.523599,5.9297e-08,-2.09439,1.5708,1.5708,0.785397,0.000130693,0.000237585,-0.000444713,0.000263391,-6.04748e-06,-0.000350002,-0.000127016,0,0,0,0,0,0,0,-0.454395,-10.2924,-0.381406,20.9439,0.819719,-0.720311,0.135691,-0.442515,-1.16047,0.00602528,2.41373,0.26089,-0.727448,0.179425
4090228,0.97,-1.57045,-0.522806,-3.40366e-05,-2.0959,1.57053,1.57175,0.78502,-1.5708,-0.523599,5.9297e-08,-2.09439,1.5708,1.5708,0.785397,-0.0011193,0.00127201,-0.000296476,0.000732406,0.000233327,0.000241383,0.000390041,0,0,0,0,0,0,0,-0.402821,-10.34,-0.381406,20.9201,0.81331,-0.733129,0.122873,-0.442399,-1.15976,0.00622486,2.41313,0.260787,-0.72748,0.179366
4090229,0.97,-1.57045,-0.522811,-3.3982e-05,-2.0959,1.57053,1.57175,0.785017,-1.5708,-0.523599,5.9297e-08,-2.09439,1.5708,1.5708,0.785397,0.000460228,-0.000915229,-0.00019765,-0.000718155,-0.000285258,0.000160922,-0.000960676,0,0,0,0,0,0,0,-0.454395,-10.2646,-0.381406,20.9717,0.825212,-0.733129,0.155832,-0.441473,-1.16057,0.007603,2.4132,0.260663,-0.72765,0.179312
4090230,0.97,-1.57045,-0.522809,-3.2015e-05,-2.09589,1.57053,1.57175,0.785019,-1.5708,-0.523599,5.9297e-08,-2.09439,1.5708,1.5708,0.785397,0.000306819,3.94615e-05,0.000517847,0.000170844,1.32786e-05,-0.000367436,0.000105535,0,0,0,0,0,0,0,-0.454395,-10.2924,-0.409177,20.9439,0.819719,-0.720311,0.135691,-0.440866,-1.16079,0.00850435,2.41332,0.260544,-0.727759,0.17927
4090231,0.97,-1.57045,-0.522811,-3.39578e-05,-2.0959,1.57053,1.57175,0.785019,-1.5708,-0.523599,5.9297e-08,-2.09439,1.5708,1.5708,0.785397,0.000761358,-0.000623306,-0.000304383,-0.000535718,-0.000398049,-7.59871e-06,7.03563e-05,0,0,0,0,0,0,0,-0.478199,-10.2646,-0.381406,20.9717,0.830705,-0.72672,0.135691,-0.441108,-1.16003,0.00820909,2.41326,0.260444,-0.727723,0.179254
4090232,0.97,-1.57045,-0.522809,-3.39558e-05,-2.0959,1.57053,1.57175,0.785016,-1.5708,-0.523599,5.9297e-08,-2.09439,1.5708,1.5708,0.785397,-0.000606052,0.000234076,-0.000202922,-0.000357145,-0.000468816,-0.000242425,-0.00093644,0,0,0,0,0,0,0,-0.430592,-10.2924,-0.381406,20.9717,0.836199,-0.720311,0.162241,-0.441456,-1.15928,0.00782694,2.41342,0.260357,-0.727666,0.179268
4090233,0.97,-1.57045,-0.522807,-3.03358e-05,-2.09589,1.57053,1.57175,0.785021,-1.5708,-0.523599,5.9297e-08,-2.09439,1.5708,1.5708,0.785397,0.000152777,0.000156051,0.00107114,0.000968329,-0.000109094,7.57424e-05,0.00107113,0,0,0,0,0,0,0,-0.454395,-10.2924,-0.432981,20.9201,0.830705,-0.72672,0.116465,-0.441699,-1.15901,0.00756771,2.41373,0.260291,-0.727625,0.179312
4090234,0.97,-1.57045,-0.522811,-3.39549e-05,-2.0959,1.57053,1.57175,0.785016,-1.5708,-0.523599,5.9297e-08,-2.09439,1.5708,1.5708,0.785397,-0.00045496,-0.00054558,-0.000492329,0.000645553,0.000334172,5.0495e-05,-0.000981336,0,0,0,0,0,0,0,-0.430592,-10.2646,-0.381406,20.9201,0.819719,-0.72672,0.162241,-0.442067,-1.15812,0.00704569,2.41324,0.260229,-0.727554,0.179393
4090235,0.97,-1.57045,-0.522808,-3.20059e-05,-2.0959,1.57053,1.57175,0.78502,-1.5708,-0.523599,5.9297e-08,-2.09439,1.5708,1.5708,0.785397,0.000810317,0.000842706,0.000321394,-0.000776057,1.93308e-05,0.000271022,0.000566479,0,0,0,0,0,0,0,-0.478199,-10.3162,-0.409177,20.9717,0.825212,-0.733129,0.129282,-0.442346,-1.15712,0.00667972,2.41253,0.260178,-0.727489,0.179496
4090236,0.97,-1.57045,-0.522809,-3.20059e-05,-2.09589,1.57053,1.57175,0.785023,-1.5708,-0.523599,5.9297e-08,-2.09439,1.5708,1.5708,0.785397,0.000540211,4.99199e-06,0.000214263,0.00124587,0.000216338,0.000180681,0.000377653,0,0,0,0,0,0,0,-0.478199,-10.2924,-0.409177,20.8963,0.819719,-0.733129,0.129282,-0.44291,-1.15751,0.00597885,2.41254,0.260173,-0.7274,0.179619
4090237,0.97,-1.57045,-0.522806,-3.20059e-05,-2.0959,1.57053,1.57175,0.785018,-1.5708,-0.523599,5.9297e-08,-2.09439,1.5708,1.5708,0.785397,-0.000753483,0.00111695,0.000142842,-0.000283046,0.000144225,-0.000116905,-0.000494217,0,0,0,0,0,0,0,-0.430592,-10.34,-0.409177,20.9439,0.819719,-0.72672,0.149424,-0.443654,-1.15891,0.00503938,2.41286,0.260189,-0.727309,0.179752
4090238,0.97,-1.57045,-0.522808,-3.20059e-05,-2.0959,1.57053,1.57175,0.78502,-1.5708,-0.523599,5.9297e-08,-2.09439,1.5708,1.5708,0.785397,-0.000502322,0.000187823,9.5228e-05,-0.00139512,-0.0001073,0.000159423,0.000416507,0,0,0,0,0,0,0,-0.430592,-10.3162,-0.409177,20.9955,0.825212,-0.733129,0.129282,-0.443812,-1.16194,0.00486171,2.41418,0.260227,-0.727333,0.179878
4090239,0.97,-1.57045,-0.522809,-3.39547e-05,-2.0959,1.57053,1.57175,0.785021,-1.5708,-0.523599,5.9297e-08,-2.09439,1.5708,1.5708,0.785397,-0.000334881,-0.000431597,-0.000586129,0.000276344,0.000369276,0.000106282,0.00075239,0,0,0,0,0,0,0,-0.430592,-10.2924,-0.381406,20.9439,0.81331,-0.733129,0.116465,-0.443251,-1.16533,0.00565276,2.4162,0.260265,-0.727469,0.18
4090240,0.97,-1.57045,-0.522811,-3.39547e-05,-2.0959,1.57053,1.57175,0.785016,-1.5708,-0.523599,5.9297e-08,-2.09439,1.5708,1.5708,0.785397,0.000333558,-0.000937345,-0.000390752,0.000184229,8.82495e-06,-0.000403863,-0.00119383,0,0,0,0,0,0,0,-0.454395,-10.2646,-0.381406,20.9439,0.819719,-0.720311,0.162241,-0.442286,-1.16581,0.00709912,2.41679,0.260226,-0.727633,0.18011
4090241,0.97,-1.57045,-0.522806,-3.20059e-05,-2.0959,1.57053,1.57175,0.78502,-1.5708,-0.523599,5.9297e-08,-2.09439,1.5708,1.5708,0.785397,-0.000984054,0.00113834,0.000389112,-0.000526795,0.000243242,0.000205476,0.000662177,0,0,0,0,0,0,0,-0.402821,-10.34,-0.409177,20.9717,0.81331,-0.733129,0.122873,-0.441355,-1.16471,0.00850643,2.41644,0.260137,-0.727773,0.180203
4090242,0.97,-1.57045,-0.522809,-3.97046e-05,-2.0959,1.57053,1.57175,0.785017,-1.5708,-0.523599,5.9297e-08,-2.09439,1.5708,1.5708,0.785397,-6.42211e-06,-0.00035473,-0.00159663,0.000298418,-0.000482098,-0.000100375,-0.000779252,0,0,0,0,0,0,0,-0.430592,-10.2924,-0.329831,20.9439,0.830705,-0.72672,0.155832,-0.440183,-1.1648,0.0102057,2.41661,0.260043,-0.727959,0.18029
4090243,0.97,-1.57045,-0.522809,-3.27161e-05,-2.09589,1.57053,1.57175,0.785018,-1.5708,-0.523599,5.9297e-08,-2.09439,1.5708,1.5708,0.785397,0.000552531,-0.000236487,0.000791619,0.000755757,-0.000321399,-6.69168e-05,-4.47834e-05,0,0,0,0,0,0,0,-0.454395,-10.2924,-0.409177,20.9201,0.830705,-0.72672,0.143015,-0.43899,-1.16444,0.0119804,2.41631,0.259917,-0.728139,0.180383
4090244,0.97,-1.57045,-0.522811,-3.58619e-05,-2.0959,1.57053,1.57175,0.785018,-1.5708,-0.523599,5.9297e-08,-2.09439,1.5708,1.5708,0.785397,0.000368354,-0.000807272,-0.00067868,-5.2974e-05,-1.08155e-05,0.000192748,-2.98556e-05,0,0,0,0,0,0,0,-0.454395,-10.2646,-0.357602,20.9439,0.825212,-0.733129,0.143015,-0.43868,-1.16204,0.0125179,2.41479,0.259779,-0.72816,0.180495
4090245,0.97,-1.57045,-0.522811,-3.40337e-05,-2.0959,1.57053,1.57175,0.785016,-1.5708,-0.523599,5.9297e-08,-2.09439,1.5708,1.5708,0.785397,0.000245569,-0.000538181,0.000104359,-0.00124174,-7.21032e-06,0.000128498,-0.000731981,0,0,0,0,0,0,0,-0.454395,-10.2646,-0.381406,20.9955,0.825212,-0.733129,0.162241,-0.438955,-1.15891,0.0122374,2.41322,0.259677,-0.728081,0.180625
4090246,0.97,-1.57045,-0.522807,-3.39811e-05,-2.09589,1.57053,1.57175,0.78502,-1.5708,-0.523599,5.9297e-08,-2.09439,1.5708,1.5708,0.785397,-0.00104271,0.000290827,6.95724e-05,0.00149222,-4.80688e-06,-0.000151693,0.000970075,0,0,0,0,0,0,0,-0.402821,-10.2924,-0.381406,20.8963,0.825212,-0.72672,0.122873,-0.439181,-1.15636,0.0120044,2.41218,0.259613,-0.728018,0.180779
4090247,0.97,-1.57045,-0.522811,-3.03442e-05,-2.09589,1.57053,1.57175,0.785018,-1.5708,-0.523599,5.9297e-08,-2.09439,1.5708,1.5708,0.785397,0.0010681,-0.00045573,0.00125281,-0.000118809,-0.000206655,0.00013623,-9.92686e-05,0,0,0,0,0,0,0,-0.478199,-10.2646,-0.432981,20.9439,0.830705,-0.733129,0.143015,-0.439778,-1.15427,0.011107,2.41103,0.259573,-0.727916,0.180959
4090248,0.97,-1.57045,-0.522813,-3.39577e-05,-2.09589,1.57053,1.57175,0.78502,-1.5708,-0.523599,5.9297e-08,-2.09439,1.5708,1.5708,0.785397,-0.00040156,-0.000860632,-0.000371221,-7.92062e-05,6.56805e-05,-0.000146539,0.000679806,0,0,0,0,0,0,0,-0.430592,-10.2408,-0.381406,20.9439,0.825212,-0.72672,0.122873,-0.441069,-1.15187,0.00913437,2.40965,0.259565,-0.727713,0.181148
4090249,0.97,-1.57045,-0.522809,-3.20069e-05,-2.0959,1.57053,1.57175,0.785016,-1.5708,-0.523599,5.9297e-08,-2.09439,1.5708,1.5708,0.785397,0.000289105,0.000632671,0.000402133,-0.000702418,4.3787e-05,0.000139666,-0.00100486,0,0,0,0,0,0,0,-0.454395,-10.2924,-0.409177,20.9717,0.825212,-0.733129,0.162241,-0.442256,-1.15013,0.00732568,2.40894,0.259593,-0.727533,0.181322
4090250,0.97,-1.57045,-0.522808,-3.60856e-05,-2.0959,1.57053,1.57175,0.785016,-1.5708,-0.523599,5.9297e-08,-2.09439,1.5708,1.5708,0.785397,-0.00101369,0.000978593,-0.000381525,-0.000468279,2.91913e-05,-0.000144248,-0.000669905,0,0,0,0,0,0,0,-0.402821,-10.3162,-0.381406,20.9717,0.825212,-0.72672,0.162241,-0.442728,-1.15155,0.00654178,2.41001,0.259672,-0.727499,0.181476
4090251,0.97,-1.57045,-0.522808,-3.27162e-05,-2.0959,1.57053,1.57175,0.785021,-1.5708,-0.523599,5.9297e-08,-2.09439,1.5708,1.5708,0.785397,-2.61788e-05,0.000652395,0.000395264,-0.000312186,1.94609e-05,-9.61654e-05,0.00124882,0,0,0,0,0,0,0,-0.430592,-10.3162,-0.409177,20.9717,0.825212,-0.72672,0.116465,-0.442541,-1.15609,0.00664584,2.41268,0.259791,-0.727599,0.181637
4090252,0.97,-1.57045,-0.522807,-3.22427e-05,-2.0959,1.57053,1.57175,0.785019,-1.5708,-0.523599,5.9297e-08,-2.09439,1.5708,1.5708,0.785397,0.000539359,-0.000121882,0.000263509,-0.000208124,-0.000190477,-0.000776187,0.000120468,0,0,0,0,0,0,0,-0.454395,-10.2924,-0.409177,20.9717,0.830705,-0.707494,0.135691,-0.442472,-1.16093,0.0065254,2.41546,0.259917,-0.727676,0.181817
4090253,0.97,-1.57045,-0.522809,-3.20848e-05,-2.0959,1.57053,1.57175,0.785017,-1.5708,-0.523599,5.9297e-08,-2.09439,1.5708,1.5708,0.785397,-0.000197239,-8.12545e-05,0.000175673,-0.000138749,-0.000126984,0.000431978,-0.000665673,0,0,0,0,0,0,0,-0.430592,-10.2924,-0.409177,20.9717,0.830705,-0.733129,0.155832,-0.442905,-1.16398,0.00565539,2.41735,0.260029,-0.727635,0.181994
4090254,0.97,-1.57045,-0.522811,-3.39811e-05,-2.0959,1.57053,1.57175,0.78502,-1.5708,-0.523599,5.9297e-08,-2.09439,1.5708,1.5708,0.785397,0.000425319,-0.000703784,-0.000532499,0.000557114,-8.46563e-05,0.000287985,0.000776921,0,0,0,0,0,0,0,-0.454395,-10.2646,-0.381406,20.9439,0.830705,-0.733129,0.122873,-0.443187,-1.16448,0.00502972,2.41786,0.260095,-0.727569,0.182159
4090255,0.97,-1.57045,-0.522808,-3.39635e-05,-2.0959,1.57053,1.57175,0.78502,-1.5708,-0.523599,5.9297e-08,-2.09439,1.5708,1.5708,0.785397,0.000840358,0.000737237,-0.000354999,-0.000278204,0.000147013,-4.53688e-05,0.000517947,0,0,0,0,0,0,0,-0.478199,-10.3162,-0.381406,20.9717,0.825212,-0.72672,0.122873,-0.443176,-1.16349,0.00496925,2.41745,0.26012,-0.727524,0.182315
4090256,0.97,-1.57045,-0.522809,-3.39577e-05,-2.0959,1.57053,1.57175,0.785014,-1.5708,-0.523599,5.9297e-08,-2.09439,1.5708,1.5708,0.785397,3.42681e-06,-6.53207e-05,-0.000236666,-0.00018547,-0.000105442,-3.02459e-05,-0.00158748,0,0,0,0,0,0,0,-0.454395,-10.2924,-0.381406,20.9717,0.830705,-0.72672,0.175059,-0.443113,-1.1632,0.00514351,2.41738,0.260158,-0.727498,0.182447
4090257,0.97,-1.57045,-0.522809,-3.20069e-05,-2.0959,1.57053,1.57175,0.78502,-1.5708,-0.523599,5.9297e-08,-2.09439,1.5708,1.5708,0.785397,-0.000554527,-4.35472e-05,0.000491837,0.000525968,-7.02946e-05,0.000217195,0.0006371,0,0,0,0,0,0,0,-0.430592,-10.2924,-0.409177,20.9439,0.830705,-0.733129,0.129282,-0.442979,-1.16318,0.00541943,2.41746,0.260211,-0.727492,0.182556
4090258,0.97,-1.57045,-0.522813,-3.56255e-05,-2.0959,1.57053,1.57175,0.785023,-1.5708,-0.523599,5.9297e-08,-2.09439,1.5708,1.5708,0.785397,-0.0010193,-0.00123546,-0.000878535,0.000350645,0.000156587,-9.25623e-05,0.00161153,0,0,0,0,0,0,0,-0.402821,-10.2408,-0.357602,20.9439,0.825212,-0.72672,0.0972387,-0.44235,-1.16129,0.00632881,2.41649,0.260222,-0.727545,0.182671
4090259,0.97,-1.57045,-0.522806,-3.56253e-05,-2.0959,1.57053,1.57175,0.785018,-1.5708,-0.523599,5.9297e-08,-2.09439,1.5708,1.5708,0.785397,0.000526893,0.00149641,-0.00058569,0.000233763,0.000104392,0.000175651,-0.000621069,0,0,0,0,0,0,0,-0.454395,-10.34,-0.357602,20.9439,0.825212,-0.733129,0.143015,-0.440996,-1.15871,0.00832818,2.41505,0.260195,-0.727704,0.182772
4090260,0.97,-1.57045,-0.522809,-3.39548e-05,-2.0959,1.57053,1.57175,0.785017,-1.5708,-0.523599,5.9297e-08,-2.09439,1.5708,1.5708,0.785397,-0.00020555,-0.000116016,0.000166352,0.000712654,6.95944e-05,0.000117101,-0.000651405,0,0,0,0,0,0,0,-0.430592,-10.2924,-0.381406,20.9201,0.825212,-0.733129,0.149424,-0.439712,-1.15799,0.0103193,2.41434,0.260192,-0.72788,0.182826
4090261,0.97,-1.57045,-0.522809,-3.56252e-05,-2.0959,1.57053,1.57175,0.785025,-1.5708,-0.523599,5.9297e-08,-2.09439,1.5708,1.5708,0.785397,-0.000137033,-7.73441e-05,-0.000445911,-8.17092e-05,4.63963e-05,0.000349334,0.00197323,0,0,0,0,0,0,0,-0.430592,-10.2924,-0.357602,20.9439,0.825212,-0.740453,0.0844213,-0.438913,-1.15799,0.0116105,2.4139,0.260216,-0.728002,0.182846
4090262,0.97,-1.57045,-0.522808,-3.39548e-05,-2.09589,1.57053,1.57175,0.785021,-1.5708,-0.523599,5.9297e-08,-2.09439,1.5708,1.5708,0.785397,0.00102227,0.000505249,0.000259538,0.000502339,-0.00037597,-0.000275737,0.000128691,0,0,0,0,0,0,0,-0.478199,-10.3162,-0.381406,20.9201,0.836199,-0.72672,0.116465,-0.438643,-1.15782,0.0121587,2.41346,0.260255,-0.728056,0.182836
4090263,0.97,-1.57045,-0.522809,-3.56252e-05,-2.09589,1.57053,1.57175,0.785014,-1.5708,-0.523599,5.9297e-08,-2.09439,1.5708,1.5708,0.785397,0.0001247,-0.000219979,-0.000383786,0.000334893,-4.71963e-05,5.35345e-05,-0.00208435,0,0,0,0,0,0,0,-0.454395,-10.2924,-0.357602,20.9201,0.830705,-0.733129,0.175059,-0.439096,-1.15788,0.0117572,2.41312,0.260323,-0.72802,0.182767
4090264,0.97,-1.57045,-0.522811,-3.20059e-05,-2.0959,1.57053,1.57175,0.785021,-1.5708,-0.523599,5.9297e-08,-2.09439,1.5708,1.5708,0.785397,-0.000473678,-0.000796267,0.000950568,-0.00153998,0.000612796,-0.000439028,0.000780575,0,0,0,0,0,0,0,-0.430592,-10.2646,-0.409177,20.9955,0.81331,-0.720311,0.116465,-0.4399,-1.15748,0.0108552,2.41287,0.260421,-0.727932,0.182648
4090265,0.97,-1.57045,-0.522811,-3.56252e-05,-2.0959,1.57053,1.57175,0.785025,-1.5708,-0.523599,5.9297e-08,-2.09439,1.5708,1.5708,0.785397,-0.0009654,-0.000530844,-0.000572714,-0.00158346,-3.22789e-05,-5.53266e-05,0.00170718,0,0,0,0,0,0,0,-0.402821,-10.2646,-0.357602,21.0193,0.825212,-0.72672,0.0844213,-0.440422,-1.15695,0.010229,2.41347,0.260553,-0.727872,0.182518
4090266,0.97,-1.57045,-0.522806,-3.39547e-05,-2.0959,1.57053,1.57175,0.785018,-1.5708,-0.523599,5.9297e-08,-2.09439,1.5708,1.5708,0.785397,-0.0006436,0.00140934,0.000175003,5.79822e-05,0.000181931,-3.68844e-05,-0.00103202,0,0,0,0,0,0,0,-0.402821,-10.34,-0.381406,20.9717,0.819719,-0.72672,0.143015,-0.440153,-1.15802,0.0106428,2.41533,0.260696,-0.727933,0.182366
4090267,0.97,-1.57045,-0.522811,-3.39547e-05,-2.0959,1.57053,1.57175,0.785015,-1.5708,-0.523599,5.9297e-08,-2.09439,1.5708,1.5708,0.785397,0.000777359,-0.000823677,0.000116669,-0.000518157,-0.000489064,0.000212769,-0.00163745,0,0,0,0,0,0,0,-0.454395,-10.2646,-0.381406,20.9955,0.836199,-0.733129,0.16865,-0.439726,-1.16047,0.011252,2.41758,0.260826,-0.728025,0.18217
4090268,0.97,-1.57045,-0.522811,-3.20059e-05,-2.0959,1.57053,1.57175,0.785022,-1.5708,-0.523599,5.9297e-08,-2.09439,1.5708,1.5708,0.785397,-3.85723e-05,-0.000549118,0.000727393,-0.000345438,0.000284309,-9.55127e-05,0.00107851,0,0,0,0,0,0,0,-0.430592,-10.2646,-0.409177,20.9955,0.819719,-0.72672,0.110056,-0.440103,-1.16145,0.0106775,2.41894,0.260938,-0.72797,0.181967
4090269,0.97,-1.57045,-0.522811,-3.39547e-05,-2.0959,1.57053,1.57175,0.785023,-1.5708,-0.523599,5.9297e-08,-2.09439,1.5708,1.5708,0.785397,0.000531097,-0.000366079,-0.000164685,0.00032652,-1.39113e-05,-6.36751e-05,0.00119372,0,0,0,0,0,0,0,-0.454395,-10.2646,-0.381406,20.9717,0.825212,-0.72672,0.0972387,-0.44106,-1.16018,0.00924886,2.41909,0.261012,-0.727796,0.181795
4090270,0.97,-1.57045,-0.522809,-3.41364e-05,-2.09589,1.57053,1.57175,0.785018,-1.5708,-0.523599,5.9297e-08,-2.09439,1.5708,1.5708,0.785397,-0.000202747,0.000405562,0.000539824,0.000867294,-9.27419e-06,-0.000279809,-0.000899606,0,0,0,0,0,0,0,-0.430592,-10.2924,-0.409177,20.9439,0.825212,-0.720311,0.143015,-0.442051,-1.15811,0.0077861,2.4184,0.261038,-0.727609,0.181629
4090271,0.97,-1.57045,-0.522808,-3.27161e-05,-2.09589,1.57053,1.57175,0.78502,-1.5708,-0.523599,5.9297e-08,-2.09439,1.5708,1.5708,0.785397,0.000421647,0.000827186,0.000359882,0.00169182,0.000197268,5.08196e-05,0.000146248,0,0,0,0,0,0,0,-0.454395,-10.3162,-0.409177,20.8963,0.819719,-0.72672,0.122873,-0.443017,-1.15653,0.00634276,2.41719,0.261027,-0.727433,0.181443
4090272,0.97,-1.57045,-0.522811,-3.6322e-05,-2.09589,1.57053,1.57175,0.785022,-1.5708,-0.523599,5.9297e-08,-2.09439,1.5708,1.5708,0.785397,0.00083791,-0.000654968,-0.000409692,1.4256e-05,-7.19387e-05,3.38797e-05,0.000572216,0,0,0,0,0,0,0,-0.478199,-10.2646,-0.381406,20.9439,0.825212,-0.72672,0.110056,-0.443975,-1.15525,0.00495652,2.41562,0.260989,-0.727259,0.181245
4090273,0.97,-1.57045,-0.522811,-3.47438e-05,-2.09589,1.57053,1.57175,0.785022,-1.5708,-0.523599,5.9297e-08,-2.09439,1.5708,1.5708,0.785397,0.000558607,-0.000436646,-0.000273128,0.000566316,0.000155491,2.25865e-05,0.000381478,0,0,0,0,0,0,0,-0.478199,-10.2646,-0.381406,20.9201,0.819719,-0.72672,0.110056,-0.444699,-1.1531,0.00408423,2.41377,0.260919,-0.727105,0.181035
4090274,0.97,-1.57045,-0.522811,-3.42178e-05,-2.09589,1.57053,1.57175,0.785015,-1.5708,-0.523599,5.9297e-08,-2.09439,1.5708,1.5708,0.785397,-0.000184407,-0.000291097,-0.000182085,-0.000179268,-0.000506691,-0.000222301,-0.00191582,0,0,0,0,0,0,0,-0.454395,-10.2646,-0.381406,20.9439,0.836199,-0.720311,0.16865,-0.44499,-1.15036,0.00397556,2.41201,0.260832,-0.727005,0.180798
4090275,0.97,-1.57045,-0.522811,-3.6173e-05,-2.09589,1.57053,1.57175,0.785022,-1.5708,-0.523599,5.9297e-08,-2.09439,1.5708,1.5708,0.785397,-0.000122938,-0.000194065,-0.00012139,0.0004373,6.91073e-05,-0.000148201,0.000892925,0,0,0,0,0,0,0,-0.454395,-10.2646,-0.381406,20.9201,0.825212,-0.720311,0.110056,-0.444801,-1.14806,0.00459563,2.41073,0.260753,-0.726979,0.180546
4090276,0.97,-1.57045,-0.522811,-3.27453e-05,-2.09589,1.57053,1.57175,0.785017,-1.5708,-0.523599,5.9297e-08,-2.09439,1.5708,1.5708,0.785397,-0.000638771,-0.000129376,0.000568687,0.000291533,4.60715e-05,-9.88006e-05,-0.000862779,0,0,0,0,0,0,0,-0.430592,-10.2646,-0.409177,20.9201,0.825212,-0.720311,0.149424,-0.444382,-1.14633,0.00549554,2.40981,0.260693,-0.726988,0.180312
4090277,0.97,-1.57045,-0.522811,-3.58717e-05,-2.0959,1.57053,1.57175,0.785015,-1.5708,-0.523599,5.9297e-08,-2.09439,1.5708,1.5708,0.785397,-0.000425847,-8.6251e-05,-0.000827301,-0.000362456,3.07143e-05,0.000171492,-0.00128726,0,0,0,0,0,0,0,-0.430592,-10.2646,-0.357602,20.9439,0.825212,-0.72672,0.16865,-0.443694,-1.14536,0.00670961,2.40931,0.260656,-0.727033,0.180107
4090278,0.97,-1.57045,-0.522811,-3.25482e-05,-2.09589,1.57053,1.57175,0.785017,-1.5708,-0.523599,5.9297e-08,-2.09439,1.5708,1.5708,0.785397,0.000272914,-5.75007e-05,0.0012117,-0.000241638,-0.000182974,0.000114328,-0.000146098,0,0,0,0,0,0,0,-0.454395,-10.2646,-0.432981,20.9439,0.830705,-0.72672,0.149424,-0.442999,-1.14546,0.00788165,2.40958,0.26066,-0.727078,0.179948
4090279,0.97,-1.57045,-0.522809,-3.27435e-05,-2.0959,1.57053,1.57175,0.785022,-1.5708,-0.523599,5.9297e-08,-2.09439,1.5708,1.5708,0.785397,0.000181943,0.00061128,0.000250991,-0.000810706,-0.000325433,7.62186e-05,0.00136066,0,0,0,0,0,0,0,-0.454395,-10.2924,-0.409177,20.9717,0.836199,-0.72672,0.110056,-0.443165,-1.14706,0.00770169,2.41087,0.260741,-0.727004,0.179869
4090280,0.97,-1.57045,-0.522809,-3.22518e-05,-2.09589,1.57053,1.57175,0.785018,-1.5708,-0.523599,5.9297e-08,-2.09439,1.5708,1.5708,0.785397,0.000678107,0.00040752,0.000167327,0.00122277,0.000393396,5.08124e-05,-0.000313594,0,0,0,0,0,0,0,-0.478199,-10.2924,-0.409177,20.8963,0.819719,-0.72672,0.143015,-0.444039,-1.14992,0.00647045,2.41269,0.26087,-0.726845,0.179857
4090281,0.97,-1.57045,-0.522809,-3.04174e-05,-2.0959,1.57053,1.57175,0.785019,-1.5708,-0.523599,5.9297e-08,-2.09439,1.5708,1.5708,0.785397,0.000452071,0.00027168,0.000668363,-0.00094806,5.88135e-05,0.000271234,6.22045e-05,0,0,0,0,0,0,0,-0.478199,-10.2924,-0.432981,20.9717,0.825212,-0.733129,0.135691,-0.445233,-1.15288,0.00484024,2.41422,0.261003,-0.726651,0.179876
4090282,0.97,-1.57045,-0.522809,-3.39821e-05,-2.0959,1.57053,1.57175,0.78502,-1.5708,-0.523599,5.9297e-08,-2.09439,1.5708,1.5708,0.785397,-0.000812243,0.00018112,-0.00076085,1.75742e-05,-0.000164242,0.00045209,0.000278829,0,0,0,0,0,0,0,-0.430592,-10.2924,-0.381406,20.9439,0.830705,-0.740453,0.129282,-0.446124,-1.15574,0.00367033,2.41573,0.261128,-0.726517,0.179907
4090283,0.97,-1.57045,-0.522809,-3.2015e-05,-2.09589,1.57053,1.57175,0.785015,-1.5708,-0.523599,5.9297e-08,-2.09439,1.5708,1.5708,0.785397,0.000572129,0.000120747,0.00014238,0.00112534,0.000297407,-0.000444592,-0.00127218,0,0,0,0,0,0,0,-0.478199,-10.2924,-0.409177,20.8963,0.819719,-0.720311,0.16865,-0.44611,-1.15775,0.00386391,2.41667,0.261198,-0.726533,0.179948
4090284,0.97,-1.57045,-0.522807,-3.39578e-05,-2.09589,1.57053,1.57175,0.78502,-1.5708,-0.523599,5.9297e-08,-2.09439,1.5708,1.5708,0.785397,-0.000732205,8.04978e-05,-0.000554694,-0.000363397,-5.1794e-06,-5.90357e-05,0.000847303,0,0,0,0,0,0,0,-0.430592,-10.2924,-0.381406,20.9439,0.825212,-0.72672,0.122873,-0.445612,-1.15834,0.00483261,2.41653,0.261204,-0.726626,0.180007
4090285,0.97,-1.57045,-0.522812,-3.03365e-05,-2.0959,1.57053,1.57175,0.785019,-1.5708,-0.523599,5.9297e-08,-2.09439,1.5708,1.5708,0.785397,6.86754e-05,-0.00115276,0.00083663,-0.000891879,-3.45293e-06,-3.93571e-05,9.01511e-05,0,0,0,0,0,0,0,-0.454395,-10.2408,-0.432981,20.9717,0.825212,-0.72672,0.135691,-0.445066,-1.15784,0.00581854,2.41609,0.261197,-0.726718,0.180092
4090286,0.97,-1.57045,-0.522809,-3.03358e-05,-2.09589,1.57053,1.57175,0.785022,-1.5708,-0.523599,5.9297e-08,-2.09439,1.5708,1.5708,0.785397,4.57836e-05,0.000437919,0.000557753,5.50281e-05,-2.30196e-06,-2.62381e-05,0.00100954,0,0,0,0,0,0,0,-0.454395,-10.2924,-0.432981,20.9439,0.825212,-0.72672,0.110056,-0.445105,-1.15659,0.00579389,2.41576,0.261216,-0.726712,0.18019
4090287,0.97,-1.57045,-0.522806,-3.39549e-05,-2.09589,1.57053,1.57175,0.78502,-1.5708,-0.523599,5.9297e-08,-2.09439,1.5708,1.5708,0.785397,0.000587334,0.00140557,-0.00083459,0.000593497,0.000439275,-1.74921e-05,-3.90525e-05,0,0,0,0,0,0,0,-0.478199,-10.34,-0.381406,20.9201,0.81331,-0.72672,0.129282,-0.445584,-1.15662,0.00510629,2.41587,0.261254,-0.726661,0.180277
4090288,0.97,-1.57045,-0.522808,-3.39548e-05,-2.0959,1.57053,1.57175,0.785022,-1.5708,-0.523599,5.9297e-08,-2.09439,1.5708,1.5708,0.785397,-0.00137168,0.000380235,-0.000556394,-0.000810761,-0.00035141,0.000225698,0.000686042,0,0,0,0,0,0,0,-0.402821,-10.3162,-0.381406,20.9717,0.830705,-0.733129,0.110056,-0.445276,-1.15917,0.00566789,2.41686,0.261273,-0.726764,0.180326
4090289,0.97,-1.57045,-0.522806,-3.39548e-05,-2.0959,1.57053,1.57175,0.785016,-1.5708,-0.523599,5.9297e-08,-2.09439,1.5708,1.5708,0.785397,0.000848783,0.000810302,-0.000370929,0.000109107,-3.08229e-05,0.000150465,-0.00147542,0,0,0,0,0,0,0,-0.478199,-10.34,-0.381406,20.9439,0.825212,-0.733129,0.162241,-0.444117,-1.16295,0.00750106,2.41848,0.261273,-0.727012,0.180327
4090290,0.97,-1.57045,-0.522809,-3.60853e-05,-2.09589,1.57053,1.57175,0.785017,-1.5708,-0.523599,5.9297e-08,-2.09439,1.5708,1.5708,0.785397,-0.000547768,-0.000573423,-0.000247286,0.00118636,-0.00042745,-0.000137049,-0.000508895,0,0,0,0,0,0,0,-0.430592,-10.2924,-0.381406,20.8963,0.836199,-0.72672,0.149424,-0.443058,-1.16539,0.00921869,2.41926,0.261242,-0.727234,0.180297
4090291,0.97,-1.57045,-0.522811,-3.46649e-05,-2.0959,1.57053,1.57175,0.785022,-1.5708,-0.523599,5.9297e-08,-2.09439,1.5708,1.5708,0.785397,-0.00101479,-0.0010319,-0.000164857,-0.00152914,0.000325385,-0.000328725,0.0011188,0,0,0,0,0,0,0,-0.402821,-10.2646,-0.381406,20.9955,0.819719,-0.720311,0.110056,-0.442091,-1.16459,0.0107601,2.41839,0.261165,-0.727403,0.180274
4090292,0.97,-1.57045,-0.522806,-3.41915e-05,-2.0959,1.57053,1.57175,0.78502,-1.5708,-0.523599,5.9297e-08,-2.09439,1.5708,1.5708,0.785397,0.000529897,0.000518495,-0.000109905,0.00074381,-0.000800329,1.8209e-05,3.37892e-05,0,0,0,0,0,0,0,-0.454395,-10.3162,-0.381406,20.9201,0.847185,-0.72672,0.129282,-0.441163,-1.1622,0.0121353,2.4171,0.261092,-0.727531,0.180267
4090293,0.97,-1.57045,-0.522807,-3.04144e-05,-2.0959,1.57053,1.57175,0.785017,-1.5708,-0.523599,5.9297e-08,-2.09439,1.5708,1.5708,0.785397,-0.000203547,0.000345664,0.00113316,-0.000710553,0.000280249,0.000249498,-0.000960818,0,0,0,0,0,0,0,-0.430592,-10.3162,-0.432981,20.9717,0.825212,-0.733129,0.155832,-0.441092,-1.16092,0.0121581,2.41642,0.26109,-0.727532,0.180257
4090294,0.97,-1.57045,-0.522809,-3.20322e-05,-2.0959,1.57053,1.57175,0.785019,-1.5708,-0.523599,5.9297e-08,-2.09439,1.5708,1.5708,0.785397,0.000421114,-0.00032637,0.000198625,0.000175912,0.000186833,-0.000308386,0.00010544,0,0,0,0,0,0,0,-0.454395,-10.2924,-0.409177,20.9439,0.825212,-0.720311,0.135691,-0.442088,-1.16067,0.0104889,2.41622,0.261169,-0.727375,0.180242
4090295,0.97,-1.57045,-0.522809,-3.39635e-05,-2.09589,1.57053,1.57175,0.785022,-1.5708,-0.523599,5.9297e-08,-2.09439,1.5708,1.5708,0.785397,-0.000276069,-0.00021758,-0.000517197,0.000117275,0.000565365,0.000269127,0.00101973,0,0,0,0,0,0,0,-0.430592,-10.2924,-0.381406,20.9439,0.81331,-0.733129,0.110056,-0.443188,-1.1598,0.00864736,2.41568,0.26125,-0.727186,0.180242
4090296,0.97,-1.57045,-0.522809,-3.75769e-05,-2.0959,1.57053,1.57175,0.785014,-1.5708,-0.523599,5.9297e-08,-2.09439,1.5708,1.5708,0.785397,0.000929578,-0.000145053,-0.00155122,7.81832e-05,0.00037691,0.000179418,-0.00172768,0,0,0,0,0,0,0,-0.478199,-10.2924,-0.329831,20.9439,0.81331,-0.733129,0.175059,-0.443384,-1.15812,0.00832643,2.41459,0.261264,-0.72712,0.18025
4090297,0.97,-1.57045,-0.522811,-3.77567e-05,-2.0959,1.57053,1.57175,0.785017,-1.5708,-0.523599,5.9297e-08,-2.09439,1.5708,1.5708,0.785397,-0.000493905,-0.000746316,-0.000384535,5.21221e-05,-0.000392987,-0.000117747,-0.000439709,0,0,0,0,0,0,0,-0.430592,-10.2646,-0.357602,20.9439,0.830705,-0.72672,0.155832,-0.442689,-1.15592,0.00955888,2.4132,0.261207,-0.727184,0.18026
4090298,0.97,-1.57045,-0.522808,-3.27164e-05,-2.0959,1.57053,1.57175,0.785022,-1.5708,-0.523599,5.9297e-08,-2.09439,1.5708,1.5708,0.785397,-0.00032927,0.000708882,0.000950069,3.47481e-05,-0.000261991,0.000158861,0.00140228,0,0,0,0,0,0,0,-0.430592,-10.3162,-0.409177,20.9439,0.830705,-0.733129,0.110056,-0.442006,-1.15388,0.010757,2.41192,0.26114,-0.727259,0.180307
4090299,0.97,-1.57045,-0.522809,-3.41916e-05,-2.0959,1.57053,1.57175,0.785014,-1.5708,-0.523599,5.9297e-08,-2.09439,1.5708,1.5708,0.785397,-0.000219514,-8.4224e-05,-1.62346e-05,2.31654e-05,2.87897e-05,-0.000131452,-0.00171,0,0,0,0,0,0,0,-0.430592,-10.2924,-0.381406,20.9439,0.825212,-0.72672,0.181467,-0.441961,-1.1533,0.0108187,2.41136,0.261122,-0.727264,0.180397
4090300,0.97,-1.57045,-0.522807,-3.20849e-05,-2.0959,1.57053,1.57175,0.78502,-1.5708,-0.523599,5.9297e-08,-2.09439,1.5708,1.5708,0.785397,-0.000146342,-5.61494e-05,0.000638791,-0.00063417,1.91932e-05,0.000420992,0.000792778,0,0,0,0,0,0,0,-0.430592,-10.2924,-0.409177,20.9717,0.825212,-0.740453,0.129282,-0.442358,-1.15373,0.0101055,2.41143,0.261149,-0.727219,0.180512
4090301,0.97,-1.57045,-0.522811,-3.56515e-05,-2.09589,1.57053,1.57175,0.785022,-1.5708,-0.523599,5.9297e-08,-2.09439,1.5708,1.5708,0.785397,0.00045925,-0.000687047,-0.000780565,0.000226834,-0.000190655,-0.000465324,0.00147795,0,0,0,0,0,0,0,-0.454395,-10.2646,-0.357602,20.9439,0.830705,-0.720311,0.103647,-0.44285,-1.15377,0.00925649,2.41153,0.26118,-0.727158,0.18066
4090302,0.97,-1.57045,-0.522811,-3.03442e-05,-2.0959,1.57053,1.57175,0.785018,-1.5708,-0.523599,5.9297e-08,-2.09439,1.5708,1.5708,0.785397,0.000306167,-0.000458031,0.00124286,0.000151222,-0.000127103,0.000164502,-0.000472759,0,0,0,0,0,0,0,-0.454395,-10.2646,-0.432981,20.9439,0.830705,-0.733129,0.143015,-0.443589,-1.15243,0.00811567,2.41095,0.261192,-0.72705,0.18082
4090303,0.97,-1.57045,-0.522809,-3.56281e-05,-2.0959,1.57053,1.57175,0.785017,-1.5708,-0.523599,5.9297e-08,-2.09439,1.5708,1.5708,0.785397,-0.00100231,0.00034426,-0.000934664,0.000100815,-8.47356e-05,-0.00036505,-0.000552532,0,0,0,0,0,0,0,-0.402821,-10.2924,-0.357602,20.9439,0.830705,-0.720311,0.149424,-0.444319,-1.15067,0.00696946,2.41004,0.261199,-0.72694,0.180952
4090304,0.97,-1.57045,-0.522808,-3.20069e-05,-2.0959,1.57053,1.57175,0.785022,-1.5708,-0.523599,5.9297e-08,-2.09439,1.5708,1.5708,0.785397,-1.85958e-05,0.000786318,0.000583317,-0.00113922,-5.64904e-05,0.000231351,0.00108971,0,0,0,0,0,0,0,-0.430592,-10.3162,-0.409177,20.9955,0.830705,-0.733129,0.110056,-0.444326,-1.15113,0.00680793,2.41031,0.261238,-0.72696,0.181056
4090305,0.97,-1.57045,-0.522809,-3.39551e-05,-2.09589,1.57053,1.57175,0.78502,-1.5708,-0.523599,5.9297e-08,-2.09439,1.5708,1.5708,0.785397,0.000544415,-0.000682214,-0.000260736,0.00156057,0.000369241,0.000425502,0.000251754,0,0,0,0,0,0,0,-0.454395,-10.2646,-0.381406,20.8963,0.819719,-0.740453,0.122873,-0.444149,-1.15289,0.00689474,2.41122,0.261303,-0.727018,0.181141
4090306,0.97,-1.57045,-0.522809,-3.2006e-05,-2.0959,1.57053,1.57175,0.785018,-1.5708,-0.523599,5.9297e-08,-2.09439,1.5708,1.5708,0.785397,0.000919755,0.000194805,0.00047579,-7.32422e-05,-0.000160741,1.24003e-05,-0.000578149,0,0,0,0,0,0,0,-0.478199,-10.2924,-0.409177,20.9439,0.830705,-0.733129,0.143015,-0.444579,-1.15305,0.00616804,2.411,0.261349,-0.726976,0.181196
4090307,0.97,-1.57045,-0.522811,-3.20059e-05,-2.09589,1.57053,1.57175,0.785022,-1.5708,-0.523599,5.9297e-08,-2.09439,1.5708,1.5708,0.785397,-0.000500454,-0.000519744,0.000317193,0.000507984,-0.00010716,8.26688e-06,0.00083527,0,0,0,0,0,0,0,-0.430592,-10.2646,-0.409177,20.9201,0.830705,-0.733129,0.110056,-0.445466,-1.15197,0.0048097,2.41,0.261384,-0.726867,0.181215
4090308,0.97,-1.57045,-0.522809,-3.03355e-05,-2.09589,1.57053,1.57175,0.785019,-1.5708,-0.523599,5.9297e-08,-2.09439,1.5708,1.5708,0.785397,-0.000333636,0.000303118,0.000768274,-0.000218156,-7.14402e-05,0.000276779,-0.000392589,0,0,0,0,0,0,0,-0.430592,-10.2924,-0.432981,20.9439,0.830705,-0.740453,0.135691,-0.44629,-1.15091,0.00341191,2.40913,0.261433,-0.726785,0.181202
4090309,0.97,-1.57045,-0.522808,-3.39548e-05,-2.09589,1.57053,1.57175,0.785017,-1.5708,-0.523599,5.9297e-08,-2.09439,1.5708,1.5708,0.785397,0.000334388,0.000758891,-0.000694243,0.000411375,-4.76268e-05,-0.000561466,-0.000770352,0,0,0,0,0,0,0,-0.454395,-10.3162,-0.381406,20.9201,0.830705,-0.720311,0.149424,-0.446715,-1.15114,0.00251511,2.40894,0.261502,-0.726793,0.181155
4090310,0.97,-1.57045,-0.522811,-3.56252e-05,-2.0959,1.57053,1.57175,0.78502,-1.5708,-0.523599,5.9297e-08,-2.09439,1.5708,1.5708,0.785397,-0.000333887,-0.000700499,-0.00101964,-0.000282562,-0.000235202,0.000371674,0.000469776,0,0,0,0,0,0,0,-0.430592,-10.2646,-0.357602,20.9439,0.836199,-0.740453,0.122873,-0.446284,-1.15235,0.00299427,2.40925,0.26156,-0.726947,0.181087
4090311,0.97,-1.57045,-0.522809,-3.2466e-05,-2.0959,1.57053,1.57175,0.78502,-1.5708,-0.523599,5.9297e-08,-2.09439,1.5708,1.5708,0.785397,0.000334221,0.000182615,0.00108348,-0.000188375,4.66494e-05,-2.34844e-05,7.58251e-05,0,0,0,0,0,0,0,-0.454395,-10.2924,-0.432981,20.9439,0.830705,-0.733129,0.129282,-0.445392,-1.153,0.00422076,2.40947,0.261609,-0.727168,0.181021
4090312,0.97,-1.57045,-0.522808,-3.46649e-05,-2.0959,1.57053,1.57175,0.785017,-1.5708,-0.523599,5.9297e-08,-2.09439,1.5708,1.5708,0.785397,0.000222814,0.000678555,-0.000484108,-0.000775197,0.00023455,-0.000253015,-0.000932794,0,0,0,0,0,0,0,-0.454395,-10.3162,-0.381406,20.9717,0.825212,-0.72672,0.155832,-0.445084,-1.1543,0.00453859,2.41027,0.261717,-0.727311,0.180953
4090313,0.97,-1.57045,-0.522808,-3.22426e-05,-2.09589,1.57053,1.57175,0.785019,-1.57079,-0.523597,2.5593e-06,-2.09439,1.5708,1.5708,0.785397,0.00135497,0.00045237,0.000326876,0.00180325,-0.000453985,6.86821e-05,0.000124122,0.00327601,0.00177767,0.0025,0.00165673,0.00155778,0.005,-0.000206637,-0.50597,-10.3162,-0.409177,20.8725,0.841692,-0.733129,0.135691,-0.44543,-1.15664,0.00397503,2.4114,0.261862,-0.727377,0.180892
4090314,0.97,-1.57045,-0.522809,-3.20848e-05,-2.0959,1.57053,1.57175,0.785022,-1.57079,-0.523593,7.5593e-06,-2.09439,1.5708,1.57081,0.785397,0.000253699,-0.000255232,0.000217917,-0.00167469,-9.9206e-05,-0.000191571,0.00126954,0.00655202,0.00355534,0.005,0.00331346,0.00311555,0.01,-0.000413274,-0.478199,-10.2924,-0.409177,20.9955,0.836199,-0.72672,0.103647,-0.446376,-1.15851,0.00268032,2.41201,0.262009,-0.727358,0.180857
4090315,0.97,-1.57045,-0.522809,-3.39811e-05,-2.09589,1.57053,1.57175,0.785015,-1.57078,-0.523588,1.50593e-05,-2.09438,1.57081,1.57083,0.785396,-0.00159411,-0.000170155,-0.000504336,0.000646775,0.000340764,-0.000127714,-0.00156114,0.00982804,0.00533301,0.0075,0.00497018,0.00467333,0.015,-0.000619911,-0.402821,-10.2924,-0.381406,20.9201,0.825212,-0.72672,0.16865,-0.446958,-1.15949,0.00193251,2.41242,0.262153,-0.727384,0.180832
4090316,0.97,-1.57045,-0.522809,-3.38903e-05,-2.0959,1.57053,1.57175,0.785021,-1.57076,-0.523581,2.50593e-05,-2.09438,1.57081,1.57085,0.785395,0.00211147,0.0010533,0.00244313,-0.00133205,-0.000179725,0.000152216,0.000892023,0.013104,0.00711068,0.01,0.00662691,0.00623111,0.02,-0.000826548,-0.402821,-10.213,-0.230649,20.9955,0.836199,-0.733129,0.116465,-0.447464,-1.16076,0.00119269,2.41321,0.26233,-0.727419,0.180804
4090317,0.97,-1.57045,-0.522813,-2.98238e-05,-2.09589,1.57053,1.57175,0.785018,-1.57075,-0.523572,3.75593e-05,-2.09437,1.57082,1.57087,0.785394,0.000832918,0.00100038,0.00318673,0.00031839,8.36337e-05,-0.000847958,-0.000388662,0.0163801,0.00888834,0.0125,0.00828364,0.00778889,0.025,-0.00103318,-0.101307,-9.9631,0.126407,20.9439,0.830705,-0.707494,0.143015,-0.450502,-1.16396,-0.00342929,2.41506,0.262646,-0.727089,0.180788
4090318,0.97,-1.57046,-0.522814,-1.60954e-05,-2.09589,1.57053,1.57175,0.785015,-1.57073,-0.523561,5.25593e-05,-2.09436,1.57083,1.5709,0.785393,-0.00109816,-0.00164386,0.00584012,0.000769072,0.000462657,-0.000327947,-0.00120854,0.0196561,0.010666,0.015,0.00994037,0.00934666,0.03,-0.00123982,0.402538,-9.7092,0.554873,20.9201,0.819719,-0.713903,0.16865,-0.456383,-1.16585,-0.0126566,2.41625,0.263069,-0.726267,0.180791
4090319,0.98,-1.57046,-0.522815,-9.13702e-07,-2.09589,1.57053,1.57175,0.785017,-1.5707,-0.523549,7.00593e-05,-2.09435,1.57084,1.57094,0.785391,-0.000166721,-0.00434287,0.00970829,-0.00125052,0.000545797,1.87279e-05,-0.000330978,0.0229321,0.0124437,0.0175,0.0115971,0.0109044,0.035,-0.00144646,0.831005,-9.40768,1.06269,20.9955,0.81331,-0.720311,0.155832,-0.4646,-1.15962,-0.0263399,2.41402,0.263526,-0.72484,0.18083
4090320,0.99,-1.57046,-0.522802,2.43072e-05,-2.09589,1.57053,1.57175,0.78502,-1.57068,-0.523535,9.00593e-05,-2.09434,1.57085,1.57098,0.78539,0.00175063,0.00134257,0.0148084,0.00148637,0.000567315,-0.000224874,0.000762692,0.0262081,0.0142214,0.02,0.0132538,0.0124622,0.04,-0.0016531,1.36262,-9.30453,1.49115,20.8963,0.807817,-0.713903,0.129282,-0.47686,-1.14666,-0.0476185,2.40961,0.264147,-0.722433,0.180937
4090321,1,-1.57045,-0.522795,5.26889e-05,-2.09588,1.57054,1.57176,0.78502,-1.57065,-0.523519,0.000112559,-2.09432,1.57087,1.57102,0.785388,0.00618845,0.00366945,0.0195226,0.00154772,0.00142937,-0.000387275,0.00074582,0.0294841,0.015999,0.0225,0.0149106,0.01402,0.045,-0.00185973,1.79109,-9.12601,1.89582,20.8725,0.779436,-0.707494,0.122873,-0.495551,-1.13687,-0.0804,2.40703,0.265152,-0.718666,0.181116
4090322,1,-1.57045,-0.522785,8.32378e-05,-2.09588,1.57053,1.57176,0.785017,-1.57062,-0.523501,0.000137559,-2.0943,1.57088,1.57107,0.785386,0.00146781,0.00448087,0.0205625,-8.18081e-05,-0.000539056,0.00119988,-0.00072349,0.0327601,0.0177767,0.025,0.0165673,0.0155778,0.05,-0.00206637,2.29493,-9.02682,2.27667,20.9201,0.819719,-0.746862,0.155832,-0.519005,-1.13619,-0.122752,2.40917,0.266594,-0.71369,0.181327
4090323,1,-1.57044,-0.522777,0.000117112,-2.09588,1.57053,1.57177,0.785023,-1.57058,-0.52348,0.000167559,-2.09428,1.5709,1.57113,0.785383,0.00431849,0.00299077,0.0199339,0.000502273,-0.00117317,0.001512,0.00168781,0.0384857,0.0208229,0.03,0.0194106,0.018265,0.06,-0.00238563,2.67183,-8.8483,2.58216,20.8963,0.841692,-0.766088,0.0972387,-0.540572,-1.14158,-0.165412,2.41551,0.268262,-0.708299,0.181538
4090324,1,-1.57043,-0.522765,0.000148478,-2.09588,1.57053,1.57178,0.785022,-1.57053,-0.523456,0.000202559,-2.09426,1.57092,1.5712,0.785381,0.0059443,0.00694607,0.0225682,-0.000778775,-0.000782115,0.000295921,0.000887849,0.0442112,0.023869,0.035,0.0222539,0.0209523,0.07,-0.0027049,2.92573,-8.74911,2.88367,20.9439,0.841692,-0.746862,0.103647,-0.556027,-1.14981,-0.202238,2.42491,0.270004,-0.702973,0.181728
4090325,1,-1.57042,-0.522761,0.000183928,-2.09588,1.57053,1.57179,0.785017,-1.57048,-0.523429,0.000242559,-2.09424,1.57095,1.57128,0.785378,0.00745325,0.00655728,0.0259976,0.00205059,-0.00052141,0.00369027,-0.00134088,0.0499368,0.0269152,0.04,0.0250972,0.0236396,0.08,-0.00302416,3.15187,-8.52298,3.11377,20.9717,0.841692,-0.713903,0.155832,-0.56552,-1.161,-0.233665,2.43706,0.271867,-0.697644,0.181862
4090326,1,-1.5704,-0.52275,0.000215158,-2.09587,1.57053,1.5718,0.785016,-1.57043,-0.523399,0.000287559,-2.09421,1.57097,1.57137,0.785374,0.0145637,0.0105201,0.0281962,0.00412676,-0.000347607,0.00166619,-0.00113128,0.0556623,0.0299614,0.045,0.0279405,0.0263269,0.09,-0.00334342,3.378,-8.34445,3.49066,20.9955,0.841692,-0.681859,0.162241,-0.570969,-1.17363,-0.262536,2.4501,0.273881,-0.691996,0.181938
4090327,1,-1.57037,-0.522739,0.000252472,-2.09586,1.57053,1.5718,0.785018,-1.57037,-0.523366,0.000337559,-2.09418,1.571,1.57147,0.785371,0.0174708,0.0090416,0.0326221,0.00800474,-0.000231738,0.0013386,-4.21093e-05,0.0613879,0.0330075,0.05,0.0307839,0.0290141,0.1,-0.00366269,3.70729,-8.09055,4.02228,20.9201,0.841692,-0.553685,0.143015,-0.575205,-1.1839,-0.29246,2.46105,0.276016,-0.685518,0.182018
4090328,1,-1.57035,-0.522723,0.000301824,-2.09585,1.57054,1.5718,0.785014,-1.5703,-0.52333,0.000392559,-2.09414,1.57103,1.57158,0.785367,0.0178168,0.0102261,0.0394448,0.00777986,0.000896669,0.000948266,-0.00121487,0.0671134,0.0360537,0.055,0.0336272,0.0317014,0.11,-0.00398195,4.2389,-7.81284,4.5539,20.9717,0.81331,-0.411779,0.175059,-0.579892,-1.18683,-0.325901,2.46749,0.278255,-0.677777,0.182155
4090329,1,-1.57033,-0.522701,0.000357501,-2.09584,1.57054,1.57181,0.785014,-1.57023,-0.523291,0.000452559,-2.09411,1.57107,1.5717,0.785362,0.0233536,0.0121049,0.0442777,0.00533014,0.00100468,0.00749701,-0.00104727,0.072839,0.0390999,0.06,0.0364705,0.0343887,0.12,-0.00430122,4.71498,-7.55893,5.11328,20.9955,0.802324,-0.321141,0.181467,-0.585483,-1.18337,-0.363936,2.47163,0.280732,-0.668498,0.182363
4090330,1,-1.57028,-0.522671,0.000414726,-2.09582,1.57056,1.57184,0.785022,-1.57015,-0.523249,0.000517559,-2.09407,1.5711,1.57183,0.785358,0.0289574,0.0157192,0.0468136,0.00681238,0.00338246,0.0144048,0.00194668,0.0785646,0.042146,0.065,0.0393138,0.0370759,0.13,-0.00462048,4.99269,-7.40817,5.72028,21.0193,0.729082,-0.282689,0.110056,-0.59154,-1.18043,-0.405599,2.47845,0.283593,-0.657586,0.182648
4090331,1,-1.57023,-0.522644,0.000473968,-2.09581,1.57057,1.57186,0.785016,-1.57006,-0.523204,0.000587559,-2.09403,1.57114,1.57197,0.785353,0.0320375,0.0194054,0.0490677,0.00673311,0.00395039,0.0177857,0.000585707,0.0842901,0.0451922,0.07,0.0421571,0.0397632,0.14,-0.00493974,5.29817,-7.18204,6.20032,21.0947,0.683306,-0.199376,0.129282,-0.59555,-1.1834,-0.446358,2.4906,0.286748,-0.645255,0.182992
4090332,1,-1.57017,-0.52261,0.000535173,-2.09579,1.57058,1.5719,0.785021,-1.56997,-0.523156,0.000662559,-2.09398,1.57119,1.57212,0.785348,0.0396964,0.0214593,0.0505623,0.0104145,0.00198934,0.0217847,0.00110255,0.0900157,0.0482384,0.075,0.0450005,0.0424505,0.15,-0.00525901,5.5243,-7.03128,6.68036,21.1423,0.700701,-0.1536,0.110056,-0.594816,-1.19306,-0.481218,2.50767,0.289939,-0.631731,0.18334
4090333,1,-1.57011,-0.522579,0.000603532,-2.09578,1.57058,1.57195,0.785018,-1.56988,-0.523103,0.000745059,-2.09393,1.57123,1.57229,0.785342,0.0455569,0.0241247,0.0544188,0.0108733,0.00371373,0.0300056,-0.000214403,0.0975572,0.0521452,0.0825,0.0486547,0.0461813,0.164879,-0.00563399,5.72663,-6.82895,7.03742,21.2931,0.762956,-0.121556,0.135691,-0.588966,-1.20602,-0.508542,2.52737,0.292939,-0.616943,0.183649
4090334,1,-1.57004,-0.522546,0.000675297,-2.09576,1.57059,1.57201,0.785016,-1.56977,-0.523047,0.000835059,-2.09388,1.57128,1.57247,0.785336,0.0558663,0.0276043,0.058455,0.013181,0.00517971,0.0409893,-0.000888921,0.105099,0.056052,0.09,0.0523089,0.049912,0.179759,-0.00600898,5.9012,-6.67422,7.33893,21.3684,0.830705,-0.0959217,0.155832,-0.579766,-1.22046,-0.530106,2.54874,0.29574,-0.600663,0.183898
4090335,1,-1.56996,-0.522511,0.00074616,-2.09574,1.5706,1.57208,0.785,-1.56966,-0.522987,0.000932559,-2.09382,1.57134,1.57266,0.78533,0.064185,0.0302494,0.0615929,0.015563,0.00693995,0.0510162,-0.00513634,0.11264,0.0599588,0.0975,0.0559631,0.0536428,0.194638,-0.00638397,5.95277,-6.52347,7.62061,21.416,0.881059,-0.121556,0.278513,-0.569467,-1.23588,-0.548512,2.57155,0.29849,-0.582708,0.1841
4090336,1,-1.56986,-0.522473,0.000820229,-2.0957,1.57061,1.57217,0.784991,-1.56954,-0.522924,0.00103756,-2.09377,1.57139,1.57287,0.785323,0.0757315,0.0342302,0.0679142,0.0192011,0.00868174,0.068106,-0.00583173,0.120182,0.0638656,0.105,0.0596173,0.0573736,0.209518,-0.00675895,5.87739,-6.34891,7.9975,21.3922,0.926836,-0.1536,0.343516,-0.560177,-1.25093,-0.566291,2.59473,0.301382,-0.563001,0.184351
4090337,1,-1.56977,-0.522431,0.000906479,-2.09567,1.57063,1.57228,0.784985,-1.56941,-0.522856,0.00115006,-2.0937,1.57145,1.57309,0.785316,0.0795717,0.0363864,0.077633,0.0227329,0.0117049,0.0834014,-0.00483725,0.127723,0.0677724,0.1125,0.0632715,0.0611044,0.224397,-0.00713394,6.12733,-6.1188,8.42993,21.4438,0.926836,-0.140783,0.36915,-0.554311,-1.26377,-0.58708,2.61691,0.304657,-0.541536,0.18484
4090338,1,-1.56968,-0.522387,0.00100476,-2.09564,1.57066,1.5724,0.78498,-1.56928,-0.522784,0.00127006,-2.09364,1.57152,1.57333,0.785308,0.0837504,0.0401276,0.0848717,0.0261464,0.019388,0.0983613,-0.00441163,0.135265,0.0716792,0.12,0.0669257,0.0648351,0.239276,-0.00750893,6.45662,-5.86887,8.8584,21.4676,0.898454,-0.108739,0.401194,-0.552183,-1.27229,-0.61196,2.63679,0.308455,-0.518596,0.185765
4090339,1,-1.56957,-0.522332,0.00109823,-2.09561,1.57068,1.57254,0.784977,-1.56913,-0.522708,0.00139756,-2.09356,1.57159,1.57359,0.7853,0.0940998,0.0452292,0.0869895,0.0269183,0.0233751,0.108435,-0.00270373,0.142807,0.075586,0.1275,0.0705799,0.0685659,0.254156,-0.00788392,6.65895,-5.71414,9.44159,21.5668,0.915849,-0.147191,0.394785,-0.551466,-1.27836,-0.637282,2.65566,0.312763,-0.494736,0.187249
4090340,1,-1.56946,-0.522269,0.00120205,-2.09556,1.57073,1.5727,0.784988,-1.56898,-0.522629,0.00153256,-2.09349,1.57166,1.57386,0.785292,0.100828,0.0484449,0.0928184,0.0336804,0.0283164,0.124811,0.00226653,0.150348,0.0794929,0.135,0.0742341,0.0722967,0.269035,-0.0082589,7.03584,-5.63876,9.99701,21.543,0.881059,-0.179235,0.284922,-0.549939,-1.2845,-0.658633,2.67497,0.317468,-0.470424,0.18935
4090341,1,-1.56933,-0.522206,0.00132203,-2.09551,1.57078,1.57288,0.784997,-1.56882,-0.522546,0.00167506,-2.09341,1.57174,1.57414,0.785283,0.106692,0.0523677,0.102766,0.038762,0.0328419,0.141905,0.00439323,0.15789,0.0833997,0.1425,0.0778883,0.0760275,0.283914,-0.00863389,7.38893,-5.53958,10.4532,21.5152,0.819719,-0.205785,0.207102,-0.547113,-1.28784,-0.675068,2.69238,0.32242,-0.445871,0.192024
4090342,1,-1.56919,-0.522141,0.00143887,-2.09547,1.57083,1.57308,0.784995,-1.56866,-0.522458,0.00182506,-2.09333,1.57182,1.57444,0.785274,0.117675,0.0557042,0.109553,0.0394067,0.0403479,0.163184,0.0024541,0.165431,0.0873065,0.15,0.0815426,0.0797582,0.298794,-0.00900888,7.46431,-5.43643,10.9373,21.6144,0.773943,-0.346776,0.219919,-0.544304,-1.28662,-0.68905,2.707,0.327583,-0.421063,0.195072
4090343,1,-1.56904,-0.522073,0.001563,-2.09541,1.57088,1.57332,0.784994,-1.56848,-0.522367,0.00198505,-2.09325,1.5719,1.57476,0.785265,0.127219,0.0599682,0.112925,0.0409965,0.0440734,0.184302,0.00112744,0.174021,0.0917472,0.15999,0.0857073,0.0841899,0.31596,-0.00940557,7.59126,-5.30948,11.3419,21.666,0.773943,-0.507909,0.233652,-0.541646,-1.28384,-0.700498,2.72194,0.332941,-0.396249,0.198233
4090344,1,-1.5689,-0.522008,0.00169282,-2.09536,1.57095,1.57355,0.785001,-1.5683,-0.52227,0.00215503,-2.09316,1.57199,1.57509,0.785255,0.132341,0.0584464,0.118173,0.0455642,0.0433362,0.199138,0.00339649,0.182611,0.0961879,0.16998,0.089872,0.0886217,0.333125,-0.00980226,7.81739,-5.10715,11.6434,21.7176,0.745561,-0.520726,0.162241,-0.536297,-1.27748,-0.704544,2.73731,0.338257,-0.372149,0.201338
4090345,1,-1.56874,-0.521939,0.00182167,-2.0953,1.57101,1.57381,0.784998,-1.56811,-0.52217,0.002335,-2.09306,1.57208,1.57544,0.785245,0.138676,0.0623339,0.122276,0.047223,0.0497427,0.216732,0.00107753,0.1912,0.100629,0.17997,0.0940367,0.0930534,0.350291,-0.010199,7.89674,-4.95639,11.9211,21.8405,0.784929,-0.456639,0.194285,-0.524768,-1.26085,-0.695924,2.75006,0.343206,-0.349507,0.204289
4090346,1,-1.56856,-0.521862,0.00195201,-2.09523,1.57108,1.57408,0.784986,-1.56791,-0.522065,0.00252496,-2.09296,1.57218,1.57581,0.785234,0.148924,0.0685842,0.127347,0.0550688,0.0549698,0.231568,-0.00827918,0.19979,0.105069,0.18996,0.0982014,0.0974851,0.367457,-0.0105956,8.01973,-4.85721,12.3774,21.6898,0.819719,-0.411779,0.304148,-0.505953,-1.23535,-0.672907,2.7601,0.347651,-0.328654,0.207003
4090347,1,-1.5684,-0.521783,0.00209704,-2.09516,1.57115,1.57437,0.784985,-1.5677,-0.521955,0.00272491,-2.09286,1.57228,1.57619,0.785223,0.155751,0.0701955,0.135658,0.060868,0.0606593,0.247246,-0.00498072,0.20838,0.10951,0.19995,0.102366,0.101917,0.384623,-0.0109923,8.32521,-4.73026,12.782,21.666,0.807817,-0.359594,0.278513,-0.482027,-1.20378,-0.638505,2.7669,0.351608,-0.309277,0.209498
4090348,1,-1.56822,-0.521697,0.00225344,-2.09509,1.57124,1.5747,0.78498,-1.56749,-0.521841,0.00293485,-2.09275,1.57239,1.57659,0.785212,0.164144,0.0743331,0.142279,0.0634122,0.0653579,0.266975,-0.00887925,0.216969,0.113951,0.20994,0.106531,0.106349,0.401788,-0.011389,8.7021,-4.62711,13.2899,21.7176,0.779436,-0.392553,0.291331,-0.455588,-1.16485,-0.596839,2.76925,0.35519,-0.290828,0.211892
4090349,1,-1.56802,-0.521602,0.002405,-2.09501,1.57132,1.57504,0.784975,-1.56726,-0.521723,0.00315478,-2.09264,1.5725,1.57701,0.7852,0.172261,0.0821547,0.148,0.0694176,0.0728811,0.288949,-0.0113382,0.225559,0.118391,0.21993,0.110696,0.11078,0.418954,-0.0117857,8.95601,-4.6033,13.9246,21.5906,0.757463,-0.495092,0.291331,-0.426981,-1.12345,-0.548859,2.76994,0.35857,-0.27317,0.214268
4090350,1,-1.56782,-0.521505,0.00257368,-2.09492,1.57142,1.5754,0.784976,-1.56703,-0.5216,0.0033847,-2.09253,1.57261,1.57745,0.785188,0.177578,0.0852659,0.151921,0.0731704,0.0811261,0.307343,-0.00653082,0.234149,0.122832,0.22992,0.11486,0.115212,0.43612,-0.0121824,9.3329,-4.55173,14.4562,21.6144,0.677812,-0.546361,0.240061,-0.393903,-1.08604,-0.491402,2.77184,0.361758,-0.256638,0.216657
4090351,1,-1.56761,-0.521404,0.00275779,-2.09484,1.57153,1.57578,0.784984,-1.56678,-0.521473,0.00362461,-2.09241,1.57273,1.5779,0.785175,0.186081,0.0918164,0.162053,0.0760306,0.0913033,0.327856,-0.000904144,0.242738,0.127273,0.23991,0.119025,0.119644,0.453286,-0.0125791,9.68599,-4.47635,14.9363,21.6422,0.610063,-0.63059,0.129282,-0.354874,-1.05461,-0.422636,2.77619,0.364673,-0.241452,0.219039
4090352,1,-1.5674,-0.521305,0.00294371,-2.09475,1.57164,1.57619,0.784978,-1.56653,-0.521341,0.00387451,-2.09229,1.57286,1.57837,0.785162,0.193305,0.0932745,0.16686,0.0784925,0.102284,0.349113,-0.00231335,0.251328,0.131713,0.2499,0.12319,0.124075,0.470451,-0.0129758,10.0629,-4.3494,15.4163,21.666,0.581682,-0.746862,0.162241,-0.310967,-1.02887,-0.344647,2.78391,0.367265,-0.227472,0.221305
4090353,1,-1.56718,-0.521194,0.00313357,-2.09465,1.57176,1.57661,0.784975,-1.56627,-0.521205,0.0041344,-2.09216,1.57299,1.57886,0.785149,0.20324,0.0993909,0.171244,0.084657,0.109106,0.372173,-0.00285908,0.260321,0.136425,0.25989,0.127626,0.128836,0.488345,-0.0133746,10.3406,-4.30179,15.8488,21.6422,0.581682,-0.810948,0.187876,-0.261812,-1.00584,-0.256977,2.79384,0.369342,-0.214827,0.223305
4090354,1,-1.56695,-0.521075,0.00332771,-2.09454,1.57188,1.57705,0.784972,-1.566,-0.521063,0.00440428,-2.09203,1.57312,1.57937,0.785135,0.210407,0.104096,0.178331,0.0919025,0.11471,0.392272,-0.00313105,0.269314,0.141138,0.26988,0.132061,0.133597,0.506239,-0.0137733,10.5945,-4.30179,16.2534,21.6422,0.581682,-0.817357,0.213511,-0.206409,-0.98309,-0.158175,2.80347,0.370708,-0.203805,0.224978
4090355,1,-1.5667,-0.52096,0.00353747,-2.09442,1.57201,1.57751,0.784964,-1.56572,-0.520918,0.00468415,-2.09189,1.57326,1.57989,0.785121,0.220885,0.107332,0.190279,0.0974616,0.113244,0.40905,-0.0049389,0.278306,0.14585,0.27987,0.136497,0.138358,0.524133,-0.0141721,10.6699,-4.25021,16.5073,21.4914,0.610063,-0.766088,0.284922,-0.147494,-0.95798,-0.0529462,2.81032,0.371421,-0.194055,0.226386
4090356,1,-1.56646,-0.520838,0.00375132,-2.09431,1.57214,1.57799,0.784948,-1.56544,-0.520767,0.00497401,-2.09175,1.5734,1.58043,0.785107,0.228786,0.113489,0.19529,0.10129,0.117122,0.427634,-0.0125015,0.287299,0.150562,0.28986,0.140933,0.143118,0.542026,-0.0145708,10.8206,-4.14706,16.7573,21.4914,0.627458,-0.707494,0.401194,-0.0887256,-0.929447,0.0526544,2.81414,0.371729,-0.184953,0.227652
4090357,1,-1.56621,-0.520709,0.00396208,-2.09419,1.57228,1.5785,0.784948,-1.56514,-0.520612,0.00527386,-2.0916,1.57355,1.58099,0.785092,0.235373,0.119455,0.201677,0.109506,0.125066,0.448565,-0.0170981,0.296292,0.155274,0.29985,0.145369,0.147879,0.55992,-0.0149696,10.9714,-4.09946,17.0389,21.3922,0.643938,-0.707494,0.362742,-0.0289177,-0.900737,0.160344,2.81648,0.371751,-0.176556,0.228966
4090358,1,-1.56595,-0.520576,0.00419304,-2.09406,1.57242,1.57904,0.784951,-1.56484,-0.520452,0.0055837,-2.09145,1.5737,1.58157,0.785076,0.2417,0.123751,0.211383,0.113607,0.128388,0.475158,-0.0140071,0.305285,0.159986,0.30984,0.149805,0.15264,0.577814,-0.0153684,11.0745,-3.99631,17.2413,21.3684,0.610063,-0.772496,0.265696,0.034569,-0.873297,0.273788,2.81742,0.371503,-0.169139,0.230523
4090359,1,-1.56568,-0.520429,0.00443785,-2.09393,1.57258,1.57959,0.784947,-1.56452,-0.520287,0.00590353,-2.0913,1.57386,1.58217,0.78506,0.249514,0.131092,0.217925,0.116967,0.137129,0.503221,-0.00895305,0.314277,0.164698,0.31983,0.154241,0.157401,0.595708,-0.0157671,11.1499,-3.99631,17.4674,21.3446,0.524919,-0.785314,0.219919,0.102251,-0.849086,0.393253,2.81848,0.371131,-0.16278,0.232367
4090360,1,-1.56541,-0.520281,0.00468841,-2.09379,1.57274,1.58018,0.784947,-1.5642,-0.520118,0.00623335,-2.09114,1.57402,1.58278,0.785044,0.257717,0.135383,0.231266,0.124142,0.143583,0.523737,-0.00747117,0.32327,0.169411,0.32982,0.158677,0.162162,0.613601,-0.0161659,11.2769,-4.02011,17.5944,21.2455,0.440691,-0.817357,0.103647,0.172457,-0.83049,0.516053,2.82151,0.370753,-0.157285,0.234373
4090361,1,-1.56512,-0.520125,0.0049403,-2.09364,1.5729,1.58079,0.784947,-1.56387,-0.519944,0.00657316,-2.09098,1.57419,1.58341,0.785028,0.264704,0.14016,0.237334,0.127992,0.153275,0.552171,-0.00276311,0.332263,0.174123,0.33981,0.163113,0.166922,0.631495,-0.0165646,11.2491,-4.04788,17.8483,21.2177,0.462663,-0.913488,0.0130102,0.242787,-0.814923,0.638594,2.82508,0.370267,-0.152272,0.236335
4090362,1,-1.56484,-0.519966,0.00521074,-2.09349,1.57308,1.58141,0.78494,-1.56352,-0.519765,0.00692296,-2.09081,1.57436,1.58406,0.785011,0.272305,0.14666,0.246224,0.134416,0.162978,0.576311,-0.00174708,0.341256,0.178835,0.3498,0.167548,0.171683,0.649389,-0.0169634,11.3522,-4.07169,17.9475,21.1701,0.435198,-0.97849,-0.0126246,0.3138,-0.800636,0.761983,2.82818,0.369443,-0.14787,0.237976
4090363,1,-1.56454,-0.519812,0.00548966,-2.09334,1.57326,1.58206,0.784921,-1.56317,-0.519581,0.00728275,-2.09064,1.57454,1.58473,0.784993,0.281857,0.147632,0.259604,0.138193,0.16875,0.59319,-0.00370443,0.350097,0.183607,0.35979,0.172066,0.176543,0.667097,-0.017354,11.3999,-3.99631,18.0228,21.1701,0.446184,-1.04258,0.038645,0.384157,-0.785492,0.884575,2.82989,0.368198,-0.143943,0.239037
4090364,1,-1.56423,-0.519648,0.00577491,-2.09318,1.57343,1.58273,0.784912,-1.56281,-0.519393,0.00765253,-2.09046,1.57472,1.58541,0.784976,0.289136,0.154067,0.265803,0.14556,0.172862,0.621411,-0.00723497,0.358938,0.188378,0.36978,0.176585,0.181403,0.684806,-0.0177447,11.4276,-3.9725,18.2529,21.1185,0.462663,-1.09385,0.0258276,0.450973,-0.764914,1.00222,2.8282,0.366571,-0.14011,0.239398
4090365,1,-1.56391,-0.51948,0.00607508,-2.09302,1.57362,1.5834,0.784891,-1.56245,-0.5192,0.0080323,-2.09028,1.5749,1.58611,0.784958,0.303286,0.157428,0.273613,0.152409,0.176934,0.632357,-0.00703846,0.367779,0.19315,0.37977,0.181103,0.186263,0.702514,-0.0181353,11.503,-3.9725,18.3521,21.1423,0.462663,-0.997716,0.0651953,0.514173,-0.737261,1.11557,2.82168,0.364542,-0.136473,0.239079
4090366,1,-1.5636,-0.519312,0.0063905,-2.09285,1.5738,1.5841,0.784869,-1.56207,-0.519002,0.00842206,-2.0901,1.57509,1.58684,0.784939,0.302782,0.160188,0.28736,0.157687,0.179035,0.646388,-0.0122632,0.376621,0.197922,0.38976,0.185621,0.191123,0.720223,-0.018526,11.7053,-3.89713,18.3521,21.1701,0.474565,-0.913488,0.129282,0.573407,-0.700546,1.2244,2.80908,0.362136,-0.132889,0.238178
4090367,1,-1.56327,-0.519133,0.00670618,-2.09267,1.57399,1.58483,0.784843,-1.56169,-0.518799,0.00882181,-2.0899,1.57529,1.58757,0.78492,0.310998,0.166908,0.298199,0.16733,0.174229,0.675198,-0.0162904,0.385462,0.202693,0.39975,0.190139,0.195983,0.737931,-0.0189166,11.7807,-3.89713,18.4791,21.0947,0.542314,-0.940038,0.200693,0.629001,-0.65399,1.32783,2.79006,0.359512,-0.129224,0.236863
4090368,1,-1.56294,-0.518953,0.00702853,-2.09248,1.57419,1.58558,0.784825,-1.56129,-0.518591,0.00923155,-2.08971,1.57549,1.58833,0.784901,0.319863,0.169632,0.304242,0.176113,0.182394,0.697217,-0.0163261,0.394303,0.207465,0.40974,0.194657,0.200843,0.755639,-0.0193073,11.8799,-3.84555,18.5544,21.0709,0.547807,-1.04258,0.194285,0.682923,-0.59863,1.42802,2.76399,0.356755,-0.12571,0.235354
4090369,1,-1.56259,-0.518753,0.00737016,-2.09229,1.57441,1.58634,0.784804,-1.56089,-0.518379,0.00965128,-2.08951,1.5757,1.5891,0.784881,0.326097,0.179263,0.31893,0.179937,0.186176,0.717051,-0.0162275,0.403145,0.212237,0.41973,0.199175,0.205703,0.773348,-0.0196979,11.8045,-3.94473,18.5822,21.0431,0.491045,-1.04899,0.181467,0.735954,-0.538596,1.52627,2.73261,0.353982,-0.12244,0.233855
4090370,1,-1.56223,-0.518557,0.00772312,-2.0921,1.57463,1.58712,0.784783,-1.56048,-0.518162,0.010081,-2.08931,1.57591,1.58989,0.784861,0.337086,0.185889,0.32853,0.185075,0.189613,0.730188,-0.0208074,0.411986,0.217008,0.42972,0.203693,0.210563,0.791056,-0.0200886,11.7529,-4.02011,18.5544,21.0431,0.412309,-1.01694,0.162241,0.785944,-0.485032,1.61912,2.70285,0.351545,-0.119128,0.23249
4090371,1,-1.56186,-0.518347,0.00807956,-2.0919,1.57485,1.58793,0.784758,-1.56005,-0.51794,0.0105207,-2.0891,1.57612,1.5907,0.784841,0.343389,0.190929,0.335961,0.187059,0.194815,0.754923,-0.0210267,0.420827,0.22178,0.43971,0.208211,0.215423,0.808765,-0.0204792,11.7807,-4.17484,18.6338,20.9955,0.383928,-1.01694,0.175059,0.832204,-0.445118,1.70582,2.68009,0.349583,-0.115705,0.231296
4090372,1,-1.56151,-0.518136,0.00846055,-2.0917,1.57507,1.58874,0.78474,-1.55963,-0.517714,0.0109704,-2.08889,1.57634,1.59153,0.78482,0.348335,0.196954,0.346652,0.1873,0.201536,0.77402,-0.0229529,0.429668,0.226552,0.4497,0.212729,0.220283,0.826473,-0.0208698,12.0584,-4.25021,18.5068,20.9955,0.417803,-1.01053,0.116465,0.877962,-0.420405,1.79135,2.66725,0.347945,-0.112657,0.230246
4090373,1,-1.56113,-0.517928,0.00883597,-2.09149,1.5753,1.58959,0.784714,-1.55919,-0.517483,0.0114301,-2.08867,1.57657,1.59237,0.784798,0.352964,0.199103,0.357575,0.192601,0.208431,0.789316,-0.0225725,0.437866,0.231211,0.45969,0.217182,0.225097,0.843499,-0.0212491,12.1338,-4.27402,18.5068,21.0193,0.400408,-1.07462,0.135691,0.925404,-0.408538,1.87828,2.66446,0.346463,-0.110192,0.22929
4090374,1,-1.56073,-0.517713,0.00923428,-2.09128,1.57554,1.59044,0.784689,-1.55874,-0.517247,0.0118998,-2.08845,1.5768,1.59323,0.784777,0.37179,0.20266,0.36782,0.204133,0.217894,0.812853,-0.0234224,0.446064,0.23587,0.46968,0.221634,0.229911,0.860526,-0.0216284,11.983,-4.32559,18.5306,20.9717,0.378435,-1.02976,0.181467,0.971888,-0.397701,1.9626,2.66404,0.344885,-0.107721,0.228386
4090375,1,-1.56033,-0.517489,0.00964032,-2.09106,1.57579,1.59131,0.78466,-1.55829,-0.517006,0.0123794,-2.08822,1.57703,1.59411,0.784755,0.383572,0.208295,0.382839,0.208452,0.221567,0.824874,-0.0241211,0.454262,0.240529,0.47967,0.226086,0.234726,0.877552,-0.0220077,11.9553,-4.37717,18.5306,21.0193,0.339067,-0.959264,0.233652,1.01019,-0.378316,2.03446,2.65833,0.343119,-0.1041,0.227543
4090376,1,-1.55992,-0.517267,0.010065,-2.09083,1.57603,1.59222,0.784639,-1.55782,-0.516761,0.0128691,-2.08799,1.57727,1.595,0.784732,0.391752,0.210977,0.394776,0.213805,0.225833,0.849749,-0.0215744,0.46246,0.245188,0.48966,0.230539,0.23954,0.894578,-0.0223869,12.0822,-4.40097,18.5068,20.9717,0.383928,-1.08744,0.207102,1.03583,-0.35046,2.08727,2.64707,0.341298,-0.098645,0.226828
4090377,1,-1.55951,-0.517031,0.0104957,-2.0906,1.57627,1.59314,0.784613,-1.55735,-0.516511,0.0133688,-2.08776,1.57752,1.59592,0.78471,0.397609,0.218581,0.406315,0.219282,0.232906,0.8699,-0.0252499,0.470658,0.249847,0.49965,0.234991,0.244354,0.911604,-0.0227662,12.2092,-4.50412,18.5068,20.8725,0.451677,-1.24216,0.200693,1.05183,-0.317808,2.12467,2.63274,0.339455,-0.0918468,0.226305
4090378,1,-1.55908,-0.516796,0.0109428,-2.09038,1.57652,1.59406,0.784586,-1.55687,-0.516257,0.0138784,-2.08752,1.57777,1.59684,0.784686,0.413029,0.222346,0.416698,0.218227,0.24026,0.886353,-0.0243816,0.478856,0.254506,0.50964,0.239443,0.249168,0.928631,-0.0231455,12.1814,-4.5795,18.4315,20.9717,0.469072,-1.22294,0.219919,1.06185,-0.287071,2.15175,2.61965,0.337687,-0.0844348,0.22598
4090379,1,-1.55864,-0.516548,0.011408,-2.09014,1.57679,1.595,0.78457,-1.55639,-0.515998,0.014398,-2.08727,1.57802,1.59779,0.784663,0.417311,0.228598,0.434205,0.222638,0.247285,0.89248,-0.0239862,0.487054,0.259165,0.51963,0.243896,0.253982,0.945657,-0.0235247,12.1576,-4.75406,18.3045,21.0193,0.435198,-1.13962,0.116465,1.06519,-0.263954,2.16726,2.61246,0.336289,-0.0764284,0.225832
4090380,1,-1.55819,-0.516292,0.0118704,-2.0899,1.57705,1.59595,0.784551,-1.55589,-0.515734,0.0149276,-2.08702,1.57828,1.59875,0.784639,0.431679,0.235563,0.44975,0.227605,0.251805,0.907119,-0.0254981,0.495252,0.263824,0.52962,0.248348,0.258796,0.962683,-0.023904,12.0584,-4.90482,18.2529,20.9955,0.435198,-1.20371,0.0587866,1.0588,-0.250693,2.16599,2.61236,0.335517,-0.0673478,0.225827
4090381,1,-1.55774,-0.516043,0.0123583,-2.08965,1.57732,1.59691,0.784524,-1.55539,-0.515465,0.0154673,-2.08677,1.57854,1.59973,0.784615,0.435695,0.235414,0.465963,0.234459,0.255459,0.918392,-0.0298512,0.50345,0.268483,0.53961,0.2528,0.26361,0.979709,-0.0242833,12.0584,-4.98416,18.126,20.9439,0.423296,-1.18448,0.0844213,1.04084,-0.242504,2.14471,2.61558,0.335382,-0.0568254,0.225852
4090382,1,-1.55727,-0.515786,0.0128539,-2.0894,1.57759,1.59788,0.784495,-1.55488,-0.515192,0.0160169,-2.08651,1.57881,1.60073,0.78459,0.440792,0.241298,0.472734,0.238028,0.259762,0.931835,-0.0334193,0.511648,0.273142,0.5496,0.257253,0.268424,0.996736,-0.0246625,12.0068,-5.03177,18.0744,20.9717,0.36104,-1.12681,0.122873,1.01617,-0.230471,2.11052,2.61682,0.335574,-0.0454933,0.225761
4090383,1,-1.5568,-0.515522,0.0133592,-2.08915,1.57787,1.59886,0.784474,-1.55436,-0.514915,0.0165764,-2.08625,1.57908,1.60174,0.784565,0.451808,0.246581,0.479778,0.240928,0.267136,0.945486,-0.0300169,0.51882,0.277548,0.55959,0.261525,0.273096,1.0128,-0.0250332,11.9315,-5.05954,17.9475,20.9955,0.316179,-1.01694,0.129282,0.993712,-0.215681,2.07747,2.61655,0.335718,-0.0346769,0.225471
4090384,1,-1.55631,-0.515256,0.0138678,-2.08888,1.57815,1.59987,0.784443,-1.55383,-0.514633,0.017146,-2.08599,1.57936,1.60277,0.78454,0.461834,0.251275,0.493121,0.248071,0.270327,0.957003,-0.0347098,0.525991,0.281953,0.56958,0.265797,0.277767,1.02887,-0.025404,11.7807,-5.03177,17.9752,20.9439,0.316179,-0.933629,0.200693,0.976209,-0.202403,2.05097,2.61669,0.335606,-0.0247451,0.224987
4090385,1,-1.55582,-0.514979,0.0144075,-2.08862,1.57842,1.60089,0.784414,-1.5533,-0.514346,0.0177256,-2.08572,1.57964,1.60382,0.784514,0.472503,0.258535,0.507479,0.255958,0.269891,0.977787,-0.0368447,0.533162,0.286359,0.57957,0.27007,0.282438,1.04494,-0.0257747,11.8045,-5.05954,17.8721,20.9201,0.287798,-0.907079,0.24647,0.959731,-0.190396,2.02567,2.61576,0.335228,-0.0149955,0.224411
4090386,1,-1.55533,-0.514699,0.0149456,-2.08836,1.5787,1.60194,0.784396,-1.55276,-0.514056,0.0183152,-2.08544,1.57993,1.60488,0.784488,0.473026,0.261945,0.514694,0.254955,0.272607,0.99927,-0.0305167,0.540333,0.290764,0.58956,0.274342,0.28711,1.06101,-0.0261454,11.8283,-5.13492,17.7729,21.0193,0.298784,-0.972081,0.200693,0.944387,-0.181437,2.00138,2.6145,0.334617,-0.00540139,0.223878
4090387,1,-1.55482,-0.514419,0.0154879,-2.0881,1.57899,1.603,0.784376,-1.55221,-0.51376,0.0189147,-2.08516,1.58022,1.60595,0.784461,0.481857,0.267254,0.521522,0.255386,0.274767,1.01688,-0.0296211,0.547505,0.29517,0.59955,0.278614,0.291781,1.07708,-0.0265161,11.7291,-5.18649,17.6975,21.1185,0.298784,-1.03617,0.129282,0.936943,-0.179555,1.98784,2.61761,0.3337,0.00303586,0.223467
4090388,1,-1.55429,-0.514131,0.0160385,-2.08783,1.57929,1.60407,0.78435,-1.55166,-0.513461,0.0195242,-2.08488,1.58052,1.60705,0.784434,0.505964,0.274181,0.535208,0.262954,0.285773,1.03723,-0.0324996,0.554676,0.299576,0.60954,0.282887,0.296452,1.09315,-0.0268869,11.503,-5.36105,17.5944,21.1701,0.316179,-1.03617,0.143015,0.935741,-0.186937,1.98367,2.62736,0.332531,0.0104879,0.223166
4090389,1,-1.55377,-0.513839,0.0166035,-2.08755,1.57959,1.60517,0.784323,-1.5511,-0.513157,0.0201438,-2.08459,1.58082,1.60816,0.784407,0.506697,0.277664,0.542271,0.260959,0.285556,1.052,-0.0301561,0.561847,0.303981,0.61953,0.287159,0.301124,1.10922,-0.0272576,11.4276,-5.38882,17.4674,21.2931,0.304277,-1.03617,0.16865,0.93362,-0.202976,1.97958,2.64302,0.331269,0.0178802,0.222907
4090390,1,-1.55323,-0.513537,0.0171688,-2.08728,1.57988,1.60626,0.784296,-1.55053,-0.512848,0.0207733,-2.0843,1.58113,1.60928,0.784379,0.510926,0.282797,0.552869,0.264307,0.287017,1.06457,-0.0271287,0.569019,0.308387,0.62952,0.291431,0.305795,1.12529,-0.0276283,11.4514,-5.48801,17.519,21.3446,0.383928,-1.08744,0.162241,0.933294,-0.226635,1.97902,2.6651,0.32991,0.0247682,0.22263
4090391,1,-1.5527,-0.51324,0.0177466,-2.087,1.58018,1.60738,0.784268,-1.54995,-0.512536,0.0214128,-2.08401,1.58144,1.61042,0.784351,0.518469,0.282999,0.562052,0.273268,0.290113,1.07374,-0.0259984,0.57619,0.312792,0.63951,0.295704,0.310467,1.14136,-0.027999,11.4514,-5.58719,17.5428,21.3684,0.406816,-1.0618,0.187876,0.93868,-0.250449,1.98704,2.68949,0.328292,0.0306547,0.222344
4090392,1,-1.55217,-0.51293,0.0183426,-2.08671,1.5805,1.60849,0.784237,-1.54937,-0.512218,0.0220623,-2.08371,1.58175,1.61158,0.784323,0.517557,0.290499,0.564306,0.281884,0.295406,1.08067,-0.0301468,0.583361,0.317198,0.6495,0.299976,0.315138,1.15743,-0.0283697,11.6776,-5.71414,17.5706,21.3922,0.332659,-0.965673,0.219919,0.952484,-0.263713,2.00793,2.70771,0.326114,0.0352703,0.222093
4090393,1,-1.55161,-0.512618,0.0189383,-2.08642,1.58081,1.60964,0.784212,-1.54878,-0.511897,0.0227218,-2.0834,1.58207,1.61275,0.784294,0.534697,0.295851,0.580524,0.28324,0.298027,1.10068,-0.0306222,0.589294,0.321242,0.65949,0.303974,0.319594,1.17234,-0.0287326,11.7529,-5.84109,17.7213,21.416,0.310686,-1.00412,0.187876,0.975294,-0.268266,2.04278,2.71899,0.323389,0.0385478,0.221925
4090394,1,-1.55106,-0.512311,0.0195544,-2.08611,1.58111,1.61083,0.784189,-1.54818,-0.511572,0.0233913,-2.08309,1.5824,1.61394,0.784265,0.545729,0.297623,0.5884,0.288366,0.304573,1.1133,-0.0304998,0.595227,0.325286,0.66948,0.307972,0.32405,1.18724,-0.0290954,11.7807,-5.86887,17.7729,21.543,0.287798,-1.15885,0.135691,0.998905,-0.269064,2.07965,2.72706,0.320528,0.0416795,0.221876
4090395,1,-1.5505,-0.511994,0.0201826,-2.08582,1.58143,1.61201,0.784177,-1.54758,-0.511243,0.0240707,-2.08278,1.58272,1.61514,0.784236,0.543081,0.300973,0.596416,0.294256,0.309003,1.13648,-0.026972,0.60116,0.32933,0.67947,0.311969,0.328506,1.20215,-0.0294583,11.9553,-5.86887,17.7451,21.5906,0.276811,-1.26139,-0.0126246,1.02164,-0.262796,2.11576,2.73118,0.317533,0.0448851,0.221916
4090396,1,-1.54992,-0.51167,0.0208079,-2.08553,1.58175,1.61323,0.784155,-1.54697,-0.510909,0.0247602,-2.08247,1.58306,1.61636,0.784206,0.555115,0.302544,0.603076,0.291877,0.320453,1.15634,-0.0243585,0.607093,0.333375,0.68946,0.315967,0.332962,1.21706,-0.0298212,11.8561,-5.96805,17.8205,21.789,0.304277,-1.46097,-0.044668,1.05017,-0.247876,2.16007,2.73158,0.314153,0.0469557,0.221873
4090397,1,-1.54933,-0.511342,0.0214448,-2.08521,1.58207,1.61448,0.784136,-1.54636,-0.510572,0.0254597,-2.08215,1.58339,1.61759,0.784176,0.566493,0.312616,0.607439,0.298884,0.317458,1.18078,-0.02181,0.613026,0.337419,0.69945,0.319965,0.337418,1.23197,-0.030184,11.7291,-6.04343,17.8721,21.7652,0.372942,-1.78324,-0.0904444,1.08609,-0.231575,2.21521,2.73337,0.310458,0.0471816,0.221483
4090398,1,-1.54875,-0.511003,0.0220881,-2.08491,1.58239,1.61568,0.784128,-1.54574,-0.51023,0.0261691,-2.08182,1.58374,1.61884,0.784145,0.564824,0.319851,0.636236,0.301937,0.321538,1.19062,-0.0171095,0.618959,0.341463,0.70944,0.323963,0.341874,1.24687,-0.0305469,11.6776,-6.22195,17.8205,21.8167,0.417803,-1.77042,-0.213125,1.12397,-0.225533,2.27254,2.74175,0.306905,0.0457393,0.220544
4090399,1,-1.54817,-0.510667,0.0227557,-2.08459,1.58272,1.61689,0.784108,-1.54512,-0.509885,0.0268885,-2.08149,1.58408,1.6201,0.784114,0.56936,0.320855,0.643519,0.308664,0.324749,1.19038,-0.0194092,0.624892,0.345507,0.71943,0.327961,0.34633,1.26178,-0.0309097,11.7291,-6.34891,17.7213,21.789,0.469072,-1.48752,-0.181082,1.1567,-0.230534,2.31957,2.75632,0.303938,0.0433279,0.218912
4090400,1,-1.54759,-0.510323,0.0234185,-2.08427,1.58306,1.61811,0.784085,-1.54449,-0.509535,0.0276179,-2.08116,1.58443,1.62138,0.784083,0.568497,0.328766,0.646687,0.311339,0.326818,1.19878,-0.022669,0.630825,0.349551,0.72942,0.331959,0.350786,1.27669,-0.0312726,11.9553,-6.42429,17.8205,21.7414,0.524919,-1.30076,-0.103262,1.18762,-0.239885,2.36141,2.77344,0.301429,0.0396086,0.216453
4090401,1,-1.54701,-0.509981,0.024101,-2.08395,1.5834,1.61938,0.784062,-1.54385,-0.509182,0.0283574,-2.08083,1.58479,1.62267,0.784051,0.579274,0.332284,0.656683,0.314263,0.332091,1.21323,-0.0243526,0.636758,0.353596,0.73941,0.335956,0.355242,1.2916,-0.0316354,12.106,-6.49966,17.7729,21.666,0.480058,-1.31998,-0.0318506,1.22424,-0.254136,2.4106,2.79337,0.299208,0.0338846,0.213145
4090402,1,-1.5464,-0.509628,0.0248065,-2.08362,1.58376,1.62065,0.784045,-1.54321,-0.508824,0.0291068,-2.08049,1.58515,1.62397,0.784019,0.584274,0.338955,0.662845,0.317391,0.341247,1.22101,-0.0235093,0.642691,0.35764,0.7494,0.339954,0.359698,1.30651,-0.0319983,12.0584,-6.59885,17.5944,21.666,0.270403,-1.27421,-0.00621587,1.26659,-0.27531,2.46789,2.81743,0.297382,0.0266794,0.20914
4090403,1,-1.54576,-0.509275,0.0255041,-2.0833,1.58412,1.62194,0.784024,-1.54256,-0.508463,0.0298661,-2.08014,1.58551,1.62529,0.783987,0.604141,0.34545,0.673028,0.319491,0.349134,1.23346,-0.0243762,0.647321,0.361241,0.75939,0.343599,0.363872,1.32008,-0.0323532,11.6538,-6.67422,17.7451,21.6898,0.168779,-1.39689,0.0523779,1.30996,-0.305183,2.52711,2.84648,0.295988,0.0191379,0.204679
4090404,1,-1.54513,-0.508923,0.0262127,-2.08297,1.58448,1.62324,0.784016,-1.54191,-0.508098,0.0306355,-2.0798,1.58588,1.62663,0.783954,0.612588,0.346925,0.68474,0.323991,0.352796,1.24508,-0.0192515,0.651952,0.364843,0.76938,0.347244,0.368046,1.33366,-0.0327081,11.5268,-6.702,17.7213,21.6898,0.123918,-1.42893,-0.0382593,1.34688,-0.341902,2.57816,2.87959,0.294908,0.0125787,0.200019
4090405,1,-1.54451,-0.508561,0.0269509,-2.08264,1.58484,1.62454,0.78401,-1.54125,-0.507729,0.0314149,-2.07945,1.58625,1.62798,0.783921,0.615793,0.353302,0.70221,0.326426,0.351181,1.28342,-0.0150668,0.656582,0.368444,0.77937,0.350889,0.37222,1.34723,-0.033063,11.6022,-6.7258,17.5428,21.7414,0.174272,-1.37125,-0.149038,1.37336,-0.37951,2.61474,2.91381,0.293948,0.00740357,0.195353
4090406,1,-1.54388,-0.508197,0.0276802,-2.0823,1.58518,1.62587,0.783997,-1.54059,-0.507357,0.0322043,-2.07909,1.58663,1.62934,0.783888,0.622179,0.356682,0.709583,0.331593,0.351174,1.30225,-0.0142966,0.661212,0.372046,0.78936,0.354533,0.376394,1.36081,-0.0334179,11.6538,-6.80118,17.519,21.666,0.355547,-1.35843,-0.206716,1.39225,-0.416401,2.63967,2.94805,0.292951,0.00279958,0.190686
4090407,1,-1.54324,-0.507827,0.0284288,-2.08194,1.58555,1.62722,0.78396,-1.53992,-0.506982,0.0330036,-2.07873,1.58701,1.63071,0.783854,0.628133,0.356348,0.716105,0.33682,0.356507,1.31221,-0.0218735,0.665842,0.375647,0.79935,0.358178,0.380568,1.37438,-0.0337729,11.4752,-7.00351,17.4436,21.5152,0.394914,-1.22934,-0.044668,1.40911,-0.446494,2.66126,2.97858,0.291643,-0.00200131,0.185886
4090408,1,-1.54259,-0.507455,0.0291997,-2.0816,1.58593,1.62856,0.783936,-1.53925,-0.506603,0.0338129,-2.07837,1.58739,1.6321,0.78382,0.632897,0.362971,0.727632,0.341265,0.360289,1.33065,-0.0237857,0.670472,0.379249,0.80934,0.361823,0.384742,1.38796,-0.0341278,11.3522,-7.15427,17.2135,21.4914,0.316179,-1.13321,0.0322363,1.42781,-0.463078,2.6859,3.00124,0.289915,-0.00718667,0.180881
4090409,1,-1.54194,-0.507086,0.0299441,-2.08124,1.58631,1.62994,0.783904,-1.53858,-0.50622,0.0346323,-2.07801,1.58778,1.6335,0.783786,0.640768,0.36263,0.732945,0.349568,0.36597,1.34187,-0.0210547,0.675102,0.38285,0.81933,0.365468,0.388916,1.40154,-0.0344827,11.2253,-7.20584,17.2651,21.3446,0.282305,-1.13321,0.129282,1.44931,-0.465311,2.71532,3.0144,0.287841,-0.0125639,0.175795
4090410,1,-1.54129,-0.506709,0.0307176,-2.08089,1.5867,1.63132,0.783865,-1.5379,-0.505833,0.0354616,-2.07764,1.58818,1.63492,0.783751,0.640063,0.365755,0.739291,0.353817,0.375616,1.36283,-0.0297254,0.679732,0.386451,0.82932,0.369112,0.39309,1.41511,-0.0348376,11.1221,-7.25742,17.2651,21.3169,0.208147,-1.14603,0.265696,1.4764,-0.450218,2.75417,3.01538,0.285238,-0.0182549,0.170879
4090411,1,-1.54065,-0.506336,0.0314897,-2.08053,1.5871,1.63272,0.783842,-1.53721,-0.505443,0.0363009,-2.07726,1.58857,1.63634,0.783715,0.649756,0.367576,0.748823,0.354072,0.380084,1.37085,-0.0240597,0.684362,0.390053,0.83931,0.372757,0.397265,1.42869,-0.0351925,11.2253,-7.18204,17.1619,21.2693,0.106523,-1.1204,0.207102,1.51112,-0.419368,2.80567,3.00576,0.281992,-0.0244167,0.166429
4090412,1,-1.53999,-0.505958,0.032287,-2.08016,1.5875,1.63414,0.78383,-1.53653,-0.50505,0.0371502,-2.07689,1.58898,1.63779,0.78368,0.653558,0.368328,0.76085,0.352278,0.382334,1.37247,-0.0214516,0.688992,0.393654,0.8493,0.376402,0.401439,1.44226,-0.0355474,11.2491,-7.25742,17.1143,21.2931,0.027788,-1.04899,0.0523779,1.54877,-0.379204,2.86286,2.99198,0.27831,-0.0302383,0.162707
4090413,1,-1.5393,-0.505576,0.0331012,-2.07978,1.58791,1.63555,0.783802,-1.53583,-0.504653,0.0380093,-2.07651,1.58938,1.63924,0.783644,0.664938,0.374405,0.772266,0.355693,0.389324,1.38082,-0.0186749,0.692447,0.396752,0.859101,0.37963,0.405253,1.45428,-0.0358959,11.023,-7.25742,17.0865,21.1423,0.0506761,-1.07462,-0.0126246,1.58226,-0.336065,2.91501,2.97951,0.274381,-0.0345222,0.159762
4090414,1,-1.53862,-0.505182,0.0339226,-2.0794,1.58831,1.63699,0.783768,-1.53514,-0.504253,0.0388782,-2.07612,1.58979,1.64071,0.783608,0.676712,0.376179,0.785627,0.362176,0.389804,1.3923,-0.0188277,0.695901,0.399849,0.868902,0.382858,0.409068,1.46629,-0.0362443,10.9476,-7.38437,17.0112,21.0709,0.078142,-0.997716,-0.0190333,1.60506,-0.293688,2.9526,2.96908,0.270262,-0.0363185,0.1574
4090415,1,-1.53794,-0.504788,0.0347628,-2.07902,1.58871,1.63845,0.783731,-1.53444,-0.50385,0.0397569,-2.07574,1.5902,1.64219,0.783571,0.679442,0.381937,0.796481,0.365294,0.393271,1.41499,-0.0260534,0.699356,0.402947,0.878703,0.386087,0.412883,1.47831,-0.0365928,10.9476,-7.43594,16.8088,21.0947,0.140398,-1.01694,0.038645,1.61472,-0.252135,2.97215,2.95838,0.265972,-0.0354776,0.155365
4090416,1,-1.53724,-0.504385,0.0355931,-2.07863,1.58913,1.63991,0.783686,-1.53373,-0.503444,0.0406454,-2.07535,1.59062,1.64368,0.783534,0.679979,0.38813,0.82387,0.370693,0.409302,1.43776,-0.0320324,0.702811,0.406044,0.888505,0.389315,0.416698,1.49033,-0.0369413,10.7968,-7.5867,16.7335,20.9955,0.186174,-1.08103,0.122873,1.61243,-0.215615,2.97354,2.94814,0.2617,-0.0324634,0.153476
4090417,1,-1.53654,-0.503999,0.0364571,-2.07823,1.58956,1.64138,0.783646,-1.53303,-0.503035,0.0415437,-2.07496,1.59104,1.64518,0.783497,0.686059,0.384242,0.833382,0.376023,0.416526,1.43962,-0.0342137,0.706266,0.409141,0.898306,0.392543,0.420513,1.50234,-0.0372897,10.4437,-7.5867,16.5073,20.9201,0.163286,-0.946447,0.149424,1.59736,-0.181223,2.95375,2.93625,0.257629,-0.027239,0.151707
4090418,1,-1.53583,-0.503598,0.0373418,-2.07784,1.59,1.64284,0.783606,-1.53232,-0.502623,0.0424518,-2.07456,1.59146,1.64669,0.783459,0.691574,0.387677,0.843248,0.37995,0.425674,1.44737,-0.035565,0.70972,0.412239,0.908107,0.395771,0.424328,1.51436,-0.0376382,10.1898,-7.63828,16.2772,21.0193,0.0442674,-0.791722,0.16865,1.57182,-0.136766,2.91723,2.91674,0.253575,-0.0199661,0.150155
4090419,1,-1.53513,-0.503212,0.038208,-2.07744,1.59043,1.64435,0.783574,-1.53161,-0.502207,0.0433697,-2.07416,1.59189,1.64822,0.783421,0.691821,0.388628,0.859862,0.385969,0.428046,1.46569,-0.0327915,0.713175,0.415336,0.917908,0.398999,0.428143,1.52637,-0.0379867,10.0906,-7.6105,16.0749,21.0193,0.0332811,-0.830175,0.0844213,1.54066,-0.0786272,2.87256,2.88796,0.249327,-0.0112665,0.14892
4090420,1,-1.53443,-0.502812,0.0390976,-2.07703,1.59087,1.64589,0.783542,-1.53089,-0.501789,0.0442975,-2.07376,1.59232,1.64976,0.783383,0.699606,0.392454,0.868788,0.387709,0.428346,1.48634,-0.0352277,0.71663,0.418433,0.927709,0.402228,0.431957,1.53839,-0.0383351,9.9875,-7.66208,15.9757,21.1185,0.0332811,-0.940038,-0.0126246,1.50661,-0.0110448,2.82399,2.85246,0.244864,-0.00166644,0.148024
4090421,1,-1.53372,-0.502407,0.0400132,-2.07663,1.5913,1.64739,0.783507,-1.53017,-0.501367,0.045235,-2.07335,1.59276,1.65131,0.783344,0.701293,0.397377,0.882804,0.394864,0.435887,1.49664,-0.03342,0.720084,0.421531,0.93751,0.405456,0.435772,1.5504,-0.0386836,10.0153,-7.73746,15.8964,21.1185,-0.000593394,-0.907079,-0.0840357,1.47162,0.0589921,2.77474,2.81418,0.240191,0.0083229,0.147348
4090422,1,-1.53301,-0.501994,0.0409275,-2.07622,1.59176,1.64893,0.783459,-1.52945,-0.500943,0.0461823,-2.07295,1.5932,1.65287,0.783305,0.707637,0.397206,0.895131,0.397884,0.43349,1.49461,-0.0425593,0.723539,0.424628,0.947311,0.408684,0.439587,1.56242,-0.039032,9.88832,-7.86441,15.8726,21.1701,-0.0802443,-0.952855,-0.0126246,1.43543,0.128647,2.72481,2.77468,0.235283,0.0186712,0.146679
4090423,1,-1.53228,-0.501566,0.0418485,-2.07582,1.59222,1.6505,0.783423,-1.52872,-0.500515,0.0471384,-2.07253,1.59364,1.65444,0.783266,0.70779,0.407679,0.902561,0.39908,0.437125,1.54469,-0.0416309,0.725957,0.427173,0.956173,0.411445,0.442935,1.57272,-0.0393813,9.73756,-8.11832,15.9479,21.3169,-0.0738356,-1.06821,-0.00621587,1.40021,0.192917,2.67728,2.73732,0.230139,0.0288266,0.145822
4090424,1,-1.53156,-0.501135,0.0427698,-2.07541,1.59267,1.65206,0.783384,-1.52799,-0.500086,0.0481035,-2.07212,1.59409,1.65603,0.783226,0.720798,0.415435,0.908538,0.402866,0.450615,1.55248,-0.0413854,0.728375,0.429718,0.965035,0.414206,0.446284,1.58302,-0.0397306,9.78517,-8.36826,15.8726,21.3446,-0.0683424,-1.24857,0.00660151,1.37166,0.235858,2.64095,2.71053,0.224724,0.037322,0.144667
4090425,1,-1.53084,-0.500718,0.0437132,-2.07499,1.59312,1.65368,0.783345,-1.52726,-0.499653,0.0490774,-2.0717,1.59454,1.65762,0.783186,0.71496,0.412392,0.915639,0.40204,0.446857,1.56958,-0.0395226,0.730794,0.432263,0.973897,0.416966,0.449632,1.59331,-0.0400798,9.91212,-8.47141,15.7972,21.5152,0.0442674,-1.65415,-0.0190333,1.35327,0.254187,2.62192,2.69664,0.218851,0.0433109,0.143212
4090426,1,-1.53012,-0.500281,0.0446675,-2.07459,1.59358,1.65526,0.783316,-1.52653,-0.499219,0.0500601,-2.07128,1.59499,1.65922,0.783146,0.70899,0.419772,0.919338,0.401798,0.451665,1.5781,-0.0358386,0.733212,0.434808,0.982759,0.419727,0.45298,1.60361,-0.0404291,9.9637,-8.64597,15.6702,21.6898,0.0900438,-1.67429,-0.10967,1.3515,0.256217,2.629,2.6936,0.21233,0.0456368,0.141494
4090427,1,-1.52938,-0.499859,0.0456078,-2.07417,1.59405,1.65683,0.783298,-1.52579,-0.498781,0.0510518,-2.07086,1.59545,1.66084,0.783105,0.716403,0.414525,0.927913,0.405795,0.455798,1.56886,-0.0308942,0.73563,0.437353,0.991621,0.422488,0.456328,1.61391,-0.0407784,9.76136,-8.72531,15.5671,21.666,0.129411,-1.42252,-0.26531,1.36946,0.24993,2.66588,2.69851,0.205147,0.0435757,0.139508
4090428,1,-1.52865,-0.499414,0.0465558,-2.07375,1.59451,1.65844,0.783266,-1.52505,-0.498341,0.0520522,-2.07044,1.59591,1.66246,0.783064,0.717875,0.422772,0.932884,0.405998,0.452097,1.57883,-0.0324436,0.738048,0.439898,1.00048,0.425249,0.459676,1.62421,-0.0411276,9.70979,-9.0784,15.5671,21.6422,0.202654,-1.31998,-0.290945,1.40078,0.24389,2.72366,2.7069,0.197541,0.0381019,0.137145
4090429,1,-1.52792,-0.498971,0.0475168,-2.07333,1.59498,1.66004,0.783225,-1.52431,-0.497899,0.0530616,-2.07001,1.59637,1.6641,0.783022,0.731624,0.431651,0.946365,0.407573,0.45852,1.58642,-0.0378615,0.740466,0.442443,1.00934,0.428009,0.463025,1.63451,-0.0414769,9.86055,-9.30453,15.3925,21.666,0.191667,-1.3328,-0.193899,1.43663,0.229922,2.78968,2.72214,0.190126,0.03064,0.134196
4090430,1,-1.52721,-0.498525,0.0484849,-2.07289,1.59545,1.66169,0.783196,-1.52357,-0.497454,0.0540798,-2.06958,1.59684,1.66574,0.78298,0.729009,0.434742,0.952721,0.413719,0.455623,1.59444,-0.0376751,0.742885,0.444988,1.01821,0.43077,0.466373,1.64481,-0.0418262,9.9637,-9.55844,15.3647,21.6144,0.123918,-1.52598,-0.200308,1.47003,0.197845,2.85333,2.74751,0.183458,0.0224307,0.130548
4090431,1,-1.52647,-0.498079,0.0494569,-2.07248,1.59593,1.66329,0.783173,-1.52282,-0.497006,0.0551069,-2.06914,1.59731,1.6674,0.782938,0.732346,0.437787,0.95289,0.415384,0.46075,1.60461,-0.0310845,0.745303,0.447533,1.02707,0.433531,0.469721,1.65511,-0.0421754,9.81294,-9.68539,15.3925,21.7176,-0.0289747,-1.35203,-0.252493,1.50406,0.153543,2.91855,2.77812,0.177392,0.0132754,0.12626
4090432,1,-1.52574,-0.49764,0.0504424,-2.07206,1.59642,1.66492,0.783143,-1.52208,-0.496556,0.0561428,-2.06871,1.59778,1.66906,0.782896,0.73037,0.440814,0.966187,0.415808,0.467204,1.6099,-0.033541,0.747721,0.450078,1.03593,0.436292,0.473069,1.66541,-0.0425247,9.73756,-9.80838,15.2656,21.8405,-0.141585,-1.10026,-0.23876,1.54454,0.10337,2.99313,2.81068,0.171527,0.00248799,0.12141
4090433,1,-1.52502,-0.49719,0.0514463,-2.07163,1.5969,1.66656,0.783113,-1.52133,-0.496104,0.0571862,-2.06827,1.59826,1.67073,0.782853,0.721107,0.44827,0.976514,0.416841,0.467214,1.60997,-0.0351758,0.74926,0.452041,1.04339,0.438537,0.475787,1.67387,-0.0428823,9.86055,-9.88773,15.1624,21.9635,-0.147993,-0.836583,-0.225942,1.59155,0.0454858,3.07537,2.84717,0.165677,-0.00956987,0.11605
4090434,1,-1.52429,-0.496732,0.0524595,-2.07121,1.59737,1.66824,0.783069,-1.52058,-0.49565,0.058237,-2.06783,1.59873,1.67242,0.78281,0.716261,0.450056,0.991833,0.421772,0.481276,1.63361,-0.0361851,0.750799,0.454003,1.05084,0.440782,0.478505,1.68233,-0.04324,10.0391,-9.9631,14.9601,22.0389,-0.0628493,-0.940038,-0.0904444,1.64487,-0.0220111,3.16273,2.88851,0.159646,-0.0222879,0.110255
4090435,1,-1.52354,-0.49628,0.0534803,-2.07077,1.59785,1.66993,0.783042,-1.51982,-0.495194,0.0592953,-2.06738,1.59922,1.67411,0.782766,0.722449,0.445417,0.999109,0.423172,0.476833,1.64429,-0.0319733,0.752338,0.455966,1.05829,0.443028,0.481222,1.69079,-0.0435976,9.91212,-10.0901,14.9363,22.1619,-0.0115797,-0.997716,-0.077627,1.7019,-0.0868016,3.25088,2.92843,0.153236,-0.0347608,0.10418
4090436,1,-1.52278,-0.495827,0.0545132,-2.07035,1.59834,1.67161,0.783001,-1.51907,-0.494736,0.0603611,-2.06694,1.5997,1.67581,0.782722,0.730676,0.447197,1.00187,0.423014,0.477202,1.65826,-0.036675,0.753877,0.457928,1.06575,0.445273,0.48394,1.69925,-0.0439552,9.55903,-10.1377,14.8331,22.2373,-0.0573561,-1.10666,0.0130102,1.75846,-0.133843,3.33561,2.96085,0.146449,-0.0461065,0.0980824
4090437,1,-1.52203,-0.495361,0.0555459,-2.06992,1.59885,1.67332,0.782956,-1.51832,-0.494277,0.0614343,-2.06649,1.60019,1.67751,0.782678,0.742286,0.450941,1.00883,0.427542,0.488655,1.66609,-0.0393856,0.755416,0.45989,1.0732,0.447518,0.486658,1.70771,-0.0443129,9.3329,-10.2646,14.5832,22.2611,-0.147993,-1.13321,0.09083,1.81126,-0.163272,3.41489,2.98645,0.139411,-0.0559151,0.0922185
4090438,1,-1.5213,-0.494909,0.056596,-2.06947,1.59934,1.67504,0.78292,-1.51756,-0.493815,0.0625149,-2.06604,1.60067,1.67923,0.782633,0.738689,0.446458,1.02328,0.431472,0.486163,1.67848,-0.0420268,0.756955,0.461853,1.08066,0.449763,0.489376,1.71617,-0.0446705,9.30909,-10.2924,14.2777,22.2611,-0.0857374,-1.11399,0.0780126,1.85624,-0.175347,3.48412,3.00439,0.13218,-0.0638432,0.0868451
4090439,1,-1.52057,-0.494447,0.0576476,-2.06904,1.59985,1.67672,0.782889,-1.5168,-0.493351,0.063603,-2.06559,1.60117,1.68096,0.782588,0.734144,0.450547,1.02392,0.435385,0.491378,1.68045,-0.0384589,0.758494,0.463815,1.08811,0.452009,0.492093,1.72463,-0.0450281,9.38447,-10.4431,13.9246,22.2135,-0.0628493,-0.842992,0.0194189,1.89589,-0.166102,3.54621,3.01182,0.1246,-0.0704655,0.0821843
4090440,1,-1.51984,-0.493989,0.0587024,-2.0686,1.60035,1.67842,0.782842,-1.51604,-0.492885,0.0646986,-2.06514,1.60166,1.68269,0.782543,0.75064,0.447579,1.03763,0.4379,0.49162,1.67283,-0.0449419,0.760033,0.465777,1.09557,0.454254,0.494811,1.73309,-0.0453858,9.28132,-10.5185,13.516,22.1381,-0.0683424,-0.57932,0.071604,1.93208,-0.137024,3.60374,3.00915,0.116616,-0.0759719,0.0783154
4090441,1,-1.51907,-0.493526,0.0597809,-2.06815,1.60085,1.68013,0.782801,-1.51528,-0.492417,0.0658016,-2.06468,1.60216,1.68443,0.782497,0.753077,0.451512,1.04989,0.453516,0.495572,1.68586,-0.0468687,0.761572,0.46774,1.10302,0.456499,0.497529,1.74155,-0.0457434,8.85286,-10.5423,13.1629,21.9397,-0.0628493,-0.539952,0.0523779,1.95593,-0.0867337,3.6441,2.99388,0.108496,-0.0786496,0.0752309
4090442,1,-1.5183,-0.493063,0.060854,-2.06769,1.60137,1.68188,0.782755,-1.51452,-0.491948,0.0669121,-2.06422,1.60266,1.68618,0.782451,0.768361,0.454407,1.05799,0.452537,0.505446,1.70194,-0.044485,0.763111,0.469702,1.11048,0.458745,0.500246,1.75001,-0.046101,8.37281,-10.5423,12.8336,21.8167,-0.0967238,-0.604955,0.0523779,1.96132,-0.0177618,3.6581,2.96455,0.100482,-0.077348,0.0728775
4090443,1,-1.51752,-0.492609,0.061971,-2.06722,1.60188,1.68366,0.782715,-1.51375,-0.491477,0.0680284,-2.06376,1.60316,1.68794,0.782404,0.767735,0.450708,1.07695,0.451076,0.50769,1.71572,-0.0413023,0.763954,0.471082,1.1163,0.460414,0.50211,1.75651,-0.046461,7.92054,-10.4669,12.2266,21.5906,-0.119612,-0.766088,0.0130102,1.9473,0.0608773,3.64375,2.92776,0.0928559,-0.0720158,0.0711344
4090444,1,-1.51674,-0.492135,0.0631019,-2.06678,1.60239,1.68539,0.782672,-1.51299,-0.491004,0.0691505,-2.0633,1.60367,1.6897,0.782358,0.764979,0.455691,1.09439,0.448808,0.511137,1.72038,-0.0430318,0.764797,0.472462,1.12212,0.462084,0.503973,1.76301,-0.046821,7.56746,-10.5423,11.7188,21.543,-0.0628493,-0.75327,-0.044668,1.91388,0.141241,3.59916,2.89217,0.085971,-0.0629351,0.0698618
4090445,1,-1.51596,-0.491671,0.0642359,-2.06632,1.60291,1.68714,0.782636,-1.51222,-0.49053,0.0702784,-2.06283,1.60417,1.69147,0.78231,0.771259,0.452641,1.11196,0.447712,0.508282,1.72665,-0.038444,0.76564,0.473842,1.12794,0.463754,0.505837,1.76951,-0.047181,7.23817,-10.5701,11.2665,21.4438,-0.119612,-0.592137,-0.135305,1.86137,0.216239,3.52327,2.86375,0.0800784,-0.0505613,0.0689083
4090446,1,-1.51517,-0.491191,0.0653953,-2.06587,1.60342,1.68891,0.782615,-1.51145,-0.490055,0.0714122,-2.06237,1.60468,1.69325,0.782263,0.768887,0.457872,1.11464,0.451239,0.507618,1.73529,-0.0300632,0.766483,0.475222,1.13376,0.465424,0.5077,1.77601,-0.0475409,6.96046,-10.7724,10.7587,21.4676,-0.114119,-0.592137,-0.368765,1.79365,0.283606,3.42234,2.84325,0.0750784,-0.0358074,0.0680677
4090447,1,-1.51439,-0.490711,0.0665232,-2.0654,1.60394,1.69069,0.782571,-1.51069,-0.489578,0.0725518,-2.0619,1.60519,1.69503,0.782215,0.771403,0.463869,1.14035,0.455852,0.514868,1.74609,-0.0340341,0.767326,0.476602,1.13958,0.467093,0.509563,1.78251,-0.0479009,6.7859,-10.9986,10.5286,21.416,-0.153486,-0.746862,-0.34313,1.71676,0.338759,3.3059,2.8298,0.0706804,-0.0197801,0.0670145
4090448,1,-1.51361,-0.490236,0.0676666,-2.06491,1.60445,1.69253,0.782526,-1.50992,-0.4891,0.0736972,-2.06143,1.6057,1.69682,0.782167,0.771801,0.463376,1.13779,0.460375,0.512604,1.77274,-0.0375299,0.76817,0.477982,1.1454,0.468763,0.511427,1.78901,-0.0482609,6.53199,-11.2009,10.3541,21.2693,-0.141585,-1.30716,-0.290945,1.63457,0.379368,3.17986,2.82123,0.0666496,-0.00335694,0.0653652
4090449,1,-1.51284,-0.48976,0.0688111,-2.06445,1.60499,1.69434,0.782489,-1.50915,-0.488621,0.0748484,-2.06096,1.60621,1.69861,0.782118,0.768326,0.465076,1.13495,0.464589,0.519647,1.79023,-0.0373656,0.769013,0.479361,1.15122,0.470433,0.51329,1.79551,-0.0486209,6.48042,-11.3279,10.2271,21.2693,-0.232222,-1.65415,-0.303762,1.56078,0.412091,3.06597,2.8121,0.0623046,0.0107783,0.0628842
4090450,1,-1.51208,-0.489291,0.0699315,-2.06398,1.6055,1.6961,0.782451,-1.50838,-0.48814,0.0760054,-2.06049,1.60673,1.70041,0.782069,0.767267,0.47104,1.1425,0.466752,0.518299,1.77392,-0.0374368,0.769856,0.480741,1.15704,0.472103,0.515153,1.80201,-0.0489808,6.63514,-11.4786,10.2509,21.2931,-0.249617,-1.24857,-0.310171,1.50828,0.437712,2.9848,2.80099,0.0569913,0.0199,0.0595477
4090451,1,-1.51133,-0.488808,0.0710604,-2.0635,1.60601,1.69788,0.782413,-1.50761,-0.487658,0.0771683,-2.06002,1.60725,1.70222,0.78202,0.762893,0.475854,1.13218,0.468591,0.513808,1.75734,-0.0386733,0.770699,0.482121,1.16286,0.473772,0.517017,1.80851,-0.0493408,6.91285,-11.6294,10.4532,21.3446,-0.102217,-0.907079,-0.284536,1.48005,0.447978,2.94137,2.79227,0.0504856,0.0232741,0.0554418
4090452,1,-1.5106,-0.488326,0.0722006,-2.06303,1.6065,1.69965,0.782377,-1.50684,-0.487175,0.078337,-2.05954,1.60776,1.70404,0.78197,0.746731,0.479781,1.13787,0.469337,0.513273,1.76813,-0.0391249,0.771542,0.483501,1.16868,0.475442,0.51888,1.81501,-0.0497008,7.66664,-11.7325,10.5048,21.416,0.078142,-0.791722,-0.26531,1.48271,0.43617,2.94475,2.79018,0.0426402,0.0203321,0.0506732
4090453,1,-1.50987,-0.487848,0.0733569,-2.06255,1.60702,1.70148,0.782328,-1.50607,-0.48669,0.0795097,-2.05906,1.60828,1.70586,0.78192,0.737371,0.473502,1.14081,0.475065,0.512338,1.77693,-0.0473192,0.771879,0.484308,1.1727,0.476498,0.519859,1.81943,-0.0500472,8.22206,-11.8595,10.481,21.3684,0.095537,-1.04258,-0.161856,1.52106,0.41071,2.9994,2.79145,0.0336179,0.0110955,0.0453778
4090454,1,-1.50909,-0.487353,0.0744976,-2.06207,1.60756,1.70328,0.782289,-1.50529,-0.486205,0.0806864,-2.05859,1.60881,1.70768,0.78187,0.747315,0.48313,1.13479,0.473097,0.516231,1.79136,-0.0498233,0.772216,0.485115,1.17671,0.477555,0.520837,1.82386,-0.0503936,8.01973,-12.0578,10.731,21.3684,-0.0234816,-1.14603,-0.149038,1.5914,0.382396,3.09823,2.79151,0.0239242,-0.00327737,0.0397476
4090455,1,-1.50832,-0.486842,0.075635,-2.0616,1.60809,1.7051,0.782243,-1.50452,-0.485719,0.0818671,-2.05811,1.60933,1.70951,0.781819,0.757742,0.493429,1.14149,0.475371,0.520032,1.79106,-0.0539595,0.772553,0.485922,1.18073,0.478611,0.521815,1.82828,-0.05074,7.69441,-12.3633,10.9849,21.4676,-0.164473,-1.11399,-0.077627,1.68198,0.338262,3.22461,2.79743,0.0142838,-0.0208903,0.0340034
4090456,1,-1.50758,-0.486352,0.0768208,-2.06112,1.60862,1.70694,0.782218,-1.50375,-0.485233,0.0830519,-2.05763,1.60985,1.71134,0.781768,0.744086,0.489204,1.14803,0.471146,0.52794,1.80272,-0.0496624,0.772889,0.486728,1.18474,0.479667,0.522793,1.8327,-0.0510864,7.99592,-12.4903,10.6556,21.666,-0.210249,-1.00412,-0.200308,1.78049,0.268284,3.36041,2.81567,0.00517049,-0.0399403,0.0283596
4090457,1,-1.50685,-0.485853,0.0780082,-2.06065,1.60914,1.70875,0.782183,-1.50297,-0.484745,0.0842406,-2.05715,1.61037,1.71318,0.781716,0.731754,0.49215,1.1591,0.469562,0.524035,1.80445,-0.0447669,0.773226,0.487535,1.18876,0.480723,0.523772,1.83712,-0.0514328,8.19825,-12.6926,10.2787,21.8405,-0.10771,-0.952855,-0.252493,1.88462,0.18248,3.5002,2.84418,-0.00350741,-0.0599508,0.0229467
4090458,1,-1.50608,-0.485356,0.0791676,-2.06018,1.60966,1.7106,0.782145,-1.5022,-0.484257,0.0854334,-2.05667,1.6109,1.71502,0.781665,0.738303,0.486088,1.15803,0.470024,0.521516,1.81127,-0.0428293,0.773563,0.488342,1.19277,0.481779,0.52475,1.84155,-0.0517792,7.74202,-12.8672,9.89783,22.0151,-0.000593394,-0.907079,-0.271719,1.99375,0.0948363,3.64186,2.87792,-0.011933,-0.0805513,0.0177489
4090459,1,-1.50528,-0.484857,0.0803623,-2.05971,1.6102,1.71244,0.782089,-1.50143,-0.483768,0.0866302,-2.05618,1.61142,1.71687,0.781612,0.75059,0.49007,1.16401,0.48075,0.519184,1.80954,-0.0453484,0.7739,0.489149,1.19679,0.482836,0.525728,1.84597,-0.0521256,6.91285,-12.9703,9.36621,22.2373,-0.153486,-0.707494,-0.174673,2.0994,0.0212188,3.77536,2.90715,-0.0201091,-0.100197,0.0126878
4090460,1,-1.50447,-0.484359,0.0815449,-2.05924,1.61073,1.71426,0.782041,-1.50065,-0.483278,0.087831,-2.0557,1.61195,1.71872,0.78156,0.777362,0.49294,1.17535,0.477677,0.527022,1.80809,-0.049822,0.774237,0.489955,1.20081,0.483892,0.526707,1.85039,-0.052472,6.05195,-13.0457,8.90998,22.388,-0.294478,-0.495092,-0.128897,2.18313,-0.0335509,3.87767,2.9269,-0.0276561,-0.115962,0.00774335
4090461,1,-1.50369,-0.483866,0.0827481,-2.05875,1.61127,1.71611,0.781979,-1.49988,-0.482787,0.0890358,-2.05521,1.61248,1.72057,0.781507,0.778904,0.490413,1.17669,0.47752,0.53115,1.81347,-0.0505771,0.774574,0.490762,1.20482,0.484948,0.527685,1.85481,-0.0528184,5.47273,-13.0695,8.40216,22.4118,-0.277998,-0.424596,-0.0190333,2.23067,-0.0746358,3.93094,2.94102,-0.0343004,-0.125579,0.00297433
