shamilmamedov/beam_handling/data/param_estimation_ICRA/ocp_Xdown_15cm_0.35s_5.csv
duration, success rate, q[0], q[1], q[2], q[3], q[4], q[5], q[6],q_d[0], q_d[1], q_d[2], q_d[3], q_d[4], q_d[5], q_d[6],dq[0], dq[1], dq[2], dq[3], dq[4], dq[5], dq[6],dq_d[0], dq_d[1], dq_d[2], dq_d[3], dq_d[4], dq_d[5], dq_d[6],tau_J[0], tau_J[1], tau_J[2], tau_J[3], tau_J[4], tau_J[5], tau_J[6],tau_ext_hat_filtered[0], tau_ext_hat_filtered[1], tau_ext_hat_filtered[2], tau_ext_hat_filtered[3], tau_ext_hat_filtered[4], tau_ext_hat_filtered[5], tau_ext_hat_filtered[6]
2233367,0,-1.5709,-0.522747,-0.000623827,-2.09579,-1.57079,1.57155,0.785794,-1.5708,-0.523599,-4.32771e-08,-2.09439,-1.5708,1.5708,0.785399,0.000393369,-4.39018e-05,-0.00104763,0.000139452,0.00910372,1.31213e-05,-0.000337128,0,0,0,0,0,0,0,0.0256461,-10.3162,1.01111,20.7972,-0.769636,-0.57932,-0.200308,0.0463921,-1.17565,0.800208,2.25329,-0.212584,-0.576585,-0.27656
2233368,1,-1.5709,-0.522751,-0.000621879,-2.09579,-1.57079,1.57154,0.785796,-1.5708,-0.523599,-4.32771e-08,-2.09439,-1.5708,1.5708,0.785399,-0.000294566,-0.00123569,-4.88076e-05,-0.000463844,0.00723972,-0.00046597,0.000487325,0,0,0,0,0,0,0,0.0494498,-10.2646,0.98334,20.821,-0.780623,-0.566503,-0.219534,0.0466965,-1.17591,0.800748,2.25427,-0.212656,-0.576505,-0.276314
2233369,1,-1.5709,-0.522749,-0.000621879,-2.09579,-1.57079,1.57155,0.785795,-1.5708,-0.523599,-4.32771e-08,-2.09439,-1.5708,1.5708,0.785399,0.000360435,-0.000174182,-3.25384e-05,-0.000309229,0.00519578,-7.32879e-05,-0.000149834,0,0,0,0,0,0,0,0.0256461,-10.2924,0.98334,20.821,-0.77513,-0.572911,-0.206716,0.0471432,-1.17438,0.801488,2.25449,-0.212729,-0.57635,-0.276027
2233370,1,-1.5709,-0.522749,-0.000618538,-2.09579,-1.57079,1.57155,0.785794,-1.5708,-0.523599,-4.32771e-08,-2.09439,-1.5708,1.5708,0.785399,0.00024029,-0.000116121,0.00109193,-0.000206153,0.00389342,0.0001885,-0.000337249,0,0,0,0,0,0,0,0.0256461,-10.2924,0.935733,20.821,-0.77513,-0.57932,-0.200308,0.0469127,-1.17267,0.801241,2.25461,-0.212803,-0.576285,-0.275701
2233371,1,-1.5709,-0.522749,-0.000620208,-2.09579,-1.57079,1.57155,0.785792,-1.5708,-0.523599,-4.32771e-08,-2.09439,-1.5708,1.5708,0.785399,0.000160193,-7.74142e-05,0.000171142,0.000419377,0.0033586,0.000125667,-0.000936909,0,0,0,0,0,0,0,0.0256461,-10.2924,0.959536,20.7972,-0.787031,-0.57932,-0.181082,0.0458381,-1.1715,0.799771,2.2547,-0.212862,-0.576359,-0.275335
2233372,1,-1.5709,-0.522747,-0.000621879,-2.09579,-1.57079,1.57155,0.785794,-1.5708,-0.523599,-4.32771e-08,-2.09439,-1.5708,1.5708,0.785399,0.000106795,0.000505202,-0.000442717,0.000929198,0.00224334,8.37779e-05,8.74707e-05,0,0,0,0,0,0,0,0.0256461,-10.3162,0.98334,20.7694,-0.780623,-0.57932,-0.200308,0.044801,-1.17059,0.798416,2.25438,-0.212866,-0.576443,-0.27492
2233373,1,-1.5709,-0.522749,-0.000623827,-2.09579,-1.57079,1.57155,0.785794,-1.5708,-0.523599,-4.32771e-08,-2.09439,-1.5708,1.5708,0.785399,-0.00104243,-0.00022001,-0.000944759,0.000619466,0.00126988,5.58519e-05,5.83138e-05,0,0,0,0,0,0,0,0.0732535,-10.2924,1.01111,20.7694,-0.769636,-0.57932,-0.200308,0.0448913,-1.16975,0.798806,2.25355,-0.212791,-0.576375,-0.274443
2233374,1,-1.5709,-0.522747,-0.000620208,-2.09579,-1.57079,1.57155,0.785792,-1.5708,-0.523599,-4.32771e-08,-2.09439,-1.5708,1.5708,0.785399,0.000418673,0.000410138,0.000576587,0.000412977,0.00118596,-0.000200124,-0.000673201,0,0,0,0,0,0,0,0.0256461,-10.3162,0.959536,20.7694,-0.77513,-0.572911,-0.181082,0.045842,-1.16889,0.800481,2.25245,-0.212665,-0.576194,-0.273908
2233375,1,-1.5709,-0.522751,-0.000621879,-2.09579,-1.57079,1.57154,0.785796,-1.5708,-0.523599,-4.32771e-08,-2.09439,-1.5708,1.5708,0.785399,0.000279115,-0.000933,-0.000172421,-0.000374296,0.000892575,-0.000370775,0.000975353,0,0,0,0,0,0,0,0.0256461,-10.2646,0.98334,20.7972,-0.77513,-0.566503,-0.219534,0.0463695,-1.16796,0.801556,2.25149,-0.212546,-0.576084,-0.273324
2233376,1,-1.57091,-0.522751,-0.000621879,-2.09579,-1.57079,1.57155,0.785793,-1.5708,-0.523599,-4.32771e-08,-2.09439,-1.5708,1.5708,0.785399,-0.000370735,-0.000622,-0.000114947,0.000400083,0.000874954,-9.82449e-06,-0.000536559,0,0,0,0,0,0,0,0.0494498,-10.2646,0.98334,20.7694,-0.780623,-0.572911,-0.18749,0.0464993,-1.16605,0.802062,2.25042,-0.21243,-0.576014,-0.272705
2233377,1,-1.5709,-0.522745,-0.000623827,-2.09579,-1.57079,1.57155,0.785794,-1.5708,-0.523599,-4.32771e-08,-2.09439,-1.5708,1.5708,0.785399,-0.000247157,0.00134857,-0.000726245,-0.000382892,0.000437192,0.000230809,0.000117012,0,0,0,0,0,0,0,0.0494498,-10.34,1.01111,20.7972,-0.77513,-0.57932,-0.200308,0.0469848,-1.16464,0.803129,2.24977,-0.212315,-0.575885,-0.272066
2233378,1,-1.5709,-0.522747,-0.000621879,-2.09579,-1.57079,1.57155,0.785793,-1.5708,-0.523599,-4.32771e-08,-2.09439,-1.5708,1.5708,0.785399,-0.000164771,0.000342235,0.00016545,-0.000812073,0.000537917,-8.34861e-05,-0.00039671,0,0,0,0,0,0,0,0.0494498,-10.3162,0.98334,20.821,-0.780623,-0.572911,-0.18749,0.0477152,-1.16641,0.804662,2.25086,-0.212257,-0.575752,-0.271408
2233379,1,-1.5709,-0.522747,-0.000621879,-2.09579,-1.57079,1.57155,0.785796,-1.5708,-0.523599,-4.32771e-08,-2.09439,-1.5708,1.5708,0.785399,0.000446964,0.000228157,0.0001103,-0.000541382,0.000390865,0.000656419,0.000684962,0,0,0,0,0,0,0,0.0256461,-10.3162,0.98334,20.821,-0.780623,-0.592137,-0.213125,0.0480034,-1.17016,0.805613,2.25323,-0.212267,-0.575707,-0.270732
2233380,1,-1.57091,-0.522749,-0.000620208,-2.09579,-1.57079,1.57155,0.785794,-1.5708,-0.523599,-4.32771e-08,-2.09439,-1.5708,1.5708,0.785399,-0.000258836,-0.000404707,0.000630345,0.000195891,8.13168e-05,0.000437613,-0.000255435,0,0,0,0,0,0,0,0.0494498,-10.2924,0.959536,20.7972,-0.77513,-0.592137,-0.193899,0.0475196,-1.17308,0.805395,2.2553,-0.212298,-0.575781,-0.270055
2233381,1,-1.57091,-0.522752,-0.000623827,-2.09579,-1.57079,1.57155,0.785794,-1.5708,-0.523599,-4.32771e-08,-2.09439,-1.5708,1.5708,0.785399,-0.000172557,-0.00147623,-0.000786196,0.000130594,0.000275805,-0.000182976,-0.00017029,0,0,0,0,0,0,0,0.0494498,-10.2408,1.01111,20.7972,-0.780623,-0.57932,-0.193899,0.046963,-1.17296,0.804946,2.25574,-0.212282,-0.575857,-0.269396
2233382,1,-1.5709,-0.522749,-0.000621879,-2.09579,-1.57079,1.57155,0.785795,-1.5708,-0.523599,-4.32771e-08,-2.09439,-1.5708,1.5708,0.785399,0.000441774,0.000222272,0.000125484,8.70625e-05,0.000638286,-0.000121984,0.000361191,0,0,0,0,0,0,0,0.0256461,-10.2924,0.98334,20.7972,-0.792525,-0.57932,-0.206716,0.0468312,-1.17013,0.805064,2.25474,-0.212213,-0.575861,-0.268756
2233383,1,-1.5709,-0.522747,-0.000620208,-2.09579,-1.57079,1.57154,0.785793,-1.5708,-0.523599,-4.32771e-08,-2.09439,-1.5708,1.5708,0.785399,-0.000819108,0.000704993,0.000640468,0.000707656,-0.00020853,-0.000556041,-0.000471283,0,0,0,0,0,0,0,0.0732535,-10.3162,0.959536,20.7694,-0.77513,-0.566503,-0.18749,0.0466618,-1.16792,0.805119,2.2538,-0.212166,-0.575898,-0.268126
2233384,1,-1.5709,-0.522745,-0.000620208,-2.09579,-1.57079,1.57154,0.785794,-1.5708,-0.523599,-4.32771e-08,-2.09439,-1.5708,1.5708,0.785399,0.000567552,0.00102681,0.000426978,-0.000734655,-0.000334817,-0.000370694,-7.68296e-05,0,0,0,0,0,0,0,0.0256461,-10.34,0.959536,20.821,-0.769636,-0.566503,-0.193899,0.0461052,-1.16846,0.804559,2.25396,-0.212192,-0.576034,-0.267499
2233385,1,-1.57091,-0.522747,-0.000619748,-2.09579,-1.57079,1.57155,0.785792,-1.5708,-0.523599,-4.32771e-08,-2.09439,-1.5708,1.5708,0.785399,-0.000735256,0.000127726,-0.00027216,-0.00104658,0.00018943,-9.77017e-06,-0.000525938,0,0,0,0,0,0,0,0.0732535,-10.3162,0.98334,20.8448,-0.780623,-0.572911,-0.181082,0.0454882,-1.1715,0.803905,2.25567,-0.212291,-0.576195,-0.266867
2233386,1,-1.5709,-0.522751,-0.000619498,-2.09578,-1.57079,1.57155,0.785796,-1.5708,-0.523599,-4.32771e-08,-2.09439,-1.5708,1.5708,0.785399,0.000623453,-0.00112127,0.000375372,0.00162233,-7.28583e-05,0.000230845,0.00083617,0,0,0,0,0,0,0,0.0256461,-10.2646,0.959536,20.7456,-0.77513,-0.57932,-0.213125,0.0451216,-1.17352,0.803558,2.25708,-0.212372,-0.576286,-0.266234
2233387,1,-1.57091,-0.522749,-0.000621642,-2.09579,-1.57079,1.57155,0.785794,-1.5708,-0.523599,-4.32771e-08,-2.09439,-1.5708,1.5708,0.785399,-0.000697988,-9.79027e-05,-0.000306564,0.00052474,-4.53432e-05,-8.34619e-05,-0.00015463,0,0,0,0,0,0,0,0.0732535,-10.2924,0.98334,20.7694,-0.77513,-0.572911,-0.193899,0.044952,-1.1718,0.803359,2.25618,-0.212358,-0.576294,-0.265611
2233388,1,-1.5709,-0.522745,-0.000618459,-2.09579,-1.57079,1.57155,0.785796,-1.5708,-0.523599,-4.32771e-08,-2.09439,-1.5708,1.5708,0.785399,9.14864e-05,0.00104836,0.000909248,-0.000299787,0.000413002,0.000181718,0.00060899,0,0,0,0,0,0,0,0.0494498,-10.34,0.935733,20.7972,-0.787031,-0.57932,-0.213125,0.0448603,-1.16968,0.803168,2.2548,-0.212322,-0.57628,-0.265003
2233389,1,-1.5709,-0.522747,-0.000623801,-2.09579,-1.57079,1.57154,0.785794,-1.5708,-0.523599,-4.32771e-08,-2.09439,-1.5708,1.5708,0.785399,6.09909e-05,0.000142092,-0.00115707,0.000449756,-0.000163658,-0.000353573,-6.87246e-05,0,0,0,0,0,0,0,0.0494498,-10.3162,1.01111,20.7694,-0.77513,-0.566503,-0.200308,0.0448441,-1.16994,0.803084,2.25468,-0.212334,-0.576277,-0.264412
2233390,1,-1.5709,-0.522749,-0.000620199,-2.09579,-1.57079,1.57155,0.785796,-1.5708,-0.523599,-4.32771e-08,-2.09439,-1.5708,1.5708,0.785399,0.000597473,-0.000462084,0.000435044,-0.0014634,0.000333066,1.64375e-06,0.000428901,0,0,0,0,0,0,0,0.0256461,-10.2924,0.959536,20.8448,-0.787031,-0.572911,-0.213125,0.0449982,-1.17098,0.80332,2.25527,-0.212375,-0.576242,-0.263854
2233391,1,-1.5709,-0.522747,-0.000620205,-2.09579,-1.57079,1.57155,0.785795,-1.5708,-0.523599,-4.32771e-08,-2.09439,-1.5708,1.5708,0.785399,0.000398315,0.000248756,0.000290029,0.000138023,-0.000421194,0.000238455,4.85754e-05,0,0,0,0,0,0,0,0.0256461,-10.3162,0.959536,20.7972,-0.769636,-0.57932,-0.206716,0.0447722,-1.17182,0.803033,2.25625,-0.212453,-0.576244,-0.263336
2233392,1,-1.57091,-0.522749,-0.000621878,-2.09579,-1.57079,1.57155,0.785794,-1.5708,-0.523599,-4.32771e-08,-2.09439,-1.5708,1.5708,0.785399,-0.000848081,-0.000390975,-0.000363459,-0.00102161,0.000126871,-7.83891e-05,-0.000204975,0,0,0,0,0,0,0,0.0732535,-10.2924,0.98334,20.8448,-0.780623,-0.572911,-0.200308,0.0443876,-1.17258,0.802471,2.25743,-0.212548,-0.576259,-0.262862
2233393,1,-1.5709,-0.522751,-0.000620208,-2.09579,-1.57079,1.57155,0.785796,-1.5708,-0.523599,-4.32771e-08,-2.09439,-1.5708,1.5708,0.785399,-0.000565387,-0.000910264,0.000314506,0.000432552,0.000525965,0.000422458,0.000575427,0,0,0,0,0,0,0,0.0732535,-10.2646,0.959536,20.7972,-0.792525,-0.585729,-0.219534,0.0447052,-1.17215,0.802783,2.25809,-0.212606,-0.576151,-0.262433
2233394,1,-1.5709,-0.522747,-0.000618538,-2.09579,-1.57079,1.57155,0.785795,-1.5708,-0.523599,-4.32771e-08,-2.09439,-1.5708,1.5708,0.785399,0.000179887,0.000599583,0.000766483,0.000288368,-0.000293186,0.000281639,-9.11002e-05,0,0,0,0,0,0,0,0.0494498,-10.3162,0.935733,20.7972,-0.77513,-0.585729,-0.206716,0.0450631,-1.17045,0.802969,2.25788,-0.212634,-0.576037,-0.262048
2233395,1,-1.5709,-0.522747,-0.000620208,-2.09578,-1.57079,1.57155,0.785795,-1.5708,-0.523599,-4.32771e-08,-2.09439,-1.5708,1.5708,0.785399,-0.000436887,0.000399722,-4.58235e-05,0.00139867,8.31669e-06,-0.000286959,-6.07334e-05,0,0,0,0,0,0,0,0.0732535,-10.3162,0.959536,20.7456,-0.780623,-0.572911,-0.206716,0.0449697,-1.16914,0.802391,2.25721,-0.212664,-0.576026,-0.261707
2233396,1,-1.5709,-0.522747,-0.000623827,-2.09579,-1.57079,1.57155,0.785795,-1.5708,-0.523599,-4.32771e-08,-2.09439,-1.5708,1.5708,0.785399,0.000822366,0.000266482,-0.00123697,0.000375635,-0.000808015,4.60532e-05,-4.0489e-05,0,0,0,0,0,0,0,0.0256461,-10.3162,1.01111,20.7694,-0.75865,-0.57932,-0.206716,0.0451718,-1.16853,0.802288,2.25627,-0.212674,-0.576003,-0.261405
2233397,1,-1.5709,-0.522749,-0.000621879,-2.09579,-1.57079,1.57155,0.785798,-1.5708,-0.523599,-4.32771e-08,-2.09439,-1.5708,1.5708,0.785399,-8.56806e-06,-0.000379158,-0.000175036,-0.00039919,0.000275307,3.07022e-05,0.000922443,0,0,0,0,0,0,0,0.0494498,-10.2924,0.98334,20.7972,-0.780623,-0.57932,-0.232351,0.0458969,-1.1681,0.80311,2.25544,-0.212665,-0.575913,-0.261132
2233398,1,-1.5709,-0.522747,-0.000621879,-2.09579,-1.57079,1.57155,0.785795,-1.5708,-0.523599,-4.32771e-08,-2.09439,-1.5708,1.5708,0.785399,0.00120071,0.00030404,-0.000116691,-0.000266127,0.000421033,-0.000216891,-0.000334474,0,0,0,0,0,0,0,-0.00212494,-10.3162,0.98334,20.7972,-0.787031,-0.572911,-0.206716,0.0463864,-1.16807,0.803727,2.25531,-0.212678,-0.575861,-0.260892
2233399,1,-1.57091,-0.522747,-0.000618078,-2.09578,-1.57079,1.57155,0.785796,-1.5708,-0.523599,-4.32771e-08,-2.09439,-1.5708,1.5708,0.785399,-0.00040595,0.000202693,0.000479018,0.00102901,0.000484242,-0.000144594,0.000251735,0,0,0,0,0,0,0,0.0494498,-10.3162,0.959536,20.7456,-0.792525,-0.572911,-0.219534,0.0461959,-1.16849,0.803417,2.25551,-0.212718,-0.575909,-0.260696
2233400,1,-1.5709,-0.522747,-0.000621168,-2.09579,-1.57079,1.57155,0.785798,-1.5708,-0.523599,-4.32771e-08,-2.09439,-1.5708,1.5708,0.785399,0.000286179,0.000135129,-0.000237467,0.000129193,-0.000321355,-9.63959e-05,-0.000306894,0,0,0,0,0,0,0,0.0256461,-10.3162,0.98334,20.7694,-0.77513,-0.572911,-0.206716,0.0457624,-1.16884,0.802745,2.25538,-0.212763,-0.575985,-0.260543
2233401,1,-1.57091,-0.522749,-0.000621642,-2.09579,-1.57079,1.57155,0.785794,-1.5708,-0.523599,-4.32771e-08,-2.09439,-1.5708,1.5708,0.785399,-0.000366026,-0.000466726,-0.000158311,8.61289e-05,-0.00041763,0.000410454,-0.000916673,0,0,0,0,0,0,0,0.0494498,-10.2924,0.98334,20.7694,-0.769636,-0.585729,-0.18749,0.0456081,-1.16869,0.802487,2.25493,-0.212802,-0.576002,-0.260423
2233402,1,-1.57091,-0.522752,-0.0006218,-2.09578,-1.57079,1.57155,0.785798,-1.5708,-0.523599,-4.32771e-08,-2.09439,-1.5708,1.5708,0.785399,-0.000244017,-0.00151758,-0.000105541,0.000614231,0.000128524,0.000273636,0.0010504,0,0,0,0,0,0,0,0.0494498,-10.2408,0.98334,20.7456,-0.780623,-0.585729,-0.232351,0.0458582,-1.16668,0.802803,2.25371,-0.212806,-0.575931,-0.260319
2233403,1,-1.57091,-0.522749,-0.000621852,-2.09579,-1.57079,1.57154,0.785793,-1.5708,-0.523599,-4.32771e-08,-2.09439,-1.5708,1.5708,0.785399,-0.000162678,0.000194708,-7.03604e-05,-0.000796938,-0.000117735,-0.000529653,-0.000961248,0,0,0,0,0,0,0,0.0494498,-10.2924,0.98334,20.7972,-0.77513,-0.566503,-0.18749,0.0463477,-1.16315,0.803432,2.25194,-0.212785,-0.57581,-0.260215
2233404,1,-1.5709,-0.522747,-0.000620199,-2.09579,-1.57079,1.57155,0.7858,-1.5708,-0.523599,-4.32771e-08,-2.09439,-1.5708,1.5708,0.785399,-0.000665264,0.000686617,0.000509905,-0.000531292,0.000124985,0.000121616,0.000545963,0,0,0,0,0,0,0,0.0732535,-10.3162,0.959536,20.7972,-0.780623,-0.57932,-0.219534,0.0467841,-1.1618,0.804005,2.25155,-0.212816,-0.575724,-0.260104
2233405,1,-1.5709,-0.522747,-0.000621876,-2.09578,-1.57079,1.57155,0.785799,-1.5708,-0.523599,-4.32771e-08,-2.09439,-1.5708,1.5708,0.785399,0.000670114,0.000457745,-0.000216875,0.00140904,0.0003207,8.10773e-05,0.000838693,0,0,0,0,0,0,0,0.0256461,-10.3162,0.98334,20.7218,-0.787031,-0.57932,-0.232351,0.0469028,-1.16323,0.804157,2.25239,-0.212898,-0.575725,-0.259982
2233406,1,-1.5709,-0.522751,-0.000620207,-2.09579,-1.57079,1.57155,0.785799,-1.5708,-0.523599,-4.32771e-08,-2.09439,-1.5708,1.5708,0.785399,-0.000110069,-0.000901263,0.000412228,-0.000174262,-0.000430446,5.40515e-05,0.000796488,0,0,0,0,0,0,0,0.0494498,-10.2646,0.959536,20.7694,-0.769636,-0.57932,-0.23876,0.0466106,-1.16432,0.803741,2.25256,-0.212965,-0.575793,-0.259875
2233407,1,-1.5709,-0.522749,-0.000620208,-2.09579,-1.57079,1.57155,0.785796,-1.5708,-0.523599,-4.32771e-08,-2.09439,-1.5708,1.5708,0.785399,-7.33793e-05,4.87722e-05,0.000274819,-0.0013226,-8.35034e-05,3.60344e-05,-0.000418444,0,0,0,0,0,0,0,0.0494498,-10.2924,0.959536,20.821,-0.77513,-0.57932,-0.213125,0.0460714,-1.16441,0.80293,2.25242,-0.213032,-0.57589,-0.259813
2233408,1,-1.5709,-0.522747,-0.000620208,-2.09579,-1.57079,1.57155,0.785797,-1.5708,-0.523599,-4.32771e-08,-2.09439,-1.5708,1.5708,0.785399,0.000507892,0.000589327,0.000183213,0.000324692,0.000147789,2.40229e-05,0.000195755,0,0,0,0,0,0,0,0.0256461,-10.3162,0.959536,20.7694,-0.780623,-0.57932,-0.225942,0.0453691,-1.16544,0.801874,2.2532,-0.213134,-0.576023,-0.259802
2233409,1,-1.5709,-0.522749,-0.000620208,-2.09579,-1.57079,1.57155,0.785799,-1.5708,-0.523599,-4.32771e-08,-2.09439,-1.5708,1.5708,0.785399,0.000338595,-0.000163927,0.000122142,0.000216461,0.000335891,-0.000221344,0.000876489,0,0,0,0,0,0,0,0.0256461,-10.2924,0.959536,20.7694,-0.787031,-0.572911,-0.246084,0.0444882,-1.16724,0.800615,2.2542,-0.213239,-0.576194,-0.259838
2233410,1,-1.5709,-0.522751,-0.000621879,-2.09579,-1.57079,1.57155,0.785799,-1.5708,-0.523599,-4.32771e-08,-2.09439,-1.5708,1.5708,0.785399,0.00022573,-0.000758899,-0.000475384,-0.00106212,-0.000420328,-0.000147562,0.000313058,0,0,0,0,0,0,0,0.0256461,-10.2646,0.98334,20.821,-0.769636,-0.572911,-0.23876,0.0437821,-1.16811,0.799658,2.25467,-0.213317,-0.576322,-0.259927
2233411,1,-1.57091,-0.522747,-0.000621879,-2.09579,-1.57079,1.57155,0.785797,-1.5708,-0.523599,-4.32771e-08,-2.09439,-1.5708,1.5708,0.785399,-0.000963137,0.000700493,-0.000316923,-0.000151267,0.000126685,0.000613702,-0.000266012,0,0,0,0,0,0,0,0.0732535,-10.3162,0.98334,20.7972,-0.780623,-0.592137,-0.225942,0.0438433,-1.16858,0.799844,2.25525,-0.213377,-0.576318,-0.260079
2233412,1,-1.57091,-0.522747,-0.000623827,-2.09579,-1.57079,1.57155,0.785797,-1.5708,-0.523599,-4.32771e-08,-2.09439,-1.5708,1.5708,0.785399,-8.52796e-05,0.000466996,-0.000860896,0.000548769,-0.000118991,-6.55833e-05,-0.000177341,0,0,0,0,0,0,0,0.0494498,-10.3162,1.01111,20.7694,-0.77513,-0.57932,-0.225942,0.0448532,-1.16992,0.801433,2.25612,-0.21341,-0.576187,-0.260292
2233413,1,-1.57091,-0.522745,-0.000620208,-2.09579,-1.57079,1.57155,0.7858,-1.5708,-0.523599,-4.32771e-08,-2.09439,-1.5708,1.5708,0.785399,-5.6853e-05,0.000868142,0.000632495,-0.00139739,-7.93256e-05,-0.000281081,0.000865117,0,0,0,0,0,0,0,0.0494498,-10.34,0.959536,20.8448,-0.77513,-0.572911,-0.252493,0.0460448,-1.17259,0.803318,2.25743,-0.213445,-0.576056,-0.260548
2233414,1,-1.5709,-0.522747,-0.000616589,-2.09579,-1.57079,1.57155,0.785799,-1.5708,-0.523599,-4.32771e-08,-2.09439,-1.5708,1.5708,0.785399,0.00051891,2.19496e-05,0.00162809,0.000831643,0.000150568,0.00028733,6.8118e-05,0,0,0,0,0,0,0,0.0256461,-10.3162,0.907962,20.7694,-0.780623,-0.585729,-0.23876,0.0459832,-1.17591,0.803308,2.25912,-0.213526,-0.576132,-0.26084
2233415,1,-1.57091,-0.522751,-0.000621879,-2.09579,-1.57079,1.57155,0.785798,-1.5708,-0.523599,-4.32771e-08,-2.09439,-1.5708,1.5708,0.785399,-0.000767684,-0.00119179,-0.000677845,0.000554429,-0.000103071,0.000191554,-0.000191947,0,0,0,0,0,0,0,0.0732535,-10.2646,0.98334,20.7694,-0.77513,-0.585729,-0.232351,0.0449409,-1.1768,0.801671,2.25936,-0.213575,-0.57634,-0.261189
2233416,1,-1.57091,-0.522749,-0.000623827,-2.09579,-1.57079,1.57154,0.785796,-1.5708,-0.523599,-4.32771e-08,-2.09439,-1.5708,1.5708,0.785399,-0.000511789,-0.000144915,-0.00110151,-0.000279995,-0.000272164,-0.000821733,-0.000602682,0,0,0,0,0,0,0,0.0732535,-10.2924,1.01111,20.7972,-0.769636,-0.560094,-0.219534,0.0450094,-1.17433,0.801531,2.25779,-0.213519,-0.576348,-0.26159
2233417,1,-1.57091,-0.522749,-0.000620208,-2.09579,-1.57079,1.57155,0.785801,-1.5708,-0.523599,-4.32771e-08,-2.09439,-1.5708,1.5708,0.785399,-0.000990807,-9.66097e-05,0.000472086,-0.000743475,0.000225459,-7.31043e-05,0.00105627,0,0,0,0,0,0,0,0.101024,-10.2924,0.959536,20.821,-0.780623,-0.572911,-0.258901,0.0464627,-1.17159,0.803354,2.25643,-0.213427,-0.576141,-0.262013
2233418,1,-1.5709,-0.522745,-0.000620208,-2.09579,-1.57079,1.57155,0.785799,-1.5708,-0.523599,-4.32771e-08,-2.09439,-1.5708,1.5708,0.785399,0.0011027,0.00104922,0.000314724,6.11619e-05,0.000150307,0.000188623,-4.18027e-05,0,0,0,0,0,0,0,0.0256461,-10.34,0.959536,20.7972,-0.780623,-0.57932,-0.23876,0.0475358,-1.17092,0.804574,2.25635,-0.213389,-0.576013,-0.262443
2233419,1,-1.57091,-0.522747,-0.000620208,-2.09579,-1.57079,1.57155,0.785798,-1.5708,-0.523599,-4.32771e-08,-2.09439,-1.5708,1.5708,0.785399,-0.0010281,0.000142666,0.000209816,-0.000516037,0.000337564,0.000600466,-0.000265227,0,0,0,0,0,0,0,0.101024,-10.3162,0.959536,20.821,-0.787031,-0.592137,-0.232351,0.0476143,-1.17238,0.804329,2.25729,-0.213412,-0.57606,-0.262891
2233420,1,-1.5709,-0.522745,-0.000620208,-2.09579,-1.57079,1.57155,0.785799,-1.5708,-0.523599,-4.32771e-08,-2.09439,-1.5708,1.5708,0.785399,0.000521023,0.000651923,0.000139877,-0.000900837,-0.000215767,-7.4407e-05,6.05406e-05,0,0,0,0,0,0,0,0.0494498,-10.34,0.959536,20.8448,-0.77513,-0.57932,-0.23876,0.0474196,-1.17505,0.803625,2.25896,-0.213473,-0.576173,-0.263361
2233421,1,-1.57091,-0.522749,-0.000623827,-2.09579,-1.57079,1.57155,0.785799,-1.5708,-0.523599,-4.32771e-08,-2.09439,-1.5708,1.5708,0.785399,-0.000209463,-0.000679009,-0.00111317,0.000513066,-0.000143844,-4.96047e-05,4.03604e-05,0,0,0,0,0,0,0,0.0732535,-10.2924,1.01111,20.7972,-0.77513,-0.57932,-0.23876,0.0475394,-1.17727,0.803344,2.26053,-0.213529,-0.576248,-0.263842
2233422,1,-1.57091,-0.522747,-0.000620208,-2.09579,-1.57079,1.57154,0.785798,-1.5708,-0.523599,-4.32771e-08,-2.09439,-1.5708,1.5708,0.785399,-0.000139642,0.000104139,0.00046431,-0.000214768,-0.000299347,-0.000507788,-0.000210452,0,0,0,0,0,0,0,0.0732535,-10.3162,0.959536,20.821,-0.769636,-0.566503,-0.232351,0.0481611,-1.17751,0.803755,2.26098,-0.21353,-0.576237,-0.264334
2233423,1,-1.57091,-0.522747,-0.000621879,-2.09579,-1.57079,1.57154,0.785798,-1.5708,-0.523599,-4.32771e-08,-2.09439,-1.5708,1.5708,0.785399,-9.30948e-05,6.94263e-05,-0.000247272,-0.000143179,-0.00938267,-0.000338525,-0.000140301,0,0,0,0,0,0,0,0.0732535,-10.3162,0.98334,20.821,-0.77513,-0.566503,-0.232351,0.0489107,-1.17666,0.804258,2.26073,-0.213466,-0.57621,-0.264821
2233424,1,-1.57091,-0.522749,-0.000621879,-2.09579,-1.57079,1.57155,0.785801,-1.5708,-0.523599,-4.32771e-08,-2.09439,-1.5708,1.5708,0.785399,0.000494749,-0.000510528,-0.000164848,-9.54524e-05,-0.00724078,0.000486393,0.00088981,0,0,0,0,0,0,0,0.0494498,-10.2924,0.98334,20.821,-0.769636,-0.585729,-0.258901,0.0495422,-1.17539,0.804576,2.26015,-0.213312,-0.576217,-0.265287
2233425,1,-1.5709,-0.522747,-0.000620208,-2.09579,-1.57079,1.57155,0.785799,-1.5708,-0.523599,-4.32771e-08,-2.09439,-1.5708,1.5708,0.785399,0.000886644,0.00021646,0.000446913,0.000493177,-0.00500694,8.69033e-05,-0.000152779,0,0,0,0,0,0,0,0.0256461,-10.3162,0.959536,20.7972,-0.780623,-0.57932,-0.23876,0.0496827,-1.17338,0.804248,2.25906,-0.213094,-0.576299,-0.265743
2233426,1,-1.5709,-0.522747,-0.000623827,-2.09579,-1.57079,1.57155,0.785801,-1.5708,-0.523599,-4.32771e-08,-2.09439,-1.5708,1.5708,0.785399,0.000591096,0.000144307,-0.000908484,0.000978399,-0.00438831,5.79356e-05,0.000644133,0,0,0,0,0,0,0,0.0256461,-10.3162,1.01111,20.7694,-0.764143,-0.57932,-0.258901,0.0492665,-1.17127,0.80324,2.25758,-0.212871,-0.576454,-0.266215
2233427,1,-1.5709,-0.522749,-0.000620208,-2.09579,-1.57079,1.57155,0.785799,-1.5708,-0.523599,-4.32771e-08,-2.09439,-1.5708,1.5708,0.785399,0.000394064,-0.000460607,0.00060077,2.6518e-06,-0.00305209,3.86237e-05,-4.5296e-05,0,0,0,0,0,0,0,0.0256461,-10.2924,0.959536,20.7972,-0.769636,-0.57932,-0.246084,0.0487905,-1.1691,0.802287,2.25588,-0.212659,-0.576596,-0.266717
2233428,1,-1.5709,-0.522751,-0.000621879,-2.09579,-1.57079,1.57155,0.7858,-1.5708,-0.523599,-4.32771e-08,-2.09439,-1.5708,1.5708,0.785399,0.000912323,-0.000956686,-0.000156299,1.76787e-06,-0.00207877,2.57491e-05,0.000207162,0,0,0,0,0,0,0,-0.00212494,-10.2646,0.98334,20.7972,-0.77513,-0.57932,-0.252493,0.0480627,-1.16625,0.801056,2.25413,-0.21248,-0.576736,-0.267254
2233429,1,-1.57091,-0.522751,-0.000618078,-2.09579,-1.57079,1.57155,0.785799,-1.5708,-0.523599,-4.32771e-08,-2.09439,-1.5708,1.5708,0.785399,-0.00115502,-0.00063779,0.000452613,0.000650793,-0.00177492,1.71661e-05,-0.000370519,0,0,0,0,0,0,0,0.0732535,-10.2646,0.959536,20.7694,-0.769636,-0.57932,-0.23876,0.0473096,-1.16239,0.799806,2.25224,-0.212322,-0.576838,-0.267827
2233430,1,-1.5709,-0.522745,-0.000619498,-2.09579,-1.57079,1.57155,0.785798,-1.5708,-0.523599,-4.32771e-08,-2.09439,-1.5708,1.5708,0.785399,-0.000770015,0.00133804,0.000301742,-0.000772564,-0.00111905,0.000486162,-0.000484371,0,0,0,0,0,0,0,0.0732535,-10.34,0.959536,20.821,-0.77513,-0.592137,-0.232351,0.0471527,-1.15983,0.79936,2.25116,-0.212198,-0.576849,-0.268419
2233431,1,-1.5709,-0.522749,-0.000621642,-2.09578,-1.57079,1.57155,0.785799,-1.5708,-0.523599,-4.32771e-08,-2.09439,-1.5708,1.5708,0.785399,4.34687e-05,-0.000221594,-0.000355651,0.00180501,-0.000850444,8.6749e-05,-8.55553e-05,0,0,0,0,0,0,0,0.0494498,-10.2924,0.98334,20.7218,-0.77513,-0.585729,-0.23876,0.0474922,-1.1601,0.799633,2.25139,-0.212123,-0.576821,-0.269007
2233432,1,-1.57091,-0.522749,-0.000620129,-2.09579,-1.57079,1.57155,0.7858,-1.5708,-0.523599,-4.32771e-08,-2.09439,-1.5708,1.5708,0.785399,2.89792e-05,-0.00014773,0.000319712,-0.0005599,-0.000848723,-0.000179526,0.000451589,0,0,0,0,0,0,0,0.0494498,-10.2924,0.959536,20.7972,-0.769636,-0.57932,-0.252493,0.0479082,-1.16072,0.800075,2.25154,-0.212054,-0.576799,-0.269579
2233433,1,-1.5709,-0.522747,-0.000620182,-2.09579,-1.57079,1.57155,0.785803,-1.5708,-0.523599,-4.32771e-08,-2.09439,-1.5708,1.5708,0.785399,0.000576131,0.000458326,0.000213141,-0.000930079,-0.000421097,-0.000119684,0.00030106,0,0,0,0,0,0,0,0.0256461,-10.3162,0.959536,20.821,-0.77513,-0.57932,-0.252493,0.0479105,-1.16172,0.799982,2.25219,-0.212031,-0.576852,-0.27013
2233434,1,-1.57091,-0.522749,-0.00062187,-2.09578,-1.57079,1.57155,0.785801,-1.5708,-0.523599,-4.32771e-08,-2.09439,-1.5708,1.5708,0.785399,-0.000729536,-0.000251262,-0.000414718,0.00114319,-0.000528231,-7.97894e-05,-3.66525e-05,0,0,0,0,0,0,0,0.0732535,-10.2924,0.98334,20.7456,-0.769636,-0.57932,-0.246084,0.0477651,-1.16363,0.799731,2.25361,-0.212049,-0.57694,-0.270671
2233435,1,-1.57091,-0.522749,-0.000621876,-2.09579,-1.57079,1.57155,0.785801,-1.5708,-0.523599,-4.32771e-08,-2.09439,-1.5708,1.5708,0.785399,-0.000486358,-0.000167508,-0.000276479,-0.000444302,-0.00018174,-0.000290552,0.000450283,0,0,0,0,0,0,0,0.0732535,-10.2924,0.98334,20.7972,-0.77513,-0.572911,-0.258901,0.048312,-1.16465,0.800444,2.25442,-0.212025,-0.576917,-0.271217
2233436,1,-1.5709,-0.522747,-0.000621878,-2.09579,-1.57079,1.57154,0.785802,-1.5708,-0.523599,-4.32771e-08,-2.09439,-1.5708,1.5708,0.785399,0.000232574,0.00044514,-0.000184319,0.000910224,-0.000349388,-0.00043106,0.000537548,0,0,0,0,0,0,0,0.0494498,-10.3162,0.98334,20.7456,-0.769636,-0.566503,-0.26531,0.0493308,-1.16509,0.801803,2.25475,-0.211969,-0.576814,-0.271773
2233437,1,-1.5709,-0.522745,-0.000621878,-2.09579,-1.57079,1.57155,0.785799,-1.5708,-0.523599,-4.32771e-08,-2.09439,-1.5708,1.5708,0.785399,0.000155049,0.000853572,-0.000122879,5.00043e-05,-4.80583e-05,-5.00145e-05,-0.000624979,0,0,0,0,0,0,0,0.0494498,-10.34,0.98334,20.7694,-0.77513,-0.572911,-0.23876,0.0500737,-1.16639,0.802818,2.25524,-0.211923,-0.576753,-0.272347
2233438,1,-1.57091,-0.522749,-0.000620208,-2.09579,-1.57079,1.57155,0.785802,-1.5708,-0.523599,-4.32771e-08,-2.09439,-1.5708,1.5708,0.785399,-0.000453446,-0.000544576,0.000474892,0.000590148,-4.59763e-05,0.000204016,0.00080405,0,0,0,0,0,0,0,0.0732535,-10.2924,0.959536,20.7456,-0.77513,-0.57932,-0.271719,0.0503741,-1.1681,0.803186,2.2557,-0.211884,-0.576748,-0.272942
2233439,1,-1.57091,-0.522749,-0.000621879,-2.09579,-1.57079,1.57155,0.7858,-1.5708,-0.523599,-4.32771e-08,-2.09439,-1.5708,1.5708,0.785399,0.000254515,-0.000363051,-0.000240217,-0.00016338,0.000162347,0.000136011,-0.000176043,0,0,0,0,0,0,0,0.0494498,-10.2924,0.98334,20.7694,-0.780623,-0.57932,-0.252493,0.050399,-1.16846,0.803051,2.25553,-0.211834,-0.576755,-0.273557
2233440,1,-1.57091,-0.522749,-0.000620208,-2.09578,-1.57079,1.57154,0.785801,-1.5708,-0.523599,-4.32771e-08,-2.09439,-1.5708,1.5708,0.785399,-0.00103675,-0.000242034,0.000396667,0.000447892,0.00033775,-0.000384044,0.000119997,0,0,0,0,0,0,0,0.101024,-10.2924,0.959536,20.7456,-0.787031,-0.566503,-0.258901,0.0504756,-1.16747,0.802874,2.25481,-0.211774,-0.57673,-0.274193
2233441,1,-1.57091,-0.522751,-0.000620208,-2.09579,-1.57079,1.57155,0.7858,-1.5708,-0.523599,-4.32771e-08,-2.09439,-1.5708,1.5708,0.785399,0.00051526,-0.00081097,0.000264445,-0.000258217,-0.000831874,-1.86705e-05,-0.000157361,0,0,0,0,0,0,0,0.0494498,-10.2646,0.959536,20.7694,-0.75865,-0.572911,-0.252493,0.0505893,-1.16577,0.802616,2.25381,-0.211723,-0.576685,-0.274849
2233442,1,-1.5709,-0.522749,-0.000621879,-2.09579,-1.57079,1.57155,0.785799,-1.5708,-0.523599,-4.32771e-08,-2.09439,-1.5708,1.5708,0.785399,0.000900318,0.000108967,-0.000380515,-0.000172145,-0.000152092,0.000462271,-0.000342266,0,0,0,0,0,0,0,0.0256461,-10.2924,0.98334,20.7694,-0.769636,-0.585729,-0.246084,0.0503169,-1.16394,0.801811,2.25288,-0.211695,-0.57669,-0.275512
2233443,1,-1.57091,-0.522745,-0.000618078,-2.09579,-1.57079,1.57155,0.785799,-1.5708,-0.523599,-4.32771e-08,-2.09439,-1.5708,1.5708,0.785399,-0.000513412,0.00118627,0.000303135,-0.000114763,-0.000308152,-0.000166537,-0.000499445,0,0,0,0,0,0,0,0.0732535,-10.34,0.959536,20.7694,-0.764143,-0.572911,-0.23876,0.0498065,-1.16409,0.800809,2.25294,-0.2117,-0.576751,-0.276167
2233444,1,-1.57091,-0.522745,-0.000619498,-2.09578,-1.57079,1.57154,0.785798,-1.5708,-0.523599,-4.32771e-08,-2.09439,-1.5708,1.5708,0.785399,0.000214538,0.000790846,0.00020209,0.000480303,-0.000207915,-0.000585743,-0.000570322,0,0,0,0,0,0,0,0.0494498,-10.34,0.959536,20.7456,-0.764143,-0.560094,-0.232351,0.0494129,-1.16704,0.800011,2.2541,-0.211724,-0.576826,-0.276793
2233445,1,-1.57091,-0.522749,-0.000621642,-2.09579,-1.57079,1.57155,0.785795,-1.5708,-0.523599,-4.32771e-08,-2.09439,-1.5708,1.5708,0.785399,-0.000413787,-0.000586393,-0.000422085,-0.000886224,-0.000140471,0.000558941,-0.00132965,0,0,0,0,0,0,0,0.0732535,-10.2924,0.98334,20.7972,-0.764143,-0.585729,-0.206716,0.0493196,-1.17057,0.799608,2.25544,-0.211722,-0.576854,-0.277374
2233446,1,-1.57091,-0.522749,-0.0006218,-2.09579,-1.57079,1.57155,0.785796,-1.5708,-0.523599,-4.32771e-08,-2.09439,-1.5708,1.5708,0.785399,0.000280954,-0.000390929,-0.00028139,-0.000590816,-9.50425e-05,0.000135268,-0.000649075,0,0,0,0,0,0,0,0.0494498,-10.2924,0.98334,20.7972,-0.764143,-0.57932,-0.213125,0.0497024,-1.17261,0.799876,2.25642,-0.211667,-0.576779,-0.277886
2233447,1,-1.57091,-0.522745,-0.000621852,-2.09579,-1.57079,1.57155,0.785797,-1.5708,-0.523599,-4.32771e-08,-2.09439,-1.5708,1.5708,0.785399,0.000187303,0.000853005,-0.000187593,-0.000393877,0.000783302,-0.00014718,4.20014e-05,0,0,0,0,0,0,0,0.0494498,-10.34,0.98334,20.7972,-0.787031,-0.572911,-0.225942,0.0502443,-1.17408,0.800421,2.25741,-0.211585,-0.57667,-0.278296
2233448,1,-1.5709,-0.522749,-0.000623819,-2.09579,-1.57079,1.57155,0.785794,-1.5708,-0.523599,-4.32771e-08,-2.09439,-1.5708,1.5708,0.785399,-0.000431944,-0.000544954,-0.000774676,0.000387029,8.06073e-05,-9.81201e-05,-0.000921435,0,0,0,0,0,0,0,0.0732535,-10.2924,1.01111,20.7694,-0.77513,-0.572911,-0.200308,0.0509521,-1.17563,0.801269,2.25829,-0.211481,-0.576538,-0.278592
2233449,1,-1.57091,-0.522749,-0.000620205,-2.09578,-1.57079,1.57155,0.785796,-1.5708,-0.523599,-4.32771e-08,-2.09439,-1.5708,1.5708,0.785399,-0.000287962,-0.000363303,0.000689975,0.000814831,-0.000353752,0.000171946,-0.000139572,0,0,0,0,0,0,0,0.0732535,-10.2924,0.959536,20.7456,-0.764143,-0.57932,-0.213125,0.0518974,-1.17535,0.802396,2.25785,-0.211324,-0.576356,-0.278783
2233450,1,-1.57091,-0.522751,-0.000618077,-2.09579,-1.57079,1.57155,0.785793,-1.5708,-0.523599,-4.32771e-08,-2.09439,-1.5708,1.5708,0.785399,0.000364837,-0.000891816,0.000459983,-0.00122002,0.000170625,-0.000122729,-0.00104248,0,0,0,0,0,0,0,0.0494498,-10.2646,0.959536,20.821,-0.77513,-0.572911,-0.18749,0.0522858,-1.17304,0.802572,2.25629,-0.211152,-0.576242,-0.278866
2233451,1,-1.5709,-0.522749,-0.000621168,-2.09579,-1.57079,1.57155,0.785796,-1.5708,-0.523599,-4.32771e-08,-2.09439,-1.5708,1.5708,0.785399,0.000800037,5.50701e-05,-0.000250156,0.000393081,-9.00315e-05,0.00015554,0.000254447,0,0,0,0,0,0,0,0.0256461,-10.2924,0.98334,20.7694,-0.769636,-0.57932,-0.213125,0.0518478,-1.17047,0.80156,2.25491,-0.211017,-0.576253,-0.278833
2233452,1,-1.5709,-0.522745,-0.000621642,-2.09579,-1.57079,1.57154,0.785796,-1.5708,-0.523599,-4.32771e-08,-2.09439,-1.5708,1.5708,0.785399,0.000533358,0.00115034,-0.000166771,-0.000944372,0.000583991,-0.000371025,0.000169631,0,0,0,0,0,0,0,0.0256461,-10.34,0.98334,20.821,-0.787031,-0.566503,-0.213125,0.0511054,-1.16982,0.800324,2.25458,-0.210932,-0.576328,-0.278681
2233453,1,-1.5709,-0.522745,-0.000620129,-2.09579,-1.57079,1.57155,0.785798,-1.5708,-0.523599,-4.32771e-08,-2.09439,-1.5708,1.5708,0.785399,0.000355572,0.000766892,0.000445631,-0.000629581,0.000151782,0.000227368,0.000825164,0,0,0,0,0,0,0,0.0256461,-10.34,0.959536,20.821,-0.780623,-0.57932,-0.232351,0.0502233,-1.17258,0.79912,2.25602,-0.210925,-0.576454,-0.278425
2233454,1,-1.5709,-0.522745,-0.000621852,-2.09579,-1.57079,1.57155,0.785794,-1.5708,-0.523599,-4.32771e-08,-2.09439,-1.5708,1.5708,0.785399,0.000237048,0.000511261,-0.000259724,-0.000419721,0.000101048,0.000626297,-0.000636685,0,0,0,0,0,0,0,0.0256461,-10.34,0.98334,20.821,-0.780623,-0.592137,-0.200308,0.0492517,-1.17725,0.79792,2.25854,-0.210979,-0.576607,-0.278107
2233455,1,-1.5709,-0.522749,-0.000618069,-2.09579,-1.57079,1.57155,0.785797,-1.5708,-0.523599,-4.32771e-08,-2.09439,-1.5708,1.5708,0.785399,-0.00039878,-0.000772783,0.000383662,0.000276998,-0.000543091,-5.71868e-05,0.000524979,0,0,0,0,0,0,0,0.0494498,-10.2924,0.959536,20.7972,-0.764143,-0.57932,-0.225942,0.048559,-1.18058,0.797139,2.26032,-0.211018,-0.576705,-0.277762
2233456,1,-1.5709,-0.522749,-0.000623114,-2.09579,-1.57079,1.57155,0.7858,-1.5708,-0.523599,-4.32771e-08,-2.09439,-1.5708,1.5708,0.785399,-0.000822665,-0.000515189,-0.000950651,0.000834279,-0.000158689,-0.000275483,0.000349986,0,0,0,0,0,0,0,0.0732535,-10.2924,1.01111,20.7694,-0.769636,-0.572911,-0.225942,0.0487462,-1.18029,0.797533,2.26004,-0.210968,-0.576642,-0.277406
2233457,1,-1.57091,-0.522749,-0.000621459,-2.09579,-1.57079,1.57155,0.785795,-1.5708,-0.523599,-4.32771e-08,-2.09439,-1.5708,1.5708,0.785399,-0.000548444,-0.000343459,-0.000633767,-0.00120705,0.00030105,0.000291062,-0.000716112,0,0,0,0,0,0,0,0.0732535,-10.2924,1.01111,20.8448,-0.780623,-0.585729,-0.200308,0.0501773,-1.17762,0.799682,2.25855,-0.210842,-0.576374,-0.277052
2233458,1,-1.5709,-0.522751,-0.000619419,-2.09579,-1.57079,1.57155,0.785795,-1.5708,-0.523599,-4.32771e-08,-2.09439,-1.5708,1.5708,0.785399,0.000747995,-0.000878587,0.000783914,0.000958537,0.000200656,-4.33175e-05,-0.000240049,0,0,0,0,0,0,0,0.0256461,-10.2646,0.959536,20.7694,-0.780623,-0.57932,-0.206716,0.0516644,-1.17435,0.801935,2.25702,-0.210711,-0.5761,-0.276704
2233459,1,-1.57091,-0.522745,-0.000619945,-2.09579,-1.57079,1.57155,0.785796,-1.5708,-0.523599,-4.32771e-08,-2.09439,-1.5708,1.5708,0.785399,-5.81487e-05,0.00117751,0.00052261,-0.000567401,-6.97133e-05,-2.88783e-05,7.73263e-05,0,0,0,0,0,0,0,0.0494498,-10.34,0.959536,20.821,-0.77513,-0.57932,-0.213125,0.051807,-1.17159,0.802244,2.2557,-0.210633,-0.576052,-0.276347
2233460,1,-1.5709,-0.522747,-0.00061845,-2.09579,-1.57079,1.57155,0.785797,-1.5708,-0.523599,-4.32771e-08,-2.09439,-1.5708,1.5708,0.785399,0.000518046,0.000228197,0.000905218,0.000178544,0.00015695,-0.000256611,0.000526269,0,0,0,0,0,0,0,0.0256461,-10.3162,0.935733,20.7972,-0.780623,-0.572911,-0.225942,0.0507568,-1.17128,0.800845,2.2555,-0.210641,-0.576226,-0.275966
2233461,1,-1.5709,-0.522747,-0.000620179,-2.09578,-1.57079,1.57155,0.785793,-1.5708,-0.523599,-4.32771e-08,-2.09439,-1.5708,1.5708,0.785399,0.000345364,0.000152131,4.66669e-05,0.00132546,-0.000505737,-0.000171074,-0.00107331,0,0,0,0,0,0,0,0.0256461,-10.3162,0.959536,20.7456,-0.764143,-0.572911,-0.18749,0.0491806,-1.17206,0.798699,2.25559,-0.210682,-0.576495,-0.275576
2233462,1,-1.57091,-0.522743,-0.000621869,-2.09578,-1.57079,1.57155,0.785795,-1.5708,-0.523599,-4.32771e-08,-2.09439,-1.5708,1.5708,0.785399,-0.000883381,0.00130785,-0.000525701,0.000883637,-0.000133721,0.000360668,-3.46171e-06,0,0,0,0,0,0,0,0.0732535,-10.3678,0.98334,20.7456,-0.769636,-0.585729,-0.206716,0.0481522,-1.17261,0.797369,2.25499,-0.210677,-0.576677,-0.275185
2233463,1,-1.5709,-0.522747,-0.000621875,-2.09579,-1.57079,1.57155,0.785793,-1.5708,-0.523599,-4.32771e-08,-2.09439,-1.5708,1.5708,0.785399,-3.21088e-05,-0.000334528,-0.000350467,3.22794e-05,0.000555102,-0.000234272,-0.000714385,0,0,0,0,0,0,0,0.0494498,-10.3162,0.98334,20.7694,-0.787031,-0.572911,-0.18749,0.0483631,-1.17367,0.797859,2.25441,-0.21063,-0.576673,-0.274773
2233464,1,-1.5709,-0.522747,-0.000621878,-2.09579,-1.57079,1.57155,0.785794,-1.5708,-0.523599,-4.32771e-08,-2.09439,-1.5708,1.5708,0.785399,0.000535406,-0.000223019,-0.000233645,-0.000628094,0.000132701,8.11775e-05,-0.000238897,0,0,0,0,0,0,0,0.0256461,-10.3162,0.98334,20.7972,-0.780623,-0.57932,-0.193899,0.049066,-1.1744,0.799092,2.25414,-0.210585,-0.576578,-0.274329
2233465,1,-1.5709,-0.522751,-0.000620208,-2.09579,-1.57079,1.57154,0.785794,-1.5708,-0.523599,-4.32771e-08,-2.09439,-1.5708,1.5708,0.785399,-0.000756687,-0.00135511,0.000401049,-0.000975542,-0.000114989,-0.0004206,-0.000159265,0,0,0,0,0,0,0,0.0732535,-10.2646,0.959536,20.821,-0.77513,-0.566503,-0.193899,0.0495848,-1.17382,0.80003,2.25404,-0.210571,-0.57648,-0.273841
2233466,1,-1.5709,-0.522751,-0.000620208,-2.09579,-1.57079,1.57154,0.785795,-1.5708,-0.523599,-4.32771e-08,-2.09439,-1.5708,1.5708,0.785399,5.23543e-05,-0.000903403,0.000267366,-9.35491e-05,-0.000280114,-0.0002804,0.000368541,0,0,0,0,0,0,0,0.0494498,-10.2646,0.959536,20.7972,-0.769636,-0.566503,-0.206716,0.0499261,-1.1714,0.800545,2.25364,-0.210573,-0.576374,-0.273307
2233467,1,-1.5709,-0.522747,-0.000621879,-2.09579,-1.57079,1.57155,0.785795,-1.5708,-0.523599,-4.32771e-08,-2.09439,-1.5708,1.5708,0.785399,0.000591715,0.000604157,-0.000378568,-0.000619178,1.67044e-05,5.04258e-05,0.000245694,0,0,0,0,0,0,0,0.0256461,-10.3162,0.98334,20.821,-0.77513,-0.572911,-0.206716,0.050018,-1.16878,0.80066,2.25326,-0.21059,-0.576288,-0.272736
2233468,1,-1.57091,-0.522747,-0.000620208,-2.09579,-1.57079,1.57155,0.785794,-1.5708,-0.523599,-4.32771e-08,-2.09439,-1.5708,1.5708,0.785399,-0.000719147,0.000402771,0.000304433,0.000144027,1.11337e-05,0.000508335,-7.35628e-05,0,0,0,0,0,0,0,0.0732535,-10.3162,0.959536,20.7972,-0.77513,-0.585729,-0.200308,0.0499558,-1.16849,0.800654,2.25382,-0.210635,-0.57624,-0.272143
2233469,1,-1.5709,-0.522751,-0.000620208,-2.09579,-1.57079,1.57155,0.785796,-1.5708,-0.523599,-4.32771e-08,-2.09439,-1.5708,1.5708,0.785399,7.73804e-05,-0.000937912,0.000202956,-0.000460794,7.42063e-06,0.000101531,0.000425676,0,0,0,0,0,0,0,0.0494498,-10.2646,0.959536,20.821,-0.77513,-0.57932,-0.213125,0.0498987,-1.16919,0.800615,2.25468,-0.210682,-0.576203,-0.271546
2233470,1,-1.5709,-0.522751,-0.000621879,-2.09579,-1.57079,1.57155,0.785796,-1.5708,-0.523599,-4.32771e-08,-2.09439,-1.5708,1.5708,0.785399,5.15869e-05,-0.000625274,-0.000421508,0.000249616,4.94569e-06,6.76874e-05,0.000283784,0,0,0,0,0,0,0,0.0494498,-10.2646,0.98334,20.7972,-0.77513,-0.57932,-0.213125,0.0498866,-1.16837,0.80055,2.25478,-0.210694,-0.576148,-0.270962
2233471,1,-1.57091,-0.522749,-0.000621879,-2.09578,-1.57079,1.57155,0.785796,-1.5708,-0.523599,-4.32771e-08,-2.09439,-1.5708,1.5708,0.785399,3.43913e-05,0.000232764,-0.000281006,0.00137284,-0.000200154,-0.000192234,0.000426548,0,0,0,0,0,0,0,0.0494498,-10.2924,0.98334,20.7456,-0.769636,-0.572911,-0.219534,0.0501083,-1.16622,0.800829,2.25387,-0.210655,-0.576055,-0.270406
2233472,1,-1.5709,-0.522749,-0.000620208,-2.09579,-1.57079,1.57155,0.785795,-1.5708,-0.523599,-4.32771e-08,-2.09439,-1.5708,1.5708,0.785399,0.00122935,0.000155176,0.000369475,-0.000848014,-0.000133437,-0.000128156,-0.000190352,0,0,0,0,0,0,0,-0.00212494,-10.2924,0.959536,20.821,-0.769636,-0.572911,-0.206716,0.0500914,-1.16468,0.800853,2.25287,-0.210608,-0.576014,-0.269887
2233473,1,-1.5709,-0.522749,-0.000620208,-2.09579,-1.57079,1.57155,0.785794,-1.5708,-0.523599,-4.32771e-08,-2.09439,-1.5708,1.5708,0.785399,-0.000386857,0.000103451,0.000246317,-0.000565342,0.000114492,-8.54373e-05,-0.000364261,0,0,0,0,0,0,0,0.0494498,-10.2924,0.959536,20.821,-0.77513,-0.572911,-0.200308,0.0493688,-1.16504,0.799954,2.2531,-0.210618,-0.576096,-0.269405
2233474,1,-1.57091,-0.522749,-0.000621879,-2.09579,-1.57079,1.57155,0.785798,-1.5708,-0.523599,-4.32771e-08,-2.09439,-1.5708,1.5708,0.785399,-0.000257905,6.89672e-05,-0.000392601,0.000829531,-0.000127123,-5.69582e-05,0.000943954,0,0,0,0,0,0,0,0.0494498,-10.2924,0.98334,20.7694,-0.769636,-0.572911,-0.232351,0.048762,-1.16632,0.799229,2.25403,-0.210642,-0.576159,-0.268952
2233475,1,-1.5709,-0.522747,-0.000620208,-2.09578,-1.57079,1.57155,0.785798,-1.5708,-0.523599,-4.32771e-08,-2.09439,-1.5708,1.5708,0.785399,0.00103449,0.00060279,0.000295078,0.00110983,0.000322152,-3.79721e-05,0.000629303,0,0,0,0,0,0,0,-0.00212494,-10.3162,0.959536,20.7456,-0.780623,-0.572911,-0.232351,0.0484526,-1.16723,0.798956,2.25434,-0.210622,-0.576166,-0.268533
2233476,1,-1.5709,-0.522747,-0.000621879,-2.09579,-1.57079,1.57155,0.785799,-1.5708,-0.523599,-4.32771e-08,-2.09439,-1.5708,1.5708,0.785399,-0.000516766,0.00040186,-0.000360093,0.000183076,-0.000192133,-2.53148e-05,0.000656894,0,0,0,0,0,0,0,0.0494498,-10.3162,0.98334,20.7694,-0.769636,-0.572911,-0.23876,0.0480087,-1.16817,0.798581,2.25418,-0.210582,-0.576184,-0.268169
2233477,1,-1.5709,-0.522747,-0.000618538,-2.09579,-1.57079,1.57155,0.785799,-1.5708,-0.523599,-4.32771e-08,-2.09439,-1.5708,1.5708,0.785399,0.000861915,0.000267907,0.000873562,-0.000527563,-0.00033154,0.000220482,0.000437929,0,0,0,0,0,0,0,-0.00212494,-10.3162,0.935733,20.7972,-0.764143,-0.57932,-0.23876,0.0473988,-1.16981,0.798027,2.25449,-0.210564,-0.576221,-0.267876
2233478,1,-1.5709,-0.522749,-0.000620208,-2.09579,-1.57079,1.57155,0.785799,-1.5708,-0.523599,-4.32771e-08,-2.09439,-1.5708,1.5708,0.785399,0.00057461,-0.000378207,2.55625e-05,0.000297905,-1.7576e-05,-9.03707e-05,0.000291953,0,0,0,0,0,0,0,-0.00212494,-10.2924,0.959536,20.7694,-0.769636,-0.572911,-0.23876,0.046231,-1.17139,0.796715,2.25514,-0.210572,-0.576326,-0.267671
2233479,1,-1.57091,-0.522745,-0.000620208,-2.09579,-1.57079,1.57155,0.785795,-1.5708,-0.523597,-2.54328e-06,-2.09439,-1.5708,1.5708,0.785399,-0.000823353,0.000861486,1.70417e-05,0.000198604,-1.17174e-05,0.000177112,-0.000992159,-0.00327632,0.00177864,-0.0025,0.00165757,-0.00155807,0.005,0.000207453,0.0494498,-10.34,0.959536,20.7694,-0.769636,-0.57932,-0.206716,0.0450531,-1.17243,0.795426,2.2556,-0.21056,-0.576412,-0.26756
2233480,1,-1.57091,-0.522749,-0.000621879,-2.09579,-1.57079,1.57155,0.785799,-1.57081,-0.523593,-7.54328e-06,-2.09439,-1.5708,1.57081,0.785399,-0.000548902,-0.0005393,-0.000545451,-0.000517212,0.000399089,0.000118075,0.000525355,-0.00655263,0.00355727,-0.005,0.00331513,-0.00311614,0.01,0.000414907,0.0494498,-10.2924,0.98334,20.7972,-0.780623,-0.57932,-0.23876,0.0449189,-1.17344,0.795632,2.25608,-0.210507,-0.576333,-0.267522
2233481,1,-1.57091,-0.522747,-0.000621879,-2.09579,-1.57079,1.57155,0.785799,-1.57082,-0.523588,-1.50433e-05,-2.09439,-1.57081,1.57083,0.7854,-0.000922746,0.000197278,-0.000363634,0.000304806,-0.000140842,-0.000158643,0.000350237,-0.00982895,0.00533591,-0.0075,0.0049727,-0.00467421,0.015,0.00062236,0.0732535,-10.3162,0.98334,20.7694,-0.769636,-0.572911,-0.23876,0.0459075,-1.17397,0.797412,2.25649,-0.210418,-0.57608,-0.267533
2233482,1,-1.57091,-0.522752,-0.000620281,-2.09579,-1.57079,1.57155,0.7858,-1.57083,-0.523581,-2.50433e-05,-2.09438,-1.57081,1.57085,0.785401,-0.00146682,0.000328572,-0.00242536,-0.00100322,-0.00880672,0.000131597,0.000742117,-0.0131053,0.00711455,-0.01,0.00663027,-0.00623228,0.02,0.000829814,-0.0259286,-10.1892,0.80878,20.821,-0.787031,-0.57932,-0.252493,0.048375,-1.17436,0.801344,2.2569,-0.210263,-0.575625,-0.267578
2233483,1,-1.57091,-0.522752,-0.000616922,-2.09579,-1.57079,1.57155,0.7858,-1.57085,-0.523572,-3.75433e-05,-2.09437,-1.57082,1.57087,0.785402,-0.00463432,-0.000576489,-0.00146751,-0.00122563,-0.00563365,-0.000149627,-0.000488599,-0.0163816,0.00889318,-0.0125,0.00828783,-0.00779035,0.025,0.00103727,-0.279835,-10.0107,0.376346,20.8448,-0.814497,-0.572911,-0.225942,0.0534248,-1.1751,0.808889,2.25779,-0.210004,-0.574826,-0.26766
2233484,1,-1.5709,-0.522753,-0.000629478,-2.09578,-1.57079,1.57154,0.785801,-1.57087,-0.523561,-5.25433e-05,-2.09436,-1.57083,1.5709,0.785403,0.00153353,-0.00267732,-0.00527797,0.00301728,-0.00284862,-0.00057447,0.000420252,-0.0196579,0.0106718,-0.015,0.0099454,-0.00934842,0.03,0.00124472,-0.78368,-9.76077,-0.0283176,20.821,-0.85478,-0.560094,-0.246084,0.0606667,-1.1721,0.819459,2.25689,-0.209618,-0.573644,-0.267803
2233485,1,-1.5709,-0.522745,-0.00064353,-2.09579,-1.57079,1.57155,0.7858,-1.57089,-0.523549,-7.00433e-05,-2.09435,-1.57084,1.57094,0.785405,0.00345658,-0.00218303,-0.00666714,0.00107822,-0.00128653,-0.000620339,0.000517527,-0.0229342,0.0124505,-0.0175,0.011603,-0.0109065,0.035,0.00145217,-1.21215,-9.58224,-0.508359,20.8725,-0.883162,-0.553685,-0.252493,0.0676754,-1.16152,0.830357,2.25175,-0.209156,-0.572264,-0.268029
2233486,1,-1.57091,-0.522738,-0.000657714,-2.09578,-1.57079,1.57155,0.785799,-1.57091,-0.523535,-9.00433e-05,-2.09434,-1.57085,1.57098,0.785406,-0.000249995,-0.00109698,-0.00825956,0.000923663,-0.00142401,6.11588e-05,-0.000163608,-0.0262105,0.0142291,-0.02,0.0132605,-0.0124646,0.04,0.00165963,-1.56524,-9.43149,-0.988401,20.8725,-0.876753,-0.566503,-0.23876,0.0734379,-1.14675,0.840746,2.2448,-0.208803,-0.570708,-0.268328
2233487,1,-1.57092,-0.522725,-0.000679544,-2.09578,-1.57079,1.57155,0.785798,-1.57094,-0.523519,-0.000112543,-2.09432,-1.57087,1.57102,0.785408,0.000314028,0.00146058,-0.0108645,0.00404054,-0.00180641,0.0096881,-0.000346431,-0.0294868,0.0160077,-0.0225,0.0149181,-0.0140226,0.045,0.00186708,-1.94213,-9.35611,-1.42083,20.8725,-0.860274,-0.560094,-0.232351,0.0786378,-1.13329,0.851662,2.23895,-0.208661,-0.568853,-0.268682
2233488,1,-1.57093,-0.522711,-0.000700497,-2.09578,-1.57079,1.57156,0.785797,-1.57098,-0.523501,-0.000137543,-2.0943,-1.57088,1.57107,0.78541,-0.00214822,0.00324693,-0.0135647,0.00373113,-0.00159276,0.0135445,-0.000468313,-0.0327632,0.0177864,-0.025,0.0165757,-0.0155807,0.05,0.00207453,-2.32299,-9.28073,-1.8255,20.8448,-0.85478,-0.585729,-0.225942,0.0832759,-1.12452,0.863347,2.23503,-0.208703,-0.566724,-0.269071
2233489,1,-1.57094,-0.522703,-0.000720047,-2.09577,-1.57079,1.57157,0.7858,-1.57102,-0.52348,-0.000167543,-2.09428,-1.5709,1.57113,0.785413,-0.00410929,0.00579829,-0.0193122,0.00277828,-0.000590271,0.0110396,0.000671136,-0.0384892,0.0208342,-0.03,0.0194205,-0.0182686,0.06,0.0023951,-2.57293,-9.12601,-2.20636,20.8448,-0.87126,-0.611364,-0.252493,0.0884903,-1.12356,0.877784,2.23498,-0.208916,-0.56406,-0.26946
2233490,1,-1.57095,-0.522698,-0.000742193,-2.09577,-1.57079,1.57157,0.785799,-1.57106,-0.523456,-0.000202543,-2.09426,-1.57092,1.5712,0.785415,-0.00288279,0.00669097,-0.0215037,0.00389782,-5.67892e-05,0.00696832,0.000210065,-0.0442153,0.023882,-0.035,0.0222653,-0.0209564,0.07,0.00271567,-2.92601,-8.92368,-2.53564,20.8963,-0.883162,-0.57932,-0.246084,0.0953846,-1.13141,0.896874,2.24018,-0.209302,-0.56049,-0.269821
2233491,1,-1.57097,-0.522691,-0.000772724,-2.09577,-1.57079,1.57157,0.785803,-1.57111,-0.523429,-0.000242543,-2.09424,-1.57095,1.57128,0.785418,-0.00869903,0.00498847,-0.0265075,0.00491991,-0.00351611,0.00283458,0.00132684,-0.0499414,0.0269298,-0.04,0.0251101,-0.0236443,0.08,0.00303624,-3.12835,-8.74911,-2.7102,20.9439,-0.917036,-0.514318,-0.278127,0.104008,-1.14259,0.920551,2.24811,-0.209758,-0.555776,-0.270169
2233492,1,-1.571,-0.522682,-0.000789056,-2.09577,-1.57079,1.57158,0.785807,-1.57116,-0.523399,-0.000287543,-2.09421,-1.57097,1.57137,0.785422,-0.0164257,0.00618351,-0.0235419,0.0050528,-0.00551573,0.00454006,0.00112192,-0.0556675,0.0299776,-0.045,0.0279549,-0.0263321,0.09,0.0033568,-3.30687,-8.54678,-3.16644,21.0193,-0.972883,-0.437413,-0.284536,0.114991,-1.15001,0.948659,2.25549,-0.210149,-0.549673,-0.270534
2233493,1,-1.57103,-0.522674,-0.000821698,-2.09576,-1.57079,1.57159,0.78581,-1.57123,-0.523366,-0.000337543,-2.09418,-1.571,1.57147,0.785425,-0.0197277,0.00480658,-0.0283719,0.00683365,-0.00230914,0.0064394,0.00146002,-0.0613936,0.0330254,-0.05,0.0307997,-0.02902,0.1,0.00367737,-3.58458,-8.2413,-3.59887,21.1701,-1.02965,-0.366002,-0.303762,0.127657,-1.15035,0.979101,2.26096,-0.210493,-0.542208,-0.270958
2233494,1,-1.57106,-0.522656,-0.000864219,-2.09575,-1.57079,1.5716,0.785808,-1.57129,-0.52333,-0.000392543,-2.09414,-1.57103,1.57158,0.785429,-0.0207967,0.00850029,-0.0349063,0.00558546,-0.00444646,0.00728019,2.39121e-05,-0.0671197,0.0360732,-0.055,0.0336445,-0.0317078,0.11,0.00399794,-4.06066,-7.99136,-4.05114,21.1701,-1.0919,-0.282689,-0.278127,0.141402,-1.14453,1.01126,2.26535,-0.21092,-0.533371,-0.271491
2233495,1,-1.57109,-0.522631,-0.000908912,-2.09574,-1.57079,1.57161,0.785809,-1.57137,-0.523291,-0.000452543,-2.09411,-1.57107,1.5717,0.785434,-0.0245134,0.0156346,-0.0378759,0.00521214,-0.00679393,0.0101255,0.000490659,-0.0728458,0.039121,-0.06,0.0364894,-0.0343957,0.12,0.0043185,-4.56847,-7.78903,-4.58673,21.2693,-1.13676,-0.257054,-0.290945,0.155852,-1.14249,1.04566,2.27406,-0.21171,-0.523155,-0.272129
2233496,1,-1.57114,-0.522599,-0.000960816,-2.09573,-1.57081,1.57164,0.785803,-1.57144,-0.523249,-0.000517543,-2.09407,-1.5711,1.57183,0.785438,-0.0304068,0.0200571,-0.0405529,0.00789415,-0.0061316,0.0122793,-0.00160567,-0.0785718,0.0421688,-0.065,0.0393342,-0.0370835,0.13,0.00463907,-4.94536,-7.68588,-5.11834,21.2455,-1.12028,-0.23142,-0.23876,0.169416,-1.15528,1.0804,2.29212,-0.213176,-0.511762,-0.272833
2233497,1,-1.57119,-0.522571,-0.00101439,-2.09571,-1.57081,1.57168,0.785799,-1.57153,-0.523204,-0.000587543,-2.09403,-1.57114,1.57197,0.785443,-0.03827,0.0206875,-0.0439633,0.00942735,-0.00890725,0.0187478,-0.0024946,-0.0842979,0.0452167,-0.07,0.042179,-0.0397714,0.14,0.00495964,-5.32225,-7.48355,-5.59839,21.2455,-1.13676,-0.212194,-0.200308,0.181481,-1.18129,1.11414,2.31787,-0.215339,-0.499167,-0.273575
2233498,1,-1.57125,-0.522536,-0.00107473,-2.0957,-1.57083,1.57173,0.785793,-1.57162,-0.523155,-0.000662543,-2.09398,-1.57119,1.57212,0.785449,-0.0452287,0.0259145,-0.0480436,0.0114233,-0.0113242,0.0300426,-0.00383321,-0.090024,0.0482645,-0.075,0.0450238,-0.0424592,0.15,0.0052802,-5.65154,-7.3566,-6.00305,21.3446,-1.14317,-0.212194,-0.141714,0.19248,-1.21373,1.14704,2.34754,-0.218019,-0.485248,-0.274294
2233499,1,-1.57132,-0.522507,-0.0011262,-2.09568,-1.57084,1.57179,0.785791,-1.57172,-0.523103,-0.000745043,-2.09393,-1.57123,1.57229,0.785454,-0.0539229,0.0272276,-0.0487537,0.0145803,-0.00824346,0.045723,-0.00326755,-0.0975663,0.0521734,-0.0825,0.04868,-0.046191,0.164879,0.0056568,-5.8261,-7.10666,-6.51086,21.3684,-1.15416,-0.282689,-0.122488,0.201527,-1.24912,1.1775,2.37899,-0.221096,-0.47024,-0.274882
2233500,1,-1.57139,-0.522477,-0.00118437,-2.09566,-1.57085,1.57187,0.785783,-1.57182,-0.523047,-0.000835043,-2.09388,-1.57128,1.57247,0.78546,-0.0595835,0.0287334,-0.0486184,0.0142917,-0.00995423,0.0553282,-0.00360252,-0.105109,0.0560822,-0.09,0.0523363,-0.0499227,0.179759,0.0060334,-6.02843,-6.87656,-6.91552,21.5152,-1.18254,-0.314733,-0.0840357,0.205472,-1.28305,1.20036,2.41029,-0.224548,-0.454762,-0.27523
2233501,1,-1.57147,-0.522448,-0.00125125,-2.09564,-1.57086,1.57195,0.785782,-1.57193,-0.522987,-0.000932543,-2.09382,-1.57134,1.57266,0.785467,-0.063908,0.0263764,-0.0545521,0.0168166,-0.0117085,0.0612583,-0.00240168,-0.112651,0.0599911,-0.0975,0.0559925,-0.0536545,0.194638,0.00641,-6.20696,-6.62662,-7.19323,21.543,-1.19902,-0.289098,-0.0840357,0.202047,-1.30805,1.21193,2.43897,-0.228322,-0.439223,-0.275242
2233502,1,-1.57156,-0.522418,-0.00132132,-2.09561,-1.57087,1.57205,0.785779,-1.57205,-0.522923,-0.00103754,-2.09376,-1.57139,1.57287,0.785474,-0.073809,0.0301973,-0.0632342,0.0181615,-0.0108824,0.0688506,-0.00255056,-0.120193,0.0639,-0.105,0.0596487,-0.0573862,0.209518,0.0067866,-6.23076,-6.34891,-7.54632,21.5906,-1.27318,-0.244237,-0.0584009,0.194523,-1.31875,1.21712,2.46322,-0.232241,-0.423181,-0.274849
2233503,1,-1.57166,-0.522378,-0.00139548,-2.09559,-1.57088,1.57216,0.785786,-1.57218,-0.522855,-0.00115004,-2.0937,-1.57145,1.57309,0.785481,-0.0816796,0.0306617,-0.0668946,0.0221137,-0.0103991,0.0852184,0.000910578,-0.127735,0.0678089,-0.1125,0.0633049,-0.061118,0.224397,0.00716319,-6.35772,-6.095,-8.00256,21.6422,-1.35191,-0.172826,-0.128897,0.187987,-1.31571,1.22324,2.48314,-0.236182,-0.406036,-0.274015
2233504,1,-1.57175,-0.522329,-0.00148557,-2.09555,-1.5709,1.5723,0.785789,-1.57232,-0.522784,-0.00127004,-2.09363,-1.57152,1.57333,0.785488,-0.0860426,0.0366477,-0.0745395,0.0256061,-0.0150495,0.0991583,0.000369693,-0.135278,0.0717178,-0.12,0.0669611,-0.0648497,0.239277,0.00753979,-6.687,-5.94424,-8.40722,21.666,-1.41966,-0.140783,-0.122488,0.183059,-1.30254,1.23086,2.49953,-0.240201,-0.387931,-0.272764
2233505,1,-1.57185,-0.522276,-0.00158633,-2.09552,-1.57093,1.57246,0.785784,-1.57246,-0.522708,-0.00139754,-2.09356,-1.57159,1.57359,0.785496,-0.092077,0.0382936,-0.0826744,0.0261626,-0.0192178,0.121676,-0.00188977,-0.14282,0.0756267,-0.1275,0.0706174,-0.0685815,0.254156,0.00791639,-7.04009,-5.81729,-8.83966,21.789,-1.47093,-0.205785,-0.0648096,0.178589,-1.28462,1.23854,2.51456,-0.244457,-0.369231,-0.271173
2233506,1,-1.57197,-0.522219,-0.00168118,-2.09548,-1.57095,1.57263,0.785781,-1.57261,-0.522629,-0.00153254,-2.09349,-1.57166,1.57386,0.785504,-0.100882,0.0425894,-0.0879142,0.0299518,-0.0233434,0.14127,-0.00224319,-0.150362,0.0795356,-0.135,0.0742736,-0.0723132,0.269036,0.00829299,-7.21465,-5.69034,-9.44665,21.7652,-1.49931,-0.289098,-0.0382593,0.174244,-1.26568,1.24594,2.53045,-0.249104,-0.350138,-0.269308
2233507,1,-1.5721,-0.522158,-0.0017928,-2.09543,-1.57099,1.57283,0.785786,-1.57277,-0.522545,-0.00167504,-2.09341,-1.57174,1.57414,0.785513,-0.110566,0.0462248,-0.0964259,0.0319947,-0.0272188,0.162331,0.000199961,-0.157904,0.0834445,-0.1425,0.0779298,-0.076045,0.283915,0.00866959,-7.49236,-5.58719,-9.87512,21.7652,-1.5048,-0.346776,-0.0840357,0.170466,-1.2472,1.25323,2.54791,-0.254232,-0.330768,-0.267166
2233508,1,-1.57223,-0.522094,-0.00191344,-2.09539,-1.57103,1.57304,0.785783,-1.57293,-0.522458,-0.00182504,-2.09333,-1.57182,1.57444,0.785522,-0.119376,0.0483352,-0.103401,0.0359848,-0.030622,0.179529,-0.000816128,-0.165447,0.0873534,-0.15,0.081586,-0.0797767,0.298794,0.00904619,-7.74627,-5.4642,-10.256,21.789,-1.49382,-0.398961,-0.0584009,0.168596,-1.22902,1.26175,2.56659,-0.259842,-0.311104,-0.264747
2233509,1,-1.57238,-0.522034,-0.00202809,-2.09534,-1.57107,1.57328,0.785783,-1.57311,-0.522366,-0.00198503,-2.09324,-1.5719,1.57476,0.785532,-0.12638,0.0512423,-0.109895,0.0384735,-0.0376877,0.194249,-0.000544086,-0.174037,0.0917964,-0.15999,0.0857532,-0.0842096,0.31596,0.00944466,-7.9724,-5.26187,-10.6884,21.8405,-1.48192,-0.475866,-0.0584009,0.168472,-1.20834,1.27084,2.58497,-0.265871,-0.291263,-0.262093
2233510,1,-1.57252,-0.521968,-0.00214602,-2.09529,-1.57113,1.57354,0.785778,-1.57329,-0.52227,-0.00215501,-2.09315,-1.57199,1.57509,0.785541,-0.133603,0.0538996,-0.113179,0.0426272,-0.0429806,0.22146,-0.0022955,-0.182627,0.0962395,-0.16998,0.0899203,-0.0886425,0.333126,0.00984314,-8.12316,-5.08334,-11.0931,21.9159,-1.46544,-0.533544,-0.00621587,0.166802,-1.18332,1.27552,2.60192,-0.272271,-0.271882,-0.259245
2233511,1,-1.57267,-0.521903,-0.0022697,-2.09524,-1.57118,1.5738,0.785779,-1.57348,-0.522169,-0.00233498,-2.09306,-1.57208,1.57544,0.785552,-0.140948,0.0567651,-0.117245,0.0425522,-0.0494482,0.230582,-0.00105562,-0.191218,0.100682,-0.17997,0.0940874,-0.0930753,0.350292,0.0102416,-8.30169,-4.93259,-11.4224,22.0151,-1.5103,-0.463048,-0.0190333,0.15939,-1.15418,1.2694,2.61792,-0.279048,-0.253787,-0.256205
2233512,1,-1.57283,-0.521833,-0.00239509,-2.09518,-1.57123,1.57409,0.785773,-1.57368,-0.522064,-0.00252494,-2.09296,-1.57218,1.57581,0.785562,-0.146812,0.0588919,-0.124174,0.0467861,-0.0539441,0.248114,-0.00260262,-0.199808,0.105126,-0.18996,0.0982545,-0.0975082,0.367458,0.0106401,-8.47625,-4.78183,-11.8508,22.0627,-1.56157,-0.418187,0.0322363,0.144662,-1.12129,1.25,2.63402,-0.286205,-0.237231,-0.252951
2233513,1,-1.57301,-0.521758,-0.00253214,-2.09512,-1.57129,1.57439,0.785778,-1.57389,-0.521954,-0.00272489,-2.09286,-1.57228,1.57619,0.785573,-0.156157,0.0641104,-0.131252,0.0537266,-0.0566675,0.260181,-7.35653e-05,-0.208399,0.109569,-0.19995,0.102422,-0.101941,0.384623,0.0110386,-8.70238,-4.65488,-12.4578,22.0905,-1.6403,-0.359594,-0.0126246,0.124213,-1.08396,1.21972,2.64919,-0.293643,-0.221834,-0.249467
2233514,1,-1.57318,-0.52167,-0.00269015,-2.09504,-1.57135,1.57472,0.785776,-1.57411,-0.52184,-0.00293483,-2.09275,-1.57239,1.57659,0.785585,-0.158187,0.0735114,-0.136985,0.0577434,-0.0596539,0.285906,-0.00076112,-0.216989,0.114012,-0.20994,0.106589,-0.106374,0.401789,0.0114371,-9.13085,-4.62711,-12.9418,22.0389,-1.69707,-0.398961,0.00660151,0.0986234,-1.04721,1.17974,2.66392,-0.3014,-0.207433,-0.245749
2233515,1,-1.57335,-0.521574,-0.00284939,-2.09496,-1.57142,1.57508,0.785778,-1.57433,-0.521722,-0.00315476,-2.09264,-1.5725,1.57701,0.785597,-0.161808,0.0813725,-0.142719,0.0626973,-0.0626211,0.312136,0.000204663,-0.22558,0.118455,-0.21993,0.110756,-0.110807,0.418955,0.0118355,-9.63866,-4.65488,-13.4973,22.0151,-1.73643,-0.488683,-0.0126246,0.0644087,-1.02215,1.12581,2.68253,-0.309785,-0.194627,-0.241814
2233516,1,-1.57355,-0.521478,-0.00301561,-2.09489,-1.5715,1.57546,0.785779,-1.57457,-0.521599,-0.00338468,-2.09253,-1.57261,1.57745,0.785609,-0.17242,0.0878906,-0.148711,0.0678686,-0.0661383,0.330838,0.000373801,-0.23417,0.122898,-0.22992,0.114923,-0.11524,0.436121,0.012234,-9.96398,-4.6033,-14.1042,22.0627,-1.74193,-0.592137,-0.0190333,0.019784,-1.01414,1.0558,2.70723,-0.319002,-0.183731,-0.237705
2233517,1,-1.57376,-0.521375,-0.00319279,-2.0948,-1.57158,1.57585,0.785779,-1.57481,-0.521472,-0.00362459,-2.09241,-1.57273,1.5779,0.785622,-0.180591,0.0914888,-0.158792,0.0775052,-0.0737164,0.354857,0.000249201,-0.242761,0.127341,-0.23991,0.11909,-0.119673,0.453287,0.0126325,-10.2695,-4.6033,-14.6359,21.9873,-1.73094,-0.701085,-0.0190333,-0.0314235,-1.01728,0.975022,2.73437,-0.32886,-0.174107,-0.233487
2233518,1,-1.57397,-0.521267,-0.00338307,-2.09472,-1.57167,1.57626,0.785785,-1.57506,-0.52134,-0.00387449,-2.09229,-1.57286,1.57837,0.785635,-0.189425,0.0957975,-0.168705,0.0823519,-0.079321,0.375867,0.00111557,-0.251351,0.131784,-0.2499,0.123257,-0.124105,0.470453,0.013031,-10.5948,-4.55173,-15.0683,22.0151,-1.70805,-0.72672,-0.044668,-0.0840942,-1.02112,0.890874,2.7581,-0.338964,-0.164978,-0.229241
2233519,1,-1.57418,-0.521163,-0.00357504,-2.09463,-1.57177,1.5767,0.785779,-1.57532,-0.521203,-0.00413438,-2.09216,-1.57299,1.57886,0.785648,-0.196199,0.101351,-0.173969,0.0819481,-0.0836469,0.399171,-0.00162988,-0.260345,0.136498,-0.25989,0.127696,-0.128867,0.488346,0.0134316,-10.8963,-4.45255,-15.4452,22.0905,-1.69707,-0.810948,0.0194189,-0.136816,-1.02302,0.805588,2.77884,-0.349207,-0.156221,-0.225019
2233520,1,-1.5744,-0.521044,-0.00376238,-2.09452,-1.57187,1.57716,0.785783,-1.57559,-0.521062,-0.00440426,-2.09203,-1.57312,1.57937,0.785662,-0.20702,0.10766,-0.179601,0.0890029,-0.0919003,0.424381,0.00010021,-0.269339,0.141213,-0.26988,0.132134,-0.133629,0.50624,0.0138322,-11.174,-4.45255,-15.8776,21.9873,-1.66868,-0.836583,-0.0126246,-0.19185,-1.02708,0.71581,2.80087,-0.359705,-0.148336,-0.220827
2233521,1,-1.57463,-0.520933,-0.00396736,-2.09442,-1.57198,1.57762,0.785782,-1.57587,-0.520916,-0.00468413,-2.09189,-1.57326,1.57989,0.785676,-0.21137,0.109549,-0.185461,0.0938152,-0.0967359,0.438915,-0.000407911,-0.278332,0.145928,-0.27987,0.136573,-0.138391,0.524134,0.0142328,-11.4041,-4.32559,-16.2069,22.0389,-1.67967,-0.791722,0.000192821,-0.251601,-1.03154,0.617886,2.82336,-0.370363,-0.141726,-0.216658
2233522,1,-1.57486,-0.520817,-0.00418305,-2.09431,-1.57208,1.57811,0.785784,-1.57616,-0.520766,-0.00497399,-2.09175,-1.5734,1.58043,0.785691,-0.217566,0.114227,-0.195921,0.0982246,-0.0990661,0.457117,0.000440136,-0.287326,0.150642,-0.28986,0.141011,-0.143153,0.542028,0.0146334,-11.6302,-4.19864,-16.433,22.0389,-1.71995,-0.740453,-0.0190333,-0.316931,-1.03043,0.510996,2.84324,-0.381003,-0.136323,-0.212526
2233523,1,-1.57511,-0.520683,-0.00440221,-2.09419,-1.57219,1.57864,0.785788,-1.57645,-0.52061,-0.00527384,-2.0916,-1.57355,1.58099,0.785706,-0.228953,0.120573,-0.202525,0.10527,-0.100207,0.482014,0.000530783,-0.296319,0.155357,-0.29985,0.14545,-0.147915,0.559922,0.015034,-11.7056,-4.19864,-16.6869,21.9873,-1.77031,-0.75327,-0.0254419,-0.386301,-1.0231,0.397932,2.86019,-0.391539,-0.131707,-0.208452
2233524,1,-1.57537,-0.520549,-0.00463169,-2.09407,-1.5723,1.57918,0.785787,-1.57676,-0.52045,-0.00558368,-2.09145,-1.5737,1.58157,0.785721,-0.241356,0.124278,-0.210496,0.108007,-0.10654,0.501183,-0.000358221,-0.305313,0.160072,-0.30984,0.149888,-0.152677,0.577815,0.0154346,-11.7056,-4.14706,-16.9409,21.9397,-1.81608,-0.862218,-0.00621587,-0.456648,-1.01183,0.28286,2.87514,-0.401941,-0.127343,-0.204458
2233525,1,-1.57564,-0.520406,-0.00487289,-2.09394,-1.57242,1.57975,0.785795,-1.57707,-0.520285,-0.00590351,-2.0913,-1.57386,1.58217,0.785737,-0.253984,0.130825,-0.220429,0.116938,-0.111748,0.526328,0.00240604,-0.314307,0.164786,-0.31983,0.154327,-0.157439,0.595709,0.0158352,-11.7572,-4.12326,-17.0162,21.8644,-1.85545,-0.913488,-0.077627,-0.524302,-0.99723,0.170469,2.88819,-0.412175,-0.122688,-0.200558
2233526,1,-1.5759,-0.520256,-0.00511704,-2.09381,-1.57254,1.58033,0.785794,-1.5774,-0.520116,-0.00623333,-2.09114,-1.57402,1.58278,0.785753,-0.259533,0.136665,-0.228457,0.124371,-0.116224,0.53727,0.00136667,-0.3233,0.169501,-0.32982,0.158765,-0.162201,0.613603,0.0162358,-11.781,-4.14706,-17.167,21.7652,-1.87834,-0.919896,-0.0712183,-0.587452,-0.979422,0.0632817,2.89794,-0.422232,-0.117553,-0.19678
2233527,1,-1.57619,-0.520106,-0.00536793,-2.09367,-1.57267,1.58094,0.785796,-1.57773,-0.519942,-0.00657314,-2.09098,-1.57419,1.58341,0.78577,-0.267192,0.139781,-0.242662,0.127837,-0.120567,0.554503,0.00516229,-0.332294,0.174216,-0.33981,0.163204,-0.166963,0.631497,0.0166364,-11.781,-4.12326,-17.3217,21.7414,-1.87193,-0.940038,-0.0584009,-0.64633,-0.957968,-0.0384093,2.90362,-0.432208,-0.111977,-0.19319
2233528,1,-1.57647,-0.519949,-0.00563951,-2.09353,-1.57281,1.58157,0.785799,-1.57807,-0.519763,-0.00692294,-2.09081,-1.57436,1.58406,0.785787,-0.274382,0.145509,-0.253655,0.132829,-0.123918,0.585023,0.00332673,-0.341287,0.17893,-0.3498,0.167642,-0.171725,0.649391,0.0170371,-11.8564,-4.12326,-17.3971,21.7176,-1.86094,-0.972081,-0.044668,-0.700411,-0.932992,-0.133025,2.90657,-0.442202,-0.105961,-0.189837
2233529,1,-1.57677,-0.519789,-0.00592233,-2.09338,-1.57296,1.58221,0.785804,-1.57842,-0.519579,-0.00728273,-2.09064,-1.57454,1.58473,0.785804,-0.281131,0.150814,-0.261884,0.136944,-0.131393,0.597314,0.00251319,-0.350129,0.183705,-0.35979,0.172163,-0.176586,0.667099,0.0174296,-12.0071,-4.14706,-17.4447,21.7176,-1.84447,-1.04258,-0.044668,-0.750876,-0.907085,-0.22203,2.90892,-0.452302,-0.0998727,-0.186712
2233530,1,-1.57708,-0.519626,-0.00620713,-2.09323,-1.57312,1.58287,0.785806,-1.57878,-0.51939,-0.00765251,-2.09046,-1.57472,1.58541,0.785822,-0.286881,0.156207,-0.268924,0.140613,-0.137524,0.607258,0.00585612,-0.358972,0.188479,-0.36978,0.176684,-0.181447,0.684808,0.017822,-12.0071,-4.09946,-17.5994,21.6898,-1.80418,-1.07462,-0.0254419,-0.801141,-0.88303,-0.310613,2.91249,-0.462634,-0.0942422,-0.183762
2233531,1,-1.57739,-0.519461,-0.00650493,-2.09307,-1.57328,1.58353,0.785814,-1.57915,-0.519197,-0.00803228,-2.09028,-1.5749,1.58611,0.78584,-0.2971,0.156447,-0.275902,0.145556,-0.141951,0.614835,0.00540893,-0.367814,0.193253,-0.37977,0.181205,-0.186309,0.702516,0.0182145,-12.0071,-4.02011,-17.6748,21.7176,-1.77031,-0.984899,-0.0510767,-0.853243,-0.857996,-0.402339,2.91648,-0.4732,-0.0892392,-0.180942
2233532,1,-1.57771,-0.51929,-0.00680779,-2.0929,-1.57344,1.58422,0.785813,-1.57952,-0.518999,-0.00842204,-2.09009,-1.5751,1.58684,0.785859,-0.300359,0.165505,-0.283857,0.152819,-0.147482,0.63128,0.00331043,-0.376656,0.198027,-0.38976,0.185726,-0.19117,0.720225,0.018607,-12.1579,-4.04788,-17.774,21.7176,-1.79869,-0.907079,-0.0318506,-0.908046,-0.828021,-0.498971,2.91854,-0.483845,-0.0849094,-0.178226
2233533,1,-1.57803,-0.51911,-0.00712281,-2.09273,-1.5736,1.58495,0.78582,-1.57991,-0.518796,-0.00882179,-2.0899,-1.57529,1.58757,0.785878,-0.306798,0.17167,-0.293154,0.159146,-0.152642,0.665569,0.00350272,-0.385498,0.202802,-0.39975,0.190247,-0.196031,0.737933,0.0189995,-12.3126,-4.07169,-17.8533,21.6898,-1.80968,-1.00412,-0.0584009,-0.967545,-0.797325,-0.602859,2.91904,-0.494453,-0.081669,-0.175603
2233534,1,-1.57837,-0.518924,-0.00745067,-2.09255,-1.57377,1.58568,0.785818,-1.5803,-0.518589,-0.00923153,-2.08971,-1.57549,1.58833,0.785897,-0.318191,0.182328,-0.302052,0.164357,-0.155015,0.684187,0.000636681,-0.39434,0.207576,-0.40974,0.194767,-0.200892,0.755642,0.019392,-12.3364,-4.12326,-17.9525,21.6422,-1.86094,-1.13321,-0.00621587,-1.03175,-0.774463,-0.713293,2.92107,-0.504997,-0.0797292,-0.173065
2233535,1,-1.57872,-0.518727,-0.00779025,-2.09236,-1.57394,1.58643,0.785822,-1.58071,-0.518376,-0.00965126,-2.08951,-1.5757,1.5891,0.785917,-0.324995,0.188159,-0.314978,0.168454,-0.161235,0.699073,0.000362831,-0.403182,0.21235,-0.41973,0.199288,-0.205754,0.77335,0.0197845,-12.4118,-4.17484,-17.9525,21.5668,-1.91221,-1.12681,0.000192821,-1.09666,-0.765665,-0.824165,2.928,-0.515494,-0.0785704,-0.17058
2233536,1,-1.57908,-0.518522,-0.00814142,-2.09217,-1.57412,1.58717,0.785832,-1.58112,-0.518159,-0.010081,-2.0893,-1.57591,1.58989,0.785937,-0.334023,0.194125,-0.32555,0.174268,-0.173912,0.725124,0.0020352,-0.412024,0.217125,-0.42972,0.203809,-0.210615,0.791059,0.020177,-12.3364,-4.30179,-17.9009,21.5152,-1.97996,-1.04899,-0.044668,-1.15848,-0.769894,-0.929544,2.94001,-0.525905,-0.0776571,-0.168094
2233537,1,-1.57945,-0.518313,-0.0084944,-2.09198,-1.57432,1.58795,0.785837,-1.58154,-0.517937,-0.0105207,-2.0891,-1.57612,1.5907,0.785958,-0.341608,0.19922,-0.334294,0.178033,-0.183368,0.738572,0.00521185,-0.420866,0.221899,-0.43971,0.20833,-0.215476,0.808767,0.0205695,-12.3126,-4.45255,-17.9525,21.4914,-1.96257,-0.952855,-0.0190333,-1.21636,-0.781464,-1.02813,2.95466,-0.536209,-0.0768683,-0.165582
2233538,1,-1.57981,-0.518107,-0.0088657,-2.09178,-1.57452,1.58876,0.785839,-1.58197,-0.517711,-0.0109704,-2.08888,-1.57634,1.59153,0.785979,-0.355419,0.19958,-0.347275,0.182332,-0.189545,0.769546,0.00153334,-0.429708,0.226673,-0.4497,0.212851,-0.220337,0.826475,0.020962,-12.4118,-4.47635,-17.8771,21.543,-1.96257,-0.997716,0.0459692,-1.26925,-0.792661,-1.11891,2.96893,-0.546407,-0.0758797,-0.16307
2233539,1,-1.58019,-0.517887,-0.0092544,-2.09157,-1.57472,1.58958,0.785837,-1.58241,-0.517479,-0.0114301,-2.08867,-1.57657,1.59237,0.786,-0.359959,0.205524,-0.359786,0.188203,-0.191354,0.78084,-0.00147637,-0.437907,0.231335,-0.45969,0.217306,-0.225152,0.843502,0.0213431,-12.4634,-4.5795,-17.7502,21.4914,-1.91771,-1.09385,0.122873,-1.31476,-0.795813,-1.19869,2.97963,-0.55643,-0.0740701,-0.160562
2233540,1,-1.58059,-0.517669,-0.00964139,-2.09137,-1.57492,1.59042,0.785851,-1.58285,-0.517243,-0.0118998,-2.08844,-1.5768,1.59323,0.786022,-0.370313,0.210191,-0.37662,0.192322,-0.195167,0.796785,-9.89324e-06,-0.446106,0.235996,-0.46968,0.221761,-0.229968,0.860528,0.0217242,-12.3364,-4.70645,-17.774,21.5668,-1.91221,-1.04258,0.103647,-1.35105,-0.790653,-1.26399,2.98643,-0.566257,-0.0709366,-0.157962
2233541,1,-1.58099,-0.517448,-0.01005,-2.09116,-1.57513,1.59126,0.78586,-1.58331,-0.517003,-0.0123794,-2.08822,-1.57703,1.59411,0.786044,-0.379614,0.210809,-0.386286,0.200127,-0.202423,0.815267,0.0047047,-0.454305,0.240658,-0.47967,0.226216,-0.234783,0.877554,0.0221053,-12.2848,-4.73026,-17.6232,21.543,-1.88933,-0.875035,0.110056,-1.37682,-0.776235,-1.31249,2.98843,-0.57579,-0.0661961,-0.15515
2233542,1,-1.5814,-0.517215,-0.0104681,-2.09094,-1.57534,1.59213,0.785867,-1.58377,-0.516757,-0.0128691,-2.08799,-1.57727,1.595,0.786066,-0.389872,0.220485,-0.398826,0.205775,-0.208214,0.832383,0.00736749,-0.462504,0.24532,-0.48966,0.230672,-0.239598,0.894581,0.0224863,-12.3126,-4.85721,-17.6232,21.5668,-1.88933,-0.919896,0.135691,-1.39314,-0.751385,-1.3462,2.98409,-0.58491,-0.0599817,-0.152066
2233543,1,-1.58182,-0.516976,-0.0109034,-2.09071,-1.57557,1.59304,0.785881,-1.58424,-0.516507,-0.0133687,-2.08775,-1.57752,1.59592,0.786089,-0.397043,0.225155,-0.409907,0.211284,-0.212628,0.854694,0.00594308,-0.470702,0.249981,-0.49965,0.235127,-0.244413,0.911607,0.0228674,-12.4118,-5.00797,-17.4447,21.543,-1.88383,-1.0618,0.129282,-1.40275,-0.723507,-1.36922,2.97627,-0.59369,-0.052687,-0.148678
2233544,1,-1.58224,-0.516726,-0.0113385,-2.09049,-1.57579,1.59394,0.785891,-1.58472,-0.516253,-0.0138784,-2.08751,-1.57777,1.59684,0.786113,-0.406739,0.232367,-0.418574,0.213685,-0.21045,0.86919,0.00908155,-0.478901,0.254643,-0.50964,0.239582,-0.249229,0.928633,0.0232485,-12.4634,-5.18649,-17.4725,21.5906,-1.90581,-1.13962,0.135691,-1.40914,-0.700236,-1.38637,2.96933,-0.602337,-0.0448735,-0.144964
2233545,1,-1.58268,-0.516477,-0.0117867,-2.09025,-1.57602,1.59487,0.785905,-1.58521,-0.515994,-0.014398,-2.08727,-1.57802,1.59779,0.786136,-0.413238,0.234349,-0.426345,0.216918,-0.211801,0.88004,0.00737252,-0.4871,0.259305,-0.51963,0.244037,-0.254044,0.94566,0.0236296,-12.388,-5.36105,-17.4725,21.5668,-1.96806,-1.08744,0.122873,-1.41635,-0.68356,-1.40362,2.96589,-0.611099,-0.0372152,-0.140942
2233546,1,-1.58311,-0.516219,-0.0122504,-2.09002,-1.57625,1.59582,0.785926,-1.5857,-0.51573,-0.0149276,-2.08702,-1.57828,1.59875,0.78616,-0.416352,0.240901,-0.444147,0.226663,-0.21946,0.911522,0.00792118,-0.495299,0.263966,-0.52962,0.248492,-0.258859,0.962686,0.0240107,-12.5387,-5.51181,-17.3971,21.5906,-1.99095,-1.03617,0.0587866,-1.42669,-0.670308,-1.42374,2.96436,-0.619992,-0.0301872,-0.136664
2233547,1,-1.58356,-0.515966,-0.0127302,-2.08978,-1.57648,1.59677,0.785945,-1.5862,-0.515461,-0.0154672,-2.08677,-1.57854,1.59973,0.786185,-0.419165,0.243955,-0.452408,0.233175,-0.224378,0.921955,0.0117288,-0.503497,0.268628,-0.53961,0.252947,-0.263674,0.979712,0.0243917,-12.6657,-5.56339,-17.4725,21.5668,-2.03673,-1.01053,0.0194189,-1.44129,-0.655824,-1.44714,2.96025,-0.628854,-0.024075,-0.132239
2233548,1,-1.58401,-0.515704,-0.013213,-2.08954,-1.57673,1.59775,0.785958,-1.58672,-0.515188,-0.0160168,-2.08651,-1.57881,1.60073,0.786209,-0.430292,0.250187,-0.456584,0.232223,-0.229192,0.932046,0.0118564,-0.511696,0.27329,-0.5496,0.257402,-0.26849,0.996739,0.0247728,-12.8403,-5.63876,-17.4209,21.6422,-2.03673,-0.97849,0.0587866,-1.46259,-0.640476,-1.47751,2.95387,-0.637859,-0.0191108,-0.127801
2233549,1,-1.58447,-0.515436,-0.0137172,-2.08929,-1.57697,1.59875,0.785968,-1.58724,-0.51491,-0.0165764,-2.08625,-1.57909,1.60174,0.786235,-0.438311,0.255543,-0.471626,0.235117,-0.23285,0.964031,0.00695144,-0.518868,0.277698,-0.55959,0.261678,-0.273162,1.01281,0.0251453,-12.8918,-5.61496,-17.3693,21.5906,-2.04771,-1.00412,0.110056,-1.49064,-0.630608,-1.51566,2.95104,-0.647332,-0.0151979,-0.123441
2233550,1,-1.58495,-0.515162,-0.0142362,-2.08904,-1.57722,1.59977,0.785988,-1.58776,-0.514628,-0.017146,-2.08598,-1.57936,1.60277,0.78626,-0.448231,0.261924,-0.484821,0.237063,-0.235599,0.983953,0.00976124,-0.52604,0.282106,-0.56958,0.265953,-0.277834,1.02888,0.0255178,-12.8641,-5.66653,-17.2701,21.666,-2.06419,-0.984899,0.116465,-1.52089,-0.631746,-1.55445,2.95595,-0.657292,-0.0117386,-0.119176
2233551,1,-1.58544,-0.514882,-0.0147535,-2.08878,-1.57747,1.60082,0.78601,-1.58829,-0.514341,-0.0177256,-2.08571,-1.57965,1.60382,0.786286,-0.458601,0.2617,-0.493725,0.244801,-0.237645,1.01718,0.0173036,-0.533212,0.286514,-0.57957,0.270228,-0.282507,1.04495,0.0258902,-12.7411,-5.66653,-17.2186,21.6422,-2.08159,-1.04258,0.103647,-1.54988,-0.639593,-1.58865,2.96604,-0.66755,-0.00825882,-0.114992
2233552,1,-1.58593,-0.514591,-0.0152863,-2.08851,-1.57773,1.60188,0.786038,-1.58884,-0.51405,-0.0183151,-2.08544,-1.57993,1.60488,0.786312,-0.462326,0.274009,-0.505073,0.253864,-0.245553,1.02542,0.0243237,-0.540384,0.290922,-0.58956,0.274503,-0.287179,1.06102,0.0262627,-12.7649,-5.84109,-17.167,21.5906,-2.05321,-1.16526,0.0523779,-1.57843,-0.647535,-1.6198,2.97552,-0.677938,-0.00486047,-0.110883
2233553,1,-1.58643,-0.514296,-0.0158339,-2.08825,-1.578,1.60297,0.786066,-1.58938,-0.513755,-0.0189147,-2.08516,-1.58023,1.60595,0.786339,-0.475305,0.279136,-0.524885,0.25515,-0.250496,1.03653,0.0242184,-0.547556,0.29533,-0.59955,0.278778,-0.291852,1.07708,0.0266352,-12.7649,-6.04343,-17.0678,21.6144,-2.03032,-1.24857,0.0130102,-1.60416,-0.659859,-1.64415,2.98453,-0.688388,-0.00116162,-0.106836
2233554,1,-1.58692,-0.513996,-0.0163964,-2.08799,-1.57827,1.60406,0.786081,-1.58994,-0.513455,-0.0195242,-2.08488,-1.58052,1.60705,0.786366,-0.480507,0.284181,-0.533644,0.257186,-0.261479,1.06956,0.0198318,-0.554728,0.299738,-0.60954,0.283053,-0.296524,1.09315,0.0270076,-12.8403,-6.19418,-16.9647,21.7414,-2.03673,-1.23575,0.09083,-1.62263,-0.681585,-1.65503,2.99704,-0.698831,0.00331885,-0.102883
2233555,1,-1.58744,-0.513698,-0.0169651,-2.08772,-1.57855,1.60514,0.786113,-1.5905,-0.513151,-0.0201438,-2.08459,-1.58082,1.60816,0.786393,-0.489873,0.28931,-0.540051,0.26348,-0.266552,1.07681,0.0256833,-0.5619,0.304146,-0.61953,0.287328,-0.301196,1.10922,0.0273801,-12.7649,-6.24576,-16.9924,21.8167,-2.04771,-1.16526,0.0459692,-1.63752,-0.710414,-1.65832,3.01328,-0.709259,0.00774277,-0.0990731
2233556,1,-1.58797,-0.513392,-0.017544,-2.08744,-1.57883,1.60625,0.786139,-1.59107,-0.512843,-0.0207733,-2.0843,-1.58113,1.60928,0.786421,-0.512601,0.293484,-0.554914,0.265872,-0.269894,1.09999,0.0279487,-0.569072,0.308554,-0.62952,0.291603,-0.305869,1.12529,0.0277526,-12.6141,-6.32114,-16.8893,21.8644,-2.0706,-1.12681,0.0651953,-1.64947,-0.741942,-1.65651,3.03106,-0.719613,0.0119781,-0.0954145
2233557,1,-1.5885,-0.513082,-0.0181227,-2.08717,-1.57912,1.60735,0.786173,-1.59164,-0.51253,-0.0214128,-2.084,-1.58144,1.61042,0.786449,-0.515007,0.297709,-0.555259,0.271375,-0.276025,1.0895,0.0321128,-0.576244,0.312963,-0.63951,0.295878,-0.310541,1.14136,0.028125,-12.5387,-6.42429,-16.9131,21.8882,-2.12095,-1.08744,0.0194189,-1.65553,-0.771935,-1.64711,3.04873,-0.729843,0.0167269,-0.0919003
2233558,1,-1.58904,-0.512772,-0.0187216,-2.08688,-1.57941,1.60848,0.786197,-1.59223,-0.512212,-0.0220623,-2.0837,-1.58175,1.61158,0.786478,-0.520078,0.300563,-0.581236,0.276402,-0.279925,1.0931,0.0271838,-0.583416,0.317371,-0.6495,0.300154,-0.315214,1.15743,0.0284975,-12.5625,-6.52347,-16.8139,21.9873,-2.17772,-1.07462,0.0587866,-1.65726,-0.795955,-1.63227,3.06412,-0.740015,0.02226,-0.0885415
2233559,1,-1.58958,-0.512455,-0.0193348,-2.0866,-1.57971,1.60965,0.786227,-1.59282,-0.511891,-0.0227218,-2.0834,-1.58207,1.61275,0.786506,-0.531483,0.305934,-0.588627,0.282898,-0.289504,1.12246,0.0300581,-0.58935,0.321417,-0.65949,0.304154,-0.31967,1.17234,0.028862,-12.5625,-6.65042,-16.8377,22.0389,-2.14934,-1.18448,0.0523779,-1.65316,-0.811059,-1.60855,3.07513,-0.75004,0.0290094,-0.0853625
2233560,1,-1.59013,-0.512133,-0.0199683,-2.08631,-1.58,1.61081,0.78626,-1.59341,-0.511565,-0.0233913,-2.08309,-1.5824,1.61394,0.786536,-0.53514,0.310491,-0.604184,0.285282,-0.289007,1.13616,0.0335865,-0.595283,0.325464,-0.66948,0.308155,-0.324127,1.18725,0.0292266,-12.5903,-6.77737,-16.7108,22.1381,-2.11546,-1.25498,0.00660151,-1.64376,-0.819428,-1.57625,3.08256,-0.759944,0.0366118,-0.0823691
2233561,1,-1.59071,-0.5118,-0.0205996,-2.08601,-1.58031,1.612,0.786292,-1.59401,-0.511236,-0.0240707,-2.08278,-1.58273,1.61514,0.786565,-0.549248,0.316988,-0.614434,0.284357,-0.292669,1.1389,0.0340254,-0.601217,0.329511,-0.67947,0.312155,-0.328584,1.20215,0.0295911,-12.4634,-6.90433,-16.6631,22.2135,-2.08708,-1.28702,0.0130102,-1.63118,-0.828169,-1.53849,3.09159,-0.76999,0.0445261,-0.0795466
2233562,1,-1.5913,-0.511464,-0.0212472,-2.08571,-1.58062,1.61319,0.786329,-1.59462,-0.510902,-0.0247602,-2.08246,-1.58306,1.61636,0.786595,-0.558279,0.324966,-0.617496,0.290824,-0.294698,1.1486,0.0359915,-0.607151,0.333557,-0.68946,0.316156,-0.333041,1.21706,0.0299556,-12.2333,-7.03128,-16.6116,22.2611,-2.09257,-1.37766,-0.0254419,-1.61676,-0.84537,-1.4981,3.10753,-0.780403,0.0524413,-0.0768903
2233563,1,-1.59188,-0.511129,-0.0219185,-2.08541,-1.58093,1.61443,0.786362,-1.59523,-0.510565,-0.0254596,-2.08214,-1.5834,1.61759,0.786626,-0.560139,0.327672,-0.632561,0.294548,-0.296442,1.1767,0.0362156,-0.613084,0.337604,-0.69945,0.320156,-0.337498,1.23197,0.0303201,-12.1579,-7.15427,-16.3577,22.3365,-2.08708,-1.71274,-0.0254419,-1.60563,-0.87222,-1.46317,3.12989,-0.791209,0.0593062,-0.0744433
2233564,1,-1.59247,-0.510781,-0.0225758,-2.0851,-1.58124,1.61566,0.786401,-1.59585,-0.510223,-0.0261691,-2.08182,-1.58374,1.61884,0.786656,-0.569658,0.33311,-0.642478,0.300454,-0.302129,1.20326,0.0377576,-0.619018,0.341651,-0.70944,0.324157,-0.341955,1.24688,0.0306847,-11.9079,-7.30899,-16.2585,22.3603,-2.09807,-1.69993,-0.0712183,-1.60072,-0.903305,-1.43747,3.15477,-0.802183,0.0641029,-0.0722852
2233565,1,-1.59308,-0.510442,-0.0232413,-2.0848,-1.58157,1.61685,0.786442,-1.59648,-0.509877,-0.0268885,-2.08149,-1.58409,1.6201,0.786687,-0.582556,0.342791,-0.647554,0.303307,-0.311274,1.19601,0.0389162,-0.624952,0.345697,-0.71943,0.328157,-0.346412,1.26179,0.0310492,-11.6818,-7.3566,-16.1791,22.388,-2.10448,-1.28061,-0.10967,-1.60058,-0.938739,-1.41942,3.18156,-0.813172,0.066496,-0.070449
2233566,1,-1.59369,-0.510092,-0.0239178,-2.08448,-1.58189,1.61808,0.78648,-1.59711,-0.509528,-0.0276179,-2.08116,-1.58444,1.62138,0.786719,-0.585212,0.345816,-0.657042,0.30482,-0.311701,1.19283,0.0395053,-0.630885,0.349744,-0.72942,0.332158,-0.350869,1.27669,0.0314137,-11.6064,-7.40817,-16.08,22.4118,-2.13835,-1.00412,-0.141714,-1.60361,-0.982715,-1.40807,3.21281,-0.824295,0.0668683,-0.0689441
2233567,1,-1.59429,-0.509735,-0.0246207,-2.08416,-1.58222,1.61935,0.786514,-1.59775,-0.509174,-0.0283573,-2.08082,-1.58479,1.62267,0.786751,-0.58903,0.346015,-0.667482,0.307838,-0.313458,1.22999,0.0378471,-0.636819,0.353791,-0.73941,0.336158,-0.355326,1.2916,0.0317783,-11.6064,-7.51132,-15.953,22.388,-2.14934,-1.13962,-0.116079,-1.611,-1.02987,-1.40523,3.24745,-0.835624,0.0657046,-0.0678551
2233568,1,-1.59491,-0.509378,-0.0253372,-2.08385,-1.58254,1.62064,0.786548,-1.59839,-0.508816,-0.0291067,-2.08048,-1.58515,1.62397,0.786783,-0.592937,0.350765,-0.683612,0.309253,-0.312898,1.23457,0.0394924,-0.642752,0.357837,-0.7494,0.340159,-0.359783,1.30651,0.0321428,-11.5033,-7.66208,-15.9014,22.388,-2.21709,-1.22934,-0.0510767,-1.62292,-1.07188,-1.41023,3.2824,-0.847065,0.0635143,-0.0672759
2233569,1,-1.59555,-0.509018,-0.0260468,-2.08352,-1.58288,1.62195,0.786589,-1.59904,-0.508455,-0.0298661,-2.08014,-1.58552,1.6253,0.786815,-0.609816,0.351621,-0.686565,0.308568,-0.322974,1.26966,0.0396936,-0.647383,0.361441,-0.75939,0.343806,-0.363958,1.32009,0.0324993,-11.2533,-7.73746,-15.9768,22.3365,-2.26286,-1.35843,-0.0648096,-1.63616,-1.10728,-1.41842,3.31775,-0.858564,0.0609614,-0.0671692
2233570,1,-1.59619,-0.50865,-0.0267731,-2.08319,-1.58322,1.62323,0.786639,-1.59969,-0.50809,-0.0306355,-2.07979,-1.58588,1.62663,0.786848,-0.619859,0.353198,-0.697626,0.311964,-0.326952,1.26514,0.0467502,-0.652014,0.365045,-0.76938,0.347453,-0.368133,1.33366,0.0328558,-11.1264,-7.81284,-16.0046,22.2373,-2.27385,-1.31998,-0.141714,-1.64725,-1.13382,-1.42654,3.35283,-0.870115,0.0584882,-0.0674059
2233571,1,-1.59682,-0.508274,-0.0275004,-2.08285,-1.58357,1.62455,0.786686,-1.60034,-0.507721,-0.0314149,-2.07944,-1.58626,1.62798,0.786881,-0.620379,0.360119,-0.707093,0.320904,-0.332427,1.27227,0.0505331,-0.656644,0.368649,-0.77937,0.351101,-0.372307,1.34724,0.0332123,-11.301,-8.01517,-16.0522,22.1143,-2.2061,-1.32639,-0.181082,-1.65481,-1.14913,-1.43356,3.38413,-0.881727,0.0563365,-0.0679152
2233572,1,-1.59744,-0.507895,-0.0282421,-2.08251,-1.58393,1.62589,0.786721,-1.60101,-0.507349,-0.0322042,-2.07908,-1.58663,1.62934,0.786915,-0.611672,0.363519,-0.722412,0.327087,-0.353352,1.3121,0.0482233,-0.661275,0.372252,-0.78936,0.354748,-0.376482,1.36081,0.0335688,-11.6302,-8.16592,-16.0284,22.0151,-2.13835,-1.42893,-0.103262,-1.66385,-1.15555,-1.44482,3.40835,-0.893359,0.0536524,-0.0687347
2233573,1,-1.59808,-0.50752,-0.0289886,-2.08216,-1.5843,1.62721,0.786747,-1.60167,-0.506973,-0.0330036,-2.07872,-1.58701,1.63071,0.786949,-0.615364,0.367607,-0.73363,0.335102,-0.355198,1.31445,0.040057,-0.665905,0.375856,-0.79935,0.358395,-0.380657,1.37439,0.0339252,-11.7572,-8.34445,-16.1315,21.9159,-2.11546,-1.34562,0.0459692,-1.68036,-1.15448,-1.4663,3.42309,-0.904804,0.0492952,-0.0698972
2233574,1,-1.59873,-0.50714,-0.0297273,-2.08182,-1.58465,1.62855,0.78678,-1.60234,-0.506593,-0.0338129,-2.07836,-1.5874,1.6321,0.786983,-0.636359,0.371541,-0.738487,0.335412,-0.352279,1.31347,0.0405668,-0.670536,0.37946,-0.80934,0.362042,-0.384832,1.38796,0.0342817,-11.781,-8.44363,-16.2585,21.9159,-2.2061,-1.21012,0.143015,-1.70087,-1.14703,-1.49336,3.42905,-0.915922,0.0439722,-0.0712635
2233575,1,-1.59937,-0.506756,-0.0304901,-2.08147,-1.58502,1.62988,0.786827,-1.60302,-0.50621,-0.0346323,-2.078,-1.58779,1.6335,0.787018,-0.638816,0.37603,-0.742853,0.34026,-0.358315,1.3091,0.042918,-0.675167,0.383064,-0.81933,0.36569,-0.389007,1.40154,0.0346382,-11.8802,-8.47141,-16.4092,21.8644,-2.22899,-0.984899,0.0780126,-1.7203,-1.13718,-1.52091,3.43028,-0.926858,0.0389422,-0.0725178
2233576,1,-1.60001,-0.506374,-0.0312549,-2.0811,-1.58539,1.63126,0.786866,-1.6037,-0.505824,-0.0354616,-2.07763,-1.58818,1.63492,0.787053,-0.637197,0.381139,-0.763406,0.345363,-0.360886,1.32738,0.0464203,-0.679797,0.386667,-0.82932,0.369337,-0.393182,1.41512,0.0349947,-11.9833,-8.54678,-16.4092,21.7414,-2.26835,-0.933629,0.0780126,-1.73943,-1.12859,-1.54955,3.42933,-0.937787,0.0345576,-0.0733863
2233577,0.99,-1.60066,-0.505996,-0.0320425,-2.08075,-1.58577,1.63267,0.786905,-1.60438,-0.505433,-0.0363009,-2.07725,-1.58858,1.63634,0.787088,-0.639003,0.379919,-0.767473,0.355324,-0.365337,1.37128,0.0459012,-0.684428,0.390271,-0.83931,0.372984,-0.397357,1.42869,0.0353512,-11.9833,-8.44363,-16.4092,21.666,-2.26835,-1.08744,0.038645,-1.76192,-1.11768,-1.58224,3.42321,-0.948645,0.0304596,-0.0738133
2233578,0.98,-1.60133,-0.505608,-0.0328449,-2.08038,-1.58615,1.63407,0.786952,-1.60507,-0.505039,-0.0371502,-2.07688,-1.58898,1.63779,0.787124,-0.645973,0.387473,-0.77213,0.360528,-0.367489,1.37536,0.051523,-0.689058,0.393875,-0.8493,0.376632,-0.401532,1.44227,0.0357077,-11.9595,-8.52298,-16.3061,21.6422,-2.29033,-1.20371,-0.044668,-1.79345,-1.09871,-1.62696,3.40763,-0.959425,0.0257413,-0.0738675
2233579,0.98,-1.60201,-0.505211,-0.0336421,-2.08,-1.58654,1.6355,0.78698,-1.60576,-0.504642,-0.0380093,-2.0765,-1.58938,1.63924,0.78716,-0.655505,0.391338,-0.778089,0.368325,-0.37251,1.37593,0.0457092,-0.692514,0.396975,-0.859101,0.379862,-0.405347,1.45428,0.0360576,-11.781,-8.52298,-16.2823,21.5668,-2.33061,-1.22294,0.0130102,-1.83486,-1.07452,-1.68632,3.38368,-0.970301,0.0202959,-0.0736361
2233580,0.98,-1.60269,-0.504796,-0.034457,-2.07962,-1.58693,1.6369,0.787021,-1.60646,-0.504242,-0.0388782,-2.07611,-1.58979,1.64071,0.787196,-0.663292,0.396164,-0.783152,0.371197,-0.378366,1.37719,0.0455927,-0.695969,0.400074,-0.868902,0.383093,-0.409163,1.4663,0.0364075,-11.5549,-8.74911,-16.2823,21.5152,-2.3361,-1.01694,-0.044668,-1.88157,-1.04956,-1.75489,3.35459,-0.981391,0.0148268,-0.0732111
2233581,0.98,-1.60337,-0.504397,-0.0353016,-2.07924,-1.58732,1.63835,0.787045,-1.60716,-0.503839,-0.0397569,-2.07573,-1.59021,1.64219,0.787233,-0.665948,0.395393,-0.797953,0.375076,-0.378099,1.39804,0.0390249,-0.699424,0.403173,-0.878703,0.386323,-0.412978,1.47831,0.0367574,-11.5033,-8.80069,-16.1315,21.4914,-2.3361,-0.959264,0.071604,-1.92955,-1.0232,-1.82709,3.32231,-0.992718,0.00982819,-0.0726801
2233582,0.98,-1.60405,-0.503988,-0.0361561,-2.07884,-1.58773,1.63984,0.787087,-1.60786,-0.503433,-0.0406454,-2.07534,-1.59062,1.64368,0.78727,-0.665238,0.398953,-0.8111,0.381977,-0.390153,1.43827,0.0413713,-0.702879,0.406273,-0.888504,0.389554,-0.416794,1.49033,0.0371074,-11.5033,-8.92368,-15.7507,21.4676,-2.25645,-0.959264,0.00660151,-1.97671,-0.991731,-1.89862,3.28646,-1.00413,0.00536767,-0.0721137
2233583,0.98,-1.60476,-0.503585,-0.0370229,-2.07846,-1.58813,1.6413,0.787121,-1.60857,-0.503024,-0.0415437,-2.07495,-1.59104,1.64518,0.787307,-0.670408,0.407817,-0.822241,0.383367,-0.391921,1.44067,0.0405958,-0.706334,0.409372,-0.898305,0.392784,-0.420609,1.50234,0.0374573,-11.1502,-8.97525,-15.4968,21.4676,-2.24547,-0.830175,0.000192821,-2.02273,-0.959765,-1.96736,3.24935,-1.01551,0.0012653,-0.071501
2233584,0.98,-1.6055,-0.503188,-0.0378863,-2.07806,-1.58853,1.64279,0.787158,-1.60928,-0.502611,-0.0424518,-2.07455,-1.59147,1.64669,0.787345,-0.69131,0.403234,-0.834392,0.387113,-0.391405,1.44163,0.0398596,-0.709789,0.412472,-0.908106,0.396015,-0.424425,1.51436,0.0378072,-10.4202,-8.8483,-15.2706,21.4438,-2.26286,-0.75327,0.000192821,-2.06108,-0.931866,-2.02441,3.21449,-1.02677,-0.00128369,-0.0708187
2233585,0.98,-1.60622,-0.502786,-0.038804,-2.07767,-1.58894,1.64431,0.787201,-1.60999,-0.502196,-0.0433697,-2.07415,-1.5919,1.64822,0.787383,-0.703612,0.399345,-0.862042,0.388062,-0.400413,1.48245,0.0371302,-0.713244,0.415571,-0.917907,0.399245,-0.42824,1.52638,0.0381571,-9.94017,-8.82449,-14.6597,21.543,-2.30223,-0.80454,-0.0712183,-2.07627,-0.894694,-2.04967,3.17798,-1.03738,0.000297567,-0.0701232
2233586,0.98,-1.60695,-0.502385,-0.0397274,-2.07726,-1.58936,1.64583,0.787234,-1.61071,-0.501777,-0.0442974,-2.07375,-1.59233,1.64976,0.787422,-0.707262,0.397284,-0.883006,0.394414,-0.404478,1.49531,0.0356806,-0.7167,0.418671,-0.927708,0.402476,-0.432056,1.53839,0.038507,-9.63866,-8.82449,-14.128,21.543,-2.29033,-0.97849,-0.0382593,-2.05686,-0.833424,-2.02715,3.13397,-1.04673,0.00754676,-0.0695174
2233587,0.98,-1.60767,-0.501967,-0.0406436,-2.07686,-1.58977,1.64736,0.787274,-1.61143,-0.501355,-0.0452349,-2.07334,-1.59277,1.65131,0.787461,-0.711182,0.402979,-0.898146,0.393907,-0.408644,1.52263,0.040453,-0.720155,0.42177,-0.937509,0.405706,-0.435871,1.55041,0.0388569,-9.30938,-8.89987,-13.7512,21.6422,-2.24547,-1.02976,-0.0510767,-2.00558,-0.751048,-1.95979,3.08369,-1.0549,0.0196691,-0.0690875
2233588,0.98,-1.60841,-0.501534,-0.0415701,-2.07645,-1.59019,1.64886,0.787306,-1.61215,-0.50093,-0.0461822,-2.07293,-1.5932,1.65287,0.7875,-0.714509,0.41103,-0.905987,0.39745,-0.414003,1.50812,0.0387639,-0.72361,0.42487,-0.94731,0.408937,-0.439687,1.56242,0.0392068,-9.10704,-9.1022,-13.5488,21.7176,-2.26835,-0.933629,-0.0254419,-1.93431,-0.667153,-1.86422,3.0362,-1.06255,0.0344861,-0.0688231
2233589,0.98,-1.60914,-0.501106,-0.0425035,-2.07603,-1.59062,1.65039,0.787347,-1.61288,-0.500503,-0.0471384,-2.07252,-1.59365,1.65444,0.78754,-0.71606,0.414987,-0.915043,0.402265,-0.416767,1.51141,0.0387745,-0.726028,0.427417,-0.956171,0.4117,-0.443036,1.57272,0.0395574,-9.13085,-9.37991,-13.4457,21.6898,-2.31322,-0.785314,-0.0318506,-1.85527,-0.597999,-1.75851,2.9982,-1.07031,0.0500671,-0.0686587
2233590,0.98,-1.60986,-0.500669,-0.043443,-2.07563,-1.59105,1.65194,0.787388,-1.61361,-0.500073,-0.0481035,-2.07211,-1.59409,1.65603,0.787579,-0.711793,0.42259,-0.916343,0.413442,-0.431933,1.53848,0.039236,-0.728447,0.429963,-0.965033,0.414462,-0.446384,1.58302,0.039908,-9.28557,-9.63382,-13.5964,21.7652,-2.32512,-0.785314,-0.0510767,-1.78193,-0.546357,-1.66249,2.96773,-1.07848,0.0643607,-0.0685626
2233591,0.98,-1.61059,-0.50023,-0.0443802,-2.07522,-1.5915,1.65355,0.787426,-1.61434,-0.49964,-0.0490773,-2.07169,-1.59454,1.65762,0.78762,-0.707523,0.428317,-0.91301,0.407114,-0.43956,1.56295,0.0384277,-0.730866,0.43251,-0.973895,0.417225,-0.449733,1.59332,0.0402585,-9.55931,-9.85995,-13.9535,21.9159,-2.26286,-1.29343,-0.044668,-1.73215,-0.516124,-1.60163,2.94493,-1.08744,0.0744578,-0.0685209
2233592,0.98,-1.6113,-0.499795,-0.0453348,-2.0748,-1.59196,1.65515,0.78748,-1.61507,-0.499205,-0.0500601,-2.07127,-1.595,1.65922,0.78766,-0.719553,0.429998,-0.925423,0.411116,-0.439372,1.56356,0.0467151,-0.733284,0.435057,-0.982756,0.419988,-0.453082,1.60362,0.0406091,-10.0394,-9.98691,-14.0289,21.9635,-2.22258,-1.49393,-0.155447,-1.71219,-0.510943,-1.58499,2.93432,-1.09751,0.0792527,-0.0685247
2233593,0.98,-1.61202,-0.499356,-0.046294,-2.07439,-1.5924,1.6567,0.787523,-1.61581,-0.498768,-0.0510517,-2.07085,-1.59545,1.66084,0.787701,-0.718865,0.428546,-0.933325,0.413517,-0.440029,1.54607,0.0483986,-0.735703,0.437604,-0.991618,0.422751,-0.456431,1.61392,0.0409596,-10.3448,-10.1139,-14.1796,22.0389,-2.17222,-1.2678,-0.155447,-1.71009,-0.519604,-1.59589,2.93282,-1.10837,0.0805664,-0.068639
2233594,0.98,-1.61275,-0.498925,-0.0472381,-2.07398,-1.59286,1.65832,0.787569,-1.61654,-0.498328,-0.0520522,-2.07042,-1.59591,1.66246,0.787743,-0.720846,0.434047,-0.953622,0.413185,-0.437496,1.57006,0.0512897,-0.738121,0.440151,-1.00048,0.425513,-0.459779,1.62422,0.0413102,-10.5194,-10.2408,-14.4097,22.1619,-2.16673,-1.28061,-0.18749,-1.71392,-0.53109,-1.6158,2.93586,-1.11953,0.0802421,-0.0689994
2233595,0.98,-1.61345,-0.498477,-0.0482169,-2.07356,-1.59333,1.65996,0.787613,-1.61728,-0.497885,-0.0530615,-2.06999,-1.59638,1.6641,0.787784,-0.718702,0.436867,-0.960592,0.419482,-0.442746,1.60893,0.0474889,-0.74054,0.442698,-1.00934,0.428276,-0.463128,1.63451,0.0416607,-10.7733,-10.3678,-14.2828,22.2135,-2.12095,-1.39048,-0.193899,-1.72088,-0.54666,-1.63786,2.94387,-1.13065,0.0784654,-0.0697305
2233596,0.98,-1.61416,-0.498036,-0.0491951,-2.07314,-1.59378,1.66161,0.787648,-1.61803,-0.49744,-0.0540797,-2.06956,-1.59684,1.66574,0.787826,-0.715116,0.439746,-0.960317,0.419089,-0.446544,1.61862,0.0456131,-0.742959,0.445244,-1.0182,0.431039,-0.466477,1.64481,0.0420113,-11.0748,-10.4908,-14.1796,22.3127,-2.2061,-1.73197,-0.0904444,-1.73884,-0.567507,-1.672,2.95609,-1.14161,0.0738187,-0.0709062
2233597,0.98,-1.61491,-0.497593,-0.0501718,-2.07271,-1.59424,1.66325,0.78771,-1.61877,-0.496992,-0.0551068,-2.06913,-1.59731,1.6674,0.787869,-0.718926,0.441036,-0.964378,0.423276,-0.444056,1.61638,0.0533286,-0.745377,0.447791,-1.02706,0.433802,-0.469826,1.65511,0.0423619,-10.8487,-10.5701,-14.1042,22.3365,-2.29674,-1.58365,-0.225942,-1.77647,-0.5912,-1.7309,2.97107,-1.15258,0.0651193,-0.0724956
2233598,0.98,-1.61564,-0.497136,-0.051166,-2.07229,-1.59469,1.66486,0.787764,-1.61952,-0.496541,-0.0561427,-2.06869,-1.59779,1.66906,0.787911,-0.723808,0.446848,-0.973513,0.425183,-0.441209,1.60602,0.0512514,-0.747796,0.450338,-1.03593,0.436565,-0.473174,1.66541,0.0427124,-10.6225,-10.7209,-14.0527,22.3127,-2.31322,-1.31998,-0.284536,-1.83,-0.616333,-1.80971,2.98814,-1.16369,0.0532035,-0.0744116
2233599,0.98,-1.61636,-0.496684,-0.0521822,-2.07186,-1.59516,1.6665,0.787816,-1.62027,-0.496089,-0.0571861,-2.06825,-1.59826,1.67073,0.787954,-0.717035,0.447172,-0.981948,0.423331,-0.443597,1.60978,0.0523713,-0.749335,0.452302,-1.04338,0.438812,-0.475892,1.67387,0.0430711,-10.7971,-10.82,-13.9019,22.388,-2.33061,-1.04258,-0.290945,-1.89209,-0.644675,-1.89775,3.00882,-1.17506,0.0395455,-0.0766606
2233600,0.98,-1.61707,-0.496215,-0.0531883,-2.07143,-1.59563,1.6682,0.787864,-1.62102,-0.495635,-0.0582369,-2.06781,-1.59874,1.67242,0.787998,-0.713072,0.449853,-0.990851,0.421563,-0.452414,1.65411,0.0511775,-0.750874,0.454266,-1.05083,0.441059,-0.47861,1.68233,0.0434299,-10.9756,-11.0739,-13.7234,22.4872,-2.29033,-1.09385,-0.252493,-1.96312,-0.678168,-1.99444,3.03578,-1.18682,0.0243633,-0.0793332
2233601,0.98,-1.6178,-0.495769,-0.0541999,-2.071,-1.59608,1.66986,0.787904,-1.62177,-0.495179,-0.0592952,-2.06737,-1.59922,1.67411,0.788042,-0.714304,0.457246,-0.986623,0.424264,-0.455183,1.65939,0.0472018,-0.752414,0.45623,-1.05829,0.443306,-0.481329,1.69079,0.0437886,-10.9994,-11.0977,-13.8027,22.4356,-2.34709,-1.07462,-0.10967,-2.04859,-0.720994,-2.10707,3.07109,-1.19909,0.00697146,-0.0824586
2233602,0.98,-1.61855,-0.495309,-0.0552195,-2.07056,-1.59655,1.67155,0.787953,-1.62253,-0.49472,-0.060361,-2.06692,-1.59971,1.67581,0.788086,-0.719235,0.460126,-0.99933,0.42483,-0.453968,1.65408,0.0482508,-0.753953,0.458193,-1.06574,0.445553,-0.484047,1.69925,0.0441473,-10.7971,-11.1493,-13.6996,22.4118,-2.34709,-1.02976,-0.0648096,-2.14772,-0.777368,-2.23531,3.11518,-1.21191,-0.0120611,-0.0859037
2233603,0.98,-1.61929,-0.494851,-0.0562507,-2.07013,-1.59701,1.67323,0.78799,-1.62328,-0.49426,-0.0614342,-2.06648,-1.60019,1.67751,0.78813,-0.727401,0.453938,-1.00813,0.424459,-0.449215,1.68524,0.0466036,-0.755492,0.460157,-1.0732,0.4478,-0.486765,1.70771,0.044506,-10.4202,-11.1255,-13.4973,22.4356,-2.3416,-0.965673,0.0459692,-2.24906,-0.837875,-2.3642,3.16339,-1.22498,-0.0305608,-0.0894406
2233604,0.98,-1.62003,-0.494397,-0.0573083,-2.06969,-1.59749,1.67495,0.788032,-1.62404,-0.493798,-0.0625148,-2.06603,-1.60068,1.67923,0.788175,-0.730783,0.455386,-1.01671,0.428758,-0.459426,1.69897,0.0466106,-0.757031,0.462121,-1.08065,0.450047,-0.489483,1.71617,0.0448648,-10.0671,-11.2009,-13.0648,22.4118,-2.22258,-1.02976,0.110056,-2.34282,-0.885343,-2.48127,3.20765,-1.23786,-0.0470357,-0.0928291
2233605,0.98,-1.62076,-0.493933,-0.0583567,-2.06923,-1.59797,1.67668,0.788076,-1.6248,-0.493334,-0.0636029,-2.06557,-1.60117,1.68096,0.78822,-0.733777,0.458967,-1.0276,0.43268,-0.46442,1.69168,0.0456847,-0.758571,0.464085,-1.08811,0.452294,-0.492201,1.72463,0.0452235,-9.8648,-11.2763,-12.6879,22.2135,-2.15483,-0.92722,0.09083,-2.42503,-0.914717,-2.58192,3.24356,-1.25021,-0.060912,-0.0957763
2233606,0.98,-1.62149,-0.493464,-0.0594404,-2.0688,-1.59842,1.67839,0.788098,-1.62556,-0.492868,-0.0646985,-2.06512,-1.60167,1.68269,0.788266,-0.727272,0.45878,-1.04513,0.42872,-0.462065,1.68532,0.038175,-0.76011,0.466049,-1.09556,0.454541,-0.494919,1.73309,0.0455822,-9.78942,-11.3517,-12.1801,22.2889,-2.25096,-0.798131,0.24647,-2.4923,-0.93186,-2.6608,3.27326,-1.26189,-0.0714827,-0.0980154
2233607,0.98,-1.62225,-0.493012,-0.0605059,-2.06835,-1.5989,1.68011,0.78815,-1.62632,-0.4924,-0.0658015,-2.06466,-1.60217,1.68443,0.788312,-0.736183,0.458172,-1.05242,0.430264,-0.46084,1.69065,0.0431268,-0.761649,0.468013,-1.10302,0.456788,-0.497637,1.74155,0.045941,-9.36095,-11.2763,-11.9024,22.3127,-2.32512,-0.57932,0.129282,-2.54251,-0.94011,-2.71415,3.30006,-1.27289,-0.0782401,-0.0993786
2233608,0.98,-1.62301,-0.492559,-0.0615925,-2.0679,-1.59935,1.68186,0.788178,-1.62708,-0.49193,-0.066912,-2.0642,-1.60267,1.68618,0.788358,-0.742477,0.452876,-1.06018,0.438804,-0.464962,1.72202,0.039476,-0.763189,0.469976,-1.11047,0.459035,-0.500355,1.75001,0.0462997,-8.82933,-11.1493,-11.6485,22.1897,-2.47709,-0.418187,0.194285,-2.57607,-0.931405,-2.7438,3.31932,-1.28311,-0.0813136,-0.0998103
2233609,0.98,-1.62378,-0.492097,-0.0627169,-2.06745,-1.59982,1.6836,0.788219,-1.62785,-0.491459,-0.0680283,-2.06374,-1.60317,1.68794,0.788405,-0.742143,0.457232,-1.07743,0.441524,-0.471732,1.72857,0.0416464,-0.764032,0.471357,-1.11629,0.460706,-0.502219,1.75651,0.0466605,-8.40087,-11.1771,-11.1169,22.1897,-2.4716,-0.495092,0.129282,-2.59386,-0.897839,-2.75237,3.32423,-1.2925,-0.080992,-0.0993758
2233610,0.98,-1.62456,-0.491615,-0.0638428,-2.06699,-1.60031,1.68536,0.788257,-1.62861,-0.490986,-0.0691504,-2.06328,-1.60367,1.6897,0.788452,-0.746875,0.463314,-1.09309,0.447088,-0.474166,1.72252,0.0429553,-0.764875,0.472738,-1.12211,0.462377,-0.504082,1.76301,0.0470213,-8.07158,-11.3279,-10.4067,22.0389,-2.40385,-0.57932,0.0651953,-2.59329,-0.849534,-2.73568,3.31803,-1.30129,-0.07682,-0.0981495
2233611,0.98,-1.62534,-0.491138,-0.0649749,-2.06654,-1.6008,1.68711,0.788296,-1.62938,-0.490512,-0.0702783,-2.06282,-1.60418,1.69147,0.788499,-0.760856,0.463737,-1.10204,0.45187,-0.477384,1.72765,0.0436374,-0.765718,0.474119,-1.12793,0.464048,-0.505946,1.76951,0.0473821,-7.56774,-11.4548,-9.9505,21.9873,-2.29674,-0.720311,0.00660151,-2.56949,-0.798327,-2.68726,3.30572,-1.30972,-0.0680786,-0.0962589
2233612,0.98,-1.62614,-0.490671,-0.0661148,-2.06608,-1.6013,1.68889,0.788361,-1.63014,-0.490036,-0.0714121,-2.06235,-1.60469,1.69325,0.788547,-0.769238,0.463783,-1.13853,0.450101,-0.484618,1.74131,0.051423,-0.766562,0.4755,-1.13375,0.465719,-0.507809,1.77601,0.0477429,-7.0877,-11.5778,-9.49823,21.9873,-2.16673,-0.798131,-0.252493,-2.51315,-0.744534,-2.59447,3.28873,-1.31759,-0.0538186,-0.0939488
2233613,0.98,-1.62692,-0.490185,-0.0672723,-2.06561,-1.60179,1.69067,0.7884,-1.63091,-0.489559,-0.0725516,-2.06188,-1.6052,1.69503,0.788595,-0.777922,0.469241,-1.13949,0.457505,-0.486725,1.77083,0.0462458,-0.767405,0.476882,-1.13957,0.46739,-0.509673,1.78251,0.0481037,-6.7108,-11.8317,-9.01422,21.9635,-2.13835,-0.862218,-0.232351,-2.41893,-0.689734,-2.44932,3.26951,-1.32453,-0.0341029,-0.0915848
2233614,0.98,-1.62771,-0.489712,-0.0684254,-2.06515,-1.60228,1.69247,0.788441,-1.63168,-0.489081,-0.073697,-2.06141,-1.60571,1.69682,0.788644,-0.783831,0.472399,-1.14114,0.456739,-0.488925,1.77706,0.0479112,-0.768248,0.478263,-1.14539,0.469061,-0.511536,1.78901,0.0484645,-6.35772,-12.034,-8.78808,21.9159,-2.08708,-1.24216,-0.225942,-2.30134,-0.641128,-2.27362,3.25107,-1.3307,-0.0119703,-0.0896034
2233615,0.98,-1.6285,-0.48923,-0.0695676,-2.06468,-1.60279,1.69428,0.788495,-1.63245,-0.488602,-0.0748482,-2.06094,-1.60622,1.69861,0.788692,-0.780712,0.476045,-1.14513,0.458319,-0.48896,1.77318,0.0474306,-0.769092,0.479644,-1.15121,0.470732,-0.5134,1.79551,0.0488254,-6.20696,-12.2879,-8.66113,21.8882,-2.0587,-1.43534,-0.290945,-2.18104,-0.60575,-2.09821,3.23709,-1.3366,0.00897109,-0.0882907
2233616,0.98,-1.62926,-0.488744,-0.0707181,-2.06421,-1.60328,1.696,0.788544,-1.63322,-0.488121,-0.0760053,-2.06047,-1.60674,1.70041,0.788742,-0.775381,0.474173,-1.13983,0.461273,-0.488183,1.75062,0.048301,-0.769935,0.481025,-1.15703,0.472403,-0.515264,1.80202,0.0491862,-6.35772,-12.4903,-8.60956,21.8167,-2.07609,-0.913488,-0.284536,-2.0736,-0.582733,-1.94566,3.22778,-1.34263,0.0261369,-0.0877716
2233617,0.98,-1.63002,-0.488265,-0.071886,-2.06374,-1.60379,1.69778,0.788602,-1.63399,-0.487638,-0.0771681,-2.06,-1.60725,1.70222,0.788791,-0.766138,0.474463,-1.14756,0.460738,-0.492494,1.7392,0.0509197,-0.770778,0.482406,-1.16285,0.474074,-0.517127,1.80852,0.049547,-6.65923,-12.641,-8.55798,21.8405,-2.09807,-0.546361,-0.310171,-1.99012,-0.564477,-1.83159,3.21966,-1.34903,0.0379869,-0.0881185
2233618,0.98,-1.63078,-0.487781,-0.0730327,-2.06326,-1.6043,1.6996,0.788658,-1.63476,-0.487154,-0.0783368,-2.05952,-1.60777,1.70404,0.788841,-0.765604,0.473515,-1.14822,0.468009,-0.491137,1.78291,0.0506029,-0.771622,0.483787,-1.16867,0.475745,-0.518991,1.81502,0.0499078,-6.96471,-12.7918,-8.58575,21.6898,-2.11546,-0.566503,-0.271719,-1.93464,-0.544702,-1.76043,3.20929,-1.35573,0.0443201,-0.08937
2233619,0.98,-1.63156,-0.487295,-0.0742037,-2.06278,-1.6048,1.70143,0.788698,-1.63553,-0.48667,-0.0795095,-2.05904,-1.60829,1.70586,0.788891,-0.765585,0.481565,-1.14723,0.469876,-0.49842,1.79412,0.0457651,-0.771958,0.484594,-1.17269,0.476802,-0.519969,1.81944,0.0502548,-7.13927,-12.9703,-8.55798,21.6898,-2.17222,-1.07462,-0.10967,-1.9087,-0.525157,-1.73282,3.19557,-1.36259,0.045252,-0.0914963
2233620,0.98,-1.63236,-0.486804,-0.0753911,-2.06229,-1.60531,1.70326,0.788761,-1.63631,-0.486184,-0.0806862,-2.05857,-1.60881,1.70768,0.788942,-0.775279,0.484641,-1.16053,0.469908,-0.503553,1.7981,0.0507091,-0.772295,0.485402,-1.1767,0.477859,-0.520948,1.82386,0.0506017,-7.01232,-13.0457,-8.18109,21.5906,-2.21709,-1.1973,-0.155447,-1.90551,-0.516602,-1.73777,3.18321,-1.36955,0.042067,-0.0942739
2233621,0.98,-1.63315,-0.486298,-0.0765594,-2.06182,-1.60582,1.70507,0.788815,-1.63708,-0.485698,-0.0818669,-2.05809,-1.60934,1.70951,0.788993,-0.780992,0.48701,-1.15946,0.474026,-0.505073,1.81869,0.0507828,-0.772632,0.486209,-1.18072,0.478916,-0.521926,1.82828,0.0509487,-6.687,-13.2718,-8.28027,21.5906,-2.22258,-1.07462,-0.122488,-1.91127,-0.523606,-1.75477,3.17548,-1.37648,0.0367329,-0.097381
2233622,0.98,-1.63393,-0.48581,-0.0777617,-2.06134,-1.60635,1.70685,0.788883,-1.63785,-0.485211,-0.0830516,-2.05761,-1.60986,1.71134,0.789044,-0.778268,0.486638,-1.17286,0.471282,-0.512311,1.80861,0.0544969,-0.772969,0.487017,-1.18473,0.479974,-0.522904,1.83271,0.0512956,-6.7108,-13.375,-8.05414,21.7176,-2.1887,-0.791722,-0.181082,-1.91868,-0.541126,-1.77306,3.17101,-1.38336,0.0301324,-0.10059
