shamilmamedov/beam_handling/data/param_estimation_ICRA/ocp_Xdown_35cm_0.57s_1.csv
duration, success rate, q[0], q[1], q[2], q[3], q[4], q[5], q[6],q_d[0], q_d[1], q_d[2], q_d[3], q_d[4], q_d[5], q_d[6],dq[0], dq[1], dq[2], dq[3], dq[4], dq[5], dq[6],dq_d[0], dq_d[1], dq_d[2], dq_d[3], dq_d[4], dq_d[5], dq_d[6],tau_J[0], tau_J[1], tau_J[2], tau_J[3], tau_J[4], tau_J[5], tau_J[6],tau_ext_hat_filtered[0], tau_ext_hat_filtered[1], tau_ext_hat_filtered[2], tau_ext_hat_filtered[3], tau_ext_hat_filtered[4], tau_ext_hat_filtered[5], tau_ext_hat_filtered[6]
3242804,0,-1.57092,-0.522881,-0.000474982,-2.09594,-1.57076,1.57154,0.785231,-1.5708,-0.523599,-3.67309e-07,-2.09439,-1.5708,1.5708,0.785397,0.000145034,-0.000729031,0.000290596,-0.000232717,-0.000485708,0.000184992,-0.00123325,0,0,0,0,0,0,0,0.124828,-10.0901,0.757205,21.0431,-0.746748,-0.592137,0.0844213,0.11146,-0.997748,0.598668,2.51882,-0.1941,-0.585812,0.0270212
3242805,1,-1.57092,-0.522881,-0.000476652,-2.09594,-1.57076,1.57154,0.785228,-1.5708,-0.523599,-3.67309e-07,-2.09439,-1.5708,1.5708,0.785397,9.66896e-05,-0.000486021,-0.000363081,0.000401667,0.000523905,-0.00035139,-0.0017716,0,0,0,0,0,0,0,0.124828,-10.0901,0.781009,21.0193,-0.769636,-0.57932,0.110056,0.11201,-0.994923,0.5987,2.51759,-0.19408,-0.585778,0.0268068
3242806,1,-1.57092,-0.522878,-0.000474982,-2.09594,-1.57076,1.57154,0.785233,-1.5708,-0.523599,-3.67309e-07,-2.09439,-1.5708,1.5708,0.785397,-0.000492352,0.00078961,0.000314758,-0.000938648,-5.7631e-05,0.000240458,0.000717802,0,0,0,0,0,0,0,0.148632,-10.1377,0.757205,21.0709,-0.75865,-0.592137,0.0587866,0.112521,-0.993184,0.598684,2.51687,-0.194074,-0.58576,0.0265864
3242807,1,-1.57092,-0.52288,-0.000476652,-2.09594,-1.57076,1.57154,0.785232,-1.5708,-0.523599,-3.67309e-07,-2.09439,-1.5708,1.5708,0.785397,0.000785389,-3.04053e-05,-0.000346974,0.000580661,0.00903215,0.000160305,3.81663e-06,0,0,0,0,0,0,0,0.101024,-10.1139,0.781009,21.0193,-0.746748,-0.592137,0.071604,0.112887,-0.993885,0.598513,2.51739,-0.19415,-0.585781,0.0264048
3242808,1,-1.57092,-0.522881,-0.000476652,-2.09594,-1.57076,1.57154,0.785234,-1.5708,-0.523599,-3.67309e-07,-2.09439,-1.5708,1.5708,0.785397,0.000523593,-0.000577082,-0.000231316,0.000387107,0.0070175,-0.000130489,0.000714621,0,0,0,0,0,0,0,0.101024,-10.0901,0.781009,21.0193,-0.752241,-0.585729,0.0523779,0.112863,-0.994903,0.597879,2.51797,-0.194302,-0.585839,0.0262435
3242809,1,-1.57092,-0.522876,-0.000476652,-2.09594,-1.57076,1.57154,0.785229,-1.5708,-0.523599,-3.67309e-07,-2.09439,-1.5708,1.5708,0.785397,0.000349062,0.00137852,-0.00015421,0.000258071,0.00551015,-8.69925e-05,-0.000235663,0,0,0,0,0,0,0,0.101024,-10.1654,0.781009,21.0193,-0.75865,-0.585729,0.071604,0.112595,-0.995755,0.597035,2.51823,-0.194474,-0.585911,0.0260853
3242810,1,-1.57092,-0.522878,-0.000478601,-2.09594,-1.57076,1.57154,0.785228,-1.5708,-0.523599,-3.67309e-07,-2.09439,-1.5708,1.5708,0.785397,0.000232708,0.000269397,-0.000752421,-0.000384764,0.00411928,0.000179364,-0.00110654,0,0,0,0,0,0,0,0.101024,-10.1377,0.80878,21.0431,-0.75865,-0.592137,0.0972387,0.112452,-0.998408,0.596574,2.51925,-0.19464,-0.585981,0.0259341
3242811,1,-1.57091,-0.522878,-0.000473311,-2.09594,-1.57076,1.57154,0.785227,-1.5708,-0.523599,-3.67309e-07,-2.09439,-1.5708,1.5708,0.785397,0.00191838,0.000179598,0.00126162,-0.000906123,0.00348747,-0.000117783,-0.00144977,0,0,0,0,0,0,0,0.0256461,-10.1377,0.733401,21.0709,-0.769636,-0.585729,0.116465,0.111845,-1.0022,0.595671,2.52104,-0.194802,-0.58613,0.0258058
3242812,1,-1.57092,-0.522878,-0.000476652,-2.09594,-1.57076,1.57154,0.785234,-1.5708,-0.523599,-3.67309e-07,-2.09439,-1.5708,1.5708,0.785397,-0.00104113,0.000119732,-0.000272541,4.55316e-05,0.00193151,-7.8522e-05,0.00140707,0,0,0,0,0,0,0,0.124828,-10.1377,0.781009,21.0431,-0.752241,-0.585729,0.0523779,0.110431,-1.00555,0.593728,2.52286,-0.194952,-0.586393,0.0257395
3242813,1,-1.57092,-0.522881,-0.000478601,-2.09594,-1.57076,1.57154,0.785233,-1.5708,-0.523599,-3.67309e-07,-2.09439,-1.5708,1.5708,0.785397,-0.000694088,-0.0010338,-0.000831308,0.000587166,0.00106886,0.000185011,0.000463332,0,0,0,0,0,0,0,0.124828,-10.0901,0.80878,21.0193,-0.741255,-0.592137,0.0651953,0.109985,-1.00665,0.593188,2.52341,-0.194997,-0.586486,0.0257479
3242814,1,-1.57092,-0.522878,-0.000478601,-2.09594,-1.57076,1.57154,0.785228,-1.5708,-0.523599,-3.67309e-07,-2.09439,-1.5708,1.5708,0.785397,-0.00101954,0.000424422,-0.000554205,0.000391444,0.00105709,-0.000114018,-0.00016583,0,0,0,0,0,0,0,0.148632,-10.1377,0.80878,21.0193,-0.746748,-0.585729,0.0780126,0.111361,-1.0051,0.595276,2.52225,-0.194888,-0.586282,0.0257933
3242815,1,-1.57092,-0.522881,-0.000473311,-2.09594,-1.57076,1.57154,0.785223,-1.5708,-0.523599,-3.67309e-07,-2.09439,-1.5708,1.5708,0.785397,0.000433932,-0.000830676,0.00139377,0.000817775,0.00145479,0.000161347,-0.00153471,0,0,0,0,0,0,0,0.101024,-10.0901,0.733401,20.9955,-0.764143,-0.592137,0.116465,0.11287,-1.00237,0.597522,2.52015,-0.194697,-0.586057,0.0258454
3242816,1,-1.57092,-0.52288,-0.000474982,-2.09594,-1.57076,1.57154,0.785228,-1.5708,-0.523599,-3.67309e-07,-2.09439,-1.5708,1.5708,0.785397,-0.000267524,3.0281e-06,0.000372366,-1.16288e-05,0.000845761,0.000344923,-0.000311061,0,0,0,0,0,0,0,0.124828,-10.1139,0.757205,21.0193,-0.75865,-0.598546,0.0972387,0.113055,-0.999079,0.597762,2.5176,-0.194494,-0.586038,0.0259181
3242817,1,-1.57092,-0.52288,-0.000478601,-2.09594,-1.57076,1.57154,0.785234,-1.5708,-0.523599,-3.67309e-07,-2.09439,-1.5708,1.5708,0.785397,-0.000178349,2.01873e-06,-0.000958182,-0.00177099,0.00103026,-7.40999e-06,0.00145414,0,0,0,0,0,0,0,0.124828,-10.1139,0.80878,21.0947,-0.769636,-0.592137,0.0523779,0.112856,-0.996955,0.597479,2.51605,-0.194332,-0.586103,0.0260513
3242818,1,-1.57092,-0.52288,-0.000476652,-2.09594,-1.57076,1.57154,0.78523,-1.5708,-0.523599,-3.67309e-07,-2.09439,-1.5708,1.5708,0.785397,0.000437913,1.34582e-06,1.08262e-05,2.57657e-05,-0.000116239,-0.000242299,-0.000454728,0,0,0,0,0,0,0,0.101024,-10.1139,0.781009,21.0431,-0.746748,-0.585729,0.09083,0.113218,-0.997016,0.598184,2.51624,-0.194229,-0.586117,0.0262444
3242819,1,-1.57092,-0.522876,-0.000478601,-2.09594,-1.57076,1.57154,0.78523,-1.5708,-0.523599,-3.67309e-07,-2.09439,-1.5708,1.5708,0.785397,-0.00026487,0.00120732,-0.000642396,-0.000632437,-4.40164e-05,-0.000161533,0.000646284,0,0,0,0,0,0,0,0.124828,-10.1654,0.80878,21.0709,-0.746748,-0.585729,0.0651953,0.113766,-0.998755,0.599307,2.51737,-0.194162,-0.586133,0.0264594
3242820,1,-1.57092,-0.52288,-0.000476652,-2.09594,-1.57076,1.57154,0.785228,-1.5708,-0.523599,-3.67309e-07,-2.09439,-1.5708,1.5708,0.785397,-0.000733392,-0.000401544,0.00022135,-0.000978437,0.000436572,-0.000107688,-0.000755939,0,0,0,0,0,0,0,0.148632,-10.1139,0.781009,21.0947,-0.75865,-0.585729,0.0972387,0.11451,-1.00183,0.600739,2.51915,-0.194112,-0.58614,0.0266768
3242821,1,-1.57092,-0.522881,-0.000474982,-2.09594,-1.57076,1.57154,0.785232,-1.5708,-0.523599,-3.67309e-07,-2.09439,-1.5708,1.5708,0.785397,6.78839e-05,-0.000824508,0.000704378,0.000554135,0.000513329,-7.17923e-05,0.000445477,0,0,0,0,0,0,0,0.124828,-10.0901,0.757205,21.0431,-0.764143,-0.585729,0.071604,0.115101,-1.00354,0.601778,2.52035,-0.194043,-0.58615,0.026885
3242822,1,-1.57092,-0.52288,-0.000476652,-2.09594,-1.57076,1.57154,0.785235,-1.5708,-0.523599,-3.67309e-07,-2.09439,-1.5708,1.5708,0.785397,4.52559e-05,7.14006e-06,-8.72264e-05,0.000369423,0.000152892,-4.78615e-05,0.00124642,0,0,0,0,0,0,0,0.124828,-10.1139,0.781009,21.0431,-0.75865,-0.585729,0.0459692,0.115082,-1.00233,0.601738,2.51982,-0.19393,-0.586219,0.02708
3242823,1,-1.57092,-0.52288,-0.000474982,-2.09594,-1.57076,1.57154,0.785233,-1.5708,-0.523599,-3.67309e-07,-2.09439,-1.5708,1.5708,0.785397,3.01706e-05,4.76004e-06,0.000498661,0.000246282,-0.000124839,-3.19077e-05,0.00011887,0,0,0,0,0,0,0,0.124828,-10.1139,0.757205,21.0431,-0.752241,-0.585729,0.0651953,0.114717,-1.00016,0.601128,2.51841,-0.193804,-0.586328,0.0272504
3242824,1,-1.57092,-0.522878,-0.000474982,-2.09594,-1.57076,1.57154,0.78523,-1.5708,-0.523599,-3.67309e-07,-2.09439,-1.5708,1.5708,0.785397,0.000576926,0.000559985,0.000332441,0.000164188,-7.5282e-05,-2.12718e-05,0.000316606,0,0,0,0,0,0,0,0.101024,-10.1377,0.757205,21.0431,-0.752241,-0.585729,0.0587866,0.114018,-0.998786,0.600022,2.51722,-0.193703,-0.586491,0.0273713
3242825,1,-1.57092,-0.52288,-0.000476652,-2.09594,-1.57076,1.57154,0.785228,-1.5708,-0.523599,-3.67309e-07,-2.09439,-1.5708,1.5708,0.785397,0.00103423,-0.000183488,-0.000335185,0.000666271,-0.00024768,-1.41812e-05,-0.00121308,0,0,0,0,0,0,0,0.0732535,-10.1139,0.781009,21.0193,-0.746748,-0.585729,0.0972387,0.112956,-0.998156,0.598469,2.51628,-0.193619,-0.586706,0.0274316
3242826,1,-1.57092,-0.522883,-0.000474982,-2.09594,-1.57076,1.57154,0.78523,-1.5708,-0.523599,-3.67309e-07,-2.09439,-1.5708,1.5708,0.785397,-0.000516939,-0.00132875,0.000333355,-0.000112631,0.000280158,-0.000246813,-0.000334004,0,0,0,0,0,0,0,0.124828,-10.0623,0.757205,21.0431,-0.75865,-0.57932,0.0844213,0.112036,-0.996379,0.597174,2.51481,-0.193504,-0.586864,0.027444
3242827,1,-1.57091,-0.52288,-0.000473311,-2.09594,-1.57076,1.57154,0.785233,-1.5708,-0.523599,-3.67309e-07,-2.09439,-1.5708,1.5708,0.785397,0.00141861,0.000320592,0.000779049,-0.00183833,0.000190123,7.28169e-05,0.000726766,0,0,0,0,0,0,0,0.0494498,-10.1139,0.733401,21.1185,-0.75865,-0.585729,0.0587866,0.111089,-0.993917,0.595817,2.51362,-0.193401,-0.586986,0.0274477
3242828,1,-1.57092,-0.522878,-0.000474982,-2.09594,-1.57076,1.57154,0.78523,-1.5708,-0.523599,-3.67309e-07,-2.09439,-1.5708,1.5708,0.785397,-0.000260684,0.00077054,-3.7446e-05,-0.000111926,-0.000108097,4.85446e-05,0.000247152,0,0,0,0,0,0,0,0.101024,-10.1377,0.757205,21.0709,-0.752241,-0.585729,0.0651953,0.109759,-0.993965,0.593996,2.51436,-0.193385,-0.587165,0.027466
3242829,1,-1.57092,-0.52288,-0.000474982,-2.09594,-1.57076,1.57154,0.785227,-1.5708,-0.523599,-3.67309e-07,-2.09439,-1.5708,1.5708,0.785397,-0.000730602,-4.31188e-05,-2.4964e-05,0.000574996,0.00037063,-0.000204996,-0.00125939,0,0,0,0,0,0,0,0.124828,-10.1139,0.757205,21.0431,-0.764143,-0.57932,0.103647,0.109009,-0.995866,0.593068,2.51593,-0.19338,-0.587257,0.0274796
3242830,1,-1.57092,-0.522878,-0.000474982,-2.09595,-1.57076,1.57154,0.785226,-1.5708,-0.523599,-3.67309e-07,-2.09439,-1.5708,1.5708,0.785397,6.97442e-05,0.000528066,-1.66427e-05,-0.000823095,-0.000395759,0.000100695,-0.000602232,0,0,0,0,0,0,0,0.101024,-10.1377,0.757205,21.0947,-0.746748,-0.585729,0.0972387,0.109259,-0.997625,0.593534,2.51711,-0.193331,-0.587179,0.0274863
3242831,1,-1.57092,-0.522876,-0.000473311,-2.09594,-1.57076,1.57154,0.785223,-1.5708,-0.523599,-3.67309e-07,-2.09439,-1.5708,1.5708,0.785397,4.64962e-05,0.00100166,0.000545717,0.000657696,-5.93286e-05,0.000304489,-0.000876206,0,0,0,0,0,0,0,0.101024,-10.1654,0.733401,21.0431,-0.752241,-0.592137,0.110056,0.109602,-0.999997,0.59413,2.51849,-0.193286,-0.587083,0.0275228
3242832,1,-1.57092,-0.522878,-0.000474982,-2.09594,-1.57076,1.57154,0.785233,-1.5708,-0.523599,-3.67309e-07,-2.09439,-1.5708,1.5708,0.785397,3.09974e-05,1.8158e-05,-0.000193001,0.000438464,0.000198602,0.000202993,0.00178945,0,0,0,0,0,0,0,0.101024,-10.1377,0.757205,21.0431,-0.75865,-0.592137,0.0459692,0.109664,-1.00253,0.594314,2.51962,-0.193235,-0.587032,0.0276172
3242833,1,-1.57092,-0.52288,-0.000476652,-2.09594,-1.57076,1.57154,0.785233,-1.5708,-0.523599,-3.67309e-07,-2.09439,-1.5708,1.5708,0.785397,-0.000536147,-0.000544707,-0.000685479,0.000849121,0.000132998,-0.000102031,0.00071825,0,0,0,0,0,0,0,0.124828,-10.1139,0.781009,21.0193,-0.75865,-0.585729,0.0587866,0.110121,-1.00299,0.595025,2.5194,-0.193123,-0.586903,0.0277558
3242834,1,-1.57092,-0.522878,-0.000474982,-2.09594,-1.57076,1.57154,0.78523,-1.5708,-0.523599,-3.67309e-07,-2.09439,-1.5708,1.5708,0.785397,0.000199381,0.000193674,9.98259e-05,9.26887e-06,0.000292563,-0.000305379,-0.000470602,0,0,0,0,0,0,0,0.101024,-10.1377,0.757205,21.0431,-0.764143,-0.57932,0.0844213,0.111157,-1.00132,0.596533,2.51808,-0.192962,-0.586665,0.0278912
3242835,1,-1.57092,-0.52288,-0.000476652,-2.09594,-1.57076,1.57154,0.785229,-1.5708,-0.523599,-3.67309e-07,-2.09439,-1.5708,1.5708,0.785397,0.000782534,-0.000427696,-0.000490261,6.17925e-06,-0.000448882,0.000508491,-0.000788453,0,0,0,0,0,0,0,0.0732535,-10.1139,0.781009,21.0431,-0.746748,-0.598546,0.0972387,0.111959,-0.999247,0.597744,2.51674,-0.19282,-0.586457,0.0279982
3242836,1,-1.57092,-0.52288,-0.000476652,-2.09594,-1.57076,1.57154,0.785228,-1.5708,-0.523599,-3.67309e-07,-2.09439,-1.5708,1.5708,0.785397,-0.000127924,0.000271681,-0.000326841,0.000560931,0.000141806,0.000101635,-0.000762994,0,0,0,0,0,0,0,0.101024,-10.1377,0.781009,21.0193,-0.75865,-0.592137,0.103647,0.11236,-0.997362,0.598498,2.51561,-0.192705,-0.586315,0.0280948
3242837,1,-1.57092,-0.522877,-0.000476652,-2.09594,-1.57076,1.57154,0.785231,-1.5708,-0.523599,-3.67309e-07,-2.09439,-1.5708,1.5708,0.785397,-8.52829e-05,0.000830735,-0.000217894,-0.000182858,-0.000142633,-0.000406961,0.000440773,0,0,0,0,0,0,0,0.101024,-10.1654,0.781009,21.0431,-0.752241,-0.57932,0.0780126,0.112784,-0.99658,0.59938,2.51498,-0.192612,-0.58619,0.0282163
3242838,1,-1.57092,-0.52288,-0.000473311,-2.09594,-1.57076,1.57154,0.785229,-1.5708,-0.523599,-3.67309e-07,-2.09439,-1.5708,1.5708,0.785397,-5.68553e-05,-0.000652603,0.000968361,-0.000121905,-9.4947e-05,-3.39486e-05,0.000531208,0,0,0,0,0,0,0,0.101024,-10.1139,0.733401,21.0431,-0.752241,-0.585729,0.071604,0.11293,-0.996982,0.599849,2.51503,-0.192561,-0.586125,0.0283795
3242839,1,-1.57092,-0.522878,-0.000473311,-2.09594,-1.57076,1.57154,0.785234,-1.5708,-0.523599,-3.67309e-07,-2.09439,-1.5708,1.5708,0.785397,-3.79035e-05,0.000121744,0.000645574,-8.12701e-05,0.000377618,0.000452085,0.00130357,0,0,0,0,0,0,0,0.101024,-10.1377,0.733401,21.0431,-0.764143,-0.598546,0.0459692,0.11226,-0.997002,0.599012,2.51508,-0.192542,-0.586181,0.0285632
3242840,1,-1.57092,-0.52288,-0.000474982,-2.09594,-1.57076,1.57154,0.785228,-1.5708,-0.523599,-3.67309e-07,-2.09439,-1.5708,1.5708,0.785397,-2.5269e-05,-0.00047565,-0.000126429,-5.418e-05,-0.000188985,-0.000173328,-0.00126718,0,0,0,0,0,0,0,0.101024,-10.1139,0.757205,21.0431,-0.752241,-0.585729,0.103647,0.111198,-0.996386,0.59752,2.5149,-0.192531,-0.586293,0.0287292
3242841,1,-1.57092,-0.522876,-0.000476652,-2.09594,-1.57076,1.57154,0.785228,-1.5708,-0.523599,-3.67309e-07,-2.09439,-1.5708,1.5708,0.785397,0.000632768,0.000889326,-0.000641098,-0.00124255,0.000111429,-0.000352911,-0.000844787,0,0,0,0,0,0,0,0.0732535,-10.1654,0.781009,21.0947,-0.75865,-0.57932,0.103647,0.110503,-0.996535,0.596659,2.51529,-0.192531,-0.586358,0.0288649
3242842,1,-1.57092,-0.522878,-0.000473311,-2.09594,-1.57076,1.57154,0.785233,-1.5708,-0.523599,-3.67309e-07,-2.09439,-1.5708,1.5708,0.785397,-0.000784581,-5.67298e-05,0.000686225,0.000934874,0.000481232,2.08517e-06,0.00109832,0,0,0,0,0,0,0,0.124828,-10.1377,0.733401,21.0193,-0.769636,-0.585729,0.0587866,0.110186,-0.99805,0.596453,2.51643,-0.192551,-0.586377,0.029
3242843,1,-1.57092,-0.52288,-0.000478601,-2.09594,-1.57076,1.57154,0.785229,-1.5708,-0.523599,-3.67309e-07,-2.09439,-1.5708,1.5708,0.785397,3.37582e-05,-0.000594632,-0.00130575,6.64373e-05,-0.000323405,-0.000235969,-0.00069194,0,0,0,0,0,0,0,0.101024,-10.1139,0.80878,21.0431,-0.752241,-0.57932,0.0972387,0.110345,-0.99868,0.596896,2.51679,-0.192538,-0.586308,0.0291466
3242844,1,-1.57092,-0.52288,-0.000478601,-2.09594,-1.57076,1.57154,0.785236,-1.5708,-0.523599,-3.67309e-07,-2.09439,-1.5708,1.5708,0.785397,2.25055e-05,-0.000396421,-0.000870503,0.000601103,2.17806e-05,0.000317405,0.00170885,0,0,0,0,0,0,0,0.101024,-10.1139,0.80878,21.0193,-0.75865,-0.592137,0.038645,0.111335,-0.997116,0.598581,2.51579,-0.192462,-0.586081,0.02929
3242845,1,-1.57092,-0.52288,-0.000474982,-2.09594,-1.57076,1.57154,0.785231,-1.5708,-0.523599,-3.67309e-07,-2.09439,-1.5708,1.5708,0.785397,-0.000541808,-0.000264281,0.000626091,-0.000156076,-0.00042627,0.000211604,-0.000318832,0,0,0,0,0,0,0,0.124828,-10.1139,0.757205,21.0431,-0.746748,-0.592137,0.0780126,0.112522,-0.994625,0.600602,2.51424,-0.192369,-0.585814,0.0294168
3242846,1,-1.57092,-0.52288,-0.000474982,-2.09594,-1.57076,1.57154,0.785227,-1.5708,-0.523599,-3.67309e-07,-2.09439,-1.5708,1.5708,0.785397,-0.000361206,-0.000176187,0.000417394,-0.000104051,0.000360094,0.000378428,-0.00163671,0,0,0,0,0,0,0,0.124828,-10.1139,0.757205,21.0431,-0.764143,-0.598546,0.116465,0.113017,-0.992494,0.601495,2.51297,-0.19231,-0.585667,0.0295077
3242847,1,-1.57092,-0.522876,-0.000474982,-2.09594,-1.57076,1.57154,0.785227,-1.5708,-0.523599,-3.67309e-07,-2.09439,-1.5708,1.5708,0.785397,0.000316008,0.00108897,0.000278262,-6.93672e-05,3.66228e-05,-0.000222433,9.5656e-05,0,0,0,0,0,0,0,0.101024,-10.1654,0.757205,21.0431,-0.75865,-0.585729,0.0844213,0.112725,-0.992097,0.60116,2.51265,-0.192307,-0.585678,0.0295803
3242848,1,-1.57092,-0.52288,-0.000474982,-2.09594,-1.57076,1.57154,0.78523,-1.5708,-0.523599,-3.67309e-07,-2.09439,-1.5708,1.5708,0.785397,-0.00034614,-0.000480447,0.000185508,0.000510567,2.44232e-05,8.90706e-05,6.37707e-05,0,0,0,0,0,0,0,0.124828,-10.1139,0.757205,21.0193,-0.75865,-0.592137,0.0844213,0.112005,-0.993254,0.600197,2.51297,-0.192344,-0.585794,0.0296758
3242849,1,-1.57092,-0.52288,-0.000473311,-2.09594,-1.57076,1.57154,0.785236,-1.5708,-0.523599,-3.67309e-07,-2.09439,-1.5708,1.5708,0.785397,0.000326052,-0.000320298,0.000680484,0.000340378,-0.000221071,-0.000177979,0.00197529,0,0,0,0,0,0,0,0.101024,-10.1139,0.733401,21.0193,-0.752241,-0.585729,0.0322363,0.111086,-0.993576,0.598857,2.5127,-0.192374,-0.58595,0.0297978
3242850,1,-1.57092,-0.522881,-0.000476652,-2.09594,-1.57076,1.57154,0.785233,-1.5708,-0.523599,-3.67309e-07,-2.09439,-1.5708,1.5708,0.785397,0.000866982,-0.000770344,-0.000659968,0.000226919,8.99829e-05,-0.000356011,9.61594e-05,0,0,0,0,0,0,0,0.0732535,-10.0901,0.781009,21.0193,-0.75865,-0.57932,0.0651953,0.110006,-0.992114,0.597248,2.5115,-0.19238,-0.586118,0.0299121
3242851,1,-1.57092,-0.522876,-0.000476652,-2.09594,-1.57076,1.57154,0.78523,-1.5708,-0.523599,-3.67309e-07,-2.09439,-1.5708,1.5708,0.785397,-7.16259e-05,0.00124968,-0.000439979,0.000151279,-0.000177367,-0.000237341,6.41062e-05,0,0,0,0,0,0,0,0.101024,-10.1654,0.781009,21.0193,-0.752241,-0.57932,0.0651953,0.10926,-0.990885,0.596265,2.51042,-0.192379,-0.586229,0.0299788
3242852,1,-1.57092,-0.522876,-0.000474982,-2.09594,-1.57076,1.57154,0.78523,-1.5708,-0.523599,-3.67309e-07,-2.09439,-1.5708,1.5708,0.785397,0.000601863,0.000833117,0.000263493,-0.000455959,0.000119117,0.000316491,-0.000669339,0,0,0,0,0,0,0,0.0732535,-10.1654,0.757205,21.0431,-0.75865,-0.592137,0.0844213,0.108855,-0.992534,0.595958,2.51076,-0.192412,-0.586305,0.0299904
3242853,1,-1.57092,-0.522878,-0.000473311,-2.09594,-1.57076,1.57154,0.78523,-1.5708,-0.523599,-3.67309e-07,-2.09439,-1.5708,1.5708,0.785397,-0.000248372,-9.42028e-05,0.000732474,0.000252839,7.94131e-05,-2.63652e-05,-0.000446226,0,0,0,0,0,0,0,0.101024,-10.1377,0.733401,21.0193,-0.75865,-0.585729,0.0844213,0.108113,-0.996072,0.595197,2.5121,-0.192486,-0.586436,0.0299614
3242854,1,-1.57092,-0.522881,-0.000476652,-2.09594,-1.57076,1.57154,0.785236,-1.5708,-0.523599,-3.67309e-07,-2.09439,-1.5708,1.5708,0.785397,-0.000722393,-0.00117643,-0.000625308,-0.000388253,-0.000387866,-0.000254936,0.00139794,0,0,0,0,0,0,0,0.124828,-10.0901,0.781009,21.0431,-0.746748,-0.57932,0.038645,0.107523,-0.997846,0.594522,2.51273,-0.192532,-0.58651,0.0299105
3242855,1,-1.57092,-0.522878,-0.000474982,-2.09594,-1.57076,1.57154,0.785232,-1.5708,-0.523599,-3.67309e-07,-2.09439,-1.5708,1.5708,0.785397,-0.00103841,0.00032934,0.00013994,0.000854789,0.000182233,6.74018e-05,-0.000288745,0,0,0,0,0,0,0,0.148632,-10.1377,0.757205,20.9955,-0.75865,-0.585729,0.071604,0.10798,-0.997089,0.595192,2.51215,-0.192505,-0.586386,0.0298406
3242856,1,-1.57092,-0.522876,-0.000476652,-2.09594,-1.57076,1.57154,0.78523,-1.5708,-0.523599,-3.67309e-07,-2.09439,-1.5708,1.5708,0.785397,-0.000692272,0.000869174,-0.000463519,-0.00119338,-0.000115869,-0.000192424,0.000282221,0,0,0,0,0,0,0,0.148632,-10.1654,0.781009,21.0709,-0.752241,-0.57932,0.0587866,0.10926,-0.996897,0.596949,2.51178,-0.192457,-0.586141,0.0297402
3242857,1,-1.57092,-0.52288,-0.000474982,-2.09594,-1.57076,1.57154,0.785229,-1.5708,-0.523599,-3.67309e-07,-2.09439,-1.5708,1.5708,0.785397,0.00065211,-0.000626977,0.0002478,-0.000795586,-7.72456e-05,0.000346435,-0.000998647,0,0,0,0,0,0,0,0.101024,-10.1139,0.757205,21.0709,-0.752241,-0.592137,0.09083,0.110459,-0.998678,0.598579,2.51271,-0.192452,-0.585929,0.0296092
3242858,1,-1.57092,-0.52288,-0.000474982,-2.09594,-1.57076,1.57154,0.785224,-1.5708,-0.523599,-3.67309e-07,-2.09439,-1.5708,1.5708,0.785397,0.00108435,-0.000417984,0.0001652,0.000119223,-5.14966e-05,-6.40232e-06,-0.00137784,0,0,0,0,0,0,0,0.0732535,-10.1139,0.757205,21.0431,-0.752241,-0.585729,0.110056,0.110592,-0.999918,0.598699,2.5137,-0.192468,-0.58587,0.0294563
3242859,1,-1.57092,-0.522876,-0.000474982,-2.09594,-1.57076,1.57154,0.785228,-1.5708,-0.523599,-3.67309e-07,-2.09439,-1.5708,1.5708,0.785397,7.32885e-05,0.00092777,0.000110133,7.94823e-05,0.000406479,0.000233091,-0.000443843,0,0,0,0,0,0,0,0.101024,-10.1654,0.757205,21.0431,-0.764143,-0.592137,0.0972387,0.10971,-1.00029,0.597396,2.51404,-0.192472,-0.585958,0.0293187
3242860,1,-1.57092,-0.522881,-0.000474982,-2.09594,-1.57076,1.57154,0.785228,-1.5708,-0.523599,-3.67309e-07,-2.09439,-1.5708,1.5708,0.785397,4.8859e-05,-0.00114472,7.34221e-05,0.0006098,6.75355e-05,-8.19651e-05,0.00065354,0,0,0,0,0,0,0,0.101024,-10.0901,0.757205,21.0193,-0.75865,-0.585729,0.071604,0.108721,-1.00032,0.595937,2.51381,-0.192451,-0.586066,0.0292421
3242861,1,-1.57092,-0.52288,-0.000476652,-2.09594,-1.57076,1.57154,0.785232,-1.5708,-0.523599,-3.67309e-07,-2.09439,-1.5708,1.5708,0.785397,3.25727e-05,-0.000206338,-0.000507864,-0.000799892,4.50239e-05,-5.46434e-05,0.000910411,0,0,0,0,0,0,0,0.101024,-10.1139,0.781009,21.0709,-0.75865,-0.585729,0.0587866,0.1082,-0.998861,0.595116,2.51279,-0.192397,-0.586091,0.029231
3242862,1,-1.57092,-0.52288,-0.000476652,-2.09594,-1.57076,1.57154,0.785227,-1.5708,-0.523599,-3.67309e-07,-2.09439,-1.5708,1.5708,0.785397,-0.000535097,-0.000137559,-0.000338576,-0.00109007,0.000233467,-3.64289e-05,-0.00152929,0,0,0,0,0,0,0,0.124828,-10.1139,0.781009,21.0947,-0.764143,-0.585729,0.116465,0.108393,-0.9974,0.595363,2.51223,-0.192353,-0.586007,0.0292596
3242863,1,-1.57092,-0.52288,-0.000474982,-2.09594,-1.57076,1.57154,0.785228,-1.5708,-0.523599,-3.67309e-07,-2.09439,-1.5708,1.5708,0.785397,0.000200081,-9.17057e-05,0.000331095,-0.000726716,-4.7806e-05,-2.4286e-05,-0.000782167,0,0,0,0,0,0,0,0.101024,-10.1139,0.757205,21.0947,-0.75865,-0.585729,0.110056,0.108918,-0.997381,0.596121,2.51291,-0.192357,-0.585887,0.0293158
3242864,1,-1.57092,-0.522876,-0.000476652,-2.09594,-1.57076,1.57154,0.785232,-1.5708,-0.523599,-3.67309e-07,-2.09439,-1.5708,1.5708,0.785397,0.000133387,0.00114529,-0.000336082,7.23348e-05,0.00017158,-1.61906e-05,0.000902709,0,0,0,0,0,0,0,0.101024,-10.1654,0.781009,21.0709,-0.764143,-0.585729,0.071604,0.109153,-0.99879,0.596503,2.51431,-0.192408,-0.585831,0.0294251
3242865,1,-1.57092,-0.522878,-0.000474982,-2.09594,-1.57076,1.57154,0.78523,-1.5708,-0.523599,-3.67309e-07,-2.09439,-1.5708,1.5708,0.785397,8.89248e-05,0.000113912,0.000332757,4.82232e-05,-0.000326423,-1.07938e-05,0.00107652,0,0,0,0,0,0,0,0.101024,-10.1377,0.757205,21.0709,-0.752241,-0.585729,0.0587866,0.109065,-1.00137,0.596491,2.51591,-0.192483,-0.585846,0.0295974
3242866,1,-1.57092,-0.52288,-0.000476652,-2.09594,-1.57076,1.57154,0.78523,-1.5708,-0.523599,-3.67309e-07,-2.09439,-1.5708,1.5708,0.785397,5.92832e-05,-0.000480871,-0.000334974,3.21488e-05,0.000223194,0.000230163,5.60563e-06,0,0,0,0,0,0,0,0.101024,-10.1139,0.781009,21.0709,-0.764143,-0.592137,0.0780126,0.108846,-1.00313,0.596298,2.51684,-0.192543,-0.585876,0.0297903
3242867,1,-1.57092,-0.52288,-0.000473311,-2.09594,-1.57076,1.57154,0.785235,-1.5708,-0.523599,-3.67309e-07,-2.09439,-1.5708,1.5708,0.785397,3.95221e-05,-0.00032058,0.000890308,2.14325e-05,0.000148796,-8.39169e-05,0.00119053,0,0,0,0,0,0,0,0.101024,-10.1139,0.733401,21.0709,-0.764143,-0.585729,0.0459692,0.10845,-1.00279,0.595789,2.51673,-0.192577,-0.58591,0.0299603
3242868,1,-1.57092,-0.522876,-0.000480272,-2.09594,-1.57076,1.57154,0.785229,-1.5708,-0.523599,-3.67309e-07,-2.09439,-1.5708,1.5708,0.785397,2.63481e-05,0.000992706,-0.00172651,0.000663902,0.000302648,-5.59446e-05,-0.00110518,0,0,0,0,0,0,0,0.101024,-10.1654,0.832583,21.0431,-0.769636,-0.585729,0.0972387,0.108219,-1.00191,0.595544,2.51624,-0.192598,-0.585916,0.0300874
3242869,1,-1.57092,-0.522878,-0.000473311,-2.09594,-1.57076,1.57154,0.785226,-1.5708,-0.523599,-3.67309e-07,-2.09439,-1.5708,1.5708,0.785397,0.000667179,1.21898e-05,0.00116904,0.00155623,-0.000442495,-3.72964e-05,-0.000736789,0,0,0,0,0,0,0,0.0732535,-10.1377,0.733401,20.9955,-0.752241,-0.585729,0.0972387,0.108252,-1.00145,0.595813,2.51546,-0.192606,-0.585889,0.0301669
3242870,1,-1.57092,-0.522878,-0.000474982,-2.09594,-1.57076,1.57154,0.785231,-1.5708,-0.523599,-3.67309e-07,-2.09439,-1.5708,1.5708,0.785397,-0.000204828,0.00629281,0.00022255,-0.00128257,-0.000294996,0.000449854,0.000458243,0,0,0,0,0,0,0,0.101024,-10.1377,0.757205,21.0947,-0.752241,-0.598546,0.071604,0.107606,-1.00564,0.595258,2.51649,-0.192705,-0.586025,0.0302402
3242871,1,-1.57092,-0.522878,-0.000476652,-2.09594,-1.57076,1.57154,0.785232,-1.5708,-0.523599,-3.67309e-07,-2.09439,-1.5708,1.5708,0.785397,-0.000136552,0.00471893,-0.000408446,0.000351382,4.06947e-05,-0.000174815,0.000542854,0,0,0,0,0,0,0,0.101024,-10.1377,0.781009,21.0431,-0.75865,-0.585729,0.0651953,0.106582,-1.02061,0.594435,2.52268,-0.193002,-0.586353,0.0303526
3242872,1,-1.57092,-0.522874,-0.000473311,-2.09594,-1.57076,1.57154,0.785235,-1.5708,-0.523599,-3.67309e-07,-2.09439,-1.5708,1.5708,0.785397,-0.000647846,0.00474517,0.000841327,0.000234255,-0.000210229,-0.000116544,0.00107398,0,0,0,0,0,0,0,0.124828,-10.1892,0.733401,21.0431,-0.752241,-0.585729,0.0459692,0.105931,-1.04264,0.594322,2.53218,-0.193401,-0.586717,0.0304824
3242873,1,-1.57092,-0.522878,-0.000474982,-2.09594,-1.57076,1.57154,0.785226,-1.5708,-0.523599,-3.67309e-07,-2.09439,-1.5708,1.5708,0.785397,0.000124914,0.00225162,4.07264e-06,0.00015617,9.72062e-05,-7.76958e-05,-0.00118289,0,0,0,0,0,0,0,0.101024,-10.1377,0.757205,21.0431,-0.75865,-0.585729,0.0972387,0.10536,-1.06349,0.594188,2.54104,-0.193768,-0.587059,0.0305771
3242874,1,-1.57092,-0.522876,-0.000480272,-2.09594,-1.57076,1.57154,0.785229,-1.5708,-0.523599,-3.67309e-07,-2.09439,-1.5708,1.5708,0.785397,8.32762e-05,0.00237164,-0.00176052,0.000104113,-0.000376005,0.000185562,-0.000551231,0,0,0,0,0,0,0,0.101024,-10.1654,0.832583,21.0431,-0.746748,-0.592137,0.09083,0.10532,-1.07863,0.594712,2.54745,-0.194018,-0.587249,0.0306148
3242875,1,-1.57092,-0.522876,-0.000476652,-2.09594,-1.57076,1.57154,0.785232,-1.5708,-0.523599,-3.67309e-07,-2.09439,-1.5708,1.5708,0.785397,0.000705131,0.0017468,3.27441e-05,6.94087e-05,0.00039359,-0.000113651,0.000344589,0,0,0,0,0,0,0,0.0732535,-10.1654,0.781009,21.0431,-0.764143,-0.585729,0.071604,0.106022,-1.0874,0.596347,2.55114,-0.194134,-0.587242,0.0306217
3242876,1,-1.57092,-0.522878,-0.000474982,-2.09594,-1.57076,1.57154,0.785231,-1.5708,-0.523599,-3.67309e-07,-2.09439,-1.5708,1.5708,0.785397,-0.000179526,0.000639202,0.000578641,-0.000603341,0.000262393,-7.57674e-05,-7.63266e-06,0,0,0,0,0,0,0,0.101024,-10.1377,0.757205,21.0709,-0.764143,-0.585729,0.0780126,0.106361,-1.09052,0.597373,2.55256,-0.194172,-0.587214,0.030624
3242877,1,-1.57092,-0.52288,-0.000474982,-2.09594,-1.57076,1.57154,0.785235,-1.5708,-0.523599,-3.67309e-07,-2.09439,-1.5708,1.5708,0.785397,-0.000676496,-3.74656e-05,0.000385761,-0.00095904,-0.000265881,-0.000287871,0.00118171,0,0,0,0,0,0,0,0.124828,-10.1139,0.757205,21.0947,-0.752241,-0.57932,0.0459692,0.106124,-1.08809,0.597284,2.552,-0.194168,-0.587197,0.0306207
3242878,1,-1.57092,-0.522878,-0.000473311,-2.09594,-1.57076,1.57154,0.785231,-1.5708,-0.523599,-3.67309e-07,-2.09439,-1.5708,1.5708,0.785397,-0.000450997,0.000601744,0.000813986,0.00112388,6.01052e-05,4.54452e-05,-0.000398991,0,0,0,0,0,0,0,0.124828,-10.1377,0.733401,21.0193,-0.75865,-0.585729,0.0780126,0.105823,-1.08103,0.596775,2.54952,-0.194107,-0.587128,0.0305957
3242879,1,-1.57092,-0.52288,-0.000476652,-2.09594,-1.57076,1.57154,0.78523,-1.5708,-0.523599,-3.67309e-07,-2.09439,-1.5708,1.5708,0.785397,0.000256147,-0.000103218,-0.000570967,0.00130606,4.00701e-05,0.000267656,-0.000740712,0,0,0,0,0,0,0,0.101024,-10.1139,0.781009,20.9955,-0.75865,-0.592137,0.09083,0.10557,-1.07046,0.596134,2.54479,-0.193958,-0.587013,0.0305287
3242880,1,-1.57092,-0.522881,-0.000476652,-2.09594,-1.57076,1.57154,0.785236,-1.5708,-0.523599,-3.67309e-07,-2.09439,-1.5708,1.5708,0.785397,0.000170765,-0.0005863,-0.000380644,0.000313897,2.67134e-05,0.000178437,0.00143897,0,0,0,0,0,0,0,0.101024,-10.0901,0.781009,21.0193,-0.75865,-0.592137,0.038645,0.105624,-1.05722,0.595936,2.53821,-0.193724,-0.586826,0.0304306
3242881,1,-1.57092,-0.522878,-0.000474982,-2.09594,-1.57076,1.57154,0.785232,-1.5708,-0.523599,-3.67309e-07,-2.09439,-1.5708,1.5708,0.785397,0.000113843,0.00075225,0.000303049,-0.000347547,1.78089e-05,-0.000593119,-0.000261388,0,0,0,0,0,0,0,0.101024,-10.1377,0.757205,21.0431,-0.75865,-0.572911,0.071604,0.105847,-1.04389,0.596053,2.5317,-0.193493,-0.586613,0.0303205
3242882,1,-1.57092,-0.52288,-0.000474982,-2.09594,-1.57076,1.57154,0.785235,-1.5708,-0.523599,-3.67309e-07,-2.09439,-1.5708,1.5708,0.785397,0.000725509,-3.31926e-05,0.000202033,-0.00143812,0.000215323,0.000316664,0.000775177,0,0,0,0,0,0,0,0.0732535,-10.1139,0.757205,21.0947,-0.764143,-0.592137,0.0459692,0.105635,-1.0335,0.595626,2.52722,-0.19336,-0.586493,0.0301914
3242883,1,-1.57092,-0.522881,-0.000473311,-2.09594,-1.57076,1.57154,0.785233,-1.5708,-0.523599,-3.67309e-07,-2.09439,-1.5708,1.5708,0.785397,0.000483673,-0.000562351,0.0006915,0.000247677,-0.000297261,0.000448469,4.20667e-05,0,0,0,0,0,0,0,0.0732535,-10.0901,0.733401,21.0431,-0.752241,-0.598546,0.0587866,0.104668,-1.02523,0.594183,2.5243,-0.193313,-0.586504,0.0300273
3242884,1,-1.57092,-0.522876,-0.000476652,-2.09594,-1.57076,1.57154,0.785227,-1.5708,-0.523599,-3.67309e-07,-2.09439,-1.5708,1.5708,0.785397,-0.000883977,0.00140078,-0.000652624,0.00127874,3.91851e-05,6.16201e-05,-0.000921391,0,0,0,0,0,0,0,0.124828,-10.1654,0.781009,20.9955,-0.75865,-0.592137,0.0844213,0.103712,-1.01766,0.592771,2.52138,-0.193263,-0.586529,0.0298159
3242885,1,-1.57092,-0.52288,-0.000476652,-2.09594,-1.57076,1.57154,0.785229,-1.5708,-0.523599,-3.67309e-07,-2.09439,-1.5708,1.5708,0.785397,-0.000589318,-0.000263241,-0.000435082,0.000295682,2.61234e-05,-0.000196279,-0.00085162,0,0,0,0,0,0,0,0.124828,-10.1139,0.781009,21.0193,-0.75865,-0.585729,0.09083,0.103976,-1.01135,0.593124,2.5183,-0.193163,-0.586402,0.0295706
3242886,1,-1.57091,-0.52288,-0.000473311,-2.09594,-1.57076,1.57154,0.785235,-1.5708,-0.523599,-3.67309e-07,-2.09439,-1.5708,1.5708,0.785397,0.00137036,-0.00640402,0.000823569,-0.00035969,1.74156e-05,-0.000368212,0.00136503,0,0,0,0,0,0,0,0.0494498,-10.1139,0.733401,21.0431,-0.75865,-0.57932,0.038645,0.104665,-1.00105,0.593974,2.51341,-0.19299,-0.58617,0.0293166
3242887,1,-1.57092,-0.52288,-0.000476652,-2.09594,-1.57076,1.57154,0.785236,-1.5708,-0.523599,-3.67309e-07,-2.09439,-1.5708,1.5708,0.785397,-0.000292853,-0.00478373,-0.000564578,0.000317018,-0.000225749,0.000229244,0.000910022,0,0,0,0,0,0,0,0.101024,-10.1139,0.781009,21.0193,-0.752241,-0.592137,0.038645,0.104742,-0.980577,0.593701,2.50439,-0.1927,-0.5859,0.0290517
3242888,1,-1.57092,-0.522876,-0.000478601,-2.09593,-1.57076,1.57154,0.785235,-1.5708,-0.523599,-3.67309e-07,-2.09439,-1.5708,1.5708,0.785397,-0.000195235,-0.00236851,-0.001026,0.00132497,8.68599e-05,0.000390188,0.000335414,0,0,0,0,0,0,0,0.101024,-10.1654,0.80878,20.9717,-0.75865,-0.598546,0.0459692,0.105248,-0.955088,0.594007,2.49303,-0.192312,-0.585501,0.0287548
3242889,1,-1.57092,-0.52288,-0.000474982,-2.09594,-1.57076,1.57154,0.78523,-1.5708,-0.523599,-3.67309e-07,-2.09439,-1.5708,1.5708,0.785397,-0.000686969,-0.00307477,0.000522426,-0.000787123,5.79066e-05,-0.000214593,-0.0014379,0,0,0,0,0,0,0,0.124828,-10.1139,0.757205,21.0431,-0.75865,-0.585729,0.09083,0.1065,-0.932874,0.595511,2.48284,-0.191936,-0.585036,0.0284151
3242890,1,-1.57092,-0.52288,-0.000474982,-2.09594,-1.57076,1.57154,0.785227,-1.5708,-0.523599,-3.67309e-07,-2.09439,-1.5708,1.5708,0.785397,-0.000457979,-0.00226685,0.000348284,0.000588875,3.86044e-05,9.42972e-05,-0.000958602,0,0,0,0,0,0,0,0.124828,-10.1139,0.757205,20.9955,-0.75865,-0.592137,0.09083,0.107532,-0.91613,0.596716,2.4752,-0.191658,-0.584681,0.0280519
3242891,1,-1.57092,-0.522878,-0.000476652,-2.09594,-1.57076,1.57154,0.785228,-1.5708,-0.523599,-3.67309e-07,-2.09439,-1.5708,1.5708,0.785397,-0.00030532,-0.00111717,-0.000324622,-0.000164228,0.000229187,-0.000174494,-0.000876427,0,0,0,0,0,0,0,0.124828,-10.1377,0.781009,21.0193,-0.764143,-0.585729,0.0972387,0.108195,-0.905316,0.597419,2.47022,-0.191488,-0.584468,0.027715
3242892,1,-1.57092,-0.522881,-0.000474982,-2.09594,-1.57076,1.57154,0.785235,-1.5708,-0.523599,-3.67309e-07,-2.09439,-1.5708,1.5708,0.785397,-0.000203546,-0.00198047,0.000340397,-0.00187272,-0.000288018,-0.000116329,0.00131459,0,0,0,0,0,0,0,0.124828,-10.0901,0.757205,21.0947,-0.752241,-0.585729,0.0459692,0.108701,-0.900958,0.598019,2.46841,-0.191446,-0.584367,0.0274534
3242893,1,-1.57092,-0.522878,-0.000474982,-2.09594,-1.57076,1.57154,0.785234,-1.5708,-0.523599,-3.67309e-07,-2.09439,-1.5708,1.5708,0.785397,-0.00069251,0.000351376,0.000226931,-4.20564e-05,4.53468e-05,-7.75529e-05,0.000639032,0,0,0,0,0,0,0,0.148632,-10.1654,0.757205,21.0431,-0.75865,-0.585729,0.0523779,0.108967,-0.902664,0.598336,2.46987,-0.191539,-0.584383,0.0272726
3242894,1,-1.57092,-0.522879,-0.000476652,-2.09594,-1.57076,1.57154,0.785231,-1.5708,-0.523599,-3.67309e-07,-2.09439,-1.5708,1.5708,0.785397,0.000651951,-0.000484025,-0.000405524,-2.80376e-05,3.02312e-05,-5.1702e-05,-0.000760773,0,0,0,0,0,0,0,0.101024,-10.1377,0.781009,21.0431,-0.75865,-0.585729,0.0844213,0.109027,-0.909331,0.598412,2.47341,-0.191711,-0.5845,0.0271288
3242895,1,-1.57092,-0.52288,-0.000476652,-2.09594,-1.57076,1.57154,0.785231,-1.5708,-0.523599,-3.67309e-07,-2.09439,-1.5708,1.5708,0.785397,0.000434634,-0.000930991,-0.00027035,-1.86917e-05,2.01541e-05,-3.4468e-05,-0.000269823,0,0,0,0,0,0,0,0.101024,-10.1139,0.781009,21.0431,-0.75865,-0.585729,0.0780126,0.108899,-0.918013,0.598331,2.47738,-0.19189,-0.584673,0.0269882
3242896,1,-1.57092,-0.52288,-0.000474982,-2.09594,-1.57076,1.57154,0.785228,-1.5708,-0.523599,-3.67309e-07,-2.09439,-1.5708,1.5708,0.785397,-0.000267056,-0.000659283,0.000376579,-1.24612e-05,1.34361e-05,-0.000260338,-0.00136668,0,0,0,0,0,0,0,0.124828,-10.1139,0.757205,21.0431,-0.75865,-0.57932,0.110056,0.108582,-0.926226,0.597996,2.48089,-0.19205,-0.584866,0.0268593
3242897,1,-1.57092,-0.522876,-0.000474982,-2.09594,-1.57076,1.57154,0.785233,-1.5708,-0.523599,-3.67309e-07,-2.09439,-1.5708,1.5708,0.785397,-0.000734849,0.000737938,0.000251053,-0.00121473,-0.000228402,6.38005e-05,0.00173374,0,0,0,0,0,0,0,0.148632,-10.1654,0.757205,21.0947,-0.752241,-0.585729,0.038645,0.108276,-0.935165,0.597565,2.48479,-0.192225,-0.585059,0.0267754
3242898,1,-1.57092,-0.522881,-0.000471363,-2.09594,-1.57076,1.57154,0.78523,-1.5708,-0.523599,-3.67309e-07,-2.09439,-1.5708,1.5708,0.785397,6.69124e-05,-0.001293,0.00137379,0.000953416,-0.000152268,4.25337e-05,-0.000302236,0,0,0,0,0,0,0,0.124828,-10.0901,0.70563,21.0193,-0.752241,-0.585729,0.0780126,0.10777,-0.944796,0.596638,2.48908,-0.192421,-0.585288,0.0267417
3242899,1,-1.57092,-0.522878,-0.000476652,-2.09594,-1.57076,1.57154,0.785228,-1.5708,-0.523599,-3.67309e-07,-2.09439,-1.5708,1.5708,0.785397,0.00060142,0.000235328,-0.000847375,-0.00168444,0.000135847,2.83558e-05,-0.000201491,0,0,0,0,0,0,0,0.101024,-10.1377,0.781009,21.1185,-0.75865,-0.585729,0.0780126,0.106893,-0.95323,0.595028,2.49283,-0.192598,-0.585555,0.0267227
3242900,1,-1.57092,-0.522878,-0.000476652,-2.09594,-1.57076,1.57154,0.785229,-1.5708,-0.523599,-3.67309e-07,-2.09439,-1.5708,1.5708,0.785397,-0.000155865,0.000144665,-0.000564917,-0.000566148,9.05648e-05,1.89039e-05,-0.000371686,0,0,0,0,0,0,0,0.124828,-10.1377,0.781009,21.0947,-0.75865,-0.585729,0.0844213,0.106479,-0.961842,0.594182,2.49708,-0.192763,-0.585743,0.0267094
3242901,1,-1.57092,-0.52288,-0.000478601,-2.09595,-1.57076,1.57154,0.785226,-1.5708,-0.523599,-3.67309e-07,-2.09439,-1.5708,1.5708,0.785397,0.000452902,-0.000469534,-0.00102623,-0.000934244,-0.000176982,-0.000462115,-0.00048515,0,0,0,0,0,0,0,0.101024,-10.1139,0.80878,21.1185,-0.752241,-0.572911,0.09083,0.10704,-0.970784,0.5949,2.50189,-0.192909,-0.585772,0.0267141
3242902,1,-1.57092,-0.522878,-0.000474982,-2.09594,-1.57076,1.57154,0.785235,-1.5708,-0.523599,-3.67309e-07,-2.09439,-1.5708,1.5708,0.785397,0.000301935,0.000236915,0.000522276,0.000490795,-0.000117988,0.000166641,0.00184671,0,0,0,0,0,0,0,0.101024,-10.1377,0.757205,21.0709,-0.752241,-0.585729,0.0322363,0.107808,-0.978263,0.595972,2.50597,-0.193011,-0.585741,0.0267424
3242903,1,-1.57092,-0.52288,-0.000476652,-2.09594,-1.57076,1.57154,0.785234,-1.5708,-0.523599,-3.67309e-07,-2.09439,-1.5708,1.5708,0.785397,-0.000355522,-0.000404024,-0.000208628,-0.000229615,0.000362151,0.000585812,0.000485152,0,0,0,0,0,0,0,0.124828,-10.1139,0.781009,21.0947,-0.764143,-0.598546,0.0523779,0.108144,-0.983986,0.596372,2.50891,-0.193071,-0.585747,0.0267787
3242904,1,-1.57092,-0.52288,-0.000474982,-2.09594,-1.57076,1.57154,0.785232,-1.5708,-0.523599,-3.67309e-07,-2.09439,-1.5708,1.5708,0.785397,-0.000237015,-0.000273216,0.000417727,0.000403735,0.000241434,0.000153182,-0.000388642,0,0,0,0,0,0,0,0.124828,-10.1139,0.757205,21.0709,-0.764143,-0.592137,0.071604,0.108293,-0.987828,0.596384,2.51075,-0.193087,-0.585763,0.0267787
3242905,1,-1.57092,-0.522878,-0.000476652,-2.09594,-1.57076,1.57154,0.785231,-1.5708,-0.523599,-3.67309e-07,-2.09439,-1.5708,1.5708,0.785397,0.000398802,0.000371768,-0.000278328,0.000269157,0.000364406,-0.000135237,-0.000733813,0,0,0,0,0,0,0,0.101024,-10.1377,0.781009,21.0709,-0.769636,-0.585729,0.0844213,0.108369,-0.990438,0.59623,2.51188,-0.193082,-0.585787,0.0267241
3242906,1,-1.57092,-0.52288,-0.000476652,-2.09594,-1.57076,1.57154,0.785231,-1.5708,-0.523599,-3.67309e-07,-2.09439,-1.5708,1.5708,0.785397,-0.000847756,-0.000311141,-0.000185552,0.000179438,3.9487e-05,-9.01583e-05,-0.00025185,0,0,0,0,0,0,0,0.148632,-10.1139,0.781009,21.0709,-0.764143,-0.585729,0.0780126,0.108594,-0.992645,0.596306,2.51274,-0.193077,-0.585795,0.0266397
3242907,1,-1.57092,-0.52288,-0.000474982,-2.09594,-1.57076,1.57154,0.785231,-1.5708,-0.523599,-3.67309e-07,-2.09439,-1.5708,1.5708,0.785397,0.000548453,-0.000209059,0.000433111,0.000119625,-0.000177126,0.000177253,-0.0001679,0,0,0,0,0,0,0,0.101024,-10.1139,0.757205,21.0709,-0.75865,-0.592137,0.0780126,0.108986,-0.994118,0.596598,2.51335,-0.193083,-0.585779,0.0265555
3242908,1,-1.57091,-0.52288,-0.000480272,-2.09594,-1.57076,1.57154,0.785236,-1.5708,-0.523599,-3.67309e-07,-2.09439,-1.5708,1.5708,0.785397,0.00157206,-0.000140596,-0.0014745,0.000729364,-0.000355443,-0.00011919,0.00134613,0,0,0,0,0,0,0,0.0494498,-10.1139,0.832583,21.0431,-0.752241,-0.585729,0.038645,0.109046,-0.994664,0.59654,2.51354,-0.193101,-0.58581,0.0264854
3242909,1,-1.57092,-0.52288,-0.000476652,-2.09594,-1.57076,1.57154,0.785231,-1.5708,-0.523599,-3.67309e-07,-2.09439,-1.5708,1.5708,0.785397,-0.000715197,-9.46482e-05,0.000223428,-0.000163371,0.000203848,0.000157899,-0.000560643,0,0,0,0,0,0,0,0.124828,-10.1139,0.781009,21.0709,-0.764143,-0.592137,0.0780126,0.109055,-0.994789,0.596674,2.51354,-0.193121,-0.585845,0.0264187
3242910,1,-1.57092,-0.522881,-0.000474982,-2.09594,-1.57076,1.57154,0.785225,-1.5708,-0.523599,-3.67309e-07,-2.09439,-1.5708,1.5708,0.785397,8.0014e-05,-0.000620599,0.000705764,-0.000665726,-0.000304911,0.000342625,-0.0013232,0,0,0,0,0,0,0,0.101024,-10.0901,0.757205,21.0947,-0.752241,-0.598546,0.103647,0.109052,-0.994899,0.59682,2.51388,-0.19316,-0.58588,0.0263377
3242911,1,-1.57092,-0.52288,-0.000476652,-2.09594,-1.57076,1.57154,0.785228,-1.5708,-0.523599,-3.67309e-07,-2.09439,-1.5708,1.5708,0.785397,-0.000503469,0.000142563,-8.63028e-05,0.000762608,0.000237535,-0.00048366,-0.000644773,0,0,0,0,0,0,0,0.124828,-10.1139,0.781009,21.0431,-0.764143,-0.57932,0.0972387,0.108808,-0.994916,0.596516,2.51451,-0.193218,-0.585955,0.0262599
3242912,1,-1.57092,-0.522878,-0.000474982,-2.09594,-1.57076,1.57154,0.785229,-1.5708,-0.523599,-3.67309e-07,-2.09439,-1.5708,1.5708,0.785397,-0.000335646,0.000651467,0.000499277,0.000508406,-0.000485903,0.000152278,-0.000429849,0,0,0,0,0,0,0,0.124828,-10.1377,0.757205,21.0431,-0.746748,-0.592137,0.0972387,0.108659,-0.995288,0.596308,2.51506,-0.193268,-0.586031,0.0262276
3242913,1,-1.57092,-0.522874,-0.000477112,-2.09594,-1.57076,1.57154,0.785236,-1.5708,-0.523599,-3.67309e-07,-2.09439,-1.5708,1.5708,0.785397,0.000982662,0.00164045,0.000332851,-0.000867489,-0.000323935,-0.00013584,0.00188357,0,0,0,0,0,0,0,0.0732535,-10.1892,0.757205,21.0947,-0.746748,-0.585729,0.038645,0.108249,-0.998038,0.595787,2.51659,-0.193354,-0.586181,0.0262714
3242914,1,-1.57092,-0.522876,-0.000480982,-2.09594,-1.57076,1.57154,0.78523,-1.5708,-0.523599,-3.67309e-07,-2.09439,-1.5708,1.5708,0.785397,-0.000551318,0.000536602,-0.00154134,0.0006281,-1.25064e-05,-9.05603e-05,-0.000677064,0,0,0,0,0,0,0,0.124828,-10.1654,0.832583,21.0431,-0.752241,-0.585729,0.09083,0.107866,-1.00347,0.595511,2.51951,-0.193471,-0.586356,0.0263737
3242915,1,-1.57092,-0.52288,-0.000475219,-2.09594,-1.57076,1.57154,0.785231,-1.5708,-0.523599,-3.67309e-07,-2.09439,-1.5708,1.5708,0.785397,0.000189267,-0.000848855,0.00073568,0.000418733,0.000229021,0.000176985,-0.000214017,0,0,0,0,0,0,0,0.101024,-10.1139,0.757205,21.0431,-0.75865,-0.592137,0.0844213,0.108226,-1.00764,0.596399,2.52173,-0.193515,-0.586394,0.0264827
3242916,1,-1.57092,-0.522874,-0.000475061,-2.09594,-1.57076,1.57154,0.785231,-1.5708,-0.523597,-2.47807e-06,-2.09439,-1.5708,1.5708,0.785396,0.000126178,0.00119721,0.000490453,-0.000370458,0.000559582,0.00011799,-0.000142678,-0.00362688,0.001875,-0.00211076,0.00261762,-0.00132195,0.005,-0.00046918,0.101024,-10.1892,0.757205,21.0709,-0.769636,-0.592137,0.0844213,0.108317,-1.0094,0.596802,2.52272,-0.193505,-0.586438,0.0265885
3242917,1,-1.57092,-0.522876,-0.000478628,-2.09594,-1.57076,1.57154,0.785226,-1.57081,-0.523593,-6.69959e-06,-2.09439,-1.5708,1.57081,0.785395,-0.000472693,0.000241238,-0.000879457,0.000402642,-0.000271205,7.86602e-05,-0.000569837,-0.00725376,0.00375,-0.00422152,0.00523524,-0.0026439,0.01,-0.00093836,0.124828,-10.1654,0.80878,21.0431,-0.752241,-0.592137,0.0972387,0.108101,-1.01138,0.596734,2.52387,-0.193508,-0.58653,0.0267117
3242918,1,-1.57092,-0.52288,-0.000476661,-2.09594,-1.57076,1.57154,0.785235,-1.57082,-0.523587,-1.30319e-05,-2.09438,-1.57081,1.57083,0.785394,0.000891297,-0.00104567,6.33092e-05,-0.000381186,0.000260006,-0.000422278,0.00179025,-0.0108806,0.005625,-0.00633229,0.00785286,-0.00396586,0.015,-0.00140754,0.0732535,-10.1139,0.781009,21.0709,-0.764143,-0.57932,0.038645,0.108316,-1.0125,0.597342,2.52465,-0.193493,-0.586545,0.0268575
3242919,1,-1.57092,-0.522877,-0.000476729,-2.09594,-1.57076,1.57154,0.785233,-1.57083,-0.52358,-2.14749e-05,-2.09437,-1.57081,1.57085,0.785392,-0.00257626,0.00191399,-0.00273963,-0.000254124,0.000580238,0.000193199,0.000447513,-0.0145075,0.0075,-0.00844305,0.0104705,-0.00528781,0.02,-0.00187672,0.0732535,-10.0901,0.630252,21.0709,-0.77513,-0.592137,0.0587866,0.109703,-1.01286,0.599733,2.52523,-0.193452,-0.586368,0.0270135
3242920,1,-1.57092,-0.522879,-0.000478935,-2.09594,-1.57076,1.57154,0.785236,-1.57085,-0.52357,-3.20287e-05,-2.09435,-1.57082,1.57087,0.78539,-0.000519105,0.000486681,-0.00352913,0.00339102,0.00164144,-0.000108559,0.00128169,-0.0181344,0.009375,-0.0105538,0.0130881,-0.00660976,0.025,-0.0023459,-0.252064,-9.91153,0.277163,21.1939,-0.809004,-0.585729,0.0322363,0.113853,-1.01416,0.60629,2.52569,-0.193347,-0.585779,0.027138
3242921,1,-1.57091,-0.522878,-0.00049103,-2.09594,-1.57076,1.57154,0.785229,-1.57087,-0.523559,-4.46933e-05,-2.09434,-1.57082,1.5709,0.785387,0.00070866,-0.000227961,-0.00719141,0.00485415,0.00214545,-0.000547091,-0.000603604,-0.0217613,0.01125,-0.0126646,0.0157057,-0.00793171,0.03,-0.00281508,-0.755909,-9.733,-0.103696,21.2455,-0.837385,-0.572911,0.071604,0.12085,-1.01247,0.617381,2.52305,-0.193075,-0.584689,0.0271731
3242922,1,-1.57092,-0.522871,-0.000498623,-2.09593,-1.57076,1.57154,0.78523,-1.5709,-0.523546,-5.94686e-05,-2.09432,-1.57083,1.57094,0.785384,-0.000812492,1.88263e-05,-0.00375401,0.00103353,0.00227801,-0.000364727,-0.000877121,-0.0253882,0.013125,-0.0147753,0.0183233,-0.00925366,0.035,-0.00328426,-1.16057,-9.58224,-0.635312,21.3684,-0.860274,-0.572911,0.0844213,0.128878,-1.00611,0.630562,2.51739,-0.192733,-0.583246,0.0271032
3242923,1,-1.57093,-0.522856,-0.00051353,-2.09593,-1.57076,1.57154,0.78523,-1.57093,-0.523531,-7.63547e-05,-2.0943,-1.57084,1.57098,0.78538,-0.00375765,0.00651723,-0.00668515,0.00313535,0.00131522,-0.00048051,-0.000584747,-0.029015,0.015,-0.0168861,0.020941,-0.0105756,0.04,-0.00375344,-1.51366,-9.55844,-1.09155,21.416,-0.85478,-0.566503,0.0844213,0.136353,-1.00294,0.64358,2.51423,-0.192611,-0.581635,0.0269882
3242924,1,-1.57093,-0.522846,-0.000536351,-2.09592,-1.57076,1.57155,0.785227,-1.57096,-0.523514,-9.53516e-05,-2.09428,-1.57086,1.57102,0.785376,-0.00339201,0.00676824,-0.00841229,0.00580132,0.000639457,-0.000557699,-0.000389832,-0.0326419,0.016875,-0.0189969,0.0235586,-0.0118976,0.045,-0.00422262,-1.9699,-9.48306,-1.44464,21.416,-0.848372,-0.560094,0.0844213,0.143411,-1.0099,0.657018,2.51647,-0.192813,-0.579766,0.0268955
3242925,1,-1.57094,-0.522837,-0.000562097,-2.09591,-1.57076,1.57156,0.785231,-1.571,-0.523495,-0.000116459,-2.09425,-1.57087,1.57107,0.785371,-0.00581747,0.00633038,-0.0150935,0.00590122,0.000426305,0.000814995,0.00116427,-0.0362688,0.01875,-0.0211076,0.0261762,-0.0132195,0.05,-0.0046918,-2.32299,-9.37991,-1.69854,21.4914,-0.848372,-0.592137,0.0459692,0.151471,-1.02337,0.673644,2.52172,-0.193166,-0.577225,0.026842
3242926,1,-1.57095,-0.522822,-0.000574247,-2.0959,-1.57076,1.57156,0.785225,-1.57104,-0.523473,-0.000141473,-2.09422,-1.57089,1.57113,0.785366,-0.00805071,0.00667551,-0.00946368,0.00544162,-0.00397196,0.00547212,-0.00112269,-0.0429278,0.0225,-0.0250136,0.0308256,-0.0153429,0.06,-0.00536125,-2.6483,-9.30453,-2.12701,21.5906,-0.860274,-0.598546,0.0972387,0.159898,-1.03726,0.692832,2.52797,-0.193552,-0.573932,0.0268144
3242927,1,-1.57097,-0.522813,-0.000596068,-2.09589,-1.57076,1.57157,0.785227,-1.57109,-0.523447,-0.000170392,-2.09418,-1.5709,1.5712,0.78536,-0.00935514,0.00877796,-0.0127359,0.0101158,-0.00242904,0.00731001,-3.6386e-05,-0.0495869,0.02625,-0.0289195,0.0354751,-0.0174662,0.07,-0.00603071,-3.00139,-9.17758,-2.38092,21.6144,-0.876753,-0.560094,0.0780126,0.164822,-1.04953,0.708812,2.53441,-0.193992,-0.57043,0.0267976
3242928,1,-1.57099,-0.522807,-0.000617029,-2.09588,-1.57076,1.57157,0.785227,-1.57114,-0.523417,-0.000203218,-2.09414,-1.57092,1.57128,0.785353,-0.0130292,0.00619067,-0.0149576,0.0118216,-1.40493e-05,0.00243824,0.000213102,-0.056246,0.03,-0.0328254,0.0401246,-0.0195896,0.08,-0.00670017,-3.2315,-9.00302,-2.63482,21.7176,-0.928023,-0.475866,0.071604,0.165366,-1.05653,0.720413,2.53846,-0.194412,-0.566716,0.0267857
3242929,1,-1.57102,-0.522798,-0.000633698,-2.09587,-1.57076,1.57158,0.78523,-1.57121,-0.523383,-0.000239949,-2.0941,-1.57094,1.57137,0.785345,-0.0208284,0.00944834,-0.0154545,0.0157643,-0.00380455,0.00399308,0.0010915,-0.062905,0.03375,-0.0367314,0.044774,-0.0217129,0.09,-0.00736962,-3.38225,-8.77292,-3.06726,21.8405,-0.961897,-0.398961,0.0459692,0.164389,-1.05442,0.731683,2.53789,-0.1947,-0.56213,0.0267756
3242930,1,-1.57105,-0.522787,-0.000661452,-2.09585,-1.57076,1.57158,0.785233,-1.57128,-0.523345,-0.000280586,-2.09405,-1.57097,1.57147,0.785337,-0.0243775,0.00666331,-0.0230769,0.016711,-0.00120509,0.00512809,0.00171101,-0.0695641,0.0375,-0.0406373,0.0494235,-0.0238363,0.1,-0.00803908,-3.73534,-8.44363,-3.47192,21.9397,-1.01317,-0.314733,0.0194189,0.165166,-1.04259,0.747107,2.53272,-0.194816,-0.556022,0.026749
3242931,1,-1.57107,-0.522766,-0.000699104,-2.09584,-1.57076,1.57159,0.78523,-1.57135,-0.523304,-0.00032513,-2.094,-1.57099,1.57158,0.785329,-0.0232537,0.0104472,-0.0281091,0.0141756,-0.00406852,0.00552764,-0.00930652,-0.0762231,0.04125,-0.0445433,0.0540729,-0.0259596,0.11,-0.00870853,-4.26299,-8.2175,-3.90039,22.1619,-1.06352,-0.218602,0.0459692,0.16951,-1.0238,0.769964,2.52616,-0.194881,-0.547957,0.0266737
3242932,1,-1.57112,-0.522732,-0.000739123,-2.09581,-1.57076,1.57161,0.785225,-1.57144,-0.523259,-0.000373579,-2.09394,-1.57102,1.5717,0.785319,-0.0269288,0.0143291,-0.0336714,0.0204522,-0.00216904,0.0115659,-0.00865451,-0.0828822,0.045,-0.0484492,0.0587224,-0.028083,0.12,-0.00937799,-4.61608,-8.03897,-4.38043,22.1897,-1.0974,-0.147191,0.09083,0.17603,-1.00561,0.799304,2.52306,-0.195159,-0.538009,0.0265316
3242933,1,-1.57117,-0.522695,-0.000779188,-2.09579,-1.57076,1.57164,0.785222,-1.57153,-0.52321,-0.000425934,-2.09387,-1.57105,1.57183,0.785309,-0.0364538,0.0172576,-0.0346967,0.0218767,-0.00133525,0.0175027,-0.00636117,-0.0895412,0.04875,-0.0523552,0.0633719,-0.0302063,0.13,-0.0100474,-4.94536,-7.86441,-4.88824,22.3365,-1.11479,-0.115148,0.09083,0.183398,-0.99309,0.833093,2.52483,-0.19581,-0.526295,0.0263359
3242934,1,-1.57122,-0.522649,-0.000825668,-2.09575,-1.57076,1.57167,0.785222,-1.57162,-0.523158,-0.000482195,-2.09381,-1.57108,1.57197,0.785299,-0.0457115,0.0242228,-0.0367814,0.0307331,-0.00518644,0.0258882,-0.00420968,-0.0962003,0.0525,-0.0562611,0.0680213,-0.0323297,0.14,-0.0107169,-5.32225,-7.76126,-5.34448,22.2889,-1.13676,-0.0702869,0.0780126,0.1915,-0.987669,0.869818,2.53047,-0.196863,-0.512806,0.0261377
3242935,1,-1.57129,-0.522604,-0.000873927,-2.0957,-1.57076,1.57172,0.785218,-1.57172,-0.523102,-0.000542362,-2.09373,-1.57112,1.57212,0.785287,-0.0518702,0.0318956,-0.0409084,0.0356165,-0.00265824,0.0387696,-0.00432596,-0.102859,0.05625,-0.060167,0.0726708,-0.0344531,0.15,-0.0113864,-5.59996,-7.63828,-5.69757,22.3127,-1.17705,-0.0702869,0.110056,0.199648,-0.993333,0.907617,2.53972,-0.19832,-0.497735,0.0259862
3242936,1,-1.57137,-0.522564,-0.000911639,-2.09567,-1.57076,1.57179,0.78521,-1.57184,-0.52304,-0.000608067,-2.09365,-1.57116,1.57229,0.785275,-0.0593373,0.035889,-0.0368944,0.0319773,-0.00103698,0.049859,-0.00951115,-0.112158,0.061875,-0.0657047,0.0789231,-0.0370526,0.164712,-0.0120393,-5.75072,-7.43594,-6.20538,22.511,-1.21092,-0.115148,0.155832,0.204461,-1.01576,0.941355,2.55591,-0.200407,-0.481713,0.0259214
3242937,1,-1.57145,-0.522518,-0.000959392,-2.09563,-1.57076,1.57186,0.785206,-1.57196,-0.522972,-0.000679309,-2.09357,-1.5712,1.57247,0.785262,-0.0631877,0.0394639,-0.0420769,0.0341192,0.000580616,0.0631008,-0.00786754,-0.121456,0.0675,-0.0712423,0.0851754,-0.0396522,0.179425,-0.0126923,-5.95305,-7.25742,-6.51086,22.634,-1.25578,-0.166417,0.181467,0.201449,-1.0563,0.964212,2.58336,-0.203464,-0.465521,0.0260087
3242938,1,-1.57153,-0.522485,-0.00100558,-2.09558,-1.57077,1.57195,0.7852,-1.57209,-0.522899,-0.000756089,-2.09348,-1.57124,1.57266,0.785249,-0.0709086,0.0375541,-0.0431247,0.0374499,-0.00269213,0.0706136,-0.0063901,-0.130755,0.073125,-0.0767799,0.0914277,-0.0422517,0.194137,-0.0133453,-6.10381,-6.87656,-6.78857,22.8363,-1.30705,-0.166417,0.200693,0.189897,-1.10508,0.974813,2.6191,-0.207437,-0.449336,0.0263091
3242939,1,-1.57163,-0.522443,-0.00105002,-2.09553,-1.57077,1.57204,0.785191,-1.57223,-0.52282,-0.000838407,-2.09338,-1.57128,1.57287,0.785235,-0.081583,0.0414289,-0.047536,0.0428819,-0.00481417,0.0792701,-0.00628024,-0.140053,0.07875,-0.0823175,0.09768,-0.0448513,0.208849,-0.0139983,-6.15538,-6.57504,-7.16546,22.9077,-1.36931,-0.115148,0.24647,0.172968,-1.14779,0.976945,2.65571,-0.21199,-0.432754,0.0268698
3242940,1,-1.57174,-0.522392,-0.00110871,-2.09548,-1.57078,1.57215,0.785193,-1.57238,-0.522736,-0.000926262,-2.09328,-1.57133,1.57309,0.78522,-0.0909897,0.0462782,-0.0540035,0.0470844,-0.00219467,0.0847011,-0.00320969,-0.149352,0.084375,-0.0878552,0.103932,-0.0474508,0.223562,-0.0146513,-6.28234,-6.22195,-7.54632,23.0069,-1.41966,-0.0318348,0.213511,0.15594,-1.18024,0.977501,2.69016,-0.216931,-0.41513,0.0277548
3242941,1,-1.57185,-0.52233,-0.00117909,-2.09541,-1.57078,1.57227,0.785185,-1.57254,-0.522646,-0.00101965,-2.09317,-1.57138,1.57333,0.785205,-0.0968781,0.0512959,-0.0615462,0.0535484,-0.00441162,0.0992073,-0.00724861,-0.15865,0.09,-0.0933928,0.110185,-0.0500504,0.238274,-0.0153043,-6.58385,-5.91647,-7.95099,23.0585,-1.48741,0.0203503,0.226328,0.143004,-1.20571,0.982576,2.72311,-0.222236,-0.395991,0.0290145
3242942,1,-1.57196,-0.522255,-0.00125819,-2.09534,-1.57079,1.57242,0.785177,-1.57271,-0.52255,-0.00111859,-2.09305,-1.57143,1.57358,0.785189,-0.102822,0.0569589,-0.0673482,0.0595325,-0.00297328,0.1186,-0.00727315,-0.167949,0.095625,-0.0989304,0.116437,-0.0526499,0.252986,-0.0159573,-6.96471,-5.69034,-8.35565,23.0585,-1.5103,-0.0126087,0.278513,0.134079,-1.22682,0.992495,2.75487,-0.227945,-0.375503,0.0306386
3242943,1,-1.5721,-0.522171,-0.00133232,-2.09525,-1.57081,1.5726,0.785164,-1.57288,-0.522449,-0.00122305,-2.09293,-1.57149,1.57385,0.785173,-0.114528,0.065357,-0.0673799,0.0699737,-0.00678397,0.135325,-0.00716251,-0.177247,0.10125,-0.104468,0.122689,-0.0552495,0.267699,-0.0166103,-7.16307,-5.51181,-8.81189,22.9355,-1.52769,-0.115148,0.330698,0.126082,-1.24617,1.00266,2.78509,-0.234139,-0.354312,0.0326074
3242944,1,-1.57225,-0.522081,-0.00141192,-2.09517,-1.57083,1.57279,0.785157,-1.57307,-0.522342,-0.00133306,-2.0928,-1.57155,1.57413,0.785155,-0.128212,0.0721011,-0.0709264,0.0741799,-0.00971021,0.150608,-0.0103654,-0.186546,0.106875,-0.110006,0.128942,-0.057849,0.282411,-0.0172632,-7.3416,-5.36105,-9.24432,22.9593,-1.53868,-0.172826,0.343516,0.117146,-1.26722,1.00932,2.81415,-0.240884,-0.332915,0.034969
3242945,1,-1.5724,-0.521991,-0.00150198,-2.09509,-1.57086,1.573,0.785152,-1.57326,-0.52223,-0.0014486,-2.09266,-1.57161,1.57443,0.785137,-0.138268,0.0750318,-0.0769552,0.0797464,-0.0117038,0.167006,-0.00996725,-0.195844,0.1125,-0.115543,0.135194,-0.0604486,0.297123,-0.0179162,-7.61931,-5.13492,-9.54583,22.9831,-1.55607,-0.237828,0.284922,0.108558,-1.29007,1.01351,2.84296,-0.248161,-0.311314,0.0377983
3242946,1,-1.57257,-0.521899,-0.00158327,-2.09499,-1.57089,1.57323,0.785148,-1.57347,-0.52211,-0.00157065,-2.09252,-1.57167,1.57474,0.785119,-0.14749,0.0829343,-0.0781969,0.0860788,-0.0169471,0.189545,-0.00906533,-0.206832,0.11999,-0.122052,0.14253,-0.0633133,0.314164,-0.0185597,-7.69469,-4.90482,-9.97827,22.9593,-1.59544,-0.333959,0.200693,0.100123,-1.31211,1.01498,2.87155,-0.255918,-0.28976,0.0410954
3242947,1,-1.57274,-0.52181,-0.00166833,-2.09489,-1.57092,1.57349,0.785137,-1.57369,-0.521982,-0.00169921,-2.09237,-1.57174,1.57508,0.7851,-0.153709,0.082144,-0.0803929,0.0914768,-0.0223814,0.210107,-0.0106386,-0.217819,0.12748,-0.12856,0.149865,-0.0661779,0.331205,-0.0192033,-7.92083,-4.62711,-10.3591,23.0069,-1.59544,-0.40537,0.16865,0.087486,-1.32917,1.00763,2.89838,-0.264131,-0.269178,0.0447286
3242948,1,-1.57292,-0.521717,-0.00175705,-2.09479,-1.57095,1.57375,0.785122,-1.57392,-0.521847,-0.00183428,-2.09221,-1.5718,1.57542,0.78508,-0.163084,0.0849057,-0.0800966,0.0911163,-0.0201553,0.220524,-0.0133518,-0.228806,0.13497,-0.135069,0.157201,-0.0690426,0.348246,-0.0198468,-8.09935,-4.3494,-10.6884,23.1815,-1.63481,-0.340367,0.181467,0.0663118,-1.33442,0.984961,2.92216,-0.272858,-0.250353,0.0484806
3242949,1,-1.57312,-0.521616,-0.00185051,-2.09468,-1.57098,1.57403,0.785105,-1.57416,-0.521705,-0.00197586,-2.09205,-1.57188,1.57579,0.785059,-0.172959,0.0900549,-0.085167,0.0958733,-0.0237192,0.240963,-0.0155586,-0.239793,0.14246,-0.141578,0.164536,-0.0719072,0.365287,-0.0204903,-8.27391,-4.07169,-11.0415,23.2331,-1.66319,-0.225011,0.200693,0.0361384,-1.32736,0.946053,2.94531,-0.282229,-0.233395,0.0521742
3242950,1,-1.57332,-0.521503,-0.00194294,-2.09456,-1.57102,1.57433,0.785093,-1.57441,-0.521555,-0.00212395,-2.09188,-1.57195,1.57617,0.785038,-0.1856,0.0965045,-0.0899714,0.106572,-0.0259961,0.25858,-0.0157101,-0.250781,0.14995,-0.148086,0.171872,-0.0747719,0.382327,-0.0211338,-8.40087,-3.77017,-11.47,23.1577,-1.70256,-0.147191,0.181467,0.000577279,-1.31202,0.89628,2.96894,-0.292149,-0.217781,0.0557184
3242951,1,-1.57354,-0.521376,-0.00204653,-2.09443,-1.57106,1.57466,0.785072,-1.57467,-0.521398,-0.00227854,-2.0917,-1.57203,1.57657,0.785016,-0.193188,0.108442,-0.0954553,0.116604,-0.0331617,0.280264,-0.0140377,-0.261768,0.15744,-0.154595,0.179207,-0.0776366,0.399368,-0.0217773,-8.67858,-3.49246,-11.8508,23.0823,-1.72545,-0.186559,0.240061,-0.0367863,-1.29331,0.841255,2.99148,-0.302377,-0.202906,0.0590751
3242952,1,-1.57375,-0.521242,-0.00216228,-2.09428,-1.5711,1.57502,0.785059,-1.57494,-0.521233,-0.00243964,-2.09151,-1.57211,1.57699,0.784994,-0.199015,0.117385,-0.0981235,0.122202,-0.0330989,0.313476,-0.0136319,-0.272755,0.16493,-0.161103,0.186543,-0.0805012,0.416409,-0.0224208,-9.08324,-3.21475,-12.1563,22.9355,-1.76481,-0.353185,0.200693,-0.077319,-1.28092,0.779851,3.01501,-0.312959,-0.188975,0.0622558
3242953,1,-1.574,-0.521091,-0.00226593,-2.09413,-1.57115,1.57541,0.785034,-1.57523,-0.52106,-0.00260726,-2.09132,-1.57219,1.57742,0.784971,-0.21153,0.129937,-0.102308,0.131345,-0.0395081,0.33463,-0.0112121,-0.283743,0.17242,-0.167612,0.193879,-0.0833659,0.43345,-0.0230643,-9.18242,-3.06003,-12.6363,22.7094,-1.75383,-0.5015,0.226328,-0.123889,-1.28373,0.708669,3.04347,-0.324088,-0.176554,0.0653066
3242954,1,-1.57425,-0.520934,-0.0023892,-2.09398,-1.5712,1.5758,0.785012,-1.57552,-0.52088,-0.00278138,-2.09111,-1.57228,1.57787,0.784947,-0.221667,0.135558,-0.111566,0.138484,-0.0424578,0.354053,-0.0135484,-0.29473,0.17991,-0.17412,0.201214,-0.0862306,0.450491,-0.0237079,-9.40856,-2.88547,-12.9894,22.5864,-1.7877,-0.520726,0.240061,-0.173945,-1.30251,0.631654,3.07723,-0.335716,-0.165363,0.0682632
3242955,1,-1.57449,-0.520775,-0.00252512,-2.0938,-1.57125,1.5762,0.784988,-1.57583,-0.520693,-0.00296201,-2.09091,-1.57237,1.57834,0.784923,-0.232414,0.143674,-0.117798,0.14819,-0.0457688,0.368535,-0.0151249,-0.305717,0.1874,-0.180629,0.20855,-0.0890952,0.467531,-0.0243514,-9.73784,-2.60776,-13.2433,22.4118,-1.79869,-0.495092,0.252878,-0.222322,-1.32944,0.556308,3.11252,-0.347579,-0.154603,0.0711501
3242956,1,-1.57476,-0.520605,-0.0026496,-2.09364,-1.57131,1.57664,0.784962,-1.57615,-0.520498,-0.00314956,-2.09069,-1.57246,1.57882,0.784898,-0.239851,0.15403,-0.119884,0.156343,-0.0488534,0.390701,-0.0159846,-0.317577,0.19489,-0.187559,0.216559,-0.0920749,0.485497,-0.0249921,-9.99175,-2.37766,-13.5964,22.388,-1.7932,-0.533544,0.252878,-0.268931,-1.35899,0.482727,3.14643,-0.359593,-0.144213,0.074006
3242957,1,-1.57503,-0.52044,-0.00277702,-2.09346,-1.57137,1.5771,0.784935,-1.57647,-0.520296,-0.00334405,-2.09047,-1.57256,1.57933,0.784872,-0.246248,0.157081,-0.120602,0.15939,-0.0508538,0.410802,-0.0171466,-0.329438,0.20238,-0.194489,0.224568,-0.0950546,0.503463,-0.0256329,-10.1663,-2.07614,-13.9773,22.4356,-1.7932,-0.539952,0.265696,-0.319691,-1.38921,0.402404,3.17897,-0.371924,-0.135028,0.0768686
3242958,1,-1.57532,-0.520269,-0.00291647,-2.09327,-1.57144,1.57757,0.784914,-1.57682,-0.520086,-0.00354547,-2.09023,-1.57265,1.57985,0.784846,-0.257493,0.161727,-0.125654,0.170876,-0.0514846,0.429038,-0.0156963,-0.341298,0.20987,-0.201419,0.232576,-0.0980343,0.521429,-0.0262736,-10.3448,-1.74686,-14.1796,22.388,-1.81608,-0.495092,0.213511,-0.378666,-1.4115,0.309315,3.20779,-0.384588,-0.127492,0.079743
3242959,1,-1.57561,-0.52009,-0.00305685,-2.09307,-1.5715,1.57806,0.784888,-1.57717,-0.519868,-0.00375382,-2.08999,-1.57275,1.58039,0.784819,-0.266307,0.165468,-0.13367,0.17761,-0.0565088,0.440783,-0.0198398,-0.353158,0.21736,-0.208348,0.240585,-0.101014,0.539395,-0.0269144,-10.5432,-1.54453,-14.4573,22.4118,-1.84447,-0.431005,0.187876,-0.44293,-1.41489,0.207556,3.22787,-0.397281,-0.120887,0.0826
3242960,1,-1.57592,-0.519903,-0.00320059,-2.09286,-1.57158,1.57857,0.784859,-1.57753,-0.519644,-0.0039691,-2.08974,-1.57286,1.58095,0.784791,-0.278873,0.173075,-0.137338,0.189232,-0.0567544,0.460484,-0.0235191,-0.365018,0.22485,-0.215278,0.248594,-0.103994,0.55736,-0.0275552,-10.571,-1.41757,-14.8382,22.4634,-1.84447,-0.482274,0.162241,-0.507978,-1.39561,0.103759,3.23688,-0.409754,-0.114273,0.0853809
3242961,1,-1.57623,-0.519701,-0.00336356,-2.09264,-1.57165,1.57912,0.784834,-1.57791,-0.519411,-0.00419131,-2.08949,-1.57297,1.58152,0.784763,-0.288934,0.181342,-0.146141,0.198504,-0.0612222,0.488565,-0.0254585,-0.376878,0.23234,-0.222208,0.256603,-0.106973,0.575326,-0.0281959,-10.8209,-1.41757,-14.9651,22.4634,-1.84996,-0.636998,0.116465,-0.571682,-1.3578,0.00108978,3.23595,-0.42193,-0.107311,0.0880056
3242962,1,-1.57656,-0.519489,-0.00353171,-2.0924,-1.57173,1.5797,0.784803,-1.5783,-0.519171,-0.00442044,-2.08922,-1.57308,1.58211,0.784734,-0.301424,0.193969,-0.151318,0.208136,-0.0690662,0.511588,-0.0295244,-0.388738,0.23983,-0.229138,0.264612,-0.109953,0.593292,-0.0288367,-11.0232,-1.56833,-15.1159,22.4634,-1.86094,-0.759679,0.135691,-0.632897,-1.31206,-0.098502,3.22929,-0.433821,-0.10012,0.0904004
3242963,1,-1.57691,-0.519277,-0.00369426,-2.09217,-1.57182,1.58027,0.784771,-1.5787,-0.518924,-0.00465651,-2.08895,-1.57319,1.58273,0.784705,-0.315727,0.201897,-0.157407,0.213741,-0.0705152,0.528645,-0.0323981,-0.400598,0.24732,-0.236068,0.272621,-0.112933,0.611258,-0.0294774,-11.1502,-1.56833,-15.3182,22.5626,-1.86644,-0.746862,0.162241,-0.690556,-1.26998,-0.193286,3.22301,-0.445546,-0.0928979,0.0925224
3242964,1,-1.57727,-0.519059,-0.00386338,-2.09191,-1.57191,1.58087,0.78474,-1.57911,-0.518669,-0.00489951,-2.08867,-1.5733,1.58336,0.784675,-0.327605,0.212723,-0.163076,0.23087,-0.0709507,0.550272,-0.0297241,-0.412459,0.25481,-0.242998,0.28063,-0.115912,0.629224,-0.0301182,-11.2018,-1.54453,-15.5999,22.4872,-1.88933,-0.720311,0.187876,-0.743953,-1.2349,-0.282317,3.21856,-0.457154,-0.0857287,0.094357
3242965,1,-1.57762,-0.518827,-0.00404952,-2.09165,-1.572,1.58148,0.784709,-1.57954,-0.518407,-0.00514944,-2.08838,-1.57342,1.584,0.784644,-0.33831,0.217701,-0.167817,0.237417,-0.0763041,0.572811,-0.0311296,-0.424319,0.2623,-0.249928,0.288638,-0.118892,0.64719,-0.0307589,-11.4517,-1.5961,-15.7269,22.5626,-1.90581,-0.72672,0.175059,-0.794387,-1.20206,-0.367501,3.21236,-0.468564,-0.0788432,0.0959222
3242966,1,-1.57799,-0.518591,-0.00423818,-2.09138,-1.57209,1.58214,0.784676,-1.57997,-0.518137,-0.00540625,-2.08808,-1.57355,1.58467,0.784613,-0.346517,0.223005,-0.173997,0.250967,-0.0805327,0.599693,-0.0339376,-0.43633,0.26979,-0.256813,0.297,-0.12186,0.665307,-0.031405,-11.7056,-1.5961,-15.8776,22.5626,-1.91221,-0.875035,0.207102,-0.844986,-1.16331,-0.453188,3.20069,-0.479705,-0.0726394,0.0972612
3242967,1,-1.57839,-0.518352,-0.00443037,-2.0911,-1.57218,1.58281,0.784644,-1.58042,-0.51786,-0.00566995,-2.08778,-1.57367,1.58535,0.784581,-0.366855,0.227062,-0.178041,0.260621,-0.0845606,0.611664,-0.0300902,-0.448341,0.27728,-0.263698,0.305361,-0.124828,0.683424,-0.0320511,-11.6818,-1.5961,-16.0284,22.5626,-1.90031,-0.952855,0.207102,-0.896107,-1.10981,-0.540029,3.17996,-0.490462,-0.0670338,0.0984188
3242968,1,-1.5788,-0.518098,-0.00462921,-2.09082,-1.57228,1.58346,0.784614,-1.58088,-0.517575,-0.00594053,-2.08746,-1.5738,1.58605,0.784548,-0.379868,0.236578,-0.19074,0.26971,-0.0864049,0.6248,-0.0304092,-0.460351,0.28477,-0.270583,0.313722,-0.127796,0.701541,-0.0326972,-11.6818,-1.6199,-16.1315,22.6102,-1.91771,-0.836583,0.175059,-0.942449,-1.04031,-0.620661,3.15041,-0.500748,-0.0611496,0.0994676
3242969,1,-1.57922,-0.51783,-0.00484156,-2.09052,-1.57238,1.58415,0.78458,-1.58135,-0.517283,-0.006218,-2.08714,-1.57393,1.58677,0.784515,-0.393395,0.248258,-0.196502,0.277719,-0.087451,0.636355,-0.0321546,-0.472362,0.29226,-0.277469,0.322083,-0.130764,0.719658,-0.0333433,-11.6302,-1.82224,-16.1791,22.634,-1.94609,-0.713903,0.181467,-0.979339,-0.966239,-0.68778,3.11884,-0.510712,-0.0543072,0.100489
3242970,1,-1.57963,-0.517556,-0.0050626,-2.09021,-1.57248,1.58485,0.784557,-1.58184,-0.516983,-0.00650236,-2.08681,-1.57406,1.58751,0.784481,-0.399954,0.25721,-0.201652,0.284483,-0.089494,0.673192,-0.0299732,-0.484373,0.29975,-0.284354,0.330444,-0.133732,0.737775,-0.0339894,-11.7294,-2.05234,-16.1791,22.6102,-1.94609,-0.75327,0.0844213,-1.01036,-0.901448,-0.745745,3.09296,-0.520716,-0.0471262,0.10151
3242971,1,-1.58007,-0.517269,-0.00528347,-2.08991,-1.57259,1.5856,0.784513,-1.58234,-0.516676,-0.00679359,-2.08647,-1.5742,1.58827,0.784446,-0.413242,0.265482,-0.207905,0.290967,-0.0944776,0.694221,-0.0353906,-0.496384,0.30724,-0.291239,0.338805,-0.1367,0.755892,-0.0346355,-11.781,-2.25467,-16.2069,22.6618,-1.96806,-0.90067,0.175059,-1.04237,-0.851899,-0.80403,3.0767,-0.531046,-0.0407033,0.102485
3242972,1,-1.58052,-0.516982,-0.00552392,-2.08958,-1.5727,1.58635,0.784486,-1.58284,-0.516361,-0.00709172,-2.08613,-1.57434,1.58904,0.784411,-0.425004,0.274063,-0.215837,0.300253,-0.0983104,0.708681,-0.0337107,-0.508395,0.31473,-0.298124,0.347166,-0.139669,0.774009,-0.0352816,-11.7294,-2.40543,-16.2069,22.6618,-1.97996,-0.92722,0.116465,-1.07649,-0.816741,-0.864245,3.06988,-0.541707,-0.0351453,0.103351
3242973,1,-1.58097,-0.516678,-0.00576329,-2.08924,-1.57282,1.58709,0.784452,-1.58336,-0.516039,-0.00739673,-2.08577,-1.57448,1.58983,0.784375,-0.435028,0.285698,-0.226058,0.311665,-0.101534,0.719009,-0.0340376,-0.520406,0.32222,-0.30501,0.355528,-0.142637,0.792126,-0.0359277,-11.7572,-2.63156,-16.3061,22.6102,-1.99644,-0.778905,0.0972387,-1.10979,-0.794278,-0.922028,3.07022,-0.552573,-0.0299012,0.104094
3242974,1,-1.58145,-0.51637,-0.0060101,-2.0889,-1.57294,1.58786,0.784421,-1.5839,-0.515709,-0.00770862,-2.08541,-1.57463,1.59064,0.784338,-0.449062,0.29119,-0.231622,0.322436,-0.104973,0.735036,-0.033813,-0.532417,0.32971,-0.311895,0.363889,-0.145605,0.810243,-0.0365738,-11.7294,-2.73471,-16.3577,22.5864,-1.98546,-0.733129,0.0587866,-1.14009,-0.781038,-0.974295,3.07385,-0.563496,-0.0245228,0.104684
3242975,1,-1.58192,-0.516055,-0.00627466,-2.08855,-1.57307,1.58868,0.784382,-1.58444,-0.515372,-0.0080274,-2.08503,-1.57478,1.59147,0.784301,-0.450876,0.30054,-0.242657,0.331457,-0.11272,0.757245,-0.0369206,-0.544428,0.3372,-0.31878,0.37225,-0.148573,0.82836,-0.0372199,-11.9318,-2.90927,-16.3577,22.634,-1.96257,-0.80454,0.110056,-1.16846,-0.771161,-1.02266,3.07695,-0.574361,-0.0189998,0.105046
3242976,1,-1.58241,-0.515737,-0.00654015,-2.08821,-1.57321,1.58951,0.784334,-1.585,-0.515027,-0.00835282,-2.08465,-1.57493,1.59232,0.784263,-0.467195,0.302472,-0.251105,0.32941,-0.1182,0.781825,-0.0414392,-0.556159,0.34469,-0.325418,0.380743,-0.151394,0.846056,-0.0378556,-12.0587,-2.90927,-16.3815,22.7332,-1.9406,-0.984899,0.233652,-1.19659,-0.762192,-1.06904,3.08064,-0.585172,-0.0135057,0.105148
3242977,1,-1.58291,-0.515408,-0.00680519,-2.08785,-1.57335,1.59034,0.784307,-1.58556,-0.514675,-0.00868488,-2.08426,-1.57508,1.59318,0.784225,-0.477499,0.312321,-0.255366,0.343175,-0.124987,0.793289,-0.0374348,-0.56789,0.35218,-0.332056,0.389236,-0.154216,0.863753,-0.0384913,-12.1579,-2.96085,-16.4846,22.8086,-1.97996,-0.913488,0.175059,-1.22407,-0.752984,-1.11311,3.08723,-0.595928,-0.0080315,0.105083
3242978,1,-1.58343,-0.51506,-0.0070773,-2.08747,-1.57348,1.59117,0.784274,-1.58614,-0.514315,-0.00902357,-2.08387,-1.57524,1.59406,0.784185,-0.492664,0.321786,-0.26329,0.351641,-0.13007,0.804988,-0.0362512,-0.579621,0.35967,-0.338694,0.397729,-0.157037,0.88145,-0.039127,-12.0825,-3.0878,-16.6631,22.8086,-2.02482,-0.733129,0.143015,-1.25056,-0.743725,-1.15516,3.09525,-0.606549,-0.00259685,0.105009
3242979,1,-1.58395,-0.514692,-0.00736076,-2.08709,-1.57361,1.59205,0.784235,-1.58674,-0.513948,-0.0093689,-2.08346,-1.5754,1.59496,0.784146,-0.497707,0.33586,-0.268761,0.363948,-0.129981,0.821932,-0.0370041,-0.591352,0.36716,-0.345331,0.406222,-0.159859,0.899146,-0.0397627,-12.3602,-3.38931,-16.7385,22.8363,-2.04222,-0.766088,0.155832,-1.2772,-0.74063,-1.19681,3.10474,-0.617103,0.00264224,0.105008
3242980,1,-1.58447,-0.514332,-0.00765497,-2.0867,-1.57375,1.59298,0.784194,-1.58734,-0.513574,-0.00972087,-2.08305,-1.57556,1.59588,0.784105,-0.503845,0.340503,-0.277677,0.370387,-0.135149,0.855255,-0.0382275,-0.603083,0.37465,-0.351969,0.414716,-0.16268,0.916843,-0.0403983,-12.6141,-3.59164,-16.7108,22.8839,-2.04771,-0.952855,0.181467,-1.30827,-0.748166,-1.24336,3.11688,-0.627783,0.00710583,0.105059
3242981,1,-1.58502,-0.513955,-0.0079471,-2.08631,-1.57389,1.5939,0.784153,-1.58795,-0.513191,-0.0100795,-2.08262,-1.57573,1.59681,0.784064,-0.515742,0.351841,-0.282459,0.378084,-0.137733,0.874523,-0.0386639,-0.614813,0.38214,-0.358607,0.423209,-0.165502,0.93454,-0.041034,-12.6895,-3.7424,-16.7901,23.0585,-2.09257,-1.10026,0.207102,-1.34712,-0.765073,-1.29886,3.13193,-0.638693,0.0102385,0.105149
3242982,1,-1.5856,-0.513583,-0.00824706,-2.08591,-1.57404,1.59484,0.784119,-1.58858,-0.512802,-0.0104447,-2.08219,-1.57589,1.59776,0.784023,-0.537814,0.365157,-0.28734,0.388164,-0.144779,0.887865,-0.0366346,-0.626544,0.38963,-0.365245,0.431702,-0.168323,0.952236,-0.0416697,-12.511,-3.77017,-16.8139,23.2331,-2.12645,-1.05539,0.162241,-1.39088,-0.794483,-1.35969,3.15201,-0.649877,0.0122703,0.10533
3242983,1,-1.58616,-0.51319,-0.00855,-2.08549,-1.57419,1.59577,0.784083,-1.58922,-0.512405,-0.0108166,-2.08175,-1.57607,1.59873,0.78398,-0.548761,0.378516,-0.291188,0.392062,-0.151568,0.898654,-0.0352335,-0.638275,0.39712,-0.371883,0.440195,-0.171145,0.969933,-0.0423054,-12.4872,-3.9725,-16.8139,23.3561,-2.12095,-0.991307,0.116465,-1.43477,-0.844861,-1.42015,3.18141,-0.661452,0.0136985,0.10568
3242984,1,-1.58674,-0.512793,-0.00886552,-2.08508,-1.57435,1.59674,0.784052,-1.58987,-0.512,-0.0111951,-2.0813,-1.57624,1.59972,0.783937,-0.552301,0.383182,-0.298545,0.390502,-0.15612,0.915975,-0.0342248,-0.650006,0.40461,-0.378521,0.448688,-0.173966,0.98763,-0.042941,-12.6895,-4.09946,-16.7623,23.5068,-2.12095,-0.907079,0.071604,-1.47977,-0.919617,-1.48156,3.22514,-0.673698,0.0143517,0.106187
3242985,1,-1.58734,-0.512389,-0.00918485,-2.08466,-1.57451,1.59774,0.784012,-1.59053,-0.511588,-0.0115803,-2.08084,-1.57642,1.60073,0.783894,-0.563851,0.394626,-0.301459,0.401103,-0.154359,0.938829,-0.0360687,-0.661737,0.4121,-0.385158,0.457181,-0.176788,1.00533,-0.0435767,-12.7649,-4.27402,-16.7901,23.606,-2.13835,-0.836583,0.09083,-1.53037,-1.01312,-1.54958,3.28358,-0.686776,0.0137102,0.106726
3242986,1,-1.58794,-0.511974,-0.00951696,-2.08421,-1.57466,1.59874,0.783964,-1.5912,-0.511168,-0.0119718,-2.08038,-1.5766,1.60175,0.78385,-0.581371,0.400213,-0.319346,0.417188,-0.153411,0.953995,-0.0396635,-0.67288,0.41959,-0.391471,0.465648,-0.179286,1.02224,-0.0441857,-12.7133,-4.3494,-16.7108,23.6298,-2.14384,-0.830175,0.175059,-1.58295,-1.11239,-1.61882,3.34768,-0.700257,0.0125861,0.107128
3242987,1,-1.58857,-0.511549,-0.00986435,-2.08378,-1.57482,1.59977,0.783919,-1.59189,-0.510741,-0.0123695,-2.0799,-1.57678,1.60279,0.783805,-0.595762,0.405997,-0.327989,0.422659,-0.151114,0.96608,-0.0410524,-0.684022,0.42708,-0.397783,0.474115,-0.181784,1.03915,-0.0447946,-12.5903,-4.45255,-16.56,23.6814,-2.1887,-0.80454,0.240061,-1.62635,-1.20189,-1.67347,3.40644,-0.713452,0.013061,0.107321
3242988,1,-1.58922,-0.511126,-0.0102099,-2.08333,-1.57498,1.60082,0.783881,-1.59258,-0.510307,-0.0127736,-2.07942,-1.57696,1.60385,0.783759,-0.599613,0.415725,-0.335254,0.429099,-0.15147,1.02088,-0.039742,-0.695165,0.43457,-0.404096,0.482581,-0.184282,1.05606,-0.0454036,-12.3126,-4.52792,-16.4846,23.606,-2.1887,-0.894261,0.233652,-1.65985,-1.2779,-1.7121,3.45874,-0.726273,0.0152992,0.107392
3242989,1,-1.58989,-0.510692,-0.0105757,-2.08287,-1.57514,1.6019,0.783844,-1.59329,-0.509865,-0.013184,-2.07893,-1.57715,1.60492,0.783713,-0.61771,0.423217,-0.344551,0.438372,-0.152508,1.0394,-0.0373611,-0.706307,0.44206,-0.410408,0.491048,-0.18678,1.07297,-0.0460126,-12.1103,-4.52792,-16.2585,23.479,-2.15483,-1.02976,0.194285,-1.69019,-1.34619,-1.7441,3.50825,-0.738968,0.0178919,0.107486
3242990,1,-1.59055,-0.510252,-0.0109551,-2.0824,-1.57531,1.60299,0.783811,-1.59401,-0.509415,-0.0136008,-2.07843,-1.57734,1.60601,0.783667,-0.632963,0.431056,-0.351585,0.442374,-0.158179,1.05161,-0.0343516,-0.71745,0.44955,-0.41672,0.499515,-0.189279,1.08988,-0.0466215,-12.1341,-4.55173,-16.0046,23.479,-2.12095,-1.05539,0.110056,-1.71597,-1.40909,-1.76865,3.55623,-0.751548,0.0208421,0.107705
3242991,1,-1.59122,-0.509798,-0.0113294,-2.08192,-1.57548,1.60408,0.783765,-1.59473,-0.508958,-0.0140238,-2.07792,-1.57753,1.60711,0.78362,-0.649489,0.437853,-0.361157,0.452663,-0.160588,1.0658,-0.037526,-0.728593,0.45704,-0.423033,0.507981,-0.191777,1.1068,-0.0472305,-12.0587,-4.6033,-15.8499,23.2807,-2.13286,-1.03617,0.16865,-1.73244,-1.46593,-1.7805,3.60268,-0.763897,0.0248369,0.108049
3242992,1,-1.59193,-0.509338,-0.0117095,-2.08143,-1.57566,1.60518,0.783724,-1.59547,-0.508494,-0.0144531,-2.07741,-1.57772,1.60824,0.783572,-0.665494,0.443939,-0.365401,0.467212,-0.167495,1.08026,-0.0371453,-0.739735,0.46453,-0.429345,0.516448,-0.194275,1.12371,-0.0478395,-11.7572,-4.70645,-15.8022,23.0585,-2.13286,-0.933629,0.155832,-1.73827,-1.51097,-1.77853,3.64275,-0.775752,0.0300478,0.108425
3242993,1,-1.59264,-0.508874,-0.0120987,-2.08093,-1.57583,1.6063,0.783679,-1.59623,-0.508022,-0.0148888,-2.07688,-1.57792,1.60938,0.783523,-0.680604,0.45335,-0.368346,0.478486,-0.171446,1.08593,-0.0429563,-0.750878,0.47202,-0.435658,0.524915,-0.196773,1.14062,-0.0484484,-11.5549,-4.75406,-15.7507,22.9077,-2.16673,-0.862218,0.181467,-1.73581,-1.53869,-1.7671,3.67023,-0.786923,0.0361841,0.108781
3242994,1,-1.59336,-0.508404,-0.0125062,-2.08042,-1.576,1.60741,0.783633,-1.59699,-0.507542,-0.0153308,-2.07635,-1.57812,1.61054,0.783474,-0.687287,0.45548,-0.380058,0.497556,-0.17665,1.09264,-0.0460574,-0.76202,0.47951,-0.44197,0.533381,-0.199271,1.15753,-0.0490574,-11.4795,-4.75406,-15.5999,22.7332,-2.14384,-0.810948,0.175059,-1.72825,-1.54448,-1.7511,3.67995,-0.797332,0.04303,0.109106
3242995,1,-1.5941,-0.50794,-0.0129328,-2.0799,-1.57618,1.60855,0.7836,-1.59776,-0.507055,-0.0157791,-2.07581,-1.57832,1.61171,0.783425,-0.699876,0.458737,-0.395012,0.505927,-0.175186,1.09879,-0.0443799,-0.773163,0.487,-0.448282,0.541848,-0.201769,1.17444,-0.0496664,-11.3763,-4.65488,-15.4452,22.5348,-2.13835,-0.80454,0.0780126,-1.71417,-1.51939,-1.72766,3.66641,-0.806796,0.0511855,0.109378
3242996,1,-1.59484,-0.507463,-0.0133557,-2.07936,-1.57637,1.60971,0.783558,-1.59854,-0.506561,-0.0162333,-2.07526,-1.57853,1.6129,0.783374,-0.713057,0.465535,-0.398159,0.515002,-0.176431,1.11415,-0.0459785,-0.783511,0.49449,-0.454216,0.550188,-0.203869,1.19032,-0.0502277,-11.2533,-4.5795,-15.3698,22.4634,-2.0706,-0.894261,0.0322363,-1.69154,-1.46386,-1.69323,3.63194,-0.815393,0.0611239,0.109555
3242997,1,-1.59561,-0.506977,-0.0137978,-2.07881,-1.57656,1.61089,0.783526,-1.59934,-0.506059,-0.0166934,-2.0747,-1.57873,1.61411,0.783324,-0.731222,0.468923,-0.411789,0.524719,-0.180089,1.12656,-0.0446398,-0.79386,0.50198,-0.46015,0.558529,-0.205969,1.2062,-0.0507891,-11.1502,-4.45255,-15.0921,22.3127,-2.03673,-0.97849,-0.077627,-1.66031,-1.38662,-1.64813,3.58355,-0.823339,0.0726894,0.10954
3242998,1,-1.5964,-0.506486,-0.0142343,-2.07826,-1.57675,1.6121,0.783488,-1.60014,-0.505549,-0.0171595,-2.07413,-1.57894,1.61533,0.783272,-0.750727,0.474808,-0.414741,0.53317,-0.181869,1.14454,-0.0426303,-0.804208,0.50947,-0.466084,0.566869,-0.208068,1.22209,-0.0513505,-10.9756,-4.45255,-15.0683,22.2135,-2.04222,-1.06821,-0.103262,-1.61882,-1.2929,-1.59071,3.52532,-0.830622,0.0857964,0.109166
3242999,1,-1.59719,-0.505987,-0.0146746,-2.07768,-1.57695,1.6133,0.783449,-1.60096,-0.505032,-0.0176315,-2.07356,-1.57915,1.61657,0.78322,-0.76916,0.478116,-0.42903,0.544003,-0.181847,1.16003,-0.0418452,-0.814557,0.51696,-0.472018,0.575209,-0.210168,1.23797,-0.0519118,-10.8209,-4.45255,-14.9889,22.0627,-2.08708,-1.22294,-0.0968531,-1.56521,-1.18573,-1.51889,3.45962,-0.837173,0.100313,0.108238
3243000,1,-1.59799,-0.505473,-0.015119,-2.07711,-1.57714,1.61455,0.783407,-1.60178,-0.504508,-0.0181095,-2.07297,-1.57936,1.61782,0.783168,-0.78042,0.501669,-0.432446,0.550337,-0.184071,1.17687,-0.0407433,-0.824905,0.52445,-0.477951,0.583549,-0.212267,1.25385,-0.0524732,-10.7733,-4.50412,-14.9413,22.0151,-2.07609,-1.45456,-0.0968531,-1.5011,-1.08169,-1.43436,3.39436,-0.843249,0.115446,0.106656
3243001,1,-1.59877,-0.504953,-0.0155781,-2.07652,-1.57734,1.61577,0.78337,-1.60262,-0.503976,-0.0185934,-2.07238,-1.57958,1.61909,0.783115,-0.785414,0.50572,-0.438962,0.559872,-0.190488,1.20488,-0.0404022,-0.835253,0.53194,-0.483885,0.59189,-0.214367,1.26973,-0.0530346,-10.9479,-4.52792,-14.866,21.9873,-2.06419,-1.34562,-0.0904444,-1.43578,-1.00533,-1.34893,3.34097,-0.849445,0.129049,0.104448
3243002,1,-1.59957,-0.504429,-0.0160351,-2.07593,-1.57754,1.61699,0.783342,-1.60346,-0.503436,-0.0190832,-2.07178,-1.57979,1.62038,0.783061,-0.791795,0.507899,-0.446881,0.568978,-0.193246,1.19952,-0.0320397,-0.845602,0.53943,-0.489819,0.60023,-0.216466,1.28561,-0.0535959,-11.1502,-4.52792,-14.9413,22.0627,-2.09807,-0.952855,-0.174673,-1.379,-0.952156,-1.27541,3.29753,-0.855954,0.139386,0.101638
3243003,1,-1.60039,-0.503906,-0.0164976,-2.07533,-1.57774,1.61824,0.783305,-1.60432,-0.502889,-0.0195789,-2.07117,-1.58001,1.62168,0.783007,-0.803965,0.515396,-0.448273,0.575516,-0.195681,1.20173,-0.033272,-0.85595,0.54692,-0.495753,0.60857,-0.218566,1.30149,-0.0541573,-11.3287,-4.47635,-15.0405,22.1381,-2.13835,-0.713903,-0.18749,-1.33348,-0.904023,-1.21751,3.25644,-0.862702,0.146661,0.0982342
3243004,1,-1.6012,-0.503371,-0.016962,-2.07473,-1.57794,1.61954,0.783264,-1.60518,-0.502335,-0.0200806,-2.07056,-1.58023,1.623,0.782952,-0.81442,0.521297,-0.466907,0.583072,-0.196085,1.22563,-0.0367506,-0.866298,0.55441,-0.501687,0.61691,-0.220666,1.31738,-0.0547187,-11.4795,-4.45255,-15.1159,22.3127,-2.21709,-0.90067,-0.135305,-1.29636,-0.857476,-1.17073,3.21748,-0.869694,0.152191,0.0942413
3243005,1,-1.60204,-0.502832,-0.0174347,-2.07413,-1.57816,1.62087,0.783222,-1.60606,-0.501773,-0.0205882,-2.06993,-1.58045,1.62433,0.782897,-0.828264,0.521478,-0.464769,0.592625,-0.197949,1.24568,-0.0382456,-0.876647,0.5619,-0.50762,0.625251,-0.222765,1.33326,-0.05528,-11.4795,-4.37717,-15.1952,22.4356,-2.25645,-1.12681,-0.0904444,-1.26389,-0.807659,-1.12911,3.17912,-0.876816,0.157142,0.089666
3243006,1,-1.6029,-0.502288,-0.0179078,-2.07351,-1.57837,1.62222,0.783193,-1.60695,-0.501204,-0.0211014,-2.0693,-1.58068,1.62568,0.782841,-0.844344,0.528618,-0.46356,0.594575,-0.201576,1.27404,-0.0361039,-0.886064,0.56939,-0.513141,0.633417,-0.224438,1.34795,-0.0557631,-11.2533,-4.32559,-15.3698,22.5864,-2.23997,-1.40329,-0.141714,-1.23957,-0.748351,-1.09873,3.13949,-0.884204,0.161068,0.084607
3243007,1,-1.60377,-0.50172,-0.0183902,-2.07289,-1.57859,1.62352,0.783159,-1.60784,-0.500627,-0.02162,-2.06865,-1.58091,1.62704,0.782785,-0.852164,0.537419,-0.469681,0.605757,-0.20501,1.28999,-0.035231,-0.895481,0.57688,-0.518662,0.641583,-0.226112,1.36264,-0.0562461,-11.2533,-4.45255,-15.2944,22.6618,-2.18321,-1.32639,-0.174673,-1.22833,-0.685539,-1.08769,3.10244,-0.892208,0.16276,0.0792268
3243008,1,-1.60463,-0.501146,-0.0188928,-2.07226,-1.57881,1.62487,0.783116,-1.60875,-0.500042,-0.0221442,-2.06801,-1.58113,1.62842,0.782728,-0.850107,0.548589,-0.480458,0.609162,-0.208969,1.30289,-0.0367261,-0.904898,0.58437,-0.524183,0.649749,-0.227785,1.37733,-0.0567292,-11.5033,-4.75406,-15.1952,22.7848,-2.09807,-1.25498,-0.155447,-1.23111,-0.631631,-1.09602,3.07344,-0.900995,0.161589,0.0736281
3243009,1,-1.6055,-0.500539,-0.0193989,-2.07162,-1.57904,1.62621,0.783067,-1.60966,-0.499451,-0.0226739,-2.06735,-1.58136,1.62981,0.782671,-0.856789,0.569101,-0.486057,0.618489,-0.218207,1.31887,-0.0400798,-0.914316,0.59186,-0.529705,0.657915,-0.229458,1.39201,-0.0572122,-11.5271,-5.18649,-15.1952,22.9077,-2.08708,-1.1973,-0.0712183,-1.24838,-0.605344,-1.12184,3.06051,-0.910648,0.157262,0.0678903
3243010,1,-1.6064,-0.499942,-0.0198983,-2.07099,-1.57926,1.62757,0.78301,-1.61059,-0.498851,-0.0232092,-2.06668,-1.58159,1.63122,0.782613,-0.860357,0.57488,-0.487098,0.613992,-0.216469,1.32592,-0.0442841,-0.923733,0.59935,-0.535226,0.66608,-0.231132,1.4067,-0.0576952,-11.4517,-5.36105,-15.0683,23.0823,-2.18321,-1.02335,0.0651953,-1.28137,-0.623384,-1.16577,3.07242,-0.921283,0.149658,0.0621512
3243011,1,-1.60731,-0.499356,-0.020412,-2.07035,-1.57947,1.62895,0.782956,-1.61152,-0.498244,-0.0237499,-2.06601,-1.58183,1.63264,0.782555,-0.87329,0.582125,-0.492203,0.619354,-0.210429,1.33949,-0.0506402,-0.93315,0.60684,-0.540747,0.674246,-0.232805,1.42139,-0.0581783,-11.2533,-5.41263,-14.9651,23.2807,-2.29033,-0.907079,0.16865,-1.32938,-0.681793,-1.22765,3.11041,-0.932924,0.13934,0.0566103
3243012,1,-1.60821,-0.498748,-0.0209242,-2.0697,-1.57969,1.63031,0.782917,-1.61246,-0.49763,-0.0242962,-2.06532,-1.58206,1.63407,0.782497,-0.88402,0.587379,-0.500655,0.642744,-0.212518,1.34621,-0.0475899,-0.942567,0.61433,-0.546268,0.682412,-0.234478,1.43608,-0.0586613,-11.0986,-5.48801,-14.8382,23.3561,-2.35258,-0.636998,0.0780126,-1.38512,-0.757058,-1.29884,3.16098,-0.945109,0.128046,0.0514962
3243013,1,-1.60914,-0.49815,-0.0214424,-2.06904,-1.57991,1.63172,0.782866,-1.61341,-0.497008,-0.024848,-2.06463,-1.5823,1.63552,0.782437,-0.892679,0.589533,-0.503169,0.64424,-0.212597,1.3543,-0.0488224,-0.951985,0.62182,-0.551789,0.690578,-0.236152,1.45077,-0.0591444,-11.051,-5.43643,-14.7628,23.4552,-2.3361,-0.592137,0.071604,-1.44105,-0.822537,-1.37023,3.20591,-0.95726,0.117594,0.0469735
3243014,1,-1.61003,-0.497539,-0.0219806,-2.06837,-1.58012,1.63315,0.782817,-1.61437,-0.496379,-0.0254053,-2.06394,-1.58253,1.63699,0.782378,-0.897119,0.596566,-0.514841,0.657708,-0.217183,1.38603,-0.0485374,-0.961402,0.62931,-0.55731,0.698744,-0.237825,1.46546,-0.0596274,-11.2533,-5.30948,-14.5089,23.4076,-2.31322,-0.746862,0.0130102,-1.4956,-0.8665,-1.43997,3.23928,-0.969276,0.108693,0.043072
3243015,1,-1.61098,-0.496897,-0.0225045,-2.0677,-1.58035,1.63462,0.782754,-1.61535,-0.495742,-0.0259681,-2.06323,-1.58277,1.63847,0.782318,-0.909731,0.60788,-0.519706,0.665457,-0.219629,1.411,-0.0533182,-0.970819,0.6368,-0.562831,0.70691,-0.239498,1.48015,-0.0601105,-11.174,-5.4642,-14.4335,23.3561,-2.30223,-0.959264,0.09083,-1.54842,-0.89385,-1.50671,3.26363,-0.981172,0.101308,0.0397202
3243016,1,-1.61195,-0.496269,-0.0230269,-2.06701,-1.58056,1.63607,0.782687,-1.61633,-0.495098,-0.026536,-2.06251,-1.58302,1.63996,0.782257,-0.931584,0.612245,-0.517051,0.67196,-0.217594,1.41583,-0.0577499,-0.979214,0.64429,-0.567921,0.714902,-0.240731,1.49354,-0.060467,-10.8209,-5.56339,-14.5843,23.1815,-2.40385,-0.842992,0.194285,-1.59767,-0.913057,-1.56836,3.28322,-0.992991,0.0953727,0.0368517
3243017,1,-1.6129,-0.495614,-0.0235541,-2.06631,-1.58078,1.63751,0.782629,-1.61731,-0.494446,-0.027109,-2.06179,-1.58326,1.64147,0.782196,-0.93091,0.624431,-0.522493,0.679649,-0.219244,1.42487,-0.0558556,-0.98761,0.65178,-0.573012,0.722894,-0.241964,1.50693,-0.0608235,-10.8209,-5.71414,-14.6121,23.0585,-2.43223,-0.598546,0.175059,-1.64397,-0.929888,-1.62719,3.30223,-1.00498,0.0905783,0.0345039
3243018,1,-1.61385,-0.494965,-0.0241017,-2.06561,-1.581,1.639,0.782557,-1.61831,-0.493787,-0.0276871,-2.06106,-1.5835,1.64299,0.782135,-0.936255,0.632374,-0.530039,0.686905,-0.217436,1.43331,-0.0627105,-0.996005,0.65927,-0.578102,0.730886,-0.243196,1.52032,-0.06118,-10.9994,-5.86887,-14.6359,22.9077,-2.41484,-0.604955,0.233652,-1.69103,-0.951417,-1.68778,3.32417,-1.01747,0.0863578,0.032776
3243019,1,-1.6148,-0.494308,-0.0246645,-2.06489,-1.58123,1.6405,0.782507,-1.61931,-0.49312,-0.0282703,-2.06032,-1.58374,1.64452,0.782074,-0.942101,0.639421,-0.535165,0.689781,-0.224113,1.48872,-0.055348,-1.0044,0.66676,-0.583193,0.738878,-0.244429,1.53371,-0.0615365,-11.1264,-5.84109,-14.5367,22.761,-2.30223,-0.656224,0.0844213,-1.7418,-0.982076,-1.75298,3.35147,-1.03061,0.0821714,0.0317174
3243020,1,-1.6158,-0.493664,-0.0252176,-2.06419,-1.58146,1.64203,0.782442,-1.62033,-0.492446,-0.0288586,-2.05957,-1.58399,1.64607,0.782012,-0.963574,0.637021,-0.541444,0.696382,-0.229923,1.49833,-0.0587158,-1.0128,0.67425,-0.588284,0.74687,-0.245662,1.5471,-0.061893,-10.9241,-5.48801,-14.4573,22.761,-2.27385,-0.636998,0.0459692,-1.79409,-1.01349,-1.81991,3.38134,-1.04406,0.0781135,0.0312601
3243021,1,-1.61681,-0.49303,-0.0257952,-2.06345,-1.58169,1.64357,0.782378,-1.62135,-0.491764,-0.029452,-2.05882,-1.58424,1.64763,0.781949,-0.97802,0.632015,-0.551809,0.710581,-0.238412,1.50858,-0.0557862,-1.02119,0.68174,-0.593374,0.754862,-0.246895,1.56049,-0.0622495,-10.6225,-5.05954,-14.2312,22.634,-2.22899,-0.624181,-0.0254419,-1.83742,-1.01894,-1.87552,3.40045,-1.05698,0.0759528,0.0311742
3243022,1,-1.61783,-0.492365,-0.0263616,-2.0627,-1.58192,1.64511,0.782315,-1.62238,-0.491075,-0.0300504,-2.05806,-1.58449,1.64921,0.781887,-0.988549,0.642452,-0.552223,0.723056,-0.24153,1.52186,-0.0592126,-1.02959,0.68923,-0.598465,0.762854,-0.248127,1.57389,-0.062606,-10.1901,-4.82944,-14.0804,22.4872,-2.1887,-0.701085,-0.0712183,-1.8656,-0.979555,-1.91232,3.3965,-1.06868,0.0769223,0.0311701
3243023,1,-1.61885,-0.491675,-0.0269477,-2.06197,-1.58215,1.64669,0.78224,-1.62341,-0.490378,-0.030654,-2.05729,-1.58473,1.65079,0.781824,-0.99444,0.652737,-0.561496,0.724555,-0.237942,1.53608,-0.0624458,-1.03798,0.69672,-0.603555,0.770846,-0.24936,1.58728,-0.0629625,-10.0156,-4.93259,-13.8027,22.4872,-2.17772,-0.881444,0.0194189,-1.88331,-0.912122,-1.93661,3.37613,-1.07935,0.0801221,0.0310378
3243024,1,-1.61986,-0.490982,-0.0275511,-2.06122,-1.58237,1.64827,0.782171,-1.62446,-0.489674,-0.0312626,-2.05651,-1.58499,1.65239,0.781761,-1.00974,0.662334,-0.576445,0.725895,-0.233666,1.54404,-0.0619454,-1.04638,0.70421,-0.608646,0.778837,-0.250593,1.60067,-0.0633191,-9.8886,-5.15872,-13.4219,22.4634,-2.21159,-0.894261,0.0459692,-1.89072,-0.846794,-1.94724,3.35715,-1.08949,0.0850572,0.0306914
3243025,1,-1.62091,-0.490269,-0.0281334,-2.06047,-1.5826,1.64983,0.782112,-1.62552,-0.488962,-0.0318764,-2.05572,-1.58524,1.65401,0.781697,-1.02155,0.677414,-0.576415,0.738056,-0.234156,1.55217,-0.0577456,-1.05477,0.7117,-0.613736,0.786829,-0.251826,1.61406,-0.0636756,-9.73784,-5.41263,-13.2671,22.511,-2.26835,-0.855809,-0.0190333,-1.88389,-0.802926,-1.93805,3.35065,-1.09935,0.091819,0.0301754
3243026,1,-1.62195,-0.489564,-0.0287314,-2.0597,-1.58284,1.65142,0.782054,-1.62658,-0.488243,-0.0324948,-2.05492,-1.58549,1.65563,0.781633,-1.02569,0.68908,-0.581394,0.74577,-0.234919,1.55469,-0.0557482,-1.06209,0.71919,-0.618388,0.794662,-0.252612,1.62608,-0.0638617,-9.68627,-5.63876,-13.168,22.7848,-2.32512,-0.817357,-0.0712183,-1.86791,-0.78952,-1.91646,3.35816,-1.10919,0.0993099,0.0295538
3243027,1,-1.62299,-0.488847,-0.0293396,-2.05893,-1.58308,1.65304,0.782005,-1.62765,-0.487516,-0.0331178,-2.05412,-1.58574,1.65727,0.781569,-1.03018,0.691819,-0.592729,0.748627,-0.236035,1.57638,-0.0505234,-1.0694,0.72668,-0.62304,0.802494,-0.253399,1.63811,-0.0640479,-9.68627,-5.74191,-13.168,23.0347,-2.36998,-1.08103,-0.225942,-1.85007,-0.803135,-1.89211,3.37731,-1.11921,0.106346,0.0287829
3243028,1,-1.62405,-0.488121,-0.0299348,-2.05816,-1.58331,1.6547,0.781944,-1.62872,-0.486782,-0.0337455,-2.05331,-1.586,1.65892,0.781505,-1.03475,0.700742,-0.594287,0.757352,-0.236434,1.60141,-0.0505009,-1.07672,0.73417,-0.627691,0.810326,-0.254185,1.65014,-0.064234,-9.76165,-5.86887,-13.1918,23.3084,-2.42674,-1.33921,-0.278127,-1.83464,-0.83179,-1.87022,3.40423,-1.12949,0.112088,0.0276811
3243029,1,-1.6251,-0.487394,-0.0305477,-2.05738,-1.58356,1.65634,0.781876,-1.62981,-0.486041,-0.0343778,-2.05249,-1.58625,1.66058,0.78144,-1.04329,0.711352,-0.594018,0.755367,-0.239506,1.60717,-0.0562188,-1.08403,0.74166,-0.632343,0.818158,-0.254972,1.66216,-0.0644202,-9.83702,-5.91647,-13.2433,23.606,-2.42033,-1.15244,-0.181082,-1.82749,-0.873217,-1.85933,3.43957,-1.14032,0.115203,0.0260234
3243030,1,-1.62617,-0.486652,-0.0311623,-2.0566,-1.58381,1.65796,0.781806,-1.6309,-0.485291,-0.0350148,-2.05167,-1.58651,1.66226,0.781376,-1.04572,0.717266,-0.5965,0.772209,-0.24452,1.61179,-0.0607113,-1.09135,0.74915,-0.636994,0.825991,-0.255758,1.67419,-0.0646063,-9.8886,-6.01962,-13.2433,23.7806,-2.3361,-0.959264,-0.0712183,-1.83285,-0.927547,-1.86612,3.48384,-1.15192,0.11485,0.0236925
3243031,1,-1.62725,-0.485897,-0.0317788,-2.0558,-1.58407,1.65962,0.781744,-1.632,-0.484535,-0.0356565,-2.05083,-1.58676,1.66394,0.781311,-1.05601,0.74288,-0.604414,0.779851,-0.251855,1.6217,-0.060309,-1.09867,0.75664,-0.641646,0.833823,-0.256545,1.68621,-0.0647925,-9.99175,-6.27353,-13.2671,23.729,-2.26835,-0.881444,-0.0318506,-1.84914,-0.997004,-1.88818,3.53495,-1.16417,0.111449,0.0207904
3243032,1,-1.6283,-0.485121,-0.0324041,-2.05498,-1.58433,1.66131,0.781681,-1.6331,-0.483771,-0.0363028,-2.04999,-1.58702,1.66564,0.781246,-1.06181,0.749648,-0.611172,0.794698,-0.251427,1.64472,-0.0610007,-1.10598,0.76413,-0.646298,0.841655,-0.257331,1.69824,-0.0649786,-10.1901,-6.59885,-13.2433,23.5306,-2.23448,-1.1204,0.0194189,-1.87098,-1.09151,-1.91687,3.59425,-1.17675,0.106085,0.0175761
3243033,1,-1.6294,-0.48435,-0.0330173,-2.05415,-1.58457,1.66301,0.781624,-1.63422,-0.482999,-0.0369537,-2.04914,-1.58728,1.66735,0.781181,-1.06616,0.752895,-0.608918,0.80801,-0.2476,1.65711,-0.0624189,-1.1133,0.77162,-0.650949,0.849487,-0.258118,1.71027,-0.0651648,-10.0671,-6.62662,-13.2671,23.0823,-2.27934,-1.12681,-0.0190333,-1.89775,-1.19746,-1.95135,3.65353,-1.18921,0.0991954,0.0142519
3243034,1,-1.63053,-0.483587,-0.0336421,-2.05329,-1.58482,1.66472,0.781579,-1.63534,-0.48222,-0.0376093,-2.04829,-1.58754,1.66908,0.781115,-1.08272,0.75502,-0.611599,0.830458,-0.247587,1.66553,-0.0611798,-1.12061,0.77911,-0.655601,0.857319,-0.258904,1.72229,-0.065351,-9.68627,-6.57504,-13.2949,22.5864,-2.26835,-1.11399,-0.135305,-1.93085,-1.28128,-1.99528,3.6943,-1.20102,0.0909397,0.0109107
3243035,1,-1.63164,-0.482811,-0.034276,-2.05244,-1.58507,1.6664,0.781519,-1.63647,-0.481433,-0.0382696,-2.04742,-1.5878,1.67081,0.78105,-1.09677,0.759671,-0.633192,0.837665,-0.250246,1.67131,-0.0605388,-1.12793,0.7866,-0.660253,0.865152,-0.259691,1.73432,-0.0655371,-9.46013,-6.44809,-13.2195,22.2373,-2.30772,-0.940038,-0.116079,-1.95866,-1.32218,-2.03369,3.70522,-1.21158,0.0832719,0.0075555
3243036,1,-1.63275,-0.482038,-0.0349353,-2.05157,-1.58533,1.66813,0.781452,-1.6376,-0.480639,-0.038934,-2.04655,-1.58806,1.67255,0.780984,-1.09487,0.763971,-0.645687,0.850437,-0.259589,1.68034,-0.0609853,-1.13413,0.79409,-0.664461,0.872811,-0.260035,1.74494,-0.0655449,-9.55931,-6.39651,-12.9141,21.8882,-2.27934,-0.849401,-0.0648096,-1.96662,-1.31939,-2.04519,3.68794,-1.22054,0.0785123,0.00412747
3243037,1,-1.63385,-0.481251,-0.0356003,-2.05069,-1.58559,1.66986,0.781387,-1.63874,-0.479838,-0.0396027,-2.04567,-1.58832,1.67431,0.780919,-1.1006,0.768388,-0.650014,0.857227,-0.2614,1.7166,-0.0620317,-1.14034,0.80158,-0.66867,0.88047,-0.260379,1.75556,-0.0655527,-9.73784,-6.29733,-12.6602,21.6422,-2.26286,-0.611364,-0.00621587,-1.95763,-1.28115,-2.03242,3.64899,-1.22815,0.076285,0.000604704
3243038,1,-1.63499,-0.48046,-0.0362549,-2.0498,-1.58586,1.67157,0.781325,-1.63989,-0.479029,-0.0402756,-2.04478,-1.58858,1.67608,0.780853,-1.10868,0.773123,-0.647307,0.855366,-0.262289,1.71295,-0.060711,-1.14654,0.80907,-0.672879,0.888129,-0.260723,1.76618,-0.0655605,-9.61089,-6.14658,-12.5094,21.4676,-2.24547,-0.488683,0.000192821,-1.94459,-1.21993,-2.01355,3.59818,-1.23508,0.07484,-0.00292089
3243039,1,-1.63614,-0.47969,-0.0369232,-2.04891,-1.58611,1.67333,0.781269,-1.64104,-0.478212,-0.0409527,-2.04388,-1.58884,1.67785,0.780788,-1.12165,0.77741,-0.651136,0.866632,-0.261742,1.71692,-0.0613391,-1.15275,0.81656,-0.677087,0.895788,-0.261067,1.7768,-0.0655683,-9.40856,-5.81729,-12.3586,21.3446,-2.27934,-0.437413,-0.077627,-1.9341,-1.14705,-1.99879,3.54477,-1.24191,0.0738329,-0.00628934
3243040,1,-1.63728,-0.478897,-0.0375897,-2.048,-1.58636,1.67507,0.781206,-1.6422,-0.477388,-0.041634,-2.04298,-1.5891,1.67964,0.780722,-1.13033,0.781981,-0.655056,0.871045,-0.260323,1.72789,-0.0593298,-1.15895,0.82405,-0.681296,0.903447,-0.261411,1.78742,-0.0655761,-9.28557,-5.53958,-12.1801,21.3922,-2.3361,-0.443822,-0.10967,-1.92509,-1.0651,-1.98727,3.49005,-1.2488,0.0740499,-0.00943518
3243041,1,-1.63845,-0.478088,-0.0382544,-2.0471,-1.58663,1.67685,0.781147,-1.64336,-0.476556,-0.0423195,-2.04207,-1.58936,1.68144,0.780657,-1.13391,0.793176,-0.661599,0.881927,-0.26252,1.73788,-0.0604387,-1.16516,0.83154,-0.685505,0.911107,-0.261755,1.79804,-0.0655839,-9.00786,-5.41263,-12.1285,21.416,-2.30223,-0.495092,-0.181082,-1.91672,-0.979371,-1.97722,3.43516,-1.25578,0.0757682,-0.0124165
3243042,1,-1.63959,-0.477284,-0.0389402,-2.0462,-1.58689,1.67866,0.781085,-1.64454,-0.475717,-0.0430092,-2.04115,-1.58963,1.68325,0.780591,-1.1418,0.797544,-0.666611,0.886209,-0.258824,1.75038,-0.0643061,-1.17136,0.83903,-0.689713,0.918766,-0.262099,1.80866,-0.0655917,-9.03167,-5.30948,-11.9024,21.6898,-2.29033,-0.560094,-0.200308,-1.9099,-0.898339,-1.96894,3.38339,-1.26302,0.0787018,-0.0153507
3243043,1,-1.64074,-0.476461,-0.0396329,-2.04531,-1.58715,1.68044,0.781016,-1.64571,-0.474871,-0.0437031,-2.04022,-1.58989,1.68507,0.780525,-1.14695,0.80469,-0.672505,0.890119,-0.255598,1.76313,-0.0679812,-1.17757,0.84652,-0.693922,0.926425,-0.262443,1.81928,-0.0655995,-9.05547,-5.30948,-11.4977,22.0151,-2.27385,-0.553685,-0.168264,-1.90455,-0.825264,-1.96201,3.33761,-1.27061,0.0825609,-0.0183834
3243044,1,-1.64194,-0.475638,-0.0403266,-2.04439,-1.5874,1.68226,0.78095,-1.6469,-0.474017,-0.0444012,-2.03929,-1.59015,1.6869,0.78046,-1.15944,0.813178,-0.680841,0.890838,-0.254803,1.77158,-0.0652155,-1.18377,0.85401,-0.698131,0.934084,-0.262787,1.8299,-0.0656073,-8.75396,-5.36105,-11.2954,22.3127,-2.35258,-0.450231,-0.149038,-1.89816,-0.764691,-1.95253,3.303,-1.27858,0.0873679,-0.0216014
3243045,1,-1.64313,-0.474782,-0.0410153,-2.04347,-1.58765,1.68405,0.78088,-1.64809,-0.473155,-0.0451036,-2.03835,-1.59041,1.68874,0.780394,-1.17808,0.830009,-0.68007,0.895441,-0.255593,1.7792,-0.06904,-1.18998,0.8615,-0.702339,0.941743,-0.263131,1.84052,-0.0656151,-8.30169,-5.58719,-11.2676,22.5864,-2.40385,-0.366002,-0.116079,-1.88591,-0.729328,-1.93368,3.28757,-1.287,0.0935302,-0.0249639
3243046,1,-1.64432,-0.473926,-0.0417232,-2.04255,-1.58791,1.68587,0.78081,-1.64928,-0.472286,-0.0458097,-2.0374,-1.59068,1.69059,0.780329,-1.17849,0.838738,-0.696456,0.901834,-0.257046,1.78801,-0.0684485,-1.19506,0.86899,-0.706103,0.949218,-0.263042,1.84972,-0.0654392,-8.19854,-5.69034,-10.9384,22.761,-2.42033,-0.366002,-0.0510767,-1.86435,-0.729875,-1.90073,3.29599,-1.29593,0.101385,-0.0283706
3243047,1,-1.64552,-0.473071,-0.0424503,-2.04161,-1.58817,1.68772,0.780738,-1.65048,-0.47141,-0.0465196,-2.03644,-1.59094,1.69245,0.780263,-1.18136,0.850401,-0.708716,0.909601,-0.256202,1.79722,-0.0718211,-1.20014,0.87648,-0.709867,0.956693,-0.262954,1.85891,-0.0652633,-8.22234,-5.89267,-10.6606,22.8839,-2.37547,-0.469457,0.000192821,-1.832,-0.763527,-1.8505,3.32517,-1.30527,0.111131,-0.0317267
3243048,1,-1.64673,-0.472215,-0.0431638,-2.04068,-1.58843,1.68957,0.780667,-1.65169,-0.470526,-0.0472332,-2.03548,-1.5912,1.69431,0.780198,-1.19409,0.84958,-0.709749,0.931112,-0.255599,1.81972,-0.0722342,-1.20523,0.88397,-0.713631,0.964169,-0.262865,1.86811,-0.0650875,-7.92083,-5.86887,-10.5337,22.761,-2.31871,-0.624181,0.0130102,-1.79015,-0.809075,-1.78491,3.36113,-1.31467,0.122506,-0.034953
3243049,1,-1.64795,-0.471365,-0.0438967,-2.03973,-1.58868,1.69143,0.780588,-1.6529,-0.469634,-0.0479506,-2.03451,-1.59147,1.69619,0.780133,-1.19941,0.871363,-0.711648,0.928519,-0.258762,1.8232,-0.0743575,-1.21031,0.89146,-0.717395,0.971644,-0.262776,1.8773,-0.0649116,-7.84545,-5.74191,-10.3591,22.761,-2.28483,-0.701085,0.0780126,-1.74445,-0.852739,-1.71366,3.39416,-1.32398,0.134357,-0.037934
3243050,1,-1.64914,-0.470481,-0.0446403,-2.03876,-1.58895,1.69332,0.780509,-1.65411,-0.468735,-0.0486717,-2.03353,-1.59173,1.69808,0.780069,-1.19852,0.869565,-0.715768,0.93732,-0.263407,1.8523,-0.0767193,-1.21539,0.89895,-0.721159,0.979119,-0.262688,1.88649,-0.0647357,-7.86925,-5.84109,-10.0775,22.4872,-2.1942,-1.17807,0.143015,-1.7034,-0.902161,-1.64894,3.42992,-1.33341,0.144929,-0.0404993
3243051,1,-1.65037,-0.469596,-0.0453588,-2.0378,-1.58922,1.6952,0.780448,-1.65533,-0.467829,-0.0493967,-2.03254,-1.59199,1.69997,0.780004,-1.20527,0.86718,-0.714819,0.946466,-0.259338,1.85432,-0.0721564,-1.22047,0.90644,-0.724923,0.986594,-0.262599,1.89569,-0.0645598,-7.77007,-5.78952,-10.0775,22.2889,-2.15483,-1.18448,0.0523779,-1.67354,-0.941945,-1.60033,3.46306,-1.34284,0.152758,-0.0425502
3243052,1,-1.65158,-0.468709,-0.0460911,-2.0368,-1.58947,1.69708,0.780376,-1.65656,-0.466915,-0.0501254,-2.03155,-1.59225,1.70188,0.77994,-1.19717,0.873028,-0.711933,0.957682,-0.255791,1.85943,-0.0730761,-1.22556,0.91393,-0.728688,0.994069,-0.262511,1.90488,-0.064384,-7.89702,-5.89267,-10.129,21.8644,-2.14934,-0.907079,0.0523779,-1.66069,-0.946651,-1.57696,3.48016,-1.35202,0.156605,-0.0440845
3243053,1,-1.65275,-0.467804,-0.0468181,-2.03581,-1.58974,1.69894,0.780323,-1.65779,-0.465994,-0.0508578,-2.03054,-1.59252,1.70379,0.779876,-1.19377,0.877107,-0.732791,0.966957,-0.25866,1.85471,-0.0669935,-1.23064,0.92142,-0.732452,1.00154,-0.262422,1.91408,-0.0642081,-8.42467,-5.91647,-10.1568,21.6898,-2.12645,-0.713903,-0.122488,-1.66592,-0.915083,-1.57909,3.47857,-1.36082,0.156258,-0.045159
3243054,1,-1.65396,-0.466907,-0.0475491,-2.03485,-1.58999,1.70087,0.780265,-1.65902,-0.465065,-0.051594,-2.02954,-1.59278,1.70572,0.779812,-1.18484,0.877949,-0.727667,0.975637,-0.256697,1.866,-0.0665728,-1.23572,0.92891,-0.736216,1.00902,-0.262333,1.92327,-0.0640322,-8.65477,-5.78952,-10.3076,21.7414,-2.21709,-0.836583,-0.213125,-1.68551,-0.851287,-1.59919,3.45905,-1.36906,0.152702,-0.0459424
3243055,1,-1.65518,-0.466006,-0.0482848,-2.03385,-1.59024,1.7028,0.780221,-1.66027,-0.464128,-0.052334,-2.02852,-1.59304,1.70765,0.779748,-1.20281,0.884036,-0.733465,0.979799,-0.254206,1.92101,-0.0576726,-1.24081,0.9364,-0.73998,1.01649,-0.262245,1.93247,-0.0638563,-8.6032,-5.74191,-10.3591,21.7652,-2.3416,-0.907079,-0.400808,-1.7195,-0.760247,-1.63671,3.42454,-1.37674,0.146163,-0.046749
3243056,1,-1.65643,-0.465068,-0.0490132,-2.03288,-1.59051,1.70471,0.780183,-1.66151,-0.463184,-0.0530773,-2.0275,-1.5933,1.70959,0.779684,-1.22231,0.899546,-0.732662,0.969627,-0.256238,1.92138,-0.0499003,-1.24477,0.94389,-0.743299,1.02378,-0.261739,1.94023,-0.0634928,-8.25011,-5.96805,-10.3829,22.1381,-2.35899,-0.849401,-0.62145,-1.76055,-0.666935,-1.6823,3.39121,-1.3842,0.13746,-0.0479186
3243057,1,-1.6577,-0.464138,-0.0497614,-2.03186,-1.59077,1.70663,0.780135,-1.66276,-0.462233,-0.0538239,-2.02646,-1.59356,1.71154,0.779621,-1.2359,0.912289,-0.731917,0.979299,-0.261541,1.91993,-0.0465576,-1.24874,0.95138,-0.746619,1.03106,-0.261233,1.948,-0.0631293,-7.9486,-6.19418,-10.2322,22.2889,-2.36998,-0.72672,-0.666311,-1.79695,-0.605185,-1.72089,3.3794,-1.39192,0.1284,-0.0498005
3243058,1,-1.65894,-0.463189,-0.0505241,-2.03085,-1.59105,1.70854,0.780081,-1.66401,-0.461274,-0.0545739,-2.02543,-1.59382,1.71349,0.779558,-1.23554,0.92179,-0.743163,0.993026,-0.261811,1.91897,-0.0515208,-1.25271,0.95887,-0.749938,1.03834,-0.260727,1.95576,-0.0627658,-7.74627,-6.42429,-10.0021,22.511,-2.26286,-0.662633,-0.634268,-1.82405,-0.582166,-1.74683,3.38948,-1.40005,0.120201,-0.0528349
3243059,1,-1.66018,-0.462223,-0.0512854,-2.02984,-1.59132,1.71048,0.780021,-1.66527,-0.460308,-0.0553271,-2.02438,-1.59408,1.71546,0.779496,-1.23469,0.92961,-0.745355,0.991273,-0.266821,1.92562,-0.054675,-1.25668,0.96636,-0.753258,1.04562,-0.260221,1.96353,-0.0624022,-7.89702,-6.67422,-9.62121,22.634,-2.26286,-0.624181,-0.465811,-1.84312,-0.587531,-1.76133,3.41292,-1.40845,0.113175,-0.0573385
