shamilmamedov/beam_handling/data/param_estimation_ICRA/ocp_Xup_35cm_0.57s_1.csv
duration, success rate, q[0], q[1], q[2], q[3], q[4], q[5], q[6],q_d[0], q_d[1], q_d[2], q_d[3], q_d[4], q_d[5], q_d[6],dq[0], dq[1], dq[2], dq[3], dq[4], dq[5], dq[6],dq_d[0], dq_d[1], dq_d[2], dq_d[3], dq_d[4], dq_d[5], dq_d[6],tau_J[0], tau_J[1], tau_J[2], tau_J[3], tau_J[4], tau_J[5], tau_J[6],tau_ext_hat_filtered[0], tau_ext_hat_filtered[1], tau_ext_hat_filtered[2], tau_ext_hat_filtered[3], tau_ext_hat_filtered[4], tau_ext_hat_filtered[5], tau_ext_hat_filtered[6]
4854506,0,-1.5703,-0.522734,0.000191166,-2.09587,1.57074,1.57166,0.784979,-1.5708,-0.523599,5.28493e-08,-2.0944,1.5708,1.5708,0.785397,-0.000669947,0.00130835,0.00116599,0.00201214,2.62161e-05,7.9017e-05,0.000857219,0,0,0,0,0,0,0,-0.557545,-10.3678,-0.583737,20.7972,0.757463,-0.643407,0.149424,-0.579728,-1.18194,-0.136146,2.33091,0.193027,-0.64206,0.222483
4854507,1,-1.5703,-0.522738,0.000187547,-2.09587,1.57074,1.57166,0.784975,-1.5708,-0.523599,5.28493e-08,-2.0944,1.5708,1.5708,0.785397,-0.000446632,-0.000334193,-0.000429097,0.000784451,-0.000185973,0.000290037,-0.000615316,0,0,0,0,0,0,0,-0.557545,-10.3162,-0.532163,20.821,0.762956,-0.649816,0.181467,-0.580824,-1.18255,-0.138162,2.33052,0.193082,-0.641835,0.222329
4854508,1,-1.5703,-0.52274,0.000187547,-2.09587,1.57074,1.57166,0.784978,-1.5708,-0.523599,5.28493e-08,-2.0944,1.5708,1.5708,0.785397,0.000259058,-0.000222795,-0.000286065,-0.000683579,0.000316827,-4.4001e-05,0.000539225,0,0,0,0,0,0,0,-0.581349,-10.3162,-0.532163,20.8725,0.751055,-0.643407,0.155832,-0.581093,-1.18276,-0.138983,2.32971,0.193094,-0.64174,0.222168
4854509,1,-1.5703,-0.52274,0.000191166,-2.09588,1.57074,1.57166,0.784975,-1.5708,-0.523599,5.28493e-08,-2.0944,1.5708,1.5708,0.785397,0.000172705,-0.000705342,0.00101572,-0.00156943,-2.61407e-05,-0.000266693,-0.000827311,0,0,0,0,0,0,0,-0.581349,-10.2924,-0.583737,20.9201,0.757463,-0.636998,0.187876,-0.581233,-1.18297,-0.139598,2.32973,0.193137,-0.64166,0.221995
4854510,1,-1.5703,-0.522738,0.000187547,-2.09588,1.57074,1.57166,0.784972,-1.5708,-0.523599,5.28493e-08,-2.0944,1.5708,1.5708,0.785397,0.000115137,0.000643396,-0.000529282,-0.00104636,0.000626833,-0.000177795,-0.00150098,0,0,0,0,0,0,0,-0.581349,-10.34,-0.532163,20.9201,0.740068,-0.636998,0.213511,-0.581746,-1.18448,-0.140802,2.33132,0.19325,-0.641533,0.221817
4854511,1,-1.5703,-0.52274,0.000189496,-2.09587,1.57074,1.57166,0.784979,-1.5708,-0.523599,5.28493e-08,-2.0944,1.5708,1.5708,0.785397,-0.000480054,-0.000127881,0.000296759,0.00106562,1.09875e-05,0.000118829,0.00137294,0,0,0,0,0,0,0,-0.557545,-10.3162,-0.559934,20.8448,0.751055,-0.643407,0.149424,-0.581955,-1.18694,-0.141551,2.33345,0.193351,-0.641462,0.221668
4854512,1,-1.5703,-0.522737,0.000187547,-2.09587,1.57074,1.57166,0.784975,-1.5708,-0.523599,5.28493e-08,-2.0944,1.5708,1.5708,0.785397,-0.000320036,0.000471558,-0.000451774,6.07579e-05,-0.000433484,7.92192e-05,-0.000271502,0,0,0,0,0,0,0,-0.557545,-10.34,-0.532163,20.8725,0.762956,-0.643407,0.181467,-0.581528,-1.18879,-0.141363,2.33463,0.193361,-0.641488,0.221576
4854513,1,-1.57029,-0.522738,0.000187547,-2.09587,1.57074,1.57165,0.784976,-1.5708,-0.523599,5.28493e-08,-2.0944,1.5708,1.5708,0.785397,0.000900266,0.000314372,-0.000301183,-0.000516335,-0.00028899,5.28128e-05,5.63573e-05,0,0,0,0,0,0,0,-0.605152,-10.34,-0.532163,20.8963,0.762956,-0.643407,0.175059,-0.580818,-1.19057,-0.140713,2.33548,0.193323,-0.641561,0.22152
4854514,1,-1.5703,-0.522737,0.000189496,-2.09587,1.57074,1.57165,0.784978,-1.5708,-0.523599,5.28493e-08,-2.0944,1.5708,1.5708,0.785397,-0.000513446,0.000209581,0.000448825,-0.000344245,0.00024815,0.000272567,0.000749648,0,0,0,0,0,0,0,-0.557545,-10.34,-0.559934,20.8963,0.751055,-0.649816,0.155832,-0.58033,-1.19303,-0.14033,2.33683,0.193304,-0.641612,0.221478
4854515,1,-1.5703,-0.522738,0.000187547,-2.09587,1.57074,1.57166,0.784974,-1.5708,-0.523599,5.28493e-08,-2.0944,1.5708,1.5708,0.785397,0.000214514,-0.000417091,-0.000350397,0.000327299,-0.000275376,-0.000767724,-0.000924388,0,0,0,0,0,0,0,-0.581349,-10.3162,-0.532163,20.8725,0.762956,-0.624181,0.194285,-0.580067,-1.19473,-0.140297,2.33789,0.193286,-0.641624,0.221444
4854516,1,-1.5703,-0.522736,0.000185877,-2.09587,1.57074,1.57166,0.78498,-1.5708,-0.523599,5.28493e-08,-2.0944,1.5708,1.5708,0.785397,-0.000413802,0.000278751,-0.00079041,-0.000338625,-0.000183584,-3.70982e-05,0.00128261,0,0,0,0,0,0,0,-0.557545,-10.34,-0.508359,20.8963,0.762956,-0.636998,0.143015,-0.579483,-1.19508,-0.139745,2.3382,0.19323,-0.641664,0.22141
4854517,1,-1.5703,-0.522736,0.000189496,-2.09587,1.57074,1.57166,0.784976,-1.5708,-0.523599,5.28493e-08,-2.0944,1.5708,1.5708,0.785397,0.000837756,0.000185834,0.000679486,0.000331053,-0.00032584,0.000212627,-0.000331719,0,0,0,0,0,0,0,-0.605152,-10.34,-0.559934,20.8725,0.76845,-0.643407,0.175059,-0.57883,-1.1952,-0.139013,2.33835,0.193173,-0.641701,0.221372
4854518,1,-1.5703,-0.522738,0.000183746,-2.09587,1.57074,1.57166,0.784972,-1.5708,-0.523599,5.28493e-08,-2.0944,1.5708,1.5708,0.785397,1.69185e-06,0.000123889,-0.000753435,0.000220695,0.000189674,-9.56077e-05,-0.0016453,0,0,0,0,0,0,0,-0.581349,-10.34,-0.508359,20.8725,0.757463,-0.636998,0.213511,-0.578687,-1.19533,-0.138967,2.33836,0.193148,-0.641654,0.221319
4854519,1,-1.5703,-0.52274,0.000186837,-2.09587,1.57074,1.57166,0.784977,-1.5708,-0.523599,5.28493e-08,-2.0944,1.5708,1.5708,0.785397,-0.000555684,-0.000474219,5.45218e-05,0.00191036,0.000363809,0.000410979,0.000802005,0,0,0,0,0,0,0,-0.557545,-10.3162,-0.532163,20.7972,0.751055,-0.649816,0.162241,-0.578457,-1.19408,-0.138713,2.33727,0.193099,-0.641604,0.221266
4854520,1,-1.57029,-0.522738,0.00018731,-2.09587,1.57074,1.57166,0.784974,-1.5708,-0.523599,5.28493e-08,-2.0944,1.5708,1.5708,0.785397,0.00139278,-0.000316146,3.63478e-05,-0.00104648,-0.000401721,-0.000438091,-0.000652125,0,0,0,0,0,0,0,-0.632923,-10.3162,-0.532163,20.8963,0.76845,-0.63059,0.194285,-0.578259,-1.19117,-0.138431,2.33511,0.193026,-0.641532,0.221246
4854521,1,-1.5703,-0.522736,0.000189417,-2.09587,1.57074,1.57166,0.78498,-1.5708,-0.523599,5.28493e-08,-2.0944,1.5708,1.5708,0.785397,-0.000834717,0.000346048,0.000673846,-0.000140843,0.000139087,0.000420016,0.00146412,0,0,0,0,0,0,0,-0.557545,-10.34,-0.559934,20.8725,0.757463,-0.649816,0.143015,-0.57876,-1.189,-0.139152,2.33379,0.19302,-0.641365,0.221255
4854522,1,-1.5703,-0.522736,0.00018947,-2.09588,1.57074,1.57166,0.784979,-1.5708,-0.523599,5.28493e-08,-2.0944,1.5708,1.5708,0.785397,3.34192e-07,0.000230699,0.000449231,-0.00120752,0.000330084,-0.000194707,0.000738722,0,0,0,0,0,0,0,-0.581349,-10.34,-0.559934,20.9201,0.751055,-0.636998,0.149424,-0.579524,-1.18927,-0.140367,2.33425,0.193104,-0.641189,0.221273
4854523,1,-1.5703,-0.522736,0.000187538,-2.09587,1.57074,1.57166,0.784972,-1.5708,-0.523599,5.28493e-08,-2.0944,1.5708,1.5708,0.785397,2.22794e-07,0.000803413,-0.000350127,-0.000248204,-1.73032e-05,-0.000129805,-0.00164375,0,0,0,0,0,0,0,-0.581349,-10.3678,-0.532163,20.8963,0.757463,-0.636998,0.207102,-0.580082,-1.19176,-0.141337,2.33613,0.193237,-0.641071,0.221263
4854524,1,-1.5703,-0.522739,0.000187544,-2.09587,1.57074,1.57166,0.784978,-1.5708,-0.523599,5.28493e-08,-2.0944,1.5708,1.5708,0.785397,1.4853e-07,-0.000114005,-0.000233418,0.00104096,-0.000214986,0.000150823,0.000803039,0,0,0,0,0,0,0,-0.581349,-10.34,-0.532163,20.8448,0.762956,-0.643407,0.155832,-0.580199,-1.19468,-0.14156,2.33799,0.19334,-0.641029,0.221221
4854525,1,-1.5703,-0.522735,0.000187546,-2.09587,1.57074,1.57166,0.784974,-1.5708,-0.523599,5.28493e-08,-2.0944,1.5708,1.5708,0.785397,-0.000556713,0.00057361,-0.000155612,0.000693969,-0.000143324,0.000337907,-0.000888794,0,0,0,0,0,0,0,-0.557545,-10.3678,-0.532163,20.8448,0.762956,-0.649816,0.194285,-0.579788,-1.1961,-0.140924,2.33844,0.193362,-0.641058,0.221178
4854526,1,-1.57029,-0.522736,0.000187547,-2.09588,1.57074,1.57166,0.784975,-1.5708,-0.523599,5.28493e-08,-2.0944,1.5708,1.5708,0.785397,0.00194891,-0.000267207,-0.000103741,-0.00130059,0.000107901,-1.20874e-05,-0.000117812,0,0,0,0,0,0,0,-0.656727,-10.34,-0.532163,20.9201,0.757463,-0.643407,0.181467,-0.579507,-1.1968,-0.140391,2.33841,0.19337,-0.64107,0.221142
4854527,1,-1.5703,-0.522738,0.000189496,-2.09587,1.57074,1.57166,0.784977,-1.5708,-0.523599,5.28493e-08,-2.0944,1.5708,1.5708,0.785397,-0.000463966,-0.00073495,0.000580453,-0.00031025,-0.000334967,0.000229301,0.000633536,0,0,0,0,0,0,0,-0.581349,-10.3162,-0.559934,20.8963,0.76845,-0.649816,0.162241,-0.580057,-1.19708,-0.140965,2.33873,0.193426,-0.640964,0.221122
4854528,1,-1.5703,-0.52274,0.000189496,-2.09587,1.57074,1.57166,0.784972,-1.5708,-0.523599,5.28493e-08,-2.0944,1.5708,1.5708,0.785397,-0.000866123,-0.000489967,0.000386969,-0.000206834,0.000420949,0.000152867,-0.00123916,0,0,0,0,0,0,0,-0.557545,-10.3162,-0.559934,20.8963,0.751055,-0.649816,0.207102,-0.580814,-1.19587,-0.141917,2.3387,0.193492,-0.640827,0.221121
4854529,1,-1.5703,-0.522737,0.000191166,-2.09588,1.57074,1.57166,0.78498,-1.5708,-0.523599,5.28493e-08,-2.0944,1.5708,1.5708,0.785397,-2.06031e-05,0.000230168,0.000814791,-0.00125151,-0.000160177,-0.000135448,0.00154749,0,0,0,0,0,0,0,-0.581349,-10.34,-0.583737,20.9439,0.762956,-0.643407,0.143015,-0.581318,-1.19445,-0.142693,2.33873,0.193566,-0.640747,0.221136
4854530,1,-1.57029,-0.522736,0.000189496,-2.09587,1.57074,1.57166,0.784979,-1.5708,-0.523599,5.28493e-08,-2.0944,1.5708,1.5708,0.785397,0.000543077,0.000803059,-1.36179e-05,0.000279281,-0.000310235,-9.02984e-05,0.000794298,0,0,0,0,0,0,0,-0.605152,-10.3678,-0.559934,20.8963,0.76845,-0.643407,0.149424,-0.582007,-1.19496,-0.143816,2.33981,0.193679,-0.640682,0.221165
4854531,1,-1.57029,-0.522739,0.000185877,-2.09587,1.57074,1.57166,0.784971,-1.5708,-0.523599,5.28493e-08,-2.0944,1.5708,1.5708,0.785397,0.00101166,-0.000114241,-0.0012155,0.000742999,0.000200078,-0.000297558,-0.000894621,0,0,0,0,0,0,0,-0.632923,-10.34,-0.508359,20.8725,0.757463,-0.636998,0.187876,-0.582628,-1.1964,-0.144639,2.34093,0.193772,-0.640658,0.221178
4854532,1,-1.5703,-0.522738,0.000187547,-2.09587,1.57074,1.57166,0.784975,-1.5708,-0.523599,5.28493e-08,-2.0944,1.5708,1.5708,0.785397,-0.00108879,-0.000632973,-0.000253524,0.000495333,0.000133385,3.8987e-05,-0.000121696,0,0,0,0,0,0,0,-0.557545,-10.3162,-0.532163,20.8725,0.757463,-0.643407,0.175059,-0.582438,-1.1961,-0.144003,2.34061,0.193773,-0.640747,0.221157
4854533,1,-1.5703,-0.522736,0.000187547,-2.09587,1.57074,1.57166,0.784971,-1.5708,-0.523599,5.28493e-08,-2.0944,1.5708,1.5708,0.785397,-0.000169051,0.00013483,-0.000169016,0.00153665,-0.000317978,0.00026335,-0.00150528,0,0,0,0,0,0,0,-0.581349,-10.34,-0.532163,20.821,0.76845,-0.649816,0.213511,-0.581435,-1.19358,-0.142145,2.33876,0.193698,-0.640938,0.22112
4854534,1,-1.57029,-0.522741,0.000185877,-2.09587,1.57074,1.57166,0.784975,-1.5708,-0.523599,5.28493e-08,-2.0944,1.5708,1.5708,0.785397,0.00109373,-0.00102374,-0.000669489,-0.000181994,-8.53459e-06,0.000175567,-5.40873e-05,0,0,0,0,0,0,0,-0.632923,-10.2924,-0.508359,20.8725,0.762956,-0.649816,0.187876,-0.580449,-1.18987,-0.140284,2.33612,0.193602,-0.641119,0.221102
4854535,1,-1.57029,-0.522737,0.000191166,-2.09587,1.57074,1.57165,0.78498,-1.5708,-0.523599,5.28493e-08,-2.0944,1.5708,1.5708,0.785397,7.95362e-05,0.000431132,0.00131691,-0.000678141,0.00043512,-0.000357673,0.00189672,0,0,0,0,0,0,0,-0.605152,-10.34,-0.583737,20.8963,0.751055,-0.636998,0.135691,-0.580421,-1.18668,-0.139754,2.33414,0.193573,-0.641168,0.22113
4854536,1,-1.5703,-0.522738,0.000187547,-2.09587,1.57074,1.57165,0.784975,-1.5708,-0.523599,5.28493e-08,-2.0944,1.5708,1.5708,0.785397,-0.000503788,-0.00026939,-0.000328485,0.00131114,0.00029008,0.000236269,-0.000668299,0,0,0,0,0,0,0,-0.581349,-10.3162,-0.532163,20.821,0.751055,-0.649816,0.187876,-0.581192,-1.18506,-0.140465,2.33328,0.19362,-0.641122,0.22119
4854537,1,-1.5703,-0.522736,0.000187547,-2.09587,1.57074,1.57165,0.784978,-1.5708,-0.523599,5.28493e-08,-2.0944,1.5708,1.5708,0.785397,-0.000335859,0.000377218,-0.00021899,0.00143091,0.000396837,-7.98463e-05,0.000741262,0,0,0,0,0,0,0,-0.581349,-10.34,-0.532163,20.7972,0.745561,-0.643407,0.155832,-0.581578,-1.18374,-0.140649,2.33209,0.193632,-0.641149,0.221243
4854538,1,-1.5703,-0.522736,0.000187547,-2.09587,1.57074,1.57166,0.784977,-1.5708,-0.523599,5.28493e-08,-2.0944,1.5708,1.5708,0.785397,-0.000223906,0.000251479,-0.000145993,-0.00136611,6.11075e-05,-5.32308e-05,1.94569e-05,0,0,0,0,0,0,0,-0.581349,-10.34,-0.532163,20.8963,0.751055,-0.643407,0.16865,-0.581319,-1.18328,-0.13986,2.33111,0.193605,-0.641286,0.221275
4854539,1,-1.57029,-0.522736,0.000189496,-2.09587,1.57074,1.57166,0.784974,-1.5708,-0.523599,5.28493e-08,-2.0944,1.5708,1.5708,0.785397,0.000407541,0.000167653,0.000552285,-0.000910741,-0.000196621,-3.54872e-05,-0.000936464,0,0,0,0,0,0,0,-0.605152,-10.34,-0.559934,20.8963,0.757463,-0.643407,0.194285,-0.581231,-1.18535,-0.139366,2.3321,0.193637,-0.641417,0.221275
4854540,1,-1.5703,-0.522737,0.000191166,-2.09587,1.57074,1.57166,0.784977,-1.5708,-0.523599,5.28493e-08,-2.0944,1.5708,1.5708,0.785397,-0.000285118,-0.000445044,0.000925002,-5.03487e-05,-0.000537981,-2.36582e-05,0.000325126,0,0,0,0,0,0,0,-0.581349,-10.3162,-0.583737,20.8725,0.76845,-0.643407,0.16865,-0.581941,-1.18832,-0.14016,2.33416,0.193722,-0.641428,0.221254
4854541,1,-1.5703,-0.522734,0.000185877,-2.09587,1.57074,1.57166,0.784972,-1.5708,-0.523599,5.28493e-08,-2.0944,1.5708,1.5708,0.785397,-0.000190078,0.00090973,-0.00114657,-0.000590378,-0.000358654,-0.000253131,-0.00144476,0,0,0,0,0,0,0,-0.581349,-10.3678,-0.508359,20.8963,0.76845,-0.636998,0.213511,-0.582741,-1.19107,-0.141159,2.33617,0.193802,-0.641418,0.221237
4854542,1,-1.57029,-0.522736,0.000191166,-2.09587,1.57074,1.57166,0.784975,-1.5708,-0.523599,5.28493e-08,-2.0944,1.5708,1.5708,0.785397,0.000430093,-4.31271e-05,0.000998858,0.000163227,0.000405157,0.000305964,-1.37388e-05,0,0,0,0,0,0,0,-0.605152,-10.34,-0.583737,20.8725,0.751055,-0.649816,0.187876,-0.583092,-1.19423,-0.141467,2.3382,0.193869,-0.641472,0.221242
4854543,1,-1.5703,-0.522736,0.000189496,-2.09587,1.57074,1.57166,0.784979,-1.5708,-0.523599,5.28493e-08,-2.0944,1.5708,1.5708,0.785397,-0.000270083,-2.87514e-05,0.000109093,-0.000447994,3.27458e-05,0.000203976,0.00141499,0,0,0,0,0,0,0,-0.581349,-10.34,-0.559934,20.8963,0.757463,-0.649816,0.149424,-0.583671,-1.19686,-0.14214,2.33981,0.193937,-0.641481,0.221294
4854544,1,-1.5703,-0.522738,0.000189496,-2.09587,1.57074,1.57166,0.784974,-1.5708,-0.523599,5.28493e-08,-2.0944,1.5708,1.5708,0.785397,-0.000180056,-1.91676e-05,7.27289e-05,-0.000298663,-0.000385071,-0.000101375,-0.000718183,0,0,0,0,0,0,0,-0.581349,-10.34,-0.559934,20.8963,0.76845,-0.643407,0.194285,-0.584291,-1.19841,-0.142964,2.34088,0.193992,-0.641471,0.221383
4854545,1,-1.5703,-0.522736,0.000187547,-2.09587,1.57074,1.57165,0.784978,-1.5708,-0.523599,5.28493e-08,-2.0944,1.5708,1.5708,0.785397,0.000436775,-1.27784e-05,-0.000601128,0.000357703,-0.000256714,-0.000304942,0.000945365,0,0,0,0,0,0,0,-0.605152,-10.34,-0.532163,20.8725,0.76845,-0.636998,0.155832,-0.584488,-1.19919,-0.143153,2.34151,0.194017,-0.641517,0.22148
4854546,1,-1.5703,-0.522734,0.000185877,-2.09587,1.57074,1.57166,0.784976,-1.5708,-0.523599,5.28493e-08,-2.0944,1.5708,1.5708,0.785397,-0.000265629,0.000641095,-0.000957564,-0.000318343,3.23081e-05,3.40641e-05,-8.18335e-05,0,0,0,0,0,0,0,-0.581349,-10.3678,-0.508359,20.8963,0.762956,-0.643407,0.175059,-0.5841,-1.19977,-0.142352,2.34181,0.194012,-0.641646,0.221572
4854547,1,-1.5703,-0.522738,0.000189496,-2.09588,1.57074,1.57166,0.784975,-1.5708,-0.523599,5.28493e-08,-2.0944,1.5708,1.5708,0.785397,-0.000177086,-0.000222217,0.00056805,-0.000769041,0.000462348,0.000260068,-0.000529274,0,0,0,0,0,0,0,-0.581349,-10.34,-0.559934,20.9201,0.751055,-0.649816,0.187876,-0.583281,-1.20097,-0.140876,2.34247,0.194022,-0.641839,0.221643
4854548,1,-1.57029,-0.522735,0.000189496,-2.09587,1.57074,1.57166,0.78498,-1.5708,-0.523599,5.28493e-08,-2.0944,1.5708,1.5708,0.785397,0.00108837,0.000501469,0.0003787,0.00125054,7.08732e-05,0.000173379,0.00130866,0,0,0,0,0,0,0,-0.632923,-10.3678,-0.559934,20.8448,0.757463,-0.649816,0.143015,-0.583146,-1.202,-0.140469,2.34303,0.194067,-0.641925,0.221696
4854549,1,-1.5703,-0.522736,0.000187547,-2.09587,1.57074,1.57166,0.784975,-1.5708,-0.523599,5.28493e-08,-2.0944,1.5708,1.5708,0.785397,-0.000480847,-0.000315301,-0.000397147,0.000833696,-0.000563103,-0.000121773,-0.00078907,0,0,0,0,0,0,0,-0.581349,-10.34,-0.532163,20.8448,0.773943,-0.643407,0.187876,-0.58378,-1.20158,-0.14117,2.34237,0.194092,-0.641893,0.221738
4854550,1,-1.5703,-0.522738,0.000185877,-2.09587,1.57074,1.57166,0.784973,-1.5708,-0.523599,5.28493e-08,-2.0944,1.5708,1.5708,0.785397,-0.000877376,-0.000767013,-0.000821577,0.000555797,3.14992e-05,-0.000318541,-0.00100076,0,0,0,0,0,0,0,-0.557545,-10.3162,-0.508359,20.8448,0.762956,-0.636998,0.200693,-0.583743,-1.19905,-0.140838,2.34026,0.194043,-0.641945,0.221757
4854551,1,-1.5703,-0.522737,0.000189496,-2.09587,1.57074,1.57166,0.784977,-1.5708,-0.523599,5.28493e-08,-2.0944,1.5708,1.5708,0.785397,-2.81057e-05,-0.000511342,0.000658708,-0.000835894,0.000461809,2.49983e-05,0.000519618,0,0,0,0,0,0,0,-0.581349,-10.3162,-0.559934,20.8963,0.751055,-0.643407,0.16865,-0.582975,-1.19521,-0.139478,2.33774,0.193974,-0.64208,0.221767
4854552,1,-1.5703,-0.522736,0.000191166,-2.09587,1.57074,1.57166,0.784972,-1.5708,-0.523599,5.28493e-08,-2.0944,1.5708,1.5708,0.785397,-1.87371e-05,0.000215917,0.000995951,0.000649163,0.000307873,0.000254024,-0.00107774,0,0,0,0,0,0,0,-0.581349,-10.34,-0.583737,20.8448,0.751055,-0.649816,0.207102,-0.582914,-1.19204,-0.139315,2.33598,0.193975,-0.642101,0.221792
4854553,1,-1.5703,-0.522734,0.000189496,-2.09587,1.57074,1.57165,0.78498,-1.5708,-0.523599,5.28493e-08,-2.0944,1.5708,1.5708,0.785397,-0.000569303,0.000793559,0.000107155,-0.000216839,-0.000235561,-6.80093e-05,0.00192636,0,0,0,0,0,0,0,-0.557545,-10.3678,-0.559934,20.8725,0.762956,-0.643407,0.135691,-0.583636,-1.19106,-0.140496,2.33532,0.194043,-0.642024,0.221843
4854554,1,-1.5703,-0.522736,0.000187547,-2.09587,1.57074,1.57165,0.784975,-1.5708,-0.523599,5.28493e-08,-2.0944,1.5708,1.5708,0.785397,-0.000379536,0.000529039,-0.000578177,-0.000701371,-0.000360491,-0.000282698,-0.000411179,0,0,0,0,0,0,0,-0.557545,-10.3678,-0.532163,20.8963,0.76845,-0.636998,0.181467,-0.583928,-1.19294,-0.141153,2.33614,0.194134,-0.642038,0.221908
4854555,1,-1.57029,-0.522736,0.000187547,-2.09587,1.57074,1.57166,0.784976,-1.5708,-0.523599,5.28493e-08,-2.0944,1.5708,1.5708,0.785397,0.00151021,-0.000296921,-0.000385451,-0.000467581,-0.000240327,-0.000663184,-3.67606e-05,0,0,0,0,0,0,0,-0.632923,-10.34,-0.532163,20.8963,0.76845,-0.624181,0.175059,-0.583778,-1.19625,-0.141083,2.33799,0.194235,-0.642116,0.221958
4854556,1,-1.57029,-0.522736,0.000189496,-2.09587,1.57074,1.57166,0.784977,-1.5708,-0.523599,5.28493e-08,-2.0944,1.5708,1.5708,0.785397,0.000357195,-0.000197947,0.000392646,0.000245091,4.32322e-05,0.000269954,0.000450211,0,0,0,0,0,0,0,-0.605152,-10.34,-0.559934,20.8725,0.762956,-0.643407,0.162241,-0.584174,-1.19843,-0.141651,2.3394,0.194339,-0.642073,0.221987
4854557,1,-1.5703,-0.522738,0.000189496,-2.09587,1.57074,1.57166,0.784973,-1.5708,-0.523599,5.28493e-08,-2.0944,1.5708,1.5708,0.785397,-0.000875494,-0.000688777,0.000261764,0.000163394,0.000469631,0.00017997,-0.00112401,0,0,0,0,0,0,0,-0.557545,-10.3162,-0.559934,20.8725,0.751055,-0.643407,0.200693,-0.584921,-1.19841,-0.142749,2.33955,0.194425,-0.641932,0.222001
4854558,1,-1.5703,-0.522737,0.000187547,-2.09587,1.57074,1.57166,0.784978,-1.5708,-0.523599,5.28493e-08,-2.0944,1.5708,1.5708,0.785397,-2.68504e-05,-0.000459185,-0.000475104,-0.000447882,-0.000127722,-0.000354738,0.000912171,0,0,0,0,0,0,0,-0.581349,-10.3162,-0.532163,20.8963,0.762956,-0.63059,0.155832,-0.585134,-1.19668,-0.143175,2.3388,0.194473,-0.641834,0.222005
4854559,1,-1.5703,-0.522737,0.000185877,-2.09587,1.57074,1.57166,0.784978,-1.5708,-0.523599,5.28493e-08,-2.0944,1.5708,1.5708,0.785397,-0.000574712,-0.000306123,-0.000873548,-0.000298588,0.000118302,0.000238226,0.000608114,0,0,0,0,0,0,0,-0.557545,-10.3162,-0.508359,20.8963,0.757463,-0.643407,0.155832,-0.584452,-1.19465,-0.142279,2.33805,0.194484,-0.641848,0.222006
4854560,1,-1.5703,-0.522737,0.000187547,-2.09587,1.57074,1.57166,0.784973,-1.5708,-0.523599,5.28493e-08,-2.0944,1.5708,1.5708,0.785397,-0.000383141,-0.000204082,-2.55536e-05,0.000357753,-0.000124582,-7.85417e-05,-0.0012561,0,0,0,0,0,0,0,-0.557545,-10.3162,-0.532163,20.8725,0.762956,-0.636998,0.200693,-0.583083,-1.19298,-0.140348,2.33749,0.19447,-0.641953,0.221991
4854561,1,-1.5703,-0.52274,0.000187547,-2.09587,1.57074,1.57166,0.784978,-1.5708,-0.523599,5.28493e-08,-2.0944,1.5708,1.5708,0.785397,0.000301384,-0.000136055,-1.70357e-05,-0.00031831,-0.000286505,0.000422357,0.00082411,0,0,0,0,0,0,0,-0.581349,-10.3162,-0.532163,20.8963,0.76845,-0.649816,0.155832,-0.581878,-1.19166,-0.1387,2.33699,0.194462,-0.642028,0.221957
4854562,1,-1.5703,-0.522733,0.000185877,-2.09587,1.57074,1.57166,0.784975,-1.5708,-0.523599,5.28493e-08,-2.0944,1.5708,1.5708,0.785397,0.000200923,0.00167253,-0.000568169,0.000344605,0.000453256,-0.000193147,-0.000400029,0,0,0,0,0,0,0,-0.581349,-10.3916,-0.508359,20.8725,0.751055,-0.636998,0.181467,-0.581222,-1.19224,-0.137845,2.3373,0.194499,-0.642042,0.221919
4854563,1,-1.5703,-0.522732,0.000187547,-2.09587,1.57074,1.57166,0.784977,-1.5708,-0.523599,5.28493e-08,-2.0944,1.5708,1.5708,0.785397,-0.000422863,0.00111502,0.000178033,0.000229737,-0.000342089,0.000345953,0.000445391,0,0,0,0,0,0,0,-0.557545,-10.3916,-0.532163,20.8725,0.76845,-0.649816,0.162241,-0.580759,-1.19615,-0.137233,2.33897,0.194585,-0.642073,0.221875
4854564,1,-1.5703,-0.522739,0.000191166,-2.09587,1.57074,1.57166,0.784976,-1.5708,-0.523599,5.28493e-08,-2.0944,1.5708,1.5708,0.785397,-0.000281909,-0.0015767,0.00132511,0.000802772,0.000619651,-0.000244082,-0.000177791,0,0,0,0,0,0,0,-0.557545,-10.2924,-0.583737,20.8448,0.745561,-0.636998,0.175059,-0.580761,-1.1997,-0.137433,2.34022,0.194677,-0.642035,0.221827
4854565,1,-1.5703,-0.522737,0.000187547,-2.09587,1.57074,1.57166,0.784973,-1.5708,-0.523599,5.28493e-08,-2.0944,1.5708,1.5708,0.785397,0.000925685,-0.000494322,-0.000323016,-0.000114433,-2.77087e-05,7.46374e-05,-0.00106796,0,0,0,0,0,0,0,-0.605152,-10.3162,-0.532163,20.8725,0.757463,-0.643407,0.200693,-0.581622,-1.1989,-0.139017,2.33939,0.194728,-0.641815,0.221775
4854566,1,-1.57029,-0.522736,0.000187547,-2.09587,1.57074,1.57166,0.784977,-1.5708,-0.523599,5.28493e-08,-2.0944,1.5708,1.5708,0.785397,0.000617123,0.000227264,-0.000215344,-7.62885e-05,-1.84725e-05,4.97583e-05,0.000474819,0,0,0,0,0,0,0,-0.605152,-10.34,-0.532163,20.8725,0.757463,-0.643407,0.16865,-0.582803,-1.19633,-0.140957,2.33792,0.194751,-0.641527,0.22173
4854567,1,-1.57029,-0.522732,0.000189496,-2.09587,1.57074,1.57166,0.784975,-1.5708,-0.523599,5.28493e-08,-2.0944,1.5708,1.5708,0.785397,0.000411415,0.00135794,0.000506051,-0.000607671,-0.000215765,3.31722e-05,-0.000158172,0,0,0,0,0,0,0,-0.605152,-10.3916,-0.559934,20.8963,0.762956,-0.643407,0.181467,-0.583947,-1.19638,-0.142708,2.33796,0.194805,-0.641287,0.221704
4854568,1,-1.57029,-0.522736,0.000187547,-2.09587,1.57074,1.57166,0.784979,-1.5708,-0.523599,5.28493e-08,-2.0944,1.5708,1.5708,0.785397,0.000274277,-0.000301136,-0.000312247,0.000151698,0.000296966,0.000259474,0.00108135,0,0,0,0,0,0,0,-0.605152,-10.34,-0.532163,20.8725,0.751055,-0.649816,0.149424,-0.585022,-1.19904,-0.144305,2.33941,0.194894,-0.641107,0.221697
4854569,1,-1.5703,-0.522734,0.000189496,-2.09587,1.57074,1.57166,0.784976,-1.5708,-0.523599,5.28493e-08,-2.0944,1.5708,1.5708,0.785397,0.000182851,0.000448857,0.00044145,0.000101132,-0.000242832,-6.43765e-05,-0.000228538,0,0,0,0,0,0,0,-0.605152,-10.3678,-0.559934,20.8725,0.762956,-0.643407,0.175059,-0.585844,-1.20151,-0.145465,2.3407,0.194958,-0.640986,0.221694
4854570,1,-1.5703,-0.522736,0.000189496,-2.09587,1.57074,1.57166,0.784972,-1.5708,-0.523599,5.28493e-08,-2.0944,1.5708,1.5708,0.785397,-0.000434911,-0.000350376,0.0002943,-0.000489391,0.000278921,0.000194441,-0.00157651,0,0,0,0,0,0,0,-0.581349,-10.34,-0.559934,20.8963,0.751055,-0.649816,0.213511,-0.586454,-1.20295,-0.146309,2.34145,0.194992,-0.640906,0.221676
4854571,1,-1.5703,-0.522737,0.000187547,-2.09587,1.57074,1.57166,0.784978,-1.5708,-0.523599,5.28493e-08,-2.0944,1.5708,1.5708,0.785397,0.000266871,-0.000790396,-0.000453414,-0.00032626,-0.000254862,0.000366986,0.00108522,0,0,0,0,0,0,0,-0.605152,-10.3162,-0.532163,20.8963,0.762956,-0.656224,0.155832,-0.586698,-1.20309,-0.146617,2.34178,0.194997,-0.640887,0.221656
4854572,1,-1.5703,-0.522737,0.000187547,-2.09587,1.57074,1.57166,0.784975,-1.5708,-0.523599,5.28493e-08,-2.0944,1.5708,1.5708,0.785397,-0.000378898,-0.000526931,-0.000302276,0.000339305,-0.000373358,-0.00023006,-0.000463313,0,0,0,0,0,0,0,-0.581349,-10.3162,-0.532163,20.8725,0.76845,-0.643407,0.187876,-0.586354,-1.20126,-0.145968,2.34123,0.194942,-0.640959,0.22166
4854573,1,-1.5703,-0.522736,0.000187547,-2.09588,1.57074,1.57165,0.784978,-1.5708,-0.523599,5.28493e-08,-2.0944,1.5708,1.5708,0.785397,-0.000252599,0.000205525,-0.000201517,-0.00144423,-0.000248906,-0.000390732,0.000877919,0,0,0,0,0,0,0,-0.581349,-10.34,-0.532163,20.9439,0.76845,-0.636998,0.155832,-0.585558,-1.19921,-0.144587,2.34066,0.194869,-0.641118,0.221682
4854574,1,-1.5703,-0.522736,0.000187547,-2.09588,1.57074,1.57166,0.78498,-1.5708,-0.523599,5.28493e-08,-2.0944,1.5708,1.5708,0.785397,-0.000168399,0.000137017,-0.000134345,-0.00040601,0.000478323,-0.000260488,0.00133126,0,0,0,0,0,0,0,-0.581349,-10.34,-0.532163,20.9201,0.751055,-0.636998,0.135691,-0.584628,-1.19913,-0.143008,2.34137,0.194848,-0.641325,0.221701
4854575,1,-1.5703,-0.522734,0.000189496,-2.09587,1.57074,1.57165,0.784972,-1.5708,-0.523599,5.28493e-08,-2.0944,1.5708,1.5708,0.785397,-0.000112266,0.000740958,0.000560051,0.000842951,8.1523e-05,-0.000173659,-0.00199471,0,0,0,0,0,0,0,-0.581349,-10.3678,-0.559934,20.8725,0.757463,-0.636998,0.213511,-0.584014,-1.20053,-0.141917,2.34268,0.194867,-0.641496,0.221692
4854576,1,-1.57029,-0.522736,0.000189496,-2.09587,1.57074,1.57166,0.784978,-1.5708,-0.523599,5.28493e-08,-2.0944,1.5708,1.5708,0.785397,0.000481968,-0.000155642,0.000373367,5.15522e-06,-0.000149102,0.000358945,0.000806427,0,0,0,0,0,0,0,-0.605152,-10.34,-0.559934,20.8963,0.762956,-0.649816,0.155832,-0.58413,-1.2019,-0.141946,2.34345,0.194895,-0.641551,0.221648
4854577,1,-1.5703,-0.522736,0.000185877,-2.09587,1.57074,1.57166,0.784971,-1.5708,-0.523599,5.28493e-08,-2.0944,1.5708,1.5708,0.785397,-0.0002355,-0.000103761,-0.000957514,0.000560249,0.000104049,-0.00047278,-0.000886536,0,0,0,0,0,0,0,-0.581349,-10.34,-0.508359,20.8725,0.757463,-0.63059,0.194285,-0.584478,-1.20223,-0.142281,2.34343,0.194899,-0.641549,0.221596
4854578,1,-1.57029,-0.522737,0.000185877,-2.09587,1.57074,1.57166,0.784973,-1.5708,-0.523599,5.28493e-08,-2.0944,1.5708,1.5708,0.785397,0.000399812,-0.000625986,-0.000638343,0.000373499,0.000306725,0.000159531,-0.000591024,0,0,0,0,0,0,0,-0.605152,-10.3162,-0.508359,20.8725,0.751055,-0.643407,0.194285,-0.584201,-1.20092,-0.141535,2.34249,0.194838,-0.641609,0.221551
4854579,1,-1.5703,-0.522738,0.000187547,-2.09587,1.57074,1.57166,0.784979,-1.5708,-0.523599,5.28493e-08,-2.0944,1.5708,1.5708,0.785397,-0.000290271,0.000139488,0.00013125,-0.000307813,-3.28755e-05,0.000106354,0.0012675,0,0,0,0,0,0,0,-0.581349,-10.34,-0.532163,20.8963,0.757463,-0.643407,0.149424,-0.583594,-1.19878,-0.140195,2.34119,0.194747,-0.641694,0.221529
4854580,1,-1.5703,-0.522735,0.000187547,-2.09587,1.57074,1.57166,0.784969,-1.5708,-0.523599,5.28493e-08,-2.0944,1.5708,1.5708,0.785397,-0.000193514,0.000742606,8.75e-05,0.000351604,-0.000225368,7.09028e-05,-0.00129123,0,0,0,0,0,0,0,-0.581349,-10.3678,-0.532163,20.8725,0.762956,-0.643407,0.207102,-0.583208,-1.19795,-0.139236,2.34069,0.194688,-0.641753,0.221531
4854581,1,-1.57029,-0.522738,0.000187547,-2.09588,1.57074,1.57166,0.784977,-1.5708,-0.523599,5.28493e-08,-2.0944,1.5708,1.5708,0.785397,0.000427803,-0.000711355,5.83333e-05,-0.00143603,0.000290564,4.72685e-05,0.00103805,0,0,0,0,0,0,0,-0.605152,-10.3162,-0.532163,20.9439,0.751055,-0.643407,0.155832,-0.583193,-1.19871,-0.138886,2.34127,0.194681,-0.641769,0.221547
4854582,1,-1.5703,-0.522736,0.000187547,-2.09587,1.57074,1.57166,0.784979,-1.5708,-0.523599,5.28493e-08,-2.0944,1.5708,1.5708,0.785397,-0.00027161,0.000732189,3.88889e-05,0.000156268,0.00039716,-0.000205847,0.000929392,0,0,0,0,0,0,0,-0.581349,-10.3678,-0.532163,20.8963,0.745561,-0.636998,0.149424,-0.583509,-1.20007,-0.139023,2.34256,0.194707,-0.641736,0.221575
4854583,1,-1.57029,-0.522738,0.000187547,-2.09587,1.57074,1.57166,0.784974,-1.5708,-0.523599,5.28493e-08,-2.0944,1.5708,1.5708,0.785397,0.000375739,-0.0007183,2.59259e-05,0.000660991,6.13229e-05,0.000100128,-0.00104192,0,0,0,0,0,0,0,-0.605152,-10.3162,-0.532163,20.8725,0.751055,-0.643407,0.194285,-0.583957,-1.20098,-0.139324,2.34355,0.194707,-0.641675,0.221595
4854584,1,-1.5703,-0.522732,0.000187547,-2.09587,1.57074,1.57165,0.784979,-1.5708,-0.523599,5.28493e-08,-2.0944,1.5708,1.5708,0.785397,-0.00030632,0.00128437,1.72839e-05,-0.000116151,-0.000399928,-0.000170607,0.000966901,0,0,0,0,0,0,0,-0.581349,-10.3916,-0.532163,20.8963,0.762956,-0.636998,0.149424,-0.584428,-1.2014,-0.139628,2.34391,0.194662,-0.641607,0.221592
4854585,1,-1.57029,-0.522736,0.000184206,-2.09587,1.57074,1.57166,0.784972,-1.5708,-0.523599,5.28493e-08,-2.0944,1.5708,1.5708,0.785397,0.000352599,-0.000350178,-0.0011021,0.000479378,-0.000266618,0.00036098,-0.00149163,0,0,0,0,0,0,0,-0.605152,-10.34,-0.484555,20.8725,0.762956,-0.649816,0.207102,-0.584543,-1.20245,-0.139334,2.34439,0.19459,-0.641602,0.221569
4854586,1,-1.5703,-0.522737,0.000189496,-2.09588,1.57074,1.57166,0.784972,-1.5708,-0.523599,5.28493e-08,-2.0944,1.5708,1.5708,0.785397,-0.000321746,-0.000790264,0.0010285,-0.000794039,2.5705e-05,3.2943e-06,-0.00099442,0,0,0,0,0,0,0,-0.581349,-10.3162,-0.559934,20.9201,0.757463,-0.643407,0.207102,-0.584423,-1.20275,-0.138633,2.34461,0.194502,-0.641622,0.221539
4854587,1,-1.5703,-0.522737,0.000187365,-2.09587,1.57074,1.57166,0.784979,-1.5708,-0.523599,5.28493e-08,-2.0944,1.5708,1.5708,0.785397,-0.000771309,-0.000526843,0.000685669,2.74528e-05,0.000457946,-0.000235163,0.00147328,0,0,0,0,0,0,0,-0.557545,-10.3162,-0.559934,20.8963,0.745561,-0.636998,0.149424,-0.584754,-1.20119,-0.138749,2.34428,0.19443,-0.641548,0.221536
4854588,1,-1.5703,-0.522739,0.000186837,-2.09587,1.57074,1.57166,0.784975,-1.5708,-0.523599,5.28493e-08,-2.0944,1.5708,1.5708,0.785397,4.26058e-05,-0.00090804,-0.000192501,1.83018e-05,0.000305297,8.05838e-05,-0.000441964,0,0,0,0,0,0,0,-0.581349,-10.2924,-0.532163,20.8963,0.745561,-0.643407,0.187876,-0.585302,-1.19832,-0.139367,2.34348,0.194356,-0.641421,0.221577
4854589,1,-1.57029,-0.522736,0.000189259,-2.09587,1.57074,1.57166,0.784978,-1.5708,-0.523599,5.28493e-08,-2.0944,1.5708,1.5708,0.785397,0.000585216,0.000508264,0.00052128,0.000569013,-0.000440728,0.000291081,0.000892152,0,0,0,0,0,0,0,-0.605152,-10.34,-0.559934,20.8725,0.762956,-0.649816,0.155832,-0.585881,-1.19516,-0.140039,2.34236,0.194253,-0.641287,0.221638
4854590,1,-1.5703,-0.522736,0.000191087,-2.09587,1.57074,1.57166,0.784978,-1.5708,-0.523599,5.28493e-08,-2.0944,1.5708,1.5708,0.785397,-0.000166668,0.000338842,0.000904332,0.00102896,-0.000497269,-4.33046e-05,0.000594768,0,0,0,0,0,0,0,-0.581349,-10.34,-0.583737,20.8448,0.76845,-0.643407,0.155832,-0.586939,-1.19333,-0.141448,2.34148,0.194159,-0.641109,0.221699
4854591,1,-1.5703,-0.522736,0.00018418,-2.09587,1.57074,1.57166,0.784972,-1.5708,-0.523599,5.28493e-08,-2.0944,1.5708,1.5708,0.785397,-0.000111112,0.000225895,-0.00171716,0.000685971,7.53881e-05,0.000208489,-0.00173972,0,0,0,0,0,0,0,-0.581349,-10.34,-0.484555,20.8448,0.757463,-0.649816,0.213511,-0.587666,-1.19275,-0.142391,2.34071,0.194055,-0.641013,0.221737
4854592,1,-1.57029,-0.522734,0.000189487,-2.09588,1.57074,1.57166,0.784978,-1.5708,-0.523599,5.28493e-08,-2.0944,1.5708,1.5708,0.785397,0.00113235,0.000800211,0.000618463,-0.00130592,-0.000153192,-0.000335725,0.000976418,0,0,0,0,0,0,0,-0.632923,-10.3678,-0.559934,20.9201,0.762956,-0.636998,0.155832,-0.587585,-1.19383,-0.142018,2.34082,0.193966,-0.641064,0.221749
4854593,1,-1.5703,-0.522738,0.000187544,-2.09587,1.57074,1.57166,0.784975,-1.5708,-0.523599,5.28493e-08,-2.0944,1.5708,1.5708,0.785397,-0.000451525,-0.00011614,-0.000237305,0.000243008,0.000542132,1.35422e-05,-0.000535849,0,0,0,0,0,0,0,-0.581349,-10.34,-0.532163,20.8725,0.745561,-0.643407,0.187876,-0.58764,-1.19683,-0.141785,2.34238,0.19395,-0.641117,0.221756
4854594,1,-1.5703,-0.522736,0.000191165,-2.09587,1.57074,1.57166,0.784976,-1.5708,-0.523599,5.28493e-08,-2.0944,1.5708,1.5708,0.785397,-0.000301017,-7.74268e-05,0.00104822,-0.000394807,-0.000486289,0.000246387,0.000117485,0,0,0,0,0,0,0,-0.581349,-10.34,-0.583737,20.8963,0.76845,-0.649816,0.175059,-0.587932,-1.19954,-0.142023,2.34407,0.193969,-0.641133,0.221767
4854595,1,-1.5703,-0.522741,0.000182257,-2.09587,1.57074,1.57166,0.784976,-1.5708,-0.523599,5.28493e-08,-2.0944,1.5708,1.5708,0.785397,-0.000200678,-0.00116524,-0.00227085,0.000293607,-0.000120742,0.000164258,7.83233e-05,0,0,0,0,0,0,0,-0.581349,-10.2924,-0.456784,20.8725,0.762956,-0.649816,0.175059,-0.587615,-1.20009,-0.141415,2.34472,0.193943,-0.641221,0.221784
4854596,1,-1.57029,-0.522735,0.000185877,-2.09587,1.57074,1.57166,0.784973,-1.5708,-0.523599,5.28493e-08,-2.0944,1.5708,1.5708,0.785397,0.000423027,0.00098641,-0.000307473,-0.000361074,0.000360315,-0.000127854,-0.00089722,0,0,0,0,0,0,0,-0.605152,-10.3678,-0.508359,20.8963,0.751055,-0.643407,0.200693,-0.586242,-1.19939,-0.139061,2.34471,0.193858,-0.64146,0.221806
4854597,1,-1.5703,-0.522734,0.000189496,-2.09587,1.57074,1.57166,0.784979,-1.5708,-0.523599,5.28493e-08,-2.0944,1.5708,1.5708,0.785397,-0.000274794,0.000657607,0.00100144,0.000316096,0.00024021,-8.52357e-05,0.00130072,0,0,0,0,0,0,0,-0.581349,-10.3678,-0.559934,20.8725,0.751055,-0.643407,0.149424,-0.585078,-1.20028,-0.136932,2.34533,0.193809,-0.641697,0.221838
4854598,1,-1.5703,-0.522738,0.000187547,-2.09587,1.57074,1.57166,0.784977,-1.5708,-0.523599,5.28493e-08,-2.0944,1.5708,1.5708,0.785397,-0.00138962,-0.000768021,1.80152e-05,-0.000346081,-0.00028067,-0.000294183,0.000155073,0,0,0,0,0,0,0,-0.529774,-10.3162,-0.532163,20.8963,0.762956,-0.636998,0.16865,-0.584731,-1.20203,-0.136219,2.3463,0.193811,-0.641825,0.221885
4854599,1,-1.5703,-0.522736,0.000187547,-2.09587,1.57074,1.57166,0.784975,-1.5708,-0.523599,5.28493e-08,-2.0944,1.5708,1.5708,0.785397,-0.000276801,4.47976e-05,1.20101e-05,0.000975705,1.63374e-05,-0.000196122,-0.000608695,0,0,0,0,0,0,0,-0.557545,-10.34,-0.532163,20.8448,0.757463,-0.636998,0.187876,-0.584268,-1.20204,-0.13555,2.34633,0.193782,-0.641938,0.221925
4854600,1,-1.57029,-0.522738,0.000189496,-2.09587,1.57074,1.57166,0.784975,-1.5708,-0.523599,5.28493e-08,-2.0944,1.5708,1.5708,0.785397,0.00092909,2.98651e-05,0.000657621,0.00065047,1.08916e-05,0.00034397,-0.000168438,0,0,0,0,0,0,0,-0.605152,-10.34,-0.559934,20.8448,0.757463,-0.649816,0.181467,-0.584129,-1.20065,-0.135418,2.34532,0.193729,-0.641969,0.221951
4854601,1,-1.5703,-0.522739,0.000193115,-2.09587,1.57074,1.57166,0.784973,-1.5708,-0.523599,5.28493e-08,-2.0944,1.5708,1.5708,0.785397,-0.000494231,1.99101e-05,0.00164484,-0.000215967,-0.000196189,-8.04561e-06,-0.000824369,0,0,0,0,0,0,0,-0.557545,-10.34,-0.611508,20.8725,0.762956,-0.643407,0.200693,-0.585233,-1.19925,-0.137229,2.34412,0.193721,-0.641801,0.221978
4854602,1,-1.5703,-0.522737,0.000189496,-2.09587,1.57074,1.57166,0.784975,-1.5708,-0.523599,5.28493e-08,-2.0944,1.5708,1.5708,0.785397,0.000227325,1.32734e-05,-0.000109866,-0.00070079,7.26576e-05,0.000231995,-7.48612e-05,0,0,0,0,0,0,0,-0.581349,-10.34,-0.559934,20.8963,0.757463,-0.649816,0.187876,-0.586964,-1.19881,-0.140183,2.34373,0.193779,-0.641538,0.222023
4854603,1,-1.5703,-0.522732,0.000189496,-2.09588,1.57074,1.57166,0.784975,-1.5708,-0.523599,5.28493e-08,-2.0944,1.5708,1.5708,0.785397,0.00015155,0.00121527,-7.32441e-05,-0.00102401,-0.000155012,-8.26955e-05,0.000187452,0,0,0,0,0,0,0,-0.581349,-10.3916,-0.559934,20.9201,0.762956,-0.643407,0.181467,-0.588169,-1.20065,-0.142441,2.34494,0.193882,-0.641373,0.222096
4854604,1,-1.5703,-0.522736,0.000187547,-2.09587,1.57074,1.57166,0.784975,-1.5708,-0.523599,5.28493e-08,-2.0944,1.5708,1.5708,0.785397,0.000101033,-0.000396243,-0.000698443,0.00163738,0.000100109,-5.51303e-05,-0.000112391,0,0,0,0,0,0,0,-0.581349,-10.34,-0.532163,20.821,0.757463,-0.643407,0.187876,-0.58845,-1.20375,-0.143262,2.34671,0.193966,-0.641363,0.222204
4854605,1,-1.5703,-0.522737,0.000187547,-2.09587,1.57074,1.57166,0.784975,-1.5708,-0.523599,5.28493e-08,-2.0944,1.5708,1.5708,0.785397,-0.000489456,-0.000820974,-0.000465629,-0.00011484,-0.000340162,-3.67535e-05,0.000162431,0,0,0,0,0,0,0,-0.557545,-10.3162,-0.532163,20.8725,0.76845,-0.643407,0.181467,-0.587768,-1.20427,-0.142583,2.34668,0.193948,-0.641471,0.222344
4854606,1,-1.57029,-0.522739,0.000189496,-2.09588,1.57074,1.57166,0.784972,-1.5708,-0.523599,5.28493e-08,-2.0944,1.5708,1.5708,0.785397,0.00078732,-0.00110413,0.000339195,-0.00119018,-2.33239e-05,-2.45024e-05,-0.000841148,0,0,0,0,0,0,0,-0.605152,-10.2924,-0.559934,20.9201,0.762956,-0.643407,0.207102,-0.586794,-1.20182,-0.141476,2.34533,0.193886,-0.641582,0.222505
4854607,1,-1.57029,-0.522736,0.000187547,-2.09587,1.57074,1.57166,0.784975,-1.5708,-0.523599,5.28493e-08,-2.0944,1.5708,1.5708,0.785397,0.00117449,0.00102715,-0.000423484,0.000969782,0.00042526,-1.63349e-05,0.000151311,0,0,0,0,0,0,0,-0.632923,-10.3678,-0.532163,20.8448,0.751055,-0.643407,0.187876,-0.586538,-1.19937,-0.141376,2.34432,0.193876,-0.641582,0.222689
4854608,1,-1.5703,-0.522736,0.000185877,-2.09587,1.57074,1.57166,0.784977,-1.5708,-0.523599,5.28493e-08,-2.0944,1.5708,1.5708,0.785397,-0.00042343,3.51545e-05,-0.000839135,-0.000559904,4.61479e-05,-1.08899e-05,0.00105031,0,0,0,0,0,0,0,-0.581349,-10.34,-0.508359,20.8963,0.757463,-0.643407,0.162241,-0.586475,-1.19886,-0.141387,2.34405,0.193894,-0.641587,0.222903
4854609,1,-1.5703,-0.52274,0.000189496,-2.09587,1.57074,1.57165,0.784977,-1.5708,-0.523599,5.28493e-08,-2.0944,1.5708,1.5708,0.785397,-0.000282287,-0.000533376,0.000647003,0.000183542,0.000268124,-0.000244619,0.000700207,0,0,0,0,0,0,0,-0.581349,-10.3162,-0.559934,20.8725,0.751055,-0.636998,0.162241,-0.585937,-1.19919,-0.140649,2.34409,0.193902,-0.64168,0.223133
4854610,1,-1.57029,-0.52274,0.000191166,-2.09587,1.57074,1.57165,0.784976,-1.5708,-0.523599,5.28493e-08,-2.0944,1.5708,1.5708,0.785397,0.000368621,-0.000912396,0.000988147,-0.00043445,-0.000465511,7.42797e-05,-7.91343e-06,0,0,0,0,0,0,0,-0.605152,-10.2924,-0.583737,20.8963,0.76845,-0.643407,0.175059,-0.585887,-1.19818,-0.140752,2.34367,0.193913,-0.641683,0.223345
4854611,1,-1.57029,-0.522739,0.000187547,-2.09588,1.57074,1.57166,0.784969,-1.5708,-0.523599,5.28493e-08,-2.0944,1.5708,1.5708,0.785397,0.000245747,-0.000608264,-0.000547661,-0.00140326,0.00033392,4.95198e-05,-0.00142943,0,0,0,0,0,0,0,-0.605152,-10.2924,-0.532163,20.9439,0.751055,-0.643407,0.213511,-0.586587,-1.19617,-0.142009,2.34319,0.193951,-0.641557,0.223513
4854612,1,-1.57029,-0.522738,0.000189496,-2.09587,1.57074,1.57166,0.784972,-1.5708,-0.523599,5.28493e-08,-2.0944,1.5708,1.5708,0.785397,0.000163831,0.000151303,0.000284507,0.000178119,-0.000218196,-0.000204346,0.000471201,0,0,0,0,0,0,0,-0.605152,-10.3162,-0.559934,20.8963,0.762956,-0.636998,0.175059,-0.587195,-1.19483,-0.143034,2.34342,0.194005,-0.64145,0.223651
4854613,1,-1.5703,-0.522736,0.000185877,-2.09587,1.57074,1.57166,0.784977,-1.5708,-0.523599,5.28493e-08,-2.0944,1.5708,1.5708,0.785397,-0.000447591,0.00130729,-0.00101675,-0.000438066,5.79863e-05,-0.000136231,0.00126357,0,0,0,0,0,0,0,-0.581349,-10.3678,-0.508359,20.9201,0.757463,-0.636998,0.149424,-0.587198,-1.19575,-0.143048,2.34458,0.194053,-0.641466,0.223789
4854614,1,-1.57029,-0.522738,0.000187547,-2.09587,1.57074,1.57166,0.784973,-1.5708,-0.523599,5.28493e-08,-2.0944,1.5708,1.5708,0.785397,0.000908032,-0.000334896,-0.000121025,0.00147119,0.000276016,0.000146539,-0.000819133,0,0,0,0,0,0,0,-0.632923,-10.3162,-0.532163,20.8448,0.751055,-0.643407,0.194285,-0.58664,-1.19817,-0.142066,2.34595,0.194069,-0.641589,0.223919
4854615,1,-1.5703,-0.522736,0.000187547,-2.09587,1.57074,1.57166,0.784977,-1.5708,-0.523599,5.28493e-08,-2.0944,1.5708,1.5708,0.785397,-0.00115788,0.000333548,-8.06831e-05,0.00153761,0.000184011,9.76924e-05,0.000403347,0,0,0,0,0,0,0,-0.557545,-10.34,-0.532163,20.821,0.751055,-0.643407,0.16865,-0.585989,-1.19895,-0.140808,2.34571,0.194009,-0.641713,0.224024
4854616,1,-1.5703,-0.522738,0.000189496,-2.09588,1.57074,1.57166,0.784977,-1.5708,-0.523599,5.28493e-08,-2.0944,1.5708,1.5708,0.785397,0.000341702,-0.000334447,0.000595825,-0.00129498,-0.000521586,-0.000172231,0.000506257,0,0,0,0,0,0,0,-0.605152,-10.3162,-0.559934,20.9201,0.76845,-0.636998,0.162241,-0.585549,-1.19825,-0.139909,2.3445,0.193917,-0.641787,0.224106
4854617,1,-1.5703,-0.522736,0.000185877,-2.09587,1.57074,1.57166,0.784977,-1.5708,-0.523599,5.28493e-08,-2.0944,1.5708,1.5708,0.785397,-0.000329011,0.000333847,-0.000809209,-0.000306507,-0.000347724,0.000122538,0.000337505,0,0,0,0,0,0,0,-0.581349,-10.34,-0.508359,20.8963,0.76845,-0.643407,0.162241,-0.585326,-1.19842,-0.139389,2.34442,0.193878,-0.641828,0.224158
4854618,1,-1.57029,-0.522736,0.000189496,-2.09587,1.57074,1.57165,0.784979,-1.57079,-0.523597,2.16474e-06,-2.09439,1.5708,1.5708,0.785398,0.000987085,0.000222565,0.000666953,0.000352474,0.000412444,-0.000393026,0.000699721,0.00362557,0.001875,0.00211189,0.0026176,0.00132141,0.005,0.000469724,-0.632923,-10.34,-0.559934,20.8725,0.751055,-0.63059,0.149424,-0.585393,-1.19955,-0.139221,2.34523,0.193888,-0.641826,0.224164
4854619,1,-1.57029,-0.522736,0.000185877,-2.09587,1.57074,1.57166,0.784972,-1.57079,-0.523593,6.38853e-06,-2.09439,1.5708,1.57081,0.785399,0.000658057,0.000148377,-0.00076179,0.000234983,3.76037e-05,0.00045006,-0.00190711,0.00725114,0.00375,0.00422379,0.00523521,0.00264281,0.01,0.000939449,-0.632923,-10.34,-0.508359,20.8725,0.757463,-0.649816,0.213511,-0.586035,-1.20062,-0.139734,2.34585,0.193914,-0.641734,0.224117
4854620,1,-1.5703,-0.522738,0.000189496,-2.09588,1.57074,1.57166,0.784977,-1.57077,-0.523587,1.27242e-05,-2.09438,1.5708,1.57083,0.7854,-0.000767721,9.89178e-05,0.000698566,-0.000956969,-0.000178381,6.26809e-05,0.000627466,0.0108767,0.005625,0.00633568,0.00785281,0.00396422,0.015,0.00140917,-0.581349,-10.34,-0.559934,20.9201,0.762956,-0.643407,0.162241,-0.586829,-1.20162,-0.140371,2.34647,0.193952,-0.64162,0.224028
4854621,1,-1.57029,-0.522738,0.00018595,-2.09587,1.57074,1.57166,0.784975,-1.57076,-0.52358,2.11718e-05,-2.09437,1.57081,1.57085,0.785402,0.00115248,-0.00169729,0.00203367,-8.11672e-05,-0.000322371,-0.000195572,-0.000531125,0.0145023,0.0075,0.00844758,0.0104704,0.00528562,0.02,0.0018789,-0.529774,-10.2646,-0.357602,20.8963,0.76845,-0.636998,0.187876,-0.588242,-1.2015,-0.142044,2.34695,0.194023,-0.641404,0.223937
4854622,1,-1.5703,-0.522741,0.00018621,-2.09587,1.57074,1.57166,0.784974,-1.57074,-0.523571,3.17313e-05,-2.09436,1.57082,1.57087,0.785404,-0.000200763,0.00112361,0.00556364,-0.000203783,0.000191987,-0.00036774,-0.000591442,0.0181279,0.009375,0.0105595,0.013088,0.00660703,0.025,0.00234862,-0.204456,-10.0901,0.0232571,21.0431,0.757463,-0.63059,0.194285,-0.592338,-1.19985,-0.148065,2.34694,0.194204,-0.640766,0.223863
4854623,1,-1.5703,-0.522744,0.000200254,-2.09587,1.57074,1.57166,0.784978,-1.57072,-0.523559,4.44026e-05,-2.09434,1.57082,1.5709,0.785407,-0.00199003,-0.00151392,0.00941552,-0.000335629,0.000127991,-0.00024516,0.00102986,0.0217534,0.01125,0.0126714,0.0157056,0.00792843,0.03,0.00281835,0.303356,-9.83615,0.376346,21.1939,0.757463,-0.63059,0.155832,-0.60028,-1.19802,-0.160707,2.34707,0.194587,-0.639507,0.223821
4854624,1,-1.57031,-0.522739,0.000214807,-2.09587,1.57074,1.57166,0.784968,-1.57069,-0.523546,5.91859e-05,-2.09432,1.57083,1.57094,0.785411,-0.00475639,-0.000765514,0.0106265,0.00176186,0.000933038,-0.000400799,-0.00267036,0.025379,0.013125,0.0147833,0.0183232,0.00924984,0.035,0.00328807,0.755627,-9.68539,0.80878,21.2693,0.734575,-0.624181,0.24647,-0.610797,-1.19373,-0.178792,2.3464,0.195128,-0.63768,0.223817
4854625,1,-1.5703,-0.522732,0.000231845,-2.09586,1.57074,1.57166,0.784975,-1.57067,-0.523531,7.60811e-05,-2.0943,1.57084,1.57098,0.785414,-0.000559493,0.00100295,0.0116166,0.00308442,0.000622025,-2.98404e-05,0.000389898,0.0290046,0.015,0.0168952,0.0209408,0.0105712,0.04,0.00375779,1.10871,-9.58224,1.26502,21.3446,0.734575,-0.63059,0.187876,-0.621778,-1.18616,-0.199403,2.34421,0.195711,-0.635446,0.223864
4854626,1,-1.5703,-0.522726,0.000260666,-2.09586,1.57075,1.57166,0.784976,-1.57063,-0.523514,9.50881e-05,-2.09428,1.57086,1.57102,0.785419,-0.00106732,0.00230643,0.0168209,0.00468222,0.00105894,-0.000969329,0.00073465,0.0326301,0.016875,0.0190071,0.0235584,0.0118926,0.045,0.00422752,1.58876,-9.48306,1.54273,21.3922,0.71718,-0.604955,0.175059,-0.633452,-1.17841,-0.222866,2.3418,0.196349,-0.632655,0.223999
4854627,1,-1.57029,-0.522716,0.000282,-2.09585,1.57075,1.57167,0.784973,-1.5706,-0.523496,0.000116207,-2.09425,1.57087,1.57107,0.785423,0.00256536,0.00382006,0.0150605,0.00270579,-0.000548649,0.00101529,-0.000459669,0.0362557,0.01875,0.0211189,0.026176,0.0132141,0.05,0.00469724,1.94184,-9.40768,1.92359,21.4438,0.751055,-0.649816,0.200693,-0.645891,-1.17359,-0.249498,2.34148,0.197117,-0.629175,0.224219
4854628,1,-1.57028,-0.522706,0.000306689,-2.09584,1.57074,1.57168,0.784979,-1.57055,-0.523473,0.000141234,-2.09422,1.57088,1.57113,0.785429,0.00162961,0.00542389,0.0187883,0.00617812,-0.00101003,0.00210102,0.00159243,0.0429127,0.0225,0.0250268,0.0308254,0.0153369,0.06,0.0053676,2.31874,-9.35611,2.2251,21.543,0.76845,-0.688268,0.149424,-0.656814,-1.17368,-0.276202,2.34497,0.198017,-0.625248,0.224485
4854629,1,-1.57027,-0.522702,0.000335652,-2.09584,1.57074,1.57168,0.78498,-1.5705,-0.523447,0.000170168,-2.09418,1.5709,1.5712,0.785435,0.00561646,0.00414392,0.0201198,0.00907292,-0.00108025,0.000451241,0.00129898,0.0495696,0.02625,0.0289346,0.0354747,0.0174597,0.07,0.00603795,2.59645,-9.20535,2.4552,21.6422,0.779436,-0.662633,0.143015,-0.664912,-1.17488,-0.30145,2.34983,0.198961,-0.620959,0.224778
4854630,1,-1.57025,-0.522693,0.000358715,-2.09583,1.57074,1.57169,0.784977,-1.57045,-0.523417,0.000203011,-2.09414,1.57092,1.57128,0.785441,0.00825816,0.00448514,0.0204074,0.00922849,-0.000516717,-0.000648608,-8.34518e-05,0.0562265,0.03,0.0328424,0.040124,0.0195825,0.08,0.00670831,2.77497,-9.1022,2.70514,21.6898,0.773943,-0.636998,0.16865,-0.670074,-1.17098,-0.325138,2.35275,0.19987,-0.6162,0.225056
4854631,1,-1.57023,-0.522683,0.000383412,-2.09582,1.57074,1.5717,0.784985,-1.57039,-0.523383,0.000239761,-2.0941,1.57094,1.57137,0.785449,0.0140901,0.00547105,0.0242385,0.0111191,0.00411962,0.00260862,0.00163979,0.0628834,0.03375,0.0367502,0.0447734,0.0217053,0.09,0.00737866,3.00111,-8.89987,3.0622,21.789,0.779436,-0.592137,0.122873,-0.672804,-1.161,-0.347771,2.35395,0.200782,-0.610846,0.225272
4854632,1,-1.57021,-0.522671,0.0004168,-2.0958,1.57075,1.57171,0.784977,-1.57032,-0.523346,0.000280419,-2.09405,1.57097,1.57147,0.785457,0.0165749,0.00817172,0.025688,0.0133981,0.00313538,0.00824064,-0.00178902,0.0695404,0.0375,0.040658,0.0494227,0.0238282,0.1,0.00804902,3.3542,-8.64597,3.49066,21.8644,0.779436,-0.5015,0.200693,-0.674181,-1.14799,-0.370835,2.35503,0.201805,-0.604798,0.225398
4854633,1,-1.57019,-0.522653,0.000459199,-2.09578,1.57075,1.57171,0.784984,-1.57024,-0.523304,0.000324985,-2.094,1.57099,1.57158,0.785466,0.0205341,0.0127182,0.0326592,0.0150797,0.00278888,0.00578593,0.000706188,0.0761973,0.04125,0.0445658,0.054072,0.025951,0.11,0.00871937,3.88581,-8.34445,3.9469,21.9397,0.76845,-0.353185,0.149424,-0.675196,-1.13766,-0.395928,2.35854,0.203107,-0.597934,0.225437
4854634,1,-1.57015,-0.522629,0.000500603,-2.09576,1.57075,1.57173,0.784979,-1.57016,-0.523259,0.000373458,-2.09394,1.57102,1.5717,0.785475,0.027144,0.0161705,0.0351134,0.0181967,0.00676763,0.0106686,-0.000953361,0.0828542,0.045,0.0484736,0.0587214,0.0280738,0.12,0.00938972,4.21113,-8.03897,4.53009,22.0627,0.76845,-0.250646,0.187876,-0.67767,-1.13565,-0.425864,2.36717,0.204855,-0.589827,0.225424
4854635,1,-1.5701,-0.5226,0.000542332,-2.09573,1.57076,1.57175,0.784977,-1.57007,-0.523211,0.00042584,-2.09387,1.57105,1.57183,0.785485,0.035644,0.0202778,0.0379583,0.0248886,0.00716897,0.0150001,-0.00134765,0.0895112,0.04875,0.0523814,0.0633707,0.0301966,0.13,0.0100601,4.59199,-7.78903,5.08551,22.1381,0.711687,-0.166417,0.207102,-0.68262,-1.14212,-0.46159,2.38011,0.207009,-0.580038,0.225391
4854636,1,-1.57005,-0.522559,0.00058835,-2.0957,1.57077,1.57178,0.784979,-1.56997,-0.523158,0.000482129,-2.09381,1.57108,1.57197,0.785496,0.0427179,0.0261616,0.0393008,0.0287796,0.0114191,0.0190659,-0.000186357,0.0961681,0.0525,0.0562892,0.06802,0.0323194,0.14,0.0107304,4.94508,-7.66208,5.54175,22.2611,0.672319,-0.10233,0.187876,-0.689204,-1.15568,-0.500851,2.39545,0.209388,-0.568412,0.225378
4854637,1,-1.56998,-0.522524,0.000639228,-2.09567,1.57077,1.57183,0.784979,-1.56987,-0.523102,0.000542326,-2.09373,1.57112,1.57212,0.785507,0.0504423,0.0274518,0.0416784,0.0310939,0.00727085,0.0301772,-0.000361597,0.102825,0.05625,0.0601971,0.0726694,0.0344423,0.15,0.0114008,5.19502,-7.40817,5.94641,22.4118,0.700701,-0.127965,0.194285,-0.695523,-1.17571,-0.540157,2.41327,0.211849,-0.555025,0.225424
4854638,1,-1.5699,-0.522486,0.000686439,-2.09563,1.57077,1.5719,0.784978,-1.56976,-0.52304,0.000608063,-2.09365,1.57116,1.57229,0.785519,0.0569395,0.0297107,0.0426663,0.0310704,0.0075762,0.0443578,-0.00169913,0.112121,0.061875,0.0657371,0.0789214,0.0370416,0.164713,0.0120549,5.42115,-7.20584,6.37885,22.511,0.76845,-0.192968,0.233652,-0.698958,-1.19911,-0.575441,2.43438,0.214324,-0.540205,0.225532
4854639,1,-1.56983,-0.522445,0.000741805,-2.09559,1.57078,1.57197,0.784971,-1.56963,-0.522972,0.00067934,-2.09357,1.57119,1.57247,0.785532,0.0609662,0.0313,0.0470109,0.0303893,0.00418043,0.0542765,-0.0037437,0.121417,0.0675,0.0712771,0.0851734,0.039641,0.179425,0.012709,5.57588,-7.00351,6.65656,22.634,0.81331,-0.250646,0.304148,-0.697036,-1.22347,-0.603256,2.46045,0.216879,-0.524433,0.22571
4854640,1,-1.56973,-0.522402,0.00079943,-2.09555,1.57078,1.57206,0.784969,-1.5695,-0.522899,0.000756157,-2.09348,1.57124,1.57266,0.785545,0.0724091,0.0363393,0.0516907,0.0338046,0.00168489,0.0647807,-0.00419122,0.130713,0.073125,0.0768171,0.0914254,0.0422403,0.194138,0.0133631,5.57588,-6.82895,6.85889,22.7332,0.859087,-0.276281,0.349924,-0.690467,-1.24918,-0.624786,2.49319,0.219746,-0.507856,0.226027
4854641,1,-1.56963,-0.522357,0.000855657,-2.0955,1.57078,1.57216,0.784968,-1.56936,-0.522821,0.000838514,-2.09338,1.57128,1.57287,0.785559,0.0833352,0.0407769,0.0548332,0.0410854,0.00478693,0.0767512,-0.00350622,0.140009,0.07875,0.0823571,0.0976775,0.0448397,0.208851,0.0140172,5.59968,-6.55124,7.18817,22.761,0.898454,-0.276281,0.36915,-0.68318,-1.27634,-0.64505,2.53114,0.223098,-0.490256,0.226622
4854642,1,-1.56954,-0.522303,0.00091762,-2.09543,1.57079,1.57227,0.784961,-1.56921,-0.522736,0.000926411,-2.09328,1.57133,1.57309,0.785574,0.0900865,0.0435351,0.0582352,0.0476735,0.00411823,0.0877959,-0.00474498,0.149305,0.084375,0.0878971,0.103929,0.047439,0.223564,0.0146713,5.82582,-6.24576,7.59284,22.7332,0.892961,-0.199376,0.434153,-0.677007,-1.30095,-0.665605,2.56944,0.226868,-0.471699,0.227632
4854643,1,-1.56943,-0.522244,0.000991963,-2.09537,1.5708,1.5724,0.784967,-1.56906,-0.522646,0.00101985,-2.09317,1.57138,1.57333,0.785589,0.0944137,0.0484228,0.0672069,0.0478093,0.00454271,0.100969,-0.00123054,0.158601,0.09,0.0934371,0.110182,0.0500384,0.238276,0.0153254,6.20668,-5.91647,8.02527,22.761,0.859087,-0.127965,0.381968,-0.671438,-1.32053,-0.685634,2.60619,0.231065,-0.452487,0.229158
4854644,1,-1.56931,-0.522176,0.0010682,-2.0953,1.57082,1.57255,0.784967,-1.56889,-0.522551,0.00111883,-2.09305,1.57143,1.57358,0.785605,0.105891,0.0558015,0.0689943,0.055929,0.0133929,0.114431,-0.00105772,0.167897,0.095625,0.0989771,0.116434,0.0526377,0.252989,0.0159795,6.48042,-5.61496,8.52912,22.7094,0.841692,-0.140783,0.388376,-0.666362,-1.33949,-0.705233,2.64405,0.235806,-0.432759,0.231241
4854645,1,-1.56917,-0.522098,0.00114053,-2.09523,1.57083,1.57272,0.784972,-1.56871,-0.522449,0.00122334,-2.09293,1.57149,1.57385,0.785622,0.115722,0.0651796,0.0733147,0.0613975,0.0196994,0.13084,0.000956366,0.177193,0.10125,0.104517,0.122686,0.0552371,0.267702,0.0166336,6.7859,-5.36105,9.06073,22.6856,0.825212,-0.212194,0.343516,-0.661393,-1.36446,-0.723088,2.68492,0.240994,-0.412649,0.233834
4854646,1,-1.56902,-0.522013,0.00122556,-2.09515,1.57086,1.57291,0.784986,-1.56852,-0.522342,0.0013334,-2.0928,1.57155,1.57413,0.785639,0.125702,0.0722855,0.075769,0.0650755,0.0214869,0.147901,0.00423187,0.186489,0.106875,0.110057,0.128938,0.0578365,0.282414,0.0172877,6.98823,-5.08334,9.49317,22.6856,0.76845,-0.282689,0.24647,-0.655335,-1.40128,-0.736676,2.73069,0.246515,-0.392461,0.236831
4854647,1,-1.56886,-0.521924,0.00131445,-2.09506,1.57087,1.57313,0.784986,-1.56833,-0.52223,0.001449,-2.09266,1.57161,1.57443,0.785657,0.135601,0.0755784,0.0815558,0.0707975,0.0249175,0.171027,0.00139709,0.195785,0.1125,0.115597,0.13519,0.0604358,0.297127,0.0179418,7.16279,-4.85721,9.89783,22.6856,0.773943,-0.386144,0.284922,-0.647194,-1.44833,-0.744417,2.78131,0.252278,-0.372512,0.240065
4854648,1,-1.5687,-0.521832,0.00140909,-2.09497,1.57089,1.57336,0.784994,-1.56812,-0.52211,0.0015711,-2.09252,1.57167,1.57474,0.785676,0.145983,0.0817033,0.0850087,0.0764492,0.0261829,0.188157,0.000931395,0.206769,0.11999,0.122108,0.142525,0.0633007,0.314169,0.0185865,7.34132,-4.65488,10.1993,22.761,0.825212,-0.495092,0.284922,-0.636874,-1.49713,-0.746204,2.83312,0.258101,-0.352994,0.243351
4854649,1,-1.56853,-0.521743,0.00150508,-2.09487,1.57092,1.5736,0.784998,-1.5679,-0.521982,0.00169972,-2.09237,1.57173,1.57508,0.785695,0.154,0.0816176,0.090175,0.0858639,0.0224589,0.207301,0.00388821,0.217754,0.12748,0.128619,0.14986,0.0661656,0.33121,0.0192312,7.54365,-4.40097,10.5048,22.761,0.875566,-0.507909,0.323374,-0.624172,-1.53695,-0.741783,2.88056,0.26377,-0.33411,0.246586
4854650,1,-1.56835,-0.521648,0.0015993,-2.09476,1.57094,1.57387,0.784994,-1.56768,-0.521848,0.00183485,-2.09221,1.5718,1.57542,0.785715,0.163826,0.0881103,0.0915945,0.094188,0.0241491,0.223481,0.00218933,0.228738,0.13497,0.13513,0.157195,0.0690305,0.348251,0.019876,7.69441,-4.17484,10.7825,22.8363,0.937822,-0.443822,0.472605,-0.607778,-1.55752,-0.729252,2.9177,0.269091,-0.316191,0.249756
4854651,1,-1.56814,-0.521544,0.00169524,-2.09464,1.57097,1.57415,0.784998,-1.56744,-0.521705,0.0019765,-2.09205,1.57188,1.57579,0.785735,0.176522,0.0928851,0.0939251,0.097402,0.026031,0.241857,0.00461579,0.239723,0.14246,0.141642,0.16453,0.0718954,0.365293,0.0205207,7.74202,-3.92093,11.1396,22.7848,0.983598,-0.411779,0.531199,-0.586498,-1.55949,-0.706507,2.94495,0.274108,-0.299527,0.252935
4854652,1,-1.56794,-0.521431,0.00179768,-2.09451,1.57101,1.57445,0.784991,-1.56718,-0.521555,0.00212465,-2.09188,1.57195,1.57617,0.785756,0.186668,0.0982937,0.096132,0.104363,0.0295359,0.259316,0.00418771,0.250707,0.14995,0.148153,0.171865,0.0747604,0.382334,0.0211655,7.92054,-3.61942,11.4689,22.6618,0.97719,-0.346776,0.653879,-0.560294,-1.54972,-0.67299,2.96711,0.279071,-0.284135,0.256309
4854653,1,-1.56773,-0.521314,0.00190108,-2.09438,1.57105,1.57477,0.784992,-1.56692,-0.521398,0.00227931,-2.0917,1.57203,1.57657,0.785778,0.194796,0.103544,0.0986365,0.111812,0.03204,0.279914,0.00121967,0.261692,0.15744,0.154664,0.179201,0.0776253,0.399375,0.0218102,8.17048,-3.21475,11.8973,22.5626,0.96071,-0.373326,0.72529,-0.528556,-1.53093,-0.627736,2.98582,0.284113,-0.269999,0.260129
4854654,1,-1.5675,-0.521182,0.00200942,-2.09424,1.57109,1.57512,0.785014,-1.56665,-0.521233,0.00244049,-2.09151,1.57211,1.57699,0.785801,0.206433,0.112356,0.0996925,0.123598,0.0345119,0.301923,0.00595793,0.272676,0.16493,0.161175,0.186536,0.0804902,0.416417,0.022455,8.44819,-2.88547,12.3536,22.3365,0.932329,-0.424596,0.608103,-0.489913,-1.50475,-0.568831,3.00028,0.289199,-0.257224,0.264658
4854655,1,-1.56727,-0.521045,0.00212369,-2.09409,1.57115,1.57548,0.785028,-1.56637,-0.52106,0.00260817,-2.09132,1.57219,1.57742,0.785824,0.216142,0.118669,0.105522,0.128388,0.0424476,0.316202,0.0116748,0.283661,0.17242,0.167686,0.193871,0.0833551,0.433458,0.0230997,8.7021,-2.53238,12.7582,22.2611,0.859087,-0.431005,0.544016,-0.445098,-1.47475,-0.497484,3.0109,0.29431,-0.245643,0.270038
4854656,1,-1.56701,-0.520892,0.00224827,-2.09393,1.57121,1.57587,0.785047,-1.56607,-0.52088,0.00278237,-2.09112,1.57228,1.57787,0.785848,0.229371,0.12942,0.111552,0.139442,0.0485767,0.338174,0.0169796,0.294645,0.17991,0.174197,0.201206,0.08622,0.450499,0.0237445,8.92823,-2.30228,13.0875,22.1381,0.784929,-0.482274,0.44697,-0.397803,-1.44594,-0.419617,3.02002,0.299521,-0.234667,0.276171
4854657,1,-1.56675,-0.520734,0.00236664,-2.09376,1.57127,1.57627,0.785071,-1.56577,-0.520693,0.00296308,-2.09091,1.57237,1.57834,0.785872,0.240377,0.136527,0.111623,0.146966,0.0516737,0.360607,0.0256763,0.30563,0.1874,0.180708,0.208541,0.0890849,0.46754,0.0243892,9.13057,-2.05234,13.4684,22.0389,0.740068,-0.572911,0.343516,-0.350045,-1.42205,-0.338499,3.02912,0.304766,-0.22405,0.28279
4854658,1,-1.56648,-0.52057,0.00248778,-2.09359,1.57135,1.5767,0.785081,-1.56545,-0.520498,0.00315072,-2.09069,1.57246,1.57882,0.785897,0.250929,0.142642,0.112879,0.155324,0.0583355,0.375709,0.0221482,0.317487,0.19489,0.187641,0.21655,0.0920653,0.485507,0.0250313,9.25752,-1.82224,13.7977,21.9635,0.711687,-0.636998,0.375559,-0.299368,-1.4014,-0.250345,3.03744,0.309725,-0.2142,0.28955
4854659,1,-1.5662,-0.520403,0.00261818,-2.09341,1.57142,1.57714,0.785099,-1.56512,-0.520296,0.00334529,-2.09047,1.57255,1.57933,0.785923,0.258513,0.14849,0.118285,0.160627,0.0623013,0.406401,0.0208047,0.329344,0.20238,0.194573,0.224558,0.0950456,0.503473,0.0256733,9.50746,-1.52072,14.0516,21.9397,0.706194,-0.643407,0.375559,-0.243153,-1.3795,-0.151678,3.04404,0.314134,-0.205553,0.296127
4854660,1,-1.56591,-0.520229,0.00275018,-2.09321,1.5715,1.5776,0.785104,-1.56478,-0.520086,0.0035468,-2.09023,1.57265,1.57985,0.785949,0.269836,0.154639,0.124827,0.173777,0.0687408,0.426935,0.0205788,0.341202,0.20987,0.201506,0.232566,0.098026,0.52144,0.0263153,9.63441,-1.29062,14.3015,21.789,0.740068,-0.63059,0.491831,-0.182146,-1.35173,-0.0446702,3.04717,0.317919,-0.198137,0.302339
4854661,1,-1.56561,-0.520052,0.00289466,-2.09301,1.57158,1.57808,0.785108,-1.56443,-0.519868,0.00375524,-2.08999,1.57275,1.58039,0.785976,0.282456,0.160648,0.127711,0.1838,0.0738456,0.440038,0.0115975,0.353059,0.21736,0.208439,0.240575,0.101006,0.539406,0.0269573,9.68599,-1.11606,14.5316,21.7652,0.762956,-0.553685,0.601694,-0.119423,-1.31215,0.0657282,3.0427,0.321014,-0.191451,0.308185
4854662,1,-1.5653,-0.519869,0.00304693,-2.0928,1.57167,1.57858,0.785121,-1.56406,-0.519644,0.00397061,-2.08974,1.57286,1.58095,0.786004,0.290152,0.167415,0.130313,0.195007,0.0831813,0.45539,0.0120156,0.364916,0.22485,0.215371,0.248583,0.103987,0.557372,0.0275993,9.91212,-0.937531,14.734,21.8405,0.76845,-0.488683,0.647471,-0.055878,-1.25736,0.178541,3.02795,0.323338,-0.185108,0.313836
4854663,1,-1.56498,-0.51968,0.00319733,-2.09257,1.57176,1.57911,0.785131,-1.56368,-0.519411,0.00419291,-2.08949,1.57296,1.58152,0.786032,0.297011,0.174555,0.13481,0.205055,0.0893241,0.475023,0.012503,0.376773,0.23234,0.222304,0.256592,0.106967,0.575339,0.0282413,10.0906,-0.885956,14.9601,21.8882,0.779436,-0.546361,0.692331,0.0109143,-1.1885,0.297144,3.0034,0.324877,-0.179229,0.319535
4854664,1,-1.56464,-0.519479,0.00335425,-2.09234,1.57187,1.57967,0.785146,-1.5633,-0.519171,0.00442215,-2.08922,1.57307,1.58211,0.786061,0.313235,0.185356,0.143719,0.216082,0.0956374,0.500587,0.01456,0.38863,0.23983,0.229236,0.2646,0.109947,0.593305,0.0288834,10.166,-0.885956,15.214,21.9159,0.773943,-0.617772,0.692331,0.079909,-1.11139,0.419315,2.97214,0.325887,-0.173613,0.3255
4854665,1,-1.56429,-0.51927,0.00352187,-2.09209,1.57198,1.58023,0.785174,-1.56289,-0.518924,0.00465832,-2.08895,1.57319,1.58273,0.78609,0.32701,0.189583,0.148536,0.223089,0.101904,0.518072,0.0155278,0.400488,0.24732,0.236169,0.272608,0.112928,0.611272,0.0295254,10.2652,-0.885956,15.4163,21.9873,0.71718,-0.643407,0.57606,0.145365,-1.03178,0.53649,2.93806,0.326793,-0.167513,0.33188
4854666,1,-1.56394,-0.519053,0.00369564,-2.09184,1.5721,1.58082,0.785198,-1.56248,-0.518669,0.00490142,-2.08867,1.5733,1.58336,0.78612,0.335819,0.199127,0.155839,0.233667,0.106515,0.535008,0.0205609,0.412345,0.25481,0.243101,0.280617,0.115908,0.629238,0.0301674,10.4675,-0.885956,15.5949,21.9873,0.666826,-0.662633,0.453379,0.20454,-0.950888,0.644736,2.90334,0.327794,-0.160571,0.338687
4854667,1,-1.56356,-0.518826,0.00386609,-2.09157,1.57221,1.58144,0.785218,-1.56206,-0.518407,0.00515145,-2.08838,1.57342,1.584,0.786151,0.344841,0.206955,0.155517,0.242448,0.113287,0.560347,0.0204085,0.424202,0.2623,0.250034,0.288625,0.118888,0.647204,0.0308094,10.5429,-0.937531,15.8726,21.9397,0.643938,-0.759679,0.427744,0.261174,-0.871152,0.749346,2.86976,0.328776,-0.153424,0.345724
4854668,1,-1.56319,-0.51859,0.00404832,-2.09129,1.57233,1.58208,0.785243,-1.56162,-0.518137,0.00540837,-2.08808,1.57354,1.58467,0.786183,0.356592,0.221058,0.162375,0.254475,0.113565,0.584424,0.0208886,0.43621,0.26979,0.256922,0.296986,0.121857,0.665322,0.0314567,10.6937,-0.989105,15.9995,21.9397,0.632951,-0.875035,0.394785,0.320178,-0.799655,0.857493,2.84009,0.329599,-0.147063,0.352688
4854669,1,-1.56281,-0.518351,0.00423632,-2.091,1.57245,1.58274,0.785266,-1.56117,-0.51786,0.00567218,-2.08778,1.57367,1.58535,0.786215,0.36561,0.226525,0.16866,0.267585,0.11915,0.603855,0.0199736,0.448218,0.27728,0.26381,0.305346,0.124826,0.683439,0.0321039,10.8444,-1.04068,16.2018,21.8882,0.599077,-0.913488,0.394785,0.381762,-0.739566,0.969281,2.81445,0.330221,-0.14179,0.359332
4854670,1,-1.5624,-0.518099,0.00444228,-2.09072,1.57259,1.5834,0.78529,-1.56071,-0.517575,0.00594288,-2.08747,1.5738,1.58605,0.786247,0.377232,0.233407,0.180803,0.273968,0.118206,0.618894,0.0232296,0.460226,0.28477,0.270697,0.313707,0.127795,0.701557,0.0327512,10.896,-1.08829,16.3526,21.9397,0.576189,-0.817357,0.42042,0.442013,-0.684481,1.07824,2.78975,0.330666,-0.13708,0.365514
4854671,1,-1.562,-0.517848,0.00464255,-2.09041,1.57271,1.58409,0.785318,-1.56024,-0.517283,0.00622047,-2.08714,1.57393,1.58677,0.786281,0.386241,0.238948,0.185848,0.285541,0.125627,0.629009,0.0266757,0.472233,0.29226,0.277585,0.322068,0.130764,0.719674,0.0333984,11.0745,-1.13986,16.5311,21.8882,0.592668,-0.720311,0.42042,0.497214,-0.627224,1.17835,2.76417,0.330966,-0.13222,0.371174
4854672,1,-1.56159,-0.51758,0.00485417,-2.0901,1.57284,1.5848,0.785334,-1.55976,-0.516983,0.00650494,-2.08681,1.57406,1.58751,0.786315,0.393478,0.247682,0.193012,0.292953,0.12492,0.652392,0.0204966,0.484241,0.29975,0.284473,0.330429,0.133733,0.737792,0.0340457,11.2253,-1.26682,16.6819,21.8882,0.643938,-0.740453,0.531199,0.548548,-0.56594,1.27128,2.73765,0.331045,-0.127144,0.376322
4854673,1,-1.56117,-0.517307,0.00507634,-2.08977,1.57298,1.58554,0.785363,-1.55926,-0.516676,0.0067963,-2.08647,1.5742,1.58827,0.78635,0.400186,0.252657,0.208629,0.303317,0.134274,0.682982,0.0182447,0.496249,0.30724,0.291361,0.338789,0.136702,0.755909,0.034693,11.4514,-1.31839,16.7573,21.8167,0.672319,-0.855809,0.588877,0.597978,-0.501476,1.35904,2.71079,0.330975,-0.122033,0.381048
4854674,1,-1.56072,-0.517019,0.00530851,-2.08945,1.57313,1.58631,0.785398,-1.55875,-0.516361,0.00709455,-2.08613,1.57434,1.58904,0.786385,0.417515,0.264093,0.215408,0.309841,0.135314,0.707245,0.0244148,0.508257,0.31473,0.298249,0.34715,0.139671,0.774027,0.0353402,11.4514,-1.56833,16.8366,21.9159,0.638445,-0.90067,0.556833,0.642965,-0.437247,1.43711,2.68549,0.331089,-0.116595,0.385532
4854675,1,-1.56026,-0.51672,0.00553697,-2.08911,1.57328,1.58708,0.785425,-1.55823,-0.516039,0.00739969,-2.08577,1.57448,1.58983,0.786421,0.429095,0.274325,0.218094,0.321463,0.140573,0.727642,0.0271918,0.520265,0.32222,0.305137,0.355511,0.14264,0.792144,0.0359875,11.4514,-1.79843,16.9874,21.8405,0.592668,-0.875035,0.57606,0.682727,-0.38158,1.50539,2.6653,0.331576,-0.110888,0.389954
4854676,1,-1.55979,-0.516421,0.00577587,-2.08876,1.57343,1.58788,0.785462,-1.5577,-0.515709,0.00771171,-2.08541,1.57463,1.59064,0.786458,0.435728,0.283045,0.228117,0.33764,0.148673,0.747426,0.027945,0.532273,0.32971,0.312025,0.363872,0.145609,0.810262,0.0366347,11.4752,-1.92538,17.0865,21.789,0.570696,-0.881444,0.504648,0.720867,-0.336941,1.57033,2.6489,0.33219,-0.105491,0.394423
4854677,1,-1.55932,-0.516113,0.0060315,-2.08841,1.57358,1.5887,0.785497,-1.55716,-0.515372,0.00803063,-2.08504,1.57477,1.59147,0.786495,0.439891,0.292068,0.235486,0.340415,0.147776,0.77108,0.0264207,0.544281,0.3372,0.318913,0.372232,0.148578,0.828379,0.037282,11.7291,-2.02457,17.1619,21.8167,0.599077,-0.946447,0.479014,0.761232,-0.300888,1.63712,2.63364,0.332675,-0.100899,0.398966
4854678,1,-1.55884,-0.51579,0.00629531,-2.08805,1.57374,1.58955,0.785525,-1.5566,-0.515027,0.00835618,-2.08466,1.57493,1.59232,0.786533,0.456851,0.302347,0.243309,0.344527,0.148666,0.789509,0.0229594,0.556008,0.34469,0.325553,0.380725,0.151401,0.846076,0.0379188,11.8283,-2.12772,17.1619,21.8882,0.592668,-1.04899,0.518381,0.804473,-0.279528,1.70631,2.62549,0.333261,-0.0972296,0.40351
4854679,1,-1.55832,-0.515465,0.00655646,-2.08768,1.5739,1.59041,0.785566,-1.55603,-0.514675,0.00868837,-2.08427,1.57508,1.59318,0.786571,0.47911,0.312072,0.247844,0.352981,0.156133,0.807474,0.0287924,0.567736,0.35218,0.332194,0.389218,0.154223,0.863773,0.0385556,11.6776,-2.17532,17.2135,21.8882,0.524919,-1.01053,0.453379,0.845627,-0.279125,1.77194,2.63018,0.334272,-0.0938199,0.407968
4854680,1,-1.55779,-0.515122,0.00683117,-2.0873,1.57406,1.59127,0.785589,-1.55545,-0.514316,0.00902721,-2.08387,1.57524,1.59406,0.786611,0.492318,0.317279,0.253531,0.356479,0.160248,0.82804,0.0272721,0.579464,0.35967,0.338835,0.39771,0.157046,0.88147,0.0391924,11.5268,-2.30228,17.2889,21.9635,0.491045,-0.90067,0.550425,0.880183,-0.296159,1.82912,2.64647,0.33568,-0.0900238,0.412284
4854681,1,-1.55725,-0.514775,0.00711405,-2.08691,1.57423,1.59217,0.785622,-1.55486,-0.513948,0.00937268,-2.08346,1.5754,1.59496,0.78665,0.503549,0.333193,0.26036,0.367864,0.16952,0.842981,0.0241293,0.591191,0.36716,0.345475,0.406203,0.159868,0.899167,0.0398292,11.4276,-2.45303,17.1381,21.9873,0.50844,-0.952855,0.582468,0.90927,-0.32764,1.87994,2.67242,0.337254,-0.0859533,0.416432
4854682,1,-1.55671,-0.514423,0.00740352,-2.08651,1.5744,1.5931,0.785663,-1.55426,-0.513574,0.0097248,-2.08305,1.57556,1.59588,0.786691,0.515502,0.336385,0.269791,0.375617,0.166696,0.867684,0.0297254,0.602919,0.37465,0.352116,0.414696,0.16269,0.916865,0.040466,11.4514,-2.55618,17.0389,22.0389,0.587175,-1.0618,0.52479,0.934719,-0.371908,1.92663,2.70545,0.338793,-0.0817944,0.420481
4854683,1,-1.55614,-0.514058,0.0077154,-2.0861,1.57457,1.59402,0.785701,-1.55364,-0.513192,0.0100836,-2.08262,1.57573,1.59681,0.786732,0.526063,0.344292,0.280798,0.385341,0.166487,0.886656,0.0319123,0.614647,0.38214,0.358756,0.423188,0.165513,0.934562,0.0411028,11.2491,-2.63156,16.912,22.1381,0.60457,-1.04899,0.518381,0.955847,-0.418451,1.96729,2.73946,0.340232,-0.0774134,0.42453
4854684,1,-1.55556,-0.51369,0.00803021,-2.08569,1.57475,1.59495,0.785742,-1.55302,-0.512802,0.010449,-2.08219,1.57589,1.59777,0.786774,0.541334,0.353778,0.295003,0.392908,0.169301,0.889562,0.0353675,0.626374,0.38963,0.365397,0.431681,0.168335,0.952259,0.0417396,11.0983,-2.70694,16.6581,22.2889,0.553301,-0.913488,0.459788,0.968611,-0.46039,1.99514,2.77114,0.341765,-0.0721846,0.428599
4854685,1,-1.55497,-0.513303,0.00834208,-2.08527,1.57493,1.5959,0.785787,-1.55238,-0.512405,0.010821,-2.08175,1.57606,1.59874,0.786816,0.558342,0.363119,0.302545,0.399499,0.169151,0.909126,0.0374092,0.638102,0.39712,0.372037,0.440174,0.171157,0.969956,0.0423764,10.9714,-2.90927,16.6303,22.4118,0.553301,-0.919896,0.414011,0.967902,-0.501295,2.00286,2.80273,0.343682,-0.0652792,0.432637
4854686,1,-1.55438,-0.512903,0.00866689,-2.08484,1.5751,1.59686,0.785823,-1.55173,-0.512,0.0111997,-2.0813,1.57624,1.59972,0.786859,0.566541,0.375023,0.308608,0.406095,0.168846,0.921334,0.0350072,0.64983,0.40461,0.378678,0.448666,0.17398,0.987653,0.0430132,10.9476,-3.16318,16.4796,22.4634,0.565202,-0.881444,0.472605,0.955433,-0.548071,1.99363,2.83841,0.346043,-0.05693,0.436525
4854687,1,-1.55377,-0.512505,0.00899896,-2.0844,1.57529,1.59784,0.785869,-1.55107,-0.511588,0.011585,-2.08085,1.57642,1.60073,0.786903,0.578096,0.38607,0.316991,0.412087,0.1729,0.935291,0.0353768,0.661558,0.4121,0.385318,0.457159,0.176802,1.00535,0.04365,10.9714,-3.38931,16.428,22.4634,0.570696,-0.849401,0.472605,0.937979,-0.60835,1.97749,2.8823,0.348736,-0.0481238,0.44015
4854688,1,-1.55314,-0.512098,0.00934873,-2.08396,1.57548,1.59882,0.785913,-1.5504,-0.511169,0.0119766,-2.08038,1.57659,1.60175,0.786947,0.590918,0.389224,0.325864,0.420605,0.171836,0.950747,0.0356812,0.672697,0.41959,0.391634,0.465625,0.1793,1.02226,0.0442601,10.9992,-3.44089,16.4042,22.511,0.581682,-0.798131,0.479014,0.918571,-0.679337,1.95867,2.93312,0.351622,-0.0391636,0.443501
4854689,1,-1.55251,-0.511694,0.00969532,-2.08351,1.57568,1.59984,0.785957,-1.54971,-0.510741,0.0123746,-2.07991,1.57678,1.60279,0.786992,0.612545,0.394737,0.331644,0.427845,0.179891,0.965532,0.0400356,0.683836,0.42708,0.397949,0.474091,0.181799,1.03917,0.0448701,11.023,-3.44089,16.428,22.5626,0.547807,-0.766088,0.49824,0.895586,-0.746075,1.93529,2.98336,0.354499,-0.0295565,0.446622
4854690,1,-1.55186,-0.511279,0.0100587,-2.08306,1.57587,1.60086,0.786007,-1.54902,-0.510307,0.0127788,-2.07942,1.57696,1.60385,0.787037,0.624559,0.401465,0.341594,0.436701,0.183736,0.985856,0.044512,0.694975,0.43457,0.404264,0.482557,0.184297,1.05609,0.0454802,11.0468,-3.41708,16.4558,22.6102,0.496538,-0.810948,0.472605,0.866961,-0.798365,1.90504,3.02756,0.357206,-0.0188111,0.449555
4854691,1,-1.55121,-0.510858,0.0104213,-2.08259,1.57606,1.60192,0.786065,-1.54831,-0.509865,0.0131894,-2.07893,1.57715,1.60492,0.787083,0.62906,0.408244,0.354469,0.444865,0.180625,1.00684,0.0505325,0.706114,0.44206,0.41058,0.491023,0.186795,1.073,0.0460902,11.1975,-3.31393,16.4558,22.5864,0.469072,-0.881444,0.388376,0.834202,-0.835246,1.8689,3.06464,0.359689,-0.00714503,0.452336
4854692,1,-1.55054,-0.510422,0.0107997,-2.08212,1.57625,1.603,0.786109,-1.54759,-0.509415,0.0136063,-2.07843,1.57734,1.60601,0.78713,0.643459,0.420777,0.364216,0.451355,0.187223,1.02829,0.044882,0.717253,0.44955,0.416895,0.49949,0.189294,1.08991,0.0467003,11.2491,-3.36551,16.428,22.5348,0.462663,-0.965673,0.44697,0.80025,-0.863567,1.82916,3.09772,0.362007,0.00483058,0.454942
4854693,1,-1.54985,-0.509974,0.0111811,-2.08163,1.57645,1.60408,0.786163,-1.54686,-0.508958,0.0140295,-2.07793,1.57753,1.60712,0.787177,0.654993,0.425965,0.369696,0.465675,0.189787,1.04536,0.0445581,0.728392,0.45704,0.423211,0.507956,0.191792,1.10682,0.0473104,11.2769,-3.44089,16.4558,22.3127,0.513933,-0.972081,0.407602,0.766987,-0.889409,1.78828,3.12869,0.364085,0.0166206,0.457314
4854694,1,-1.54916,-0.509529,0.0115717,-2.08113,1.57664,1.60518,0.786219,-1.54613,-0.508494,0.014459,-2.07741,1.57772,1.60824,0.787225,0.66737,0.430872,0.37726,0.482603,0.193564,1.06317,0.0481514,0.739532,0.46453,0.429526,0.516422,0.194291,1.12373,0.0479204,11.2491,-3.51627,16.3526,22.1381,0.536821,-0.919896,0.394785,0.736775,-0.902779,1.75053,3.14941,0.365491,0.0278272,0.459454
4854695,1,-1.54846,-0.509063,0.0119671,-2.08063,1.57685,1.60628,0.786264,-1.54537,-0.508022,0.0148949,-2.07688,1.57792,1.60938,0.787274,0.682653,0.441948,0.37766,0.492041,0.200374,1.09814,0.0471308,0.750671,0.47202,0.435841,0.524888,0.196789,1.14065,0.0485305,11.2253,-3.64322,16.305,21.9397,0.581682,-0.913488,0.466196,0.712907,-0.895935,1.72163,3.15325,0.365909,0.0378583,0.461353
4854696,1,-1.54775,-0.508599,0.0123696,-2.0801,1.57706,1.60741,0.786321,-1.54461,-0.507542,0.015337,-2.07635,1.57812,1.61054,0.787323,0.694217,0.44371,0.388875,0.500735,0.19905,1.10627,0.0508308,0.76181,0.47951,0.442157,0.533354,0.199287,1.15756,0.0491406,11.1975,-3.64322,16.2256,21.7652,0.542314,-0.907079,0.434153,0.696798,-0.873145,1.70415,3.14302,0.365502,0.0463909,0.463004
4854697,0.99,-1.54703,-0.50814,0.0127857,-2.07959,1.57727,1.60856,0.78637,-1.54384,-0.507055,0.0157855,-2.07581,1.57832,1.61171,0.787373,0.704157,0.44772,0.39505,0.512212,0.200327,1.11513,0.0462936,0.772949,0.487,0.448472,0.54182,0.201786,1.17447,0.0497506,11.2491,-3.59164,16.0987,21.6898,0.435198,-0.881444,0.466196,0.685977,-0.831631,1.69403,3.11956,0.364537,0.0540671,0.464482
4854698,0.99,-1.54629,-0.507667,0.0132113,-2.07905,1.57748,1.60972,0.78642,-1.54306,-0.506561,0.0162399,-2.07526,1.57852,1.6129,0.787423,0.705893,0.453336,0.402227,0.516582,0.199624,1.12934,0.0476134,0.783294,0.49449,0.454409,0.55016,0.203885,1.19035,0.050313,11.2491,-3.56784,15.9757,21.6144,0.36104,-0.984899,0.485422,0.680994,-0.769433,1.69094,3.08376,0.363092,0.0611318,0.465864
4854699,0.98,-1.54554,-0.507193,0.0136309,-2.07849,1.57769,1.61092,0.786478,-1.54226,-0.506059,0.0167003,-2.0747,1.57873,1.61411,0.787474,0.714679,0.466687,0.406546,0.525636,0.205409,1.14331,0.0516631,0.793639,0.50198,0.460346,0.5585,0.205985,1.20623,0.0508754,11.1975,-3.49246,15.9241,21.4676,0.327165,-1.10666,0.440561,0.686597,-0.700314,1.70068,3.04395,0.361174,0.0668341,0.467184
4854700,0.98,-1.54477,-0.506708,0.0140633,-2.07794,1.5779,1.61214,0.786531,-1.54146,-0.505549,0.0171666,-2.07413,1.57894,1.61533,0.787525,0.7272,0.473369,0.418424,0.536617,0.208954,1.15151,0.0517737,0.803983,0.50947,0.466282,0.566839,0.208085,1.22212,0.0514379,11.0983,-3.38931,15.8964,21.3922,0.366533,-1.17807,0.472605,0.701645,-0.63901,1.72132,3.00702,0.358815,0.0710829,0.468466
4854701,0.98,-1.54398,-0.506208,0.0145017,-2.07736,1.57811,1.61336,0.78659,-1.54064,-0.505032,0.0176388,-2.07356,1.57915,1.61657,0.787577,0.74193,0.479185,0.421951,0.545116,0.206081,1.16562,0.0549736,0.814328,0.51696,0.472219,0.575179,0.210184,1.238,0.0520003,11.0468,-3.46469,15.9757,21.2693,0.423296,-1.30716,0.42042,0.719332,-0.585292,1.74374,2.97201,0.356046,0.0746295,0.469734
4854702,0.98,-1.5432,-0.505708,0.0149445,-2.07679,1.57831,1.61462,0.786661,-1.53982,-0.504508,0.0181169,-2.07297,1.57936,1.61782,0.78763,0.752965,0.483855,0.432072,0.556608,0.202092,1.18367,0.0594425,0.824673,0.52445,0.478156,0.583519,0.212284,1.25388,0.0525627,10.9992,-3.41708,15.8726,21.2693,0.542314,-1.57724,0.291331,0.735378,-0.530932,1.76273,2.93491,0.352929,0.0777899,0.470999
4854703,0.98,-1.54241,-0.505195,0.0153869,-2.07621,1.57852,1.61584,0.786721,-1.53898,-0.503976,0.018601,-2.07238,1.57958,1.61909,0.787683,0.761044,0.490156,0.434663,0.560923,0.207491,1.19168,0.0586144,0.835018,0.53194,0.484092,0.591858,0.214384,1.26976,0.0531251,10.9992,-3.38931,15.7972,21.3169,0.558794,-1.52598,0.265696,0.750203,-0.471706,1.77945,2.89436,0.349595,0.0800876,0.472167
4854704,0.98,-1.54161,-0.504672,0.0158285,-2.07561,1.57873,1.61707,0.786785,-1.53814,-0.503436,0.019091,-2.07178,1.57979,1.62038,0.787737,0.769132,0.4972,0.439744,0.568093,0.211139,1.19247,0.0589157,0.845362,0.53943,0.490029,0.600198,0.216483,1.28564,0.0536875,10.9992,-3.41708,15.7694,21.3446,0.565202,-1.20371,0.233652,0.767372,-0.410788,1.79937,2.85362,0.346205,0.080701,0.47303
4854705,0.98,-1.5408,-0.504151,0.016274,-2.07502,1.57895,1.61833,0.786848,-1.53728,-0.50289,0.019587,-2.07117,1.58001,1.62168,0.787791,0.780124,0.50504,0.441928,0.571421,0.211208,1.20951,0.0621862,0.855707,0.54692,0.495966,0.608538,0.218583,1.30153,0.0542499,11.0745,-3.44089,15.821,21.4676,0.519426,-1.00412,0.24647,0.790007,-0.355078,1.82742,2.81779,0.342954,0.0791727,0.473393
4854706,0.98,-1.53999,-0.503617,0.0167305,-2.07442,1.57918,1.61962,0.786897,-1.53642,-0.502335,0.0200889,-2.07056,1.58023,1.623,0.787846,0.78518,0.510289,0.44447,0.575354,0.21617,1.23091,0.0556206,0.866052,0.55441,0.501903,0.616877,0.220683,1.31741,0.0548123,11.2769,-3.46469,15.821,21.5906,0.491045,-1.15244,0.381968,0.82128,-0.309731,1.86825,2.79094,0.339981,0.0753258,0.473138
4854707,0.98,-1.53917,-0.503083,0.0171742,-2.07382,1.57941,1.62092,0.786959,-1.53554,-0.501773,0.0205968,-2.06993,1.58045,1.62433,0.787901,0.79641,0.518696,0.446897,0.579243,0.225128,1.24354,0.0550493,0.876397,0.5619,0.507839,0.625217,0.222783,1.33329,0.0553747,11.3007,-3.49246,15.9479,21.7414,0.378435,-1.20371,0.407602,0.864304,-0.276984,1.92614,2.7753,0.337258,0.0691273,0.472287
4854708,0.98,-1.53832,-0.502539,0.0176285,-2.07321,1.57964,1.62223,0.787024,-1.53466,-0.501204,0.0211101,-2.0693,1.58068,1.62568,0.787957,0.812418,0.52607,0.445749,0.587183,0.222067,1.2732,0.0556521,0.88581,0.56939,0.513363,0.633382,0.224456,1.34798,0.0558587,11.1975,-3.46469,16.178,21.9635,0.321672,-1.32639,0.401194,0.918604,-0.257687,2.00076,2.77082,0.334655,0.0608462,0.47103
4854709,0.98,-1.53748,-0.501979,0.01809,-2.07259,1.57987,1.62354,0.787102,-1.53376,-0.500627,0.021629,-2.06866,1.5809,1.62704,0.788013,0.820501,0.533477,0.463509,0.593348,0.225781,1.28446,0.064843,0.895224,0.57688,0.518887,0.641548,0.226129,1.36267,0.0563427,11.2253,-3.49246,16.3288,22.1897,0.242937,-1.15885,0.291331,0.977951,-0.249957,2.08307,2.77542,0.332142,0.0513222,0.469595
4854710,0.98,-1.53663,-0.501415,0.0185696,-2.07198,1.58009,1.62488,0.787181,-1.53286,-0.500043,0.0221534,-2.06801,1.58113,1.62842,0.78807,0.819631,0.544408,0.467291,0.603309,0.22273,1.29663,0.0710049,0.904638,0.58437,0.524411,0.649713,0.227803,1.37736,0.0568267,11.503,-3.61942,16.3526,22.3365,0.316179,-1.11399,0.175059,1.03648,-0.252277,2.16303,2.78724,0.329698,0.0414635,0.468093
4854711,0.98,-1.53578,-0.500834,0.0190534,-2.07135,1.58031,1.62623,0.787252,-1.53194,-0.499451,0.0226834,-2.06735,1.58136,1.62981,0.788128,0.820591,0.554416,0.473476,0.604759,0.222884,1.31957,0.0705408,0.914051,0.59186,0.529935,0.657878,0.229476,1.39205,0.0573107,11.7807,-3.77017,16.4796,22.5348,0.440691,-1.16526,0.175059,1.09848,-0.269427,2.24537,2.80834,0.327139,0.0308215,0.466433
4854712,0.98,-1.53492,-0.500242,0.0195332,-2.07072,1.58054,1.62761,0.787309,-1.53102,-0.498851,0.0232188,-2.06668,1.58159,1.63122,0.788185,0.818731,0.565559,0.474662,0.623942,0.222693,1.3336,0.0669359,0.923465,0.59935,0.535459,0.666044,0.231149,1.40674,0.0577947,11.7807,-4.02011,16.5073,22.6618,0.485552,-1.10666,0.304148,1.17281,-0.304171,2.34229,2.83889,0.324237,0.0182657,0.464436
4854713,0.98,-1.53401,-0.499647,0.0200106,-2.07008,1.58076,1.62899,0.787371,-1.53009,-0.498245,0.0237598,-2.06601,1.58183,1.63264,0.788244,0.835816,0.572036,0.470046,0.628938,0.225483,1.37489,0.0652081,0.932878,0.60684,0.540983,0.674209,0.232823,1.42143,0.0582787,11.4514,-4.19864,16.6065,22.8086,0.440691,-1.12681,0.414011,1.26467,-0.349781,2.46228,2.87278,0.320787,0.00311572,0.462043
4854714,0.98,-1.5331,-0.499037,0.0205017,-2.06942,1.58099,1.6304,0.787433,-1.52914,-0.49763,0.0243063,-2.06533,1.58206,1.63407,0.788302,0.863663,0.585205,0.477049,0.63204,0.226898,1.38374,0.0609868,0.942292,0.61433,0.546506,0.682374,0.234496,1.43612,0.0587627,11.1499,-4.3494,16.5549,22.8363,0.412309,-1.07462,0.485422,1.36662,-0.404811,2.59768,2.91018,0.317115,-0.0135913,0.459403
4854715,0.98,-1.5322,-0.498436,0.0209971,-2.06878,1.58122,1.63184,0.787491,-1.52819,-0.497008,0.0248583,-2.06464,1.5823,1.63553,0.788362,0.884436,0.588994,0.482956,0.636159,0.221344,1.39191,0.0610731,0.951706,0.62182,0.55203,0.69054,0.23617,1.4508,0.0592467,10.9476,-4.3494,16.4558,22.9355,0.406816,-1.09385,0.57606,1.45931,-0.472474,2.72344,2.95662,0.313991,-0.0288802,0.456813
4854716,0.98,-1.53128,-0.497823,0.0215233,-2.06811,1.58144,1.63327,0.787572,-1.52723,-0.496379,0.0254159,-2.06394,1.58253,1.63699,0.788421,0.896433,0.593972,0.495921,0.641637,0.22128,1.40983,0.0660698,0.961119,0.62931,0.557554,0.698705,0.237843,1.46549,0.0597307,10.896,-4.37717,16.0749,22.9077,0.435198,-1.03617,0.427744,1.52906,-0.543986,2.82058,3.01026,0.3118,-0.0404773,0.454607
4854717,0.98,-1.53035,-0.497208,0.0220304,-2.06743,1.58169,1.63473,0.78765,-1.52626,-0.495742,0.025979,-2.06323,1.58277,1.63847,0.788482,0.912029,0.612644,0.501364,0.649987,0.228287,1.41797,0.0725362,0.970533,0.6368,0.563078,0.70687,0.239516,1.48018,0.0602147,10.5707,-4.32559,15.8964,22.7094,0.412309,-0.984899,0.316965,1.57333,-0.617398,2.88445,3.06972,0.31058,-0.0479664,0.45297
4854718,0.98,-1.52937,-0.496574,0.0225595,-2.06675,1.58193,1.63618,0.78772,-1.52528,-0.495098,0.0265471,-2.06252,1.58301,1.63996,0.788542,0.938757,0.614559,0.505053,0.664242,0.235122,1.42874,0.0737777,0.978924,0.64429,0.568171,0.714862,0.240749,1.49357,0.060572,10.0153,-4.40097,15.7456,22.5348,0.339067,-0.766088,0.291331,1.59275,-0.695964,2.91627,3.13304,0.310119,-0.0514295,0.451825
4854719,0.98,-1.52841,-0.495933,0.0231123,-2.06605,1.58218,1.63763,0.787789,-1.52429,-0.494446,0.0271204,-2.06179,1.58326,1.64147,0.788603,0.940993,0.620615,0.522314,0.675364,0.240779,1.43693,0.0746187,0.987316,0.65178,0.573265,0.722853,0.241982,1.50697,0.0609292,9.88832,-4.42477,15.4917,22.2889,0.236528,-0.649816,0.272104,1.58724,-0.763668,2.91647,3.18877,0.309954,-0.0505933,0.450955
4854720,0.98,-1.52745,-0.495286,0.0236456,-2.06534,1.58242,1.63914,0.787851,-1.5233,-0.493787,0.0276988,-2.06106,1.5835,1.64299,0.788664,0.9531,0.628064,0.527083,0.690709,0.240394,1.4481,0.0716844,0.995707,0.65927,0.578358,0.730844,0.243215,1.52036,0.0612865,9.78517,-4.52792,15.4441,21.9159,0.26491,-0.75327,0.343516,1.56051,-0.805475,2.8891,3.22708,0.309634,-0.0456631,0.450168
4854721,0.98,-1.52647,-0.494641,0.0242061,-2.06462,1.58268,1.64063,0.787909,-1.52229,-0.49312,0.0282822,-2.06032,1.58374,1.64453,0.788726,0.959932,0.627911,0.531828,0.705012,0.247449,1.47027,0.0693782,1.0041,0.66676,0.583451,0.738836,0.244447,1.53375,0.0616437,9.78517,-4.45255,15.3171,21.7176,0.225542,-0.772496,0.434153,1.52192,-0.813326,2.84712,3.24172,0.308603,-0.0378813,0.449353
4854722,0.98,-1.52548,-0.49399,0.024763,-2.06389,1.58294,1.64213,0.787977,-1.52128,-0.492446,0.0288708,-2.05958,1.58399,1.64607,0.788788,0.99041,0.632973,0.543363,0.714145,0.252042,1.47679,0.0715253,1.01249,0.67425,0.588544,0.746827,0.24568,1.54714,0.062001,9.63441,-4.27402,15.1624,21.5668,0.0845506,-0.527135,0.427744,1.47386,-0.778989,2.7948,3.22815,0.306567,-0.0276804,0.44854
4854723,0.98,-1.52447,-0.493364,0.0253189,-2.06316,1.5832,1.64366,0.788042,-1.52026,-0.491764,0.0294644,-2.05882,1.58424,1.64763,0.78885,0.996525,0.62787,0.547077,0.719899,0.25011,1.48789,0.0677737,1.02088,0.68174,0.593638,0.754819,0.246913,1.56053,0.0623582,9.38447,-3.82175,15.087,21.4676,0.0561693,-0.424596,0.42042,1.41177,-0.699676,2.72622,3.18797,0.303637,-0.0143782,0.447853
4854724,0.98,-1.52345,-0.492715,0.0258874,-2.0624,1.58345,1.64519,0.788109,-1.51923,-0.491075,0.0300631,-2.05806,1.58449,1.64921,0.788913,0.997854,0.631647,0.549654,0.723877,0.250967,1.50476,0.0709624,1.02927,0.68923,0.598731,0.76281,0.248145,1.57392,0.0627155,9.30909,-3.46469,15.0355,21.3169,0.112016,-0.560094,0.388376,1.34395,-0.577299,2.65251,3.12654,0.299647,0.000981899,0.447361
4854725,0.98,-1.52245,-0.492053,0.0264587,-2.06167,1.5837,1.64678,0.788171,-1.51819,-0.490378,0.0306669,-2.05729,1.58473,1.65079,0.788976,1.00129,0.639133,0.554596,0.732414,0.253183,1.52174,0.0716146,1.03766,0.69672,0.603824,0.770801,0.249378,1.58731,0.0630728,9.3567,-3.36551,14.8609,21.3922,0.186174,-0.80454,0.394785,1.28573,-0.426393,2.59414,3.05329,0.294385,0.016069,0.447034
4854726,0.98,-1.52141,-0.49136,0.0270285,-2.0609,1.58396,1.64834,0.78822,-1.51715,-0.489674,0.0312759,-2.05651,1.58499,1.6524,0.78904,1.01006,0.652992,0.559014,0.745739,0.254991,1.53725,0.0641004,1.04606,0.70421,0.608917,0.778793,0.250611,1.6007,0.06343,9.23372,-3.61942,14.8609,21.3446,0.202654,-0.919896,0.479014,1.24318,-0.270707,2.55889,2.97819,0.288043,0.029481,0.446818
4854727,0.98,-1.52037,-0.490653,0.0276024,-2.06012,1.58422,1.64993,0.788277,-1.51609,-0.488962,0.0318899,-2.05572,1.58524,1.65401,0.789103,1.04127,0.665719,0.572702,0.75617,0.255407,1.54777,0.0657589,1.05445,0.7117,0.614011,0.786784,0.251843,1.61409,0.0637873,9.07899,-3.86935,14.8847,21.3684,0.236528,-0.997716,0.518381,1.20687,-0.131368,2.5335,2.90838,0.281276,0.0418684,0.446735
4854728,0.98,-1.51934,-0.489957,0.0282017,-2.05936,1.58448,1.65153,0.788344,-1.51503,-0.488243,0.0325085,-2.05493,1.58549,1.65564,0.789167,1.03647,0.675916,0.579587,0.759444,0.253999,1.55529,0.0653805,1.06176,0.71919,0.618665,0.794616,0.25263,1.62612,0.063974,9.25752,-4.04788,14.7855,21.6144,0.214556,-0.933629,0.472605,1.16389,-0.0229404,2.49958,2.85095,0.274885,0.0545101,0.446882
4854729,0.98,-1.51829,-0.489249,0.0288023,-2.05858,1.58474,1.65315,0.788405,-1.51396,-0.487516,0.0331319,-2.05413,1.58574,1.65727,0.789231,1.03666,0.685887,0.588149,0.762074,0.258825,1.57685,0.0648678,1.06907,0.72668,0.623319,0.802448,0.253416,1.63815,0.0641608,9.55903,-4.12326,14.6586,21.9397,0.24843,-1.16526,0.427744,1.11913,0.0463282,2.46224,2.81322,0.269162,0.0663327,0.447306
4854730,0.98,-1.51724,-0.488543,0.0293883,-2.0578,1.585,1.65481,0.788474,-1.51289,-0.486782,0.0337598,-2.05332,1.586,1.65892,0.789296,1.04194,0.689223,0.587038,0.767588,0.263871,1.59574,0.0658612,1.07638,0.73417,0.627973,0.810279,0.254203,1.65017,0.0643476,9.66218,-4.22244,14.734,22.2135,0.282305,-1.46097,0.349924,1.08525,0.0795853,2.43798,2.79666,0.263903,0.0752638,0.447939
4854731,0.98,-1.51616,-0.487819,0.0299932,-2.05701,1.58527,1.65642,0.788552,-1.5118,-0.486041,0.0343925,-2.0525,1.58625,1.66059,0.78936,1.05025,0.700513,0.583886,0.773098,0.266468,1.60041,0.068443,1.0837,0.74166,0.632627,0.818111,0.254989,1.6622,0.0645343,9.66218,-4.30179,14.6308,22.4356,0.220049,-1.27421,0.200693,1.07011,0.0874717,2.43857,2.79711,0.258732,0.0799548,0.448638
4854732,0.98,-1.51508,-0.48708,0.030592,-2.05621,1.58553,1.65806,0.78862,-1.51071,-0.485291,0.0350297,-2.05167,1.58651,1.66226,0.789425,1.05753,0.708299,0.590075,0.780176,0.264419,1.60723,0.0669011,1.09101,0.74915,0.637281,0.825943,0.255776,1.67422,0.0647211,9.66218,-4.37717,14.7062,22.511,0.259416,-1.16526,0.149424,1.07481,0.0747368,2.46644,2.81201,0.253494,0.0801197,0.449189
4854733,0.98,-1.51403,-0.486334,0.0311743,-2.0554,1.58577,1.65974,0.788688,-1.50961,-0.484535,0.0356717,-2.05084,1.58676,1.66395,0.78949,1.06563,0.725087,0.584667,0.791483,0.255247,1.62009,0.0690991,1.09832,0.75664,0.641936,0.833774,0.256562,1.68625,0.0649078,9.81294,-4.62711,14.8331,22.3603,0.383928,-1.21012,0.129282,1.09647,0.0398598,2.51763,2.8405,0.24826,0.0762523,0.449326
4854734,0.98,-1.51297,-0.485565,0.0317774,-2.05457,1.58603,1.66142,0.788764,-1.50851,-0.483771,0.0363183,-2.05,1.58702,1.66564,0.789555,1.05618,0.733471,0.586958,0.804647,0.252762,1.63911,0.0714072,1.10563,0.76413,0.64659,0.841606,0.257349,1.69827,0.0650946,10.1898,-4.93259,14.7855,22.0627,0.383928,-1.40329,0.071604,1.1389,-0.0179089,2.59717,2.87953,0.242948,0.0679625,0.448821
4854735,0.98,-1.51191,-0.484801,0.0323747,-2.05372,1.5863,1.66309,0.788845,-1.50739,-0.482999,0.0369695,-2.04915,1.58728,1.66735,0.78962,1.05821,0.750816,0.589895,0.814876,0.262298,1.64239,0.0705692,1.11294,0.77162,0.651244,0.849438,0.258135,1.7103,0.0652814,10.3406,-5.03177,14.8609,21.7652,0.282305,-1.23575,-0.0190333,1.20721,-0.0969134,2.71086,2.92507,0.237473,0.0546916,0.447518
4854736,0.98,-1.5108,-0.484051,0.0329861,-2.05288,1.58657,1.6648,0.788923,-1.50627,-0.48222,0.0376254,-2.04829,1.58754,1.66908,0.789686,1.07191,0.750832,0.601264,0.823127,0.266458,1.65787,0.0722821,1.12026,0.77911,0.655898,0.857269,0.258921,1.72233,0.0654681,10.166,-4.90482,14.9601,21.543,0.186174,-1.1204,-0.044668,1.29292,-0.189755,2.84528,2.97282,0.232041,0.0379828,0.445295
4854737,0.98,-1.50972,-0.483288,0.0336073,-2.05201,1.58685,1.66648,0.789009,-1.50515,-0.481433,0.038286,-2.04742,1.5878,1.67081,0.789751,1.07765,0.749543,0.605945,0.831917,0.26622,1.66702,0.0786579,1.12757,0.7866,0.660552,0.865101,0.259708,1.73435,0.0656549,10.3684,-4.73026,14.9363,21.2455,0.027788,-0.946447,-0.077627,1.38002,-0.270723,2.97767,3.01196,0.226783,0.0206924,0.44206
4854738,0.98,-1.50865,-0.482522,0.0342434,-2.05116,1.58711,1.66824,0.789074,-1.50401,-0.480639,0.0389507,-2.04655,1.58806,1.67256,0.789817,1.07027,0.754526,0.613908,0.836328,0.26696,1.68681,0.0717204,1.13377,0.79409,0.664763,0.87276,0.260052,1.74497,0.0656631,10.7453,-4.62711,14.734,21.1423,-0.0234816,-1.0618,0.071604,1.46416,-0.317399,3.10163,3.03382,0.221452,0.00403627,0.43777
4854739,0.98,-1.50755,-0.481741,0.0348683,-2.05029,1.58738,1.66997,0.789132,-1.50287,-0.479838,0.0396197,-2.04567,1.58832,1.67431,0.789883,1.07869,0.758699,0.613305,0.850266,0.265443,1.70464,0.0673084,1.13997,0.80158,0.668974,0.880418,0.260395,1.75559,0.0656714,10.7453,-4.6033,14.734,20.9955,-0.0289747,-1.07462,0.316965,1.55094,-0.328311,3.22441,3.03791,0.215631,-0.0124384,0.432505
4854740,0.98,-1.50642,-0.480946,0.0355014,-2.04941,1.58764,1.67174,0.78919,-1.50173,-0.479029,0.0402929,-2.04478,1.58858,1.67608,0.789949,1.11629,0.767385,0.622812,0.85836,0.271275,1.71853,0.0632604,1.14617,0.80907,0.673185,0.888077,0.260739,1.76621,0.0656796,10.1898,-4.6033,14.6308,20.9717,0.0103929,-1.06821,0.504648,1.63331,-0.308412,3.33736,3.02489,0.209243,-0.0276019,0.426621
4854741,0.98,-1.50526,-0.480162,0.0361616,-2.04853,1.58792,1.67351,0.789249,-1.50057,-0.478212,0.0409703,-2.04389,1.58884,1.67786,0.790014,1.12653,0.76955,0.634441,0.863713,0.274824,1.72821,0.0576339,1.15237,0.81656,0.677396,0.895736,0.261083,1.77683,0.0656878,9.63441,-4.5795,14.3293,20.9717,-0.0399611,-0.952855,0.641062,1.6916,-0.264268,3.41473,2.99807,0.202759,-0.0385932,0.42073
4854742,0.98,-1.5041,-0.479364,0.0368442,-2.04764,1.58818,1.67526,0.789304,-1.49942,-0.477388,0.0416519,-2.04298,1.5891,1.67964,0.79008,1.1343,0.772493,0.645509,0.864145,0.264602,1.73689,0.0534614,1.15857,0.82405,0.681607,0.903394,0.261427,1.78745,0.0656961,9.13057,-4.42477,13.7699,21.0709,0.027788,-0.855809,0.77656,1.71797,-0.20091,3.44548,2.96335,0.19662,-0.0442484,0.415498
4854743,0.98,-1.50297,-0.478569,0.0375285,-2.04675,1.58844,1.67705,0.78936,-1.49825,-0.476557,0.0423377,-2.04207,1.58936,1.68144,0.790146,1.13469,0.778522,0.658955,0.869692,0.261656,1.74364,0.0545933,1.16477,0.83154,0.685819,0.911053,0.261771,1.79807,0.0657043,8.75367,-4.32559,13.2383,21.1701,0.157793,-0.766088,0.795786,1.71755,-0.124389,3.43594,2.92702,0.191007,-0.0453011,0.411504
4854744,0.98,-1.50181,-0.477756,0.0382271,-2.04585,1.5887,1.6788,0.789411,-1.49708,-0.475717,0.0430277,-2.04115,1.58963,1.68325,0.790211,1.14045,0.78556,0.666603,0.876874,0.26138,1.74934,0.0509889,1.17097,0.83903,0.69003,0.918711,0.262115,1.80869,0.0657125,8.57515,-4.19864,12.5797,21.2693,0.180681,-0.546361,0.80311,1.69751,-0.0430396,3.39597,2.89337,0.185973,-0.0427811,0.409158
4854745,0.98,-1.50066,-0.476929,0.0389161,-2.04492,1.58899,1.68057,0.789463,-1.4959,-0.474871,0.043722,-2.04023,1.58989,1.68507,0.790277,1.16785,0.795059,0.687953,0.886745,0.27084,1.74343,0.0504263,1.17718,0.84652,0.694241,0.92637,0.262458,1.81932,0.0657208,8.32521,-4.25021,12.1751,21.2931,0.0561693,-0.1536,0.744517,1.65478,0.0371404,3.32217,2.86327,0.181738,-0.0360858,0.408658
4854746,0.98,-1.49946,-0.476103,0.0396156,-2.04402,1.58928,1.68237,0.789515,-1.49472,-0.474017,0.0444204,-2.03929,1.59015,1.6869,0.790343,1.17582,0.805358,0.693818,0.892272,0.271429,1.75228,0.0536007,1.18338,0.85401,0.698452,0.934029,0.262802,1.82994,0.065729,7.81739,-4.30179,12.0243,21.416,-0.0115797,0.000208706,0.706064,1.5798,0.109412,3.20219,2.83833,0.178621,-0.0234524,0.409967
4854747,0.98,-1.49826,-0.47526,0.0403161,-2.04309,1.58957,1.68417,0.789567,-1.49353,-0.473155,0.0451231,-2.03835,1.59041,1.68874,0.790408,1.17734,0.811583,0.693936,0.897399,0.272462,1.76176,0.0523118,1.18958,0.8615,0.702663,0.941687,0.263146,1.84056,0.0657373,7.49208,-4.40097,12.0243,21.5668,-0.130598,-0.0574695,0.634653,1.48269,0.1672,3.05116,2.82165,0.176265,-0.00593015,0.41284
4854748,0.98,-1.49711,-0.474407,0.041033,-2.04216,1.58983,1.68602,0.789629,-1.49233,-0.472286,0.0458295,-2.0374,1.59068,1.69059,0.790474,1.15142,0.824481,0.699844,0.922021,0.267655,1.78353,0.0605342,1.19466,0.86899,0.706429,0.949162,0.263057,1.84975,0.0655616,7.71821,-4.62711,11.8458,21.7176,-0.0683424,-0.366002,0.440561,1.39183,0.211627,2.90919,2.80989,0.173563,0.0125021,0.416925
4854749,0.98,-1.49592,-0.473544,0.0417556,-2.04123,1.59011,1.68788,0.789696,-1.49113,-0.47141,0.0465397,-2.03645,1.59094,1.69245,0.790539,1.15911,0.831384,0.699623,0.919982,0.271191,1.79555,0.0672599,1.19974,0.87648,0.710195,0.956636,0.262968,1.85894,0.065386,7.92054,-4.88101,11.695,21.666,-0.0683424,-0.643407,0.213511,1.32949,0.244895,2.80712,2.79849,0.169593,0.0282958,0.421768
4854750,0.98,-1.49471,-0.472671,0.0424782,-2.04028,1.59038,1.68972,0.789784,-1.48993,-0.470526,0.0472537,-2.03548,1.5912,1.69432,0.790605,1.17139,0.839132,0.701411,0.925567,0.265795,1.81209,0.0765699,1.20481,0.88397,0.713961,0.964111,0.262879,1.86814,0.0652104,7.76979,-5.00797,11.6712,21.666,0.0332811,-0.766088,-0.135305,1.29661,0.263642,2.74726,2.79227,0.164358,0.0406138,0.426741
4854751,0.98,-1.49349,-0.471813,0.043183,-2.03934,1.59066,1.69159,0.789858,-1.48872,-0.469635,0.0479714,-2.03451,1.59147,1.69619,0.79067,1.18862,0.842903,0.698945,0.936139,0.267371,1.81907,0.0794038,1.20989,0.89146,0.717727,0.971585,0.262791,1.87733,0.0650347,7.56746,-5.03177,11.6712,21.5906,-0.0518629,-0.919896,-0.271719,1.2816,0.272261,2.71551,2.79232,0.158238,0.0503649,0.43107
4854752,0.98,-1.49228,-0.470934,0.0439151,-2.03838,1.59092,1.6935,0.789933,-1.48751,-0.468736,0.0486929,-2.03353,1.59173,1.69808,0.790735,1.1874,0.848021,0.707786,0.945232,0.262487,1.85293,0.0746521,1.21497,0.89895,0.721494,0.97906,0.262702,1.88653,0.0648591,7.56746,-4.95639,11.4173,21.4438,0.0332811,-1.6157,-0.34313,1.27634,0.284375,2.70133,2.79108,0.151441,0.0579748,0.433949
4854753,0.98,-1.49107,-0.470049,0.0446166,-2.03739,1.59117,1.6954,0.790005,-1.48629,-0.467829,0.0494182,-2.03254,1.59199,1.69998,0.790799,1.20026,0.871744,0.711168,0.958796,0.265374,1.85654,0.0720679,1.22005,0.90644,0.72526,0.986534,0.262613,1.89572,0.0646834,7.51588,-4.82944,11.4927,21.1701,0.168779,-1.83451,-0.303762,1.27666,0.29495,2.69776,2.78865,0.144302,0.0630083,0.434745
4854754,0.98,-1.48985,-0.469167,0.0453246,-2.03641,1.59143,1.69728,0.790058,-1.48506,-0.466915,0.0501472,-2.03155,1.59225,1.70188,0.790864,1.20871,0.879429,0.710494,0.972612,0.26699,1.85561,0.0673971,1.22513,0.91393,0.729026,0.994009,0.262524,1.90492,0.0645078,7.54365,-4.80563,11.5919,20.7972,0.26491,-1.53879,-0.0318506,1.27872,0.286063,2.69898,2.79032,0.137187,0.0649233,0.433163
4854755,0.98,-1.48864,-0.468262,0.0460389,-2.03541,1.59171,1.69911,0.790127,-1.48383,-0.465994,0.05088,-2.03055,1.59252,1.70379,0.790928,1.20457,0.888705,0.711146,0.977786,0.265774,1.83833,0.0691115,1.23021,0.92142,0.732792,1.00148,0.262435,1.91411,0.0643322,7.94435,-4.85721,11.6712,20.5472,0.282305,-0.972081,0.110056,1.28363,0.25819,2.70691,2.79501,0.130206,0.0632075,0.429342
4854756,0.98,-1.48746,-0.46737,0.0467322,-2.03444,1.59197,1.701,0.790189,-1.48259,-0.465065,0.0516165,-2.02954,1.59278,1.70572,0.790992,1.19533,0.888016,0.707183,0.979103,0.262981,1.84506,0.0621046,1.23529,0.92891,0.736559,1.00896,0.262346,1.9233,0.0641565,8.40059,-4.78183,11.9211,20.4996,0.236528,-0.766088,0.356333,1.30141,0.223513,2.73467,2.80055,0.123334,0.0570622,0.423821
4854757,0.98,-1.48624,-0.466466,0.0474449,-2.03344,1.59226,1.70288,0.790252,-1.48135,-0.464128,0.0523569,-2.02852,1.59304,1.70765,0.791056,1.19839,0.887992,0.704375,0.982452,0.270707,1.85951,0.0643049,1.24037,0.9364,0.740325,1.01643,0.262257,1.9325,0.0639809,8.65052,-4.62711,12.1235,20.6226,0.0222948,-0.694677,0.550425,1.34294,0.198011,2.79616,2.80388,0.116456,0.0460976,0.417337
4854758,0.98,-1.48503,-0.465538,0.0481515,-2.03243,1.59255,1.70481,0.790321,-1.48011,-0.463185,0.0531005,-2.0275,1.5933,1.70959,0.79112,1.22194,0.897763,0.701851,0.9845,0.285616,1.87902,0.0651897,1.24433,0.94389,0.743646,1.02371,0.261751,1.94026,0.0636174,8.7259,-4.70645,12.2782,20.9717,-0.221235,-0.707494,0.641062,1.40557,0.189345,2.88776,2.80375,0.109554,0.0317303,0.410692
4854759,0.98,-1.4838,-0.464605,0.0488705,-2.03144,1.59284,1.70675,0.790392,-1.47886,-0.462233,0.0538475,-2.02647,1.59356,1.71154,0.791183,1.22398,0.907442,0.703046,0.984146,0.28964,1.89671,0.0671321,1.2483,0.95138,0.746968,1.03099,0.261245,1.94803,0.0632539,8.80128,-4.90482,12.4528,21.2455,-0.408003,-0.72672,0.673105,1.47828,0.183615,2.99427,2.80812,0.10272,0.0161511,0.404635
4854760,0.98,-1.48257,-0.46366,0.0495971,-2.03042,1.59312,1.70867,0.790463,-1.47761,-0.461274,0.0545978,-2.02543,1.59382,1.71349,0.791246,1.21601,0.915484,0.701693,0.985672,0.285383,1.90037,0.0661174,1.25226,0.95887,0.750289,1.03828,0.260739,1.95579,0.0628903,8.92823,-5.10715,12.5559,21.6144,-0.374129,-0.733129,0.653879,1.56048,0.163966,3.11322,2.82642,0.0956856,-0.000177431,0.399723
4854761,0.98,-1.48135,-0.462713,0.0503261,-2.02941,1.59338,1.71063,0.790531,-1.47635,-0.460308,0.0553514,-2.02439,1.59409,1.71546,0.791308,1.21913,0.925522,0.712777,1.01608,0.276113,1.9082,0.0710975,1.25623,0.96636,0.753611,1.04556,0.260233,1.96356,0.0625268,9.03138,-5.26187,12.4528,21.6898,-0.294478,-0.746862,0.595286,1.65386,0.133757,3.24496,2.8528,0.0878767,-0.0171613,0.396317
4854762,0.98,-1.48011,-0.461752,0.0510669,-2.02837,1.59363,1.71256,0.790601,-1.47509,-0.459334,0.0561083,-2.02333,1.59434,1.71743,0.791371,1.22006,0.94074,0.71986,1.02405,0.263474,1.9513,0.0720197,1.26019,0.97385,0.756932,1.05284,0.259726,1.97132,0.0621633,8.82905,-5.36105,12.2782,21.5668,-0.0518629,-0.772496,0.466196,1.75113,0.103089,3.37788,2.87395,0.07915,-0.0338305,0.394545
4854763,0.98,-1.47883,-0.460784,0.0518005,-2.0273,1.59389,1.71452,0.790657,-1.47383,-0.458353,0.0568686,-2.02227,1.5946,1.71941,0.791432,1.2427,0.943737,0.728438,1.03623,0.261617,1.95156,0.0676503,1.26415,0.98134,0.760254,1.06012,0.25922,1.97909,0.0617997,7.97212,-5.36105,12.0243,21.1185,0.123918,-0.688268,0.472605,1.84019,0.0735079,3.49478,2.8871,0.0700765,-0.0487799,0.394235
4854764,0.98,-1.47754,-0.459822,0.0525743,-2.02624,1.59417,1.71649,0.790725,-1.47256,-0.457364,0.0576321,-2.02121,1.59486,1.7214,0.791494,1.25327,0.947773,0.738825,1.04209,0.262838,1.95314,0.069214,1.26812,0.98883,0.763575,1.0674,0.258714,1.98685,0.0614362,7.1866,-5.33725,11.4411,20.7972,0.134905,-0.507909,0.349924,1.90489,0.0549387,3.57491,2.89074,0.0614677,-0.0595834,0.395056
4854765,0.98,-1.47627,-0.458834,0.0533665,-2.02516,1.59444,1.71844,0.790803,-1.47129,-0.456368,0.058399,-2.02013,1.59512,1.72339,0.791555,1.25991,0.95623,0.755132,1.05195,0.265268,1.95517,0.0737492,1.27208,0.99632,0.766897,1.07468,0.258208,1.99462,0.0610727,6.88508,-5.43643,10.7072,20.4242,0.078142,-0.431005,0.129282,1.93351,0.0559421,3.60375,2.88339,0.0540179,-0.0642844,0.396637
4854766,0.98,-1.47499,-0.45787,0.0541378,-2.02407,1.59472,1.72042,0.790862,-1.47001,-0.455364,0.0591692,-2.01905,1.59538,1.72539,0.791616,1.28098,0.97503,0.762729,1.05992,0.270921,1.95464,0.0696194,1.27605,1.00381,0.770218,1.08196,0.257702,2.00238,0.0607092,6.63514,-5.18649,10.2787,20.1981,-0.0738356,-0.308324,0.103647,1.92138,0.0629034,3.5758,2.87203,0.0482432,-0.0621501,0.3985
4854767,0.98,-1.47372,-0.456867,0.0549208,-2.023,1.595,1.7224,0.790926,-1.46873,-0.454353,0.0599428,-2.01796,1.59564,1.7274,0.791676,1.2865,0.981929,0.763632,1.06248,0.276724,1.94937,0.0623599,1.28001,1.0113,0.77354,1.08924,0.257195,2.01015,0.0603456,6.43281,-5.28568,9.89783,20.1505,-0.288985,-0.0638782,0.0651953,1.87159,0.0550453,3.49694,2.86673,0.0441562,-0.0535656,0.400095
4854768,0.98,-1.47243,-0.455851,0.0557131,-2.02191,1.5953,1.72436,0.790986,-1.46745,-0.453334,0.0607192,-2.01686,1.59589,1.72942,0.791736,1.28749,0.985166,0.767595,1.06327,0.287826,1.95607,0.0644417,1.28289,1.01879,0.776419,1.09632,0.256292,2.01649,0.0597903,6.1551,-5.4642,9.66773,20.2259,-0.571882,0.148524,0.0844213,1.79911,0.0303853,3.38891,2.87096,0.0410167,-0.0404588,0.400977
