shamilmamedov/beam_handling/data/param_estimation_ICRA/ocp_Xdown_35cm_0.57s_5.csv
duration, success rate, q[0], q[1], q[2], q[3], q[4], q[5], q[6],q_d[0], q_d[1], q_d[2], q_d[3], q_d[4], q_d[5], q_d[6],dq[0], dq[1], dq[2], dq[3], dq[4], dq[5], dq[6],dq_d[0], dq_d[1], dq_d[2], dq_d[3], dq_d[4], dq_d[5], dq_d[6],tau_J[0], tau_J[1], tau_J[2], tau_J[3], tau_J[4], tau_J[5], tau_J[6],tau_ext_hat_filtered[0], tau_ext_hat_filtered[1], tau_ext_hat_filtered[2], tau_ext_hat_filtered[3], tau_ext_hat_filtered[4], tau_ext_hat_filtered[5], tau_ext_hat_filtered[6]
3478894,0,-1.5708,-0.522828,-0.000342962,-2.09599,-1.57061,1.57145,0.785423,-1.5708,-0.523599,-1.59951e-07,-2.09439,-1.5708,1.5708,0.785397,-0.000496881,-0.00111243,0.000977361,-0.000326582,0.000139134,-0.000180729,-0.00141527,0,0,0,0,0,0,0,0.0256461,-10.1654,0.606448,21.0947,-0.865767,-0.520726,0.038645,0.0104373,-1.06426,0.464957,2.54807,-0.295886,-0.517106,-0.0328914
3478895,0,-1.5708,-0.522825,-0.000346582,-2.09599,-1.57061,1.57145,0.785427,-1.5708,-0.523599,-1.59951e-07,-2.09439,-1.5708,1.5708,0.785397,0.00031836,0.000372002,-0.000554852,0.000339074,-0.000110695,-0.000120486,0.00048064,0,0,0,0,0,0,0,-0.00212494,-10.213,0.658023,21.0709,-0.860274,-0.520726,0.000192821,0.00978705,-1.06119,0.464149,2.54662,-0.29592,-0.517286,-0.0329302
3478896,1,-1.5708,-0.522828,-0.000344633,-2.09599,-1.57061,1.57145,0.785428,-1.5708,-0.523599,-1.59951e-07,-2.09439,-1.5708,1.5708,0.785397,0.000769052,-0.000865623,0.000279713,0.000226037,-0.000277247,-8.03242e-05,0.000557786,0,0,0,0,0,0,0,-0.0259286,-10.1654,0.630252,21.0709,-0.85478,-0.520726,-0.00621587,0.0091712,-1.05857,0.463462,2.54529,-0.295952,-0.517467,-0.0329888
3478897,1,-1.5708,-0.522826,-0.000342962,-2.09599,-1.57061,1.57145,0.785429,-1.5708,-0.523599,-1.59951e-07,-2.09439,-1.5708,1.5708,0.785397,-4.41106e-05,-2.02698e-05,0.000743287,-0.00040613,-0.000184831,0.000183809,0.000846575,0,0,0,0,0,0,0,-0.00212494,-10.1892,0.606448,21.0947,-0.85478,-0.527135,-0.0190333,0.00821809,-1.05636,0.462366,2.54412,-0.295991,-0.5177,-0.0330648
3478898,1,-1.5708,-0.522826,-0.000344633,-2.09599,-1.57061,1.57145,0.785427,-1.5708,-0.523599,-1.59951e-07,-2.09439,-1.5708,1.5708,0.785397,-2.94071e-05,-1.35132e-05,-6.12872e-05,0.000286051,0.000487131,-0.000114819,-0.000147694,0,0,0,0,0,0,0,-0.00212494,-10.1892,0.630252,21.0709,-0.87126,-0.520726,0.000192821,0.0070889,-1.05507,0.460999,2.54351,-0.296043,-0.517963,-0.0331791
3478899,1,-1.5708,-0.522828,-0.000344633,-2.09599,-1.57061,1.57145,0.785421,-1.5708,-0.523599,-1.59951e-07,-2.09439,-1.5708,1.5708,0.785397,-1.96047e-05,-0.000565821,-4.08582e-05,0.000190696,-8.21472e-05,0.000160813,-0.00203124,0,0,0,0,0,0,0,-0.00212494,-10.1654,0.630252,21.0709,-0.860274,-0.527135,0.0523779,0.00640412,-1.05441,0.460276,2.54315,-0.296077,-0.518158,-0.0333468
3478900,1,-1.5708,-0.522826,-0.000348252,-2.096,-1.57061,1.57145,0.785428,-1.5708,-0.523599,-1.59951e-07,-2.09439,-1.5708,1.5708,0.785397,-1.30698e-05,0.000179598,-0.00123366,-0.000986497,0.000148686,-0.00013015,0.000815977,0,0,0,0,0,0,0,-0.00212494,-10.1892,0.681826,21.1185,-0.865767,-0.520726,-0.00621587,0.00653916,-1.0541,0.460828,2.54309,-0.29609,-0.518224,-0.0335385
3478901,1,-1.5708,-0.522821,-0.000344633,-2.096,-1.57061,1.57145,0.785428,-1.5708,-0.523599,-1.59951e-07,-2.09439,-1.5708,1.5708,0.785397,-8.71321e-06,0.00188297,0.000383983,-0.000657668,-0.000104327,-8.6767e-05,0.000543985,0,0,0,0,0,0,0,-0.00212494,-10.2646,0.630252,21.1185,-0.860274,-0.520726,-0.00621587,0.00727109,-1.05664,0.462425,2.54476,-0.296153,-0.518225,-0.0337027
3478902,1,-1.5708,-0.522826,-0.000346582,-2.09599,-1.57061,1.57145,0.78543,-1.5708,-0.523599,-1.59951e-07,-2.09439,-1.5708,1.5708,0.785397,-0.000655423,-0.000507925,-0.000393625,0.000675176,-0.000713811,-0.000295204,0.00107473,0,0,0,0,0,0,0,0.0256461,-10.1892,0.658023,21.0709,-0.842879,-0.514318,-0.0254419,0.00805032,-1.06163,0.46415,2.54758,-0.296257,-0.518243,-0.0338459
3478903,1,-1.5708,-0.522826,-0.000346582,-2.096,-1.57061,1.57145,0.785426,-1.5708,-0.523599,-1.59951e-07,-2.09439,-1.5708,1.5708,0.785397,-0.000436948,-0.000338616,-0.000262417,-0.000663508,0.000168386,-0.000196802,-0.000470306,0,0,0,0,0,0,0,0.0256461,-10.1892,0.658023,21.1185,-0.860274,-0.514318,0.00660151,0.00903839,-1.0649,0.46606,2.54937,-0.296308,-0.518204,-0.0340151
3478904,1,-1.5708,-0.522828,-0.000344633,-2.09599,-1.57061,1.57145,0.785422,-1.5708,-0.523599,-1.59951e-07,-2.09439,-1.5708,1.5708,0.785397,0.000358315,-0.000782556,0.000474669,0.000114472,0.000112257,0.000343516,-0.0017716,0,0,0,0,0,0,0,-0.00212494,-10.1654,0.630252,21.0947,-0.860274,-0.527135,0.0459692,0.00990027,-1.06537,0.467659,2.54989,-0.296297,-0.518135,-0.0342325
3478905,1,-1.5708,-0.522826,-0.000342962,-2.09599,-1.57061,1.57145,0.785426,-1.5708,-0.523599,-1.59951e-07,-2.09439,-1.5708,1.5708,0.785397,0.000238877,3.51078e-05,0.000873258,7.63137e-05,7.48382e-05,-8.34808e-06,0.000276996,0,0,0,0,0,0,0,-0.00212494,-10.1892,0.606448,21.0947,-0.860274,-0.520726,0.00660151,0.00967199,-1.0643,0.467578,2.54969,-0.29627,-0.518203,-0.0344676
3478906,1,-1.5708,-0.522827,-0.000342962,-2.09599,-1.57061,1.57145,0.785427,-1.5708,-0.523599,-1.59951e-07,-2.09439,-1.5708,1.5708,0.785397,-0.00104717,0.000580217,0.000582172,0.000607687,4.98921e-05,0.000231794,0.000422023,0,0,0,0,0,0,0,0.0494498,-10.213,0.606448,21.0709,-0.860274,-0.527135,0.000192821,0.00865193,-1.06332,0.466207,2.54927,-0.296248,-0.518394,-0.0346713
3478907,1,-1.5708,-0.522829,-0.000344633,-2.096,-1.57061,1.57145,0.785431,-1.5708,-0.523599,-1.59951e-07,-2.09439,-1.5708,1.5708,0.785397,-0.000141305,-0.000726812,-0.000168697,-0.00126531,-0.000170189,0.000154529,0.00146814,0,0,0,0,0,0,0,0.0256461,-10.1654,0.630252,21.1423,-0.85478,-0.527135,-0.0318506,0.00793036,-1.06314,0.465114,2.54924,-0.296231,-0.518559,-0.0348367
3478908,1,-1.5708,-0.522825,-0.000344633,-2.09599,-1.57061,1.57145,0.785424,-1.5708,-0.523599,-1.59951e-07,-2.09439,-1.5708,1.5708,0.785397,0.000555411,0.000629082,-0.000112465,0.000270082,8.99911e-05,0.000103019,-0.00115747,0,0,0,0,0,0,0,-0.00212494,-10.213,0.630252,21.0947,-0.860274,-0.527135,0.0258276,0.00767291,-1.06344,0.464665,2.54979,-0.296219,-0.518671,-0.0349987
3478909,1,-1.5708,-0.522826,-0.000344633,-2.09599,-1.57061,1.57145,0.785421,-1.5708,-0.523599,-1.59951e-07,-2.09439,-1.5708,1.5708,0.785397,0.000370274,-0.000137424,-7.49765e-05,0.0077299,5.99941e-05,-0.000406038,-0.00175499,0,0,0,0,0,0,0,-0.00212494,-10.1892,0.630252,21.0431,-0.860274,-0.514318,0.0523779,0.00743875,-1.06171,0.46425,2.54798,-0.2961,-0.518777,-0.0351939
3478910,1,-1.5708,-0.522823,-0.000348252,-2.09599,-1.57061,1.57145,0.785425,-1.5708,-0.523599,-1.59951e-07,-2.09439,-1.5708,1.5708,0.785397,-0.000402765,0.00111481,-0.00125641,0.00568188,0.000243447,-3.33333e-05,5.071e-05,0,0,0,0,0,0,0,0.0256461,-10.2408,0.681826,21.0431,-0.865767,-0.520726,0.0194189,0.00766681,-1.05515,0.464431,2.54055,-0.295733,-0.518791,-0.0354024
3478911,1,-1.5708,-0.522828,-0.000344633,-2.096,-1.57061,1.57145,0.785425,-1.5708,-0.523599,-1.59951e-07,-2.09439,-1.5708,1.5708,0.785397,0.000937916,-0.00102003,0.000368819,0.00242115,-0.000244603,-2.22222e-05,3.38067e-05,0,0,0,0,0,0,0,-0.0259286,-10.1654,0.630252,21.1185,-0.85478,-0.520726,0.0194189,0.00840814,-1.04612,0.465354,2.53038,-0.295247,-0.518707,-0.035561
3478912,1,-1.5708,-0.522826,-0.000344633,-2.09599,-1.57061,1.57145,0.785422,-1.5708,-0.523599,-1.59951e-07,-2.09439,-1.5708,1.5708,0.785397,-0.000581148,-0.000123209,0.000245879,0.00246826,4.03816e-05,0.000459903,-0.000960806,0,0,0,0,0,0,0,0.0256461,-10.1892,0.630252,21.0947,-0.860274,-0.533544,0.0459692,0.00872341,-1.03758,0.465672,2.52159,-0.294842,-0.518678,-0.0356433
3478913,1,-1.5708,-0.522826,-0.000346582,-2.09599,-1.57061,1.57145,0.785423,-1.5708,-0.523599,-1.59951e-07,-2.09439,-1.5708,1.5708,0.785397,0.000262182,-8.21392e-05,-0.000485694,0.00186852,2.69211e-05,-0.000405475,-0.00036927,0,0,0,0,0,0,0,-0.00212494,-10.1892,0.658023,21.0947,-0.860274,-0.514318,0.038645,0.00877267,-1.03096,0.465607,2.51543,-0.294558,-0.518695,-0.0356456
3478914,1,-1.5708,-0.522825,-0.000348252,-2.096,-1.57061,1.57145,0.785425,-1.5708,-0.523599,-1.59951e-07,-2.09439,-1.5708,1.5708,0.785397,-0.000474826,0.000502052,-0.000880608,0.000299312,1.79474e-05,-0.000270317,0.000465897,0,0,0,0,0,0,0,0.0256461,-10.213,0.681826,21.1423,-0.860274,-0.514318,0.0194189,0.00935601,-1.02792,0.466456,2.51268,-0.294397,-0.518653,-0.0355514
3478915,1,-1.5708,-0.522826,-0.000344633,-2.096,-1.57061,1.57145,0.785428,-1.5708,-0.523599,-1.59951e-07,-2.09439,-1.5708,1.5708,0.785397,0.000333063,-0.00022211,0.000619354,0.000881797,-0.000428845,5.71479e-05,0.00126003,0,0,0,0,0,0,0,-0.00212494,-10.1892,0.630252,21.1185,-0.848372,-0.520726,-0.00621587,0.0101563,-1.02851,0.467776,2.51329,-0.294368,-0.518598,-0.0353643
3478916,1,-1.5708,-0.522828,-0.000341014,-2.09599,-1.57061,1.57145,0.785425,-1.5708,-0.523599,-1.59951e-07,-2.09439,-1.5708,1.5708,0.785397,-0.000427572,-0.000704885,0.00161933,0.00179557,0.000358364,3.80986e-05,-0.000109413,0,0,0,0,0,0,0,0.0256461,-10.1654,0.578677,21.0709,-0.865767,-0.520726,0.0194189,0.00998449,-1.02994,0.467602,2.51523,-0.294421,-0.518684,-0.0351329
3478917,1,-1.5708,-0.522823,-0.000342962,-2.09599,-1.57061,1.57145,0.785424,-1.5708,-0.523599,-1.59951e-07,-2.09439,-1.5708,1.5708,0.785397,-0.000285048,0.00129331,0.000429938,0.000710797,0.000238909,2.53991e-05,-0.000310301,0,0,0,0,0,0,0,0.0256461,-10.2408,0.606448,21.0947,-0.865767,-0.520726,0.0258276,0.00876751,-1.03158,0.465696,2.51751,-0.294514,-0.518924,-0.034903
3478918,1,-1.5708,-0.522823,-0.000346582,-2.096,-1.57061,1.57145,0.785424,-1.5708,-0.523599,-1.59951e-07,-2.09439,-1.5708,1.5708,0.785397,0.000459582,0.000862209,-0.0009198,-3.00256e-05,-0.000247628,-0.000220426,-0.000206867,0,0,0,0,0,0,0,-0.00212494,-10.2408,0.658023,21.1185,-0.85478,-0.514318,0.0258276,0.00774411,-1.03624,0.464102,2.52156,-0.294667,-0.519159,-0.0346754
3478919,1,-1.5708,-0.522828,-0.000346582,-2.096,-1.57061,1.57145,0.785425,-1.5708,-0.523599,-1.59951e-07,-2.09439,-1.5708,1.5708,0.785397,-0.000900038,-0.00118843,-0.0006132,1.96741e-05,3.8365e-05,0.000327767,9.94473e-05,0,0,0,0,0,0,0,0.0494498,-10.1654,0.658023,21.1185,-0.860274,-0.527135,0.0194189,0.00786242,-1.04243,0.464318,2.52693,-0.294838,-0.519226,-0.0344422
3478920,1,-1.5708,-0.522828,-0.000348252,-2.09599,-1.57061,1.57145,0.785426,-1.5708,-0.523599,-1.59951e-07,-2.09439,-1.5708,1.5708,0.785397,0.00116321,-0.000235476,-0.000965612,0.00180612,2.55767e-05,-0.000256207,0.000541016,0,0,0,0,0,0,0,-0.0259286,-10.1892,0.681826,21.0431,-0.860274,-0.514318,0.00660151,0.00893806,-1.04606,0.465969,2.53118,-0.294941,-0.519108,-0.0342123
3478921,1,-1.5708,-0.522827,-0.000344633,-2.09599,-1.57061,1.57145,0.785428,-1.5708,-0.523599,-1.59951e-07,-2.09439,-1.5708,1.5708,0.785397,-0.000430951,-0.000156984,0.000562684,1.99818e-05,1.70511e-05,-0.000170804,0.000835395,0,0,0,0,0,0,0,0.0256461,-10.1892,0.630252,21.0947,-0.860274,-0.514318,-0.00621587,0.00991578,-1.04741,0.46751,2.53394,-0.294992,-0.518976,-0.0339958
3478922,1,-1.5708,-0.522823,-0.000344633,-2.09599,-1.57061,1.57145,0.785426,-1.5708,-0.523599,-1.59951e-07,-2.09439,-1.5708,1.5708,0.785397,0.000362313,0.00110177,0.000375123,0.000586878,1.13674e-05,-0.00011387,8.22123e-05,0,0,0,0,0,0,0,-0.00212494,-10.2408,0.630252,21.0709,-0.860274,-0.514318,0.00660151,0.0101158,-1.04957,0.467908,2.53685,-0.295076,-0.518964,-0.0338055
3478923,1,-1.5708,-0.522823,-0.000346582,-2.09599,-1.57061,1.57145,0.785422,-1.5708,-0.523599,-1.59951e-07,-2.09439,-1.5708,1.5708,0.785397,0.000241542,0.000734513,-0.000399532,-0.000153002,0.000211029,-0.000313272,-0.00140325,0,0,0,0,0,0,0,-0.00212494,-10.2408,0.658023,21.0947,-0.865767,-0.507909,0.0459692,0.00975877,-1.05418,0.467534,2.54083,-0.29522,-0.519049,-0.0336568
3478924,1,-1.5708,-0.522825,-0.000342962,-2.096,-1.57061,1.57145,0.785422,-1.5708,-0.523599,-1.59951e-07,-2.09439,-1.5708,1.5708,0.785397,0.000161028,-0.000159938,0.000940071,-0.000649394,0.000140686,0.000503229,-0.000935503,0,0,0,0,0,0,0,-0.00212494,-10.213,0.606448,21.1185,-0.865767,-0.527135,0.0459692,0.00910174,-1.06008,0.466796,2.5455,-0.295403,-0.519171,-0.0335384
3478925,1,-1.5708,-0.522825,-0.000342962,-2.09599,-1.57061,1.57145,0.785428,-1.5708,-0.523599,-1.59951e-07,-2.09439,-1.5708,1.5708,0.785397,0.000107352,-0.000106626,0.000626714,0.000130947,-0.00010966,-0.000139232,0.00154647,0,0,0,0,0,0,0,-0.00212494,-10.213,0.606448,21.0947,-0.860274,-0.514318,-0.0126246,0.00794152,-1.06506,0.465254,2.54986,-0.295602,-0.519339,-0.0334095
3478926,1,-1.5708,-0.522828,-0.000346582,-2.09599,-1.57061,1.57145,0.785427,-1.5708,-0.523599,-1.59951e-07,-2.09439,-1.5708,1.5708,0.785397,-0.00113486,-0.00118471,-0.000788616,9.25959e-05,-0.000513916,-9.28213e-05,0.000556262,0,0,0,0,0,0,0,0.0494498,-10.1654,0.658023,21.0947,-0.848372,-0.514318,0.000192821,0.00713736,-1.06743,0.464088,2.55282,-0.295754,-0.519415,-0.0332601
3478927,1,-1.5708,-0.522825,-0.000344633,-2.09599,-1.57061,1.57145,0.785423,-1.5708,-0.523599,-1.59951e-07,-2.09439,-1.5708,1.5708,0.785397,0.000449854,0.000323819,0.00012387,0.000622516,9.81987e-05,0.000175478,-0.000815953,0,0,0,0,0,0,0,-0.00212494,-10.213,0.630252,21.0709,-0.860274,-0.520726,0.0322363,0.00745356,-1.06736,0.464469,2.55422,-0.295815,-0.51929,-0.0331261
3478928,1,-1.5708,-0.522823,-0.000342962,-2.09599,-1.57061,1.57145,0.785424,-1.5708,-0.523599,-1.59951e-07,-2.09439,-1.5708,1.5708,0.785397,0.000856715,0.000865493,0.000639392,0.000417991,6.54658e-05,0.000116985,-0.00030661,0,0,0,0,0,0,0,-0.0259286,-10.2408,0.606448,21.0709,-0.860274,-0.520726,0.0258276,0.00754937,-1.06759,0.464583,2.5552,-0.295851,-0.519203,-0.0330208
3478929,1,-1.5708,-0.522825,-0.000346582,-2.09599,-1.57062,1.57145,0.785424,-1.5708,-0.523599,-1.59951e-07,-2.09439,-1.5708,1.5708,0.785397,-0.00119209,-7.26185e-05,-0.000780165,0.00093051,-0.000397166,-0.000159369,-0.000204407,0,0,0,0,0,0,0,0.0494498,-10.213,0.658023,21.0431,-0.848372,-0.514318,0.0258276,0.00727102,-1.06902,0.464208,2.55619,-0.295883,-0.519192,-0.0329213
3478930,1,-1.5708,-0.522826,-0.000346582,-2.09599,-1.57061,1.57145,0.785431,-1.5708,-0.523599,-1.59951e-07,-2.09439,-1.5708,1.5708,0.785397,0.000411696,-0.000605224,-0.00052011,-0.00058441,-0.000264777,0.000131113,0.00199996,0,0,0,0,0,0,0,-0.00212494,-10.1892,0.658023,21.0947,-0.848372,-0.520726,-0.0318506,0.00787944,-1.06983,0.465111,2.55669,-0.295862,-0.519042,-0.0328116
3478931,1,-1.57081,-0.522828,-0.000344633,-2.096,-1.57061,1.57145,0.785425,-1.5708,-0.523599,-1.59951e-07,-2.09439,-1.5708,1.5708,0.785397,-0.00148877,-0.000960295,0.000302874,-0.000945161,0.000671192,-0.00014995,-0.000565565,0,0,0,0,0,0,0,0.0732535,-10.1654,0.630252,21.1185,-0.87126,-0.514318,0.0194189,0.00915578,-1.06942,0.466909,2.55705,-0.295811,-0.518775,-0.0327098
3478932,1,-1.5708,-0.522826,-0.000342962,-2.09599,-1.57061,1.57145,0.785423,-1.5708,-0.523599,-1.59951e-07,-2.09439,-1.5708,1.5708,0.785397,0.00132753,-8.33846e-05,0.000758728,-7.23525e-05,4.05606e-05,0.000137392,-0.000851761,0,0,0,0,0,0,0,-0.0259286,-10.1892,0.606448,21.0947,-0.860274,-0.520726,0.0322363,0.0099378,-1.06854,0.467846,2.55765,-0.295778,-0.51858,-0.032649
3478933,1,-1.5708,-0.522826,-0.000346582,-2.09599,-1.57061,1.57145,0.785427,-1.5708,-0.523599,-1.59951e-07,-2.09439,-1.5708,1.5708,0.785397,0.000328211,-5.55897e-05,-0.000700607,0.000509284,2.70404e-05,9.15948e-05,0.000618954,0,0,0,0,0,0,0,-0.00212494,-10.1892,0.658023,21.0709,-0.860274,-0.520726,0.000192821,0.00970684,-1.0679,0.467335,2.55818,-0.295765,-0.518548,-0.0326224
3478934,1,-1.5708,-0.522825,-0.000346582,-2.09599,-1.57061,1.57145,0.785428,-1.5708,-0.523599,-1.59951e-07,-2.09439,-1.5708,1.5708,0.785397,-0.000430807,0.000519752,-0.000467071,0.000340053,-0.000185424,-0.000176296,0.000649995,0,0,0,0,0,0,0,0.0256461,-10.213,0.658023,21.0709,-0.85478,-0.514318,-0.00621587,0.00952638,-1.06793,0.46704,2.55849,-0.295741,-0.518529,-0.0326056
3478935,1,-1.5708,-0.522827,-0.000344633,-2.09599,-1.57061,1.57145,0.785426,-1.5708,-0.523599,-1.59951e-07,-2.09439,-1.5708,1.5708,0.785397,0.000362409,0.000346501,0.000338233,-0.000329712,-0.000123616,-0.000117531,-4.1388e-05,0,0,0,0,0,0,0,-0.00212494,-10.213,0.630252,21.0947,-0.85478,-0.514318,0.00660151,0.00981824,-1.06919,0.467495,2.55909,-0.295715,-0.518459,-0.0326048
3478936,1,-1.5708,-0.522823,-0.000346582,-2.09599,-1.57061,1.57145,0.785425,-1.5708,-0.523599,-1.59951e-07,-2.09439,-1.5708,1.5708,0.785397,-0.00096482,0.000880615,-0.000424125,-0.00021951,-8.24105e-05,0.000159005,-0.00050231,0,0,0,0,0,0,0,0.0494498,-10.2408,0.658023,21.0947,-0.85478,-0.520726,0.0194189,0.0101479,-1.07206,0.468007,2.56048,-0.295717,-0.518403,-0.032634
3478937,1,-1.5708,-0.522827,-0.000346582,-2.09599,-1.57061,1.57145,0.785422,-1.5708,-0.523599,-1.59951e-07,-2.09439,-1.5708,1.5708,0.785397,-8.64011e-05,-6.25373e-05,-0.00028275,0.00106031,-5.49403e-05,-0.000131355,-0.00131822,0,0,0,0,0,0,0,0.0256461,-10.213,0.658023,21.0431,-0.85478,-0.514318,0.0459692,0.0108643,-1.07532,0.469037,2.56192,-0.295702,-0.518297,-0.0326903
3478938,1,-1.5708,-0.522825,-0.000344633,-2.09599,-1.57061,1.57145,0.785428,-1.5708,-0.523599,-1.59951e-07,-2.09439,-1.5708,1.5708,0.785397,0.00114883,-4.16916e-05,0.000461114,-0.000499385,-3.66269e-05,-8.75703e-05,0.00129133,0,0,0,0,0,0,0,-0.0259286,-10.213,0.630252,21.0947,-0.85478,-0.514318,-0.0126246,0.0113497,-1.07727,0.469718,2.56246,-0.29565,-0.518212,-0.0327476
3478939,1,-1.5708,-0.522823,-0.000344633,-2.09599,-1.57061,1.57145,0.785428,-1.5708,-0.523599,-1.59951e-07,-2.09439,-1.5708,1.5708,0.785397,0.000765883,0.00062182,0.000307409,0.000873629,-2.44179e-05,0.000178979,0.000623526,0,0,0,0,0,0,0,-0.0259286,-10.2408,0.630252,21.0431,-0.85478,-0.520726,-0.00621587,0.0105975,-1.07838,0.468684,2.5625,-0.295609,-0.518301,-0.0327857
3478940,1,-1.5708,-0.522828,-0.000344633,-2.09599,-1.57061,1.57145,0.785426,-1.5708,-0.523599,-1.59951e-07,-2.09439,-1.5708,1.5708,0.785397,-4.6223e-05,-0.00134869,0.000204939,0.00113933,0.000187172,-0.00011804,-0.000296393,0,0,0,0,0,0,0,-0.00212494,-10.1654,0.630252,21.0193,-0.860274,-0.514318,0.0130102,0.00916644,-1.07802,0.466701,2.56152,-0.295544,-0.518469,-0.0328319
3478941,1,-1.5708,-0.522825,-0.000346582,-2.09599,-1.57061,1.57145,0.785423,-1.5708,-0.523599,-1.59951e-07,-2.09439,-1.5708,1.5708,0.785397,-0.00123724,0.000214496,-0.000512988,-0.000446805,0.000735133,0.000396025,-0.000909672,0,0,0,0,0,0,0,0.0494498,-10.213,0.658023,21.0709,-0.876753,-0.527135,0.0322363,0.00845754,-1.0755,0.465684,2.55935,-0.295414,-0.518494,-0.0329099
3478942,1,-1.5708,-0.522825,-0.000346582,-2.09599,-1.57061,1.57145,0.785423,-1.5708,-0.523599,-1.59951e-07,-2.09439,-1.5708,1.5708,0.785397,-0.000824827,0.000142998,-0.000341992,-0.000854629,0.000286638,-0.000210701,-0.000606448,0,0,0,0,0,0,0,0.0494498,-10.213,0.658023,21.0947,-0.87126,-0.514318,0.0322363,0.00917383,-1.07381,0.466671,2.55805,-0.295295,-0.518308,-0.0329921
3478943,1,-1.5708,-0.522826,-0.000346582,-2.09599,-1.57061,1.57145,0.78543,-1.5708,-0.523599,-1.59951e-07,-2.09439,-1.5708,1.5708,0.785397,0.00121335,-0.00046148,-0.000227995,-1.29007e-05,-0.000215809,-0.000140468,0.00173193,0,0,0,0,0,0,0,-0.0259286,-10.1892,0.658023,21.0709,-0.860274,-0.514318,-0.0254419,0.0103689,-1.0738,0.468411,2.55807,-0.295248,-0.518074,-0.033044
3478944,1,-1.57081,-0.522823,-0.000344633,-2.09599,-1.57061,1.57145,0.785428,-1.5708,-0.523599,-1.59951e-07,-2.09439,-1.5708,1.5708,0.785397,-0.000954336,0.000898772,0.000497618,-0.000565383,5.95778e-05,0.000381073,0.000442544,0,0,0,0,0,0,0,0.0494498,-10.2408,0.630252,21.0947,-0.865767,-0.527135,-0.00621587,0.0109371,-1.07457,0.469322,2.55854,-0.295271,-0.517954,-0.0330714
3478945,1,-1.5708,-0.522825,-0.000344633,-2.09599,-1.57061,1.57145,0.785423,-1.5708,-0.523599,-1.59951e-07,-2.09439,-1.5708,1.5708,0.785397,0.000570202,-5.04324e-05,0.000331745,0.000829527,3.97186e-05,0.000491407,-0.00112912,0,0,0,0,0,0,0,-0.00212494,-10.213,0.630252,21.0431,-0.865767,-0.533544,0.0322363,0.0108567,-1.07622,0.46926,2.55921,-0.295343,-0.51796,-0.0331157
3478946,1,-1.5708,-0.522825,-0.000346582,-2.09599,-1.57061,1.57145,0.785426,-1.5708,-0.523599,-1.59951e-07,-2.09439,-1.5708,1.5708,0.785397,0.000380135,-3.36216e-05,-0.000428451,0.000553035,-0.000176971,-0.000147113,-4.06726e-05,0,0,0,0,0,0,0,-0.00212494,-10.213,0.658023,21.0431,-0.860274,-0.520726,0.0130102,0.0103915,-1.07725,0.468621,2.5591,-0.295411,-0.518044,-0.0331942
3478947,1,-1.5708,-0.522825,-0.000344633,-2.09599,-1.57061,1.57145,0.785428,-1.5708,-0.523599,-1.59951e-07,-2.09439,-1.5708,1.5708,0.785397,-0.000953003,-2.24144e-05,0.00036398,-0.000837724,8.54695e-05,-0.000335434,0.000684962,0,0,0,0,0,0,0,0.0494498,-10.213,0.630252,21.0947,-0.865767,-0.514318,-0.00621587,0.0100963,-1.07738,0.468228,2.5584,-0.295469,-0.518112,-0.0332794
3478948,1,-1.5708,-0.522825,-0.000344633,-2.09599,-1.57061,1.57145,0.785426,-1.5708,-0.523599,-1.59951e-07,-2.09439,-1.5708,1.5708,0.785397,0.000571091,-1.49429e-05,0.000242653,-0.000558473,-0.000146471,-0.000223623,-1.80767e-05,0,0,0,0,0,0,0,-0.00212494,-10.213,0.630252,21.0947,-0.860274,-0.514318,0.00660151,0.0100457,-1.07789,0.468113,2.55829,-0.295561,-0.518156,-0.0333584
3478949,1,-1.5708,-0.522826,-0.000344633,-2.09599,-1.57061,1.57145,0.785426,-1.5708,-0.523599,-1.59951e-07,-2.09439,-1.5708,1.5708,0.785397,0.000937539,-0.000566774,0.000161769,-0.000372308,-0.000538457,8.82771e-05,-1.20511e-05,0,0,0,0,0,0,0,-0.0259286,-10.1892,0.630252,21.0947,-0.848372,-0.520726,0.00660151,0.00954872,-1.07844,0.467359,2.55855,-0.295686,-0.518266,-0.0334478
3478950,1,-1.5708,-0.522823,-0.000342962,-2.09599,-1.57061,1.57145,0.785421,-1.5708,-0.523599,-1.59951e-07,-2.09439,-1.5708,1.5708,0.785397,-0.00113821,0.000828577,0.000664658,-0.0002482,-0.000121612,0.00029621,-0.00170346,0,0,0,0,0,0,0,0.0494498,-10.2408,0.606448,21.0947,-0.85478,-0.527135,0.0523779,0.00870322,-1.07893,0.466109,2.55884,-0.295808,-0.518426,-0.0335526
3478951,1,-1.5708,-0.522825,-0.000346582,-2.096,-1.57061,1.57145,0.785427,-1.5708,-0.523599,-1.59951e-07,-2.09439,-1.5708,1.5708,0.785397,0.000447618,-9.72295e-05,-0.000763321,-0.000722275,0.000122376,0.000197474,-0.000389651,0,0,0,0,0,0,0,-0.00212494,-10.213,0.658023,21.1185,-0.860274,-0.527135,0.0322363,0.00831113,-1.08036,0.465466,2.55956,-0.295908,-0.518531,-0.0336459
3478952,1,-1.5708,-0.522826,-0.000344633,-2.096,-1.57061,1.57145,0.785428,-1.5708,-0.523599,-1.59951e-07,-2.09439,-1.5708,1.5708,0.785397,0.000298412,-0.000621632,0.000140734,-0.000481514,0.000488485,-0.000343069,0.000927027,0,0,0,0,0,0,0,-0.00212494,-10.1892,0.630252,21.1185,-0.87126,-0.514318,0.000192821,0.00842041,-1.08168,0.465589,2.5604,-0.295975,-0.518563,-0.0336907
3478953,1,-1.5708,-0.522826,-0.000348252,-2.09599,-1.57061,1.57145,0.785427,-1.5708,-0.523599,-1.59951e-07,-2.09439,-1.5708,1.5708,0.785397,0.000198941,-0.000414421,-0.0011126,0.000792617,-0.000522054,8.64637e-06,0.000618018,0,0,0,0,0,0,0,-0.00212494,-10.1892,0.681826,21.0709,-0.848372,-0.520726,0.000192821,0.00882528,-1.08111,0.466218,2.56026,-0.295985,-0.518529,-0.0336856
3478954,1,-1.5708,-0.522825,-0.000344633,-2.096,-1.57061,1.57145,0.785424,-1.5708,-0.523599,-1.59951e-07,-2.09439,-1.5708,1.5708,0.785397,-0.0010738,0.000280531,0.00046469,-0.000585211,-0.000348036,0.000243123,-0.000537424,0,0,0,0,0,0,0,0.0494498,-10.213,0.630252,21.1185,-0.848372,-0.527135,0.0258276,0.00971212,-1.07947,0.467554,2.55932,-0.295939,-0.518415,-0.033661
3478955,1,-1.5708,-0.522826,-0.000348252,-2.096,-1.57061,1.57145,0.785422,-1.5708,-0.523599,-1.59951e-07,-2.09439,-1.5708,1.5708,0.785397,0.00049056,-0.000369791,-0.000896632,-0.000390139,0.000208785,-7.52768e-05,-0.00110427,0,0,0,0,0,0,0,-0.00212494,-10.1892,0.681826,21.1185,-0.860274,-0.520726,0.0459692,0.0108672,-1.07845,0.46926,2.55874,-0.295879,-0.518274,-0.0336323
3478956,1,-1.5708,-0.522826,-0.000344633,-2.096,-1.57061,1.57145,0.785422,-1.5708,-0.523599,-1.59951e-07,-2.09439,-1.5708,1.5708,0.785397,0.00032704,-0.000246527,0.000608671,-0.000816904,-6.42602e-05,0.000187174,-0.000736178,0,0,0,0,0,0,0,-0.00212494,-10.1892,0.630252,21.1423,-0.85478,-0.527135,0.0459692,0.0116246,-1.07796,0.470443,2.55877,-0.29583,-0.518202,-0.0335829
3478957,1,-1.5708,-0.522826,-0.000346582,-2.09599,-1.57061,1.57145,0.785428,-1.5708,-0.523599,-1.59951e-07,-2.09439,-1.5708,1.5708,0.785397,0.000218027,-0.000164352,-0.000243833,0.00112583,0.00016061,-0.000587294,0.00167935,0,0,0,0,0,0,0,-0.00212494,-10.1892,0.658023,21.0709,-0.860274,-0.507909,-0.0126246,0.0116528,-1.07713,0.470623,2.55865,-0.295777,-0.518241,-0.0334826
3478958,1,-1.5708,-0.522826,-0.000346582,-2.096,-1.57061,1.57145,0.785424,-1.5708,-0.523599,-1.59951e-07,-2.09439,-1.5708,1.5708,0.785397,0.000145351,-0.000109568,-0.000162556,-0.000363067,-9.63769e-05,0.000320548,-0.000304585,0,0,0,0,0,0,0,-0.00212494,-10.1892,0.658023,21.1185,-0.85478,-0.527135,0.0258276,0.0114039,-1.07574,0.470442,2.55794,-0.295698,-0.518315,-0.0333347
3478959,1,-1.5708,-0.522827,-0.000344633,-2.09599,-1.57061,1.57145,0.785424,-1.5708,-0.523599,-1.59951e-07,-2.09439,-1.5708,1.5708,0.785397,0.00121052,0.000483767,0.000541244,0.000871579,0.000139199,0.000213698,-0.000203057,0,0,0,0,0,0,0,-0.0497324,-10.213,0.630252,21.0709,-0.860274,-0.527135,0.0258276,0.0107697,-1.07466,0.469825,2.55716,-0.295615,-0.518447,-0.0331727
3478960,1,-1.5708,-0.52282,-0.000342962,-2.096,-1.57061,1.57145,0.785423,-1.5708,-0.523599,-1.59951e-07,-2.09439,-1.5708,1.5708,0.785397,-0.00151303,0.00217855,0.000917641,-0.000532571,-0.00034801,-0.000332252,-0.00037273,0,0,0,0,0,0,0,0.0494498,-10.2924,0.606448,21.1185,-0.848372,-0.514318,0.0322363,0.00951852,-1.07615,0.46838,2.55749,-0.29558,-0.5187,-0.0330019
3478961,1,-1.5708,-0.522825,-0.000348252,-2.09599,-1.57061,1.57145,0.785423,-1.5708,-0.523599,-1.59951e-07,-2.09439,-1.5708,1.5708,0.785397,-0.000451877,-0.000403672,-0.00115148,0.000201765,5.35229e-06,-0.000221502,-0.000248487,0,0,0,0,0,0,0,0.0256461,-10.213,0.681826,21.0947,-0.85478,-0.514318,0.0322363,0.00892529,-1.08023,0.467833,2.55913,-0.295572,-0.518879,-0.0328091
3478962,1,-1.5708,-0.522825,-0.000344633,-2.09599,-1.57061,1.57145,0.785427,-1.5708,-0.523599,-1.59951e-07,-2.09439,-1.5708,1.5708,0.785397,0.000905175,-0.000269115,0.000438774,0.00134094,0.000207019,-0.000385027,0.00102114,0,0,0,0,0,0,0,-0.0259286,-10.213,0.630252,21.0431,-0.860274,-0.507909,0.000192821,0.00924393,-1.08263,0.46858,2.55992,-0.295498,-0.518887,-0.0325994
3478963,1,-1.5708,-0.522827,-0.000342962,-2.09599,-1.57061,1.57145,0.78543,-1.5708,-0.523599,-1.59951e-07,-2.09439,-1.5708,1.5708,0.785397,-0.000602976,-0.00017941,0.000849328,-0.000312468,0.000138012,0.000218033,0.00163019,0,0,0,0,0,0,0,0.0256461,-10.213,0.606448,21.0947,-0.860274,-0.520726,-0.0254419,0.00913062,-1.0819,0.468648,2.55902,-0.295373,-0.518903,-0.032388
3478964,1,-1.5708,-0.522825,-0.000344633,-2.09599,-1.57061,1.57145,0.785428,-1.5708,-0.523599,-1.59951e-07,-2.09439,-1.5708,1.5708,0.785397,0.00024763,-0.000119607,9.40688e-06,0.0003485,9.20083e-05,0.000145356,0.000374719,0,0,0,0,0,0,0,-0.00212494,-10.213,0.630252,21.0709,-0.860274,-0.520726,-0.00621587,0.00847894,-1.08026,0.467819,2.55782,-0.295261,-0.518971,-0.0322096
3478965,1,-1.5708,-0.522827,-0.000342962,-2.09599,-1.57061,1.57145,0.785421,-1.5708,-0.523599,-1.59951e-07,-2.09439,-1.5708,1.5708,0.785397,-0.000484527,-7.97378e-05,0.000563083,-0.000324479,-0.000142112,9.69038e-05,-0.00192033,0,0,0,0,0,0,0,0.0256461,-10.213,0.606448,21.0947,-0.85478,-0.520726,0.0523779,0.00788068,-1.07876,0.46699,2.55694,-0.295168,-0.519018,-0.0321061
3478966,1,-1.5708,-0.522825,-0.000344633,-2.09599,-1.57061,1.57145,0.785428,-1.5708,-0.523599,-1.59951e-07,-2.09439,-1.5708,1.5708,0.785397,-0.000323018,-5.31585e-05,-0.000181423,0.00154692,-0.0003321,-0.000410115,0.000889921,0,0,0,0,0,0,0,0.0256461,-10.213,0.630252,21.0193,-0.848372,-0.507909,-0.00621587,0.00762503,-1.07717,0.466559,2.55595,-0.295065,-0.519008,-0.0320689
3478967,1,-1.5708,-0.522823,-0.000346582,-2.096,-1.57061,1.57145,0.785427,-1.5708,-0.523599,-1.59951e-07,-2.09439,-1.5708,1.5708,0.785397,0.000434268,0.000614175,-0.000770563,-0.00128877,-0.0002214,0.000201308,0.000355922,0,0,0,0,0,0,0,-0.00212494,-10.2408,0.658023,21.1185,-0.848372,-0.520726,0.000192821,0.00794665,-1.07615,0.466964,2.55509,-0.29495,-0.518912,-0.0320564
3478968,1,-1.5708,-0.522823,-0.000346582,-2.09599,-1.57061,1.57145,0.78543,-1.5708,-0.523599,-1.59951e-07,-2.09439,-1.5708,1.5708,0.785397,0.000289512,0.00040945,-0.000513708,0.000254444,8.97589e-05,-0.000103154,0.00118672,0,0,0,0,0,0,0,-0.00212494,-10.2408,0.658023,21.0709,-0.85478,-0.514318,-0.0254419,0.00865779,-1.07716,0.468111,2.55547,-0.294861,-0.51877,-0.0320624
3478969,1,-1.5708,-0.522826,-0.000346582,-2.096,-1.57061,1.57145,0.785426,-1.5708,-0.523599,-1.59951e-07,-2.09439,-1.5708,1.5708,0.785397,-0.000456606,-0.000933459,-0.000342472,-0.000943995,0.00046674,0.00016859,-0.000633009,0,0,0,0,0,0,0,0.0256461,-10.1892,0.658023,21.1185,-0.865767,-0.520726,0.0130102,0.00955872,-1.07875,0.469619,2.55647,-0.294781,-0.518593,-0.0321173
3478970,1,-1.5708,-0.522826,-0.000342962,-2.09599,-1.57061,1.57145,0.785423,-1.5708,-0.523599,-1.59951e-07,-2.09439,-1.5708,1.5708,0.785397,0.00034521,-0.000622306,0.000978111,-7.25179e-05,-9.57408e-05,-0.000124966,-0.00137144,0,0,0,0,0,0,0,-0.00212494,-10.1892,0.606448,21.0947,-0.85478,-0.514318,0.038645,0.0101809,-1.07864,0.470603,2.55692,-0.294688,-0.51843,-0.0322391
3478971,1,-1.5708,-0.522825,-0.000344633,-2.09599,-1.57061,1.57145,0.785429,-1.5708,-0.523599,-1.59951e-07,-2.09439,-1.5708,1.5708,0.785397,0.000786952,0.000141941,9.52621e-05,-4.83453e-05,-0.000301186,0.000154048,0.00122194,0,0,0,0,0,0,0,-0.0259286,-10.213,0.630252,21.0947,-0.848372,-0.520726,-0.0190333,0.00978247,-1.07744,0.47001,2.55686,-0.294608,-0.518407,-0.0323967
3478972,1,-1.5708,-0.522826,-0.000342962,-2.09599,-1.57061,1.57145,0.785428,-1.5708,-0.523599,-1.59951e-07,-2.09439,-1.5708,1.5708,0.785397,0.000524635,-0.000462185,0.00062032,0.000524582,0.000240019,0.000102699,0.000339906,0,0,0,0,0,0,0,-0.0259286,-10.1892,0.606448,21.0709,-0.860274,-0.520726,-0.00621587,0.0084693,-1.07616,0.468129,2.55642,-0.29454,-0.518524,-0.0325587
3478973,1,-1.5708,-0.522828,-0.000344633,-2.09599,-1.57061,1.57145,0.785425,-1.5708,-0.523599,-1.59951e-07,-2.09439,-1.5708,1.5708,0.785397,-0.000207055,-0.000864935,-0.000143265,0.000349721,0.000363463,6.8466e-05,-0.000722832,0,0,0,0,0,0,0,-0.00212494,-10.1654,0.630252,21.0709,-0.865767,-0.520726,0.0194189,0.00705543,-1.07397,0.466116,2.55522,-0.294444,-0.518645,-0.0327416
3478974,1,-1.5708,-0.522825,-0.000342962,-2.09599,-1.57061,1.57145,0.785423,-1.5708,-0.523599,-1.59951e-07,-2.09439,-1.5708,1.5708,0.785397,-0.000138037,0.000537001,0.000461302,0.000233147,0.000445759,4.5644e-05,-0.000956606,0,0,0,0,0,0,0,-0.00212494,-10.213,0.606448,21.0709,-0.87126,-0.520726,0.0322363,0.00613178,-1.07136,0.464785,2.55364,-0.294326,-0.518688,-0.0329499
3478975,1,-1.5708,-0.522828,-0.000346582,-2.09599,-1.57061,1.57145,0.785427,-1.5708,-0.523599,-1.59951e-07,-2.09439,-1.5708,1.5708,0.785397,-0.000741639,-0.000198812,-0.000898891,-0.00040138,-0.000313179,3.04293e-05,0.000549058,0,0,0,0,0,0,0,0.0256461,-10.1892,0.658023,21.0947,-0.85478,-0.520726,0.000192821,0.00602829,-1.07025,0.46466,2.55282,-0.294233,-0.518627,-0.0331472
3478976,1,-1.5708,-0.522829,-0.000346582,-2.09599,-1.57061,1.57145,0.785428,-1.5708,-0.523599,-1.59951e-07,-2.09439,-1.5708,1.5708,0.785397,0.000712,-0.000132541,-0.000599261,0.00149565,-5.33533e-06,0.000257645,0.000840756,0,0,0,0,0,0,0,-0.0259286,-10.1892,0.658023,21.0193,-0.860274,-0.527135,-0.0126246,0.00681431,-1.06985,0.465923,2.55229,-0.294149,-0.518451,-0.0333133
3478977,1,-1.5708,-0.522826,-0.000346582,-2.09599,-1.57061,1.57145,0.785431,-1.5708,-0.523599,-1.59951e-07,-2.09439,-1.5708,1.5708,0.785397,-0.000731759,0.000468451,-0.000399507,-0.000209325,-0.000207007,-0.000540313,0.00127258,0,0,0,0,0,0,0,0.0256461,-10.213,0.658023,21.0709,-0.85478,-0.507909,-0.0318506,0.0080066,-1.0694,0.467898,2.55142,-0.294059,-0.518228,-0.0334683
3478978,1,-1.5708,-0.522825,-0.000344633,-2.09599,-1.57061,1.57145,0.785426,-1.5708,-0.523599,-1.59951e-07,-2.09439,-1.5708,1.5708,0.785397,-0.000487839,0.000312301,0.000383276,-0.00013955,-0.000375364,-0.000360209,-0.00176256,0,0,0,0,0,0,0,0.0256461,-10.213,0.630252,21.0709,-0.848372,-0.507909,0.038645,0.00920399,-1.0702,0.469881,2.55121,-0.294008,-0.518023,-0.0336459
3478979,1,-1.5708,-0.522826,-0.000348252,-2.09599,-1.57061,1.57145,0.785426,-1.5708,-0.523599,-1.59951e-07,-2.09439,-1.5708,1.5708,0.785397,0.000324388,-0.000348611,-0.000950909,-9.30334e-05,-1.28836e-05,-2.78034e-06,-0.000462964,0,0,0,0,0,0,0,-0.00212494,-10.1892,0.681826,21.0709,-0.85478,-0.514318,0.0194189,0.0102429,-1.07187,0.471603,2.55172,-0.293992,-0.517845,-0.033857
3478980,1,-1.5708,-0.522826,-0.000346582,-2.09599,-1.57061,1.57145,0.785427,-1.5708,-0.523599,-1.59951e-07,-2.09439,-1.5708,1.5708,0.785397,0.000216258,-0.000232408,-7.71272e-05,0.000587592,-8.5891e-06,0.000235505,0.000166075,0,0,0,0,0,0,0,-0.00212494,-10.1892,0.658023,21.0431,-0.85478,-0.520726,0.00660151,0.0109944,-1.07263,0.472977,2.55187,-0.293959,-0.517686,-0.034071
3478981,1,-1.5708,-0.52283,-0.000346582,-2.096,-1.57061,1.57145,0.78543,-1.5708,-0.523599,-1.59951e-07,-2.09439,-1.5708,1.5708,0.785397,0.000144172,-0.00136136,-5.14181e-05,-0.000814698,-0.000243085,0.000394363,0.00129751,0,0,0,0,0,0,0,-0.00212494,-10.1377,0.658023,21.0947,-0.848372,-0.527135,-0.0254419,0.0112676,-1.07168,0.473703,2.55126,-0.293901,-0.517573,-0.0342627
3478982,1,-1.5708,-0.522826,-0.000346582,-2.096,-1.57061,1.57145,0.785428,-1.5708,-0.523599,-1.59951e-07,-2.09439,-1.5708,1.5708,0.785397,0.000652927,0.00029885,-3.42788e-05,-0.00109994,7.53023e-05,2.55494e-05,0.000152931,0,0,0,0,0,0,0,-0.0259286,-10.1892,0.658023,21.1185,-0.85478,-0.520726,-0.00621587,0.0109097,-1.07022,0.473564,2.5509,-0.293864,-0.517548,-0.0344443
3478983,1,-1.5708,-0.522825,-0.000341014,-2.09599,-1.57061,1.57145,0.785421,-1.5708,-0.523599,-1.59951e-07,-2.09439,-1.5708,1.5708,0.785397,-0.000121527,0.000756045,0.00183319,0.000380328,5.02015e-05,1.70329e-05,-0.00206818,0,0,0,0,0,0,0,-0.00212494,-10.213,0.578677,21.0709,-0.85478,-0.520726,0.0523779,0.00960644,-1.07068,0.472098,2.55171,-0.293883,-0.517695,-0.0346415
3478984,1,-1.5708,-0.522825,-0.000346582,-2.09599,-1.57061,1.57145,0.785423,-1.5708,-0.523599,-1.59951e-07,-2.09439,-1.5708,1.5708,0.785397,0.000475794,0.00050403,-0.000633915,0.000253552,0.000236918,-0.000226004,-0.000632805,0,0,0,0,0,0,0,-0.0259286,-10.213,0.658023,21.0709,-0.860274,-0.514318,0.0322363,0.00757716,-1.07303,0.469561,2.55304,-0.293923,-0.517984,-0.0348446
3478985,1,-1.5708,-0.522825,-0.000344633,-2.09599,-1.57061,1.57145,0.785427,-1.5708,-0.523599,-1.59951e-07,-2.09439,-1.5708,1.5708,0.785397,-0.00088923,0.00033602,0.000227004,-0.000387777,0.000157945,-0.000150669,0.000764925,0,0,0,0,0,0,0,0.0256461,-10.213,0.630252,21.0947,-0.860274,-0.514318,0.000192821,0.00610376,-1.07591,0.467856,2.55429,-0.293936,-0.518198,-0.035003
3478986,1,-1.5708,-0.522826,-0.000344633,-2.09599,-1.57061,1.57145,0.785427,-1.5708,-0.523599,-1.59951e-07,-2.09439,-1.5708,1.5708,0.785397,-0.00059282,-0.000332799,0.000151336,-0.000258518,0.000308747,0.000136913,0.00050995,0,0,0,0,0,0,0,0.0256461,-10.1892,0.630252,21.0947,-0.865767,-0.520726,0.000192821,0.00567045,-1.07832,0.467593,2.55541,-0.293922,-0.518245,-0.0350976
3478987,1,-1.5708,-0.522826,-0.000344633,-2.09599,-1.57061,1.57145,0.785423,-1.5708,-0.523599,-1.59951e-07,-2.09439,-1.5708,1.5708,0.785397,0.000811213,-0.000221866,0.000100891,-0.000172345,-0.000201069,-0.000383443,-0.000846828,0,0,0,0,0,0,0,-0.0259286,-10.1892,0.630252,21.0947,-0.85478,-0.507909,0.0322363,0.00553858,-1.07935,0.467662,2.55603,-0.293897,-0.518227,-0.0351583
3478988,1,-1.5708,-0.522826,-0.000342962,-2.09599,-1.57061,1.57145,0.78542,-1.5708,-0.523599,-1.59951e-07,-2.09439,-1.5708,1.5708,0.785397,-0.000665618,-0.00014791,0.000624072,-0.000114897,0.000476305,0.000219089,-0.0015479,0,0,0,0,0,0,0,0.0256461,-10.1892,0.606448,21.0947,-0.87126,-0.520726,0.0587866,0.00513945,-1.07915,0.467291,2.5561,-0.293873,-0.51823,-0.0352013
3478989,1,-1.5708,-0.522825,-0.000342962,-2.096,-1.57061,1.57145,0.785426,-1.5708,-0.523599,-1.59951e-07,-2.09439,-1.5708,1.5708,0.785397,0.000205869,0.000458205,0.000416048,-0.00119022,-8.93642e-05,0.00014606,0.000900849,0,0,0,0,0,0,0,-0.00212494,-10.213,0.606448,21.1423,-0.860274,-0.520726,0.00660151,0.00451394,-1.07918,0.466495,2.55645,-0.293881,-0.518266,-0.0351952
3478990,1,-1.5708,-0.522823,-0.000346582,-2.09599,-1.57061,1.57145,0.785428,-1.5708,-0.523599,-1.59951e-07,-2.09439,-1.5708,1.5708,0.785397,0.000137246,0.000955084,-0.00092906,0.000320143,-5.95761e-05,-0.000139986,0.00107528,0,0,0,0,0,0,0,-0.00212494,-10.2408,0.658023,21.0947,-0.860274,-0.514318,-0.00621587,0.00408147,-1.08084,0.465991,2.55772,-0.293938,-0.518292,-0.0351133
3478991,1,-1.5708,-0.522828,-0.000344633,-2.09599,-1.57061,1.57145,0.785425,-1.5708,-0.523599,-1.59951e-07,-2.09439,-1.5708,1.5708,0.785397,0.00120512,-0.000569703,3.02404e-05,0.00141985,-0.000243168,-0.000330683,-0.00023258,0,0,0,0,0,0,0,-0.0497324,-10.1892,0.630252,21.0431,-0.85478,-0.507909,0.0194189,0.00395316,-1.08235,0.466056,2.55845,-0.293975,-0.518273,-0.0349929
3478992,1,-1.5708,-0.522829,-0.000346582,-2.09599,-1.57061,1.57145,0.785426,-1.5708,-0.523599,-1.59951e-07,-2.09439,-1.5708,1.5708,0.785397,-0.00031021,-0.000379802,-0.000629454,-0.000259856,0.000244789,0.000254263,8.23057e-05,0,0,0,0,0,0,0,-0.00212494,-10.1892,0.658023,21.0947,-0.865767,-0.520726,0.0130102,0.00390698,-1.08128,0.466303,2.5574,-0.293947,-0.518202,-0.0348814
3478993,1,-1.5708,-0.522829,-0.000346582,-2.096,-1.57061,1.57145,0.78542,-1.5708,-0.523599,-1.59951e-07,-2.09439,-1.5708,1.5708,0.785397,-0.00085642,-0.000253201,-0.000419636,-0.00073005,-0.000481067,0.000169508,-0.00164055,0,0,0,0,0,0,0,0.0256461,-10.1892,0.658023,21.1185,-0.848372,-0.520726,0.0587866,0.00444978,-1.07895,0.467385,2.55601,-0.293894,-0.518012,-0.0347791
3478994,1,-1.5708,-0.522827,-0.000342962,-2.09599,-1.57061,1.57145,0.78543,-1.5708,-0.523599,-1.59951e-07,-2.09439,-1.5708,1.5708,0.785397,-0.00112776,-0.000168801,0.000926669,7.01123e-05,0.000323548,0.000350365,0.00202587,0,0,0,0,0,0,0,0.0494498,-10.1892,0.606448,21.0947,-0.865767,-0.527135,-0.0254419,0.0055753,-1.077,0.469158,2.55529,-0.293857,-0.517739,-0.0346604
3478995,1,-1.5708,-0.522823,-0.000342962,-2.09599,-1.57061,1.57145,0.785427,-1.5708,-0.523599,-1.59951e-07,-2.09439,-1.5708,1.5708,0.785397,-0.000751839,0.00109389,0.000617779,4.67415e-05,1.22485e-05,-0.000241142,0.000401147,0,0,0,0,0,0,0,0.0494498,-10.2408,0.606448,21.0947,-0.860274,-0.514318,0.000192821,0.00640119,-1.07616,0.470226,2.55514,-0.293856,-0.517547,-0.0345176
3478996,1,-1.5708,-0.522823,-0.000344633,-2.09599,-1.57061,1.57145,0.785426,-1.5708,-0.523599,-1.59951e-07,-2.09439,-1.5708,1.5708,0.785397,0.0007052,0.000729261,-0.000144959,3.1161e-05,-0.000432644,-0.000160761,-0.000207286,0,0,0,0,0,0,0,-0.00212494,-10.2408,0.630252,21.0947,-0.848372,-0.514318,0.0130102,0.00663851,-1.07745,0.470316,2.5558,-0.293903,-0.517495,-0.0343859
3478997,1,-1.5708,-0.522828,-0.000344633,-2.09599,-1.57061,1.57145,0.785424,-1.5708,-0.523599,-1.59951e-07,-2.09439,-1.5708,1.5708,0.785397,0.000470133,-0.000720252,-9.66395e-05,0.000577586,0.00015238,0.000130185,-0.000612909,0,0,0,0,0,0,0,-0.00212494,-10.1892,0.630252,21.0709,-0.860274,-0.520726,0.0258276,0.00640944,-1.07904,0.469779,2.55643,-0.293952,-0.517532,-0.0342973
3478998,1,-1.5708,-0.522825,-0.000344633,-2.096,-1.57061,1.57145,0.785423,-1.5708,-0.523599,-1.59951e-07,-2.09439,-1.5708,1.5708,0.785397,-0.000336192,7.66441e-05,-6.44263e-05,-0.000728567,0.000305037,-0.000150569,-0.000883324,0,0,0,0,0,0,0,0.0256461,-10.213,0.630252,21.1185,-0.865767,-0.514318,0.038645,0.00609841,-1.07896,0.469117,2.5563,-0.293965,-0.517564,-0.0342421
3478999,1,-1.5708,-0.522826,-0.000344633,-2.09599,-1.57061,1.57145,0.785428,-1.5708,-0.523599,-1.59951e-07,-2.09439,-1.5708,1.5708,0.785397,0.000425486,-0.000505716,-4.29509e-05,0.000627913,0.000203358,0.00013698,0.00107263,0,0,0,0,0,0,0,-0.00212494,-10.1892,0.630252,21.0709,-0.865767,-0.520726,-0.00621587,0.00597158,-1.07785,0.468656,2.55586,-0.293961,-0.517557,-0.0341868
3479000,1,-1.5708,-0.522826,-0.000344633,-2.096,-1.57061,1.57145,0.785426,-1.5708,-0.523599,-1.59951e-07,-2.09439,-1.5708,1.5708,0.785397,0.000283657,-0.000337144,-2.86339e-05,-0.000695015,0.000339023,-0.000146039,3.00988e-06,0,0,0,0,0,0,0,-0.00212494,-10.1892,0.630252,21.1185,-0.87126,-0.514318,0.0130102,0.00580988,-1.07607,0.468121,2.5552,-0.29396,-0.517548,-0.0341177
3479001,1,-1.5708,-0.522825,-0.000348252,-2.09599,-1.57061,1.57145,0.785425,-1.5708,-0.523599,-1.59951e-07,-2.09439,-1.5708,1.5708,0.785397,0.000189105,0.000332049,-0.00122552,9.34684e-05,-0.000180886,-9.73595e-05,-0.000235352,0,0,0,0,0,0,0,-0.00212494,-10.213,0.681826,21.0947,-0.860274,-0.514318,0.0194189,0.00587347,-1.07452,0.468,2.55479,-0.293979,-0.517504,-0.0340485
3479002,1,-1.5708,-0.522823,-0.000346582,-2.096,-1.57061,1.57145,0.785425,-1.5708,-0.523599,-1.59951e-07,-2.09439,-1.5708,1.5708,0.785397,-0.00108036,0.00087098,-0.000260198,-0.00105131,-0.000324041,-6.49063e-05,-0.000156902,0,0,0,0,0,0,0,0.0494498,-10.2408,0.658023,21.1423,-0.85478,-0.514318,0.0194189,0.00678313,-1.07498,0.469234,2.55551,-0.294031,-0.51735,-0.0339813
3479003,1,-1.5708,-0.522825,-0.000346582,-2.09599,-1.57061,1.57145,0.785426,-1.5708,-0.523599,-1.59951e-07,-2.09439,-1.5708,1.5708,0.785397,0.001043,-6.89605e-05,-0.000173465,0.000412749,0.000597775,-4.32709e-05,0.000370117,0,0,0,0,0,0,0,-0.0259286,-10.213,0.658023,21.0947,-0.876753,-0.514318,0.00660151,0.00797051,-1.07713,0.470929,2.55711,-0.294118,-0.51717,-0.0339099
3479004,1,-1.5708,-0.522826,-0.000344633,-2.09599,-1.57061,1.57145,0.785428,-1.5708,-0.523599,-1.59951e-07,-2.09439,-1.5708,1.5708,0.785397,0.000138522,-0.000602786,0.00053397,0.000831978,-0.000415286,-2.88472e-05,0.000721462,0,0,0,0,0,0,0,-0.00212494,-10.1892,0.630252,21.0709,-0.85478,-0.514318,-0.00621587,0.00827784,-1.07801,0.471358,2.55778,-0.294203,-0.517103,-0.0338446
3479005,1,-1.5708,-0.522825,-0.000346582,-2.096,-1.57061,1.57145,0.785427,-1.5708,-0.523599,-1.59951e-07,-2.09439,-1.5708,1.5708,0.785397,-0.00111408,0.000154955,-0.000293634,-0.000558972,-0.000514216,0.000218127,0.000243616,0,0,0,0,0,0,0,0.0494498,-10.213,0.658023,21.1185,-0.848372,-0.520726,0.000192821,0.00810548,-1.07687,0.471024,2.55718,-0.294262,-0.517083,-0.0338013
3479006,1,-1.5708,-0.522826,-0.000344633,-2.096,-1.57061,1.57145,0.785428,-1.5708,-0.523597,-2.27071e-06,-2.09439,-1.5708,1.5708,0.785397,-0.000185907,-0.000453509,0.000453858,-0.000372648,9.79988e-05,0.000382777,0.000637129,-0.00362688,0.001875,-0.00211076,0.00261762,-0.00132195,0.005,-0.00046918,0.0256461,-10.1892,0.630252,21.1185,-0.860274,-0.527135,-0.0126246,0.00826911,-1.07564,0.47107,2.55677,-0.294319,-0.517014,-0.0337919
3479007,1,-1.5708,-0.522825,-0.000344633,-2.09599,-1.57061,1.57145,0.785421,-1.57081,-0.523593,-6.49224e-06,-2.09439,-1.5708,1.57081,0.785396,0.000525676,0.000254473,0.000302572,0.00030838,6.53325e-05,1.78259e-05,-0.00198275,-0.00725376,0.00375,-0.00422152,0.00523524,-0.0026439,0.01,-0.00093836,-0.00212494,-10.213,0.630252,21.0947,-0.860274,-0.520726,0.0523779,0.00818382,-1.07478,0.470712,2.55673,-0.294383,-0.516997,-0.0338305
3479008,1,-1.5708,-0.522826,-0.000344633,-2.09599,-1.57061,1.57145,0.78542,-1.57082,-0.523587,-1.28245e-05,-2.09438,-1.5708,1.57083,0.785394,-0.000299163,-0.000387163,0.000201715,0.000205587,-0.000397254,-0.000225475,-0.00155919,-0.0108806,0.005625,-0.00633229,0.00785286,-0.00396586,0.015,-0.00140754,0.0256461,-10.1892,0.630252,21.0947,-0.848372,-0.514318,0.0587866,0.00758139,-1.07385,0.469599,2.55651,-0.294434,-0.517073,-0.0339027
3479009,1,-1.57081,-0.522827,-0.000348325,-2.09599,-1.57061,1.57145,0.785428,-1.57083,-0.52358,-2.12676e-05,-2.09437,-1.57081,1.57085,0.785393,-0.00529915,0.00113543,-0.00380682,-0.000976566,0.000786325,0.000324401,0.0016054,-0.0145075,0.0075,-0.00844305,0.0104705,-0.00528781,0.02,-0.00187672,-0.0259286,-10.1139,0.53107,21.1423,-0.876753,-0.527135,-0.0126246,0.00930674,-1.07381,0.471775,2.55678,-0.294423,-0.516827,-0.0339417
3479010,1,-1.57081,-0.52283,-0.000348585,-2.09599,-1.57061,1.57145,0.78543,-1.57085,-0.523571,-3.18214e-05,-2.09436,-1.57082,1.57087,0.78539,-0.00324111,0.0030819,-0.00675239,0.000872307,-0.00775973,-0.000495809,0.00154498,-0.0181344,0.009375,-0.0105538,0.0130881,-0.00660976,0.025,-0.0023459,-0.327442,-9.93533,0.15021,21.2177,-0.905134,-0.507909,-0.0254419,0.0172299,-1.07752,0.48305,2.55887,-0.29427,-0.515719,-0.033901
3479011,1,-1.5708,-0.52283,-0.000360681,-2.09599,-1.57061,1.57145,0.785427,-1.57087,-0.523559,-4.44859e-05,-2.09434,-1.57082,1.5709,0.785387,-0.000976791,0.00436479,-0.00962091,3.04891e-05,-0.00510337,-0.000805256,8.05527e-05,-0.0217613,0.01125,-0.0126646,0.0157057,-0.00793171,0.03,-0.00281508,-0.807484,-9.733,-0.230649,21.3922,-0.928023,-0.495092,0.000192821,0.0310756,-1.08717,0.50375,2.56339,-0.293977,-0.513783,-0.0338192
3479012,1,-1.5708,-0.522823,-0.000372353,-2.09599,-1.57061,1.57145,0.785426,-1.5709,-0.523546,-5.92613e-05,-2.09432,-1.57083,1.57094,0.785384,-0.00330544,0.00668636,-0.00915933,0.00178827,-0.00337534,-0.000536838,-0.000183657,-0.0253882,0.013125,-0.0147753,0.0183233,-0.00925366,0.035,-0.00328426,-1.28753,-9.58224,-0.734494,21.4676,-0.944502,-0.495092,0.00660151,0.0477682,-1.10348,0.529843,2.57074,-0.293701,-0.511369,-0.0337576
3479013,1,-1.5708,-0.522812,-0.000390101,-2.09598,-1.57061,1.57145,0.785423,-1.57093,-0.523531,-7.61474e-05,-2.0943,-1.57084,1.57098,0.78538,-0.00373325,0.00712467,-0.010632,0.00124759,-0.00289126,-0.000120534,-0.00130923,-0.029015,0.015,-0.0168861,0.020941,-0.0105756,0.04,-0.00375344,-1.71599,-9.50687,-1.19073,21.4914,-0.939009,-0.5015,0.038645,0.0648264,-1.12558,0.557629,2.58102,-0.293593,-0.508675,-0.0337344
3479014,1,-1.57081,-0.522796,-0.00041025,-2.09597,-1.57061,1.57146,0.785428,-1.57096,-0.523514,-9.51442e-05,-2.09428,-1.57086,1.57102,0.785376,-0.0043683,0.00910978,-0.0132195,0.0057028,-0.00205224,0.00486511,0.000788691,-0.0326419,0.016875,-0.0189969,0.0235586,-0.0118976,0.045,-0.00422262,-2.14446,-9.50687,-1.5954,21.4438,-0.944502,-0.507909,-0.00621587,0.0805864,-1.15048,0.584923,2.59275,-0.293657,-0.505768,-0.0337352
3479015,1,-1.57082,-0.522781,-0.000434822,-2.09596,-1.57061,1.57147,0.785426,-1.571,-0.523496,-0.000116252,-2.09425,-1.57087,1.57107,0.785371,-0.00178242,0.00914006,-0.0143543,0.00512195,-0.00181775,0.00940719,-0.000186283,-0.0362688,0.01875,-0.0211076,0.0261762,-0.0132195,0.05,-0.0046918,-2.57293,-9.45529,-1.90088,21.543,-0.939009,-0.533544,0.0130102,0.0928645,-1.17488,0.609271,2.60396,-0.293837,-0.502838,-0.0337506
3479016,1,-1.57084,-0.52277,-0.000453259,-2.09596,-1.57061,1.57148,0.785425,-1.57104,-0.523473,-0.000141265,-2.09422,-1.57088,1.57113,0.785366,-0.00539791,0.0092946,-0.0133594,0.00428429,-0.000345279,0.0136159,-0.000361548,-0.0429278,0.0225,-0.0250136,0.0308256,-0.0153429,0.06,-0.00536125,-2.90221,-9.40768,-2.28174,21.666,-0.96739,-0.585729,0.0194189,0.0987698,-1.197,0.626922,2.61464,-0.294174,-0.500207,-0.0337866
3479017,1,-1.57085,-0.522767,-0.000476522,-2.09595,-1.57061,1.57148,0.785419,-1.57109,-0.523447,-0.000170185,-2.09418,-1.5709,1.5712,0.78536,-0.00918974,0.00576227,-0.0118561,0.00509086,0.00027562,0.0132018,-0.00122438,-0.0495869,0.02625,-0.0289195,0.0354751,-0.0174662,0.07,-0.00603071,-3.17992,-9.20535,-2.55945,21.7414,-0.984785,-0.546361,0.0459692,0.0971242,-1.21292,0.635712,2.62446,-0.29469,-0.497925,-0.0338434
3479018,0.99,-1.57087,-0.522762,-0.00050001,-2.09594,-1.57061,1.57149,0.785425,-1.57114,-0.523417,-0.00020301,-2.09414,-1.57092,1.57128,0.785353,-0.00939018,0.00337706,-0.0153341,0.0105994,0.00133452,0.0113697,0.000641811,-0.056246,0.03,-0.0328254,0.0401246,-0.0195896,0.08,-0.00670017,-3.42986,-9.00302,-2.76178,21.7414,-1.01866,-0.456639,0.00660151,0.0888916,-1.21355,0.636573,2.62886,-0.295212,-0.495651,-0.0339158
3479019,0.99,-1.5709,-0.522749,-0.000518263,-2.09593,-1.57061,1.57149,0.785429,-1.57121,-0.523383,-0.000239742,-2.0941,-1.57094,1.57137,0.785346,-0.0199674,0.00860908,-0.0162708,0.00720115,0.00206641,0.0106289,0.00161467,-0.062905,0.03375,-0.0367314,0.044774,-0.0217129,0.09,-0.00736962,-3.63219,-8.82449,-3.16644,21.9159,-1.05253,-0.379735,-0.0254419,0.0774315,-1.19858,0.634447,2.62713,-0.295652,-0.492742,-0.0339812
3479020,0.99,-1.57093,-0.522737,-0.000542737,-2.09591,-1.57061,1.5715,0.785426,-1.57128,-0.523346,-0.000280379,-2.09405,-1.57097,1.57147,0.785338,-0.0245958,0.0102232,-0.0185548,0.00885439,0.00298071,0.00898658,0.000839087,-0.0695641,0.0375,-0.0406373,0.0494235,-0.0238363,0.1,-0.00803908,-3.96148,-8.54678,-3.64648,22.0627,-1.0974,-0.269872,-0.0190333,0.0671436,-1.18069,0.635564,2.62623,-0.296202,-0.488511,-0.0340201
3479021,0.99,-1.57096,-0.522716,-0.00058291,-2.0959,-1.57061,1.57151,0.78542,-1.57135,-0.523304,-0.000324922,-2.094,-1.57099,1.57158,0.785329,-0.0245296,0.0154229,-0.0248456,0.00949822,0.0042491,0.00846119,-0.000864762,-0.0762231,0.04125,-0.0445433,0.0540729,-0.0259596,0.11,-0.00870853,-4.44152,-8.29288,-4.07892,22.2373,-1.15965,-0.172826,0.0194189,0.0596327,-1.16977,0.642615,2.63139,-0.297057,-0.482606,-0.0340573
3479022,0.99,-1.57101,-0.52269,-0.000625993,-2.09587,-1.57061,1.57153,0.785419,-1.57144,-0.523259,-0.000373372,-2.09394,-1.57102,1.5717,0.78532,-0.0303069,0.0194243,-0.0284147,0.015571,0.00405449,0.00865986,-0.000813867,-0.0828822,0.045,-0.0484492,0.0587224,-0.028083,0.12,-0.00937799,-4.81841,-8.03897,-4.55896,22.3127,-1.19353,-0.089513,0.0258276,0.054632,-1.16955,0.656107,2.64328,-0.298281,-0.474852,-0.0341101
3479023,0.99,-1.57106,-0.522648,-0.000665409,-2.09584,-1.57061,1.57156,0.785421,-1.57153,-0.523211,-0.000425727,-2.09387,-1.57105,1.57183,0.78531,-0.0381948,0.0293188,-0.0302834,0.0204184,0.00372951,0.0154499,-6.78602e-05,-0.0895412,0.04875,-0.0523552,0.0633719,-0.0302063,0.13,-0.0100474,-5.14769,-7.93979,-5.09057,22.3603,-1.22191,-0.0574695,0.0130102,0.0519596,-1.18332,0.675776,2.66135,-0.299896,-0.465136,-0.0341486
3479024,0.99,-1.57112,-0.522606,-0.000717338,-2.09581,-1.57062,1.5716,0.785416,-1.57162,-0.523158,-0.000481988,-2.09381,-1.57108,1.57197,0.785299,-0.0430732,0.0326635,-0.0328164,0.0272371,-0.00212985,0.0253362,-0.00521879,-0.0962003,0.0525,-0.0562611,0.0680213,-0.0323297,0.14,-0.0107169,-5.4254,-7.81284,-5.44366,22.4118,-1.2274,-0.0318348,0.0258276,0.0502212,-1.21296,0.698994,2.68448,-0.301897,-0.453658,-0.0341373
3479025,0.99,-1.57119,-0.52256,-0.000763233,-2.09577,-1.57062,1.57166,0.785408,-1.57172,-0.523102,-0.000542155,-2.09373,-1.57112,1.57212,0.785288,-0.0527984,0.0356208,-0.0362691,0.0330232,-0.000579245,0.0356212,-0.00627826,-0.102859,0.05625,-0.060167,0.0726708,-0.0344531,0.15,-0.0113864,-5.70311,-7.71365,-5.85229,22.4356,-1.26127,-0.089513,0.09083,0.0480913,-1.25192,0.723167,2.70876,-0.304148,-0.440603,-0.034079
3479026,0.99,-1.57126,-0.52252,-0.000807024,-2.09574,-1.57062,1.57173,0.785398,-1.57184,-0.52304,-0.00060786,-2.09365,-1.57116,1.57229,0.785276,-0.0588359,0.0375014,-0.0353583,0.0324548,-0.00378083,0.0496399,-0.00759876,-0.112158,0.061875,-0.0657047,0.0789231,-0.0370526,0.164712,-0.0120393,-5.90545,-7.48355,-6.28076,22.6618,-1.30156,-0.192968,0.175059,0.0443653,-1.29151,0.745697,2.7315,-0.306587,-0.426181,-0.0339578
3479027,0.99,-1.57135,-0.522482,-0.000853278,-2.09569,-1.57063,1.57182,0.785401,-1.57196,-0.522972,-0.000679102,-2.09357,-1.5712,1.57247,0.785263,-0.0640486,0.0351524,-0.0369453,0.0390982,-0.00679054,0.057842,-0.00335332,-0.121456,0.0675,-0.0712423,0.0851754,-0.0396522,0.179425,-0.0126923,-6.0562,-7.20584,-6.61004,22.7332,-1.32902,-0.244237,0.122873,0.0358341,-1.32366,0.761175,2.7514,-0.309287,-0.411014,-0.0336811
3479028,0.99,-1.57144,-0.522442,-0.000903321,-2.09565,-1.57063,1.5719,0.785393,-1.57209,-0.522899,-0.000755882,-2.09348,-1.57124,1.57266,0.78525,-0.0718194,0.0367173,-0.0397606,0.0390927,-0.00327478,0.0652671,-0.00803524,-0.130755,0.073125,-0.0767799,0.0914277,-0.0422517,0.194137,-0.0133453,-6.17919,-6.92813,-6.86395,22.8839,-1.38579,-0.205785,0.149424,0.0209775,-1.33934,0.766834,2.76588,-0.312254,-0.395505,-0.0331472
3479029,0.99,-1.57154,-0.522403,-0.000953966,-2.0956,-1.57063,1.572,0.785393,-1.57223,-0.522821,-0.000838199,-2.09338,-1.57128,1.57287,0.785236,-0.0820952,0.039519,-0.0461219,0.0396773,-0.005408,0.0743121,-0.00441026,-0.140053,0.07875,-0.0823175,0.09768,-0.0448513,0.208849,-0.0139983,-6.23076,-6.57504,-7.19323,23.0069,-1.44255,-0.127965,0.110056,0.00316319,-1.33964,0.76724,2.77764,-0.315581,-0.379408,-0.0322973
3479030,0.99,-1.57165,-0.522353,-0.00100814,-2.09554,-1.57064,1.57211,0.785379,-1.57238,-0.522736,-0.000926054,-2.09328,-1.57133,1.57309,0.785221,-0.0912005,0.0418067,-0.0514762,0.0474725,-0.00722659,0.0853875,-0.00525657,-0.149352,0.084375,-0.0878552,0.103932,-0.0474508,0.223562,-0.0146513,-6.35772,-6.22195,-7.6217,23.0823,-1.49382,-0.0446521,0.162241,-0.0124084,-1.32955,0.769719,2.78982,-0.319298,-0.362206,-0.0311292
3479031,0.99,-1.57176,-0.52229,-0.00107767,-2.09547,-1.57065,1.57224,0.785364,-1.57254,-0.522646,-0.00101945,-2.09317,-1.57138,1.57333,0.785206,-0.0975551,0.0479474,-0.0569539,0.0502438,-0.00880459,0.10432,-0.00941457,-0.15865,0.09,-0.0933928,0.110185,-0.0500504,0.238274,-0.0153043,-6.687,-5.91647,-8.00256,23.1577,-1.54417,0.00753292,0.187876,-0.0237396,-1.31199,0.777017,2.80223,-0.323363,-0.343792,-0.0296751
3479032,0.99,-1.57188,-0.522216,-0.0011523,-2.09541,-1.57067,1.5724,0.785352,-1.57271,-0.522551,-0.00111838,-2.09305,-1.57143,1.57358,0.78519,-0.104737,0.0550898,-0.0625466,0.0564984,-0.00579564,0.118678,-0.0121612,-0.167949,0.095625,-0.0989304,0.116437,-0.0526499,0.252986,-0.0159573,-7.01232,-5.71414,-8.4588,23.1815,-1.57805,-0.0510608,0.200693,-0.032365,-1.29479,0.7871,2.81744,-0.327939,-0.324554,-0.0279268
3479033,0.99,-1.57202,-0.522133,-0.00123254,-2.09533,-1.57068,1.57258,0.785336,-1.57288,-0.522449,-0.00122285,-2.09293,-1.57149,1.57385,0.785173,-0.11724,0.0637633,-0.0667367,0.0657727,-0.00835279,0.134784,-0.0136385,-0.177247,0.10125,-0.104468,0.122689,-0.0552495,0.267699,-0.0166103,-7.19085,-5.53958,-8.91504,23.1339,-1.60643,-0.140783,0.200693,-0.0392263,-1.28567,0.79858,2.83747,-0.333171,-0.304722,-0.0258497
3479034,0.99,-1.57218,-0.522049,-0.00131567,-2.09524,-1.5707,1.57278,0.78532,-1.57307,-0.522342,-0.00133285,-2.0928,-1.57155,1.57413,0.785156,-0.130552,0.0689635,-0.0719054,0.0719817,-0.0108995,0.155939,-0.0140637,-0.186546,0.106875,-0.110006,0.128942,-0.057849,0.282411,-0.0172632,-7.3178,-5.30948,-9.2959,23.1061,-1.61741,-0.218602,0.181467,-0.0432086,-1.28611,0.812335,2.86097,-0.338989,-0.284277,-0.0234347
3479035,0.99,-1.57234,-0.521957,-0.00140634,-2.09515,-1.57072,1.573,0.7853,-1.57326,-0.52223,-0.00144839,-2.09266,-1.57161,1.57443,0.785138,-0.134341,0.0761408,-0.0760587,0.0791417,-0.017977,0.176284,-0.0202265,-0.195844,0.1125,-0.115543,0.135194,-0.0604486,0.297123,-0.0179162,-7.61931,-5.08334,-9.64898,23.0823,-1.61192,-0.301915,0.187876,-0.045226,-1.29401,0.82661,2.8864,-0.345303,-0.263617,-0.0207076
3479036,0.99,-1.5725,-0.521864,-0.00148886,-2.09506,-1.57075,1.57324,0.785282,-1.57347,-0.52211,-0.00157045,-2.09252,-1.57167,1.57474,0.785119,-0.142663,0.0783095,-0.0805568,0.084455,-0.0217564,0.197136,-0.0225687,-0.206832,0.11999,-0.122052,0.14253,-0.0633133,0.314164,-0.0185597,-7.77007,-4.85721,-10.0536,23.0823,-1.6458,-0.40537,0.129282,-0.0495934,-1.30506,0.835464,2.91219,-0.352081,-0.243632,-0.017726
3479037,0.99,-1.57268,-0.521778,-0.00157367,-2.09496,-1.57078,1.5735,0.785254,-1.57369,-0.521982,-0.00169901,-2.09237,-1.57174,1.57508,0.7851,-0.154505,0.0818799,-0.0820772,0.0914233,-0.0243342,0.215304,-0.0220624,-0.217819,0.12748,-0.12856,0.149865,-0.0661779,0.331205,-0.0192033,-7.9724,-4.5795,-10.4345,23.0823,-1.68608,-0.456639,0.129282,-0.0589469,-1.31154,0.83481,2.93562,-0.359241,-0.224882,-0.0145868
3479038,0.99,-1.57286,-0.521681,-0.00166807,-2.09486,-1.57081,1.57376,0.785228,-1.57392,-0.521847,-0.00183408,-2.09221,-1.5718,1.57542,0.78508,-0.160893,0.0855904,-0.0886349,0.0953219,-0.0269771,0.232698,-0.0248208,-0.228806,0.13497,-0.135069,0.157201,-0.0690426,0.348246,-0.0198468,-8.12316,-4.3494,-10.7122,23.1577,-1.70805,-0.359594,0.103647,-0.0732864,-1.30801,0.824081,2.95522,-0.366744,-0.207505,-0.0114119
3479039,0.99,-1.57306,-0.521581,-0.00176221,-2.09474,-1.57085,1.57404,0.785194,-1.57416,-0.521705,-0.00197565,-2.09205,-1.57188,1.57579,0.78506,-0.174137,0.0929049,-0.091707,0.101418,-0.0285308,0.246397,-0.0301962,-0.239793,0.14246,-0.141578,0.164536,-0.0719072,0.365287,-0.0204903,-8.32549,-4.07169,-11.0653,23.2331,-1.73643,-0.263463,0.155832,-0.0914652,-1.29641,0.804931,2.97297,-0.374661,-0.191385,-0.00829322
3479040,0.99,-1.57326,-0.521471,-0.00185356,-2.09462,-1.57089,1.57434,0.785163,-1.57441,-0.521555,-0.00212374,-2.09188,-1.57195,1.57617,0.785039,-0.184977,0.0973715,-0.0901358,0.106499,-0.0344646,0.262681,-0.0289622,-0.250781,0.14995,-0.148086,0.171872,-0.0747719,0.382327,-0.0211338,-8.45244,-3.7186,-11.5731,23.1577,-1.77031,-0.192968,0.200693,-0.113204,-1.28109,0.777291,2.99141,-0.383102,-0.176376,-0.00526676
3479041,0.99,-1.57347,-0.521348,-0.00195865,-2.09449,-1.57093,1.57468,0.785134,-1.57467,-0.521398,-0.00227833,-2.0917,-1.57203,1.57657,0.785017,-0.196272,0.104663,-0.0956303,0.1119,-0.0352633,0.288317,-0.0269246,-0.261768,0.15744,-0.154595,0.179207,-0.0776366,0.399368,-0.0217773,-8.80553,-3.38931,-11.954,23.1061,-1.7758,-0.225011,0.219919,-0.139713,-1.26465,0.73883,3.01193,-0.392155,-0.162484,-0.00230441
3479042,0.99,-1.57369,-0.521208,-0.0020773,-2.09434,-1.57097,1.57504,0.785103,-1.57494,-0.521233,-0.00243944,-2.09151,-1.57211,1.57699,0.784995,-0.205821,0.116419,-0.101466,0.122715,-0.0397807,0.315729,-0.0292677,-0.272755,0.16493,-0.161103,0.186543,-0.0805012,0.416409,-0.0224208,-9.18242,-3.18698,-12.2555,22.9077,-1.80418,-0.353185,0.213511,-0.17046,-1.25222,0.690899,3.03583,-0.401796,-0.149578,0.000670324
3479043,0.99,-1.57394,-0.521061,-0.00218396,-2.09419,-1.57102,1.57543,0.785069,-1.57523,-0.52106,-0.00260705,-2.09132,-1.57219,1.57742,0.784971,-0.217668,0.12793,-0.101294,0.134055,-0.0439817,0.339581,-0.0327624,-0.283743,0.17242,-0.167612,0.193879,-0.0833659,0.43345,-0.0230643,-9.28557,-2.98465,-12.7355,22.7094,-1.80418,-0.488683,0.252878,-0.205405,-1.25083,0.634506,3.06319,-0.41193,-0.137741,0.00373295
3479044,0.99,-1.57418,-0.520902,-0.00230369,-2.09403,-1.57107,1.57582,0.785038,-1.57552,-0.52088,-0.00278117,-2.09112,-1.57228,1.57787,0.784948,-0.225336,0.137171,-0.107677,0.141012,-0.0501919,0.356333,-0.0334562,-0.29473,0.17991,-0.17412,0.201214,-0.0862306,0.450491,-0.0237079,-9.51171,-2.81009,-13.0926,22.5626,-1.83806,-0.566503,0.240061,-0.245985,-1.26359,0.568184,3.09323,-0.422505,-0.127283,0.00694274
3479045,0.99,-1.57444,-0.520745,-0.00244048,-2.09386,-1.57113,1.57623,0.784995,-1.57583,-0.520693,-0.0029618,-2.09091,-1.57237,1.57834,0.784923,-0.232563,0.142083,-0.118515,0.14915,-0.0570326,0.374956,-0.0375524,-0.305717,0.1874,-0.180629,0.20855,-0.0890952,0.467531,-0.0243514,-9.78942,-2.55618,-13.3187,22.4356,-1.82707,-0.553685,0.323374,-0.290462,-1.28607,0.495431,3.12437,-0.433389,-0.117947,0.0103399
3479046,0.99,-1.57471,-0.520572,-0.00256904,-2.09369,-1.5712,1.57667,0.784961,-1.57615,-0.520498,-0.00314936,-2.09069,-1.57246,1.57882,0.784898,-0.243778,0.153827,-0.119661,0.156974,-0.0570651,0.393807,-0.0374749,-0.317577,0.19489,-0.187559,0.216559,-0.0920749,0.485497,-0.0249921,-9.99175,-2.37766,-13.6996,22.3603,-1.82158,-0.539952,0.330698,-0.336375,-1.31249,0.420578,3.15489,-0.444447,-0.109355,0.0139618
3479047,0.99,-1.57498,-0.520406,-0.00269949,-2.09351,-1.57126,1.57712,0.784929,-1.57647,-0.520296,-0.00334385,-2.09047,-1.57256,1.57933,0.784873,-0.251094,0.157297,-0.125519,0.163851,-0.0617453,0.412812,-0.0357989,-0.329438,0.20238,-0.194489,0.224568,-0.0950546,0.503463,-0.0256329,-10.2695,-2.09995,-14.0051,22.3603,-1.82158,-0.527135,0.291331,-0.384768,-1.33989,0.342004,3.18414,-0.455704,-0.101631,0.0178694
3479048,0.99,-1.57527,-0.520237,-0.00284078,-2.09333,-1.57133,1.57759,0.784901,-1.57682,-0.520086,-0.00354526,-2.09023,-1.57265,1.57985,0.784846,-0.264162,0.161984,-0.131238,0.167864,-0.0685799,0.428905,-0.0294291,-0.341298,0.20987,-0.201419,0.232576,-0.0980343,0.521429,-0.0262736,-10.4202,-1.77066,-14.2312,22.4356,-1.84996,-0.456639,0.233652,-0.435823,-1.36128,0.259188,3.21059,-0.467086,-0.0946214,0.0220835
3479049,0.99,-1.57556,-0.520055,-0.00297975,-2.09313,-1.5714,1.57808,0.784869,-1.57717,-0.519868,-0.00375361,-2.08999,-1.57275,1.58039,0.78482,-0.274459,0.165394,-0.135078,0.17735,-0.0694813,0.455477,-0.0297588,-0.353158,0.21736,-0.208348,0.240585,-0.101014,0.539395,-0.0269144,-10.5948,-1.56833,-14.4851,22.4872,-1.87193,-0.443822,0.181467,-0.487968,-1.36769,0.174104,3.2316,-0.478413,-0.087863,0.0265184
3479050,0.99,-1.57587,-0.519869,-0.00312654,-2.09292,-1.57148,1.5786,0.784835,-1.57753,-0.519644,-0.00396889,-2.08974,-1.57286,1.58095,0.784792,-0.288819,0.172741,-0.138641,0.188573,-0.0704168,0.472045,-0.0308425,-0.365018,0.22485,-0.215278,0.248594,-0.103994,0.55736,-0.0275552,-10.6464,-1.44534,-14.8382,22.5348,-1.88933,-0.507909,0.149424,-0.540994,-1.35373,0.0865535,3.24384,-0.489541,-0.0811488,0.0310022
3479051,0.99,-1.57619,-0.519669,-0.00329097,-2.0927,-1.57156,1.57915,0.784802,-1.57791,-0.519411,-0.0041911,-2.08949,-1.57297,1.58152,0.784764,-0.296818,0.180559,-0.147966,0.199786,-0.0763234,0.496422,-0.0320001,-0.376878,0.23234,-0.222208,0.256603,-0.106973,0.575326,-0.0281959,-10.9241,-1.44534,-15.0405,22.5864,-1.88933,-0.662633,0.129282,-0.594177,-1.31998,-0.00243358,3.24552,-0.500365,-0.0742832,0.0353502
3479052,0.99,-1.57652,-0.51946,-0.00346453,-2.09246,-1.57164,1.57971,0.784768,-1.5783,-0.519171,-0.00442024,-2.08922,-1.57308,1.58211,0.784735,-0.308073,0.192429,-0.154908,0.209888,-0.08112,0.516942,-0.0302869,-0.388738,0.23983,-0.229138,0.264612,-0.109953,0.593292,-0.0288367,-11.1264,-1.56833,-15.1159,22.5626,-1.87834,-0.740453,0.162241,-0.646133,-1.27458,-0.0899982,3.23909,-0.510863,-0.0672135,0.0394247
3479053,0.99,-1.57686,-0.519248,-0.00362777,-2.09222,-1.57173,1.58029,0.78474,-1.5787,-0.518924,-0.0046563,-2.08895,-1.57319,1.58273,0.784706,-0.319945,0.198075,-0.155039,0.223438,-0.0885979,0.532837,-0.0260044,-0.400598,0.24732,-0.236068,0.272621,-0.112933,0.611258,-0.0294774,-11.2533,-1.56833,-15.3698,22.634,-1.88933,-0.740453,0.116465,-0.697742,-1.2241,-0.177038,3.2268,-0.521078,-0.0603318,0.0431505
3479054,0.99,-1.57722,-0.519026,-0.00380176,-2.09197,-1.57183,1.58089,0.784705,-1.57911,-0.518669,-0.0048993,-2.08867,-1.5733,1.58336,0.784675,-0.330627,0.208391,-0.161881,0.234336,-0.0849648,0.549429,-0.0308156,-0.412459,0.25481,-0.242998,0.28063,-0.115912,0.629224,-0.0301182,-11.3287,-1.56833,-15.5721,22.6102,-1.90031,-0.707494,0.162241,-0.75117,-1.16875,-0.26701,3.2081,-0.531047,-0.0540811,0.0464941
3479055,0.99,-1.57759,-0.518799,-0.00398572,-2.09171,-1.57192,1.5815,0.784671,-1.57954,-0.518407,-0.00514923,-2.08838,-1.57342,1.584,0.784645,-0.342268,0.21373,-0.16936,0.241717,-0.0865861,0.569478,-0.0339393,-0.424319,0.2623,-0.249928,0.288638,-0.118892,0.64719,-0.0307589,-11.5033,-1.5961,-15.7269,22.6102,-1.91771,-0.75327,0.200693,-0.805821,-1.10965,-0.358821,3.18467,-0.54084,-0.0483814,0.0494553
3479056,0.99,-1.57796,-0.518559,-0.00417477,-2.09144,-1.57202,1.58216,0.784633,-1.57997,-0.518137,-0.00540604,-2.08808,-1.57354,1.58467,0.784613,-0.351841,0.220596,-0.177259,0.252257,-0.0881035,0.59133,-0.0369012,-0.43633,0.26979,-0.256813,0.297,-0.12186,0.665307,-0.031405,-11.7056,-1.64767,-15.9014,22.6856,-1.92869,-0.90067,0.259287,-0.8596,-1.04721,-0.448863,3.15891,-0.550485,-0.0429045,0.0520935
3479057,0.99,-1.57835,-0.51832,-0.00436764,-2.09116,-1.57212,1.58281,0.7846,-1.58042,-0.51786,-0.00566974,-2.08778,-1.57367,1.58535,0.784581,-0.36514,0.232996,-0.180827,0.261366,-0.0892568,0.610005,-0.0320684,-0.448341,0.27728,-0.263698,0.305361,-0.124828,0.683424,-0.0320511,-11.7294,-1.64767,-16.0522,22.6856,-1.9406,-0.940038,0.252878,-0.91241,-0.984249,-0.536668,3.13298,-0.560048,-0.0377395,0.0545393
3479058,0.99,-1.57876,-0.518068,-0.00457096,-2.09087,-1.57222,1.58347,0.784572,-1.58088,-0.517575,-0.00594032,-2.08747,-1.5738,1.58605,0.784548,-0.374028,0.234879,-0.187249,0.268099,-0.0908596,0.624313,-0.0281014,-0.460351,0.28477,-0.270583,0.313722,-0.127796,0.701541,-0.0326972,-11.7572,-1.67148,-16.1553,22.7094,-1.92869,-0.849401,0.240061,-0.965458,-0.92458,-0.624025,3.10949,-0.569691,-0.033215,0.0569403
3479059,0.99,-1.57918,-0.517804,-0.00479029,-2.09057,-1.57232,1.58416,0.784548,-1.58135,-0.517283,-0.00621779,-2.08714,-1.57393,1.58677,0.784515,-0.385468,0.242371,-0.197831,0.273892,-0.0956682,0.638517,-0.027636,-0.472362,0.29226,-0.277469,0.322083,-0.130764,0.719658,-0.0333433,-11.7572,-1.82224,-16.1553,22.6856,-1.95158,-0.720311,0.162241,-1.0179,-0.864859,-0.709653,3.08893,-0.579431,-0.029147,0.059387
3479060,0.99,-1.5796,-0.51753,-0.00500678,-2.09027,-1.57243,1.58486,0.784519,-1.58184,-0.516983,-0.00650215,-2.08681,-1.57406,1.58751,0.784481,-0.396297,0.255303,-0.201084,0.282251,-0.0999326,0.660187,-0.0290611,-0.484373,0.29975,-0.284354,0.330444,-0.133732,0.737775,-0.0339894,-11.7572,-2.02457,-16.2069,22.7332,-1.95158,-0.759679,0.122873,-1.06828,-0.808573,-0.791247,3.07392,-0.589283,-0.0252254,0.0618982
3479061,0.99,-1.58004,-0.517242,-0.0052355,-2.08996,-1.57254,1.58561,0.784481,-1.58234,-0.516676,-0.00679339,-2.08647,-1.5742,1.58827,0.784447,-0.408546,0.264726,-0.207915,0.290511,-0.106865,0.683176,-0.0331959,-0.496384,0.30724,-0.291239,0.338805,-0.1367,0.755892,-0.0346355,-11.8326,-2.25467,-16.1791,22.7332,-1.97447,-0.894261,0.16865,-1.11788,-0.766236,-0.870755,3.06829,-0.599352,-0.0216631,0.064411
3479062,0.99,-1.58048,-0.51695,-0.00547088,-2.08963,-1.57265,1.58635,0.784448,-1.58284,-0.516361,-0.00709151,-2.08613,-1.57434,1.58904,0.784411,-0.417753,0.273926,-0.219146,0.299603,-0.112024,0.702404,-0.0291385,-0.508395,0.31473,-0.298124,0.347166,-0.139669,0.774009,-0.0352816,-11.8048,-2.42923,-16.1791,22.7332,-1.99095,-0.919896,0.155832,-1.16653,-0.740644,-0.947847,3.07188,-0.60957,-0.0184781,0.0668294
3479063,0.99,-1.58095,-0.516651,-0.00571422,-2.08929,-1.57277,1.58709,0.784419,-1.58336,-0.516039,-0.00739652,-2.08577,-1.57448,1.58983,0.784375,-0.431071,0.284733,-0.225449,0.308867,-0.115353,0.71122,-0.0299658,-0.520406,0.32222,-0.30501,0.355528,-0.142637,0.792126,-0.0359277,-11.7294,-2.63156,-16.2585,22.634,-2.03673,-0.798131,0.116465,-1.21162,-0.730004,-1.01845,3.08261,-0.619818,-0.0152798,0.0691111
3479064,0.99,-1.58142,-0.51635,-0.0059666,-2.08895,-1.57289,1.58788,0.784392,-1.5839,-0.515709,-0.00770842,-2.08541,-1.57463,1.59064,0.784339,-0.441917,0.288663,-0.233344,0.320908,-0.120355,0.730417,-0.0300294,-0.532417,0.32971,-0.311895,0.363889,-0.145605,0.810243,-0.0365738,-11.781,-2.68314,-16.3339,22.5864,-2.01933,-0.766088,0.0587866,-1.2518,-0.728188,-1.08111,3.09617,-0.63,-0.0117477,0.0712204
3479065,0.99,-1.58189,-0.516041,-0.00622719,-2.0886,-1.57303,1.58868,0.784357,-1.58444,-0.515372,-0.0080272,-2.08504,-1.57477,1.59147,0.784302,-0.450204,0.296009,-0.244459,0.327051,-0.123849,0.753352,-0.0281669,-0.544428,0.3372,-0.31878,0.37225,-0.148573,0.82836,-0.0372199,-11.9595,-2.75851,-16.3339,22.634,-2.00194,-0.817357,0.071604,-1.28726,-0.725099,-1.13647,3.10715,-0.639994,-0.00773323,0.0730602
3479066,0.99,-1.58238,-0.515715,-0.00650136,-2.08825,-1.57316,1.58951,0.78432,-1.585,-0.515027,-0.00835261,-2.08465,-1.57493,1.59232,0.784264,-0.463527,0.305285,-0.249448,0.335094,-0.126501,0.776798,-0.0281579,-0.556159,0.34469,-0.325418,0.380743,-0.151394,0.846056,-0.0378556,-12.0825,-2.8577,-16.3061,22.7094,-1.97996,-0.952855,0.129282,-1.31916,-0.719402,-1.18602,3.11578,-0.649842,-0.00337835,0.0745381
3479067,0.99,-1.58289,-0.515378,-0.00676809,-2.08788,-1.5733,1.59034,0.784282,-1.58556,-0.514675,-0.00868467,-2.08427,-1.57508,1.59318,0.784225,-0.482363,0.315432,-0.250718,0.347171,-0.126959,0.79372,-0.0322865,-0.56789,0.35218,-0.332056,0.389236,-0.154216,0.863753,-0.0384913,-12.1103,-2.96085,-16.4092,22.7332,-2.00194,-0.913488,0.181467,-1.34921,-0.716011,-1.23299,3.12435,-0.659654,0.000941332,0.0756563
3479068,0.99,-1.58341,-0.515039,-0.00703909,-2.08751,-1.57343,1.59119,0.784253,-1.58614,-0.514316,-0.00902336,-2.08387,-1.57524,1.59406,0.784186,-0.498221,0.322894,-0.255659,0.353819,-0.132091,0.806683,-0.0328489,-0.579621,0.35967,-0.338694,0.397729,-0.157037,0.88145,-0.039127,-12.1579,-3.06003,-16.6116,22.7848,-2.02482,-0.75327,0.149424,-1.37786,-0.716485,-1.27937,3.13288,-0.669437,0.00508902,0.076525
3479069,0.99,-1.58394,-0.514673,-0.00732385,-2.08712,-1.57357,1.59207,0.784214,-1.58674,-0.513948,-0.0093687,-2.08346,-1.5754,1.59496,0.784146,-0.508951,0.333032,-0.260764,0.364607,-0.131327,0.822833,-0.034407,-0.591352,0.36716,-0.345331,0.406222,-0.159859,0.899146,-0.0397627,-12.3364,-3.36551,-16.7623,22.7332,-2.03673,-0.791722,0.162241,-1.40528,-0.720963,-1.32568,3.14176,-0.679214,0.00916188,0.0772789
3479070,0.99,-1.58445,-0.514316,-0.00762146,-2.08674,-1.57372,1.59298,0.784183,-1.58734,-0.513574,-0.00972066,-2.08305,-1.57556,1.59588,0.784106,-0.509427,0.34081,-0.270271,0.370833,-0.131851,0.854684,-0.0342063,-0.603083,0.37465,-0.351969,0.414716,-0.16268,0.916843,-0.0403983,-12.6895,-3.54007,-16.6869,22.8363,-2.03032,-0.946447,0.135691,-1.4354,-0.730843,-1.37603,3.15209,-0.689116,0.012733,0.0779818
3479071,0.99,-1.585,-0.513941,-0.00791814,-2.08635,-1.57386,1.59391,0.78415,-1.58795,-0.513192,-0.0100793,-2.08262,-1.57573,1.59681,0.784065,-0.519936,0.352665,-0.279052,0.385291,-0.134694,0.880182,-0.0346691,-0.614813,0.38214,-0.358607,0.423209,-0.165502,0.93454,-0.041034,-12.7649,-3.69479,-16.7623,23.0069,-2.07609,-1.0618,0.122873,-1.4727,-0.747867,-1.43433,3.16413,-0.699191,0.0150829,0.0786387
3479072,0.99,-1.58557,-0.513564,-0.00820636,-2.08594,-1.57401,1.59485,0.784114,-1.58858,-0.512802,-0.0104445,-2.08219,-1.57589,1.59776,0.784023,-0.535568,0.355792,-0.286129,0.394862,-0.137703,0.89984,-0.0353978,-0.626544,0.38963,-0.365245,0.431702,-0.168323,0.952236,-0.0416697,-12.6379,-3.7424,-16.9131,23.2053,-2.10997,-1.02976,0.116465,-1.51541,-0.767932,-1.49717,3.17456,-0.709217,0.0163342,0.079225
3479073,0.99,-1.58614,-0.51318,-0.00851578,-2.08552,-1.57416,1.59579,0.78408,-1.58922,-0.512405,-0.0108164,-2.08175,-1.57607,1.59873,0.783981,-0.547575,0.363577,-0.292082,0.399038,-0.14511,0.918628,-0.0358186,-0.638275,0.39712,-0.371883,0.440195,-0.171145,0.969933,-0.0423054,-12.6141,-3.86935,-16.8377,23.3799,-2.12645,-0.997716,0.110056,-1.55913,-0.78382,-1.55906,3.18122,-0.719045,0.0170956,0.079718
3479074,0.99,-1.58672,-0.512784,-0.00883781,-2.08511,-1.57432,1.59676,0.784042,-1.58987,-0.512,-0.0111949,-2.0813,-1.57624,1.59972,0.783938,-0.551998,0.369248,-0.298585,0.404464,-0.146001,0.929073,-0.0368535,-0.650006,0.40461,-0.378521,0.448688,-0.173966,0.98763,-0.042941,-12.7649,-4.02011,-16.7901,23.5068,-2.13835,-0.913488,0.122873,-1.60388,-0.795414,-1.62058,3.18783,-0.728897,0.0174209,0.0801223
3479075,0.99,-1.58731,-0.512373,-0.00915496,-2.08468,-1.57448,1.59775,0.784009,-1.59053,-0.511588,-0.0115801,-2.08085,-1.57642,1.60073,0.783894,-0.572186,0.391493,-0.305763,0.412561,-0.14714,0.950578,-0.0363783,-0.661737,0.4121,-0.385158,0.457181,-0.176788,1.00533,-0.0435767,-12.8165,-4.22244,-16.7901,23.5544,-2.13835,-0.868627,0.103647,-1.65009,-0.816096,-1.68224,3.20239,-0.739148,0.0172716,0.0804727
3479076,0.99,-1.58792,-0.51196,-0.00949421,-2.08424,-1.57464,1.59876,0.783967,-1.5912,-0.511169,-0.0119715,-2.08038,-1.5766,1.60175,0.78385,-0.584229,0.400411,-0.315668,0.420714,-0.1524,0.968646,-0.0386511,-0.67288,0.41959,-0.391471,0.465648,-0.179286,1.02224,-0.0441857,-12.7649,-4.40097,-16.7108,23.6814,-2.14934,-0.868627,0.149424,-1.69357,-0.863883,-1.73801,3.23246,-0.749961,0.0172058,0.0808162
3479077,0.99,-1.58855,-0.51154,-0.00984612,-2.0838,-1.5748,1.5998,0.783929,-1.59189,-0.510741,-0.0123693,-2.07991,-1.57678,1.60279,0.783805,-0.596825,0.407806,-0.324968,0.426357,-0.150554,0.984387,-0.0392375,-0.684022,0.42708,-0.397783,0.474115,-0.181784,1.03915,-0.0447946,-12.5903,-4.47635,-16.56,23.6814,-2.1887,-0.817357,0.175059,-1.73051,-0.938008,-1.78236,3.27731,-0.761189,0.0179518,0.0811645
3479078,0.99,-1.5892,-0.511121,-0.0101942,-2.08336,-1.57496,1.60085,0.783891,-1.59258,-0.510307,-0.0127734,-2.07942,-1.57696,1.60385,0.78376,-0.606938,0.412455,-0.334871,0.431932,-0.150683,1.01215,-0.0389641,-0.695165,0.43457,-0.404096,0.482581,-0.184282,1.05606,-0.0454036,-12.3602,-4.50412,-16.4092,23.7052,-2.1887,-0.919896,0.181467,-1.7606,-1.02367,-1.81479,3.33116,-0.772652,0.0198285,0.0815232
3479079,0.99,-1.58987,-0.510684,-0.0105621,-2.0829,-1.57512,1.60193,0.783851,-1.59329,-0.509865,-0.0131838,-2.07893,-1.57715,1.60492,0.783714,-0.617728,0.422436,-0.344898,0.438087,-0.15099,1.02928,-0.0392117,-0.706307,0.44206,-0.410408,0.491048,-0.18678,1.07297,-0.0460126,-12.1341,-4.55173,-16.2307,23.6814,-2.17222,-1.01053,0.200693,-1.78482,-1.11146,-1.8368,3.39039,-0.784286,0.0227304,0.0819289
3479080,0.99,-1.59053,-0.510239,-0.0109297,-2.08243,-1.57529,1.603,0.783816,-1.59401,-0.509415,-0.0136006,-2.07843,-1.57734,1.60601,0.783667,-0.633084,0.425888,-0.352631,0.448528,-0.160683,1.06282,-0.0367959,-0.71745,0.44955,-0.41672,0.499515,-0.189279,1.08988,-0.0466215,-12.1341,-4.55173,-16.08,23.5306,-2.13286,-1.00412,0.149424,-1.8035,-1.1951,-1.84952,3.45102,-0.795929,0.0263849,0.0824223
3479081,0.99,-1.5912,-0.509788,-0.0113175,-2.08195,-1.57546,1.60409,0.783774,-1.59473,-0.508958,-0.0140236,-2.07792,-1.57753,1.60711,0.78362,-0.64938,0.431523,-0.360987,0.457657,-0.162194,1.07512,-0.0380844,-0.728593,0.45704,-0.423033,0.507981,-0.191777,1.1068,-0.0472305,-12.0349,-4.65488,-15.8022,23.4076,-2.14934,-0.97849,0.16865,-1.81531,-1.26426,-1.85259,3.50594,-0.807217,0.030722,0.0830027
3479082,0.99,-1.59191,-0.509333,-0.0116981,-2.08146,-1.57564,1.60521,0.783737,-1.59547,-0.508494,-0.0144529,-2.07741,-1.57772,1.60824,0.783572,-0.665693,0.436776,-0.363975,0.474354,-0.169333,1.08817,-0.0366943,-0.739735,0.46453,-0.429345,0.516448,-0.194275,1.12371,-0.0478395,-11.781,-4.70645,-15.8022,23.1815,-2.12645,-0.933629,0.129282,-1.81925,-1.30884,-1.84618,3.54735,-0.817821,0.0358997,0.0836266
3479083,0.99,-1.59261,-0.508869,-0.0120874,-2.08095,-1.57582,1.60631,0.783692,-1.59623,-0.508022,-0.0148886,-2.07688,-1.57792,1.60938,0.783524,-0.673918,0.445087,-0.375823,0.483214,-0.168769,1.09786,-0.0374073,-0.750878,0.47202,-0.435658,0.524915,-0.196773,1.14062,-0.0484484,-11.6064,-4.78183,-15.6753,22.9077,-2.13835,-0.887853,0.143015,-1.8164,-1.32641,-1.83239,3.57106,-0.827637,0.0419187,0.0842458
3479084,0.99,-1.59334,-0.508395,-0.0124984,-2.08045,-1.57599,1.60744,0.783654,-1.59699,-0.507542,-0.0153306,-2.07635,-1.57812,1.61054,0.783475,-0.679131,0.450514,-0.386194,0.490837,-0.173526,1.10283,-0.0351358,-0.76202,0.47951,-0.44197,0.533381,-0.199271,1.15753,-0.0490574,-11.4795,-4.82944,-15.5721,22.761,-2.13286,-0.836583,0.071604,-1.80861,-1.32307,-1.81275,3.57989,-0.836825,0.0486855,0.084827
3479085,0.99,-1.59407,-0.50792,-0.0129263,-2.07993,-1.57618,1.60856,0.78361,-1.59776,-0.507055,-0.0157788,-2.07581,-1.57832,1.61171,0.783425,-0.685446,0.455963,-0.397583,0.496789,-0.176417,1.10596,-0.0360574,-0.773163,0.487,-0.448282,0.541848,-0.201769,1.17444,-0.0496664,-11.2533,-4.78183,-15.3698,22.6102,-2.14384,-0.798131,0.071604,-1.79749,-1.3056,-1.78821,3.57923,-0.845638,0.0561995,0.085333
3479086,0.99,-1.59483,-0.50745,-0.0133522,-2.07939,-1.57636,1.60972,0.783572,-1.59854,-0.506561,-0.0162331,-2.07526,-1.57853,1.6129,0.783375,-0.708991,0.462181,-0.40057,0.505444,-0.176841,1.11716,-0.0361154,-0.783511,0.49449,-0.454216,0.550188,-0.203869,1.19032,-0.0502277,-11.0986,-4.67868,-15.2429,22.5348,-2.08159,-0.907079,0.0459692,-1.78226,-1.27752,-1.7583,3.5723,-0.854218,0.0647087,0.0856985
3479087,0.99,-1.59559,-0.506958,-0.0138042,-2.07885,-1.57656,1.61091,0.783541,-1.59934,-0.506059,-0.0166932,-2.0747,-1.57873,1.61411,0.783324,-0.719569,0.467895,-0.413068,0.515834,-0.180818,1.12706,-0.0330575,-0.79386,0.50198,-0.46015,0.558529,-0.205969,1.2062,-0.0507891,-11.0986,-4.65488,-14.9413,22.4118,-2.03673,-0.972081,-0.0510767,-1.75945,-1.24025,-1.71995,3.55953,-0.862508,0.0746181,0.0858492
3479088,0.99,-1.59637,-0.506473,-0.0142427,-2.07829,-1.57675,1.61209,0.783499,-1.60014,-0.505549,-0.0171593,-2.07413,-1.57894,1.61533,0.783273,-0.74538,0.471053,-0.421046,0.527313,-0.182666,1.14128,-0.0345001,-0.804208,0.50947,-0.466084,0.566869,-0.208068,1.22209,-0.0513505,-10.9241,-4.55173,-14.8382,22.2373,-2.03032,-1.02976,-0.0584009,-1.72444,-1.19053,-1.66753,3.53805,-0.870197,0.0863557,0.0856777
3479089,0.99,-1.59717,-0.505972,-0.0146828,-2.07771,-1.57695,1.6133,0.783468,-1.60096,-0.505032,-0.0176313,-2.07356,-1.57915,1.61657,0.783221,-0.757932,0.477227,-0.4232,0.541425,-0.186967,1.15545,-0.0322339,-0.814557,0.51696,-0.472018,0.575209,-0.210168,1.23797,-0.0519118,-10.7971,-4.5795,-14.866,22.1619,-2.0706,-1.1204,-0.135305,-1.67614,-1.12322,-1.60023,3.50365,-0.876982,0.0997548,0.085038
3479090,0.99,-1.59796,-0.505452,-0.0151292,-2.07714,-1.57714,1.61456,0.78343,-1.60178,-0.504508,-0.0181093,-2.07297,-1.57936,1.61782,0.783168,-0.77553,0.486494,-0.439259,0.550936,-0.186926,1.17701,-0.0335011,-0.824905,0.52445,-0.477951,0.583549,-0.212267,1.25385,-0.0524732,-10.6702,-4.5795,-14.7628,22.1381,-2.08159,-1.37125,-0.149038,-1.61737,-1.04138,-1.52187,3.45635,-0.882851,0.113974,0.0838079
3479091,0.99,-1.59876,-0.50494,-0.0155862,-2.07655,-1.57734,1.61578,0.78339,-1.60262,-0.503976,-0.0185931,-2.07238,-1.57958,1.61909,0.783115,-0.775554,0.49658,-0.44552,0.564155,-0.192608,1.18704,-0.0356541,-0.835253,0.53194,-0.483885,0.59189,-0.214367,1.26973,-0.0530346,-10.8209,-4.55173,-14.739,22.0905,-2.06419,-1.3328,-0.128897,-1.55191,-0.956719,-1.43589,3.40147,-0.888036,0.127958,0.0819086
3479092,0.99,-1.59956,-0.504416,-0.0160559,-2.07597,-1.57754,1.617,0.783354,-1.60346,-0.503436,-0.019083,-2.07178,-1.57979,1.62038,0.783062,-0.786492,0.502003,-0.455194,0.575251,-0.194647,1.1868,-0.0357195,-0.845602,0.53943,-0.489819,0.60023,-0.216466,1.28561,-0.0535959,-11.0748,-4.6033,-14.7628,22.1619,-2.09257,-1.00412,-0.155447,-1.48655,-0.875775,-1.35011,3.34224,-0.892847,0.140434,0.0793189
3479093,0.99,-1.60037,-0.503888,-0.0165147,-2.07537,-1.57775,1.61823,0.783324,-1.60432,-0.50289,-0.0195787,-2.07117,-1.58001,1.62168,0.783008,-0.797675,0.52018,-0.451884,0.580495,-0.197703,1.19404,-0.034653,-0.85595,0.54692,-0.495753,0.60857,-0.218566,1.30149,-0.0541573,-11.2256,-4.5795,-14.866,22.2135,-2.09807,-0.75327,-0.200308,-1.42807,-0.806939,-1.27379,3.28423,-0.897734,0.150532,0.0761085
3479094,0.99,-1.6012,-0.503355,-0.0169863,-2.07476,-1.57796,1.61953,0.783287,-1.60518,-0.502335,-0.0200804,-2.07056,-1.58023,1.623,0.782953,-0.809097,0.523366,-0.459884,0.587589,-0.202057,1.21878,-0.0366495,-0.866298,0.55441,-0.501687,0.61691,-0.220666,1.31738,-0.0547187,-11.3287,-4.50412,-14.9136,22.3127,-2.17222,-0.881444,-0.174673,-1.38154,-0.762453,-1.21417,3.2365,-0.903188,0.157899,0.0723596
3479095,0.99,-1.60205,-0.502814,-0.0174632,-2.07416,-1.57817,1.62085,0.783249,-1.60606,-0.501773,-0.020588,-2.06993,-1.58045,1.62433,0.782898,-0.830783,0.525863,-0.462842,0.590897,-0.201706,1.23753,-0.0372414,-0.876647,0.5619,-0.50762,0.625251,-0.222765,1.33326,-0.05528,-11.3525,-4.45255,-14.9889,22.511,-2.22258,-1.04258,-0.168264,-1.34624,-0.73573,-1.1705,3.19966,-0.909241,0.163175,0.0680888
3479096,0.99,-1.60291,-0.502261,-0.0179362,-2.07354,-1.57838,1.62218,0.78321,-1.60695,-0.501204,-0.0211012,-2.0693,-1.58068,1.62568,0.782842,-0.848648,0.537652,-0.464518,0.594596,-0.202988,1.26514,-0.0390694,-0.886064,0.56939,-0.513141,0.633417,-0.224438,1.34795,-0.0557631,-11.1264,-4.52792,-15.0921,22.5864,-2.23448,-1.3328,-0.122488,-1.31759,-0.71801,-1.13718,3.17302,-0.915859,0.167258,0.0633462
3479097,0.99,-1.60378,-0.501699,-0.0184228,-2.07292,-1.5786,1.62351,0.783183,-1.60784,-0.500627,-0.0216198,-2.06866,-1.5809,1.62704,0.782786,-0.85369,0.542523,-0.469331,0.60407,-0.210121,1.28075,-0.0353166,-0.895481,0.57688,-0.518662,0.641583,-0.226112,1.36264,-0.0562461,-11.174,-4.6033,-15.1159,22.7094,-2.18321,-1.34562,-0.213125,-1.29645,-0.711344,-1.11549,3.1584,-0.923218,0.169764,0.0582529
3479098,0.99,-1.60463,-0.501119,-0.0189169,-2.07229,-1.57883,1.62483,0.783134,-1.60875,-0.500043,-0.022144,-2.06801,-1.58113,1.62842,0.782729,-0.853793,0.553147,-0.475872,0.607058,-0.219649,1.32257,-0.0397289,-0.904898,0.58437,-0.524183,0.649749,-0.227785,1.37733,-0.0567292,-11.3525,-4.80563,-15.0683,22.8839,-2.13286,-1.25498,-0.116079,-1.28901,-0.715781,-1.1126,3.15475,-0.931378,0.169278,0.0529015
3479099,0.99,-1.60551,-0.500526,-0.0194325,-2.07165,-1.57905,1.62618,0.783094,-1.60966,-0.499451,-0.0226737,-2.06735,-1.58136,1.62981,0.782672,-0.854575,0.568966,-0.488529,0.612266,-0.222323,1.32716,-0.0445997,-0.914316,0.59186,-0.529705,0.657915,-0.229458,1.39201,-0.0572122,-11.4517,-5.10715,-14.9413,23.0069,-2.09807,-1.12681,-0.0968531,-1.29948,-0.740195,-1.13175,3.16597,-0.940388,0.164821,0.0473815
3479100,0.99,-1.6064,-0.499931,-0.0199299,-2.07101,-1.57928,1.62754,0.783038,-1.61059,-0.498851,-0.0232089,-2.06668,-1.58159,1.63122,0.782614,-0.858418,0.570438,-0.487655,0.619109,-0.221115,1.33204,-0.0485819,-0.923733,0.59935,-0.535226,0.66608,-0.231132,1.4067,-0.0576952,-11.4795,-5.28568,-14.9651,23.0823,-2.14384,-0.933629,0.0587866,-1.32755,-0.789457,-1.17095,3.1942,-0.950226,0.156807,0.0418296
3479101,0.99,-1.6073,-0.499339,-0.0204399,-2.07038,-1.57949,1.62891,0.782982,-1.61152,-0.498245,-0.0237497,-2.06601,-1.58183,1.63264,0.782556,-0.867578,0.577943,-0.493607,0.613195,-0.218587,1.34659,-0.0532615,-0.93315,0.60684,-0.540747,0.674246,-0.232805,1.42139,-0.0581783,-11.3525,-5.43643,-14.866,23.4076,-2.24547,-0.868627,0.155832,-1.37202,-0.853454,-1.22934,3.23627,-0.960812,0.146227,0.036435
3479102,0.99,-1.60822,-0.498734,-0.020962,-2.06973,-1.57971,1.63029,0.782939,-1.61246,-0.49763,-0.024296,-2.06533,-1.58206,1.63407,0.782497,-0.88057,0.584061,-0.503196,0.62684,-0.218065,1.35141,-0.052206,-0.942567,0.61433,-0.546268,0.682412,-0.234478,1.43608,-0.0586613,-11.1264,-5.4642,-14.7628,23.4552,-2.31322,-0.681859,0.122873,-1.42605,-0.924153,-1.29852,3.28985,-0.972,0.134757,0.0314762
3479103,0.99,-1.60915,-0.498127,-0.0214788,-2.06906,-1.57993,1.63171,0.782884,-1.61341,-0.497008,-0.0248477,-2.06463,-1.5823,1.63552,0.782438,-0.901002,0.586761,-0.509573,0.632674,-0.220308,1.36432,-0.0585224,-0.951985,0.62182,-0.551789,0.690578,-0.236152,1.45077,-0.0591444,-11.0232,-5.38882,-14.6121,23.4076,-2.31322,-0.662633,0.135691,-1.47672,-0.989934,-1.36185,3.34664,-0.983335,0.124852,0.027196
3479104,0.99,-1.61005,-0.497515,-0.0220115,-2.06838,-1.58015,1.63313,0.782838,-1.61437,-0.496379,-0.0254051,-2.06394,-1.58253,1.63699,0.782378,-0.905262,0.59603,-0.514631,0.645711,-0.223304,1.38578,-0.0562387,-0.961402,0.62931,-0.55731,0.698744,-0.237825,1.46546,-0.0596274,-11.1264,-5.36105,-14.4335,23.3561,-2.27934,-0.75327,0.071604,-1.51774,-1.03971,-1.41207,3.39752,-0.994475,0.117742,0.023686
3479105,0.99,-1.61099,-0.496885,-0.0225497,-2.06771,-1.58038,1.6346,0.782779,-1.61535,-0.495742,-0.0259679,-2.06323,-1.58277,1.63847,0.782318,-0.924273,0.603123,-0.51983,0.650767,-0.223948,1.40681,-0.0525291,-0.970819,0.6368,-0.562831,0.70691,-0.239498,1.48015,-0.0601105,-11.174,-5.38882,-14.3066,23.3322,-2.26835,-0.907079,0.0972387,-1.55115,-1.07496,-1.4524,3.44078,-1.00544,0.113023,0.0209179
3479106,0.99,-1.61194,-0.496259,-0.0230723,-2.06702,-1.58059,1.63603,0.78272,-1.61632,-0.495098,-0.0265358,-2.06251,-1.58301,1.63996,0.782258,-0.937902,0.607645,-0.519346,0.658468,-0.221511,1.42027,-0.05417,-0.979214,0.64429,-0.567921,0.714902,-0.240731,1.49354,-0.060467,-10.9479,-5.4642,-14.382,23.1339,-2.35258,-0.798131,0.116465,-1.57871,-1.09899,-1.48574,3.47781,-1.01631,0.110144,0.0187925
3479107,0.99,-1.6129,-0.495609,-0.0236064,-2.06632,-1.5808,1.63748,0.782655,-1.61731,-0.494446,-0.0271088,-2.06179,-1.58326,1.64147,0.782197,-0.940612,0.621108,-0.522569,0.669924,-0.215962,1.43087,-0.055927,-0.98761,0.65178,-0.573012,0.722894,-0.241964,1.50693,-0.0608235,-10.8725,-5.56339,-14.4097,22.9831,-2.40935,-0.598546,0.149424,-1.60502,-1.11536,-1.51871,3.50994,-1.0273,0.108189,0.0172184
3479108,0.99,-1.61385,-0.494953,-0.0241405,-2.06562,-1.58103,1.63899,0.782595,-1.61831,-0.493787,-0.0276869,-2.06106,-1.5835,1.64299,0.782136,-0.963028,0.625634,-0.536288,0.683565,-0.21411,1.44372,-0.0553354,-0.996005,0.65927,-0.578102,0.730886,-0.243196,1.52032,-0.06118,-10.9241,-5.69034,-14.5367,22.761,-2.40385,-0.63059,0.135691,-1.63033,-1.12748,-1.55106,3.53604,-1.03847,0.107091,0.0161405
3479109,0.99,-1.61481,-0.494302,-0.024698,-2.0649,-1.58125,1.6405,0.78253,-1.61931,-0.49312,-0.0282701,-2.06032,-1.58374,1.64452,0.782074,-0.958218,0.63511,-0.538284,0.689483,-0.220882,1.46956,-0.0593993,-1.0044,0.66676,-0.583193,0.738878,-0.244429,1.53371,-0.0615365,-11.0748,-5.69034,-14.4851,22.6618,-2.31322,-0.720311,0.110056,-1.65091,-1.13432,-1.57691,3.55402,-1.04968,0.107452,0.0155204
3479110,0.99,-1.6158,-0.493659,-0.0252722,-2.06419,-1.58149,1.64202,0.782474,-1.62033,-0.492446,-0.0288584,-2.05957,-1.58399,1.64607,0.782012,-0.96644,0.634287,-0.548154,0.698036,-0.224536,1.47905,-0.0594985,-1.0128,0.67425,-0.588284,0.74687,-0.245662,1.5471,-0.061893,-11.0748,-5.38882,-14.3066,22.5864,-2.23448,-0.662633,0.000192821,-1.67189,-1.13249,-1.60249,3.56345,-1.06095,0.108485,0.0152996
3479111,0.99,-1.61681,-0.493015,-0.0258406,-2.06345,-1.58172,1.64355,0.782414,-1.62135,-0.491764,-0.0294518,-2.05882,-1.58424,1.64763,0.78195,-0.988686,0.644775,-0.559572,0.707888,-0.226574,1.496,-0.0614365,-1.02119,0.68174,-0.593374,0.754862,-0.246895,1.56049,-0.0622495,-10.6702,-5.00797,-14.128,22.4356,-2.18321,-0.649816,-0.0648096,-1.69094,-1.11723,-1.62419,3.56333,-1.07199,0.110509,0.0153438
3479112,0.99,-1.61783,-0.492358,-0.0264152,-2.06269,-1.58195,1.6451,0.782355,-1.62238,-0.491075,-0.0300502,-2.05806,-1.58448,1.64921,0.781887,-0.994647,0.651609,-0.557797,0.721408,-0.223196,1.50689,-0.0630457,-1.02959,0.68923,-0.598465,0.762854,-0.248127,1.57389,-0.062606,-10.2695,-4.78183,-13.9535,22.2373,-2.13286,-0.688268,-0.135305,-1.70144,-1.08965,-1.63359,3.55345,-1.08244,0.114417,0.0154324
3479113,0.99,-1.61885,-0.491674,-0.0270056,-2.06196,-1.58217,1.64669,0.782278,-1.62341,-0.490378,-0.0306538,-2.05729,-1.58473,1.65079,0.781824,-1.00233,0.657292,-0.562516,0.725567,-0.22225,1.52316,-0.0661989,-1.03798,0.69672,-0.603555,0.770846,-0.24936,1.58728,-0.0629625,-10.0671,-4.85721,-13.6758,22.2135,-2.16673,-0.855809,-0.0190333,-1.70929,-1.0536,-1.64008,3.53553,-1.09237,0.11917,0.015306
3479114,0.99,-1.61987,-0.490986,-0.027593,-2.06121,-1.58239,1.64825,0.782204,-1.62446,-0.489674,-0.0312624,-2.05651,-1.58498,1.65239,0.781761,-1.00776,0.670547,-0.574229,0.730092,-0.221441,1.53678,-0.06714,-1.04638,0.70421,-0.608646,0.778837,-0.250593,1.60067,-0.0633191,-9.83702,-5.03177,-13.4219,22.2611,-2.21159,-0.907079,0.0523779,-1.71904,-1.01788,-1.64994,3.51647,-1.10199,0.12375,0.01482
3479115,0.99,-1.62091,-0.490278,-0.028181,-2.06046,-1.58262,1.64983,0.782143,-1.62552,-0.488962,-0.0318762,-2.05572,-1.58524,1.65401,0.781697,-1.02137,0.680981,-0.567239,0.736227,-0.220572,1.54337,-0.0636017,-1.05477,0.7117,-0.613736,0.786829,-0.251826,1.61406,-0.0636756,-9.68627,-5.26187,-13.2433,22.388,-2.25096,-0.875035,0.0322363,-1.73084,-0.998059,-1.66318,3.50611,-1.1116,0.127633,0.0140566
3479116,0.99,-1.62194,-0.489567,-0.0287739,-2.05968,-1.58286,1.6514,0.782081,-1.62658,-0.488243,-0.0324946,-2.05493,-1.58549,1.65563,0.781634,-1.02288,0.69048,-0.574275,0.745455,-0.225262,1.58133,-0.0595514,-1.06209,0.71919,-0.618388,0.794662,-0.252612,1.62608,-0.0638617,-9.68627,-5.43643,-13.1442,22.6102,-2.29674,-0.836583,-0.0318506,-1.74899,-1.0004,-1.68668,3.50729,-1.12146,0.129661,0.0131703
3479117,0.99,-1.62299,-0.488853,-0.0293839,-2.05891,-1.5831,1.65304,0.782036,-1.62765,-0.487516,-0.0331176,-2.05412,-1.58574,1.65727,0.78157,-1.0276,0.698399,-0.585375,0.749296,-0.22455,1.59928,-0.0574721,-1.0694,0.72668,-0.62304,0.802494,-0.253399,1.63811,-0.0640479,-9.73784,-5.63876,-13.0648,22.9355,-2.32512,-1.04899,-0.213125,-1.77527,-1.02191,-1.72218,3.51822,-1.13159,0.12918,0.0122107
3479118,1,-1.62406,-0.488134,-0.0299925,-2.05813,-1.58333,1.6547,0.781982,-1.62872,-0.486782,-0.0337453,-2.05331,-1.586,1.65892,0.781505,-1.03773,0.704054,-0.591418,0.760579,-0.222656,1.61872,-0.059689,-1.07672,0.73417,-0.627691,0.810326,-0.254185,1.65014,-0.064234,-9.71404,-5.76572,-13.0926,23.1061,-2.38096,-1.30716,-0.290945,-1.80465,-1.0549,-1.76139,3.53568,-1.14185,0.126875,0.0110592
3479119,1,-1.62511,-0.487415,-0.0305991,-2.05736,-1.58357,1.65631,0.781922,-1.62981,-0.486041,-0.0343776,-2.05249,-1.58625,1.66058,0.781441,-1.05535,0.708906,-0.596541,0.759144,-0.228533,1.61666,-0.0598496,-1.08403,0.74166,-0.632343,0.818158,-0.254972,1.66216,-0.0644202,-9.76165,-5.74191,-13.1164,23.5068,-2.38646,-1.11399,-0.284536,-1.82954,-1.08942,-1.79441,3.55639,-1.15212,0.123906,0.00946827
3479120,1,-1.62618,-0.486666,-0.0312216,-2.05658,-1.58382,1.65796,0.781846,-1.6309,-0.485291,-0.0350146,-2.05167,-1.58651,1.66226,0.781376,-1.05332,0.721496,-0.59607,0.78256,-0.234033,1.62092,-0.0646722,-1.09135,0.74915,-0.636994,0.825991,-0.255758,1.67419,-0.0646063,-9.78942,-5.94424,-13.1164,23.6814,-2.34709,-0.952855,-0.155447,-1.84828,-1.12016,-1.82006,3.57743,-1.16243,0.120574,0.00721976
3479121,1,-1.62724,-0.485896,-0.0318319,-2.05578,-1.58408,1.65963,0.781779,-1.632,-0.484535,-0.0356563,-2.05084,-1.58676,1.66394,0.781311,-1.0593,0.733557,-0.60325,0.781811,-0.243036,1.63097,-0.0607342,-1.09867,0.75664,-0.641646,0.833823,-0.256545,1.68621,-0.0647925,-9.8648,-6.27353,-13.1442,23.6536,-2.30223,-0.92722,-0.077627,-1.86745,-1.15157,-1.84711,3.59804,-1.1729,0.116116,0.00428235
3479122,1,-1.62832,-0.485131,-0.0324613,-2.05496,-1.58433,1.66132,0.78171,-1.6331,-0.483771,-0.0363026,-2.04999,-1.58702,1.66564,0.781247,-1.06392,0.741329,-0.611254,0.792827,-0.245535,1.64649,-0.0625315,-1.10598,0.76413,-0.646298,0.841655,-0.257331,1.69824,-0.0649786,-10.0671,-6.57504,-13.0648,23.4552,-2.24547,-1.12681,0.0194189,-1.88967,-1.19228,-1.87779,3.62301,-1.18364,0.110425,0.000847994
3479123,1,-1.62942,-0.484369,-0.0330811,-2.05413,-1.58458,1.66302,0.781659,-1.63422,-0.482999,-0.0369535,-2.04914,-1.58728,1.66735,0.781181,-1.06889,0.743514,-0.604064,0.802407,-0.244234,1.65091,-0.0571818,-1.1133,0.77162,-0.650949,0.849487,-0.258118,1.71027,-0.0651648,-9.94017,-6.55124,-13.1164,23.0823,-2.26286,-1.09385,-0.0712183,-1.91663,-1.23609,-1.91435,3.65046,-1.19451,0.103557,-0.00281225
3479124,1,-1.63053,-0.483607,-0.0337007,-2.05328,-1.58483,1.6647,0.781611,-1.63534,-0.48222,-0.0376091,-2.04829,-1.58754,1.66908,0.781116,-1.08788,0.760929,-0.612228,0.817809,-0.244654,1.66241,-0.0537736,-1.12061,0.77911,-0.655601,0.857319,-0.258904,1.72229,-0.065351,-9.66246,-6.49966,-13.168,22.634,-2.25096,-1.04258,-0.161856,-1.94963,-1.27431,-1.95984,3.67371,-1.20532,0.0954746,-0.00647802
3479125,1,-1.63166,-0.482829,-0.0343367,-2.05241,-1.58508,1.6664,0.781554,-1.63647,-0.481433,-0.0382694,-2.04742,-1.5878,1.67081,0.78105,-1.09775,0.767252,-0.615055,0.833602,-0.247434,1.66579,-0.0495004,-1.12793,0.7866,-0.660253,0.865152,-0.259691,1.73432,-0.0655371,-9.33318,-6.44809,-13.168,22.1897,-2.30223,-0.881444,-0.174673,-1.98111,-1.30904,-2.00463,3.68967,-1.21574,0.0872945,-0.0100797
3479126,1,-1.63275,-0.48204,-0.0350022,-2.05155,-1.58534,1.66814,0.781479,-1.6376,-0.480639,-0.0389338,-2.04655,-1.58806,1.67255,0.780985,-1.11488,0.771422,-0.632483,0.846406,-0.252872,1.67858,-0.056248,-1.13413,0.79409,-0.664461,0.872811,-0.260035,1.74494,-0.0655449,-9.48394,-6.39651,-12.8387,21.9397,-2.27385,-0.855809,-0.044668,-1.99973,-1.3329,-2.03343,3.6921,-1.22529,0.0808451,-0.0137108
3479127,1,-1.63387,-0.481261,-0.0356651,-2.05067,-1.5856,1.66984,0.781416,-1.63874,-0.479838,-0.0396025,-2.04567,-1.58832,1.67431,0.780919,-1.11431,0.781787,-0.642052,0.854971,-0.251345,1.68927,-0.0581209,-1.14034,0.80158,-0.66867,0.88047,-0.260379,1.75556,-0.0655527,-9.66246,-6.34891,-12.4856,21.6898,-2.25645,-0.636998,-0.00621587,-1.99812,-1.33887,-2.03533,3.67829,-1.23368,0.0774596,-0.0174103
3479128,1,-1.63502,-0.480474,-0.0363296,-2.0498,-1.58586,1.67157,0.78135,-1.63989,-0.479029,-0.0402754,-2.04478,-1.58858,1.67608,0.780854,-1.12008,0.782372,-0.643351,0.861609,-0.254382,1.69417,-0.0638823,-1.14654,0.80907,-0.672879,0.888129,-0.260723,1.76618,-0.0655605,-9.48394,-6.19418,-12.3309,21.4914,-2.23448,-0.488683,0.038645,-1.98192,-1.32965,-2.01662,3.65232,-1.24121,0.0766468,-0.0210523
3479129,1,-1.63615,-0.479687,-0.0369817,-2.0489,-1.58611,1.6733,0.781293,-1.64104,-0.478212,-0.0409525,-2.04388,-1.58884,1.67785,0.780788,-1.12382,0.784629,-0.644963,0.866005,-0.254698,1.70158,-0.0636394,-1.15275,0.81656,-0.677087,0.895788,-0.261067,1.7768,-0.0655683,-9.33318,-5.91647,-12.3071,21.3922,-2.29033,-0.353185,-0.0382593,-1.96368,-1.30221,-1.9944,3.61649,-1.24832,0.0771107,-0.0244633
3479130,1,-1.63731,-0.478902,-0.0376601,-2.04799,-1.58638,1.67507,0.781233,-1.6422,-0.477388,-0.0416338,-2.04298,-1.5891,1.67964,0.780723,-1.13065,0.786928,-0.653975,0.876776,-0.259754,1.71789,-0.0646636,-1.15895,0.82405,-0.681296,0.903447,-0.261411,1.78742,-0.0655761,-9.234,-5.63876,-12.1047,21.3446,-2.3416,-0.379735,-0.0904444,-1.94916,-1.25083,-1.97682,3.57027,-1.25519,0.0784689,-0.0275519
3479131,1,-1.63846,-0.478097,-0.0383263,-2.04709,-1.58664,1.67686,0.781171,-1.64336,-0.476556,-0.0423193,-2.04207,-1.58936,1.68144,0.780657,-1.13326,0.792126,-0.660141,0.887187,-0.261459,1.73236,-0.0598989,-1.16516,0.83154,-0.685505,0.911107,-0.261755,1.79804,-0.0655839,-9.15862,-5.4642,-12.0809,21.4438,-2.32512,-0.482274,-0.168264,-1.93804,-1.17391,-1.96305,3.5122,-1.26178,0.0809327,-0.030371
3479132,1,-1.63961,-0.477289,-0.0390012,-2.04619,-1.5869,1.67864,0.781103,-1.64453,-0.475717,-0.043009,-2.04115,-1.58963,1.68325,0.780591,-1.13985,0.800951,-0.665614,0.88599,-0.25783,1.74792,-0.0600128,-1.17136,0.83903,-0.689713,0.918766,-0.262099,1.80866,-0.0655917,-9.18242,-5.41263,-11.8746,21.6898,-2.31322,-0.585729,-0.168264,-1.93025,-1.08154,-1.95247,3.44765,-1.26833,0.0843572,-0.0330578
3479133,1,-1.64077,-0.476467,-0.0396916,-2.0453,-1.58716,1.68044,0.781033,-1.64571,-0.474871,-0.0437029,-2.04022,-1.58989,1.68507,0.780526,-1.14163,0.811742,-0.664291,0.88481,-0.259637,1.75394,-0.0602105,-1.17757,0.84652,-0.693922,0.926425,-0.262443,1.81928,-0.0655995,-9.05547,-5.41263,-11.5493,22.0905,-2.29033,-0.520726,-0.149038,-1.92921,-0.997596,-1.94944,3.39244,-1.27545,0.087858,-0.0357205
3479134,1,-1.64194,-0.475626,-0.0403851,-2.04438,-1.5874,1.68222,0.780968,-1.6469,-0.474017,-0.044401,-2.03929,-1.59015,1.6869,0.78046,-1.15484,0.821107,-0.673171,0.892864,-0.257687,1.76962,-0.058894,-1.18377,0.85401,-0.698131,0.934084,-0.262787,1.8299,-0.0656073,-8.80553,-5.4642,-11.2438,22.3127,-2.3361,-0.379735,-0.161856,-1.93591,-0.93986,-1.95522,3.35783,-1.28349,0.0908889,-0.0384167
3479135,1,-1.64314,-0.474785,-0.0410787,-2.04346,-1.58766,1.68404,0.780904,-1.64809,-0.473155,-0.0451034,-2.03835,-1.59041,1.68874,0.780395,-1.16756,0.832688,-0.675295,0.896172,-0.258094,1.77615,-0.0541806,-1.18998,0.8615,-0.702339,0.941743,-0.263131,1.84052,-0.0656151,-8.40087,-5.58719,-11.1407,22.5864,-2.36449,-0.359594,-0.161856,-1.94367,-0.912147,-1.96093,3.34484,-1.29227,0.0941862,-0.0411782
3479136,1,-1.64434,-0.47393,-0.0417863,-2.04254,-1.58792,1.68589,0.780828,-1.64928,-0.472286,-0.0458095,-2.0374,-1.59068,1.69059,0.780329,-1.17132,0.836772,-0.688298,0.903826,-0.257939,1.78833,-0.0581038,-1.19506,0.86899,-0.706103,0.949218,-0.263042,1.84972,-0.0654392,-8.25011,-5.71414,-10.9661,22.7094,-2.39836,-0.456639,-0.077627,-1.94539,-0.909442,-1.95707,3.35007,-1.3015,0.0987708,-0.0440301
3479137,1,-1.64552,-0.473077,-0.0425063,-2.0416,-1.58817,1.68771,0.780759,-1.65048,-0.47141,-0.0465194,-2.03644,-1.59094,1.69245,0.780264,-1.17644,0.848239,-0.703848,0.908138,-0.260099,1.79882,-0.0600581,-1.20014,0.87648,-0.709867,0.956693,-0.262954,1.85891,-0.0652633,-8.27391,-5.89267,-10.6884,22.7848,-2.38646,-0.572911,-0.0254419,-1.93575,-0.923166,-1.93569,3.36887,-1.3109,0.105389,-0.0469539
3479138,1,-1.64674,-0.472223,-0.0432259,-2.04066,-1.58843,1.68956,0.78069,-1.65169,-0.470526,-0.047233,-2.03548,-1.5912,1.69431,0.780199,-1.1853,0.848127,-0.706854,0.939009,-0.261636,1.81639,-0.0635572,-1.20523,0.88397,-0.713631,0.964169,-0.262865,1.86811,-0.0650875,-7.9962,-5.84109,-10.5615,22.7332,-2.36449,-0.617772,-0.0254419,-1.9119,-0.936068,-1.89296,3.38833,-1.32002,0.114234,-0.0498797
3479139,1,-1.64794,-0.471358,-0.0439505,-2.03972,-1.58869,1.69143,0.780612,-1.6529,-0.469635,-0.0479504,-2.03451,-1.59147,1.69619,0.780134,-1.19246,0.849642,-0.726888,0.934899,-0.259336,1.82072,-0.0685383,-1.21031,0.89146,-0.717395,0.971644,-0.262776,1.8773,-0.0649116,-7.86925,-5.71414,-10.3829,22.634,-2.31871,-0.662633,0.038645,-1.87252,-0.92259,-1.82832,3.39151,-1.32836,0.12526,-0.0527329
3479140,1,-1.64915,-0.470489,-0.0446886,-2.03874,-1.58896,1.69332,0.780534,-1.65411,-0.468736,-0.0486715,-2.03353,-1.59173,1.69808,0.780069,-1.18846,0.85078,-0.726896,0.943442,-0.265434,1.84556,-0.0728927,-1.21539,0.89895,-0.721159,0.979119,-0.262688,1.88649,-0.0647357,-7.82164,-5.71414,-10.0775,22.3603,-2.17772,-1.15885,0.09083,-1.82,-0.874374,-1.74528,3.37781,-1.33592,0.137852,-0.0553943
3479141,1,-1.65038,-0.469603,-0.0454318,-2.03778,-1.58923,1.69521,0.780463,-1.65533,-0.467829,-0.0493965,-2.03254,-1.59199,1.69997,0.780005,-1.19762,0.856701,-0.72676,0.952892,-0.26567,1.84718,-0.0729175,-1.22047,0.90644,-0.724923,0.986594,-0.262599,1.89569,-0.0645598,-7.77007,-5.71414,-9.87512,22.0905,-2.11546,-1.19089,0.0844213,-1.76644,-0.796969,-1.66112,3.35273,-1.34303,0.149726,-0.0577047
3479142,1,-1.65157,-0.468722,-0.0461526,-2.03679,-1.58948,1.69705,0.780394,-1.65656,-0.466915,-0.0501251,-2.03155,-1.59225,1.70188,0.77994,-1.19507,0.879486,-0.718323,0.960613,-0.264485,1.8563,-0.0723566,-1.22556,0.91393,-0.728688,0.994069,-0.262511,1.90488,-0.064384,-7.84545,-5.74191,-9.92669,21.789,-2.12095,-0.919896,0.0587866,-1.72634,-0.711593,-1.59687,3.32415,-1.3501,0.158034,-0.0594954
3479143,1,-1.65278,-0.46782,-0.0468763,-2.03579,-1.58974,1.69893,0.780341,-1.65779,-0.465994,-0.0508576,-2.03055,-1.59252,1.70379,0.779876,-1.19872,0.886033,-0.714342,0.972014,-0.263622,1.85224,-0.0667897,-1.23064,0.92142,-0.732452,1.00154,-0.262422,1.91408,-0.0642081,-8.09935,-5.74191,-10.129,21.5152,-2.13286,-0.694677,-0.10967,-1.71137,-0.647749,-1.56874,3.30343,-1.35762,0.160679,-0.0606641
3479144,1,-1.65396,-0.466917,-0.0476155,-2.03481,-1.58999,1.70086,0.780284,-1.65902,-0.465065,-0.0515938,-2.02954,-1.59278,1.70572,0.779812,-1.21149,0.886638,-0.716687,0.978387,-0.264683,1.86726,-0.0645559,-1.23572,0.92891,-0.736216,1.00902,-0.262333,1.92327,-0.0640322,-8.47625,-5.69034,-10.2044,21.4438,-2.21709,-0.810948,-0.246084,-1.72111,-0.602718,-1.57665,3.2882,-1.36548,0.158081,-0.0613388
3479145,1,-1.65518,-0.466022,-0.0483431,-2.03383,-1.59025,1.70277,0.780232,-1.66027,-0.464128,-0.0523338,-2.02852,-1.59304,1.70765,0.779748,-1.21564,0.889697,-0.723322,0.976764,-0.265519,1.87507,-0.0596832,-1.24081,0.9364,-0.73998,1.01649,-0.262245,1.93247,-0.0638563,-8.5794,-5.58719,-10.2044,21.6898,-2.31871,-0.875035,-0.362356,-1.74352,-0.557918,-1.60384,3.27247,-1.37326,0.152632,-0.0618675
3479146,1,-1.65645,-0.465085,-0.0490879,-2.03285,-1.59051,1.70469,0.780193,-1.66151,-0.463185,-0.0530771,-2.0275,-1.5933,1.70959,0.779685,-1.22286,0.901652,-0.730208,0.976533,-0.258957,1.88059,-0.0563327,-1.24477,0.94389,-0.743299,1.02378,-0.261739,1.94023,-0.0634928,-8.17473,-5.84109,-10.1806,22.0151,-2.35258,-0.817357,-0.582083,-1.76862,-0.515983,-1.63443,3.26244,-1.38097,0.146199,-0.062651
3479147,1,-1.65771,-0.464142,-0.0498239,-2.03183,-1.59077,1.70658,0.780139,-1.66276,-0.462233,-0.0538237,-2.02647,-1.59356,1.71154,0.779622,-1.24295,0.912484,-0.736124,0.98316,-0.263294,1.92647,-0.0566874,-1.24874,0.95138,-0.746619,1.03106,-0.261233,1.948,-0.0631293,-7.67089,-6.01962,-10.0536,22.2373,-2.36449,-0.63059,-0.607717,-1.78854,-0.49252,-1.65586,3.26741,-1.38884,0.139875,-0.0641134
