shamilmamedov/beam_handling/data/param_estimation_ICRA/ocp_Z_25cm_0.50s_1.csv
duration, success rate, q[0], q[1], q[2], q[3], q[4], q[5], q[6],q_d[0], q_d[1], q_d[2], q_d[3], q_d[4], q_d[5], q_d[6],dq[0], dq[1], dq[2], dq[3], dq[4], dq[5], dq[6],dq_d[0], dq_d[1], dq_d[2], dq_d[3], dq_d[4], dq_d[5], dq_d[6],tau_J[0], tau_J[1], tau_J[2], tau_J[3], tau_J[4], tau_J[5], tau_J[6],tau_ext_hat_filtered[0], tau_ext_hat_filtered[1], tau_ext_hat_filtered[2], tau_ext_hat_filtered[3], tau_ext_hat_filtered[4], tau_ext_hat_filtered[5], tau_ext_hat_filtered[6]
1038886,0,-1.57044,-0.523502,0.000237323,-2.09693,-0.00124967,1.57123,0.785667,-1.5708,-0.5236,1.5191e-07,-2.0944,-6.02416e-07,1.5708,0.785398,0.000877551,-0.000925671,5.13614e-05,-0.000532564,-0.000292603,0.000181804,-0.000461516,0,0,0,0,0,0,0,-0.50597,-9.30453,-0.786069,22.0389,1.71236,1.37258,-0.174673,-0.47085,-0.225459,-0.302557,3.49825,0.992529,-0.293169,-0.194769
1038887,1,-1.57044,-0.523496,0.000235653,-2.09693,-0.00124784,1.57123,0.785668,-1.5708,-0.5236,1.5191e-07,-2.0944,-6.02416e-07,1.5708,0.785398,0.000585034,0.000589312,-0.000522571,-0.000355043,0.000415283,-0.000116156,-7.03183e-05,0,0,0,0,0,0,0,-0.50597,-9.35611,-0.762265,22.0389,1.69588,1.37899,-0.181082,-0.471664,-0.224824,-0.303501,3.49793,0.992471,-0.293192,-0.194672
1038888,1,-1.57045,-0.523497,0.000237323,-2.09692,-0.00124845,1.57123,0.785671,-1.5708,-0.5236,1.5191e-07,-2.0944,-6.02416e-07,1.5708,0.785398,-0.000259591,-0.000256739,0.000208431,0.000320117,7.3405e-05,0.000159922,0.00113992,0,0,0,0,0,0,0,-0.478199,-9.32834,-0.786069,22.0151,1.70137,1.37258,-0.213125,-0.472309,-0.225019,-0.304098,3.4981,0.992423,-0.293168,-0.194539
1038889,1,-1.57045,-0.523503,0.000239272,-2.09693,-0.00124906,1.57123,0.785665,-1.5708,-0.5236,1.5191e-07,-2.0944,-6.02416e-07,1.5708,0.785398,-0.00017306,-0.00128478,0.000788568,-0.000900213,-0.000154514,-0.000130745,-0.00113893,0,0,0,0,0,0,0,-0.478199,-9.28073,-0.81384,22.0627,1.70687,1.37899,-0.161856,-0.472834,-0.224647,-0.304593,3.49804,0.99237,-0.293159,-0.194387
1038890,1,-1.57045,-0.523498,0.000233704,-2.09692,-0.00124525,1.57123,0.785668,-1.5708,-0.5236,1.5191e-07,-2.0944,-6.02416e-07,1.5708,0.785398,-0.000672186,0.000906715,-0.00133033,0.000513482,0.000100441,-8.7163e-05,0.000190151,0,0,0,0,0,0,0,-0.454395,-9.35611,-0.734494,22.0151,1.70137,1.37899,-0.18749,-0.472944,-0.223565,-0.304584,3.49777,0.992326,-0.293159,-0.194233
1038891,1,-1.57045,-0.5235,0.000235653,-2.09692,-0.00124799,1.57123,0.78567,-1.5708,-0.5236,1.5191e-07,-2.0944,-6.02416e-07,1.5708,0.785398,-0.000448124,-4.5137e-05,-0.000237271,0.000342321,-0.00013649,0.00017925,0.000601485,0,0,0,0,0,0,0,-0.454395,-9.32834,-0.762265,22.0151,1.70687,1.37258,-0.200308,-0.471928,-0.223508,-0.302931,3.4977,0.992326,-0.293165,-0.194071
1038892,1,-1.57044,-0.523498,0.000233704,-2.09693,-0.00124809,1.57123,0.78567,-1.5708,-0.5236,1.5191e-07,-2.0944,-6.02416e-07,1.5708,0.785398,0.000907676,0.000619523,-0.000807795,-0.000328598,0.000112457,0.0001195,0.000638349,0,0,0,0,0,0,0,-0.50597,-9.35611,-0.734494,22.0389,1.70137,1.37258,-0.206716,-0.470501,-0.224579,-0.300582,3.49787,0.992338,-0.293174,-0.193899
1038893,1,-1.57045,-0.5235,0.000235653,-2.09693,-0.00124833,1.57123,0.785668,-1.5708,-0.5236,1.5191e-07,-2.0944,-6.02416e-07,1.5708,0.785398,-4.44959e-05,-0.000236599,0.000111084,-0.000219065,7.49716e-05,0.000317026,-0.000286511,0,0,0,0,0,0,0,-0.478199,-9.32834,-0.762265,22.0389,1.70137,1.36618,-0.18749,-0.469654,-0.226264,-0.298931,3.49846,0.992324,-0.293151,-0.193739
1038894,1,-1.57045,-0.523497,0.000235653,-2.09693,-0.00124902,1.57123,0.785665,-1.5708,-0.5236,1.5191e-07,-2.0944,-6.02416e-07,1.5708,0.785398,-0.000586476,0.00104869,7.40561e-05,-0.000702855,-0.000153469,-2.60085e-05,-0.0013778,0,0,0,0,0,0,0,-0.454395,-9.37991,-0.762265,22.0627,1.70687,1.37258,-0.155447,-0.469307,-0.228647,-0.297992,3.49963,0.992297,-0.293082,-0.193605
1038895,1,-1.57045,-0.523498,0.000235653,-2.09692,-0.00124904,1.57123,0.785667,-1.5708,-0.5236,1.5191e-07,-2.0944,-6.02416e-07,1.5708,0.785398,-0.000390984,-0.000507297,4.93707e-05,0.00129467,-0.000102313,-0.000254698,-0.000206458,0,0,0,0,0,0,0,-0.454395,-9.32834,-0.762265,21.9873,1.70687,1.37899,-0.174673,-0.469074,-0.23103,-0.297328,3.50075,0.992263,-0.293037,-0.193479
1038896,1,-1.57044,-0.523497,0.000235653,-2.09692,-0.00124844,1.57123,0.785672,-1.5708,-0.5236,1.5191e-07,-2.0944,-6.02416e-07,1.5708,0.785398,0.000296156,-0.000338198,3.29138e-05,0.000863112,0.000135242,-0.000169799,0.00152387,0,0,0,0,0,0,0,-0.478199,-9.32834,-0.762265,21.9873,1.70137,1.37899,-0.219534,-0.469004,-0.231033,-0.296944,3.50024,0.992183,-0.293155,-0.193328
1038897,1,-1.57045,-0.523497,0.000235653,-2.09692,-0.00124845,1.57123,0.78567,-1.5708,-0.5236,1.5191e-07,-2.0944,-6.02416e-07,1.5708,0.785398,-0.000359375,0.000424149,2.19425e-05,-7.42061e-05,9.01613e-05,0.00012416,0.000541198,0,0,0,0,0,0,0,-0.454395,-9.35611,-0.762265,22.0151,1.70137,1.37258,-0.206716,-0.46921,-0.229304,-0.296948,3.49859,0.992063,-0.293375,-0.193155
1038898,1,-1.57045,-0.523496,0.000237323,-2.09693,-0.00124845,1.57123,0.785666,-1.5708,-0.5236,1.5191e-07,-2.0944,-6.02416e-07,1.5708,0.785398,0.000317229,0.000282766,0.00057144,-0.00116309,6.01075e-05,-0.000154586,-0.000113919,0,0,0,0,0,0,0,-0.478199,-9.35611,-0.786069,22.0627,1.70137,1.37899,-0.193899,-0.469699,-0.228983,-0.297392,3.49799,0.991952,-0.29348,-0.192999
1038899,1,-1.57045,-0.523497,0.000235653,-2.09692,-0.00124967,1.57123,0.785667,-1.5708,-0.5236,1.5191e-07,-2.0944,-6.02416e-07,1.5708,0.785398,-0.000345326,-0.000461103,-0.000175852,0.000338227,-0.000366829,-0.000340416,-0.000550664,0,0,0,0,0,0,0,-0.454395,-9.32834,-0.762265,22.0151,1.71236,1.3854,-0.181082,-0.470404,-0.229804,-0.298207,3.49847,0.991855,-0.293457,-0.192884
1038900,1,-1.57045,-0.523501,0.000235653,-2.09693,-0.00124845,1.57123,0.785665,-1.5708,-0.5236,1.5191e-07,-2.0944,-6.02416e-07,1.5708,0.785398,-0.000230217,-0.000864214,-0.000117234,0.000225485,0.000162348,1.04149e-05,-0.00012975,0,0,0,0,0,0,0,-0.454395,-9.30453,-0.762265,22.0151,1.70137,1.37899,-0.18749,-0.47081,-0.229119,-0.298629,3.49827,0.991762,-0.293467,-0.192806
1038901,1,-1.57044,-0.5235,0.000239272,-2.09693,-0.00125099,1.57123,0.785669,-1.5708,-0.5236,1.5191e-07,-2.0944,-6.02416e-07,1.5708,0.785398,0.000403334,-1.93309e-05,0.00112827,-0.000963301,-0.000739478,-0.000230416,0.000625577,0,0,0,0,0,0,0,-0.478199,-9.32834,-0.81384,22.0627,1.72426,1.3854,-0.206716,-0.471221,-0.227064,-0.299128,3.49745,0.991664,-0.293506,-0.192742
1038902,1,-1.57044,-0.523498,0.000237323,-2.09693,-0.00124845,1.57123,0.785665,-1.5708,-0.5236,1.5191e-07,-2.0944,-6.02416e-07,1.5708,0.785398,0.000918502,0.000636727,0.000102566,-8.53884e-05,0.000354725,8.37485e-05,-0.000295026,0,0,0,0,0,0,0,-0.50597,-9.35611,-0.786069,22.0389,1.70137,1.37899,-0.18749,-0.472435,-0.226316,-0.300826,3.49749,0.991559,-0.293452,-0.19268
1038903,1,-1.57045,-0.5235,0.000233522,-2.09693,-0.00124784,1.57123,0.785667,-1.5708,-0.5236,1.5191e-07,-2.0944,-6.02416e-07,1.5708,0.785398,-0.00059409,-0.000225129,-0.000488435,-0.000613738,0.000439934,-0.000181527,0.000990111,0,0,0,0,0,0,0,-0.454395,-9.32834,-0.762265,22.0627,1.69588,1.3854,-0.219534,-0.473669,-0.227289,-0.302505,3.49841,0.991486,-0.293315,-0.192633
1038904,1,-1.57045,-0.523498,0.000240232,-2.09692,-0.00124906,1.57123,0.785665,-1.5708,-0.5236,1.5191e-07,-2.0944,-6.02416e-07,1.5708,0.785398,-0.000952872,0.000499528,0.00143761,0.000704466,-0.000113612,0.0003537,-0.00100144,0,0,0,0,0,0,0,-0.430592,-9.35611,-0.837644,22.0151,1.70687,1.37258,-0.174673,-0.474114,-0.228527,-0.30315,3.49927,0.991457,-0.293185,-0.192616
1038905,1,-1.57045,-0.523502,0.000235416,-2.09693,-0.00124906,1.57123,0.785662,-1.5708,-0.5236,1.5191e-07,-2.0944,-6.02416e-07,1.5708,0.785398,-7.84361e-05,-0.000873407,-0.000804828,-8.71683e-05,-7.57412e-05,0.000473159,-0.00114234,0,0,0,0,0,0,0,-0.454395,-9.30453,-0.762265,22.0389,1.70687,1.36618,-0.161856,-0.474037,-0.228796,-0.303271,3.49934,0.991438,-0.293136,-0.192631
1038906,1,-1.57045,-0.523498,0.000237244,-2.09693,-0.00124967,1.57123,0.785667,-1.5708,-0.5236,1.5191e-07,-2.0944,-6.02416e-07,1.5708,0.785398,0.000504521,0.000624154,2.02599e-05,-0.000614924,-0.000253945,-0.000159279,0.000187873,0,0,0,0,0,0,0,-0.478199,-9.35611,-0.786069,22.0627,1.71236,1.37899,-0.18749,-0.473599,-0.228376,-0.3029,3.49906,0.991429,-0.293124,-0.192645
1038907,1,-1.57045,-0.5235,0.000233677,-2.09692,-0.00124967,1.57123,0.785671,-1.5708,-0.5236,1.5191e-07,-2.0944,-6.02416e-07,1.5708,0.785398,-0.000777276,-0.000233511,-0.00119292,0.000703674,-0.000169296,-0.000343545,0.00107468,0,0,0,0,0,0,0,-0.430592,-9.32834,-0.734494,22.0151,1.71236,1.3854,-0.213125,-0.472623,-0.228376,-0.30168,3.49908,0.991449,-0.293094,-0.192624
1038908,1,-1.57045,-0.5235,0.000235644,-2.09692,-0.00124586,1.57123,0.785666,-1.5708,-0.5236,1.5191e-07,-2.0944,-6.02416e-07,1.5708,0.785398,3.86277e-05,-0.000155674,-0.000145666,0.000469116,9.05862e-05,-0.000703748,0.000241739,0,0,0,0,0,0,0,-0.454395,-9.32834,-0.762265,22.0151,1.70687,1.39822,-0.200308,-0.470977,-0.227931,-0.299482,3.49866,0.991494,-0.293111,-0.192581
1038909,1,-1.57045,-0.523502,0.00023565,-2.09692,-0.0012486,1.57123,0.785666,-1.5708,-0.5236,1.5191e-07,-2.0944,-6.02416e-07,1.5708,0.785398,0.000582564,-0.000660595,-9.71104e-05,0.000312744,-0.00014306,5.55279e-06,-0.000788277,0,0,0,0,0,0,0,-0.478199,-9.30453,-0.762265,22.0151,1.71236,1.3854,-0.174673,-0.469522,-0.226123,-0.297552,3.4974,0.991522,-0.293184,-0.192547
1038910,1,-1.57044,-0.523498,0.000237322,-2.09693,-0.00124809,1.57123,0.785667,-1.5708,-0.5236,1.5191e-07,-2.0944,-6.02416e-07,1.5708,0.785398,0.000388376,0.000766029,0.000492072,-0.000348316,0.000311528,0.00047842,-0.000288159,0,0,0,0,0,0,0,-0.478199,-9.35611,-0.786069,22.0389,1.70137,1.37258,-0.181082,-0.469132,-0.224371,-0.297141,3.49627,0.991517,-0.29322,-0.19252
1038911,1,-1.57044,-0.523502,0.000237323,-2.09692,-0.00124894,1.57123,0.78567,-1.5708,-0.5236,1.5191e-07,-2.0944,-6.02416e-07,1.5708,0.785398,0.000258917,-0.00069574,0.000328048,0.000974215,4.23475e-06,8.15876e-05,0.000519971,0,0,0,0,0,0,0,-0.478199,-9.30453,-0.786069,21.9873,1.70687,1.37899,-0.200308,-0.469659,-0.22343,-0.298064,3.49556,0.991487,-0.293208,-0.192482
1038912,1,-1.57045,-0.5235,0.000237323,-2.09692,-0.00124902,1.57123,0.78567,-1.5708,-0.5236,1.5191e-07,-2.0944,-6.02416e-07,1.5708,0.785398,-0.000941012,9.29856e-05,0.000218699,-1.3704e-07,2.82317e-06,-0.000182967,0.000584006,0,0,0,0,0,0,0,-0.430592,-9.32834,-0.786069,22.0151,1.70687,1.3854,-0.206716,-0.470325,-0.222156,-0.299266,3.49457,0.991449,-0.293215,-0.192429
1038913,1,-1.57044,-0.523498,0.000235653,-2.09693,-0.00124843,1.57123,0.785665,-1.5708,-0.5236,1.5191e-07,-2.0944,-6.02416e-07,1.5708,0.785398,0.0011359,0.000711604,-0.000411013,-0.00111372,0.000205333,0.00035274,-0.00127218,0,0,0,0,0,0,0,-0.50597,-9.35611,-0.762265,22.0627,1.70137,1.37258,-0.161856,-0.470623,-0.221907,-0.299972,3.4943,0.991445,-0.293145,-0.192381
1038914,1,-1.57045,-0.523498,0.000239272,-2.09692,-0.00124966,1.57123,0.785665,-1.5708,-0.5236,1.5191e-07,-2.0944,-6.02416e-07,1.5708,0.785398,-0.000449162,0.000474403,0.000932417,0.000371147,-0.000270013,-0.000239558,-0.00108548,0,0,0,0,0,0,0,-0.454395,-9.35611,-0.81384,22.0151,1.71236,1.3854,-0.155447,-0.470986,-0.224119,-0.300722,3.49556,0.991469,-0.292932,-0.192336
1038915,1,-1.57044,-0.5235,0.000235653,-2.09693,-0.00124845,1.57123,0.785667,-1.5708,-0.5236,1.5191e-07,-2.0944,-6.02416e-07,1.5708,0.785398,0.000906984,-0.000333345,-0.000584814,-0.000866193,0.000226893,-0.000159705,-1.15736e-05,0,0,0,0,0,0,0,-0.50597,-9.32834,-0.762265,22.0627,1.70137,1.3854,-0.174673,-0.471576,-0.226854,-0.301767,3.4972,0.991488,-0.292683,-0.192259
1038916,1,-1.57045,-0.5235,0.000239272,-2.09692,-0.00124845,1.57123,0.785669,-1.5708,-0.5236,1.5191e-07,-2.0944,-6.02416e-07,1.5708,0.785398,-4.49571e-05,-0.00022223,0.00081655,0.000536162,0.000151262,0.000130889,0.00189116,0,0,0,0,0,0,0,-0.478199,-9.32834,-0.81384,22.0151,1.70137,1.37899,-0.225942,-0.472233,-0.22825,-0.302847,3.49823,0.991488,-0.292476,-0.192124
1038917,1,-1.57045,-0.5235,0.000235653,-2.09692,-0.00124967,1.57123,0.785664,-1.5708,-0.5236,1.5191e-07,-2.0944,-6.02416e-07,1.5708,0.785398,-0.000586783,-0.000148153,-0.000662059,0.00100706,-0.00030606,0.000324618,-0.000163383,0,0,0,0,0,0,0,-0.454395,-9.32834,-0.762265,21.9873,1.71236,1.37258,-0.18749,-0.472593,-0.227753,-0.303483,3.498,0.991468,-0.292391,-0.191955
1038918,1,-1.57045,-0.5235,0.000233704,-2.09693,-0.00124967,1.57123,0.785665,-1.5708,-0.5236,1.5191e-07,-2.0944,-6.02416e-07,1.5708,0.785398,0.000165623,-9.8769e-05,-0.00109099,-0.000535056,-0.00020404,0.000216412,-0.000820999,0,0,0,0,0,0,0,-0.478199,-9.32834,-0.734494,22.0389,1.71236,1.37258,-0.168264,-0.471918,-0.226231,-0.30258,3.49688,0.991477,-0.292406,-0.191805
1038919,1,-1.57044,-0.5235,0.000237323,-2.09692,-0.00124845,1.57123,0.785665,-1.5708,-0.5236,1.5191e-07,-2.0944,-6.02416e-07,1.5708,0.785398,0.000760029,-6.5846e-05,0.000479101,0.00140653,0.000270874,-9.30842e-05,-0.000784692,0,0,0,0,0,0,0,-0.50597,-9.32834,-0.786069,21.9635,1.70137,1.37899,-0.161856,-0.470867,-0.22462,-0.300977,3.4956,0.991506,-0.292446,-0.191673
1038920,1,-1.57045,-0.523504,0.000235653,-2.09692,-0.00124845,1.57123,0.785672,-1.5708,-0.5236,1.5191e-07,-2.0944,-6.02416e-07,1.5708,0.785398,-0.000142928,-0.00115752,-0.000237411,-0.000268736,0.000180583,0.000175303,0.00185046,0,0,0,0,0,0,0,-0.478199,-9.28073,-0.762265,22.0151,1.70137,1.37258,-0.225942,-0.470509,-0.222087,-0.300266,3.49379,0.991495,-0.292544,-0.191524
1038921,1,-1.57045,-0.5235,0.000237323,-2.09692,-0.00124525,1.57123,0.785668,-1.5708,-0.5236,1.5191e-07,-2.0944,-6.02416e-07,1.5708,0.785398,-0.000652097,0.000341943,0.000398538,-0.000179158,0.000120389,0.000116869,0.000758923,0,0,0,0,0,0,0,-0.454395,-9.32834,-0.786069,22.0151,1.70137,1.37258,-0.213125,-0.470412,-0.219128,-0.299958,3.49197,0.991474,-0.292638,-0.19136
1038922,1,-1.57044,-0.5235,0.000237323,-2.09692,-0.00124738,1.57123,0.785663,-1.5708,-0.5236,1.5191e-07,-2.0944,-6.02416e-07,1.5708,0.785398,0.000771694,0.000227962,0.000265692,0.000530176,8.02591e-05,-0.000159447,-0.000918205,0,0,0,0,0,0,0,-0.50597,-9.32834,-0.786069,21.9873,1.70137,1.37899,-0.174673,-0.470471,-0.21771,-0.299925,3.49108,0.991457,-0.29266,-0.191223
1038923,1,-1.57045,-0.5235,0.000239272,-2.09693,-0.00124931,1.57123,0.785664,-1.5708,-0.5236,1.5191e-07,-2.0944,-6.02416e-07,1.5708,0.785398,-0.000691963,0.000151975,0.000826742,-0.00140979,-0.000353395,-0.000106298,-0.00108685,0,0,0,0,0,0,0,-0.454395,-9.32834,-0.81384,22.0627,1.71236,1.37899,-0.161856,-0.471071,-0.218258,-0.300702,3.49131,0.99143,-0.292599,-0.191129
1038924,1,-1.57044,-0.523497,0.000235653,-2.09692,-0.00124772,1.57123,0.785669,-1.5708,-0.5236,1.5191e-07,-2.0944,-6.02416e-07,1.5708,0.785398,0.00130193,0.00130774,-0.000655265,0.000173766,0.000374755,-7.08652e-05,0.000699584,0,0,0,0,0,0,0,-0.529774,-9.37991,-0.762265,22.0151,1.69588,1.37899,-0.200308,-0.47191,-0.22103,-0.301805,3.49292,0.991413,-0.292417,-0.191047
1038925,1,-1.57044,-0.5235,0.000239272,-2.09692,-0.00124963,1.57123,0.785671,-1.5708,-0.5236,1.5191e-07,-2.0944,-6.02416e-07,1.5708,0.785398,0.000311141,-0.000334598,0.000769583,0.000765458,-0.000360515,-4.72434e-05,0.000941107,0,0,0,0,0,0,0,-0.50597,-9.32834,-0.81384,21.9873,1.71236,1.37899,-0.213125,-0.47292,-0.22469,-0.303002,3.49477,0.991383,-0.292237,-0.190953
1038926,1,-1.57044,-0.5235,0.000237323,-2.09693,-0.00124782,1.57123,0.785668,-1.5708,-0.5236,1.5191e-07,-2.0944,-6.02416e-07,1.5708,0.785398,-0.000442186,-0.000223065,-0.000136559,-0.000696121,0.000370008,0.000443222,-0.00055939,0,0,0,0,0,0,0,-0.478199,-9.32834,-0.786069,22.0389,1.69588,1.36618,-0.181082,-0.473972,-0.226653,-0.304194,3.49548,0.991324,-0.292166,-0.190867
1038927,1,-1.57045,-0.523498,0.000237323,-2.09693,-0.00124647,1.57123,0.785664,-1.5708,-0.5236,1.5191e-07,-2.0944,-6.02416e-07,1.5708,0.785398,-0.000851603,0.000500904,-9.10392e-05,-0.000464081,-0.000363679,-0.000179236,-0.00155972,0,0,0,0,0,0,0,-0.454395,-9.35611,-0.786069,22.0389,1.71236,1.37899,-0.149038,-0.474269,-0.227716,-0.304381,3.49595,0.991305,-0.292104,-0.190813
1038928,1,-1.57044,-0.523498,0.000237323,-2.09692,-0.0012486,1.57123,0.785669,-1.5708,-0.5236,1.5191e-07,-2.0944,-6.02416e-07,1.5708,0.785398,0.00063869,-0.000315678,-6.06928e-05,0.000897039,-0.000242453,-0.000119491,0.000621698,0,0,0,0,0,0,0,-0.50597,-9.32834,-0.786069,21.9873,1.71236,1.37899,-0.193899,-0.473891,-0.228672,-0.303634,3.49639,0.99132,-0.29205,-0.190764
1038929,1,-1.57045,-0.523501,0.000237323,-2.09692,-0.00124809,1.57123,0.785673,-1.5708,-0.5236,1.5191e-07,-2.0944,-6.02416e-07,1.5708,0.785398,-0.00022382,-0.000767264,-4.04618e-05,-5.1588e-05,0.000245266,0.000157698,0.00160126,0,0,0,0,0,0,0,-0.478199,-9.30453,-0.786069,22.0151,1.70137,1.37258,-0.225942,-0.473599,-0.227823,-0.302965,3.49567,0.991308,-0.29211,-0.190686
1038930,1,-1.57045,-0.523496,0.000237323,-2.09692,-0.00124707,1.57123,0.785672,-1.5708,-0.5236,1.5191e-07,-2.0944,-6.02416e-07,1.5708,0.785398,-0.000149213,0.00125173,-2.69746e-05,-3.4392e-05,-0.000480749,0.000105132,0.000830148,0,0,0,0,0,0,0,-0.478199,-9.37991,-0.786069,22.0151,1.71877,1.37258,-0.219534,-0.473382,-0.226402,-0.30239,3.49457,0.991292,-0.29221,-0.190599
1038931,1,-1.57045,-0.5235,0.000235653,-2.09692,-0.00124795,1.57123,0.785668,-1.5708,-0.5236,1.5191e-07,-2.0944,-6.02416e-07,1.5708,0.785398,-9.94755e-05,-0.00037194,-0.000574795,-2.2928e-05,0.00012031,0.000307447,-0.000633363,0,0,0,0,0,0,0,-0.478199,-9.32834,-0.762265,22.0151,1.70687,1.36618,-0.18749,-0.472937,-0.226526,-0.301492,3.49424,0.991313,-0.29226,-0.190555
1038932,1,-1.57045,-0.523498,0.000235653,-2.09692,-0.00124808,1.57123,0.785664,-1.5708,-0.5236,1.5191e-07,-2.0944,-6.02416e-07,1.5708,0.785398,-0.000623129,0.000401654,-0.000383197,-1.52853e-05,0.000283657,-0.000507112,-0.00089696,0,0,0,0,0,0,0,-0.454395,-9.35611,-0.762265,22.0151,1.70137,1.3854,-0.174673,-0.472094,-0.22717,-0.300006,3.49416,0.991374,-0.292296,-0.190578
1038933,1,-1.57044,-0.523498,0.000237323,-2.09693,-0.00124954,1.57123,0.785668,-1.5708,-0.5236,1.5191e-07,-2.0944,-6.02416e-07,1.5708,0.785398,0.000791006,0.000267769,0.000301348,-0.000567002,-0.000217796,0.000374002,0.000114104,0,0,0,0,0,0,0,-0.50597,-9.35611,-0.786069,22.0389,1.71236,1.36618,-0.193899,-0.471343,-0.228081,-0.298652,3.49434,0.991448,-0.292308,-0.190638
1038934,1,-1.57045,-0.523496,0.000239272,-2.09693,-0.00124963,1.57123,0.785668,-1.5708,-0.5236,1.5191e-07,-2.0944,-6.02416e-07,1.5708,0.785398,-0.000679088,0.000178513,0.000850512,-0.000934813,-0.000145198,1.19758e-05,0.000788146,0,0,0,0,0,0,0,-0.454395,-9.35611,-0.81384,22.0627,1.71236,1.37258,-0.213125,-0.471466,-0.229833,-0.298625,3.49525,0.991501,-0.292255,-0.190694
1038935,1,-1.57044,-0.523498,0.000239272,-2.09692,-0.00124965,1.57123,0.785669,-1.5708,-0.5236,1.5191e-07,-2.0944,-6.02416e-07,1.5708,0.785398,0.0007537,0.000119009,0.000567008,0.000490415,-9.67984e-05,7.98386e-06,5.07127e-05,0,0,0,0,0,0,0,-0.50597,-9.35611,-0.81384,22.0151,1.71236,1.37258,-0.200308,-0.472466,-0.231602,-0.299993,3.49635,0.991523,-0.292196,-0.190748
1038936,1,-1.57044,-0.523496,0.000235653,-2.09693,-0.00124966,1.57123,0.785667,-1.5708,-0.5236,1.5191e-07,-2.0944,-6.02416e-07,1.5708,0.785398,0.000502467,0.000636151,-0.00082842,-0.000229869,-6.45322e-05,-0.000232036,-0.000678268,0,0,0,0,0,0,0,-0.50597,-9.37991,-0.762265,22.0389,1.71236,1.37899,-0.181082,-0.47376,-0.232961,-0.301756,3.49703,0.991529,-0.2922,-0.190824
1038937,1,-1.57044,-0.523498,0.000235653,-2.09693,-0.00124783,1.57123,0.785663,-1.5708,-0.5236,1.5191e-07,-2.0944,-6.02416e-07,1.5708,0.785398,-0.000314636,-0.000132711,-0.00055228,-0.00191648,0.00056733,0.000320027,-0.000926897,0,0,0,0,0,0,0,-0.478199,-9.35611,-0.762265,22.1143,1.69588,1.36618,-0.168264,-0.474417,-0.234756,-0.302437,3.49804,0.991585,-0.292175,-0.190922
1038938,1,-1.57044,-0.523502,0.000237323,-2.09693,-0.00124845,1.57123,0.785669,-1.5708,-0.5236,1.5191e-07,-2.0944,-6.02416e-07,1.5708,0.785398,0.000439856,-0.0012949,0.000188625,0.000485582,0.00017477,-2.40076e-05,0.000806222,0,0,0,0,0,0,0,-0.50597,-9.30453,-0.786069,22.0389,1.70137,1.37258,-0.206716,-0.474454,-0.235588,-0.30215,3.49903,0.991678,-0.292133,-0.191016
1038939,1,-1.57044,-0.523497,0.000239272,-2.09692,-0.00124906,1.57123,0.785671,-1.5708,-0.5236,1.5191e-07,-2.0944,-6.02416e-07,1.5708,0.785398,-0.000356376,0.000899971,0.000775364,0.00153015,-8.69375e-05,-0.000490723,0.0010122,0,0,0,0,0,0,0,-0.478199,-9.37991,-0.81384,21.9873,1.70687,1.3854,-0.219534,-0.474796,-0.233809,-0.30234,3.49837,0.99171,-0.292263,-0.191085
1038940,1,-1.57045,-0.523497,0.000237323,-2.09693,-0.00124906,1.57123,0.785672,-1.5708,-0.5236,1.5191e-07,-2.0944,-6.02416e-07,1.5708,0.785398,-0.000237584,0.000599981,-0.000132705,-0.00074314,-5.79583e-05,-8.97897e-05,0.000912159,0,0,0,0,0,0,0,-0.478199,-9.37991,-0.786069,22.0627,1.70687,1.37899,-0.225942,-0.475392,-0.232214,-0.302988,3.49711,0.99169,-0.292495,-0.191148
1038941,1,-1.57044,-0.523498,0.000235653,-2.09693,-0.00124845,1.57123,0.785666,-1.5708,-0.5236,1.5191e-07,-2.0944,-6.02416e-07,1.5708,0.785398,0.000491224,-0.000156825,-0.000645282,0.000618197,0.000164812,-5.98598e-05,-0.00152812,0,0,0,0,0,0,0,-0.50597,-9.35611,-0.762265,22.0151,1.70137,1.37899,-0.168264,-0.475656,-0.232194,-0.303144,3.49656,0.991686,-0.292668,-0.191249
1038942,1,-1.57044,-0.5235,0.000237323,-2.09693,-0.00124906,1.57123,0.785662,-1.5708,-0.5236,1.5191e-07,-2.0944,-6.02416e-07,1.5708,0.785398,0.000327483,-0.000754164,0.000126624,-0.00014468,-9.35761e-05,-3.99065e-05,-0.00125611,0,0,0,0,0,0,0,-0.50597,-9.32834,-0.786069,22.0389,1.70687,1.37899,-0.161856,-0.475763,-0.231375,-0.302939,3.49575,0.991681,-0.292833,-0.191396
1038943,1,-1.57044,-0.5235,0.000237323,-2.09693,-0.00124647,1.57123,0.785669,-1.5708,-0.5236,1.5191e-07,-2.0944,-6.02416e-07,1.5708,0.785398,-0.000431291,-0.000502776,8.44161e-05,-9.64535e-05,-0.000265835,-2.66044e-05,0.000824107,0,0,0,0,0,0,0,-0.478199,-9.32834,-0.786069,22.0389,1.71236,1.37899,-0.206716,-0.476012,-0.228946,-0.3029,3.49436,0.991656,-0.293012,-0.19154
1038944,1,-1.57045,-0.523498,0.000237323,-2.09693,-0.00124799,1.57123,0.78567,-1.5708,-0.5236,1.5191e-07,-2.0944,-6.02416e-07,1.5708,0.785398,-0.00084434,0.00031443,5.62774e-05,-6.43024e-05,2.62275e-05,-1.77362e-05,0.000549405,0,0,0,0,0,0,0,-0.454395,-9.35611,-0.786069,22.0389,1.70687,1.37899,-0.206716,-0.476047,-0.226548,-0.302654,3.4932,0.991645,-0.293147,-0.191647
1038945,1,-1.57045,-0.5235,0.000239272,-2.09693,-0.0012487,1.57123,0.785671,-1.5708,-0.5236,1.5191e-07,-2.0944,-6.02416e-07,1.5708,0.785398,-0.000562893,-0.000439994,0.000687132,-0.00059968,1.7485e-05,-0.000249183,0.000603629,0,0,0,0,0,0,0,-0.454395,-9.32834,-0.81384,22.0627,1.70687,1.3854,-0.213125,-0.47581,-0.225325,-0.302192,3.49277,0.991664,-0.293202,-0.191733
1038946,1,-1.57045,-0.523498,0.000237323,-2.09692,-0.00124955,1.57123,0.785665,-1.5708,-0.5236,1.5191e-07,-2.0944,-6.02416e-07,1.5708,0.785398,-0.000375262,0.000356285,-0.000191526,0.00192026,-0.000191794,7.12369e-05,-0.000547017,0,0,0,0,0,0,0,-0.454395,-9.35611,-0.786069,21.9635,1.71236,1.37899,-0.18749,-0.475592,-0.224443,-0.301918,3.49236,0.99168,-0.293255,-0.191828
1038947,1,-1.57045,-0.523498,0.000237323,-2.09692,-0.00124902,1.57123,0.785664,-1.5708,-0.5236,1.5191e-07,-2.0944,-6.02416e-07,1.5708,0.785398,-0.000250175,0.000237523,-0.000127684,7.37494e-05,7.55879e-05,0.000759568,-0.000364678,0,0,0,0,0,0,0,-0.454395,-9.35611,-0.786069,22.0151,1.70687,1.35977,-0.18749,-0.475242,-0.223496,-0.301525,3.4913,0.991687,-0.293385,-0.191945
1038948,1,-1.57045,-0.5235,0.000239272,-2.09693,-0.00124965,1.57123,0.785667,-1.5708,-0.5236,1.5191e-07,-2.0944,-6.02416e-07,1.5708,0.785398,0.000390029,-0.000491265,0.000564491,-0.00106446,-0.000153059,-0.000443057,0.000706317,0,0,0,0,0,0,0,-0.478199,-9.32834,-0.81384,22.0627,1.71236,1.3854,-0.213125,-0.475048,-0.223201,-0.301406,3.49061,0.9917,-0.293475,-0.192068
1038949,1,-1.57045,-0.5235,0.000235653,-2.09693,-0.00124966,1.57123,0.78567,-1.5708,-0.5236,1.5191e-07,-2.0944,-6.02416e-07,1.5708,0.785398,-0.000853605,-0.00032751,-0.000830098,-0.000152826,-0.000102039,0.000179347,0.000470878,0,0,0,0,0,0,0,-0.430592,-9.32834,-0.762265,22.0389,1.71236,1.37258,-0.213125,-0.474987,-0.223299,-0.301563,3.49082,0.991734,-0.293447,-0.192188
1038950,1,-1.57045,-0.523502,0.000235653,-2.09692,-0.00124845,1.57123,0.78567,-1.5708,-0.5236,1.5191e-07,-2.0944,-6.02416e-07,1.5708,0.785398,0.000544554,-0.000775152,-0.000553399,0.00110454,0.000338875,-0.000117795,7.65598e-05,0,0,0,0,0,0,0,-0.478199,-9.30453,-0.762265,21.9873,1.70137,1.37899,-0.206716,-0.474376,-0.222368,-0.300946,3.49062,0.991791,-0.293444,-0.192329
1038951,1,-1.57045,-0.523498,0.000237323,-2.09692,-0.00124906,1.57123,0.78567,-1.5708,-0.5236,1.5191e-07,-2.0944,-6.02416e-07,1.5708,0.785398,-0.000750588,0.000689658,0.000187879,8.67471e-05,2.24662e-05,-7.85297e-05,-0.000186319,0,0,0,0,0,0,0,-0.430592,-9.35611,-0.786069,22.0151,1.70687,1.37899,-0.200308,-0.473507,-0.220694,-0.299963,3.48964,0.991844,-0.293525,-0.192505
1038952,1,-1.57045,-0.523498,0.000239272,-2.09693,-0.00124906,1.57123,0.785668,-1.5708,-0.5236,1.5191e-07,-2.0944,-6.02416e-07,1.5708,0.785398,5.64201e-05,0.000459772,0.000774867,-0.00105579,1.49774e-05,-0.000289712,-0.00083629,0,0,0,0,0,0,0,-0.454395,-9.35611,-0.81384,22.0627,1.70687,1.3854,-0.181082,-0.473077,-0.221016,-0.299771,3.48967,0.991891,-0.293522,-0.192703
1038953,1,-1.57045,-0.5235,0.000237323,-2.09692,-0.00124845,1.57123,0.785669,-1.5708,-0.5236,1.5191e-07,-2.0944,-6.02416e-07,1.5708,0.785398,-0.000519199,-0.000343099,-0.000133036,0.000409762,0.000213435,0.000281576,0.000866627,0,0,0,0,0,0,0,-0.430592,-9.32834,-0.786069,22.0151,1.70137,1.37258,-0.219534,-0.473097,-0.223159,-0.300429,3.49092,0.991938,-0.293399,-0.192904
1038954,1,-1.57044,-0.523498,0.000233704,-2.09692,-0.00124906,1.57123,0.785668,-1.5708,-0.5236,1.5191e-07,-2.0944,-6.02416e-07,1.5708,0.785398,0.000767492,0.000420881,-0.00129512,0.000273175,-6.11602e-05,0.000187718,-0.000371684,0,0,0,0,0,0,0,-0.478199,-9.35611,-0.734494,22.0151,1.70687,1.37258,-0.193899,-0.472868,-0.224832,-0.300734,3.49184,0.991977,-0.293303,-0.193103
1038955,1,-1.57045,-0.5235,0.000237323,-2.09693,-0.00124906,1.57123,0.785665,-1.5708,-0.5236,1.5191e-07,-2.0944,-6.02416e-07,1.5708,0.785398,-4.51509e-05,-0.000369027,0.000343015,-0.000931507,-4.07735e-05,-0.000349573,-0.00143458,0,0,0,0,0,0,0,-0.454395,-9.32834,-0.786069,22.0627,1.70687,1.3854,-0.161856,-0.472307,-0.226109,-0.300439,3.4925,0.992014,-0.293229,-0.193305
1038956,1,-1.57044,-0.523502,0.000237323,-2.09692,-0.00124967,1.57123,0.785662,-1.5708,-0.5236,1.5191e-07,-2.0944,-6.02416e-07,1.5708,0.785398,0.00173314,-0.00080283,0.000228677,0.000492619,-0.000230633,-0.000233049,-0.000956389,0,0,0,0,0,0,0,-0.529774,-9.30453,-0.786069,22.0151,1.71236,1.3854,-0.161856,-0.47248,-0.226501,-0.301126,3.49299,0.992009,-0.293147,-0.193486
1038957,1,-1.57045,-0.523498,0.000235653,-2.09692,-0.00124845,1.57123,0.785663,-1.5708,-0.5236,1.5191e-07,-2.0944,-6.02416e-07,1.5708,0.785398,-5.10008e-05,0.000671206,-0.000404361,0.000328413,0.000253146,8.19933e-05,7.44838e-05,0,0,0,0,0,0,0,-0.478199,-9.35611,-0.762265,22.0151,1.70137,1.37899,-0.181082,-0.473493,-0.225734,-0.302906,3.49283,0.991948,-0.293118,-0.193601
1038958,1,-1.57044,-0.523496,0.000237141,-2.09693,-0.00124784,1.57123,0.785672,-1.5708,-0.5236,1.5191e-07,-2.0944,-6.02416e-07,1.5708,0.785398,0.000615613,0.000447471,0.000936852,-0.00033787,0.000372214,0.000292021,0.00194853,0,0,0,0,0,0,0,-0.50597,-9.35611,-0.81384,22.0389,1.69588,1.37258,-0.232351,-0.474654,-0.225925,-0.304805,3.49287,0.991879,-0.293086,-0.193628
1038959,1,-1.57045,-0.523498,0.000234942,-2.09693,-0.00124845,1.57123,0.785666,-1.5708,-0.5236,1.5191e-07,-2.0944,-6.02416e-07,1.5708,0.785398,-0.00135283,0.000298314,-0.000581858,-0.000225247,4.46924e-05,-4.26782e-05,-0.000837212,0,0,0,0,0,0,0,-0.430592,-9.35611,-0.762265,22.0389,1.70137,1.37899,-0.174673,-0.47544,-0.227739,-0.306196,3.49373,0.991838,-0.292987,-0.1936
1038960,1,-1.57045,-0.5235,0.000235416,-2.09693,-0.00124845,1.57123,0.785662,-1.5708,-0.5236,1.5191e-07,-2.0944,-6.02416e-07,1.5708,0.785398,-0.000345074,-0.000450738,-0.000387905,-0.000150165,2.97949e-05,-0.00050317,-0.00103286,0,0,0,0,0,0,0,-0.454395,-9.32834,-0.762265,22.0389,1.70137,1.39181,-0.161856,-0.475037,-0.229557,-0.305928,3.49473,0.991848,-0.292863,-0.193568
1038961,1,-1.57045,-0.523498,0.000239193,-2.09693,-0.00124845,1.57123,0.785667,-1.5708,-0.5236,1.5191e-07,-2.0944,-6.02416e-07,1.5708,0.785398,-0.000230049,0.000349122,0.000947822,-0.000656922,1.98633e-05,0.00037663,0.000260863,0,0,0,0,0,0,0,-0.454395,-9.35611,-0.81384,22.0627,1.70137,1.37258,-0.18749,-0.474076,-0.230709,-0.304902,3.49558,0.991868,-0.292732,-0.193521
1038962,1,-1.57044,-0.5235,0.000237297,-2.09692,-0.00124845,1.57123,0.785668,-1.5708,-0.5236,1.5191e-07,-2.0944,-6.02416e-07,1.5708,0.785398,0.000403446,-0.000416866,-1.77324e-05,0.000675676,1.32422e-05,-0.000223631,0.0013607,0,0,0,0,0,0,0,-0.478199,-9.32834,-0.786069,22.0151,1.70137,1.3854,-0.219534,-0.473788,-0.231299,-0.304889,3.49619,0.991834,-0.292618,-0.19343
1038963,1,-1.57045,-0.523498,0.000239263,-2.09692,-0.00124845,1.57123,0.785672,-1.5708,-0.5236,1.5191e-07,-2.0944,-6.02416e-07,1.5708,0.785398,-0.000287848,0.000371703,0.000637792,0.000450451,8.82813e-06,8.82715e-05,0.00138185,0,0,0,0,0,0,0,-0.454395,-9.35611,-0.81384,22.0151,1.70137,1.37899,-0.232351,-0.474037,-0.230949,-0.305656,3.49603,0.991737,-0.292587,-0.193314
1038964,1,-1.57044,-0.523498,0.000239269,-2.09693,-0.00124586,1.57123,0.785666,-1.5708,-0.5236,1.5191e-07,-2.0944,-6.02416e-07,1.5708,0.785398,0.00101453,0.000247802,0.000425195,-0.000813323,-0.000197565,-0.00041587,-0.00121499,0,0,0,0,0,0,0,-0.50597,-9.35611,-0.81384,22.0627,1.70687,1.39181,-0.174673,-0.47471,-0.230756,-0.307033,3.49581,0.991604,-0.292565,-0.193227
1038965,1,-1.57045,-0.523498,0.000233521,-2.09693,-0.00124738,1.57123,0.785665,-1.5708,-0.5236,1.5191e-07,-2.0944,-6.02416e-07,1.5708,0.785398,-0.000530074,-0.000484412,-0.000922963,1.45964e-05,7.17405e-05,0.00043483,-0.00128471,0,0,0,0,0,0,0,-0.454395,-9.32834,-0.762265,22.0389,1.70137,1.37258,-0.161856,-0.475347,-0.23116,-0.308303,3.49615,0.991483,-0.292471,-0.193198
1038966,1,-1.57044,-0.523498,0.000238561,-2.09693,-0.00124809,1.57123,0.785668,-1.5708,-0.5236,1.5191e-07,-2.0944,-6.02416e-07,1.5708,0.785398,0.000203429,0.000326672,0.000591117,9.7309e-06,4.7827e-05,-0.000184831,9.29595e-05,0,0,0,0,0,0,0,-0.478199,-9.35611,-0.81384,22.0389,1.70137,1.3854,-0.18749,-0.475306,-0.231173,-0.308542,3.49639,0.991397,-0.29237,-0.193194
1038967,1,-1.57044,-0.5235,0.000237086,-2.09693,-0.00124574,1.57123,0.785669,-1.5708,-0.5236,1.5191e-07,-2.0944,-6.02416e-07,1.5708,0.785398,0.000785233,-0.000431832,-0.000255536,6.48727e-06,-0.000171566,-0.000123221,0.00124877,0,0,0,0,0,0,0,-0.50597,-9.32834,-0.786069,22.0389,1.70687,1.3854,-0.219534,-0.475233,-0.230797,-0.308706,3.49636,0.991304,-0.292292,-0.193168
1038968,1,-1.57045,-0.523494,0.000237244,-2.09692,-0.00124673,1.57123,0.785666,-1.5708,-0.5236,1.5191e-07,-2.0944,-6.02416e-07,1.5708,0.785398,-0.000126125,0.000918538,-0.000170357,0.00121075,0.000292524,0.000392571,0.000357794,0,0,0,0,0,0,0,-0.478199,-9.37991,-0.786069,21.9873,1.69588,1.37258,-0.206716,-0.475348,-0.230326,-0.309046,3.49601,0.991191,-0.292257,-0.193126
1038969,1,-1.57044,-0.5235,0.000235626,-2.09693,-0.00124869,1.57123,0.785664,-1.5708,-0.5236,1.5191e-07,-2.0944,-6.02416e-07,1.5708,0.785398,-8.40832e-05,-0.000594067,-0.000670383,-0.000399259,-0.000211885,0.000261714,-0.00142298,0,0,0,0,0,0,0,-0.478199,-9.32834,-0.762265,22.0389,1.70687,1.37258,-0.161856,-0.474985,-0.229916,-0.308606,3.49534,0.991095,-0.292269,-0.193106
1038970,1,-1.57044,-0.523498,0.000237314,-2.09693,-0.00124893,1.57123,0.785666,-1.5708,-0.5236,1.5191e-07,-2.0944,-6.02416e-07,1.5708,0.785398,0.000593558,0.000253569,0.00010989,-0.000266172,-0.000141257,0.000174476,-0.000473938,0,0,0,0,0,0,0,-0.50597,-9.35611,-0.786069,22.0389,1.70687,1.37258,-0.174673,-0.474336,-0.229577,-0.307677,3.49486,0.991027,-0.292259,-0.193108
1038971,1,-1.57045,-0.523495,0.00023565,-2.09693,-0.00124902,1.57123,0.785672,-1.5708,-0.5236,1.5191e-07,-2.0944,-6.02416e-07,1.5708,0.785398,-0.00081072,0.00137547,-0.000483552,-0.000177448,-9.41712e-05,-0.000121042,0.00134555,0,0,0,0,0,0,0,-0.454395,-9.40768,-0.762265,22.0389,1.70687,1.37899,-0.219534,-0.473711,-0.230705,-0.30672,3.49539,0.990986,-0.292167,-0.193092
1038972,1,-1.57045,-0.5235,0.000237322,-2.09692,-0.00124965,1.57123,0.785668,-1.5708,-0.5236,1.5191e-07,-2.0944,-6.02416e-07,1.5708,0.785398,1.63319e-05,-0.000939059,0.000234444,0.000438513,-0.000266231,-8.06945e-05,0.000659677,0,0,0,0,0,0,0,-0.478199,-9.32834,-0.786069,22.0151,1.71236,1.37899,-0.213125,-0.47294,-0.23289,-0.30556,3.49641,0.99097,-0.292055,-0.193052
1038973,1,-1.57044,-0.5235,0.000235652,-2.09693,-0.00124905,1.57123,0.785669,-1.5708,-0.5236,1.5191e-07,-2.0944,-6.02416e-07,1.5708,0.785398,1.0888e-05,-0.000626039,-0.000400516,-0.00026447,2.5963e-05,-5.37963e-05,0.000202426,0,0,0,0,0,0,0,-0.478199,-9.32834,-0.762265,22.0389,1.70687,1.37899,-0.206716,-0.472278,-0.232948,-0.30455,3.4964,0.990945,-0.29203,-0.193028
1038974,1,-1.57045,-0.5235,0.000237323,-2.09692,-0.00124845,1.57123,0.785664,-1.5708,-0.5236,1.5191e-07,-2.0944,-6.02416e-07,1.5708,0.785398,-0.000549553,-0.000417359,0.000289801,0.000380499,0.000220759,-3.58642e-05,-0.00176392,0,0,0,0,0,0,0,-0.454395,-9.32834,-0.786069,22.0151,1.70137,1.37899,-0.155447,-0.471841,-0.230767,-0.303848,3.49539,0.990912,-0.292077,-0.193048
1038975,1,-1.57044,-0.5235,0.000235653,-2.09692,-0.00124845,1.57123,0.785671,-1.5708,-0.5236,1.5191e-07,-2.0944,-6.02416e-07,1.5708,0.785398,0.000840056,-0.00027824,-0.000363611,0.00090328,0.000147173,-0.000261268,0.000960283,0,0,0,0,0,0,0,-0.50597,-9.32834,-0.762265,21.9873,1.70137,1.3854,-0.213125,-0.471649,-0.227789,-0.303465,3.49382,0.990869,-0.29218,-0.193095
1038976,1,-1.57045,-0.523498,0.000237323,-2.09693,-0.00124967,1.57123,0.785674,-1.5708,-0.5236,1.5191e-07,-2.0944,-6.02416e-07,1.5708,0.785398,-0.000646388,0.000464121,0.000314405,-0.000604239,-0.000308786,0.000537898,0.00158962,0,0,0,0,0,0,0,-0.454395,-9.35611,-0.786069,22.0389,1.71236,1.36618,-0.23876,-0.471777,-0.225419,-0.303479,3.49234,0.990813,-0.292286,-0.193134
1038977,1,-1.57045,-0.523495,0.000237323,-2.09692,-0.00124784,1.57123,0.785671,-1.5708,-0.5236,1.5191e-07,-2.0944,-6.02416e-07,1.5708,0.785398,-0.000430925,0.00151584,0.000209603,0.000153986,0.000404494,-0.000116119,0.000110314,0,0,0,0,0,0,0,-0.454395,-9.40768,-0.786069,22.0151,1.69588,1.37899,-0.213125,-0.471914,-0.226105,-0.30356,3.4924,0.990789,-0.292274,-0.193186
1038978,1,-1.57045,-0.523498,0.000235653,-2.09693,-0.00124647,1.57123,0.785667,-1.5708,-0.5236,1.5191e-07,-2.0944,-6.02416e-07,1.5708,0.785398,-0.000287283,-0.00084548,-0.000417077,-0.000454155,-0.000340689,0.000397305,-0.00135061,0,0,0,0,0,0,0,-0.454395,-9.32834,-0.762265,22.0389,1.71236,1.36618,-0.174673,-0.47179,-0.229026,-0.303353,3.49365,0.990804,-0.292171,-0.193296
1038979,1,-1.57045,-0.523499,0.000237323,-2.09692,-0.00124799,1.57123,0.785669,-1.5708,-0.5236,1.5191e-07,-2.0944,-6.02416e-07,1.5708,0.785398,0.00036529,-0.00112047,0.000278761,0.000254042,-2.36753e-05,2.75111e-05,-0.000188331,0,0,0,0,0,0,0,-0.478199,-9.30453,-0.786069,22.0151,1.70687,1.37258,-0.193899,-0.471607,-0.229978,-0.303069,3.49411,0.990814,-0.292125,-0.19346
1038980,1,-1.57045,-0.523499,0.000235653,-2.09693,-0.00124809,1.57123,0.785673,-1.5708,-0.5236,1.5191e-07,-2.0944,-6.02416e-07,1.5708,0.785398,-0.000870097,-0.000190165,-0.000370971,-0.000387451,0.000187667,-0.000219018,0.00106124,0,0,0,0,0,0,0,-0.430592,-9.32834,-0.762265,22.0389,1.70137,1.37899,-0.225942,-0.471477,-0.228242,-0.302881,3.49343,0.990804,-0.29217,-0.193638
1038981,1,-1.57044,-0.523498,0.000235653,-2.09693,-0.00124772,1.57123,0.785673,-1.5708,-0.5236,1.5191e-07,-2.0944,-6.02416e-07,1.5708,0.785398,0.00118317,0.000522837,-0.000247314,-0.0002583,0.000328562,-0.000146012,0.000707494,0,0,0,0,0,0,0,-0.50597,-9.35611,-0.762265,22.0389,1.69588,1.37899,-0.225942,-0.47128,-0.226999,-0.302581,3.49307,0.990799,-0.292197,-0.193817
1038982,1,-1.57045,-0.523498,0.000235653,-2.09693,-0.00124902,1.57123,0.785671,-1.5708,-0.5236,1.5191e-07,-2.0944,-6.02416e-07,1.5708,0.785398,-0.00162407,0.000348558,-0.000164876,-0.0001722,-0.00018786,0.000140018,-3.05521e-06,0,0,0,0,0,0,0,-0.402821,-9.35611,-0.762265,22.0389,1.70687,1.37258,-0.213125,-0.470956,-0.227838,-0.302075,3.49372,0.990807,-0.292158,-0.194022
1038983,1,-1.57045,-0.5235,0.000239272,-2.09692,-0.00124843,1.57123,0.785665,-1.5708,-0.5236,1.5191e-07,-2.0944,-6.02416e-07,1.5708,0.785398,0.000123713,-0.000417242,0.00109651,0.000442012,7.82107e-05,0.000330704,-0.00213827,0,0,0,0,0,0,0,-0.454395,-9.32834,-0.81384,22.0151,1.70137,1.36618,-0.155447,-0.470581,-0.229162,-0.301657,3.49444,0.99081,-0.292136,-0.194275
1038984,1,-1.57045,-0.523498,0.000235653,-2.09693,-0.00124966,1.57123,0.785668,-1.5708,-0.5236,1.5191e-07,-2.0944,-6.02416e-07,1.5708,0.785398,-0.000474337,0.000371453,-0.00047542,-0.000818949,-0.000354761,-0.000728966,-0.000238717,0,0,0,0,0,0,0,-0.430592,-9.35611,-0.762265,22.0627,1.71236,1.39181,-0.18749,-0.470468,-0.229965,-0.301813,3.49487,0.990789,-0.292152,-0.194546
1038985,1,-1.57045,-0.523498,0.000237323,-2.09693,-0.00124967,1.57123,0.785673,-1.5708,-0.5236,1.5191e-07,-2.0944,-6.02416e-07,1.5708,0.785398,0.000240587,0.000247635,0.000239865,-0.000545966,-0.000236507,0.000226099,0.00126501,0,0,0,0,0,0,0,-0.454395,-9.35611,-0.786069,22.0627,1.71236,1.37258,-0.225942,-0.470403,-0.231493,-0.302102,3.49591,0.990773,-0.292109,-0.194778
1038986,1,-1.57044,-0.5235,0.000235653,-2.09692,-0.00124784,1.57123,0.785671,-1.5708,-0.5236,1.5191e-07,-2.0944,-6.02416e-07,1.5708,0.785398,0.00136682,-0.000484524,-0.000396902,0.000749646,0.00045268,0.000150733,0.000368622,0,0,0,0,0,0,0,-0.50597,-9.32834,-0.762265,22.0151,1.69588,1.37258,-0.213125,-0.47056,-0.23296,-0.302639,3.49695,0.990744,-0.292068,-0.194966
1038987,1,-1.57045,-0.5235,0.000237141,-2.09693,-0.00124845,1.57123,0.785664,-1.5708,-0.5236,1.5191e-07,-2.0944,-6.02416e-07,1.5708,0.785398,-0.000295214,-0.000323016,0.000941825,-0.00061386,9.83363e-05,-0.000374229,-0.00212784,0,0,0,0,0,0,0,-0.454395,-9.32834,-0.81384,22.0627,1.70137,1.3854,-0.149038,-0.471354,-0.232716,-0.304007,3.49699,0.990668,-0.292118,-0.195146
1038988,1,-1.57044,-0.523497,0.000236613,-2.09693,-0.00124906,1.57123,0.785667,-1.5708,-0.5236,1.5191e-07,-2.0944,-6.02416e-07,1.5708,0.785398,0.00100962,0.000991082,-2.17308e-05,-0.00040924,-0.000137893,-1.21273e-05,-0.000469125,0,0,0,0,0,0,0,-0.50597,-9.37991,-0.786069,22.0627,1.70687,1.37899,-0.174673,-0.472546,-0.232624,-0.305971,3.49722,0.990579,-0.292144,-0.195311
1038989,1,-1.57044,-0.523498,0.000235416,-2.09693,-0.00124906,1.57123,0.785669,-1.5708,-0.5236,1.5191e-07,-2.0944,-6.02416e-07,1.5708,0.785398,2.3464e-05,0.000103909,-0.000571299,0.000283985,-9.19287e-05,0.000229274,0.00134876,0,0,0,0,0,0,0,-0.478199,-9.35611,-0.762265,22.0389,1.70687,1.37258,-0.219534,-0.473536,-0.234136,-0.307582,3.49825,0.990512,-0.292108,-0.195418
1038990,1,-1.57045,-0.5235,0.000237244,-2.09693,-0.00124845,1.57123,0.785667,-1.5708,-0.5236,1.5191e-07,-2.0944,-6.02416e-07,1.5708,0.785398,1.56427e-05,-0.000580341,0.000175946,-0.0010171,0.000142165,-8.45096e-05,-0.000524979,0,0,0,0,0,0,0,-0.478199,-9.32834,-0.786069,22.0905,1.70137,1.37899,-0.181082,-0.473846,-0.235494,-0.308113,3.4992,0.990475,-0.292079,-0.195466
1038991,1,-1.57044,-0.5235,0.000235626,-2.09693,-0.00124906,1.57123,0.785669,-1.5708,-0.5236,1.5191e-07,-2.0944,-6.02416e-07,1.5708,0.785398,0.000660042,-0.000386894,-0.000439515,-0.000678068,-0.000108674,0.000181019,0.000362091,0,0,0,0,0,0,0,-0.50597,-9.32834,-0.762265,22.0905,1.70687,1.37258,-0.200308,-0.473807,-0.235636,-0.308079,3.49994,0.990459,-0.292044,-0.195483
1038992,1,-1.57045,-0.523498,0.000235644,-2.09693,-0.00124967,1.57123,0.785664,-1.5708,-0.5236,1.5191e-07,-2.0944,-6.02416e-07,1.5708,0.785398,-0.00132321,0.000391685,-0.00029301,0.00075438,-0.0002759,0.000120679,-0.00165748,0,0,0,0,0,0,0,-0.430592,-9.35611,-0.762265,22.0389,1.71236,1.37258,-0.149038,-0.473337,-0.23519,-0.307362,3.50047,0.990465,-0.292034,-0.195483
1038993,1,-1.57045,-0.523502,0.00023565,-2.09693,-0.00124906,1.57123,0.785668,-1.5708,-0.5236,1.5191e-07,-2.0944,-6.02416e-07,1.5708,0.785398,-0.000325328,-0.000945303,-0.00019534,-5.38917e-05,1.95173e-05,8.0453e-05,0.000319169,0,0,0,0,0,0,0,-0.454395,-9.30453,-0.762265,22.0627,1.70687,1.37258,-0.18749,-0.47207,-0.233993,-0.305532,3.50024,0.9905,-0.292123,-0.195456
1038994,1,-1.57045,-0.5235,0.000237322,-2.09693,-0.00124967,1.57123,0.785673,-1.5708,-0.5236,1.5191e-07,-2.0944,-6.02416e-07,1.5708,0.785398,-0.00142331,-7.33899e-05,0.000426585,0.000520884,-0.000190439,5.36353e-05,0.00163693,0,0,0,0,0,0,0,-0.402821,-9.32834,-0.786069,22.0389,1.71236,1.37258,-0.225942,-0.470448,-0.231552,-0.303326,3.49921,0.990544,-0.292305,-0.195378
1038995,1,-1.57044,-0.523504,0.000237323,-2.09693,-0.00125038,1.57123,0.785668,-1.5708,-0.5236,1.5191e-07,-2.0944,-6.02416e-07,1.5708,0.785398,0.00146398,-0.00116255,0.00028439,0.000347256,-0.000364318,-0.000201602,-0.000332865,0,0,0,0,0,0,0,-0.50597,-9.28073,-0.786069,22.0389,1.71877,1.37899,-0.18749,-0.469411,-0.227987,-0.302059,3.49758,0.990556,-0.292552,-0.195261
1038996,1,-1.57045,-0.523498,0.000235652,-2.09692,-0.00124906,1.57123,0.785664,-1.5708,-0.5236,1.5191e-07,-2.0944,-6.02416e-07,1.5708,0.785398,0.000326371,0.000988204,-0.000367218,0.00143793,0.000197931,-0.000134401,-0.00164606,0,0,0,0,0,0,0,-0.478199,-9.35611,-0.762265,21.9873,1.70687,1.37899,-0.149038,-0.46945,-0.224219,-0.302236,3.49561,0.990522,-0.292846,-0.195146
1038997,1,-1.57045,-0.523504,0.000235192,-2.09693,-0.00124525,1.57123,0.785668,-1.5708,-0.5236,1.5191e-07,-2.0944,-6.02416e-07,1.5708,0.785398,0.000217581,-0.00110444,0.000312,-0.000247806,0.000335404,-8.96009e-05,8.94189e-05,0,0,0,0,0,0,0,-0.478199,-9.28073,-0.786069,22.0389,1.70137,1.37899,-0.181082,-0.469997,-0.221312,-0.302995,3.49385,0.990485,-0.29313,-0.195025
1038998,1,-1.57045,-0.5235,0.000234942,-2.09693,-0.00124738,1.57123,0.785672,-1.5708,-0.523598,2.65191e-06,-2.0944,8.92369e-07,1.5708,0.785397,0.000145054,0.000377334,-0.000348812,-0.000165204,0.000223603,-0.000297093,0.00148377,-0.00325272,0.001875,0.0025,-0.003125,0.00149478,0.005,-0.0012878,-0.478199,-9.32834,-0.762265,22.0389,1.70137,1.3854,-0.219534,-0.470501,-0.219354,-0.303651,3.49284,0.990479,-0.293316,-0.194865
1038999,1,-1.57045,-0.523498,0.000237086,-2.09693,-0.0012487,1.57122,0.785672,-1.57081,-0.523594,7.65191e-06,-2.0944,3.88194e-06,1.57081,0.785394,-0.000460109,0.00090117,0.00032427,-0.000110136,-5.4382e-05,-0.000198062,0.000989177,-0.00650544,0.00375,0.005,-0.00625,0.00298957,0.01,-0.00257561,-0.454395,-9.35611,-0.786069,22.0389,1.70687,1.3854,-0.219534,-0.470752,-0.219552,-0.303948,3.49326,0.990515,-0.293344,-0.194677
1039000,1,-1.57045,-0.523502,0.000233625,-2.09693,-0.00124894,1.57123,0.785668,-1.57082,-0.523588,1.51519e-05,-2.09441,8.36629e-06,1.57083,0.785391,-0.00030674,-0.000605646,-0.000990246,-7.3424e-05,-3.62546e-05,0.000105318,-0.000764702,-0.00975816,0.005625,0.0075,-0.009375,0.00448435,0.015,-0.00386341,-0.454395,-9.30453,-0.734494,22.0389,1.70687,1.37899,-0.181082,-0.470399,-0.221614,-0.303399,3.49471,0.990593,-0.29326,-0.194513
1039001,1,-1.57044,-0.5235,0.000235808,-2.09693,-0.00125034,1.57123,0.785667,-1.57083,-0.523581,2.51519e-05,-2.09443,1.43454e-05,1.57085,0.785385,0.00100193,0.00553735,0.00561347,-0.00405735,-0.000464979,7.02118e-05,-0.00074716,-0.0130109,0.0075,0.01,-0.0125,0.00597914,0.02,-0.00515121,-0.50597,-9.15378,-0.734494,21.9397,1.71877,1.37899,-0.174673,-0.471229,-0.228479,-0.304755,3.49909,0.990676,-0.292898,-0.194382
1039002,1,-1.57045,-0.523501,0.000239586,-2.09692,-0.00124843,1.57123,0.785667,-1.57084,-0.523572,3.76519e-05,-2.09444,2.18193e-05,1.57087,0.785379,-0.00141221,0.00578627,0.00629079,-0.00148753,0.000334274,-0.000665269,0.000451329,-0.0162636,0.009375,0.0125,-0.015625,0.00747392,0.025,-0.00643902,-0.557545,-8.67374,-0.686887,21.4676,1.70137,1.39822,-0.200308,-0.476155,-0.247276,-0.312665,3.51014,0.990701,-0.291973,-0.194231
1039003,1,-1.57045,-0.523501,0.000243061,-2.09692,-0.00124651,1.57123,0.785671,-1.57086,-0.52356,5.26519e-05,-2.09446,3.07881e-05,1.5709,0.785371,-0.00435,0.00276173,0.00621746,7.0026e-05,0.000867109,-0.00115559,0.00223367,-0.0195163,0.01125,0.015,-0.01875,0.0089687,0.03,-0.00772682,-0.557545,-8.01517,-0.611508,20.9717,1.68398,1.41745,-0.252493,-0.483712,-0.272611,-0.325207,3.52406,0.990662,-0.290798,-0.194055
1039004,1,-1.57046,-0.523484,0.000250886,-2.09692,-0.00124271,1.57123,0.785669,-1.57089,-0.523547,7.01519e-05,-2.09448,4.12515e-05,1.57094,0.785362,-0.00649883,0.00480966,0.00682922,0.000705759,0.000781523,-0.00171983,0.000743125,-0.022769,0.013125,0.0175,-0.021875,0.0104635,0.035,-0.00901462,-0.557545,-7.51132,-0.559934,20.4718,1.67848,1.44308,-0.232351,-0.490209,-0.293655,-0.336822,3.53428,0.990607,-0.289824,-0.19392
1039005,1,-1.57047,-0.523461,0.000255984,-2.09692,-0.00124103,1.57123,0.785664,-1.57091,-0.523532,9.01519e-05,-2.09451,5.32098e-05,1.57098,0.785352,-0.00693194,0.00785036,0.00610808,0.00427396,0.000724466,-0.00138391,-0.000928737,-0.0260218,0.015,0.02,-0.025,0.0119583,0.04,-0.0103024,-0.605152,-7.05508,-0.456784,19.9521,1.67299,1.44949,-0.193899,-0.494093,-0.309639,-0.344757,3.5391,0.990569,-0.289095,-0.193894
1039006,1,-1.57048,-0.523438,0.000268618,-2.09693,-0.00123494,1.57123,0.785665,-1.57094,-0.523515,0.000112652,-2.09454,6.66629e-05,1.57102,0.78534,-0.00661227,0.0103302,0.00807006,0.00135001,0.00133069,0.00330336,0.000804996,-0.0292745,0.016875,0.0225,-0.028125,0.0134531,0.045,-0.0115902,-0.680531,-6.59885,-0.456784,19.5276,1.6501,1.46231,-0.232351,-0.496022,-0.324793,-0.349271,3.53949,0.990534,-0.288462,-0.193979
1039007,1,-1.57049,-0.523413,0.000278193,-2.09694,-0.00123314,1.57124,0.785671,-1.57098,-0.523497,0.000137652,-2.09457,8.16107e-05,1.57107,0.785327,-0.00892489,0.01453,0.00767518,-0.00201734,0.00109058,0.00259396,0.00294416,-0.0325272,0.01875,0.025,-0.03125,0.0149478,0.05,-0.012878,-0.656727,-6.24576,-0.381406,19.1547,1.64461,1.46231,-0.297354,-0.497168,-0.345121,-0.35158,3.53932,0.990539,-0.287443,-0.194141
1039008,1,-1.5705,-0.52339,0.000294442,-2.09695,-0.00123149,1.57124,0.785668,-1.57101,-0.523475,0.000167042,-2.0946,9.8939e-05,1.57113,0.785313,-0.00930687,0.0170974,0.00799773,-0.00572714,8.27905e-05,0.00273518,0.00101334,-0.0381573,0.0218234,0.0293902,-0.0375,0.0173283,0.0598248,-0.0149077,-0.680531,-5.86887,-0.329831,18.8333,1.662,1.44308,-0.271719,-0.49732,-0.376355,-0.351114,3.54322,0.990697,-0.285423,-0.194395
1039009,1,-1.57052,-0.523373,0.000317927,-2.09696,-0.00123212,1.57125,0.785666,-1.57106,-0.52345,0.000200822,-2.09465,0.000118648,1.5712,0.785296,-0.0102564,0.0151266,0.0132277,-0.00672875,-0.000555158,0.00598288,-3.65177e-05,-0.0437874,0.0248967,0.0337804,-0.04375,0.0197087,0.0696497,-0.0169374,-0.680531,-5.4642,-0.357602,18.5834,1.67848,1.46231,-0.252493,-0.497737,-0.415043,-0.3497,3.55035,0.990959,-0.28232,-0.194798
1039010,1,-1.57054,-0.523351,0.00034215,-2.09698,-0.00123304,1.57125,0.785665,-1.57111,-0.523422,0.000238993,-2.0947,0.000140737,1.57128,0.785277,-0.0145687,0.0154031,0.0163733,-0.00814321,0.00389784,0.00563121,-0.00500164,-0.0494175,0.0279701,0.0381706,-0.05,0.0220892,0.0794745,-0.0189671,-0.656727,-5.13492,-0.357602,18.3612,1.69039,1.55935,-0.246084,-0.500966,-0.450013,-0.351583,3.55508,0.991136,-0.278568,-0.195365
1039011,1,-1.57056,-0.523338,0.00036049,-2.09699,-0.00123094,1.57126,0.785668,-1.57116,-0.523391,0.000281554,-2.09475,0.000165207,1.57137,0.785256,-0.0136412,0.0165109,0.0187741,-0.00928976,0.00258406,0.00498549,-0.00183055,-0.0550476,0.0310435,0.0425608,-0.05625,0.0244696,0.0892993,-0.0209969,-0.807484,-4.5795,-0.230649,18.0121,1.70137,1.67471,-0.297354,-0.507768,-0.474676,-0.358319,3.55369,0.991142,-0.274419,-0.196068
1039012,1,-1.57058,-0.523321,0.000385771,-2.09701,-0.00122541,1.57126,0.785673,-1.57122,-0.523357,0.000328505,-2.09482,0.000192057,1.57147,0.785233,-0.0169064,0.0181521,0.0214041,-0.0150913,0.0024239,0.00911399,0.00160296,-0.0606777,0.0341169,0.046951,-0.0625,0.0268501,0.0991242,-0.0230266,-0.934437,-3.92093,-0.1275,17.6154,1.69039,1.79739,-0.381582,-0.517982,-0.490248,-0.369546,3.54708,0.991048,-0.269661,-0.19689
1039013,1,-1.57061,-0.523298,0.000426256,-2.09703,-0.00121763,1.57127,0.785667,-1.57129,-0.523319,0.000379846,-2.09489,0.000221287,1.57158,0.785208,-0.0213364,0.0189093,0.0296906,-0.0182773,0.00288782,0.00871824,0.000371741,-0.0663078,0.0371902,0.0513412,-0.06875,0.0292305,0.108949,-0.0250563,-0.986012,-3.21475,-0.155271,17.0441,1.662,1.89443,-0.368765,-0.531886,-0.499836,-0.385766,3.53791,0.990959,-0.263838,-0.197878
1039014,1,-1.57064,-0.523262,0.00046002,-2.09706,-0.00120593,1.57129,0.785667,-1.57136,-0.523279,0.000435577,-2.09496,0.000252898,1.5717,0.785181,-0.0248286,0.0233744,0.0289508,-0.0235633,0.00334537,0.0143026,0.000793266,-0.0719379,0.0402636,0.0557314,-0.075,0.031611,0.118774,-0.027086,-1.03362,-2.65536,-0.0283176,16.4212,1.62813,1.95852,-0.387991,-0.548968,-0.50678,-0.406341,3.52834,0.990971,-0.256498,-0.199131
1039015,1,-1.57069,-0.523221,0.000498782,-2.0971,-0.00119054,1.57132,0.785667,-1.57144,-0.523236,0.000495699,-2.09504,0.00028689,1.57183,0.785151,-0.0278416,0.0248257,0.0297803,-0.0296473,0.00810901,0.0152918,-0.00311373,-0.077568,0.043337,0.0601216,-0.08125,0.0339914,0.128599,-0.0291157,-1.06139,-2.15152,0.0470608,15.8738,1.59975,1.98416,-0.420034,-0.56612,-0.515408,-0.425999,3.52042,0.991233,-0.247215,-0.200732
1039016,1,-1.57073,-0.523178,0.000546065,-2.09714,-0.00117118,1.57136,0.785667,-1.57152,-0.523189,0.000560211,-2.09513,0.000323261,1.57196,0.78512,-0.0326103,0.0295001,0.0340269,-0.0323567,0.00778995,0.0207401,-0.00490791,-0.0831981,0.0464104,0.0645117,-0.0875,0.0363719,0.138423,-0.0311454,-1.109,-1.67148,0.0986355,15.3778,1.54848,2.00338,-0.485037,-0.58106,-0.527736,-0.440724,3.51448,0.991783,-0.235783,-0.202726
1039017,1,-1.57079,-0.523133,0.000599434,-2.09719,-0.00115004,1.57141,0.785658,-1.57161,-0.52314,0.000629113,-2.09522,0.000362014,1.57211,0.785087,-0.038355,0.0338812,0.0406027,-0.0365924,0.0104621,0.0317373,-0.00966039,-0.0888282,0.0494837,0.0689019,-0.09375,0.0387523,0.148248,-0.0331751,-1.18834,-1.24301,0.126407,14.9811,1.54299,1.95852,-0.459402,-0.594739,-0.544367,-0.452136,3.50885,0.99247,-0.222415,-0.205152
1039018,1,-1.57085,-0.523092,0.000658353,-2.09725,-0.00112975,1.57149,0.785641,-1.57171,-0.523087,0.000703759,-2.09533,0.000403686,1.57227,0.785051,-0.0486754,0.0372539,0.046464,-0.0427164,0.0115044,0.0476516,-0.0151544,-0.0961242,0.0528777,0.0746464,-0.103125,0.0416723,0.161023,-0.0356223,-1.16057,-0.838348,0.126407,14.7074,1.56587,1.82943,-0.381582,-0.60795,-0.565759,-0.46226,3.50213,0.993182,-0.207517,-0.208054
1039019,1,-1.57091,-0.523056,0.000719393,-2.09731,-0.00111054,1.57157,0.785628,-1.57181,-0.523031,0.00078415,-2.09544,0.000448278,1.57245,0.785013,-0.0538332,0.0357141,0.0496145,-0.0467123,0.0117713,0.0575249,-0.0174164,-0.10342,0.0562716,0.0803908,-0.1125,0.0445923,0.173798,-0.0380696,-1.23595,-0.382111,0.174014,14.4336,1.60524,1.73971,-0.34313,-0.619602,-0.586488,-0.470121,3.49136,0.993912,-0.191675,-0.211407
1039020,1,-1.57098,-0.523021,0.000788753,-2.09738,-0.0010797,1.57166,0.785613,-1.57192,-0.522971,0.000870285,-2.09556,0.000495791,1.57263,0.784973,-0.058177,0.0351021,0.0549228,-0.0564553,0.01832,0.0660785,-0.0123778,-0.110716,0.0596655,0.0861352,-0.121875,0.0475122,0.186573,-0.0405168,-1.28753,0.0463562,0.0986355,14.3344,1.59975,1.73971,-0.355947,-0.629722,-0.59665,-0.475467,3.47291,0.994614,-0.175465,-0.215079
1039021,1,-1.57105,-0.522985,0.000857624,-2.09746,-0.00104664,1.57175,0.785599,-1.57204,-0.522908,0.000962164,-2.09569,0.000546223,1.57283,0.78493,-0.0650332,0.037742,0.0587525,-0.0637772,0.023388,0.0786692,-0.00799621,-0.118012,0.0630594,0.0918796,-0.13125,0.0504322,0.199349,-0.0429641,-1.46209,0.47879,0.15021,14.1083,1.59426,1.81661,-0.387991,-0.639619,-0.593185,-0.479691,3.44747,0.995254,-0.159077,-0.218915
1039022,1,-1.57113,-0.522949,0.00092809,-2.09753,-0.00100771,1.57185,0.785576,-1.57216,-0.522842,0.00105979,-2.09583,0.000599575,1.57304,0.784884,-0.0659928,0.0367363,0.0638836,-0.0687522,0.0277755,0.0819572,-0.0108462,-0.125308,0.0664533,0.097624,-0.140625,0.0533522,0.212124,-0.0454113,-1.66442,1.03421,0.249392,13.7354,1.57137,1.95211,-0.381582,-0.650694,-0.577066,-0.484331,3.41645,0.995798,-0.142608,-0.222812
1039023,1,-1.57122,-0.522905,0.00101206,-2.09763,-0.000964324,1.57198,0.785544,-1.5723,-0.522772,0.00116316,-2.09598,0.000655847,1.57327,0.784837,-0.0749023,0.0368444,0.0689612,-0.0796892,0.032115,0.0971643,-0.0206936,-0.132604,0.0698472,0.103368,-0.15,0.0562721,0.224899,-0.0478586,-1.66442,1.56583,0.300967,13.3902,1.5201,2.0162,-0.297354,-0.664487,-0.546479,-0.49102,3.37952,0.996188,-0.126086,-0.226718
1039024,1,-1.57132,-0.522851,0.00109989,-2.09773,-0.000916648,1.57213,0.785519,-1.57244,-0.522699,0.00127227,-2.09614,0.000715039,1.57351,0.784786,-0.0819791,0.0426103,0.0752004,-0.0888727,0.0389513,0.112507,-0.0241957,-0.1399,0.0732411,0.109113,-0.159375,0.0591921,0.237674,-0.0503058,-1.66442,1.99429,0.376346,12.9419,1.49172,1.97775,-0.31658,-0.680652,-0.506058,-0.499189,3.33985,0.996523,-0.109167,-0.230566
1039025,1,-1.57142,-0.522796,0.00118806,-2.09783,-0.00086289,1.5723,0.785489,-1.57258,-0.522622,0.00138713,-2.09631,0.000777151,1.57376,0.784734,-0.0902041,0.0470969,0.078925,-0.0912524,0.049133,0.12575,-0.0257062,-0.147196,0.0766351,0.114857,-0.16875,0.0621121,0.250449,-0.0527531,-1.79137,2.39896,0.503299,12.4421,1.45784,1.88162,-0.362356,-0.697568,-0.465008,-0.506619,3.30048,0.99685,-0.0916553,-0.234263
1039026,1,-1.57154,-0.522741,0.00128349,-2.09796,-0.000802933,1.57248,0.785454,-1.57274,-0.522542,0.00150773,-2.09649,0.000842183,1.57402,0.784678,-0.101429,0.0473215,0.0855134,-0.103752,0.0534417,0.144651,-0.0345744,-0.154492,0.080029,0.120602,-0.178125,0.065032,0.263224,-0.0552003,-1.71599,2.80362,0.606448,12.1445,1.3846,1.79739,-0.349539,-0.713269,-0.425149,-0.510592,3.26018,0.997124,-0.0737952,-0.237775
1039027,1,-1.57166,-0.522681,0.00138746,-2.0981,-0.000743505,1.57268,0.785411,-1.5729,-0.522458,0.00163407,-2.09668,0.000910135,1.5743,0.784621,-0.108257,0.0487309,0.0936962,-0.109439,0.0538576,0.163751,-0.0400847,-0.161788,0.0834229,0.126346,-0.1875,0.067952,0.275999,-0.0576476,-1.69219,3.15671,0.70563,11.9223,1.37911,1.68203,-0.349539,-0.727444,-0.382244,-0.511057,3.21688,0.997291,-0.0559598,-0.241126
1039028,1,-1.5718,-0.522621,0.00149584,-2.09824,-0.000685507,1.57291,0.785364,-1.57307,-0.522372,0.00176709,-2.09688,0.000981377,1.57459,0.78456,-0.117597,0.0496115,0.100573,-0.119155,0.0532221,0.181792,-0.0399892,-0.170166,0.0865008,0.133011,-0.19999,0.0712417,0.290605,-0.0603285,-1.61681,3.5098,0.781009,11.6724,1.40749,1.5914,-0.34313,-0.741905,-0.33183,-0.510925,3.16852,0.997201,-0.0386425,-0.244323
1039029,1,-1.57194,-0.522562,0.00161423,-2.0984,-0.00062156,1.57314,0.785317,-1.57325,-0.522282,0.00190676,-2.09709,0.00105591,1.57489,0.784497,-0.127904,0.0511895,0.104601,-0.134192,0.0524639,0.195608,-0.0439001,-0.178545,0.0895787,0.139677,-0.21248,0.0745315,0.305211,-0.0630094,-1.51366,3.81528,0.757205,11.6248,1.44686,1.50167,-0.349539,-0.755982,-0.274394,-0.509406,3.11673,0.996906,-0.0219576,-0.247374
1039030,1,-1.57208,-0.522505,0.00173197,-2.09855,-0.000556589,1.57339,0.785265,-1.57344,-0.52219,0.00205311,-2.09731,0.00113373,1.57521,0.784432,-0.130614,0.0521829,0.106993,-0.137672,0.0574433,0.209331,-0.0475073,-0.186923,0.0926566,0.146342,-0.22497,0.0778212,0.319817,-0.0656903,-1.61681,4.11679,0.757205,11.4264,1.46974,1.55935,-0.336721,-0.767571,-0.211684,-0.503122,3.06379,0.996568,-0.00588185,-0.250294
1039031,1,-1.57222,-0.522448,0.00185179,-2.09872,-0.000483562,1.57364,0.785199,-1.57363,-0.522094,0.00220611,-2.09755,0.00121484,1.57555,0.784363,-0.132192,0.0549745,0.112028,-0.14689,0.0618668,0.222925,-0.0527813,-0.195302,0.0957345,0.153008,-0.23746,0.0811109,0.334424,-0.0683712,-1.76757,4.44608,0.884158,11.2241,1.47524,1.68203,-0.246084,-0.778298,-0.14171,-0.493339,3.00739,0.99607,0.00916909,-0.253088
1039032,1,-1.57238,-0.522381,0.00198166,-2.0989,-0.000407925,1.57392,0.785134,-1.57383,-0.521995,0.00236579,-2.0978,0.00129924,1.5759,0.784292,-0.14053,0.0582189,0.116027,-0.156238,0.0661779,0.238629,-0.0589634,-0.20368,0.0988124,0.159673,-0.24995,0.0844007,0.34903,-0.0710521,-1.76757,4.74759,1.01111,11.0019,1.44686,1.78457,-0.232351,-0.790684,-0.0660008,-0.483035,2.94738,0.995337,0.0231379,-0.255704
1039033,1,-1.57256,-0.522317,0.00212787,-2.09909,-0.000333284,1.57421,0.785072,-1.57405,-0.521893,0.00253212,-2.09806,0.00138693,1.57626,0.784219,-0.150878,0.0587194,0.125929,-0.166149,0.069281,0.257288,-0.0573886,-0.212059,0.10189,0.166339,-0.26244,0.0876904,0.363636,-0.073733,-1.71599,5.12845,0.98334,10.629,1.42397,1.83584,-0.258901,-0.804579,0.0126498,-0.47263,2.88564,0.994489,0.0363776,-0.258043
1039034,1,-1.57274,-0.522251,0.00227692,-2.09929,-0.000253745,1.57452,0.785002,-1.57427,-0.521788,0.00270513,-2.09834,0.00147791,1.57664,0.784142,-0.1622,0.059252,0.130305,-0.176606,0.0721132,0.275132,-0.0608155,-0.220438,0.104968,0.173004,-0.27493,0.0909802,0.378242,-0.0764139,-1.64061,5.50534,1.06269,10.2323,1.3846,1.79739,-0.290945,-0.818532,0.0962374,-0.461318,2.82174,0.993639,0.0491473,-0.260041
1039035,1,-1.57293,-0.522176,0.00242608,-2.09952,-0.00017253,1.57486,0.784925,-1.5745,-0.52168,0.0028848,-2.09863,0.00157218,1.57703,0.784063,-0.172181,0.0617622,0.138086,-0.193801,0.0733054,0.294446,-0.064845,-0.228816,0.108046,0.179669,-0.28742,0.0942699,0.392848,-0.0790948,-1.61681,5.78702,1.18964,9.95853,1.36812,1.69485,-0.278127,-0.830522,0.183818,-0.447159,2.75765,0.992931,0.0619342,-0.261715
1039036,1,-1.57314,-0.522091,0.00258362,-2.09975,-8.79768e-05,1.57522,0.784846,-1.57473,-0.521569,0.00307113,-2.09893,0.00166974,1.57744,0.783981,-0.181835,0.0699156,0.147484,-0.206576,0.0796809,0.314964,-0.0730643,-0.237195,0.111124,0.186335,-0.29991,0.0975597,0.407455,-0.0817757,-1.51366,5.93777,1.21344,9.68479,1.33425,1.57217,-0.278127,-0.840709,0.264849,-0.43104,2.70012,0.99246,0.0754528,-0.263104
1039037,1,-1.57334,-0.52201,0.00274283,-2.1,-4.09071e-06,1.57559,0.784764,-1.57498,-0.521455,0.00326413,-2.09924,0.00177059,1.57786,0.783897,-0.192946,0.0713207,0.148673,-0.218836,0.0769832,0.335615,-0.0739346,-0.245573,0.114202,0.193,-0.3124,0.100849,0.422061,-0.0844567,-1.51366,6.14011,1.3404,9.38724,1.36812,1.42385,-0.271719,-0.848826,0.330365,-0.412809,2.65304,0.99225,0.0898636,-0.264245
1039038,1,-1.57357,-0.521921,0.0029103,-2.10027,8.46253e-05,1.57598,0.784681,-1.57523,-0.521338,0.0034644,-2.09956,0.001875,1.5783,0.78381,-0.203614,0.0769902,0.154806,-0.234578,0.0804157,0.348091,-0.0779351,-0.25455,0.117015,0.200268,-0.32489,0.104406,0.437376,-0.0872818,-1.54143,6.26706,1.39197,9.26029,1.37911,1.33413,-0.310171,-0.851448,0.379832,-0.387317,2.61583,0.992405,0.104879,-0.26519
1039039,1,-1.5738,-0.521838,0.00309601,-2.10053,0.000180495,1.57638,0.78459,-1.5755,-0.521218,0.00367194,-2.0999,0.00198296,1.57875,0.783719,-0.214498,0.0793813,0.162877,-0.243286,0.0834004,0.376536,-0.0870398,-0.263527,0.119828,0.207536,-0.33738,0.107963,0.452692,-0.0901069,-1.46209,6.46939,1.28882,8.99051,1.39009,1.32131,-0.278127,-0.847916,0.415682,-0.353614,2.58645,0.992918,0.120008,-0.265987
1039040,1,-1.57404,-0.521756,0.00327527,-2.10081,0.000276817,1.57679,0.784495,-1.57577,-0.521095,0.00388674,-2.10025,0.00209448,1.57922,0.783626,-0.22208,0.0805484,0.165755,-0.25442,0.0849256,0.387245,-0.0944899,-0.272504,0.122641,0.214804,-0.34987,0.111519,0.468007,-0.092932,-1.48986,6.69553,1.31262,8.78818,1.41847,1.37899,-0.252493,-0.840156,0.445923,-0.314383,2.55881,0.993616,0.134366,-0.266682
1039041,1,-1.57428,-0.521667,0.00345933,-2.10111,0.000380893,1.57722,0.7844,-1.57605,-0.52097,0.00410881,-2.10061,0.00220955,1.5797,0.783531,-0.227153,0.0827985,0.174057,-0.268995,0.0969991,0.400277,-0.0989691,-0.281481,0.125454,0.222072,-0.36236,0.115076,0.483323,-0.0957571,-1.66442,6.87009,1.3404,8.71677,1.41298,1.46231,-0.278127,-0.830826,0.478424,-0.272861,2.52865,0.994299,0.14762,-0.267284
1039042,1,-1.57454,-0.521586,0.00366298,-2.10142,0.000494624,1.57767,0.784295,-1.57634,-0.520842,0.00433815,-2.10099,0.00232819,1.5802,0.783432,-0.237109,0.0832115,0.185545,-0.283314,0.101743,0.420653,-0.102958,-0.290457,0.128268,0.22934,-0.37485,0.118632,0.498639,-0.0985823,-1.64061,7.10019,1.26502,8.6652,1.39009,1.53372,-0.26531,-0.824973,0.515501,-0.236175,2.4964,0.994746,0.160102,-0.267765
1039043,1,-1.57482,-0.521486,0.00387184,-2.10174,0.000613412,1.57814,0.784192,-1.57664,-0.520711,0.00457476,-2.10138,0.00245038,1.58071,0.783331,-0.247238,0.0892282,0.192608,-0.296288,0.109914,0.435423,-0.104802,-0.299434,0.131081,0.236608,-0.38734,0.122189,0.513954,-0.101407,-1.56524,7.07242,1.26502,8.61759,1.37361,1.5914,-0.278127,-0.825555,0.555893,-0.209124,2.46347,0.994876,0.172147,-0.268121
1039044,1,-1.5751,-0.521389,0.00408467,-2.10207,0.000730462,1.57862,0.784079,-1.57695,-0.520577,0.00481864,-2.10177,0.00257612,1.58124,0.783227,-0.261999,0.0922236,0.197392,-0.313098,0.109962,0.455451,-0.108403,-0.308411,0.133894,0.243876,-0.39983,0.125745,0.52927,-0.104233,-1.51366,7.10019,1.28882,8.6652,1.39009,1.56576,-0.23876,-0.829087,0.593647,-0.187224,2.43292,0.994923,0.184221,-0.268382
1039045,1,-1.5754,-0.52128,0.00430485,-2.10243,0.000858817,1.57913,0.783964,-1.57727,-0.52044,0.00506978,-2.10219,0.00270542,1.58179,0.783119,-0.269457,0.096732,0.202007,-0.325075,0.115994,0.473301,-0.111571,-0.317388,0.136707,0.251144,-0.41232,0.129302,0.544585,-0.107058,-1.3391,7.02481,1.26502,8.74057,1.36812,1.54653,-0.18749,-0.830196,0.624341,-0.162877,2.40706,0.995192,0.196675,-0.268573
1039046,1,-1.5757,-0.521173,0.00452199,-2.1028,0.000990982,1.57967,0.783861,-1.57759,-0.520301,0.00532819,-2.10261,0.00283828,1.58235,0.78301,-0.280579,0.101819,0.205769,-0.333952,0.120103,0.492302,-0.108583,-0.326365,0.13952,0.258412,-0.42481,0.132859,0.559901,-0.109883,-1.3391,6.99704,1.3642,8.83976,1.36171,1.50808,-0.278127,-0.826448,0.648499,-0.132268,2.384,0.995723,0.20931,-0.26867
1039047,1,-1.57601,-0.521057,0.00475499,-2.10318,0.00113128,1.58021,0.783745,-1.57793,-0.520158,0.00559387,-2.10305,0.0029747,1.58292,0.782897,-0.290248,0.107891,0.21268,-0.35018,0.123141,0.504195,-0.110315,-0.335342,0.142333,0.26568,-0.4373,0.136415,0.575216,-0.112708,-1.3391,6.87009,1.41577,8.93894,1.35622,1.43026,-0.26531,-0.817339,0.665118,-0.0946568,2.36286,0.996449,0.221959,-0.268641
1039048,1,-1.57633,-0.520944,0.00498893,-2.10356,0.00126992,1.58078,0.783625,-1.57827,-0.520013,0.00586717,-2.1035,0.0031148,1.58351,0.782781,-0.297997,0.110559,0.224786,-0.359494,0.129749,0.519582,-0.11658,-0.34458,0.144991,0.273302,-0.44979,0.140106,0.590468,-0.115587,-1.23595,6.79471,1.39197,8.96274,1.36171,1.3854,-0.252493,-0.806157,0.673131,-0.0552268,2.3449,0.997193,0.234696,-0.268496
1039049,1,-1.57666,-0.520831,0.0052368,-2.10397,0.00141149,1.58137,0.783503,-1.57863,-0.519866,0.0061481,-2.10396,0.0032586,1.58412,0.782663,-0.310606,0.113535,0.231645,-0.371382,0.134753,0.538089,-0.120819,-0.353819,0.14765,0.280925,-0.46228,0.143796,0.605719,-0.118467,-1.13677,6.79471,1.39197,9.03812,1.36812,1.32772,-0.225942,-0.79734,0.677986,-0.0208901,2.3276,0.997675,0.247144,-0.268261
1039050,1,-1.577,-0.520716,0.00549356,-2.10438,0.00155418,1.58197,0.783383,-1.57899,-0.519715,0.00643665,-2.10444,0.00340608,1.58474,0.782541,-0.316933,0.112021,0.240569,-0.383304,0.138171,0.560133,-0.123284,-0.363057,0.150308,0.288548,-0.47477,0.147487,0.62097,-0.121346,-1.16057,6.84628,1.49115,8.96274,1.37361,1.28195,-0.246084,-0.79181,0.68903,0.00671108,2.30625,0.997779,0.258633,-0.267951
1039051,1,-1.57735,-0.520601,0.00575784,-2.10482,0.00171246,1.58257,0.783266,-1.57936,-0.519562,0.00673282,-2.10492,0.00355726,1.58538,0.782417,-0.327003,0.113799,0.250338,-0.397739,0.144096,0.569687,-0.118247,-0.372295,0.152967,0.296171,-0.48726,0.151177,0.636222,-0.124225,-1.109,6.92166,1.46735,9.01432,1.29946,1.39822,-0.31658,-0.790563,0.713297,0.026156,2.27873,0.997451,0.268854,-0.267563
1039052,1,-1.57772,-0.520484,0.00603119,-2.10524,0.001866,1.58318,0.783135,-1.57974,-0.519407,0.00703661,-2.10542,0.00371213,1.58603,0.78229,-0.337686,0.116317,0.255995,-0.408138,0.149593,0.579588,-0.123251,-0.381534,0.155625,0.303794,-0.49975,0.154867,0.651473,-0.127105,-1.06139,6.94943,1.49115,8.88736,1.31685,1.50167,-0.284536,-0.793261,0.750844,0.0379953,2.24635,0.996691,0.278031,-0.267136
1039053,1,-1.57809,-0.52035,0.00631525,-2.10569,0.00202078,1.58381,0.783004,-1.58013,-0.519248,0.00734803,-2.10594,0.00387069,1.58669,0.78216,-0.348701,0.121526,0.266431,-0.419591,0.152519,0.591206,-0.126046,-0.390772,0.158283,0.311417,-0.51224,0.158558,0.666724,-0.129984,-0.986012,6.82248,1.54273,8.76438,1.36812,1.55935,-0.26531,-0.797341,0.79634,0.0458707,2.21146,0.995578,0.286583,-0.266747
1039054,1,-1.57848,-0.520216,0.00659863,-2.10615,0.00218308,1.58447,0.782874,-1.58053,-0.519087,0.00766707,-2.10646,0.00403294,1.58738,0.782027,-0.370079,0.125553,0.271925,-0.430179,0.155951,0.611131,-0.125342,-0.40001,0.160942,0.319039,-0.52473,0.162248,0.681976,-0.132863,-0.807484,6.69553,1.54273,8.71677,1.39559,1.50808,-0.225942,-0.798505,0.843566,0.0552733,2.17569,0.994344,0.2948,-0.26644
1039055,1,-1.57888,-0.520082,0.00689808,-2.10662,0.00235644,1.58515,0.782747,-1.58094,-0.518924,0.00799373,-2.107,0.00419887,1.58807,0.781892,-0.379472,0.127774,0.278496,-0.443461,0.159115,0.628484,-0.126434,-0.409249,0.1636,0.326662,-0.53722,0.165939,0.697227,-0.135743,-0.732105,6.59238,1.56653,8.61759,1.39559,1.3854,-0.23876,-0.791164,0.889444,0.073528,2.13949,0.993359,0.302791,-0.266217
1039056,1,-1.57929,-0.519946,0.00720409,-2.10709,0.00252725,1.58584,0.782615,-1.58136,-0.518758,0.00832801,-2.10755,0.0043685,1.58879,0.781753,-0.38832,0.132941,0.285687,-0.45374,0.167058,0.642105,-0.132075,-0.418487,0.166259,0.334285,-0.54971,0.169629,0.712478,-0.138622,-0.708302,6.59238,1.64191,8.46683,1.35622,1.32772,-0.246084,-0.775414,0.933119,0.100972,2.10297,0.992714,0.310575,-0.266024
1039057,1,-1.57971,-0.519806,0.0075262,-2.10758,0.00270277,1.58653,0.782487,-1.58179,-0.518589,0.00866992,-2.10811,0.00454182,1.58951,0.781611,-0.402764,0.138356,0.297818,-0.461961,0.169314,0.675229,-0.135237,-0.427726,0.168917,0.341908,-0.5622,0.17332,0.72773,-0.141502,-0.50597,6.54477,1.56653,8.26847,1.31136,1.34054,-0.290945,-0.755556,0.972922,0.131837,2.06535,0.992234,0.317809,-0.265802
1039058,1,-1.58015,-0.519661,0.00785718,-2.10808,0.00287785,1.58726,0.782353,-1.58223,-0.518417,0.00901962,-2.10868,0.00471886,1.59026,0.781467,-0.409044,0.139202,0.312243,-0.473694,0.168976,0.689511,-0.134005,-0.436969,0.171216,0.349693,-0.57469,0.177041,0.742677,-0.144373,-0.355213,6.49319,1.54273,8.16928,1.31136,1.3085,-0.31658,-0.737027,1.01055,0.157816,2.02406,0.99164,0.323891,-0.265537
1039059,1,-1.58057,-0.519511,0.0081711,-2.10859,0.00304815,1.58801,0.782224,-1.58267,-0.518244,0.00937709,-2.10927,0.00489963,1.59101,0.78132,-0.418692,0.142042,0.309746,-0.485475,0.166993,0.708536,-0.13038,-0.446212,0.173515,0.357478,-0.58718,0.180762,0.757625,-0.147244,-0.379017,6.49319,1.66968,7.91935,1.36812,1.22427,-0.407217,-0.72204,1.05017,0.175979,1.97778,0.990781,0.328712,-0.265278
1039060,1,-1.58102,-0.519362,0.00851391,-2.10911,0.00324055,1.58876,0.782075,-1.58313,-0.518068,0.00974236,-2.10987,0.00508411,1.59179,0.78117,-0.423535,0.144795,0.319173,-0.497855,0.169373,0.721849,-0.139996,-0.455455,0.175814,0.365264,-0.59967,0.184484,0.772572,-0.150115,-0.379017,6.46939,1.56653,7.82016,1.31685,1.173,-0.31658,-0.707321,1.09246,0.192327,1.92762,0.989797,0.332554,-0.265153
1039061,1,-1.58145,-0.519216,0.00885605,-2.10966,0.00343381,1.58954,0.781926,-1.58359,-0.51789,0.0101154,-2.11048,0.00527232,1.59257,0.781017,-0.426407,0.144735,0.326923,-0.506592,0.178898,0.735829,-0.142104,-0.464698,0.178113,0.373049,-0.61216,0.188205,0.787519,-0.152987,-0.529774,6.517,1.5943,7.77256,1.31685,1.19223,-0.284536,-0.694597,1.13909,0.205482,1.87328,0.988581,0.335498,-0.265251
1039062,1,-1.5819,-0.519064,0.00921131,-2.11021,0.00363048,1.59032,0.78178,-1.58407,-0.51771,0.0104962,-2.11111,0.00546424,1.59338,0.780861,-0.431885,0.146776,0.336936,-0.52954,0.181663,0.74637,-0.143818,-0.473941,0.180412,0.380834,-0.62465,0.191926,0.802467,-0.155858,-0.605152,6.49319,1.56653,7.72098,1.30586,1.28836,-0.297354,-0.689387,1.19099,0.208109,1.81638,0.986865,0.337872,-0.265531
1039063,1,-1.58238,-0.518903,0.00958467,-2.11078,0.00382544,1.59111,0.781639,-1.58455,-0.517527,0.0108849,-2.11174,0.00565989,1.59419,0.780702,-0.443913,0.151313,0.344155,-0.541788,0.187059,0.753907,-0.143246,-0.483184,0.182711,0.388619,-0.63714,0.195648,0.817414,-0.158729,-0.557545,6.34244,1.41577,7.84397,1.31685,1.35336,-0.362356,-0.691957,1.24059,0.199705,1.76431,0.98476,0.340631,-0.265901
1039064,1,-1.58285,-0.518745,0.00995359,-2.11137,0.00401551,1.59195,0.781492,-1.58504,-0.517342,0.0112813,-2.11239,0.00585926,1.59503,0.780541,-0.449468,0.152093,0.354758,-0.554695,0.191066,0.769336,-0.150894,-0.492427,0.18501,0.396404,-0.64963,0.199369,0.832362,-0.1616,-0.557545,6.29086,1.31262,8.01853,1.34523,1.28836,-0.368765,-0.699773,1.28321,0.183426,1.71981,0.982434,0.344234,-0.266333
1039065,1,-1.58333,-0.518581,0.0103379,-2.11196,0.00421795,1.59279,0.781334,-1.58554,-0.517155,0.0116855,-2.11306,0.00606235,1.59587,0.780376,-0.460037,0.155082,0.362881,-0.57217,0.195316,0.792917,-0.153414,-0.50167,0.187309,0.40419,-0.66212,0.20309,0.847309,-0.164471,-0.680531,6.14011,1.28882,8.24466,1.33974,1.18582,-0.31658,-0.711814,1.3207,0.160359,1.68082,0.979947,0.348471,-0.266875
1039066,1,-1.58381,-0.518412,0.010728,-2.11258,0.00442773,1.59364,0.781174,-1.58605,-0.516965,0.0120974,-2.11373,0.00626916,1.59674,0.780209,-0.465597,0.160002,0.378315,-0.584268,0.199934,0.803825,-0.159278,-0.510913,0.189608,0.411975,-0.67461,0.206812,0.862257,-0.167343,-0.882862,5.98538,1.18964,8.49063,1.29396,1.19223,-0.278127,-0.729121,1.35124,0.128547,1.64807,0.977352,0.353195,-0.26754
1039067,1,-1.5843,-0.518239,0.0111378,-2.1132,0.00464414,1.59451,0.781022,-1.58657,-0.516773,0.0125172,-2.11442,0.00647969,1.59761,0.780038,-0.468997,0.166668,0.3895,-0.592328,0.203088,0.82279,-0.162556,-0.520156,0.191907,0.41976,-0.6871,0.210533,0.877204,-0.170214,-1.03362,5.81082,1.08649,8.54221,1.25459,1.25631,-0.362356,-0.75584,1.37148,0.0821474,1.62139,0.974463,0.358067,-0.268238
1039068,1,-1.5848,-0.518069,0.0115553,-2.11383,0.00486122,1.59539,0.780862,-1.5871,-0.516579,0.0129447,-2.11512,0.0066939,1.59851,0.779865,-0.478704,0.166967,0.398815,-0.607091,0.203387,0.836192,-0.165061,-0.529206,0.193697,0.427557,-0.69959,0.214209,0.891703,-0.173035,-1.16057,5.73544,0.935733,8.56601,1.26009,1.19863,-0.381582,-0.793593,1.38284,0.0195945,1.59819,0.971109,0.362623,-0.268899
1039069,1,-1.58531,-0.517895,0.0119775,-2.11449,0.00507623,1.59627,0.780691,-1.58764,-0.516384,0.0133801,-2.11583,0.00691179,1.59941,0.77969,-0.488901,0.168376,0.410269,-0.618046,0.213024,0.8478,-0.166617,-0.538255,0.195487,0.435355,-0.71208,0.217885,0.906201,-0.175856,-1.31133,5.73544,0.860354,8.61759,1.24361,1.3085,-0.394399,-0.838567,1.39181,-0.0533339,1.57584,0.967354,0.366706,-0.269585
1039070,1,-1.58582,-0.517717,0.0124208,-2.11517,0.00529684,1.59715,0.780511,-1.58819,-0.516187,0.0138233,-2.11655,0.00713335,1.60033,0.779511,-0.497567,0.168625,0.417601,-0.639271,0.216928,0.857391,-0.167672,-0.547305,0.197276,0.443152,-0.72457,0.221561,0.9207,-0.178677,-1.41448,5.66006,0.681826,8.76438,1.22072,1.46231,-0.322988,-0.886607,1.4027,-0.130596,1.55472,0.963331,0.370641,-0.270403
1039071,1,-1.58634,-0.517534,0.0128685,-2.11586,0.00552547,1.59807,0.780327,-1.58875,-0.515988,0.0142742,-2.11729,0.00735858,1.60127,0.779329,-0.50556,0.169124,0.427061,-0.648147,0.219961,0.874082,-0.17045,-0.556355,0.199066,0.450949,-0.73706,0.225237,0.935198,-0.181498,-1.54143,5.55692,0.630252,8.74057,1.19783,1.5209,-0.252493,-0.934958,1.41702,-0.207723,1.53622,0.959178,0.374877,-0.27139
1039072,1,-1.58686,-0.517356,0.0133041,-2.11657,0.00575864,1.59901,0.780143,-1.58931,-0.515787,0.0147329,-2.11804,0.0075875,1.60222,0.779145,-0.520792,0.172094,0.429378,-0.659424,0.221866,0.892535,-0.172773,-0.565404,0.200856,0.458747,-0.74955,0.228912,0.949697,-0.184319,-1.71599,5.48154,0.630252,8.78818,1.18685,1.50167,-0.213125,-0.979092,1.43782,-0.277772,1.51718,0.955032,0.37927,-0.272486
1039073,1,-1.58741,-0.517173,0.0137716,-2.11728,0.00600214,1.59997,0.779955,-1.58989,-0.515584,0.0151995,-2.1188,0.00782009,1.60318,0.778958,-0.526023,0.17688,0.439485,-0.672488,0.226964,0.914512,-0.18509,-0.574454,0.202646,0.466544,-0.76204,0.232588,0.964195,-0.18714,-1.7398,5.30301,0.53107,8.74057,1.18685,1.3854,-0.155447,-1.01478,1.46297,-0.334284,1.49574,0.951039,0.38362,-0.273552
1039074,1,-1.58797,-0.516986,0.0142375,-2.11801,0.00624306,1.60093,0.779762,-1.59047,-0.51538,0.0156738,-2.11958,0.00805635,1.60416,0.778768,-0.537392,0.178483,0.447173,-0.68777,0.227948,0.923306,-0.187776,-0.583504,0.204436,0.474342,-0.77453,0.236264,0.978694,-0.189961,-1.69219,5.18002,0.451724,8.74057,1.15846,1.39822,-0.10967,-1.04366,1.48606,-0.379196,1.47497,0.947201,0.388194,-0.274389
1039075,1,-1.58852,-0.5168,0.0147028,-2.11873,0.00648784,1.60189,0.779576,-1.59106,-0.515173,0.016156,-2.12036,0.00829629,1.60515,0.778575,-0.546007,0.180311,0.448995,-0.701552,0.232847,0.955468,-0.190592,-0.592553,0.206225,0.482139,-0.78702,0.23994,0.993192,-0.192781,-1.66442,5.05307,0.53107,8.61759,1.13558,1.41745,-0.155447,-1.06645,1.50519,-0.413283,1.45669,0.94354,0.393086,-0.274831
1039076,1,-1.5891,-0.516609,0.015183,-2.11948,0.00673345,1.60289,0.779377,-1.59166,-0.514965,0.0166459,-2.12116,0.00853991,1.60616,0.77838,-0.548719,0.184593,0.459798,-0.711101,0.234736,0.961195,-0.1942,-0.601603,0.208015,0.489936,-0.79951,0.243616,1.00769,-0.195602,-1.54143,4.92612,0.630252,8.58982,1.14748,1.36618,-0.168264,-1.08367,1.52133,-0.436871,1.43962,0.939984,0.398018,-0.274783
1039077,1,-1.58969,-0.51642,0.0156531,-2.12025,0.00698767,1.60392,0.77917,-1.59227,-0.514756,0.0171436,-2.12198,0.0087872,1.60718,0.778181,-0.55576,0.184915,0.462525,-0.720133,0.242928,0.973336,-0.200562,-0.610653,0.209805,0.497734,-0.812,0.247292,1.02219,-0.198423,-1.48986,4.92612,0.860354,8.51841,1.12459,1.14736,-0.122488,-1.09946,1.53717,-0.455403,1.42057,0.936208,0.402726,-0.274228
1039078,1,-1.59028,-0.516228,0.0161391,-2.12101,0.00725049,1.60493,0.77897,-1.59289,-0.514545,0.0176491,-2.1228,0.00903807,1.60822,0.77798,-0.570342,0.18916,0.465688,-0.73408,0.248945,0.991066,-0.201629,-0.619354,0.210983,0.505422,-0.82449,0.250876,1.03615,-0.201168,-1.38671,4.90231,1.01111,8.46683,1.09621,1.108,-0.128897,-1.11177,1.55495,-0.466144,1.39748,0.93219,0.406994,-0.273237
1039079,1,-1.59088,-0.516032,0.0166179,-2.12179,0.00750647,1.60595,0.778763,-1.59352,-0.514332,0.0181622,-2.12364,0.00929253,1.60927,0.777776,-0.573398,0.19135,0.468854,-0.742703,0.251517,0.991901,-0.206297,-0.628055,0.212162,0.513111,-0.83698,0.25446,1.05011,-0.203912,-1.28753,4.90231,1.16187,8.39145,1.12459,1.16018,-0.161856,-1.11561,1.57288,-0.462326,1.37133,0.928125,0.410683,-0.271872
1039080,1,-1.59149,-0.515826,0.017124,-2.12259,0.00776222,1.60698,0.778553,-1.59416,-0.514119,0.018683,-2.12449,0.00955058,1.61033,0.777569,-0.586376,0.196594,0.478029,-0.771896,0.24966,0.998087,-0.204488,-0.636756,0.21334,0.520799,-0.84947,0.258044,1.06408,-0.206656,-1.18834,4.77536,1.16187,8.39145,1.12459,1.31491,-0.141714,-1.1116,1.58274,-0.445273,1.34966,0.924154,0.414511,-0.270153
1039081,1,-1.59212,-0.515621,0.0176321,-2.1234,0.00802263,1.60802,0.778337,-1.5948,-0.513905,0.0192115,-2.12535,0.00981221,1.61141,0.77736,-0.598827,0.19736,0.483414,-0.785535,0.252334,1.0082,-0.206919,-0.645457,0.214518,0.528488,-0.86196,0.261628,1.07804,-0.2094,-1.08519,4.64841,1.21344,8.61759,1.13008,1.39181,-0.122488,-1.10081,1.57441,-0.417929,1.34311,0.920546,0.419719,-0.268123
1039082,1,-1.59275,-0.515416,0.0181245,-2.12423,0.00828549,1.60908,0.778119,-1.59546,-0.513689,0.0197476,-2.12622,0.0100774,1.6125,0.777148,-0.60914,0.201932,0.491356,-0.798365,0.253183,1.02187,-0.211595,-0.654157,0.215697,0.536176,-0.87445,0.265212,1.092,-0.212144,-0.986012,4.46988,1.3642,8.71677,1.18685,1.43026,-0.149038,-1.0829,1.54899,-0.381123,1.35139,0.9174,0.426415,-0.265842
1039083,1,-1.59339,-0.515206,0.0186371,-2.12507,0.00856057,1.61016,0.777914,-1.59612,-0.513472,0.0202915,-2.12711,0.0103462,1.61361,0.776933,-0.616357,0.203917,0.493276,-0.813972,0.255888,1.0422,-0.21114,-0.662858,0.216875,0.543865,-0.88694,0.268796,1.10596,-0.214888,-0.831288,4.21597,1.51892,9.06192,1.18685,1.28195,-0.26531,-1.05862,1.51275,-0.335985,1.36814,0.91463,0.433976,-0.26336
1039084,1,-1.59406,-0.515003,0.019161,-2.12594,0.00883499,1.61127,0.777696,-1.59679,-0.513254,0.0208431,-2.12801,0.0106186,1.61473,0.776715,-0.622796,0.202214,0.511373,-0.833363,0.264063,1.05371,-0.216029,-0.671559,0.218053,0.551553,-0.89943,0.27238,1.11992,-0.217633,-0.632923,4.06522,1.66968,9.53403,1.15297,1.19863,-0.278127,-1.03283,1.47121,-0.289282,1.39049,0.912066,0.442113,-0.260776
1039085,1,-1.59473,-0.514799,0.0196742,-2.12684,0.0091061,1.61238,0.777484,-1.59747,-0.513035,0.0214023,-2.12892,0.0108946,1.61586,0.776495,-0.642509,0.20718,0.511995,-0.85376,0.264644,1.07189,-0.214803,-0.68026,0.219232,0.559242,-0.91192,0.275964,1.13389,-0.220377,-0.379017,3.89066,1.84424,9.95853,1.13558,1.11441,-0.31658,-1.0086,1.42631,-0.24628,1.41989,0.909661,0.45087,-0.258264
1039086,1,-1.59541,-0.514585,0.0202018,-2.12773,0.00937366,1.61349,0.777267,-1.59816,-0.512814,0.0219692,-2.12985,0.0111741,1.61701,0.776272,-0.65731,0.213351,0.51439,-0.869205,0.265823,1.08625,-0.218792,-0.688961,0.22041,0.56693,-0.92441,0.279548,1.14785,-0.223121,-0.22826,3.66055,2.07434,10.2799,1.20333,0.986232,-0.336721,-0.977148,1.37035,-0.195635,1.46102,0.907847,0.460301,-0.256043
1039087,1,-1.59609,-0.514367,0.0207321,-2.12866,0.00964379,1.61464,0.777053,-1.59886,-0.512593,0.0225439,-2.13078,0.0114572,1.61817,0.776046,-0.666214,0.212509,0.522232,-0.887622,0.271059,1.10126,-0.217824,-0.697662,0.221588,0.574619,-0.9369,0.283132,1.16181,-0.225865,-0.176685,3.5098,2.2013,10.6806,1.26558,0.825099,-0.420034,-0.931992,1.29995,-0.128206,1.51492,0.90686,0.470041,-0.254271
1039088,1,-1.59679,-0.51415,0.0212708,-2.12957,0.00991511,1.61574,0.776835,-1.59957,-0.512371,0.023126,-2.13173,0.0117438,1.61935,0.775818,-0.67442,0.21347,0.521856,-0.898991,0.274173,1.09981,-0.217028,-0.705893,0.222095,0.582102,-0.94939,0.286596,1.17519,-0.228517,-0.0775034,3.30746,2.27667,10.8036,1.26558,1.06954,-0.459402,-0.875958,1.22409,-0.0470178,1.57687,0.906476,0.479385,-0.25306
1039089,1,-1.59749,-0.513919,0.0218166,-2.13051,0.0101858,1.61687,0.77661,-1.60028,-0.512148,0.0237155,-2.13269,0.0120339,1.62054,0.775586,-0.674928,0.21992,0.524255,-0.905441,0.275571,1.09875,-0.215438,-0.714123,0.222602,0.589585,-0.96188,0.290059,1.18856,-0.231168,-0.176685,2.97818,2.42743,10.8036,1.28298,1.36618,-0.446585,-0.812525,1.15087,0.0449769,1.64059,0.906414,0.487677,-0.252521
1039090,1,-1.59819,-0.513691,0.0223685,-2.13146,0.010455,1.61802,0.776383,-1.601,-0.511925,0.0243126,-2.13367,0.0123274,1.62174,0.775353,-0.694947,0.223586,0.535314,-0.914966,0.272717,1.10231,-0.217229,-0.722354,0.22311,0.597067,-0.97437,0.293523,1.20194,-0.23382,-0.152882,2.70047,2.42743,10.7044,1.28847,1.52731,-0.394399,-0.744816,1.08105,0.144068,1.70168,0.906472,0.494711,-0.252707
1039091,1,-1.59892,-0.513469,0.0229291,-2.13242,0.0107436,1.6192,0.776154,-1.60173,-0.511701,0.0249172,-2.13466,0.0126244,1.62295,0.775116,-0.700265,0.220681,0.540164,-0.929432,0.280718,1.12084,-0.222287,-0.730585,0.223617,0.60455,-0.98686,0.296986,1.21531,-0.236471,-0.152882,2.52591,2.40363,10.6052,1.25459,1.37899,-0.322988,-0.675043,1.01795,0.246116,1.757,0.906602,0.500698,-0.253582
1039092,1,-1.59965,-0.51325,0.0234966,-2.13338,0.0110454,1.62039,0.77593,-1.60247,-0.511477,0.0255292,-2.13565,0.0129249,1.62418,0.774877,-0.707112,0.218344,0.543942,-0.935119,0.286403,1.12856,-0.223636,-0.738815,0.224124,0.612033,-0.99935,0.30045,1.22868,-0.239123,-0.279835,2.34738,2.37586,10.4068,1.1191,1.3085,-0.322988,-0.60569,0.973242,0.347921,1.80054,0.906655,0.505579,-0.255024
1039093,1,-1.60038,-0.513033,0.0240867,-2.13434,0.0113466,1.62159,0.775709,-1.60322,-0.511253,0.0261487,-2.13667,0.0132288,1.62542,0.774635,-0.720396,0.217569,0.557766,-0.96097,0.294154,1.17199,-0.223661,-0.747046,0.224631,0.619516,-1.01184,0.303913,1.24206,-0.241774,-0.252064,2.14505,2.30048,10.0577,0.994585,1.18582,-0.355947,-0.540059,0.953042,0.445196,1.82973,0.906419,0.509186,-0.256848
1039094,1,-1.60114,-0.51281,0.0246825,-2.13532,0.0116449,1.62281,0.775488,-1.60397,-0.511027,0.0267757,-2.13769,0.0135361,1.62668,0.774391,-0.731618,0.219675,0.565884,-0.962396,0.290411,1.18188,-0.222778,-0.755276,0.225138,0.626999,-1.02433,0.307377,1.25543,-0.244425,-0.0775034,1.96652,2.17353,9.73636,0.983598,1.05673,-0.420034,-0.480472,0.952205,0.533501,1.8474,0.905743,0.511442,-0.258894
1039095,1,-1.60191,-0.512583,0.0252787,-2.13631,0.0119277,1.62406,0.775267,-1.60474,-0.510802,0.0274102,-2.13873,0.013847,1.62795,0.774144,-0.740735,0.221111,0.575296,-0.968243,0.291358,1.1916,-0.222053,-0.763507,0.225645,0.634481,-1.03682,0.310841,1.26881,-0.247077,-0.0775034,1.79196,2.17353,9.43485,1.14198,0.914821,-0.472219,-0.427522,0.968163,0.611304,1.85063,0.904289,0.511798,-0.261093
1039096,1,-1.60265,-0.512349,0.0258898,-2.1373,0.0122205,1.62531,0.775039,-1.60551,-0.510576,0.0280521,-2.13978,0.0141613,1.62923,0.773894,-0.744061,0.227834,0.57908,-0.978037,0.288894,1.21077,-0.224949,-0.771737,0.226153,0.641964,-1.04931,0.314304,1.28218,-0.249728,-0.204456,1.51425,2.12592,9.26029,1.27748,0.728053,-0.452993,-0.381243,0.996103,0.678975,1.83745,0.901859,0.509855,-0.263469
1039097,1,-1.60342,-0.512114,0.0265113,-2.13832,0.012532,1.62656,0.774797,-1.60629,-0.510349,0.0287016,-2.14084,0.0144791,1.63053,0.773642,-0.744883,0.228046,0.596253,-0.983777,0.298807,1.21452,-0.229928,-0.779968,0.22666,0.649447,-1.0618,0.317768,1.29556,-0.25238,-0.355213,1.28415,1.89582,9.36344,1.23812,0.831508,-0.329397,-0.346096,1.0275,0.731095,1.81112,0.898464,0.505668,-0.266049
1039098,1,-1.60418,-0.511875,0.0271327,-2.13934,0.0128434,1.62783,0.774548,-1.60708,-0.510122,0.0293582,-2.14191,0.0148001,1.63183,0.773387,-0.748745,0.233124,0.600603,-1.0089,0.301263,1.22277,-0.236393,-0.787633,0.226476,0.656647,-1.07429,0.321093,1.30832,-0.25493,-0.581349,1.00644,1.89582,9.23648,1.19783,0.973414,-0.18749,-0.328312,1.05431,0.759456,1.77893,0.89425,0.499976,-0.268755
1039099,1,-1.60496,-0.511644,0.0277598,-2.14038,0.0131629,1.6291,0.774306,-1.60787,-0.509896,0.0300221,-2.143,0.0151246,1.63316,0.773129,-0.759445,0.229384,0.603536,-1.02385,0.306518,1.23234,-0.237529,-0.795298,0.226291,0.663848,-1.08678,0.324419,1.32108,-0.25748,-0.632923,0.907257,1.92359,9.36344,1.16945,1.08877,-0.200308,-0.324001,1.06794,0.769849,1.75197,0.889783,0.494222,-0.271388
1039100,1,-1.60578,-0.511415,0.0284023,-2.14144,0.0134912,1.63039,0.774067,-1.60867,-0.50967,0.0306931,-2.1441,0.0154523,1.63449,0.772869,-0.773981,0.230105,0.612625,-1.03426,0.313968,1.23893,-0.242159,-0.802963,0.226107,0.671048,-1.09927,0.327744,1.33384,-0.26003,-0.379017,0.931061,1.79663,9.38724,1.06233,1.33413,-0.278127,-0.322834,1.07169,0.776638,1.7314,0.885549,0.488983,-0.273733
1039101,1,-1.6066,-0.511189,0.0290435,-2.14251,0.0138215,1.63169,0.773818,-1.60949,-0.509444,0.0313714,-2.14521,0.0157834,1.63584,0.772607,-0.788957,0.229106,0.621324,-1.0432,0.317597,1.25716,-0.248619,-0.810629,0.225923,0.678248,-1.11176,0.33107,1.34659,-0.26258,-0.0775034,0.907257,1.92359,9.41105,0.994585,1.41104,-0.278127,-0.318429,1.0757,0.787599,1.70983,0.881575,0.483926,-0.275687
1039102,1,-1.60741,-0.510957,0.0296762,-2.1436,0.0141584,1.63303,0.773564,-1.6103,-0.509218,0.0320568,-2.14634,0.0161178,1.6372,0.772341,-0.793982,0.230385,0.6404,-1.05166,0.325316,1.27243,-0.247176,-0.818294,0.225739,0.685449,-1.12425,0.334395,1.35935,-0.26513,0.0494498,0.780304,2.09815,9.53403,0.915849,1.44308,-0.290945,-0.312865,1.0863,0.798353,1.68118,0.877486,0.478745,-0.277258
1039103,1,-1.60822,-0.51073,0.0303307,-2.14471,0.0145061,1.6344,0.773302,-1.61113,-0.508993,0.0327495,-2.14747,0.0164555,1.63857,0.772074,-0.800748,0.228965,0.642736,-1.06677,0.331997,1.30014,-0.253311,-0.825959,0.225555,0.692649,-1.13674,0.337721,1.37211,-0.267679,0.0732535,0.653351,2.14972,9.70859,0.81331,1.28195,-0.246084,-0.312221,1.10583,0.800018,1.64348,0.872775,0.47344,-0.278494
1039104,1,-1.60905,-0.510506,0.0309937,-2.14581,0.0148489,1.63575,0.77304,-1.61196,-0.508767,0.0334493,-2.14862,0.0167965,1.63995,0.771803,-0.805695,0.229515,0.64519,-1.07703,0.332487,1.32118,-0.251698,-0.833624,0.22537,0.699849,-1.14923,0.341046,1.38487,-0.270229,0.124828,0.577972,2.17353,9.70859,0.807817,1.19863,-0.278127,-0.314614,1.13316,0.796449,1.5982,0.867314,0.468117,-0.279468
1039105,1,-1.60989,-0.51027,0.0316563,-2.14692,0.0151741,1.63712,0.77278,-1.6128,-0.508542,0.0341564,-2.14978,0.0171409,1.64135,0.771531,-0.810384,0.230735,0.650602,-1.08107,0.336037,1.32768,-0.254429,-0.841289,0.225186,0.70705,-1.16172,0.344372,1.39763,-0.272779,0.0732535,0.324066,2.17353,9.66098,0.949724,1.26913,-0.310171,-0.31524,1.16781,0.795872,1.54507,0.861048,0.462544,-0.280233
1039106,1,-1.61072,-0.510056,0.0323468,-2.14804,0.0155105,1.6385,0.77251,-1.61365,-0.508317,0.0348706,-2.15096,0.0174886,1.64276,0.771255,-0.815969,0.225094,0.662473,-1.09041,0.335888,1.34904,-0.252861,-0.848954,0.225002,0.71425,-1.17421,0.347697,1.41039,-0.275329,0.101024,0.351837,1.94739,9.70859,1.1017,1.30117,-0.252493,-0.315503,1.21483,0.796773,1.48036,0.853776,0.456215,-0.280828
1039107,1,-1.61157,-0.509844,0.0330499,-2.14919,0.0158687,1.6399,0.772247,-1.61451,-0.508092,0.0355921,-2.15214,0.0178396,1.64418,0.770977,-0.822422,0.22113,0.675027,-1.10462,0.339827,1.35268,-0.258569,-0.856619,0.224818,0.72145,-1.1867,0.351023,1.42315,-0.277879,0.0256461,0.375641,1.72126,9.85935,1.15297,1.35336,-0.290945,-0.32049,1.28142,0.791294,1.40273,0.845542,0.449087,-0.281276
1039108,1,-1.6124,-0.509629,0.0337479,-2.15036,0.0162175,1.64132,0.771972,-1.61537,-0.507869,0.0363204,-2.15334,0.0181938,1.64562,0.770697,-0.841184,0.215497,0.681286,-1.12278,0.344053,1.36595,-0.26046,-0.863649,0.22396,0.728305,-1.19919,0.354199,1.43528,-0.280321,-0.279835,0.399445,1.56653,10.1331,1.17586,1.39181,-0.310171,-0.329567,1.36733,0.778684,1.3178,0.836906,0.442012,-0.281594
1039109,1,-1.61324,-0.509414,0.0344679,-2.15154,0.016578,1.64275,0.771692,-1.61624,-0.507645,0.0370555,-2.15455,0.0185512,1.64707,0.770414,-0.844036,0.215158,0.687233,-1.14176,0.34513,1.38621,-0.269185,-0.870678,0.223103,0.73516,-1.21168,0.357376,1.44741,-0.282763,-0.605152,0.399445,1.3404,10.4544,1.1136,1.32131,-0.26531,-0.336356,1.46393,0.766854,1.23492,0.828684,0.436038,-0.281843
1039110,1,-1.61411,-0.509188,0.0352066,-2.15277,0.0169489,1.64419,0.771419,-1.61712,-0.507423,0.0377976,-2.15578,0.0189118,1.64853,0.770129,-0.851716,0.215949,0.699475,-1.16276,0.3511,1.3897,-0.271007,-0.877708,0.222246,0.742014,-1.22417,0.360552,1.45955,-0.285205,-0.708302,0.324066,0.959536,11.0535,1.05135,1.36618,-0.329397,-0.341051,1.55632,0.756087,1.16504,0.821316,0.432143,-0.282044
1039111,1,-1.61499,-0.50896,0.0359401,-2.15398,0.0173098,1.64565,0.771146,-1.61801,-0.507202,0.0385464,-2.15702,0.0192755,1.65,0.769842,-0.871009,0.22112,0.709854,-1.20714,0.349955,1.39901,-0.27335,-0.884737,0.221388,0.748869,-1.23666,0.363729,1.47168,-0.287647,-0.732105,0.0741272,0.781009,11.5494,0.994585,1.43026,-0.381582,-0.345634,1.61873,0.743145,1.12805,0.815157,0.43227,-0.28217
1039112,1,-1.61586,-0.508724,0.0366795,-2.15524,0.0176684,1.64708,0.770868,-1.6189,-0.506981,0.0393022,-2.15826,0.0196424,1.65148,0.769551,-0.873559,0.225068,0.715384,-1.21983,0.350161,1.40358,-0.277793,-0.891766,0.220531,0.755724,-1.24915,0.366905,1.48381,-0.290089,-0.807484,-0.330536,0.681826,12.0691,1.01747,1.57217,-0.407217,-0.347693,1.62685,0.730378,1.14232,0.81056,0.438185,-0.282267
1039113,1,-1.61673,-0.508493,0.0374216,-2.15653,0.0180443,1.64853,0.770573,-1.6198,-0.506762,0.0400647,-2.15953,0.0200125,1.65298,0.769259,-0.875852,0.226206,0.722664,-1.24111,0.359883,1.40871,-0.279257,-0.898796,0.219674,0.762579,-1.26164,0.370082,1.49594,-0.292531,-0.986012,-0.683624,0.630252,12.692,0.932329,1.70767,-0.322988,-0.348888,1.58154,0.716919,1.20423,0.807154,0.449399,-0.282449
1039114,1,-1.6176,-0.508267,0.0381864,-2.1578,0.0184208,1.65,0.770282,-1.6207,-0.506543,0.0408342,-2.1608,0.0203857,1.65449,0.768964,-0.875794,0.225582,0.730154,-1.25292,0.358782,1.43176,-0.286497,-0.905825,0.218817,0.769434,-1.27413,0.373258,1.50807,-0.294973,-1.08519,-0.989105,0.554873,13.0173,0.943315,1.54013,-0.232351,-0.355085,1.50107,0.69704,1.29777,0.804174,0.464205,-0.282787
1039115,1,-1.6185,-0.508051,0.0389382,-2.15907,0.0188037,1.65148,0.769988,-1.62162,-0.506325,0.0416105,-2.16209,0.0207622,1.65601,0.768667,-0.875552,0.224206,0.732306,-1.25479,0.36367,1.43795,-0.287774,-0.912854,0.217959,0.776288,-1.28662,0.376434,1.5202,-0.297415,-0.986012,-1.13986,0.554873,13.0173,0.932329,1.50167,-0.155447,-0.369853,1.40947,0.667966,1.40286,0.800936,0.480341,-0.283222
1039116,1,-1.6194,-0.507846,0.0397154,-2.16036,0.0191827,1.65301,0.769689,-1.62254,-0.506108,0.0423936,-2.16339,0.0211418,1.65754,0.768367,-0.877662,0.216717,0.742944,-1.25997,0.366643,1.4617,-0.301448,-0.919884,0.217102,0.783143,-1.29911,0.379611,1.53234,-0.299857,-0.831288,-1.11606,0.42792,12.7436,0.937822,1.23709,-0.0712183,-0.394448,1.33527,0.629552,1.49632,0.796816,0.495125,-0.283589
1039117,1,-1.62031,-0.507642,0.040501,-2.16162,0.0195719,1.65452,0.769395,-1.62346,-0.505891,0.0431836,-2.1647,0.0215246,1.65908,0.768064,-0.885663,0.212923,0.756128,-1.25911,0.368468,1.47595,-0.300422,-0.926913,0.216245,0.789998,-1.3116,0.382787,1.54447,-0.302299,-0.680531,-1.01291,0.503299,12.2199,0.932329,1.08877,-0.141714,-0.430449,1.30262,0.579009,1.55988,0.791391,0.506285,-0.283661
1039118,1,-1.62123,-0.507435,0.0412819,-2.16292,0.0199476,1.65602,0.769114,-1.6244,-0.505677,0.04398,-2.16602,0.0219104,1.66064,0.76776,-0.893128,0.207219,0.772087,-1.25941,0.369402,1.47337,-0.293892,-0.933266,0.214772,0.796447,-1.32409,0.385808,1.55597,-0.304618,-0.605152,-0.913727,0.630252,11.7716,0.96071,1.26272,-0.349539,-0.478928,1.32422,0.512527,1.58322,0.784433,0.512407,-0.283254
1039119,1,-1.62215,-0.507217,0.0420649,-2.16421,0.0203284,1.65754,0.768817,-1.62534,-0.505463,0.0447829,-2.16736,0.0222992,1.66221,0.767453,-0.898135,0.212088,0.774879,-1.26982,0.37339,1.49501,-0.295744,-0.939619,0.213299,0.802895,-1.33658,0.388829,1.56748,-0.306938,-0.529774,-1.04068,0.935733,11.3987,1.02846,1.16659,-0.375173,-0.536971,1.39317,0.432474,1.56885,0.776099,0.513586,-0.282418
1039120,1,-1.62309,-0.506993,0.0428688,-2.16552,0.0207188,1.65912,0.768522,-1.62628,-0.505252,0.0455923,-2.16871,0.0226911,1.66379,0.767144,-0.909717,0.214552,0.801953,-1.27868,0.374435,1.50847,-0.300408,-0.945973,0.211827,0.809344,-1.34907,0.391849,1.57898,-0.309257,-0.303639,-1.29062,0.98334,11.2003,1.15297,0.86996,-0.459402,-0.601517,1.48451,0.341781,1.53108,0.766907,0.511162,-0.28141
1039121,1,-1.62404,-0.506761,0.043671,-2.16686,0.0211162,1.66072,0.768208,-1.62723,-0.505041,0.0464081,-2.17007,0.0230859,1.66538,0.766832,-0.926987,0.222072,0.805154,-1.29034,0.382483,1.53106,-0.305209,-0.952326,0.210354,0.815793,-1.36156,0.39487,1.59049,-0.311576,-0.0497324,-1.64767,0.884158,10.9781,1.09072,0.599879,-0.420034,-0.669134,1.57207,0.243118,1.48502,0.757529,0.506447,-0.28052
1039122,1,-1.62499,-0.506535,0.0444758,-2.16819,0.0215147,1.66227,0.767927,-1.62819,-0.504832,0.0472303,-2.17144,0.0234838,1.66698,0.766518,-0.934396,0.220949,0.805922,-1.3034,0.382431,1.53919,-0.295733,-0.958679,0.208881,0.822242,-1.37405,0.397891,1.60199,-0.313895,-0.0259286,-2.00076,0.935733,10.7798,1.03395,0.689601,-0.575674,-0.727869,1.63948,0.152486,1.44083,0.748792,0.500143,-0.28003
1039123,1,-1.62594,-0.506309,0.045269,-2.16954,0.021924,1.66384,0.76765,-1.62916,-0.504625,0.048059,-2.17283,0.0238847,1.66859,0.766202,-0.938269,0.222618,0.809204,-1.31292,0.399988,1.52887,-0.289573,-0.965033,0.207408,0.828691,-1.38654,0.400911,1.6135,-0.316214,-0.0497324,-2.35385,1.06269,10.5298,0.971697,0.960597,-0.788992,-0.768404,1.68381,0.0844861,1.40262,0.741069,0.492714,-0.280178
1039124,1,-1.6269,-0.506103,0.0460837,-2.17087,0.0223359,1.66542,0.767364,-1.63013,-0.504419,0.0488941,-2.17423,0.0242887,1.67022,0.765883,-0.942302,0.21887,0.814726,-1.31672,0.406595,1.57539,-0.291008,-0.971386,0.205936,0.83514,-1.39903,0.403932,1.625,-0.318533,0.101024,-2.4808,1.03491,10.1569,0.887468,1.10159,-0.866812,-0.79259,1.71477,0.0385707,1.36509,0.734022,0.483916,-0.28125
1039125,1,-1.62789,-0.505894,0.0468977,-2.17223,0.0227437,1.66704,0.76706,-1.63111,-0.504215,0.0497357,-2.17564,0.0246956,1.67185,0.765563,-0.952196,0.215556,0.814338,-1.32069,0.40383,1.58332,-0.2921,-0.977739,0.204463,0.841588,-1.41152,0.406952,1.63651,-0.320853,0.32716,-2.57999,1.18964,9.83554,0.870073,1.06314,-0.828359,-0.8023,1.74929,0.013411,1.31555,0.727262,0.472687,-0.283628
1039126,1,-1.62888,-0.505689,0.0477069,-2.17361,0.0231633,1.66871,0.766748,-1.63209,-0.504012,0.0505838,-2.17706,0.0251056,1.6735,0.765239,-0.960913,0.206682,0.81978,-1.33197,0.412154,1.59921,-0.301789,-0.984092,0.20299,0.848037,-1.42401,0.409973,1.64801,-0.323172,0.402538,-2.53238,1.28882,9.70859,0.841692,0.876368,-0.704763,-0.79575,1.80204,0.0115817,1.24566,0.720633,0.458828,-0.287566
1039127,1,-1.62986,-0.505489,0.0485377,-2.17497,0.0235941,1.67034,0.766427,-1.63308,-0.50381,0.0514383,-2.1785,0.0255186,1.67516,0.764914,-0.973629,0.203583,0.826087,-1.34243,0.415478,1.61292,-0.305101,-0.990446,0.201518,0.854486,-1.4365,0.412994,1.65952,-0.325491,0.477917,-2.4808,1.3404,9.5618,0.745561,0.908412,-0.491445,-0.773022,1.87822,0.0320048,1.15609,0.714056,0.443096,-0.293023
1039128,1,-1.63084,-0.50529,0.0493497,-2.17638,0.0240229,1.672,0.766108,-1.63408,-0.50361,0.0522987,-2.17995,0.0259344,1.67683,0.764586,-0.972102,0.199052,0.831486,-1.36285,0.421296,1.61703,-0.315251,-0.996093,0.199529,0.860483,-1.44899,0.415853,1.67041,-0.327678,0.275585,-2.4808,1.56653,9.78397,0.706194,1.03109,-0.322988,-0.738721,1.97103,0.0676027,1.05533,0.707444,0.426683,-0.29961
1039129,1,-1.63184,-0.505093,0.0501794,-2.17778,0.0244438,1.67368,0.765786,-1.63508,-0.503413,0.0531652,-2.18141,0.0263531,1.67851,0.764256,-0.978733,0.200005,0.834523,-1.40253,0.421861,1.62609,-0.314085,-1.00174,0.197541,0.866481,-1.46148,0.418713,1.68131,-0.329864,0.303356,-2.50461,1.72126,10.0061,0.751055,1.06954,-0.200308,-0.698831,2.05772,0.110359,0.964996,0.70091,0.412167,-0.306673
1039130,1,-1.63289,-0.504882,0.051034,-2.17924,0.0248582,1.67535,0.76546,-1.63609,-0.503217,0.0540377,-2.18289,0.0267747,1.6802,0.763924,-0.995619,0.204961,0.841837,-1.41625,0.415949,1.63196,-0.318319,-1.00739,0.195553,0.872478,-1.47397,0.421572,1.6922,-0.332051,0.755627,-2.70694,1.64191,10.5814,0.830705,1.16018,-0.0840357,-0.653179,2.10917,0.160043,0.908578,0.69488,0.402182,-0.313511
1039131,1,-1.63392,-0.504668,0.051879,-2.18073,0.0252636,1.67704,0.765143,-1.6371,-0.503024,0.0549162,-2.18437,0.0271991,1.68191,0.76359,-1.00673,0.208334,0.846191,-1.43584,0.409215,1.65083,-0.317243,-1.01304,0.193565,0.878475,-1.48646,0.424432,1.70309,-0.334238,0.858776,-3.03622,1.61811,11.3272,1.01106,1.28836,-0.103262,-0.596967,2.11125,0.221915,0.891614,0.689691,0.397102,-0.319536
1039132,1,-1.6349,-0.504452,0.0527358,-2.18221,0.0256944,1.67871,0.764818,-1.63812,-0.502832,0.0558006,-2.18587,0.0276264,1.68362,0.763254,-0.995272,0.21264,0.846424,-1.45445,0.409376,1.65821,-0.320967,-1.01868,0.191577,0.884472,-1.49895,0.427292,1.71398,-0.336424,0.378734,-3.46469,1.64191,12.0969,1.05684,1.43026,-0.0318506,-0.532198,2.06361,0.293744,0.910051,0.685378,0.396278,-0.324318
1039133,1,-1.6359,-0.504244,0.0536008,-2.18373,0.026138,1.68041,0.764488,-1.63914,-0.502643,0.0566911,-2.18738,0.0280566,1.68535,0.762915,-0.987701,0.209385,0.850889,-1.46593,0.418505,1.65299,-0.318916,-1.02433,0.189589,0.89047,-1.51144,0.430151,1.72488,-0.338611,-0.125111,-3.79398,1.43958,12.7674,0.989092,1.6683,-0.0584009,-0.470567,1.97604,0.362722,0.957368,0.681621,0.39924,-0.327607
1039134,0.99,-1.6369,-0.504045,0.0544912,-2.18525,0.0265817,1.68213,0.764165,-1.64017,-0.502455,0.0575876,-2.18891,0.0284896,1.68708,0.762574,-0.995362,0.207431,0.862376,-1.47793,0.430939,1.67162,-0.32114,-1.02998,0.187601,0.896467,-1.52393,0.433011,1.73577,-0.340798,-0.355213,-3.99631,1.11029,13.0887,0.892961,1.8038,-0.155447,-0.422714,1.87009,0.416642,1.02053,0.677918,0.405035,-0.329342
1039135,0.99,-1.63793,-0.503864,0.055388,-2.18674,0.0270295,1.68383,0.763837,-1.64121,-0.502269,0.0584901,-2.19044,0.0289255,1.68883,0.762231,-1.00509,0.196538,0.865612,-1.48449,0.433682,1.678,-0.320275,-1.03563,0.185613,0.902464,-1.53642,0.43587,1.74666,-0.342984,-0.529774,-3.92093,0.860354,13.0173,0.807817,1.90725,-0.310171,-0.388643,1.77181,0.455331,1.08343,0.673967,0.41223,-0.32969
1039136,0.99,-1.63897,-0.503684,0.0562916,-2.18827,0.0274789,1.68557,0.763506,-1.64225,-0.502086,0.0593985,-2.19199,0.0293642,1.69059,0.761886,-1.00613,0.188176,0.87105,-1.48821,0.437737,1.68111,-0.319913,-1.04127,0.183625,0.908462,-1.54891,0.43873,1.75756,-0.345171,-0.557545,-3.82175,0.479495,12.8427,0.695207,1.8688,-0.497854,-0.363507,1.70822,0.485385,1.12928,0.669502,0.41938,-0.329036
1039137,0.99,-1.63998,-0.503517,0.0571951,-2.1898,0.0279434,1.68729,0.763179,-1.6433,-0.501904,0.060313,-2.19355,0.0298058,1.69235,0.761539,-1.00409,0.180777,0.871537,-1.50249,0.44814,1.69881,-0.320898,-1.04692,0.181636,0.914459,-1.5614,0.441589,1.76845,-0.347358,-0.807484,-3.64322,0.300967,12.7436,0.615556,1.79098,-0.647085,-0.346393,1.69424,0.509016,1.14895,0.664165,0.425764,-0.32791
1039138,0.99,-1.641,-0.503336,0.0580978,-2.19137,0.0283989,1.68907,0.762843,-1.64435,-0.501725,0.0612329,-2.19513,0.0302501,1.69413,0.761189,-1.00438,0.183004,0.87403,-1.52469,0.44288,1.71305,-0.323124,-1.05184,0.179511,0.919978,-1.57389,0.444278,1.77853,-0.349405,-1.16057,-3.66702,0.352542,12.9657,0.643938,1.34695,-0.731314,-0.337358,1.71755,0.526449,1.15119,0.657911,0.432095,-0.326904
1039139,0.99,-1.64203,-0.503149,0.0589927,-2.19296,0.0288465,1.69087,0.762499,-1.6454,-0.501547,0.0621584,-2.19671,0.030697,1.69592,0.760838,-1.03588,0.185648,0.880938,-1.54642,0.442888,1.73526,-0.329296,-1.05677,0.177386,0.925497,-1.58638,0.446967,1.78861,-0.351452,-1.109,-3.84555,0.376346,13.0411,0.695207,1.00546,-0.704763,-0.328233,1.74593,0.546321,1.15677,0.651327,0.439784,-0.326574
1039140,0.99,-1.6431,-0.50295,0.0599259,-2.19452,0.0293053,1.69267,0.762133,-1.64647,-0.501372,0.0630895,-2.19831,0.0311467,1.69772,0.760484,-1.03838,0.189979,0.892234,-1.5534,0.444662,1.75812,-0.346394,-1.06169,0.175261,0.931016,-1.59887,0.449656,1.79869,-0.353499,-0.882862,-4.14706,0.201785,12.7912,0.802324,0.483607,-0.510671,-0.310131,1.75469,0.577156,1.17792,0.644983,0.44879,-0.327305
1039141,0.99,-1.64415,-0.502748,0.0608511,-2.19611,0.0297665,1.69446,0.761775,-1.64753,-0.501199,0.064026,-2.19992,0.031599,1.69953,0.760129,-1.04022,0.193665,0.907308,-1.562,0.456428,1.75745,-0.348829,-1.06661,0.173136,0.936534,-1.61136,0.452345,1.80877,-0.355546,-0.859058,-4.50412,0.0748318,12.3944,0.853594,0.445155,-0.420034,-0.29075,1.7386,0.607683,1.21192,0.638653,0.457466,-0.329102
1039142,0.99,-1.64519,-0.502555,0.0617829,-2.19766,0.030222,1.69622,0.761433,-1.6486,-0.501028,0.064968,-2.20155,0.0320541,1.70135,0.759771,-1.04557,0.194723,0.914782,-1.5627,0.458908,1.77771,-0.339055,-1.07153,0.171011,0.942053,-1.62385,0.455034,1.81885,-0.357594,-0.986012,-4.78183,0.0748318,11.597,0.887468,0.908412,-0.459402,-0.282323,1.70393,0.622008,1.24942,0.631863,0.463806,-0.331658
