shamilmamedov/beam_handling/data/param_estimation_ICRA/ocp_Z_25cm_0.50s_5.csv
duration, success rate, q[0], q[1], q[2], q[3], q[4], q[5], q[6],q_d[0], q_d[1], q_d[2], q_d[3], q_d[4], q_d[5], q_d[6],dq[0], dq[1], dq[2], dq[3], dq[4], dq[5], dq[6],dq_d[0], dq_d[1], dq_d[2], dq_d[3], dq_d[4], dq_d[5], dq_d[6],tau_J[0], tau_J[1], tau_J[2], tau_J[3], tau_J[4], tau_J[5], tau_J[6],tau_ext_hat_filtered[0], tau_ext_hat_filtered[1], tau_ext_hat_filtered[2], tau_ext_hat_filtered[3], tau_ext_hat_filtered[4], tau_ext_hat_filtered[5], tau_ext_hat_filtered[6]
1223437,0,-1.57098,-0.522824,0.000464314,-2.09697,-0.000417433,1.57128,0.784958,-1.5708,-0.523598,6.59996e-08,-2.0944,1.34756e-07,1.5708,0.785398,0.000101134,0.000525899,-9.75472e-06,0.000262416,2.14195e-05,-0.000113365,0.00109312,0,0,0,0,0,0,0,0.176403,-10.213,-1.01617,22.0905,1.25459,1.33413,0.213511,0.190016,-1.06435,-0.539093,3.5571,0.541485,-0.336989,0.23953
1223438,1,-1.57098,-0.522824,0.000464367,-2.09696,-0.000420629,1.57128,0.784961,-1.5708,-0.523598,6.59996e-08,-2.0944,1.34756e-07,1.5708,0.785398,-0.001139,0.000350599,-6.50315e-06,0.000824558,1.42797e-05,0.000161782,0.000728745,0,0,0,0,0,0,0,0.227978,-10.213,-1.01617,22.0627,1.25459,1.32772,0.213511,0.189721,-1.06444,-0.539512,3.55687,0.541448,-0.337075,0.239392
1223439,1,-1.57098,-0.522828,0.000460765,-2.09696,-0.000421084,1.57128,0.784954,-1.5708,-0.523598,6.59996e-08,-2.0944,1.34756e-07,1.5708,0.785398,0.00044709,-0.000879891,-0.00121076,0.000549705,0.00021297,0.000107855,-0.000972232,0,0,0,0,0,0,0,0.176403,-10.1654,-0.964597,22.0627,1.2491,1.32772,0.252878,0.190458,-1.06389,-0.538423,3.556,0.54144,-0.337225,0.239247
1223440,1,-1.57098,-0.522824,0.00046439,-2.09697,-0.000418854,1.57128,0.784952,-1.5708,-0.523598,6.59996e-08,-2.0944,1.34756e-07,1.5708,0.785398,-0.00146518,-2.9782e-05,0.000399252,0.00036647,-6.14703e-05,-0.000165456,-0.00112287,0,0,0,0,0,0,0,0.251781,-10.1892,-1.01617,22.0627,1.25459,1.33413,0.265696,0.191928,-1.06175,-0.536237,3.5543,0.541447,-0.337434,0.23908
1223441,1,-1.57098,-0.522824,0.000464392,-2.09697,-0.000418517,1.57128,0.784953,-1.5708,-0.523598,6.59996e-08,-2.0944,1.34756e-07,1.5708,0.785398,-0.000419973,0.000536957,0.000266168,-0.000962112,-0.000244431,-0.000110304,-0.000273864,0,0,0,0,0,0,0,0.227978,-10.213,-1.01617,22.1143,1.26009,1.33413,0.252878,0.193482,-1.06028,-0.534072,3.55323,0.541466,-0.337565,0.23893
1223442,1,-1.57098,-0.522824,0.000466063,-2.09697,-0.000421397,1.57128,0.784959,-1.5708,-0.523598,6.59996e-08,-2.0944,1.34756e-07,1.5708,0.785398,0.000369632,0.000357972,0.000734257,-8.45964e-05,-0.000162954,-7.35359e-05,0.000800768,0,0,0,0,0,0,0,0.200207,-10.213,-1.03998,22.0905,1.26009,1.33413,0.226328,0.194318,-1.06125,-0.533119,3.55381,0.54148,-0.337533,0.238842
1223443,1,-1.57098,-0.52282,0.000464393,-2.09697,-0.000417941,1.57128,0.78496,-1.5708,-0.523598,6.59996e-08,-2.0944,1.34756e-07,1.5708,0.785398,-0.000403193,0.000888262,-6.73072e-05,-5.63976e-05,0.000298265,0.000188335,0.000533846,0,0,0,0,0,0,0,0.227978,-10.2408,-1.01617,22.0905,1.2491,1.32772,0.226328,0.194332,-1.06389,-0.533423,3.55534,0.541468,-0.337417,0.238812
1223444,1,-1.57098,-0.522824,0.000462444,-2.09696,-0.000418416,1.57128,0.784958,-1.5708,-0.523598,6.59996e-08,-2.0944,1.34756e-07,1.5708,0.785398,0.00158724,-5.74395e-05,-0.000694485,0.00116883,-0.000208058,0.000125557,0.000593256,0,0,0,0,0,0,0,0.148632,-10.213,-0.988401,22.0389,1.26009,1.32772,0.219919,0.194127,-1.06654,-0.533967,3.5565,0.541432,-0.337348,0.238803
1223445,1,-1.57098,-0.522826,0.000464393,-2.09697,-0.000417558,1.57128,0.784959,-1.5708,-0.523598,6.59996e-08,-2.0944,1.34756e-07,1.5708,0.785398,0.000408549,-0.000595105,0.000186624,-0.000427208,6.47455e-05,-0.000153654,-0.000113122,0,0,0,0,0,0,0,0.176403,-10.1892,-1.01617,22.0905,1.25459,1.33413,0.233652,0.193678,-1.06735,-0.534657,3.55646,0.541358,-0.337385,0.23878
1223446,1,-1.57098,-0.522823,0.000464393,-2.09696,-0.000417475,1.57128,0.784955,-1.5708,-0.523598,6.59996e-08,-2.0944,1.34756e-07,1.5708,0.785398,-0.000284446,0.000809689,0.000124416,-0.000284805,4.31636e-05,-0.000102436,-0.00149957,0,0,0,0,0,0,0,0.200207,-10.2408,-1.01617,22.0905,1.25459,1.33413,0.272104,0.193033,-1.06724,-0.535566,3.55614,0.541279,-0.337422,0.238731
1223447,1,-1.57098,-0.522826,0.000467734,-2.09697,-0.000418058,1.57128,0.784953,-1.5708,-0.523598,6.59996e-08,-2.0944,1.34756e-07,1.5708,0.785398,0.000367181,-0.000666633,0.00119657,0.000459744,-0.000174675,-0.00030565,-0.000762353,0,0,0,0,0,0,0,0.176403,-10.1892,-1.06378,22.0627,1.26009,1.34054,0.265696,0.192233,-1.06743,-0.53681,3.55614,0.54121,-0.337414,0.238675
1223448,1,-1.57098,-0.522825,0.000466063,-2.09697,-0.000418048,1.57128,0.784957,-1.5708,-0.523598,6.59996e-08,-2.0944,1.34756e-07,1.5708,0.785398,-0.000312024,0.00011239,0.0002409,0.000306496,-0.00011645,-0.000203767,-3.35177e-05,0,0,0,0,0,0,0,0.200207,-10.213,-1.03998,22.0627,1.26009,1.34054,0.252878,0.191102,-1.06673,-0.538652,3.55557,0.541123,-0.337443,0.238658
1223449,1,-1.57098,-0.522822,0.000462444,-2.09697,-0.000418656,1.57128,0.784955,-1.5708,-0.523598,6.59996e-08,-2.0944,1.34756e-07,1.5708,0.785398,0.000348796,7.49266e-05,-0.00104583,-0.0010021,-0.000281084,0.000338874,0.000215014,0,0,0,0,0,0,0,0.176403,-10.213,-0.988401,22.1143,1.26558,1.32772,0.24647,0.190475,-1.06593,-0.539763,3.55497,0.541071,-0.337453,0.238702
1223450,1,-1.57098,-0.522824,0.000462444,-2.09696,-0.000416824,1.57128,0.784958,-1.5708,-0.523598,6.59996e-08,-2.0944,1.34756e-07,1.5708,0.785398,-0.000324281,4.99511e-05,-0.000697217,0.00109517,0.000422962,0.000225916,0.00136405,0,0,0,0,0,0,0,0.200207,-10.213,-0.988401,22.0389,1.2491,1.32772,0.213511,0.191059,-1.06588,-0.538972,3.55474,0.541097,-0.337416,0.238795
1223451,1,-1.57098,-0.522828,0.000462444,-2.09697,-0.000420019,1.57128,0.784955,-1.5708,-0.523598,6.59996e-08,-2.0944,1.34756e-07,1.5708,0.785398,-0.000865802,-0.00108032,-0.000464812,-0.00103312,0.000281975,-0.000324107,0.000163379,0,0,0,0,0,0,0,0.227978,-10.1654,-0.988401,22.1143,1.2491,1.34054,0.233652,0.192627,-1.06511,-0.536684,3.55408,0.541172,-0.337409,0.238905
1223452,1,-1.57098,-0.522824,0.000462444,-2.09697,-0.000421695,1.57128,0.784957,-1.5708,-0.523598,6.59996e-08,-2.0944,1.34756e-07,1.5708,0.785398,0.000629225,0.000393408,-0.000309874,-0.000688748,-1.54672e-05,2.12873e-05,-0.000365799,0,0,0,0,0,0,0,0.176403,-10.213,-0.988401,22.1143,1.25459,1.33413,0.24647,0.194416,-1.06399,-0.534079,3.55358,0.541263,-0.337361,0.238999
1223453,1,-1.57097,-0.522823,0.000464393,-2.09697,-0.000418854,1.57128,0.784956,-1.5708,-0.523598,6.59996e-08,-2.0944,1.34756e-07,1.5708,0.785398,0.00162591,0.000911886,0.000443031,-0.000459165,-1.03115e-05,1.41915e-05,-0.000955943,0,0,0,0,0,0,0,0.124828,-10.2408,-1.01617,22.1143,1.25459,1.33413,0.265696,0.195082,-1.06485,-0.532962,3.55438,0.541317,-0.337196,0.239075
1223454,1,-1.57098,-0.522828,0.000464393,-2.09697,-0.000418517,1.57128,0.784961,-1.5708,-0.523598,6.59996e-08,-2.0944,1.34756e-07,1.5708,0.785398,-0.000679298,-0.00115531,0.000295354,0.000250702,-0.000210325,9.46103e-06,0.000820767,0,0,0,0,0,0,0,0.200207,-10.1654,-1.01617,22.0905,1.26009,1.33413,0.226328,0.194367,-1.06657,-0.533706,3.55551,0.541302,-0.337023,0.239157
1223455,1,-1.57098,-0.522828,0.000464393,-2.09697,-0.000418812,1.57128,0.784959,-1.5708,-0.523598,6.59996e-08,-2.0944,1.34756e-07,1.5708,0.785398,-0.000452866,-0.000770209,0.000196903,-0.000389677,-0.000343667,6.30735e-06,0.0010219,0,0,0,0,0,0,0,0.200207,-10.1654,-1.01617,22.1143,1.26558,1.33413,0.213511,0.193556,-1.06593,-0.534648,3.5554,0.541256,-0.336963,0.239246
1223456,1,-1.57098,-0.522825,0.000464393,-2.09697,-0.000421903,1.57128,0.784958,-1.5708,-0.523598,6.59996e-08,-2.0944,1.34756e-07,1.5708,0.785398,-0.00030191,0.000600151,0.000131268,0.000297027,-0.000229111,4.2049e-06,0.000681264,0,0,0,0,0,0,0,0.200207,-10.213,-1.01617,22.0905,1.26558,1.33413,0.213511,0.193246,-1.06404,-0.534968,3.5546,0.541228,-0.33697,0.239319
1223457,1,-1.57098,-0.522826,0.000466523,-2.09697,-0.000418516,1.57128,0.784959,-1.5708,-0.523598,6.59996e-08,-2.0944,1.34756e-07,1.5708,0.785398,0.000355538,-0.000156711,8.75123e-05,0.000198018,0.00025416,0.000240162,-0.000291809,0,0,0,0,0,0,0,0.176403,-10.1892,-1.01617,22.0905,1.25459,1.32772,0.233652,0.193053,-1.06314,-0.535115,3.55405,0.54122,-0.336984,0.239342
1223458,1,-1.57098,-0.522822,0.000463154,-2.09697,-0.000417794,1.57128,0.784952,-1.5708,-0.523598,6.59996e-08,-2.0944,1.34756e-07,1.5708,0.785398,-0.0009694,0.000452338,-0.000591272,-0.0004248,0.00016944,-7.72508e-05,-0.00161869,0,0,0,0,0,0,0,0.227978,-10.213,-0.988401,22.1143,1.25459,1.33413,0.272104,0.193125,-1.06323,-0.534839,3.55386,0.541247,-0.336987,0.2393
1223459,1,-1.57098,-0.52282,0.00046463,-2.09696,-0.000416943,1.57128,0.784955,-1.5708,-0.523598,6.59996e-08,-2.0944,1.34756e-07,1.5708,0.785398,3.34705e-06,0.00150798,0.000255432,0.000923226,0.000316411,-5.15005e-05,-0.00084177,0,0,0,0,0,0,0,0.200207,-10.2646,-1.01617,22.0627,1.2491,1.33413,0.265696,0.193732,-1.06503,-0.533804,3.55439,0.541319,-0.336949,0.239225
1223460,1,-1.57098,-0.522826,0.000466142,-2.09697,-0.000418084,1.57128,0.784957,-1.5708,-0.523598,6.59996e-08,-2.0944,1.34756e-07,1.5708,0.785398,2.23137e-06,-0.000757915,0.0007271,-0.000590942,-0.000195961,-3.43337e-05,0.000896882,0,0,0,0,0,0,0,0.200207,-10.1892,-1.03998,22.1143,1.26009,1.33413,0.226328,0.194066,-1.06781,-0.533236,3.55525,0.541376,-0.336901,0.239177
1223461,1,-1.57098,-0.522823,0.000464419,-2.09697,-0.000418667,1.57128,0.78496,-1.5708,-0.523598,6.59996e-08,-2.0944,1.34756e-07,1.5708,0.785398,1.48758e-06,0.000701149,-7.20785e-05,-0.000950773,-0.000334091,0.00021447,0.00083528,0,0,0,0,0,0,0,0.200207,-10.2408,-1.01617,22.1381,1.26558,1.32772,0.219919,0.19375,-1.0701,-0.533694,3.55626,0.541398,-0.336822,0.239178
1223462,1,-1.57098,-0.522828,0.000462453,-2.09697,-0.000420634,1.57128,0.78496,-1.5708,-0.523598,6.59996e-08,-2.0944,1.34756e-07,1.5708,0.785398,9.9172e-07,-0.0012958,-0.000697666,0.000479775,0.000184174,-0.000331738,4.82273e-05,0,0,0,0,0,0,0,0.200207,-10.1654,-0.988401,22.0905,1.25459,1.34054,0.233652,0.193596,-1.07126,-0.533932,3.55714,0.541425,-0.336731,0.239193
1223463,1,-1.57098,-0.522828,0.000464396,-2.09697,-0.000421696,1.57128,0.784959,-1.5708,-0.523598,6.59996e-08,-2.0944,1.34756e-07,1.5708,0.785398,-0.000648953,-0.00086387,0.000184503,0.00031985,0.000122782,0.000253559,-0.000205207,0,0,0,0,0,0,0,0.227978,-10.1654,-1.01617,22.0905,1.25459,1.32772,0.240061,0.194005,-1.06939,-0.533354,3.55646,0.541451,-0.336767,0.239184
1223464,1,-1.57098,-0.522828,0.000467735,-2.09697,-0.000418244,1.57128,0.784955,-1.5708,-0.523598,6.59996e-08,-2.0944,1.34756e-07,1.5708,0.785398,0.000216979,-0.000575913,0.00123663,0.000213233,0.000285306,0.000169039,-0.000374164,0,0,0,0,0,0,0,0.200207,-10.1654,-1.06378,22.0905,1.2491,1.32772,0.24647,0.194195,-1.06498,-0.533232,3.55437,0.541439,-0.336928,0.239153
1223465,1,-1.57098,-0.522826,0.000466064,-2.09697,-0.000417907,1.57128,0.784951,-1.5708,-0.523598,6.59996e-08,-2.0944,1.34756e-07,1.5708,0.785398,-0.000504961,0.00017287,0.000267605,-0.000414656,-1.32468e-05,-0.000124666,-0.00119888,0,0,0,0,0,0,0,0.227978,-10.1892,-1.03998,22.1143,1.25459,1.33413,0.272104,0.193649,-1.06104,-0.534381,3.55257,0.54139,-0.337076,0.239121
1223466,1,-1.57098,-0.522821,0.000462444,-2.09697,-0.000417591,1.57128,0.784958,-1.5708,-0.523598,6.59996e-08,-2.0944,1.34756e-07,1.5708,0.785398,-0.000336641,0.00132167,-0.00102802,-0.000276438,-8.83123e-06,-8.31106e-05,0.00137089,0,0,0,0,0,0,0,0.227978,-10.2408,-0.988401,22.1143,1.25459,1.33413,0.213511,0.193497,-1.06025,-0.535069,3.55242,0.541375,-0.337099,0.239109
1223467,1,-1.57098,-0.522826,0.000466063,-2.09697,-0.000417486,1.57128,0.784961,-1.5708,-0.523598,6.59996e-08,-2.0944,1.34756e-07,1.5708,0.785398,0.000425187,-0.000325311,0.000521078,-0.000184292,-5.88749e-06,-5.54071e-05,0.000913924,0,0,0,0,0,0,0,0.200207,-10.1892,-1.03998,22.1143,1.25459,1.33413,0.213511,0.194109,-1.06241,-0.534661,3.55376,0.541403,-0.33701,0.239126
1223468,1,-1.57098,-0.522822,0.000462444,-2.09696,-0.000418061,1.57128,0.784959,-1.5708,-0.523598,6.59996e-08,-2.0944,1.34756e-07,1.5708,0.785398,-0.000366156,0.000339938,-0.000859041,0.00164038,-0.000207376,-3.69381e-05,0.000846642,0,0,0,0,0,0,0,0.227978,-10.213,-0.988401,22.0389,1.26009,1.33413,0.207102,0.194812,-1.06423,-0.534123,3.55467,0.541408,-0.336976,0.239138
1223469,1,-1.57098,-0.522827,0.000464393,-2.09696,-0.00041805,1.57127,0.784955,-1.5708,-0.523598,6.59996e-08,-2.0944,1.34756e-07,1.5708,0.785398,0.000962322,-0.000886999,7.69201e-05,-0.000112841,-0.00013825,-0.000499343,-0.000656275,0,0,0,0,0,0,0,0.176403,-10.1654,-1.01617,22.0905,1.26009,1.34695,0.240061,0.195501,-1.06398,-0.533579,3.55414,0.541374,-0.337073,0.239098
1223470,1,-1.57098,-0.522826,0.000464393,-2.09697,-0.000416825,1.57128,0.784954,-1.5708,-0.523598,6.59996e-08,-2.0944,1.34756e-07,1.5708,0.785398,0.000641548,-3.45204e-05,5.12801e-05,-0.00063204,0.000314734,0.000141822,-0.00186167,0,0,0,0,0,0,0,0.176403,-10.1892,-1.01617,22.1143,1.2491,1.33413,0.278513,0.195648,-1.06258,-0.533734,3.55328,0.541316,-0.337161,0.239
1223471,1,-1.57098,-0.522822,0.000464393,-2.09697,-0.000418044,1.57128,0.784959,-1.5708,-0.523598,6.59996e-08,-2.0944,1.34756e-07,1.5708,0.785398,-0.000129113,0.000533798,3.41867e-05,0.000135452,-0.000197078,9.45483e-05,0.00116638,0,0,0,0,0,0,0,0.200207,-10.213,-1.01617,22.0905,1.26009,1.33413,0.213511,0.195253,-1.06206,-0.534629,3.55325,0.541261,-0.337136,0.238884
1223472,1,-1.57098,-0.522823,0.000466063,-2.09697,-0.000417434,1.57128,0.784962,-1.5708,-0.523598,6.59996e-08,-2.0944,1.34756e-07,1.5708,0.785398,-0.00073569,-0.000200946,0.000579603,-0.00046651,7.2065e-05,0.000300391,0.00101495,0,0,0,0,0,0,0,0.227978,-10.1892,-1.03998,22.1143,1.25459,1.32772,0.207102,0.19502,-1.06283,-0.535373,3.55396,0.541232,-0.337042,0.238787
1223473,1,-1.57098,-0.522823,0.000462444,-2.09697,-0.000420629,1.57128,0.78496,-1.5708,-0.523598,6.59996e-08,-2.0944,1.34756e-07,1.5708,0.785398,-0.00049046,-0.000133964,-0.000820024,-0.000867819,4.80433e-05,-3.70982e-05,-3.54446e-05,0,0,0,0,0,0,0,0.227978,-10.1892,-0.988401,22.1381,1.25459,1.33413,0.226328,0.195394,-1.06392,-0.535372,3.55503,0.541244,-0.336904,0.238684
1223474,1,-1.57098,-0.522827,0.000462444,-2.09696,-0.000417888,1.57128,0.784953,-1.5708,-0.523598,6.59996e-08,-2.0944,1.34756e-07,1.5708,0.785398,0.000322641,-0.000646121,-0.000546683,0.000535078,0.000235479,-2.47321e-05,-0.00148169,0,0,0,0,0,0,0,0.200207,-10.1654,-0.988401,22.0905,1.2491,1.33413,0.265696,0.196489,-1.06429,-0.5343,3.55592,0.541288,-0.336771,0.23854
1223475,1,-1.57098,-0.522822,0.000464393,-2.09696,-0.000418399,1.57128,0.784955,-1.5708,-0.523598,6.59996e-08,-2.0944,1.34756e-07,1.5708,0.785398,-0.00043452,0.00133249,0.000285159,0.000356719,-0.000249915,-1.64881e-05,-0.000987795,0,0,0,0,0,0,0,0.227978,-10.2408,-1.01617,22.0905,1.26009,1.33413,0.265696,0.197698,-1.06427,-0.532981,3.55629,0.541319,-0.336708,0.238375
1223476,1,-1.57098,-0.522828,0.000464393,-2.09697,-0.000416941,1.57128,0.784953,-1.5708,-0.523598,6.59996e-08,-2.0944,1.34756e-07,1.5708,0.785398,0.000359934,-0.000874911,0.000190106,-0.000319,0.000240291,-1.09921e-05,-0.00065853,0,0,0,0,0,0,0,0.200207,-10.1654,-1.01617,22.1143,1.2491,1.33413,0.265696,0.198386,-1.06482,-0.532429,3.55664,0.541315,-0.336672,0.238245
1223477,1,-1.57098,-0.522825,0.000462444,-2.09696,-0.000420058,1.57128,0.784952,-1.5708,-0.523598,6.59996e-08,-2.0944,1.34756e-07,1.5708,0.785398,-0.000409658,0.00053035,-0.000522877,0.000344146,0.000160194,-7.32804e-06,-0.00043902,0,0,0,0,0,0,0,0.227978,-10.213,-0.988401,22.0905,1.2491,1.33413,0.265696,0.198761,-1.06514,-0.532337,3.55692,0.541288,-0.336643,0.238188
1223478,1,-1.57098,-0.522828,0.000462444,-2.09697,-0.000419122,1.57128,0.784959,-1.5708,-0.523598,6.59996e-08,-2.0944,1.34756e-07,1.5708,0.785398,0.000376509,-0.000760057,-0.000348584,-0.000327382,-0.000300105,0.000232474,0.00116538,0,0,0,0,0,0,0,0.200207,-10.1654,-0.988401,22.1143,1.26009,1.32772,0.226328,0.199329,-1.0648,-0.531906,3.55693,0.541254,-0.336636,0.238217
1223479,1,-1.57098,-0.522826,0.000464393,-2.09697,-0.000419014,1.57128,0.784959,-1.5708,-0.523598,6.59996e-08,-2.0944,1.34756e-07,1.5708,0.785398,-0.000398608,5.01071e-05,0.000417224,0.000338558,-0.00040352,-8.23766e-05,0.00125164,0,0,0,0,0,0,0,0.227978,-10.1892,-1.01617,22.0905,1.26558,1.33413,0.213511,0.199885,-1.06383,-0.531464,3.55668,0.541206,-0.336652,0.238321
1223480,1,-1.57098,-0.522826,0.000464393,-2.09696,-0.000420139,1.57128,0.784957,-1.5708,-0.523598,6.59996e-08,-2.0944,1.34756e-07,1.5708,0.785398,0.000940687,3.34047e-05,0.00027815,0.000875319,0.000341338,-5.49177e-05,-0.000386277,0,0,0,0,0,0,0,0.176403,-10.1892,-1.01617,22.0627,1.2491,1.33413,0.24647,0.19985,-1.0624,-0.53188,3.55606,0.541122,-0.336717,0.238452
1223481,1,-1.57098,-0.522826,0.000462444,-2.09697,-0.000418539,1.57128,0.784952,-1.5708,-0.523598,6.59996e-08,-2.0944,1.34756e-07,1.5708,0.785398,-0.000579301,2.22698e-05,-0.000464181,-6.60679e-05,2.41081e-05,-3.66118e-05,-0.00120695,0,0,0,0,0,0,0,0.227978,-10.1892,-0.988401,22.0905,1.25459,1.33413,0.272104,0.199479,-1.06112,-0.532735,3.55524,0.541026,-0.336814,0.238567
1223482,1,-1.57098,-0.522828,0.000462444,-2.09696,-0.000417802,1.57128,0.784957,-1.5708,-0.523598,6.59996e-08,-2.0944,1.34756e-07,1.5708,0.785398,-0.000943013,-0.000541965,-0.000309454,0.000605569,1.60721e-05,-2.44079e-05,-9.2559e-05,0,0,0,0,0,0,0,0.251781,-10.1654,-0.988401,22.0627,1.25459,1.33413,0.252878,0.199832,-1.05979,-0.532543,3.55437,0.540972,-0.336905,0.238671
1223483,1,-1.57098,-0.522825,0.000464393,-2.09696,-0.000416946,1.57128,0.784959,-1.5708,-0.523598,6.59996e-08,-2.0944,1.34756e-07,1.5708,0.785398,0.000577751,0.000752314,0.000443311,0.000403712,0.000214165,-1.62719e-05,0.000413012,0,0,0,0,0,0,0,0.200207,-10.213,-1.01617,22.0627,1.2491,1.33413,0.240061,0.200678,-1.05857,-0.531697,3.55349,0.540944,-0.336991,0.238797
1223484,1,-1.57098,-0.522825,0.000462444,-2.09697,-0.000416864,1.57128,0.78496,-1.5708,-0.523598,6.59996e-08,-2.0944,1.34756e-07,1.5708,0.785398,0.000385167,0.000501542,-0.000354073,-0.000937284,0.000142777,0.000226511,0.0005127,0,0,0,0,0,0,0,0.200207,-10.213,-0.988401,22.1143,1.2491,1.32772,0.233652,0.200982,-1.05911,-0.531592,3.55355,0.540902,-0.336992,0.238959
1223485,1,-1.57098,-0.522825,0.000466063,-2.09696,-0.000416837,1.57128,0.784962,-1.5708,-0.523598,6.59996e-08,-2.0944,1.34756e-07,1.5708,0.785398,0.000256778,0.000334362,0.000970377,-6.80442e-05,9.51845e-05,0.000151007,0.00108779,0,0,0,0,0,0,0,0.200207,-10.213,-1.03998,22.0905,1.2491,1.32772,0.213511,0.200623,-1.0617,-0.532383,3.55496,0.540848,-0.336865,0.239136
1223486,1,-1.57098,-0.522826,0.000466063,-2.09696,-0.000420634,1.57128,0.784957,-1.5708,-0.523598,6.59996e-08,-2.0944,1.34756e-07,1.5708,0.785398,0.000171185,-0.000333904,0.000646918,-4.53628e-05,-0.000139994,0.000100672,-2.0795e-05,0,0,0,0,0,0,0,0.200207,-10.1892,-1.03998,22.0905,1.25459,1.32772,0.233652,0.199623,-1.06416,-0.534148,3.55648,0.540756,-0.336725,0.239294
1223487,1,-1.57098,-0.522823,0.000464393,-2.09697,-0.000422917,1.57128,0.784951,-1.5708,-0.523598,6.59996e-08,-2.0944,1.34756e-07,1.5708,0.785398,0.000114124,0.000983823,-0.000125533,-0.000587054,-0.00050023,-0.000170245,-0.00143802,0,0,0,0,0,0,0,0.200207,-10.2408,-1.01617,22.1143,1.26558,1.33413,0.272104,0.198457,-1.06614,-0.536197,3.55779,0.540648,-0.33661,0.239404
1223488,1,-1.57098,-0.522826,0.000464393,-2.09697,-0.00042205,1.57128,0.784954,-1.5708,-0.523598,6.59996e-08,-2.0944,1.34756e-07,1.5708,0.785398,0.00128251,-0.000550544,-8.36888e-05,0.000165443,7.34141e-05,-0.000113496,-0.00119604,0,0,0,0,0,0,0,0.148632,-10.1892,-1.01617,22.0905,1.25459,1.33413,0.278513,0.197574,-1.06819,-0.537732,3.55916,0.54056,-0.336494,0.23948
1223489,1,-1.57098,-0.522828,0.000460774,-2.09696,-0.000418972,1.57128,0.784962,-1.5708,-0.523598,6.59996e-08,-2.0944,1.34756e-07,1.5708,0.785398,0.000205392,-0.000923841,-0.00126222,0.00187353,4.89427e-05,-7.56643e-05,0.00161014,0,0,0,0,0,0,0,0.176403,-10.1654,-0.964597,22.0151,1.25459,1.33413,0.213511,0.197116,-1.06771,-0.538393,3.55888,0.540469,-0.336529,0.239565
1223490,1,-1.57098,-0.522824,0.000460774,-2.09697,-0.000419879,1.57128,0.784958,-1.5708,-0.523598,6.59996e-08,-2.0944,1.34756e-07,1.5708,0.785398,-0.000419884,-5.90822e-05,-0.000841479,-0.000514216,-0.000611632,0.000186916,-0.000384635,0,0,0,0,0,0,0,0.200207,-10.1892,-0.964597,22.0905,1.27199,1.32772,0.252878,0.197775,-1.06423,-0.5372,3.55662,0.540404,-0.336743,0.239675
1223491,1,-1.57098,-0.522826,0.000466063,-2.09697,-0.000418215,1.57128,0.784956,-1.5708,-0.523598,6.59996e-08,-2.0944,1.34756e-07,1.5708,0.785398,-0.000929537,-3.93881e-05,0.00120225,-0.000899623,3.30551e-05,-0.000112748,-0.000731142,0,0,0,0,0,0,0,0.227978,-10.1892,-1.03998,22.1143,1.26009,1.33413,0.265696,0.199154,-1.06147,-0.534983,3.55496,0.540413,-0.336887,0.239794
1223492,1,-1.57098,-0.522824,0.000464393,-2.09696,-0.000418711,1.57128,0.784958,-1.5708,-0.523598,6.59996e-08,-2.0944,1.34756e-07,1.5708,0.785398,2.99228e-05,0.000530553,0.000244689,0.00116349,-0.000181414,0.000162193,-1.27098e-05,0,0,0,0,0,0,0,0.200207,-10.213,-1.01617,22.0389,1.26558,1.32772,0.252878,0.200005,-1.06071,-0.533717,3.55457,0.540458,-0.336915,0.239928
1223493,1,-1.57098,-0.522828,0.000466063,-2.09697,-0.000416842,1.57128,0.784955,-1.5708,-0.523598,6.59996e-08,-2.0944,1.34756e-07,1.5708,0.785398,-0.000629665,-0.000759922,0.000719938,-0.000987578,0.000489409,0.000345488,0.000228886,0,0,0,0,0,0,0,0.227978,-10.1654,-1.03998,22.1143,1.2491,1.32131,0.24647,0.200179,-1.06047,-0.533552,3.55432,0.540499,-0.336945,0.240095
1223494,1,-1.57098,-0.522825,0.000462444,-2.09696,-0.000420636,1.57128,0.784957,-1.5708,-0.523598,6.59996e-08,-2.0944,1.34756e-07,1.5708,0.785398,0.000786649,0.000607009,-0.000726467,-0.000101574,0.000122822,-7.03366e-06,0.000898576,0,0,0,0,0,0,0,0.176403,-10.213,-0.988401,22.0905,1.25459,1.32772,0.226328,0.20014,-1.06047,-0.533687,3.55435,0.540552,-0.33695,0.240287
1223495,1,-1.57098,-0.522823,0.000460774,-2.09697,-0.000421086,1.57128,0.784958,-1.5708,-0.523598,6.59996e-08,-2.0944,1.34756e-07,1.5708,0.785398,-3.23793e-05,0.00105429,-0.00104112,-0.000624528,0.000285332,-0.000479407,0.00107377,0,0,0,0,0,0,0,0.200207,-10.2408,-0.964597,22.1143,1.2491,1.34054,0.213511,0.200461,-1.06235,-0.533119,3.55547,0.54064,-0.336871,0.240483
1223496,1,-1.57098,-0.522826,0.000460314,-2.09697,-0.000419465,1.57128,0.784956,-1.5708,-0.523598,6.59996e-08,-2.0944,1.34756e-07,1.5708,0.785398,-0.0006712,-0.000503568,-0.00013727,-0.000416352,-0.00021668,-8.22457e-05,0.000241128,0,0,0,0,0,0,0,0.227978,-10.1892,-0.988401,22.1143,1.26009,1.33413,0.226328,0.201482,-1.06569,-0.531394,3.55735,0.540765,-0.336733,0.240644
1223497,1,-1.57098,-0.522825,0.000461734,-2.09696,-0.000419128,1.57128,0.784953,-1.5708,-0.523598,6.59996e-08,-2.0944,1.34756e-07,1.5708,0.785398,0.000758959,0.0002211,-9.15135e-05,0.000279244,-0.000347904,0.000182528,-0.00177203,0,0,0,0,0,0,0,0.176403,-10.213,-0.988401,22.0905,1.26558,1.32772,0.278513,0.202535,-1.06797,-0.529621,3.55873,0.540875,-0.336638,0.24074
1223498,1,-1.57098,-0.522825,0.000462207,-2.09696,-0.000417591,1.57128,0.784959,-1.5708,-0.523598,6.59996e-08,-2.0944,1.34756e-07,1.5708,0.785398,-5.08392e-05,0.0001474,-6.1009e-05,0.000186163,0.000174965,-0.000115673,0.000242802,0,0,0,0,0,0,0,0.200207,-10.213,-0.988401,22.0905,1.25459,1.33413,0.240061,0.202927,-1.06885,-0.528757,3.55916,0.540934,-0.336636,0.24079
1223499,1,-1.57098,-0.522823,0.000464314,-2.09697,-0.000419461,1.57127,0.78496,-1.5708,-0.523598,6.59996e-08,-2.0944,1.34756e-07,1.5708,0.785398,-3.38928e-05,0.000747881,0.000608941,-0.000432703,0.000523545,-0.000551833,0.00138257,0,0,0,0,0,0,0,0.200207,-10.2408,-1.01617,22.1143,1.24361,1.34695,0.207102,0.202735,-1.06984,-0.528719,3.55949,0.540961,-0.336653,0.240837
1223500,1,-1.57098,-0.522826,0.000464367,-2.09697,-0.000419127,1.57128,0.78496,-1.5708,-0.523598,6.59996e-08,-2.0944,1.34756e-07,1.5708,0.785398,-0.000672209,-0.000707839,0.000405961,-0.000288469,-0.000261322,0.000344188,0.000446996,0,0,0,0,0,0,0,0.227978,-10.1892,-1.01617,22.1143,1.26009,1.32772,0.219919,0.202221,-1.07096,-0.529256,3.56003,0.540972,-0.336635,0.240878
1223501,1,-1.57098,-0.522828,0.000464384,-2.09697,-0.000418405,1.57128,0.78496,-1.5708,-0.523598,6.59996e-08,-2.0944,1.34756e-07,1.5708,0.785398,0.000758286,-0.0010287,0.000270641,-0.000192313,-0.000174215,0.000466818,-0.000210629,0,0,0,0,0,0,0,0.176403,-10.1654,-1.01617,22.1143,1.26009,1.32131,0.233652,0.201496,-1.07017,-0.530195,3.55986,0.540952,-0.336654,0.240874
1223502,1,-1.57098,-0.522821,0.00046439,-2.09697,-0.00042075,1.57128,0.784957,-1.5708,-0.523598,6.59996e-08,-2.0944,1.34756e-07,1.5708,0.785398,-5.12876e-05,0.00107743,0.000180427,0.000428604,8.73075e-05,0.000311212,-0.00108986,0,0,0,0,0,0,0,0.200207,-10.2408,-1.01617,22.0905,1.25459,1.32131,0.259287,0.200548,-1.06806,-0.531434,3.55899,0.540905,-0.336739,0.240811
1223503,1,-1.57098,-0.522826,0.000462443,-2.09697,-0.000422345,1.57128,0.784953,-1.5708,-0.523598,6.59996e-08,-2.0944,1.34756e-07,1.5708,0.785398,0.00052262,-0.000488136,-0.000529329,0.000285736,-0.000145246,-2.98845e-05,-0.000963929,0,0,0,0,0,0,0,0.176403,-10.1892,-0.988401,22.0905,1.26009,1.32772,0.265696,0.199742,-1.06674,-0.532383,3.55817,0.540862,-0.336859,0.240715
1223504,1,-1.57098,-0.522824,0.000462444,-2.09696,-0.000418257,1.57128,0.784954,-1.5708,-0.523598,6.59996e-08,-2.0944,1.34756e-07,1.5708,0.785398,-0.000208398,0.000231388,-0.000352886,0.000840104,0.000310071,-0.000257282,6.94575e-05,0,0,0,0,0,0,0,0.200207,-10.213,-0.988401,22.0627,1.2491,1.33413,0.24647,0.19951,-1.06548,-0.532391,3.55709,0.540837,-0.337033,0.240628
1223505,1,-1.57098,-0.522822,0.000460773,-2.09697,-0.000420497,1.57128,0.784957,-1.5708,-0.523598,6.59996e-08,-2.0944,1.34756e-07,1.5708,0.785398,-0.000138932,0.000154259,-0.000792069,-0.000646356,0.000206714,0.000540556,4.6305e-05,0,0,0,0,0,0,0,0.200207,-10.213,-0.964597,22.1143,1.2491,1.31491,0.24647,0.199997,-1.06438,-0.531276,3.55602,0.540842,-0.337218,0.240578
1223506,1,-1.57098,-0.522826,0.000466063,-2.09697,-0.000420591,1.57128,0.78496,-1.5708,-0.523598,6.59996e-08,-2.0944,1.34756e-07,1.5708,0.785398,0.00046419,-0.000453973,0.00123519,0.000125908,-0.000709901,-0.000351706,0.000776855,0,0,0,0,0,0,0,0.176403,-10.1892,-1.03998,22.0905,1.27199,1.33413,0.226328,0.20047,-1.06393,-0.530174,3.55554,0.540853,-0.337351,0.240573
1223507,1,-1.57098,-0.522824,0.000466063,-2.09697,-0.000418452,1.57128,0.784954,-1.5708,-0.523598,6.59996e-08,-2.0944,1.34756e-07,1.5708,0.785398,-0.000247352,0.000254163,0.000823461,8.39385e-05,-3.24581e-05,-0.000234471,-0.0007028,0,0,0,0,0,0,0,0.200207,-10.213,-1.03998,22.0905,1.26009,1.33413,0.259287,0.199881,-1.06343,-0.530713,3.55529,0.54082,-0.337463,0.240602
1223508,1,-1.57098,-0.52283,0.000464393,-2.09697,-0.00041818,1.57128,0.784956,-1.5708,-0.523598,6.59996e-08,-2.0944,1.34756e-07,1.5708,0.785398,0.000391911,-0.0015938,-7.83791e-06,-0.000500853,-2.16387e-05,-0.000393673,-0.000468533,0,0,0,0,0,0,0,0.176403,-10.1377,-1.01617,22.1143,1.26009,1.34054,0.259287,0.198654,-1.06215,-0.53227,3.55485,0.540766,-0.337578,0.240646
1223509,1,-1.57098,-0.522825,0.000464393,-2.09697,-0.000416868,1.57128,0.784955,-1.5708,-0.523598,6.59996e-08,-2.0944,1.34756e-07,1.5708,0.785398,-0.000295538,0.000700707,-5.22528e-06,-0.000333902,0.000392475,-0.000262449,0.000162362,0,0,0,0,0,0,0,0.200207,-10.213,-1.01617,22.1143,1.2491,1.34054,0.24647,0.197735,-1.06034,-0.533372,3.55445,0.540745,-0.337653,0.240707
1223510,1,-1.57098,-0.522824,0.000462444,-2.09697,-0.000420034,1.57128,0.784958,-1.5708,-0.523598,6.59996e-08,-2.0944,1.34756e-07,1.5708,0.785398,-0.000846639,-8.96737e-05,-0.000653097,0.000334211,0.00026165,6.23932e-05,0.00132894,0,0,0,0,0,0,0,0.227978,-10.1892,-0.988401,22.0905,1.2491,1.33413,0.213511,0.19775,-1.05968,-0.533121,3.55459,0.540783,-0.337668,0.240795
1223511,1,-1.57098,-0.522827,0.000464393,-2.09697,-0.000419724,1.57128,0.784958,-1.5708,-0.523598,6.59996e-08,-2.0944,1.34756e-07,1.5708,0.785398,8.51877e-05,-0.000616594,0.000214216,-0.000890817,-0.000435918,0.000278954,-9.7381e-05,0,0,0,0,0,0,0,0.200207,-10.1654,-1.01617,22.1381,1.26558,1.32772,0.240061,0.198609,-1.05973,-0.531698,3.55498,0.540858,-0.337655,0.240889
1223512,1,-1.57098,-0.522828,0.000464393,-2.09696,-0.000420376,1.57128,0.784953,-1.5708,-0.523598,6.59996e-08,-2.0944,1.34756e-07,1.5708,0.785398,5.67918e-05,-0.000411063,0.00014281,0.000519746,0.000319739,0.00018597,-0.00101436,0,0,0,0,0,0,0,0.200207,-10.1654,-1.01617,22.0905,1.2491,1.32772,0.265696,0.199311,-1.05901,-0.530547,3.55508,0.540915,-0.337653,0.240963
1223513,1,-1.57098,-0.522826,0.000462444,-2.09696,-0.000419228,1.57128,0.784951,-1.5708,-0.523598,6.59996e-08,-2.0944,1.34756e-07,1.5708,0.785398,-0.00116856,-0.000274042,-0.000554407,0.000996111,-0.000193741,-0.000350738,-0.00115096,0,0,0,0,0,0,0,0.251781,-10.1654,-0.988401,22.0627,1.26009,1.34054,0.278513,0.199957,-1.05726,-0.529543,3.5544,0.540948,-0.337729,0.241017
1223514,1,-1.57098,-0.522824,0.000464393,-2.09697,-0.000422245,1.57128,0.784957,-1.5708,-0.523598,6.59996e-08,-2.0944,1.34756e-07,1.5708,0.785398,-0.000222231,0.000930929,0.000280009,-0.00109916,-0.000332611,0.000240892,0.00140284,0,0,0,0,0,0,0,0.227978,-10.213,-1.01617,22.1381,1.26558,1.32772,0.219919,0.201096,-1.05623,-0.527956,3.55381,0.540998,-0.337813,0.241092
1223515,1,-1.57098,-0.52282,0.000466063,-2.09696,-0.000419241,1.57128,0.78496,-1.5708,-0.523598,6.59996e-08,-2.0944,1.34756e-07,1.5708,0.785398,0.00050146,0.00127023,0.000743485,0.00158727,-1.82904e-05,0.000160595,0.000935223,0,0,0,0,0,0,0,0.200207,-10.2408,-1.03998,22.0389,1.26009,1.32772,0.219919,0.201785,-1.05811,-0.527145,3.55456,0.541046,-0.337801,0.241211
1223516,1,-1.57098,-0.52282,0.000464393,-2.09696,-0.000417222,1.57128,0.784962,-1.5708,-0.523598,6.59996e-08,-2.0944,1.34756e-07,1.5708,0.785398,-0.000315307,0.000846822,-6.11554e-05,0.000501371,0.000394707,-0.000130296,0.000860841,0,0,0,0,0,0,0,0.227978,-10.2408,-1.01617,22.0627,1.2491,1.33413,0.213511,0.201592,-1.06184,-0.527687,3.55574,0.541057,-0.33779,0.241338
1223517,1,-1.57098,-0.52282,0.000462444,-2.09697,-0.000416956,1.57128,0.784958,-1.5708,-0.523598,6.59996e-08,-2.0944,1.34756e-07,1.5708,0.785398,0.000439409,0.00112136,-0.000690384,-0.00142899,0.000263138,-0.000324223,-0.000646809,0,0,0,0,0,0,0,0.200207,-10.2646,-0.988401,22.1381,1.2491,1.34054,0.24647,0.201462,-1.06669,-0.528152,3.55744,0.541081,-0.337726,0.241418
1223518,1,-1.57098,-0.522824,0.000466063,-2.09697,-0.000416867,1.57128,0.784955,-1.5708,-0.523598,6.59996e-08,-2.0944,1.34756e-07,1.5708,0.785398,-0.000356675,-0.00101566,0.00074617,-0.000395849,0.000175426,0.000258569,-0.001618,0,0,0,0,0,0,0,0.227978,-10.1892,-1.03998,22.1143,1.2491,1.32772,0.278513,0.201574,-1.07165,-0.528289,3.55993,0.541136,-0.33753,0.241435
1223519,1,-1.57098,-0.522827,0.000466063,-2.09697,-0.000416227,1.57128,0.784955,-1.5708,-0.523598,6.59996e-08,-2.0944,1.34756e-07,1.5708,0.785398,0.000968643,-0.00123392,0.000497446,0.000292913,0.000320401,0.00017238,0.000108128,0,0,0,0,0,0,0,0.176403,-10.1654,-1.03998,22.0905,1.24361,1.32772,0.24647,0.201138,-1.07288,-0.529316,3.56105,0.541134,-0.3374,0.241426
1223520,1,-1.57098,-0.522824,0.000466063,-2.09696,-0.000418659,1.57128,0.78496,-1.5708,-0.523598,6.59996e-08,-2.0944,1.34756e-07,1.5708,0.785398,8.89499e-05,0.00029101,0.000331631,0.0014017,-0.000600202,0.00011492,0.00081807,0,0,0,0,0,0,0,0.200207,-10.213,-1.03998,22.0389,1.26558,1.32772,0.226328,0.200014,-1.07003,-0.531387,3.55985,0.541031,-0.337475,0.241437
1223521,1,-1.57098,-0.522824,0.000464393,-2.09696,-0.000418045,1.57128,0.78496,-1.5708,-0.523598,6.59996e-08,-2.0944,1.34756e-07,1.5708,0.785398,0.000616112,0.000194006,-0.000335725,-0.000271958,-0.000196684,-0.000160746,0.00054538,0,0,0,0,0,0,0,0.176403,-10.213,-1.01617,22.0905,1.26009,1.33413,0.226328,0.198947,-1.0668,-0.53334,3.55793,0.540893,-0.337646,0.241471
1223522,1,-1.57098,-0.522826,0.000464393,-2.09696,-0.000418044,1.57128,0.784955,-1.5708,-0.523598,6.59996e-08,-2.0944,1.34756e-07,1.5708,0.785398,-0.000146071,-0.000427474,-0.000223816,-0.000181306,-0.000131123,-0.000107164,-0.000619757,0,0,0,0,0,0,0,0.200207,-10.1892,-1.01617,22.0905,1.26009,1.33413,0.252878,0.198494,-1.06484,-0.534338,3.55666,0.540796,-0.337763,0.241497
1223523,1,-1.57098,-0.522824,0.000462262,-2.09697,-0.000418044,1.57128,0.784954,-1.5708,-0.523598,6.59996e-08,-2.0944,1.34756e-07,1.5708,0.785398,-9.73805e-05,-0.000284983,-0.000149211,-0.00123449,-8.7415e-05,-7.14426e-05,-0.000175813,0,0,0,0,0,0,0,0.200207,-10.1892,-1.01617,22.1381,1.26009,1.33413,0.24647,0.198696,-1.06367,-0.53436,3.55627,0.540767,-0.337769,0.241501
1223524,1,-1.57098,-0.522823,0.000461734,-2.09697,-0.000418044,1.57128,0.784952,-1.5708,-0.523598,6.59996e-08,-2.0944,1.34756e-07,1.5708,0.785398,-6.49203e-05,-0.000189989,0.00566044,-0.000266184,-5.82767e-05,-4.76284e-05,-0.000829285,0,0,0,0,0,0,0,0.200207,-10.1892,-0.988401,22.1143,1.26009,1.33413,0.265696,0.197687,-1.06309,-0.536418,3.5567,0.540721,-0.337681,0.241509
1223525,1,-1.57098,-0.522825,0.000462207,-2.09697,-0.000417433,1.57128,0.78496,-1.5708,-0.523598,6.59996e-08,-2.0944,1.34756e-07,1.5708,0.785398,-0.000692894,-0.000126659,0.00430775,0.000379356,0.000164599,-3.17523e-05,0.00114256,0,0,0,0,0,0,0,0.227978,-10.1892,-0.988401,22.0905,1.25459,1.33413,0.219919,0.193335,-1.06257,-0.543938,3.55725,0.540537,-0.337594,0.241555
1223526,1,-1.57098,-0.522822,0.000462365,-2.09697,-0.000417433,1.57128,0.784959,-1.5708,-0.523598,6.59996e-08,-2.0944,1.34756e-07,1.5708,0.785398,0.000744496,0.000472373,0.00327243,-0.000303908,0.000109733,-0.000258527,0.000999068,0,0,0,0,0,0,0,0.176403,-10.213,-0.988401,22.1143,1.25459,1.34054,0.213511,0.186867,-1.06218,-0.554841,3.55761,0.540255,-0.337552,0.241634
1223527,1,-1.57098,-0.522827,0.000466037,-2.09697,-0.000416823,1.57128,0.784961,-1.5708,-0.523598,6.59996e-08,-2.0944,1.34756e-07,1.5708,0.785398,0.000496331,-0.000798709,0.00368849,-0.000202605,0.000276606,6.50075e-05,0.000666046,0,0,0,0,0,0,0,0.176403,-10.1654,-1.03998,22.1143,1.2491,1.33413,0.213511,0.180111,-1.0621,-0.565943,3.55804,0.539958,-0.337506,0.241702
1223528,1,-1.57098,-0.522822,0.000466055,-2.09697,-0.000416823,1.57128,0.784956,-1.5708,-0.523598,6.59996e-08,-2.0944,1.34756e-07,1.5708,0.785398,0.000330887,0.000581151,0.00268433,0.000421742,0.000184404,4.33384e-05,-0.00148875,0,0,0,0,0,0,0,0.176403,-10.213,-1.03998,22.0905,1.2491,1.33413,0.265696,0.173846,-1.06173,-0.575965,3.55826,0.539675,-0.337473,0.241713
1223529,1,-1.57098,-0.522825,0.00046439,-2.09697,-0.000418654,1.57128,0.784956,-1.5708,-0.523598,6.59996e-08,-2.0944,1.34756e-07,1.5708,0.785398,0.000220592,-0.000169378,0.00140174,0.000281161,-0.000487416,0.00050361,-0.0009925,0,0,0,0,0,0,0,0.176403,-10.1892,-1.01617,22.0905,1.26558,1.32131,0.265696,0.169274,-1.0614,-0.583125,3.55817,0.539457,-0.337478,0.241662
1223530,1,-1.57098,-0.522826,0.000466062,-2.09697,-0.000418044,1.57128,0.784959,-1.5708,-0.523598,6.59996e-08,-2.0944,1.34756e-07,1.5708,0.785398,-0.000409751,-0.000112918,0.00161806,-0.000926183,-0.000121493,0.00033574,0.00127111,0,0,0,0,0,0,0,0.200207,-10.1892,-1.03998,22.1381,1.26009,1.32131,0.213511,0.167153,-1.06138,-0.586347,3.55814,0.539353,-0.337484,0.241591
1223531,1,-1.57098,-0.522824,0.000462444,-2.09696,-0.00042124,1.57128,0.784962,-1.5708,-0.523598,6.59996e-08,-2.0944,1.34756e-07,1.5708,0.785398,0.000283645,0.000481533,-3.26575e-05,0.000496168,-8.09955e-05,-1.35322e-05,0.00108477,0,0,0,0,0,0,0,0.176403,-10.213,-0.988401,22.0905,1.26009,1.32772,0.207102,0.167411,-1.06189,-0.585795,3.55853,0.539373,-0.33746,0.241525
1223532,1,-1.57098,-0.522828,0.000464393,-2.09697,-0.000417888,1.57128,0.784962,-1.5708,-0.523598,6.59996e-08,-2.0944,1.34756e-07,1.5708,0.785398,-0.000367716,-0.000792602,0.00069914,-0.000782845,0.000352904,-0.000483739,0.00048582,0,0,0,0,0,0,0,0.200207,-10.1654,-1.01617,22.1381,1.2491,1.34054,0.213511,0.169613,-1.06256,-0.582113,3.55904,0.539492,-0.337436,0.241434
1223533,1,-1.57098,-0.522828,0.000462444,-2.09696,-0.000419009,1.57128,0.784956,-1.5708,-0.523598,6.59996e-08,-2.0944,1.34756e-07,1.5708,0.785398,0.000311668,-0.000528401,-0.000130048,0.00124134,-0.000375082,-8.5134e-05,-0.0016089,0,0,0,0,0,0,0,0.176403,-10.1654,-0.988401,22.0627,1.26558,1.33413,0.265696,0.173006,-1.06175,-0.576474,3.55882,0.539658,-0.337475,0.241279
1223534,1,-1.57098,-0.522828,0.000464393,-2.09697,-0.000416941,1.57128,0.784956,-1.5708,-0.523598,6.59996e-08,-2.0944,1.34756e-07,1.5708,0.785398,0.000207779,-0.000352268,0.00060302,0.000177947,0.000360297,0.000417962,-0.0010726,0,0,0,0,0,0,0,0.176403,-10.1654,-1.01617,22.0905,1.2491,1.32131,0.265696,0.176744,-1.05915,-0.57016,3.55743,0.539823,-0.337623,0.241075
1223535,1,-1.57098,-0.522826,0.000464393,-2.09697,-0.000417473,1.57128,0.784959,-1.5708,-0.523598,6.59996e-08,-2.0944,1.34756e-07,1.5708,0.785398,0.000138519,0.000321967,0.000432092,-0.0015518,3.67473e-05,-0.000196077,0.000234369,0,0,0,0,0,0,0,0.176403,-10.1892,-1.01617,22.1619,1.25459,1.33413,0.240061,0.180191,-1.05725,-0.564171,3.55651,0.53999,-0.337732,0.24088
1223536,1,-1.57098,-0.522825,0.000467734,-2.09697,-0.000417447,1.57128,0.784955,-1.5708,-0.523598,6.59996e-08,-2.0944,1.34756e-07,1.5708,0.785398,-0.00111408,0.000771457,0.00142424,-0.00103454,2.44982e-05,0.000106641,-8.11129e-05,0,0,0,0,0,0,0,0.227978,-10.213,-1.06378,22.1619,1.25459,1.32772,0.24647,0.183195,-1.0586,-0.558932,3.5579,0.540183,-0.337628,0.240738
1223537,1,-1.57098,-0.522828,0.000462444,-2.09697,-0.000418658,1.57128,0.784961,-1.5708,-0.523598,6.59996e-08,-2.0944,1.34756e-07,1.5708,0.785398,-9.31059e-05,-0.00059932,-0.000796823,0.00163036,-0.000390569,-0.000403624,0.00116663,0,0,0,0,0,0,0,0.200207,-10.1654,-0.988401,22.0627,1.26558,1.34054,0.213511,0.186238,-1.06118,-0.553825,3.55997,0.540384,-0.337482,0.240644
1223538,1,-1.57098,-0.522826,0.000466063,-2.09697,-0.000420631,1.57128,0.784957,-1.5708,-0.523598,6.59996e-08,-2.0944,1.34756e-07,1.5708,0.785398,-0.000711685,0.000157266,0.0006879,0.00108691,0.000146522,0.000442994,0.000303034,0,0,0,0,0,0,0,0.227978,-10.1892,-1.03998,22.0627,1.25459,1.32131,0.226328,0.189628,-1.06141,-0.548308,3.56006,0.540549,-0.337551,0.240568
1223539,1,-1.57098,-0.52283,0.000464393,-2.09697,-0.00041972,1.57128,0.784956,-1.5708,-0.523598,6.59996e-08,-2.0944,1.34756e-07,1.5708,0.785398,0.000175158,-0.00110158,-8.86947e-05,-0.000481822,-0.00030922,-0.000179388,-6.92447e-05,0,0,0,0,0,0,0,0.200207,-10.1377,-1.01617,22.1143,1.26558,1.33413,0.233652,0.192849,-1.05944,-0.543139,3.55866,0.540677,-0.337762,0.240481
1223540,1,-1.57098,-0.522825,0.000462444,-2.09697,-0.000420984,1.57128,0.784954,-1.5708,-0.523598,6.59996e-08,-2.0944,1.34756e-07,1.5708,0.785398,-0.000532842,0.00102885,-0.000701606,0.000235597,0.000200754,-0.000356951,-0.00147032,0,0,0,0,0,0,0,0.227978,-10.213,-0.988401,22.0905,1.25459,1.34054,0.272104,0.195861,-1.05763,-0.538367,3.55763,0.540813,-0.337916,0.240369
1223541,1,-1.57098,-0.522825,0.000464393,-2.09697,-0.000418007,1.57128,0.784954,-1.5708,-0.523598,6.59996e-08,-2.0944,1.34756e-07,1.5708,0.785398,0.000851198,0.0006859,0.00018723,0.000157065,0.000337287,0.00023675,-0.000268134,0,0,0,0,0,0,0,0.176403,-10.213,-1.01617,22.0905,1.2491,1.32772,0.252878,0.198689,-1.05807,-0.533872,3.55781,0.540969,-0.337957,0.240256
1223542,1,-1.57098,-0.522826,0.000464393,-2.09697,-0.000420413,1.57128,0.78496,-1.5708,-0.523598,6.59996e-08,-2.0944,1.34756e-07,1.5708,0.785398,0.000567465,-9.95454e-05,0.000128835,0.00010471,0.000224858,-7.95253e-05,0.000804588,0,0,0,0,0,0,0,0.176403,-10.1892,-1.01617,22.0905,1.2491,1.33413,0.226328,0.200511,-1.06001,-0.530822,3.55866,0.541086,-0.337939,0.240184
1223543,1,-1.57098,-0.522826,0.000459103,-2.09696,-0.000419851,1.57128,0.784961,-1.5708,-0.523598,6.59996e-08,-2.0944,1.34756e-07,1.5708,0.785398,-0.000178502,-6.63636e-05,-0.00167434,6.98066e-05,-0.000460446,0.000184342,0.000773751,0,0,0,0,0,0,0,0.200207,-10.1892,-0.940793,22.0905,1.26558,1.32772,0.219919,0.201901,-1.06131,-0.528345,3.55928,0.541167,-0.337923,0.240152
1223544,1,-1.57098,-0.522824,0.000462444,-2.09697,-0.000417222,1.57128,0.784962,-1.5708,-0.523598,6.59996e-08,-2.0944,1.34756e-07,1.5708,0.785398,0.000437811,-4.42424e-05,-3.42057e-07,-0.00106709,0.000303387,-0.000114464,0.000753193,0,0,0,0,0,0,0,0.176403,-10.1892,-0.988401,22.1381,1.2491,1.33413,0.213511,0.203747,-1.06208,-0.525125,3.55989,0.541265,-0.33788,0.240123
1223545,1,-1.57098,-0.522826,0.000464393,-2.09697,-0.000420152,1.57128,0.78496,-1.5708,-0.523598,6.59996e-08,-2.0944,1.34756e-07,1.5708,0.785398,0.000291874,-2.94949e-05,0.00065108,-0.000154579,0.000202258,0.000161049,-0.000243857,0,0,0,0,0,0,0,0.176403,-10.1892,-1.01617,22.1143,1.2491,1.32772,0.233652,0.204984,-1.06298,-0.522774,3.56098,0.541344,-0.337772,0.24007
1223546,1,-1.57098,-0.522826,0.000464393,-2.09697,-0.000422349,1.57128,0.784955,-1.5708,-0.523598,6.59996e-08,-2.0944,1.34756e-07,1.5708,0.785398,-0.000362229,-1.96633e-05,0.000435324,-0.000103053,-0.000272062,-0.000129993,-0.000637289,0,0,0,0,0,0,0,0.200207,-10.1892,-1.01617,22.1143,1.26009,1.33413,0.24647,0.205064,-1.06366,-0.52219,3.56207,0.541366,-0.337663,0.239978
1223547,1,-1.57098,-0.522822,0.000466063,-2.09697,-0.000422675,1.57128,0.784957,-1.5708,-0.523598,6.59996e-08,-2.0944,1.34756e-07,1.5708,0.785398,0.000315326,0.000543703,0.00084798,0.00048811,-0.000181375,0.000388056,0.000558485,0,0,0,0,0,0,0,0.176403,-10.213,-1.03998,22.0905,1.26009,1.32131,0.219919,0.204484,-1.06408,-0.522676,3.56278,0.541341,-0.337612,0.239859
1223548,1,-1.57098,-0.522824,0.000464393,-2.09697,-0.000421563,1.57127,0.784959,-1.5708,-0.523598,6.59996e-08,-2.0944,1.34756e-07,1.5708,0.785398,-0.000346595,0.000362469,9.22291e-06,-0.000231405,0.000285985,-0.000690732,0.000134964,0,0,0,0,0,0,0,0.200207,-10.213,-1.01617,22.1143,1.2491,1.34695,0.226328,0.203618,-1.06489,-0.523643,3.56339,0.541296,-0.337597,0.239727
1223549,1,-1.57098,-0.522826,0.000464393,-2.09696,-0.000419624,1.57128,0.784957,-1.5708,-0.523597,2.566e-06,-2.0944,1.62954e-06,1.5708,0.785397,0.000325749,-0.000315166,6.68455e-06,0.00105216,-0.000216245,0.000251589,-0.000893368,-0.00325272,0.001875,0.0025,-0.003125,0.00149478,0.005,-0.0012878,0.176403,-10.1892,-1.01617,22.0627,1.26009,1.32772,0.252878,0.202967,-1.06539,-0.524293,3.56362,0.541252,-0.337621,0.239575
1223550,1,-1.57098,-0.522828,0.000464393,-2.09697,-0.000418613,1.57128,0.784956,-1.57081,-0.523593,7.566e-06,-2.0944,4.61911e-06,1.57081,0.785394,-0.00098926,-0.000766923,4.85832e-06,-0.0010618,0.000906998,-6.96329e-05,-0.000120861,-0.00650544,0.00375,0.005,-0.00625,0.00298957,0.01,-0.00257561,0.227978,-10.1654,-1.01617,22.1381,1.23171,1.33413,0.240061,0.202818,-1.06429,-0.524232,3.56304,0.541217,-0.337696,0.239404
1223551,1,-1.57098,-0.522824,0.000462444,-2.09697,-0.000418674,1.57128,0.784954,-1.57082,-0.523587,1.5066e-05,-2.09441,9.10346e-06,1.57083,0.78539,-9.89277e-06,4.55301e-05,-0.000646074,-0.000151055,-0.000243045,0.000190937,-0.00150473,-0.00975816,0.005625,0.0075,-0.009375,0.00448435,0.015,-0.00386341,0.200207,-10.1892,-0.988401,22.1143,1.25459,1.32772,0.278513,0.203335,-1.06244,-0.523265,3.56245,0.541209,-0.337736,0.239239
1223552,1,-1.57098,-0.522827,0.000462904,-2.09696,-0.000419068,1.57128,0.784951,-1.57083,-0.52358,2.5066e-05,-2.09443,1.50826e-05,1.57085,0.785385,-6.59518e-06,0.00157471,-0.000987302,-0.00197223,-0.000568931,-0.000110068,-0.00100315,-0.0130109,0.0075,0.01,-0.0125,0.00597914,0.02,-0.00515121,0.200207,-9.98691,-0.964597,21.9159,1.26558,1.33413,0.278513,0.204526,-1.06302,-0.521285,3.5635,0.541249,-0.337621,0.239116
1223553,1,-1.57098,-0.52283,0.000462767,-2.09696,-0.000416961,1.57128,0.784958,-1.57085,-0.52357,3.7566e-05,-2.09444,2.25565e-05,1.57087,0.785379,-0.00103043,0.000349628,0.000131296,-0.00164383,0.000231064,-0.000785455,0.00173873,-0.0162636,0.009375,0.0125,-0.015625,0.00747392,0.025,-0.00643902,0.124828,-9.53067,-0.861447,21.5152,1.2491,1.35336,0.213511,0.206104,-1.06758,-0.518729,3.56702,0.541342,-0.337276,0.239077
1223554,1,-1.57098,-0.522829,0.000464748,-2.09696,-0.000417479,1.57128,0.784958,-1.57086,-0.523559,5.2566e-05,-2.09446,3.15252e-05,1.5709,0.785371,0.000843843,0.000496817,0.000516727,-0.00123308,-4.94078e-05,-0.00123571,0.00139651,-0.0195163,0.01125,0.015,-0.01875,0.0089687,0.03,-0.00772682,0.0494498,-8.95145,-0.734494,21.0709,1.25459,1.37258,0.207102,0.207133,-1.07317,-0.516945,3.57132,0.541427,-0.336789,0.239129
1223555,1,-1.57099,-0.522816,0.00047161,-2.09696,-0.000417449,1.57128,0.784955,-1.57089,-0.523546,7.0066e-05,-2.09448,4.19887e-05,1.57094,0.785362,-0.00250936,0.00299426,0.00223317,-0.00014385,-3.29385e-05,-0.00177324,-0.000289695,-0.022769,0.013125,0.0175,-0.021875,0.0104635,0.035,-0.00901462,0.0494498,-8.44363,-0.659116,20.571,1.25459,1.39822,0.240061,0.206799,-1.07821,-0.516897,3.57455,0.541447,-0.33625,0.239213
1223556,1,-1.571,-0.522798,0.000480842,-2.09697,-0.000418659,1.57128,0.784954,-1.57091,-0.523531,9.0066e-05,-2.09451,5.3947e-05,1.57098,0.785352,-0.00446084,0.00641086,0.00427077,-0.0013388,-0.00042886,-0.00141952,-0.000430489,-0.0260218,0.015,0.02,-0.025,0.0119583,0.04,-0.0103024,0.0256461,-7.99136,-0.611508,20.1267,1.26558,1.40463,0.24647,0.205502,-1.08645,-0.518032,3.57752,0.541467,-0.335509,0.239285
1223557,1,-1.57101,-0.522776,0.000487805,-2.09697,-0.000418656,1.57128,0.78495,-1.57094,-0.523514,0.000112566,-2.09454,6.74e-05,1.57102,0.78534,-0.00506466,0.0114925,0.00237326,0.00153619,-0.000285907,-0.00189578,-0.00147379,-0.0292745,0.016875,0.0225,-0.028125,0.0134531,0.045,-0.0115902,-0.0259286,-7.63828,-0.559934,19.6546,1.26558,1.43026,0.278513,0.204325,-1.10322,-0.518573,3.58166,0.541595,-0.334359,0.239348
1223558,1,-1.57102,-0.522754,0.000498366,-2.09698,-0.000418044,1.57128,0.784951,-1.57098,-0.523495,0.000137566,-2.09457,8.23479e-05,1.57107,0.785327,-0.00750675,0.0151632,0.00732442,-0.0014952,1.2846e-05,-0.00150121,0.00020427,-0.0325272,0.01875,0.025,-0.03125,0.0149478,0.05,-0.012878,-0.00212494,-7.28122,-0.508359,19.2539,1.26009,1.43667,0.24647,0.203496,-1.13218,-0.517783,3.5878,0.541888,-0.332628,0.23944
1223559,1,-1.57103,-0.522731,0.000509944,-2.09699,-0.000418002,1.57129,0.784952,-1.57101,-0.523474,0.000166956,-2.0946,9.96762e-05,1.57113,0.785312,-0.00695216,0.0153342,0.00849169,-0.00286017,-0.0010426,0.00416719,0.00111952,-0.0381573,0.0218234,0.0293902,-0.0375,0.0173283,0.0598248,-0.0149077,-0.0775034,-6.9559,-0.484555,18.9563,1.28847,1.42385,0.219919,0.201231,-1.17199,-0.518207,3.5958,0.542309,-0.33019,0.239604
1223560,1,-1.57104,-0.522718,0.000527144,-2.09701,-0.000418869,1.5713,0.784954,-1.57106,-0.523449,0.000200737,-2.09465,0.000119385,1.5712,0.785295,-0.00709041,0.0129634,0.00986001,-0.00956058,-0.00133932,0.00726587,0.00122107,-0.0437874,0.0248967,0.0337804,-0.04375,0.0197087,0.0696497,-0.0169374,-0.125111,-6.52347,-0.484555,18.7818,1.30586,1.44308,0.207102,0.195912,-1.21461,-0.521941,3.60358,0.542818,-0.327061,0.239825
1223561,1,-1.57105,-0.522701,0.00053991,-2.09702,-0.000419124,1.5713,0.784944,-1.57111,-0.523421,0.000238907,-2.0947,0.000141474,1.57128,0.785276,-0.00860167,0.0130992,0.00963604,-0.00711253,-0.00109633,0.00804454,-0.00111874,-0.0494175,0.0279701,0.0381706,-0.05,0.0220892,0.0794745,-0.0189671,-0.125111,-6.17038,-0.432981,18.4327,1.31136,1.50167,0.259287,0.188084,-1.25021,-0.527756,3.60756,0.543441,-0.323411,0.240037
1223562,1,-1.57106,-0.522687,0.000557308,-2.09703,-0.000419006,1.57131,0.784945,-1.57116,-0.52339,0.000281468,-2.09475,0.000165944,1.57137,0.785255,-0.00885019,0.0139685,0.0144487,-0.0132813,-0.000730889,0.00621755,-0.000271106,-0.0550476,0.0310435,0.0425608,-0.05625,0.0244696,0.0892993,-0.0209969,-0.279835,-5.71414,-0.329831,18.1629,1.31136,1.62985,0.24647,0.178098,-1.27437,-0.535078,3.60556,0.544185,-0.319323,0.240211
1223563,1,-1.57109,-0.52267,0.000583485,-2.09705,-0.000418966,1.57131,0.784939,-1.57122,-0.523355,0.000328419,-2.09482,0.000192794,1.57147,0.785232,-0.015386,0.0143175,0.0196468,-0.0163872,-0.000487259,0.00997365,-0.000892814,-0.0606777,0.0341169,0.046951,-0.0625,0.0268501,0.0991242,-0.0230266,-0.303639,-5.10715,-0.282224,17.6908,1.31136,1.75253,0.265696,0.164967,-1.28899,-0.545934,3.59921,0.545051,-0.314491,0.24038
1223564,1,-1.57111,-0.522647,0.000611652,-2.09707,-0.000413825,1.57132,0.784944,-1.57129,-0.523318,0.00037976,-2.09489,0.000222024,1.57158,0.785207,-0.018093,0.0169398,0.0226008,-0.0229421,0.00031942,0.00888831,0.00157493,-0.0663078,0.0371902,0.0513412,-0.06875,0.0292305,0.108949,-0.0250563,-0.402821,-4.45255,-0.179074,17.1155,1.29396,1.86148,0.207102,0.149004,-1.29825,-0.56056,3.59162,0.546131,-0.308407,0.240581
1223565,1,-1.57115,-0.522621,0.000647992,-2.0971,-0.000407728,1.57134,0.784939,-1.57136,-0.523278,0.000435491,-2.09496,0.000253635,1.5717,0.78518,-0.0226383,0.0192912,0.0280593,-0.023871,0.000823298,0.0144809,0.000337876,-0.0719379,0.0402636,0.0557314,-0.075,0.031611,0.118774,-0.027086,-0.402821,-3.79398,-0.103696,16.4966,1.27748,1.92648,0.226328,0.131055,-1.30606,-0.577772,3.58436,0.547481,-0.300703,0.240814
1223566,1,-1.57118,-0.522583,0.000690207,-2.09714,-0.000403153,1.57136,0.784936,-1.57144,-0.523235,0.000495613,-2.09504,0.000287627,1.57183,0.785151,-0.027026,0.0242282,0.0330466,-0.0305825,0.00160003,0.0188466,0.000937328,-0.077568,0.043337,0.0601216,-0.08125,0.0339914,0.128599,-0.0291157,-0.478199,-3.26236,-0.0521213,15.9729,1.2491,1.98416,0.207102,0.110977,-1.31596,-0.597633,3.57775,0.549065,-0.291196,0.241052
1223567,1,-1.57123,-0.522539,0.000726863,-2.09719,-0.000391913,1.5714,0.784928,-1.57152,-0.523188,0.000560125,-2.09513,0.000323999,1.57196,0.78512,-0.0350319,0.0297707,0.034185,-0.0326741,0.00720426,0.0279429,-0.000595818,-0.0831981,0.0464104,0.0645117,-0.0875,0.0363719,0.138423,-0.0311454,-0.478199,-2.81009,0.0986355,15.4532,1.20973,2.00979,0.240061,0.0906028,-1.33309,-0.617381,3.5728,0.550925,-0.279736,0.241251
1223568,1,-1.57128,-0.522497,0.000782629,-2.09724,-0.000385675,1.57145,0.784926,-1.57161,-0.523139,0.000629027,-2.09522,0.000362751,1.57211,0.785087,-0.0409294,0.0310738,0.0427372,-0.0368386,0.00910091,0.0322255,0.000586132,-0.0888282,0.0494837,0.0689019,-0.09375,0.0387523,0.148248,-0.0331751,-0.478199,-2.37766,0.0748318,15.0525,1.23171,1.97134,0.213511,0.0722206,-1.35792,-0.633686,3.56821,0.553045,-0.266408,0.241379
1223569,1,-1.57134,-0.522456,0.000835209,-2.09729,-0.000380153,1.57152,0.784919,-1.57171,-0.523086,0.000703673,-2.09533,0.000404423,1.57227,0.785051,-0.0444454,0.034882,0.04462,-0.044945,0.00549863,0.0478559,-0.00460036,-0.0961242,0.0528777,0.0746464,-0.103125,0.0416723,0.161023,-0.0356223,-0.50597,-1.94919,0.0986355,14.7312,1.26558,1.84866,0.207102,0.0551054,-1.38625,-0.647546,3.5617,0.555303,-0.251449,0.241447
1223570,1,-1.5714,-0.522425,0.000895443,-2.09736,-0.000375753,1.5716,0.784908,-1.57181,-0.52303,0.000784064,-2.09544,0.000449015,1.57245,0.785013,-0.0494026,0.0328448,0.0498861,-0.0540247,0.00722164,0.0573808,-0.00519804,-0.10342,0.0562716,0.0803908,-0.1125,0.0445923,0.173798,-0.0380696,-0.557545,-1.44534,0.0748318,14.5566,1.31136,1.77175,0.252878,0.0382941,-1.41422,-0.659969,3.55314,0.557716,-0.235046,0.241462
1223571,1,-1.57146,-0.522392,0.000959523,-2.09742,-0.000368742,1.57169,0.78489,-1.57192,-0.52297,0.000870199,-2.09556,0.000496528,1.57263,0.784973,-0.0516856,0.032555,0.0541445,-0.0588914,0.00947853,0.0664709,-0.00592837,-0.110716,0.0596655,0.0861352,-0.121875,0.0475122,0.186573,-0.0405168,-0.680531,-0.989105,0.0470608,14.3344,1.33425,1.75894,0.310557,0.0208604,-1.43386,-0.671937,3.54026,0.560269,-0.217668,0.241422
1223572,1,-1.57152,-0.522361,0.001022,-2.0975,-0.000360387,1.57178,0.784876,-1.57204,-0.522907,0.000962079,-2.09569,0.00054696,1.57283,0.78493,-0.0515699,0.0330848,0.0570765,-0.0630757,0.00689183,0.0750812,-0.00846037,-0.118012,0.0630594,0.0918796,-0.13125,0.0504322,0.199349,-0.0429641,-0.882862,-0.433685,0.15021,14.1361,1.34523,1.83584,0.284922,0.000774866,-1.43689,-0.685786,3.51883,0.562845,-0.200042,0.241395
1223573,1,-1.5716,-0.52232,0.00110063,-2.09757,-0.000345064,1.57188,0.784856,-1.57216,-0.52284,0.0010597,-2.09583,0.000600312,1.57304,0.784884,-0.0594331,0.0354195,0.0616958,-0.0690151,0.0107935,0.0795209,-0.00697051,-0.125308,0.0664533,0.097624,-0.140625,0.0533522,0.212124,-0.0454113,-1.00982,0.0463562,0.15021,13.787,1.32234,1.97134,0.304148,-0.0223283,-1.42196,-0.701488,3.48745,0.565452,-0.182594,0.241478
1223574,1,-1.57169,-0.522275,0.00118287,-2.09767,-0.000330649,1.572,0.78484,-1.5723,-0.522771,0.00116307,-2.09598,0.000656584,1.57327,0.784836,-0.0704933,0.0401877,0.068323,-0.0761777,0.0141098,0.095404,-0.00939536,-0.132604,0.0698472,0.103368,-0.15,0.0562721,0.224899,-0.0478586,-1.03362,0.526398,0.201785,13.414,1.28847,2.03543,0.278513,-0.0459603,-1.39518,-0.715986,3.4491,0.568277,-0.165189,0.241712
1223575,1,-1.57178,-0.522226,0.00126845,-2.09777,-0.000317511,1.57214,0.784813,-1.57244,-0.522697,0.00127218,-2.09614,0.000715776,1.57351,0.784786,-0.0755115,0.044395,0.0742551,-0.0832896,0.0152017,0.115946,-0.0127415,-0.1399,0.0732411,0.109113,-0.159375,0.0591921,0.237674,-0.0503058,-1.06139,0.958832,0.300967,12.9895,1.28847,1.99697,0.291331,-0.0683504,-1.3654,-0.727535,3.40792,0.571475,-0.147582,0.242105
1223576,1,-1.57188,-0.522175,0.00135857,-2.09788,-0.000297806,1.57231,0.784791,-1.57258,-0.522621,0.00138704,-2.09631,0.000777888,1.57376,0.784733,-0.0840072,0.0485722,0.0786961,-0.08888,0.0169137,0.128352,-0.0180433,-0.147196,0.0766351,0.114857,-0.16875,0.0621121,0.250449,-0.0527531,-1.13677,1.36349,0.42792,12.5452,1.26558,1.89443,0.240061,-0.0896229,-1.3375,-0.736337,3.36569,0.575042,-0.129712,0.242648
1223577,1,-1.57199,-0.522119,0.00145464,-2.09801,-0.000271121,1.57249,0.784764,-1.57274,-0.522541,0.00150764,-2.09649,0.00084292,1.57402,0.784678,-0.0914903,0.0491409,0.0830033,-0.100273,0.0189346,0.146948,-0.0227152,-0.154492,0.080029,0.120602,-0.178125,0.065032,0.263224,-0.0552003,-1.16057,1.74039,0.53107,12.2715,1.22072,1.79739,0.200693,-0.108942,-1.31116,-0.740886,3.32253,0.57897,-0.111574,0.243298
1223578,1,-1.5721,-0.522067,0.00155456,-2.09815,-0.000246688,1.5727,0.784725,-1.5729,-0.522457,0.00163399,-2.09668,0.000910872,1.5743,0.78462,-0.0997788,0.0513419,0.0853522,-0.111921,0.0238498,0.161351,-0.0288089,-0.161788,0.0834229,0.126346,-0.1875,0.067952,0.275999,-0.0576476,-1.18834,2.16885,0.630252,12.0215,1.20973,1.67471,0.219919,-0.124578,-1.2846,-0.738317,3.27959,0.583295,-0.0930965,0.243956
1223579,1,-1.57223,-0.522014,0.0016552,-2.09828,-0.00022354,1.57292,0.784681,-1.57307,-0.522371,0.001767,-2.09688,0.000982114,1.57459,0.78456,-0.10912,0.0533847,0.089229,-0.121003,0.0212395,0.180553,-0.0332265,-0.170166,0.0865008,0.133011,-0.19999,0.0712417,0.290605,-0.0603285,-1.08519,2.57352,0.70563,11.7716,1.24361,1.57217,0.252878,-0.134785,-1.25702,-0.725792,3.23801,0.588033,-0.074375,0.244511
1223580,1,-1.57236,-0.521961,0.00177268,-2.09844,-0.000195208,1.57315,0.784638,-1.57325,-0.522281,0.00190668,-2.09709,0.00105665,1.57489,0.784497,-0.119706,0.0530558,0.096792,-0.134213,0.0232643,0.193544,-0.035613,-0.178545,0.0895787,0.139677,-0.21248,0.0745315,0.305211,-0.0630094,-1.08519,2.93057,0.658023,11.6724,1.29946,1.50808,0.259287,-0.139249,-1.22641,-0.703228,3.19747,0.593145,-0.0557486,0.244931
1223581,1,-1.5725,-0.521905,0.00188853,-2.0986,-0.000161283,1.5734,0.784592,-1.57344,-0.522189,0.00205302,-2.09731,0.00113447,1.57521,0.784431,-0.123333,0.0539657,0.103082,-0.143673,0.0259947,0.207557,-0.0414179,-0.186923,0.0926566,0.146342,-0.22497,0.0778212,0.319817,-0.0656903,-1.16057,3.23209,0.733401,11.5732,1.32784,1.56576,0.233652,-0.141091,-1.18913,-0.675701,3.15717,0.598465,-0.0375291,0.245259
1223582,1,-1.57264,-0.521847,0.00200568,-2.09876,-0.000123925,1.57365,0.784535,-1.57363,-0.522093,0.00220603,-2.09755,0.00121558,1.57555,0.784363,-0.130244,0.0562584,0.107177,-0.152634,0.0278754,0.224177,-0.0420591,-0.195302,0.0957345,0.153008,-0.23746,0.0811109,0.334424,-0.0683712,-1.26372,3.58517,0.884158,11.2995,1.36171,1.70126,0.24647,-0.144123,-1.14293,-0.648542,3.11568,0.603816,-0.0200525,0.245542
1223583,1,-1.57279,-0.521788,0.00214033,-2.09894,-7.76497e-05,1.57392,0.784472,-1.57383,-0.521994,0.0023657,-2.0978,0.00129998,1.5759,0.784292,-0.136126,0.0574344,0.114455,-0.155444,0.0355962,0.240302,-0.0484513,-0.20368,0.0988124,0.159673,-0.24995,0.0844007,0.34903,-0.0710521,-1.3391,3.96603,0.907962,11.0019,1.35622,1.79098,0.278513,-0.150114,-1.08531,-0.623838,3.06917,0.609074,-0.00379839,0.245782
1223584,1,-1.57296,-0.521721,0.00228591,-2.09913,-2.34681e-05,1.57422,0.784401,-1.57405,-0.521892,0.00253204,-2.09806,0.00138767,1.57626,0.784218,-0.144331,0.0595602,0.124678,-0.168619,0.0364962,0.254527,-0.0588744,-0.212059,0.10189,0.166339,-0.26244,0.0876904,0.363636,-0.073733,-1.28753,4.29532,0.907962,10.752,1.35072,1.82302,0.330698,-0.161175,-1.01442,-0.604693,3.01479,0.614133,0.011129,0.246009
1223585,1,-1.57314,-0.521652,0.00242715,-2.09934,3.52817e-05,1.57453,0.784336,-1.57427,-0.521787,0.00270504,-2.09834,0.00147865,1.57664,0.784142,-0.157982,0.061137,0.1297,-0.180158,0.0423406,0.273038,-0.0628841,-0.220438,0.104968,0.173004,-0.27493,0.0909802,0.378242,-0.0764139,-1.13677,4.62064,0.98334,10.3077,1.32784,1.77816,0.291331,-0.177123,-0.934088,-0.591594,2.95561,0.619124,0.0253707,0.2463
1223586,1,-1.57332,-0.521581,0.00257148,-2.09956,0.000100547,1.57487,0.784269,-1.5745,-0.521679,0.00288471,-2.09863,0.00157292,1.57703,0.784063,-0.165883,0.065962,0.136282,-0.195829,0.0523524,0.293217,-0.065639,-0.228816,0.108046,0.179669,-0.28742,0.0942699,0.392848,-0.0790948,-1.18834,4.92612,1.11029,10.0061,1.28298,1.6683,0.226328,-0.194076,-0.852456,-0.579699,2.89757,0.624334,0.0397372,0.24671
1223587,1,-1.57352,-0.521505,0.00272017,-2.0998,0.000174885,1.57523,0.784191,-1.57473,-0.521568,0.00307105,-2.09893,0.00167048,1.57744,0.783981,-0.179677,0.0693505,0.139138,-0.209443,0.0601177,0.313223,-0.0690725,-0.237195,0.111124,0.186335,-0.29991,0.0975597,0.407455,-0.0817757,-1.16057,5.22763,1.23725,9.78397,1.22621,1.55935,0.194285,-0.208173,-0.778362,-0.563677,2.8459,0.629943,0.0547548,0.2472
1223588,1,-1.57373,-0.521431,0.00288034,-2.10005,0.000249304,1.5756,0.784104,-1.57498,-0.521454,0.00326405,-2.09924,0.00177133,1.57786,0.783896,-0.187144,0.0694832,0.146886,-0.219751,0.0685788,0.333849,-0.0692414,-0.245573,0.114202,0.193,-0.3124,0.100849,0.422061,-0.0844567,-1.13677,5.50534,1.31262,9.46262,1.22072,1.41745,0.233652,-0.217241,-0.712443,-0.540368,2.80048,0.635905,0.0702778,0.24765
1223589,1,-1.57395,-0.521352,0.00305072,-2.10031,0.000327668,1.57599,0.784015,-1.57523,-0.521337,0.00346432,-2.09956,0.00187573,1.5783,0.783809,-0.197336,0.0705256,0.1547,-0.238126,0.0689633,0.346238,-0.074268,-0.25455,0.117015,0.200268,-0.32489,0.104406,0.437376,-0.0872818,-1.03362,5.73544,1.3404,9.23648,1.25459,1.32772,0.272104,-0.223007,-0.648683,-0.51223,2.75831,0.641954,0.0858659,0.247974
1223590,1,-1.57418,-0.52127,0.0032247,-2.10058,0.000416374,1.57638,0.783931,-1.5755,-0.521217,0.00367185,-2.0999,0.0019837,1.57875,0.783719,-0.205793,0.0744478,0.158537,-0.250689,0.0706365,0.36129,-0.0761774,-0.263527,0.119828,0.207536,-0.33738,0.107963,0.452692,-0.0901069,-1.00982,5.96158,1.28882,9.03812,1.2491,1.35977,0.259287,-0.227293,-0.586921,-0.4819,2.72054,0.647988,0.10147,0.248196
1223591,1,-1.57441,-0.521184,0.00339718,-2.10086,0.000512199,1.57679,0.783845,-1.57577,-0.521094,0.00388666,-2.10025,0.00209522,1.57922,0.783626,-0.210906,0.0790151,0.161434,-0.258675,0.0822997,0.375185,-0.078066,-0.272504,0.122641,0.214804,-0.34987,0.111519,0.468007,-0.092932,-1.16057,6.11234,1.3404,8.78818,1.22621,1.46231,0.259287,-0.229565,-0.529621,-0.44809,2.68683,0.653983,0.116822,0.248372
1223592,1,-1.57464,-0.521104,0.00357945,-2.10115,0.000615431,1.57722,0.783751,-1.57605,-0.520969,0.00410873,-2.10061,0.00221029,1.5797,0.78353,-0.219031,0.080218,0.167487,-0.269376,0.085859,0.387134,-0.0848808,-0.281481,0.125454,0.222072,-0.36236,0.115076,0.483323,-0.0957571,-1.26372,6.34244,1.3404,8.71677,1.20973,1.53372,0.272104,-0.230304,-0.474178,-0.410793,2.65251,0.659745,0.131393,0.248527
1223593,1,-1.57489,-0.521013,0.00378064,-2.10146,0.000720251,1.57767,0.783651,-1.57634,-0.520841,0.00433807,-2.10099,0.00232892,1.5802,0.783432,-0.228431,0.0849649,0.179606,-0.283147,0.0928154,0.402467,-0.0915505,-0.290457,0.128268,0.22934,-0.37485,0.118632,0.498639,-0.0985823,-1.3391,6.39005,1.31262,8.6652,1.20333,1.57858,0.316965,-0.232307,-0.418094,-0.37435,2.61542,0.665083,0.145164,0.248701
1223594,1,-1.57517,-0.520926,0.00398888,-2.10179,0.00082972,1.57815,0.783549,-1.57664,-0.520709,0.00457467,-2.10138,0.00245111,1.58071,0.78333,-0.245714,0.084915,0.183852,-0.29655,0.101938,0.423159,-0.0945486,-0.299434,0.131081,0.236608,-0.38734,0.122189,0.513954,-0.101407,-1.13677,6.46939,1.26502,8.58982,1.22072,1.5978,0.316965,-0.236153,-0.361557,-0.340759,2.57658,0.670012,0.158459,0.248941
1223595,1,-1.57544,-0.520833,0.00419566,-2.10213,0.000949986,1.57863,0.783449,-1.57695,-0.520576,0.00481855,-2.10177,0.00257686,1.58124,0.783226,-0.254841,0.0890545,0.187632,-0.311426,0.113302,0.440807,-0.101881,-0.308411,0.133894,0.243876,-0.39983,0.125745,0.52927,-0.104233,-1.06139,6.49319,1.26502,8.74057,1.2491,1.57858,0.310557,-0.237259,-0.304327,-0.30411,2.53678,0.67477,0.17153,0.249266
1223596,1,-1.57573,-0.520735,0.00440825,-2.10248,0.00107483,1.57914,0.78335,-1.57727,-0.520439,0.00506969,-2.10219,0.00270616,1.58179,0.783119,-0.264636,0.0931294,0.192435,-0.322165,0.118445,0.459364,-0.101957,-0.317388,0.136707,0.251144,-0.41232,0.129302,0.544585,-0.107058,-1.08519,6.46939,1.31262,8.78818,1.24361,1.54013,0.291331,-0.232726,-0.248465,-0.260093,2.49714,0.679527,0.184552,0.249692
1223597,1,-1.57602,-0.520639,0.00462788,-2.10284,0.00120765,1.57967,0.783247,-1.57759,-0.520299,0.00532811,-2.10261,0.00283902,1.58235,0.783009,-0.274202,0.0947024,0.204148,-0.331726,0.118196,0.482023,-0.100986,-0.326365,0.13952,0.258412,-0.42481,0.132859,0.559901,-0.109883,-1.06139,6.49319,1.3642,8.88736,1.22621,1.51449,0.252878,-0.225032,-0.193511,-0.212439,2.45632,0.684215,0.197277,0.250235
1223598,1,-1.57633,-0.520533,0.00485374,-2.10322,0.00133944,1.58022,0.783138,-1.57793,-0.520157,0.00559379,-2.10305,0.00297543,1.58292,0.782897,-0.280464,0.0982428,0.205721,-0.344233,0.120959,0.496014,-0.101996,-0.335342,0.142333,0.26568,-0.4373,0.136415,0.575216,-0.112708,-1.03362,6.41782,1.39197,8.93894,1.23812,1.44308,0.252878,-0.217629,-0.135744,-0.166263,2.41184,0.688705,0.209302,0.250872
1223599,1,-1.57664,-0.520426,0.00508613,-2.10361,0.00147208,1.58079,0.783028,-1.57827,-0.520012,0.00586709,-2.1035,0.00311554,1.58351,0.782781,-0.294888,0.103191,0.217371,-0.353987,0.123345,0.514106,-0.101761,-0.34458,0.144991,0.273302,-0.44979,0.140106,0.590468,-0.115587,-0.910633,6.36624,1.43958,8.88736,1.2491,1.37899,0.226328,-0.211125,-0.0764294,-0.122377,2.36469,0.693003,0.220609,0.251542
1223600,1,-1.57696,-0.520316,0.00532894,-2.10401,0.0016113,1.58137,0.782922,-1.57863,-0.519864,0.00614801,-2.10396,0.00325934,1.58412,0.782662,-0.303303,0.102288,0.221899,-0.367164,0.131003,0.538298,-0.101038,-0.353819,0.14765,0.280925,-0.46228,0.143796,0.605719,-0.118467,-0.958241,6.36624,1.46735,8.93894,1.23171,1.35336,0.181467,-0.204968,-0.0158699,-0.080493,2.31543,0.697145,0.231069,0.252166
1223601,1,-1.57731,-0.520207,0.00559478,-2.10442,0.00176051,1.58196,0.782812,-1.57899,-0.519714,0.00643656,-2.10444,0.00340682,1.58474,0.782541,-0.31571,0.104441,0.230739,-0.376939,0.137991,0.554093,-0.100803,-0.363057,0.150308,0.288548,-0.47477,0.147487,0.62097,-0.121346,-0.831288,6.39005,1.39197,8.88736,1.19234,1.36618,0.143015,-0.198899,0.0509418,-0.0405245,2.26216,0.701093,0.240349,0.252646
1223602,1,-1.57765,-0.520099,0.0058553,-2.10484,0.00191026,1.58257,0.782705,-1.57936,-0.519561,0.00673273,-2.10492,0.003558,1.58538,0.782417,-0.323314,0.10547,0.241884,-0.39945,0.138274,0.56779,-0.100406,-0.372295,0.152967,0.296171,-0.48726,0.151177,0.636222,-0.124225,-0.934437,6.44162,1.46735,8.88736,1.14198,1.41745,0.103647,-0.194404,0.123629,-0.00483137,2.20757,0.704806,0.248758,0.252892
1223603,1,-1.57801,-0.519987,0.00612017,-2.10528,0.00206259,1.58318,0.782597,-1.57974,-0.519406,0.00703653,-2.10542,0.00371287,1.58603,0.78229,-0.335594,0.106374,0.251427,-0.407161,0.144465,0.57937,-0.105614,-0.381534,0.155625,0.303794,-0.49975,0.154867,0.651473,-0.127105,-0.831288,6.49319,1.56653,8.78818,1.18135,1.46871,0.0844213,-0.194317,0.198391,0.0220623,2.1566,0.708201,0.25698,0.252835
1223604,1,-1.57839,-0.519869,0.00640782,-2.10573,0.00221968,1.58382,0.782476,-1.58013,-0.519247,0.00734794,-2.10594,0.00387142,1.58669,0.78216,-0.351849,0.108368,0.261431,-0.419973,0.15075,0.588576,-0.107078,-0.390772,0.158283,0.311417,-0.51224,0.158558,0.666724,-0.129984,-0.605152,6.49319,1.49115,8.71677,1.18685,1.50167,0.122873,-0.197802,0.276688,0.0409207,2.10798,0.711192,0.265127,0.252387
1223605,1,-1.57877,-0.51974,0.00669007,-2.10617,0.0023722,1.58448,0.782356,-1.58053,-0.519086,0.00766698,-2.10646,0.00403367,1.58738,0.782027,-0.360072,0.115098,0.264123,-0.430753,0.152453,0.602164,-0.111922,-0.40001,0.160942,0.319039,-0.52473,0.162248,0.681976,-0.132863,-0.529774,6.39005,1.54273,8.54221,1.29396,1.50167,0.129282,-0.200633,0.355866,0.0577887,2.06082,0.713896,0.273266,0.251495
1223606,1,-1.57916,-0.519607,0.00698524,-2.10664,0.00253114,1.58515,0.782235,-1.58094,-0.518923,0.00799364,-2.107,0.00419961,1.58807,0.781891,-0.368849,0.120583,0.273363,-0.442292,0.156752,0.625366,-0.117221,-0.409249,0.1636,0.326662,-0.53722,0.165939,0.697227,-0.135743,-0.557545,6.26706,1.66968,8.41526,1.30586,1.39822,0.175059,-0.200667,0.427035,0.0764957,2.01743,0.716527,0.281559,0.250203
1223607,1,-1.57956,-0.519471,0.00729901,-2.10712,0.00269515,1.58584,0.782115,-1.58136,-0.518756,0.00832793,-2.10755,0.00436924,1.58879,0.781753,-0.380653,0.126721,0.280182,-0.461333,0.16138,0.639181,-0.118153,-0.418487,0.166259,0.334285,-0.54971,0.169629,0.712478,-0.138622,-0.402821,6.18771,1.61811,8.29227,1.28847,1.34054,0.155832,-0.198595,0.48164,0.096469,1.98141,0.719294,0.290203,0.248618
1223608,1,-1.57999,-0.519331,0.00761481,-2.1076,0.00286358,1.58653,0.781987,-1.58179,-0.518588,0.00866984,-2.10811,0.00454256,1.58951,0.781611,-0.395489,0.128448,0.289946,-0.468587,0.164228,0.65851,-0.11933,-0.427726,0.168917,0.341908,-0.5622,0.17332,0.72773,-0.141502,-0.101307,6.08853,1.56653,8.14548,1.26558,1.33413,0.135691,-0.19395,0.517825,0.117951,1.9541,0.722393,0.299249,0.246846
1223609,1,-1.58041,-0.519191,0.0079294,-2.1081,0.00302376,1.58726,0.781865,-1.58223,-0.518416,0.00901953,-2.10868,0.0047196,1.59026,0.781467,-0.39955,0.13177,0.298178,-0.471542,0.16355,0.680051,-0.118573,-0.436969,0.171216,0.349693,-0.57469,0.177041,0.742677,-0.144373,-0.101307,6.03696,1.69348,7.89554,1.29946,1.26272,0.071604,-0.187319,0.54721,0.139715,1.92645,0.725665,0.307643,0.244946
1223610,1,-1.58083,-0.519052,0.00825391,-2.1086,0.00320042,1.58801,0.781736,-1.58267,-0.518243,0.00937701,-2.10927,0.00490036,1.59101,0.781319,-0.410637,0.132154,0.300695,-0.48239,0.16659,0.699516,-0.117828,-0.446212,0.173515,0.357478,-0.58718,0.180762,0.757625,-0.147244,-0.125111,6.06473,1.64191,7.72098,1.26558,1.23068,0.00660151,-0.179871,0.583765,0.160522,1.88751,0.728835,0.314142,0.242904
1223611,1,-1.58127,-0.518911,0.00859431,-2.10912,0.00338513,1.58876,0.781601,-1.58313,-0.518067,0.00974227,-2.10987,0.00508485,1.59179,0.781169,-0.413124,0.138286,0.31466,-0.494329,0.17285,0.715833,-0.126529,-0.455455,0.175814,0.365264,-0.59967,0.184484,0.772572,-0.150115,-0.125111,6.08853,1.5943,7.57022,1.24361,1.16018,0.038645,-0.17308,0.629366,0.17887,1.83658,0.731805,0.318673,0.240645
1223612,1,-1.58169,-0.518765,0.00893768,-2.10967,0.00356733,1.58954,0.781468,-1.58359,-0.517889,0.0101153,-2.11048,0.00527305,1.59257,0.781016,-0.420169,0.141344,0.321738,-0.507021,0.176786,0.732436,-0.13151,-0.464698,0.178113,0.373049,-0.61216,0.188205,0.787519,-0.152987,-0.327442,6.08853,1.64191,7.57022,1.24361,1.16018,0.0322363,-0.171978,0.676829,0.187811,1.7796,0.734415,0.32186,0.238124
1223613,1,-1.58215,-0.518621,0.0092918,-2.11021,0.00375585,1.59032,0.781329,-1.58407,-0.517708,0.0104962,-2.11111,0.00546498,1.59338,0.780861,-0.432314,0.140302,0.324384,-0.518629,0.180819,0.76708,-0.129496,-0.473941,0.180412,0.380834,-0.62465,0.191926,0.802467,-0.155858,-0.355213,6.08853,1.49115,7.54642,1.21523,1.24349,0.0194189,-0.175807,0.725127,0.188748,1.7186,0.736707,0.32385,0.235304
1223614,1,-1.58262,-0.51847,0.00965977,-2.11078,0.0039417,1.59112,0.781192,-1.58455,-0.517526,0.0108848,-2.11174,0.00566063,1.59419,0.780702,-0.44224,0.145996,0.330527,-0.53161,0.181545,0.775192,-0.132288,-0.483184,0.182711,0.388619,-0.63714,0.195648,0.817414,-0.158729,-0.355213,5.96158,1.3404,7.6456,1.2491,1.32131,-0.0254419,-0.177551,0.776911,0.192056,1.65321,0.738981,0.324598,0.232142
1223615,1,-1.58308,-0.518315,0.0100196,-2.11135,0.00412833,1.59195,0.781051,-1.58504,-0.517341,0.0112812,-2.11239,0.00586,1.59503,0.78054,-0.450578,0.149131,0.343961,-0.542481,0.182953,0.790351,-0.133909,-0.492427,0.18501,0.396404,-0.64963,0.199369,0.832362,-0.1616,-0.454395,5.8624,1.3404,7.74479,1.26009,1.26913,-0.077627,-0.176451,0.827828,0.198597,1.58681,0.741304,0.324714,0.228654
1223616,1,-1.58355,-0.518157,0.0104053,-2.11196,0.00432516,1.5928,0.780903,-1.58554,-0.517153,0.0116854,-2.11306,0.00606309,1.59587,0.780376,-0.455894,0.152327,0.356339,-0.562311,0.184277,0.808719,-0.138385,-0.50167,0.187309,0.40419,-0.66212,0.20309,0.847309,-0.164471,-0.632923,5.73544,1.28882,8.0701,1.26009,1.173,-0.0510767,-0.179047,0.872228,0.198466,1.52457,0.743499,0.325025,0.224866
1223617,1,-1.58404,-0.517998,0.0108089,-2.11257,0.00452876,1.59365,0.780742,-1.58605,-0.516964,0.0120973,-2.11373,0.0062699,1.59674,0.780208,-0.466968,0.153955,0.370948,-0.576374,0.186657,0.817557,-0.143043,-0.510913,0.189608,0.411975,-0.67461,0.206812,0.862257,-0.167343,-0.708302,5.63229,1.08649,8.26847,1.22621,1.14736,0.0194189,-0.191373,0.907233,0.182696,1.47136,0.745455,0.326164,0.220787
1223618,1,-1.58451,-0.517826,0.0112086,-2.11318,0.00474173,1.59453,0.780581,-1.58658,-0.516772,0.0125171,-2.11442,0.00648043,1.59761,0.780038,-0.470486,0.15965,0.374678,-0.586171,0.18792,0.834384,-0.148109,-0.520156,0.191907,0.41976,-0.6871,0.210533,0.877204,-0.170214,-0.934437,5.45773,1.03491,8.31607,1.20333,1.16659,-0.00621587,-0.213913,0.932875,0.151064,1.428,0.747156,0.328163,0.216466
1223619,1,-1.58502,-0.517658,0.0116239,-2.11382,0.00494994,1.5954,0.78042,-1.5871,-0.516578,0.0129447,-2.11512,0.00669464,1.59851,0.779865,-0.479976,0.160576,0.386703,-0.602594,0.191969,0.847695,-0.15356,-0.529206,0.193697,0.427557,-0.69959,0.214209,0.891703,-0.173035,-1.03362,5.30301,0.884158,8.51841,1.22621,1.16018,0.00660151,-0.244028,0.950687,0.108586,1.39244,0.748613,0.330648,0.211994
1223620,1,-1.58552,-0.517489,0.0120611,-2.11447,0.00516016,1.59628,0.780258,-1.58764,-0.516383,0.01338,-2.11583,0.00691252,1.59941,0.779689,-0.487661,0.164908,0.406103,-0.629243,0.196792,0.853915,-0.15536,-0.538255,0.195487,0.435355,-0.71208,0.217885,0.906201,-0.175856,-1.13677,5.2554,0.70563,8.54221,1.20333,1.32772,-0.0254419,-0.283046,0.957295,0.0534119,1.36931,0.749821,0.334115,0.207479
1223621,1,-1.58603,-0.517313,0.012493,-2.11515,0.005377,1.59717,0.780082,-1.58819,-0.516185,0.0138232,-2.11655,0.00713409,1.60033,0.779511,-0.493355,0.165158,0.413204,-0.646595,0.204093,0.862441,-0.161749,-0.547305,0.197276,0.443152,-0.72457,0.221561,0.9207,-0.178677,-1.23595,5.20383,0.606448,8.64139,1.19783,1.4559,0.0587866,-0.334205,0.947159,-0.0195364,1.36634,0.750768,0.339626,0.203002
1223622,1,-1.58655,-0.517149,0.0129312,-2.11584,0.00559791,1.59809,0.779904,-1.58875,-0.515986,0.0142741,-2.11729,0.00735932,1.60127,0.779329,-0.501696,0.163114,0.41496,-0.654494,0.205633,0.87616,-0.170601,-0.556355,0.199066,0.450949,-0.73706,0.225237,0.935198,-0.181498,-1.41448,5.2554,0.630252,8.689,1.18135,1.50167,0.122873,-0.392967,0.92908,-0.102663,1.37809,0.751512,0.346965,0.198575
1223623,1,-1.58707,-0.516969,0.0133765,-2.11655,0.00583449,1.59903,0.779727,-1.58931,-0.515786,0.0147329,-2.11804,0.00758823,1.60222,0.779145,-0.509009,0.165705,0.416794,-0.667225,0.217107,0.893377,-0.17092,-0.565404,0.200856,0.458747,-0.74955,0.228912,0.949697,-0.184319,-1.54143,5.12845,0.503299,8.83976,1.14748,1.50167,0.16865,-0.449473,0.918938,-0.180106,1.3908,0.752161,0.354942,0.194227
1223624,1,-1.58761,-0.516792,0.013839,-2.11728,0.00607641,1.59998,0.779545,-1.58989,-0.515583,0.0151994,-2.1188,0.00782082,1.60318,0.778958,-0.511949,0.16834,0.428594,-0.681327,0.219653,0.9143,-0.177234,-0.574454,0.202646,0.466544,-0.76204,0.232588,0.964195,-0.18714,-1.61681,4.97769,0.479495,8.88736,1.13558,1.40463,0.226328,-0.500807,0.919656,-0.246636,1.39913,0.752687,0.362974,0.190094
1223625,1,-1.58815,-0.516611,0.0143077,-2.11801,0.00631122,1.60093,0.779363,-1.59047,-0.515378,0.0156737,-2.11958,0.00805709,1.60416,0.778768,-0.524927,0.172661,0.443575,-0.71043,0.22719,0.917683,-0.178024,-0.583504,0.204436,0.474342,-0.77453,0.236264,0.978694,-0.189961,-1.64061,4.85074,0.451724,8.91513,1.12459,1.43667,0.187876,-0.552181,0.920159,-0.310401,1.41056,0.753003,0.371753,0.186394
1223626,1,-1.58871,-0.516424,0.0147633,-2.11874,0.00655523,1.6019,0.779172,-1.59106,-0.515172,0.0161559,-2.12036,0.00829703,1.60515,0.778575,-0.537061,0.17944,0.449754,-0.719154,0.232262,0.93326,-0.179712,-0.592553,0.206225,0.482139,-0.78702,0.23994,0.993192,-0.192781,-1.56524,4.69998,0.578677,8.86356,1.09621,1.4559,0.16865,-0.604986,0.905844,-0.375133,1.4354,0.753234,0.382271,0.183287
1223627,1,-1.58929,-0.516242,0.0152486,-2.1195,0.00679788,1.60289,0.778987,-1.59166,-0.514964,0.0166458,-2.12116,0.00854064,1.60616,0.778379,-0.547927,0.182245,0.464458,-0.724777,0.236009,0.946623,-0.180769,-0.601603,0.208015,0.489936,-0.79951,0.243616,1.00769,-0.195602,-1.48986,4.64841,0.606448,8.81595,1.1017,1.40463,0.135691,-0.656429,0.876732,-0.437803,1.46933,0.753354,0.393861,0.180771
1223628,1,-1.58986,-0.516049,0.0157164,-2.12025,0.00705277,1.60392,0.778789,-1.59227,-0.514754,0.0171436,-2.12198,0.00878794,1.60718,0.778181,-0.5619,0.181564,0.46328,-0.735071,0.238625,0.967237,-0.182458,-0.610653,0.209805,0.497734,-0.812,0.247292,1.02219,-0.198423,-1.43828,4.57303,0.80878,8.81595,1.09072,1.18582,0.143015,-0.702846,0.847584,-0.493242,1.49848,0.753223,0.404895,0.178727
1223629,1,-1.59045,-0.515863,0.0161993,-2.12103,0.0073137,1.60493,0.778593,-1.59289,-0.514543,0.017649,-2.1228,0.00903881,1.60822,0.77798,-0.571388,0.179232,0.463632,-0.741131,0.240239,0.985659,-0.187917,-0.619354,0.210983,0.505422,-0.82449,0.250876,1.03615,-0.201168,-1.3629,4.59683,0.98334,8.76438,1.08522,1.14736,0.110056,-0.736252,0.835036,-0.529145,1.51173,0.753,0.414054,0.176973
1223630,1,-1.59105,-0.515669,0.0166967,-2.12182,0.00756346,1.60595,0.77839,-1.59352,-0.514331,0.0181621,-2.12364,0.00929327,1.60927,0.777776,-0.588379,0.182974,0.477068,-0.750969,0.246202,0.99249,-0.19371,-0.628055,0.212162,0.513111,-0.83698,0.25446,1.05011,-0.203912,-1.18834,4.52145,0.98334,8.78818,1.08522,1.21145,0.122873,-0.752732,0.847312,-0.539498,1.50416,0.752777,0.420597,0.175376
1223631,1,-1.59166,-0.51547,0.0171876,-2.12261,0.00782065,1.60696,0.778185,-1.59416,-0.514118,0.0186829,-2.12449,0.00955132,1.61033,0.777569,-0.589353,0.186611,0.474912,-0.763233,0.246031,1.01522,-0.196091,-0.636756,0.21334,0.520799,-0.84947,0.258044,1.06408,-0.206656,-1.109,4.3945,1.08649,8.74057,1.1017,1.36618,0.0780126,-0.755743,0.877604,-0.529408,1.48013,0.752492,0.424747,0.17388
1223632,1,-1.59229,-0.515279,0.0176893,-2.12344,0.00808083,1.608,0.777972,-1.5948,-0.513903,0.0192114,-2.12535,0.00981294,1.61141,0.77736,-0.594476,0.187297,0.482611,-0.778758,0.245374,1.01724,-0.201233,-0.645457,0.214518,0.528488,-0.86196,0.261628,1.07804,-0.2094,-1.00982,4.3707,1.16187,8.88736,1.1191,1.4559,0.122873,-0.750269,0.914915,-0.504985,1.44818,0.752145,0.427405,0.17245
1223633,1,-1.59291,-0.515076,0.0181834,-2.12427,0.00834405,1.60907,0.777764,-1.59546,-0.513688,0.0197476,-2.12622,0.0100782,1.6125,0.777148,-0.606522,0.189494,0.488722,-0.796672,0.2531,1.02554,-0.202183,-0.654157,0.215697,0.536176,-0.87445,0.265212,1.092,-0.212144,-0.910633,4.14059,1.26502,9.08969,1.17586,1.48794,0.103647,-0.740413,0.951919,-0.471973,1.41673,0.751778,0.429909,0.171062
1223634,1,-1.59356,-0.514872,0.0186921,-2.12512,0.00861422,1.61015,0.777559,-1.59612,-0.513471,0.0202914,-2.12711,0.010347,1.61361,0.776933,-0.62067,0.193999,0.490882,-0.810723,0.254945,1.04402,-0.20618,-0.662858,0.216875,0.543865,-0.88694,0.268796,1.10596,-0.214888,-0.78368,3.91446,1.46735,9.33567,1.19234,1.32772,0.0587866,-0.724644,0.981228,-0.429646,1.39265,0.751648,0.433345,0.169686
1223635,1,-1.59422,-0.514679,0.019218,-2.126,0.00888565,1.61124,0.77735,-1.59679,-0.513253,0.020843,-2.12801,0.0106193,1.61473,0.776715,-0.634035,0.191009,0.504347,-0.831536,0.259381,1.05589,-0.205299,-0.671559,0.218053,0.551553,-0.89943,0.27238,1.11992,-0.217633,-0.557545,3.81528,1.61811,9.78397,1.14748,1.28195,0.00660151,-0.700418,0.99993,-0.375988,1.37889,0.752048,0.438038,0.168273
1223636,1,-1.59489,-0.514472,0.0197295,-2.12688,0.00915977,1.61235,0.777137,-1.59747,-0.513034,0.0214022,-2.12892,0.0108953,1.61586,0.776495,-0.645821,0.195906,0.500325,-0.845943,0.261634,1.0735,-0.206175,-0.68026,0.219232,0.559242,-0.91192,0.275964,1.13389,-0.220377,-0.252064,3.66055,1.79663,10.0577,1.1191,1.19223,-0.00621587,-0.667311,1.00947,-0.311332,1.37634,0.753107,0.443909,0.166728
1223637,1,-1.59556,-0.514266,0.0202604,-2.12779,0.00943305,1.61347,0.776928,-1.59816,-0.512813,0.0219691,-2.12985,0.0111748,1.61701,0.776272,-0.655151,0.197423,0.503264,-0.860362,0.26504,1.08789,-0.209168,-0.688961,0.22041,0.56693,-0.92441,0.279548,1.14785,-0.223121,-0.204456,3.48599,1.97119,10.3315,1.16945,1.05673,-0.0968531,-0.62212,1.00923,-0.230672,1.38467,0.7549,0.450543,0.164923
1223638,1,-1.59624,-0.514054,0.0207992,-2.12872,0.00970441,1.61462,0.776711,-1.59886,-0.512592,0.0225438,-2.13078,0.011458,1.61817,0.776046,-0.664148,0.199855,0.516671,-0.895149,0.263855,1.10423,-0.212206,-0.697662,0.221588,0.574619,-0.9369,0.283132,1.16181,-0.225865,-0.152882,3.25589,2.12592,10.7044,1.20333,0.831508,-0.155447,-0.567107,0.993678,-0.137204,1.40878,0.757395,0.458051,0.162775
1223639,1,-1.59693,-0.513838,0.0213313,-2.12964,0.00997888,1.61572,0.776498,-1.59957,-0.512369,0.0231259,-2.13173,0.0117446,1.61935,0.775817,-0.680565,0.204491,0.52439,-0.905098,0.263749,1.10248,-0.209555,-0.705893,0.222095,0.582102,-0.94939,0.286596,1.17519,-0.228517,-0.0775034,3.02975,2.2251,10.8274,1.19783,1.0375,-0.225942,-0.509225,0.954992,-0.0420759,1.45707,0.760518,0.466974,0.16021
1223640,1,-1.59764,-0.51362,0.0218785,-2.13057,0.0102428,1.61684,0.776283,-1.60028,-0.512147,0.0237155,-2.13269,0.0120346,1.62054,0.775586,-0.688317,0.212341,0.529225,-0.911127,0.267572,1.1026,-0.208936,-0.714123,0.222602,0.589585,-0.96188,0.290059,1.18856,-0.231168,-0.0775034,2.75204,2.30048,10.7798,1.22621,1.35336,-0.252493,-0.449954,0.893632,0.0522363,1.52552,0.764068,0.476639,0.157088
1223641,1,-1.59835,-0.513399,0.0224313,-2.13151,0.010519,1.618,0.776056,-1.601,-0.511924,0.0243125,-2.13367,0.0123282,1.62174,0.775352,-0.692132,0.210048,0.529386,-0.920429,0.272409,1.11033,-0.212505,-0.722354,0.22311,0.597067,-0.97437,0.293523,1.20194,-0.23382,-0.0259286,2.52591,2.30048,10.7044,1.23812,1.48153,-0.155447,-0.38911,0.82145,0.147774,1.60036,0.767664,0.485777,0.15325
1223642,1,-1.59907,-0.513187,0.0229922,-2.13247,0.0108053,1.61918,0.775832,-1.60173,-0.5117,0.0249171,-2.13466,0.0126251,1.62295,0.775116,-0.692633,0.212797,0.536179,-0.929079,0.279468,1.12675,-0.219726,-0.730585,0.223617,0.60455,-0.98686,0.296986,1.21531,-0.236471,-0.0259286,2.34738,2.27667,10.5298,1.2491,1.34695,-0.0840357,-0.330148,0.754521,0.242135,1.66922,0.77092,0.493656,0.148655
1223643,1,-1.59978,-0.512966,0.0235685,-2.13343,0.0111029,1.62037,0.775603,-1.60247,-0.511476,0.0255291,-2.13565,0.0129256,1.62418,0.774877,-0.698344,0.214753,0.546664,-0.93153,0.285611,1.13602,-0.223513,-0.738815,0.224124,0.612033,-0.99935,0.30045,1.22868,-0.239123,-0.125111,2.09348,2.27667,10.2085,1.13008,1.32131,-0.044668,-0.279697,0.703696,0.326959,1.72312,0.773445,0.499775,0.143464
1223644,1,-1.60052,-0.512752,0.0241462,-2.13438,0.0114083,1.62157,0.775385,-1.60322,-0.511251,0.0261486,-2.13667,0.0132295,1.62542,0.774635,-0.711603,0.215437,0.550395,-0.937143,0.289504,1.15254,-0.223516,-0.747046,0.224631,0.619516,-1.01184,0.303913,1.24206,-0.241774,-0.101307,1.99429,2.27667,9.76017,0.989092,1.21786,-0.0840357,-0.239386,0.674939,0.399249,1.75518,0.775041,0.503561,0.137926
1223645,1,-1.60129,-0.512538,0.0247476,-2.13535,0.0117043,1.6228,0.775173,-1.60397,-0.511026,0.0267756,-2.13769,0.0135369,1.62668,0.77439,-0.727129,0.213997,0.566365,-0.943135,0.295423,1.17117,-0.222044,-0.755276,0.225138,0.626999,-1.02433,0.307377,1.25543,-0.244425,0.0732535,1.86734,2.09815,9.43485,0.97719,1.05673,-0.168264,-0.204826,0.673427,0.463462,1.7608,0.775695,0.504523,0.132222
1223646,1,-1.60204,-0.512315,0.0253454,-2.13633,0.0119933,1.62406,0.77495,-1.60474,-0.510801,0.0274101,-2.13873,0.0138477,1.62795,0.774143,-0.743007,0.216951,0.567819,-0.953861,0.290943,1.1906,-0.21736,-0.763507,0.225645,0.634481,-1.03682,0.310841,1.26881,-0.247077,0.0494498,1.68881,2.02277,9.16111,1.13008,0.857142,-0.200308,-0.170999,0.698027,0.524651,1.7409,0.775482,0.502585,0.126409
1223647,1,-1.6028,-0.512083,0.025952,-2.13732,0.0122904,1.62531,0.774723,-1.60551,-0.510574,0.0280521,-2.13978,0.014162,1.62923,0.773894,-0.7501,0.219175,0.573198,-0.96225,0.290447,1.20586,-0.221964,-0.771737,0.226153,0.641964,-1.04931,0.314304,1.28218,-0.249728,-0.0259286,1.3873,2.02277,8.91513,1.21523,0.657557,-0.168264,-0.132473,0.739071,0.58985,1.70172,0.774726,0.498061,0.120436
1223648,1,-1.60355,-0.511859,0.0265802,-2.13834,0.012599,1.62657,0.774492,-1.60629,-0.510348,0.0287015,-2.14084,0.0144798,1.63053,0.773641,-0.754059,0.220841,0.594284,-0.973927,0.295517,1.21238,-0.224363,-0.779968,0.22666,0.649447,-1.0618,0.317768,1.29556,-0.25238,-0.204456,1.20877,1.87201,9.01432,1.16945,0.74087,-0.161856,-0.0940604,0.787019,0.652622,1.65011,0.773545,0.491367,0.114309
1223649,1,-1.60432,-0.511633,0.0271988,-2.13934,0.0129122,1.62784,0.774241,-1.60708,-0.510121,0.0293582,-2.14191,0.0148009,1.63183,0.773386,-0.761347,0.220595,0.592468,-0.982892,0.29969,1.24379,-0.230511,-0.787633,0.226476,0.656647,-1.07429,0.321093,1.30832,-0.25493,-0.355213,1.08182,1.82044,8.99051,1.13008,0.895594,-0.0382593,-0.0651293,0.838484,0.70038,1.58967,0.771855,0.482636,0.108094
1223650,1,-1.60511,-0.511409,0.027824,-2.14039,0.0132344,1.62913,0.774006,-1.60787,-0.509895,0.030022,-2.143,0.0151253,1.63316,0.773129,-0.7673,0.22041,0.603002,-1.00397,0.304457,1.25033,-0.235448,-0.795298,0.226291,0.663848,-1.08678,0.324419,1.32108,-0.25748,-0.454395,0.982635,1.84424,9.1373,1.14198,0.986232,-0.0382593,-0.0449483,0.891072,0.735435,1.52435,0.769891,0.472252,0.101876
1223651,1,-1.60591,-0.511185,0.0284709,-2.14144,0.0135588,1.63042,0.773761,-1.60867,-0.509669,0.0306931,-2.1441,0.015453,1.63449,0.772869,-0.777876,0.218511,0.614097,-1.0414,0.31176,1.25099,-0.233554,-0.802963,0.226107,0.671048,-1.09927,0.327744,1.33384,-0.26003,-0.303639,0.958832,1.79663,9.26029,1.06233,1.25631,-0.0382593,-0.0321137,0.933148,0.760063,1.46965,0.768054,0.462461,0.0958331
1223652,1,-1.60673,-0.510955,0.0291136,-2.14252,0.0138913,1.63172,0.773515,-1.60949,-0.509443,0.0313713,-2.14521,0.0157841,1.63584,0.772606,-0.794207,0.221916,0.620567,-1.05461,0.316641,1.26879,-0.243217,-0.810629,0.225923,0.678248,-1.11176,0.33107,1.34659,-0.26258,-0.0259286,0.883453,1.79663,9.38724,0.971697,1.40463,0.00660151,-0.0245561,0.950567,0.776125,1.44188,0.766718,0.455764,0.090126
1223653,1,-1.60753,-0.510736,0.029753,-2.14362,0.0142237,1.63305,0.773273,-1.6103,-0.509217,0.0320567,-2.14634,0.0161185,1.6372,0.772341,-0.800121,0.22064,0.63401,-1.06591,0.32421,1.28694,-0.240096,-0.818294,0.225739,0.685449,-1.12425,0.334395,1.35935,-0.26513,0.0732535,0.831879,2.02277,9.60941,0.903948,1.48794,-0.122488,-0.0187102,0.945348,0.787883,1.43714,0.765786,0.452159,0.0848167
1223654,1,-1.60835,-0.510511,0.030402,-2.14472,0.0145734,1.63442,0.773009,-1.61113,-0.508992,0.0327494,-2.14747,0.0164562,1.63857,0.772073,-0.808059,0.218508,0.627626,-1.07778,0.330295,1.3126,-0.244888,-0.825959,0.225555,0.692649,-1.13674,0.337721,1.37211,-0.267679,0.101024,0.681122,2.05054,9.83554,0.830705,1.32131,-0.0712183,-0.0124555,0.932991,0.799096,1.44011,0.764768,0.450282,0.0798709
1223655,1,-1.60919,-0.51029,0.0310694,-2.14583,0.0149103,1.63578,0.772752,-1.61196,-0.508766,0.0334492,-2.14862,0.0167973,1.63995,0.771803,-0.812715,0.220887,0.639012,-1.08841,0.332083,1.32835,-0.247241,-0.833624,0.22537,0.699849,-1.14923,0.341046,1.38487,-0.270229,0.176403,0.502594,1.94739,9.98233,0.836199,1.21145,-0.0510767,-0.00249964,0.924447,0.81598,1.44064,0.763327,0.449144,0.0751667
1223656,1,-1.61001,-0.510068,0.0317396,-2.14693,0.0152365,1.63715,0.772497,-1.6128,-0.508541,0.0341563,-2.14978,0.0171417,1.64135,0.77153,-0.808473,0.22198,0.64926,-1.1128,0.329292,1.33332,-0.245554,-0.841289,0.225186,0.70705,-1.16172,0.344372,1.39763,-0.272779,0.148632,0.351837,1.99897,9.93473,0.955217,1.3085,-0.10967,0.00571501,0.916457,0.831562,1.44082,0.761125,0.448858,0.0707002
1223657,1,-1.61085,-0.509856,0.0324199,-2.14807,0.0155787,1.63852,0.772227,-1.61365,-0.508316,0.0348705,-2.15096,0.0174894,1.64276,0.771255,-0.81522,0.219068,0.658053,-1.1191,0.333044,1.34516,-0.254894,-0.848954,0.225002,0.71425,-1.17421,0.347697,1.41039,-0.275329,0.124828,0.351837,1.82044,10.0339,1.05135,1.39181,-0.0382593,0.00302205,0.905769,0.832982,1.44514,0.757899,0.449846,0.0665294
1223658,1,-1.6117,-0.509644,0.0331211,-2.14924,0.0159266,1.63992,0.771968,-1.61451,-0.508091,0.035592,-2.15214,0.0178404,1.64418,0.770977,-0.825212,0.218567,0.672144,-1.12833,0.338166,1.35718,-0.257203,-0.856619,0.224818,0.72145,-1.1867,0.351023,1.42315,-0.277879,0.0494498,0.300262,1.61811,10.3315,1.10719,1.41745,-0.0840357,-0.0115044,0.901607,0.818135,1.44701,0.75365,0.451402,0.0626236
1223659,1,-1.61253,-0.509433,0.0338207,-2.1504,0.0162735,1.64135,0.7717,-1.61537,-0.507867,0.0363203,-2.15334,0.0181946,1.64562,0.770697,-0.827489,0.215916,0.675866,-1.14603,0.336571,1.36841,-0.260075,-0.863649,0.22396,0.728305,-1.19919,0.354199,1.43528,-0.280321,-0.252064,0.324066,1.43958,10.5814,1.17586,1.40463,-0.0968531,-0.0348868,0.910626,0.790195,1.44127,0.748679,0.452981,0.0589461
1223660,1,-1.61338,-0.509222,0.0345407,-2.1516,0.016635,1.64277,0.771415,-1.61624,-0.507644,0.0370555,-2.15455,0.0185519,1.64707,0.770414,-0.833459,0.217049,0.689968,-1.16033,0.3447,1.38694,-0.272632,-0.870678,0.223103,0.73516,-1.21168,0.357376,1.44741,-0.282763,-0.478199,0.324066,1.21344,10.9027,1.1136,1.35336,0.0130102,-0.0654996,0.929191,0.751402,1.43194,0.743462,0.454929,0.0554645
1223661,1,-1.61423,-0.508999,0.0352864,-2.15283,0.0169961,1.6442,0.771153,-1.61712,-0.507422,0.0377975,-2.15578,0.0189125,1.64853,0.770129,-0.844327,0.218925,0.70451,-1.18206,0.355539,1.38648,-0.268537,-0.877708,0.222246,0.742014,-1.22417,0.360552,1.45955,-0.285205,-0.632923,0.197113,0.884158,11.3749,1.05684,1.44949,-0.0840357,-0.104204,0.947399,0.700003,1.42706,0.738331,0.457945,0.0521845
1223662,1,-1.6151,-0.508776,0.0360128,-2.15405,0.0173577,1.64563,0.770876,-1.61801,-0.507201,0.0385463,-2.15702,0.0192762,1.65,0.769841,-0.855168,0.218768,0.704689,-1.19719,0.35344,1.42384,-0.27315,-0.884737,0.221388,0.748869,-1.23666,0.363729,1.47168,-0.287647,-0.755909,-0.00125125,0.70563,11.7478,0.994585,1.53372,-0.128897,-0.146955,0.955838,0.640927,1.43372,0.733622,0.462494,0.0491156
1223663,1,-1.61597,-0.508549,0.036754,-2.15531,0.0177194,1.64708,0.770603,-1.6189,-0.50698,0.0393021,-2.15826,0.0196431,1.65148,0.769551,-0.860448,0.222871,0.714069,-1.21324,0.354682,1.43327,-0.270634,-0.891766,0.220531,0.755724,-1.24915,0.366905,1.48381,-0.290089,-0.859058,-0.382111,0.578677,12.2437,0.989092,1.5914,-0.193899,-0.185961,0.950959,0.585602,1.4533,0.729622,0.468312,0.0461633
1223664,1,-1.61683,-0.50832,0.0374935,-2.15657,0.0180878,1.64853,0.770325,-1.6198,-0.50676,0.0400646,-2.15953,0.0200132,1.65298,0.769259,-0.86766,0.221774,0.703752,-1.23211,0.357382,1.43054,-0.269634,-0.898796,0.219674,0.762579,-1.26164,0.370082,1.49594,-0.292531,-1.00982,-0.76297,0.53107,12.692,0.943315,1.68844,-0.225942,-0.215036,0.930328,0.544173,1.48715,0.726418,0.475579,0.0431597
1223665,1,-1.61772,-0.508102,0.0382601,-2.15785,0.0184651,1.65,0.770018,-1.6207,-0.506542,0.0408341,-2.1608,0.0203865,1.65449,0.768964,-0.867966,0.220558,0.714393,-1.24128,0.36343,1.44298,-0.279762,-0.905825,0.218817,0.769434,-1.27413,0.373258,1.50807,-0.294973,-1.00982,-0.989105,0.451724,12.8904,0.909441,1.5209,0.0194189,-0.231319,0.897981,0.522512,1.53396,0.723856,0.484566,0.0399288
1223666,1,-1.6186,-0.507888,0.0390263,-2.15913,0.0188382,1.65148,0.769725,-1.62162,-0.506324,0.0416104,-2.16209,0.0207629,1.65601,0.768666,-0.871476,0.218617,0.723608,-1.24763,0.366532,1.44621,-0.285401,-0.912854,0.217959,0.776288,-1.28662,0.376434,1.5202,-0.297415,-0.958241,-1.16763,0.404117,12.815,0.915849,1.50167,0.0972387,-0.242598,0.86774,0.510651,1.58393,0.721289,0.494365,0.0364864
1223667,1,-1.6195,-0.507684,0.039786,-2.16038,0.0192223,1.65301,0.76943,-1.62254,-0.506106,0.0423935,-2.16339,0.0211425,1.65754,0.768366,-0.879376,0.214938,0.724014,-1.25048,0.369112,1.46742,-0.2866,-0.919884,0.217102,0.783143,-1.29911,0.379611,1.53234,-0.299857,-0.910633,-1.13986,0.42792,12.3429,0.909441,1.23709,0.0844213,-0.255341,0.855303,0.499442,1.62387,0.718117,0.503347,0.0330879
1223668,1,-1.62042,-0.507482,0.0405707,-2.16166,0.0196146,1.65452,0.769147,-1.62346,-0.50589,0.0431835,-2.1647,0.0215253,1.65908,0.768064,-0.884289,0.209032,0.738142,-1.24751,0.368215,1.48382,-0.284533,-0.926913,0.216245,0.789998,-1.3116,0.382787,1.54447,-0.302299,-0.680531,-1.06448,0.451724,11.7478,0.859087,1.03109,-0.00621587,-0.269302,0.877466,0.488784,1.63902,0.714046,0.509462,0.0299965
1223669,1,-1.62133,-0.50728,0.0413636,-2.16293,0.0199904,1.65603,0.76886,-1.6244,-0.505675,0.04398,-2.16602,0.0219111,1.66064,0.767759,-0.89316,0.207986,0.759344,-1.28005,0.374841,1.48554,-0.28126,-0.933266,0.214772,0.796447,-1.32409,0.385808,1.55597,-0.304618,-0.557545,-0.989105,0.630252,11.3272,0.909441,1.19223,-0.149038,-0.290727,0.9359,0.467948,1.62916,0.708904,0.512285,0.0273712
1223670,1,-1.62226,-0.507069,0.0421401,-2.16422,0.0203689,1.65756,0.768563,-1.62534,-0.505462,0.0447829,-2.16736,0.0222999,1.66221,0.767453,-0.901764,0.204224,0.765119,-1.27851,0.379583,1.50753,-0.293611,-0.939619,0.213299,0.802895,-1.33658,0.388829,1.56748,-0.306938,-0.430592,-1.04068,0.860354,10.752,1.03395,1.01828,-0.141714,-0.324468,1.01574,0.427669,1.60758,0.702836,0.513054,0.0251632
1223671,1,-1.62321,-0.506852,0.0429399,-2.16553,0.0207561,1.65914,0.768266,-1.62628,-0.50525,0.0455922,-2.16871,0.0226918,1.66379,0.767143,-0.916324,0.211822,0.776348,-1.28428,0.381394,1.52081,-0.290647,-0.945973,0.211827,0.809344,-1.34907,0.391849,1.57898,-0.309257,-0.279835,-1.26682,0.907962,10.6052,1.1136,0.748195,-0.225942,-0.364346,1.10712,0.375679,1.57571,0.696185,0.511666,0.0231165
1223672,1,-1.62415,-0.506631,0.0437339,-2.16685,0.0211565,1.66074,0.767968,-1.62723,-0.50504,0.046408,-2.17007,0.0230867,1.66538,0.766832,-0.932531,0.211098,0.780455,-1.30002,0.391437,1.54332,-0.289441,-0.952326,0.210354,0.815793,-1.36156,0.39487,1.59049,-0.311576,0.0494498,-1.52072,0.907962,10.5536,1.08522,0.541285,-0.271719,-0.399392,1.19783,0.326709,1.53434,0.68955,0.507791,0.0209469
1223673,1,-1.62509,-0.50641,0.0445325,-2.16819,0.0215573,1.6623,0.767687,-1.62819,-0.504831,0.0472302,-2.17144,0.0234846,1.66698,0.766518,-0.931749,0.21294,0.789235,-1.30918,0.393995,1.54935,-0.290707,-0.958679,0.208881,0.822242,-1.37405,0.397891,1.60199,-0.313895,0.0494498,-1.87381,1.01111,10.4068,1.05684,0.612697,-0.407217,-0.424245,1.27634,0.288307,1.49055,0.683473,0.50184,0.0184236
1223674,1,-1.62603,-0.506192,0.045334,-2.16955,0.0219678,1.66387,0.767413,-1.62916,-0.504624,0.0480589,-2.17283,0.0238855,1.66859,0.766202,-0.936221,0.216634,0.797827,-1.34421,0.397887,1.54276,-0.289146,-0.965033,0.207408,0.828691,-1.38654,0.400911,1.6135,-0.316214,0.0256461,-2.20309,1.18964,10.3315,0.971697,0.895594,-0.614126,-0.443351,1.33047,0.255307,1.45682,0.678151,0.495184,0.0153832
1223675,1,-1.62701,-0.50598,0.0461395,-2.17089,0.0223806,1.66545,0.767115,-1.63013,-0.504418,0.0488941,-2.17423,0.0242894,1.67022,0.765883,-0.952296,0.216196,0.814214,-1.34175,0.400611,1.55769,-0.289484,-0.971386,0.205936,0.83514,-1.39903,0.403932,1.625,-0.318533,0.32716,-2.40543,1.13806,10.1807,0.875566,1.03109,-0.659902,-0.461432,1.35044,0.220985,1.44332,0.673604,0.489307,0.0115869
1223676,1,-1.628,-0.505772,0.0469463,-2.17225,0.0227855,1.66708,0.766815,-1.63111,-0.504213,0.0497357,-2.17564,0.0246963,1.67185,0.765562,-0.96274,0.214107,0.808729,-1.34275,0.411757,1.57286,-0.288493,-0.977739,0.204463,0.841588,-1.41152,0.406952,1.63651,-0.320853,0.529491,-2.53238,1.31262,9.95853,0.853594,1.04391,-0.5949,-0.474016,1.35269,0.19142,1.43503,0.669493,0.483039,0.0066273
1223677,1,-1.62897,-0.505571,0.0477475,-2.17361,0.0232136,1.66873,0.766511,-1.63209,-0.50401,0.0505837,-2.17706,0.0251063,1.6735,0.765239,-0.968152,0.209409,0.805449,-1.34706,0.420949,1.58806,-0.291088,-0.984092,0.20299,0.848037,-1.42401,0.409973,1.64801,-0.323172,0.505688,-2.53238,1.46735,9.93473,0.796831,0.967006,-0.550039,-0.470661,1.36277,0.183044,1.40971,0.665412,0.474492,0.000179627
1223678,1,-1.62997,-0.505379,0.0485804,-2.175,0.0236443,1.67036,0.766197,-1.63308,-0.503809,0.0514382,-2.1785,0.0255193,1.67516,0.764914,-0.972202,0.206374,0.81674,-1.35601,0.421965,1.5975,-0.299195,-0.990446,0.201518,0.854486,-1.4365,0.412994,1.65952,-0.325491,0.60487,-2.42923,1.43958,9.98233,0.71718,1.06954,-0.349539,-0.44986,1.39334,0.199818,1.35965,0.661058,0.463346,-0.00773212
1223679,1,-1.63095,-0.505185,0.0494042,-2.17641,0.0240616,1.67202,0.765876,-1.63408,-0.503609,0.0522987,-2.17995,0.0259352,1.67683,0.764586,-0.977887,0.204816,0.829473,-1.37451,0.420609,1.60689,-0.303604,-0.996093,0.199529,0.860483,-1.44899,0.415853,1.67041,-0.327678,0.529491,-2.42923,1.69348,10.2085,0.700701,1.14736,-0.174673,-0.422493,1.44195,0.226331,1.29127,0.656148,0.45066,-0.0167182
1223680,1,-1.63196,-0.504986,0.0502234,-2.17783,0.0244821,1.67371,0.765555,-1.63508,-0.503412,0.0531651,-2.18141,0.0263539,1.67851,0.764256,-0.990339,0.20161,0.823209,-1.38643,0.415371,1.65224,-0.305396,-1.00174,0.197541,0.866481,-1.46148,0.418713,1.68131,-0.329864,0.581066,-2.4808,1.82044,10.506,0.779436,1.14096,-0.0318506,-0.392104,1.49898,0.256864,1.21538,0.650795,0.43761,-0.0262131
1223681,1,-1.63301,-0.504784,0.0510772,-2.1793,0.0249008,1.67537,0.765236,-1.63609,-0.503216,0.0540376,-2.18289,0.0267755,1.6802,0.763924,-1.00887,0.202309,0.832771,-1.40603,0.412233,1.65815,-0.311271,-1.00739,0.195553,0.872478,-1.47397,0.421572,1.6922,-0.332051,0.957958,-2.65536,1.69348,11.1527,0.859087,1.17941,0.0844213,-0.349568,1.55559,0.303485,1.13977,0.645527,0.424817,-0.0356307
1223682,1,-1.63401,-0.504571,0.0519165,-2.18076,0.0253063,1.67706,0.764924,-1.6371,-0.503023,0.0549161,-2.18437,0.0271999,1.68191,0.76359,-1.01312,0.206604,0.842284,-1.42861,0.411896,1.66598,-0.30979,-1.01304,0.193565,0.878475,-1.48646,0.424432,1.70309,-0.334238,0.88258,-3.01242,1.66968,11.7716,1.02297,1.32131,0.071604,-0.2928,1.59546,0.367732,1.07803,0.640782,0.413817,-0.0443531
1223683,1,-1.63501,-0.504358,0.052773,-2.18226,0.0257366,1.67873,0.764602,-1.63812,-0.502831,0.0558006,-2.18587,0.0276272,1.68362,0.763253,-0.998164,0.208177,0.849438,-1.44746,0.415884,1.67014,-0.320145,-1.01868,0.191577,0.884472,-1.49895,0.427292,1.71398,-0.336424,0.426342,-3.44089,1.64191,12.3429,1.06783,1.46871,0.110056,-0.235378,1.60198,0.431311,1.04475,0.636542,0.406477,-0.0518258
1223684,1,-1.636,-0.504154,0.0536495,-2.18379,0.0261704,1.68041,0.764272,-1.63914,-0.502641,0.056691,-2.18738,0.0280573,1.68535,0.762915,-1.00131,0.205629,0.854243,-1.4628,0.423693,1.66034,-0.32178,-1.02433,0.189589,0.89047,-1.51144,0.430151,1.72488,-0.338611,-0.00212494,-3.7424,1.46735,12.8904,1.00008,1.7333,0.0780126,-0.191775,1.57499,0.477062,1.0429,0.632578,0.403564,-0.0577445
1223685,1,-1.63702,-0.503953,0.0545316,-2.18527,0.0266121,1.68214,0.763934,-1.64017,-0.502454,0.0575875,-2.18891,0.0284903,1.68708,0.762574,-1.00785,0.204673,0.850181,-1.46815,0.4341,1.67838,-0.323703,-1.02998,0.187601,0.896467,-1.52393,0.433011,1.73577,-0.340798,-0.279835,-3.9725,1.11029,12.9895,0.921343,1.82302,0.0523779,-0.160475,1.52839,0.509254,1.06304,0.628846,0.404505,-0.062117
1223686,1,-1.63805,-0.503774,0.0554283,-2.18677,0.0270636,1.68384,0.763614,-1.64121,-0.502268,0.05849,-2.19044,0.0289262,1.68883,0.762231,-1.01036,0.198508,0.852468,-1.46783,0.434426,1.6811,-0.326094,-1.03563,0.185613,0.902464,-1.53642,0.43587,1.74666,-0.342984,-0.430592,-3.94473,0.781009,12.5928,0.773943,1.8688,-0.103262,-0.131722,1.48379,0.542853,1.08652,0.625261,0.407459,-0.0651558
1223687,1,-1.63908,-0.503599,0.0563414,-2.18827,0.0275126,1.68557,0.763289,-1.64225,-0.502085,0.0593984,-2.19199,0.0293649,1.69059,0.761886,-1.01179,0.189192,0.868183,-1.46863,0.439739,1.68764,-0.326192,-1.04127,0.183625,0.908462,-1.54891,0.43873,1.75756,-0.345171,-0.529774,-3.82175,0.451724,12.2953,0.627458,1.83584,-0.349539,-0.107197,1.46782,0.57625,1.09262,0.621255,0.410416,-0.0671384
1223688,1,-1.64009,-0.503437,0.0572381,-2.1898,0.0279819,1.6873,0.762958,-1.6433,-0.501903,0.0603129,-2.19355,0.0298065,1.69235,0.761538,-1.01212,0.180311,0.873456,-1.48293,0.451352,1.70032,-0.325448,-1.04692,0.181636,0.914459,-1.5614,0.441589,1.76845,-0.347358,-0.807484,-3.59164,0.249392,12.0691,0.491045,1.71408,-0.465811,-0.0964379,1.49855,0.595701,1.07091,0.616106,0.412497,-0.0684981
1223689,1,-1.64112,-0.50326,0.0581395,-2.19136,0.0284237,1.68908,0.762622,-1.64435,-0.501723,0.0612329,-2.19513,0.0302508,1.69413,0.761189,-1.01414,0.179683,0.875473,-1.49932,0.447881,1.72002,-0.327018,-1.05184,0.179511,0.919978,-1.57389,0.444278,1.77853,-0.349405,-1.109,-3.59164,0.249392,12.0691,0.581682,1.29476,-0.51708,-0.100963,1.5697,0.598322,1.02822,0.609615,0.414255,-0.069853
1223690,1,-1.64215,-0.503077,0.0590307,-2.19293,0.0288754,1.69088,0.762267,-1.64541,-0.501546,0.0621584,-2.19671,0.0306978,1.69592,0.760837,-1.0201,0.181561,0.877807,-1.52737,0.450599,1.74034,-0.335726,-1.05677,0.177386,0.925497,-1.58638,0.446967,1.78861,-0.351452,-1.06139,-3.7186,0.300967,12.3429,0.661333,0.908412,-0.478628,-0.113733,1.65234,0.592851,0.98463,0.60224,0.41705,-0.0717657
1223691,1,-1.64321,-0.502877,0.0599689,-2.19452,0.0293329,1.69269,0.761905,-1.64647,-0.501371,0.0630894,-2.19831,0.0311474,1.69772,0.760484,-1.02543,0.191046,0.893131,-1.54264,0.450782,1.75853,-0.347278,-1.06169,0.175261,0.931016,-1.59887,0.449656,1.79869,-0.353499,-0.910633,-4.09946,0.0470608,12.2715,0.802324,0.309657,-0.31658,-0.130671,1.7112,0.583143,0.961823,0.594598,0.4219,-0.0745359
1223692,1,-1.64425,-0.50268,0.0609091,-2.19612,0.0297815,1.69449,0.76156,-1.64753,-0.501198,0.0640259,-2.19992,0.0315998,1.69953,0.760128,-1.03425,0.194905,0.919591,-1.55353,0.453698,1.76264,-0.342703,-1.06661,0.173136,0.936534,-1.61136,0.452345,1.80877,-0.355546,-0.882862,-4.45255,-0.0521213,12.0215,0.887468,0.322474,-0.34313,-0.158197,1.72558,0.557567,0.968785,0.586882,0.428266,-0.0781148
1223693,1,-1.64529,-0.50248,0.0618336,-2.19768,0.0302474,1.69622,0.761191,-1.6486,-0.501027,0.064968,-2.20155,0.0320548,1.70135,0.759771,-1.04028,0.196717,0.921808,-1.55941,0.457134,1.74828,-0.352161,-1.07153,0.171011,0.942053,-1.62385,0.455034,1.81885,-0.357594,-1.00982,-4.78183,-0.0798923,11.5494,0.915849,0.831508,-0.18749,-0.201464,1.69789,0.506998,0.999501,0.579056,0.434463,-0.0822616
1223694,1,-1.64633,-0.502301,0.0627638,-2.19927,0.0307068,1.69802,0.760837,-1.64968,-0.500858,0.0659155,-2.20318,0.0325125,1.70318,0.759411,-1.03327,0.191932,0.917064,-1.56045,0.462404,1.75955,-0.352598,-1.07645,0.168886,0.947572,-1.63634,0.457723,1.82893,-0.359641,-1.18834,-4.85721,-0.0283176,10.9781,0.949724,1.05673,-0.18749,-0.253741,1.64811,0.442622,1.03768,0.571202,0.438666,-0.0867628
