shamilmamedov/beam_handling/data/param_estimation_ICRA/ocp_Xdown_35cm_0.57s_6.csv
duration, success rate, q[0], q[1], q[2], q[3], q[4], q[5], q[6],q_d[0], q_d[1], q_d[2], q_d[3], q_d[4], q_d[5], q_d[6],dq[0], dq[1], dq[2], dq[3], dq[4], dq[5], dq[6],dq_d[0], dq_d[1], dq_d[2], dq_d[3], dq_d[4], dq_d[5], dq_d[6],tau_J[0], tau_J[1], tau_J[2], tau_J[3], tau_J[4], tau_J[5], tau_J[6],tau_ext_hat_filtered[0], tau_ext_hat_filtered[1], tau_ext_hat_filtered[2], tau_ext_hat_filtered[3], tau_ext_hat_filtered[4], tau_ext_hat_filtered[5], tau_ext_hat_filtered[6]
3680887,0,-1.57108,-0.522791,-0.000647799,-2.09596,-1.57095,1.5716,0.785658,-1.5708,-0.523599,-6.08659e-08,-2.0944,-1.5708,1.5708,0.785399,-0.000602275,0.000533308,0.000386476,0.000196409,-0.000259792,-6.4066e-06,0.000559647,0,0,0,0,0,0,0,0.32716,-10.2408,0.98334,20.9717,-0.701887,-0.63059,-0.0968531,0.313366,-1.09187,0.817364,2.45389,-0.145339,-0.630931,-0.140446
3680888,1,-1.57107,-0.522789,-0.000645893,-2.09596,-1.57095,1.5716,0.78566,-1.5708,-0.523599,-6.08659e-08,-2.0944,-1.5708,1.5708,0.785399,0.000804909,0.00091235,0.000814462,-0.0015395,-0.000376645,-4.27107e-06,0.00108517,0,0,0,0,0,0,0,0.275585,-10.2646,0.959536,21.0431,-0.696394,-0.63059,-0.116079,0.313052,-1.09467,0.817267,2.45554,-0.145404,-0.63101,-0.140281
3680889,1,-1.57108,-0.522793,-0.000647484,-2.09595,-1.57095,1.5716,0.785654,-1.5708,-0.523599,-6.08659e-08,-2.0944,-1.5708,1.5708,0.785399,-0.00066982,5.14216e-05,-1.38371e-05,0.00129372,0.000359255,-0.000240206,-0.00141278,0,0,0,0,0,0,0,0.32716,-10.2408,0.98334,20.9439,-0.712874,-0.624181,-0.0584009,0.312278,-1.0989,0.816482,2.4579,-0.145493,-0.631164,-0.140114
3680890,1,-1.57108,-0.522792,-0.000649589,-2.09596,-1.57095,1.5716,0.785653,-1.5708,-0.523599,-6.08659e-08,-2.0944,-1.5708,1.5708,0.785399,-0.000446546,0.000591093,-9.2247e-06,-0.000343947,0.000239503,7.72214e-05,-0.00121312,0,0,0,0,0,0,0,0.32716,-10.2646,0.98334,20.9955,-0.712874,-0.63059,-0.0510767,0.311948,-1.10232,0.816246,2.4595,-0.145519,-0.631227,-0.139967
3680891,1,-1.57108,-0.522788,-0.000650108,-2.09596,-1.57095,1.5716,0.78566,-1.5708,-0.523599,-6.08659e-08,-2.0944,-1.5708,1.5708,0.785399,-0.000297698,0.00104368,-0.000655764,0.000327514,-4.37817e-05,-0.000185878,0.00159875,0,0,0,0,0,0,0,0.32716,-10.2924,1.01111,20.9717,-0.707381,-0.624181,-0.116079,0.312482,-1.1055,0.817207,2.46069,-0.145495,-0.631145,-0.139803
3680892,1,-1.57108,-0.522797,-0.000646473,-2.09596,-1.57095,1.5716,0.78566,-1.5708,-0.523599,-6.08659e-08,-2.0944,-1.5708,1.5708,0.785399,0.000358347,-0.00171707,0.00132606,0.000218343,0.000174263,0.00011344,0.000828475,0,0,0,0,0,0,0,0.303356,-10.1892,0.935733,20.9717,-0.712874,-0.63059,-0.10967,0.31303,-1.10752,0.818112,2.46124,-0.145452,-0.631036,-0.139605
3680893,1,-1.57108,-0.522794,-0.000648235,-2.09596,-1.57095,1.5716,0.785652,-1.5708,-0.523599,-6.08659e-08,-2.0944,-1.5708,1.5708,0.785399,-0.000317914,6.1714e-05,-0.000229583,0.000145562,-8.72754e-05,0.000312986,-0.00185518,0,0,0,0,0,0,0,0.32716,-10.2408,0.98334,20.9717,-0.707381,-0.636998,-0.044668,0.312919,-1.1062,0.817865,2.46017,-0.145379,-0.630982,-0.139419
3680894,1,-1.57108,-0.522796,-0.000649657,-2.09596,-1.57095,1.5716,0.785655,-1.5708,-0.523599,-6.08659e-08,-2.0944,-1.5708,1.5708,0.785399,0.000344869,-0.000608471,-0.000802669,9.70412e-05,-5.81836e-05,-2.87018e-05,-0.000253443,0,0,0,0,0,0,0,0.303356,-10.213,1.01111,20.9717,-0.707381,-0.63059,-0.0712183,0.312928,-1.10333,0.817727,2.45842,-0.145279,-0.630889,-0.139253
3680895,1,-1.57108,-0.522788,-0.000649482,-2.09596,-1.57095,1.5716,0.785659,-1.5708,-0.523599,-6.08659e-08,-2.0944,-1.5708,1.5708,0.785399,0.000229913,0.00145039,-0.000535113,-0.000492118,-3.8789e-05,-0.000256493,0.00101783,0,0,0,0,0,0,0,0.303356,-10.2924,1.01111,20.9955,-0.707381,-0.624181,-0.103262,0.313552,-1.10192,0.818632,2.45745,-0.145193,-0.63072,-0.139062
3680896,1,-1.57108,-0.522796,-0.000647474,-2.09596,-1.57095,1.5716,0.785657,-1.5708,-0.523599,-6.08659e-08,-2.0944,-1.5708,1.5708,0.785399,-0.000403537,-0.00200274,0.000292872,-0.00088489,0.000177591,6.63633e-05,-3.35219e-05,0,0,0,0,0,0,0,0.32716,-10.1654,0.98334,21.0193,-0.712874,-0.63059,-0.0840357,0.314295,-1.10193,0.819789,2.4575,-0.145149,-0.630546,-0.138837
3680897,1,-1.57108,-0.522793,-0.000645784,-2.09595,-1.57095,1.5716,0.785656,-1.5708,-0.523599,-6.08659e-08,-2.0944,-1.5708,1.5708,0.785399,-0.000269024,-0.000221533,0.00075206,0.00117331,-8.50564e-05,-0.000193117,-0.000259707,0,0,0,0,0,0,0,0.32716,-10.213,0.959536,20.9439,-0.707381,-0.624181,-0.077627,0.314699,-1.10018,0.82027,2.45687,-0.145098,-0.6304,-0.138612
3680898,1,-1.57107,-0.522793,-0.000645778,-2.09596,-1.57095,1.5716,0.785655,-1.5708,-0.523599,-6.08659e-08,-2.0944,-1.5708,1.5708,0.785399,0.00102708,0.000501925,0.000501373,-0.000424219,-5.67043e-05,0.000345973,-0.000410497,0,0,0,0,0,0,0,0.275585,-10.2408,0.959536,20.9955,-0.707381,-0.636998,-0.0712183,0.314256,-1.09751,0.819372,2.45548,-0.145046,-0.630375,-0.138396
3680899,1,-1.57108,-0.522792,-0.000649395,-2.09596,-1.57095,1.5716,0.78566,-1.5708,-0.523599,-6.08659e-08,-2.0944,-1.5708,1.5708,0.785399,-0.000521708,0.000891429,-0.000872177,-0.000282812,-3.78029e-05,0.000468008,0.00138785,0,0,0,0,0,0,0,0.32716,-10.2646,1.01111,20.9955,-0.707381,-0.643407,-0.116079,0.313425,-1.09756,0.818024,2.45526,-0.145044,-0.630447,-0.13817
3680900,1,-1.57108,-0.522792,-0.000649394,-2.09596,-1.57095,1.5716,0.785659,-1.5708,-0.523599,-6.08659e-08,-2.0944,-1.5708,1.5708,0.785399,-0.000347806,3.74739e-05,-0.000581451,-0.000745354,0.000178249,-0.000162713,0.000450514,0,0,0,0,0,0,0,0.32716,-10.2408,1.01111,21.0193,-0.712874,-0.63059,-0.103262,0.313524,-1.10015,0.818172,2.4565,-0.145068,-0.630418,-0.137939
3680901,1,-1.57108,-0.522789,-0.000651064,-2.09596,-1.57095,1.5716,0.785655,-1.5708,-0.523599,-6.08659e-08,-2.0944,-1.5708,1.5708,0.785399,-0.000788682,0.000581795,-0.000944446,-0.00105371,0.000118832,-0.000108475,-0.00112381,0,0,0,0,0,0,0,0.350963,-10.2646,1.03491,21.0431,-0.712874,-0.63059,-0.0648096,0.314865,-1.10374,0.820167,2.45859,-0.145091,-0.630224,-0.137736
3680902,1,-1.57108,-0.522789,-0.000651064,-2.09596,-1.57095,1.5716,0.785655,-1.5708,-0.523599,-6.08659e-08,-2.0944,-1.5708,1.5708,0.785399,3.10237e-05,0.000387863,-0.000629631,0.000411148,-0.000124229,-0.000309676,-0.000511848,0,0,0,0,0,0,0,0.32716,-10.2646,1.03491,20.9955,-0.707381,-0.624181,-0.0712183,0.316857,-1.10755,0.823124,2.46094,-0.145108,-0.629946,-0.137573
3680903,1,-1.57108,-0.522793,-0.000649394,-2.09596,-1.57095,1.5716,0.785658,-1.5708,-0.523599,-6.08659e-08,-2.0944,-1.5708,1.5708,0.785399,2.06825e-05,-0.000298237,0.000137058,0.000274098,0.000120631,0.000268267,0.000608204,0,0,0,0,0,0,0,0.32716,-10.2408,1.01111,20.9955,-0.712874,-0.636998,-0.0968531,0.318547,-1.11006,0.825632,2.4623,-0.145099,-0.629713,-0.137424
3680904,1,-1.57108,-0.522795,-0.000645775,-2.09596,-1.57095,1.5716,0.785659,-1.5708,-0.523599,-6.08659e-08,-2.0944,-1.5708,1.5708,0.785399,0.0005706,-0.00140525,0.0012978,0.000739544,-0.00012303,-5.8514e-05,0.000642828,0,0,0,0,0,0,0,0.303356,-10.1892,0.959536,20.9717,-0.707381,-0.63059,-0.103262,0.318849,-1.10916,0.825986,2.46161,-0.14506,-0.629665,-0.137277
3680905,1,-1.57107,-0.522793,-0.000649394,-2.09596,-1.57095,1.5716,0.785655,-1.5708,-0.523599,-6.08659e-08,-2.0944,-1.5708,1.5708,0.785399,0.00103001,-0.000380022,-0.000341227,-0.000620594,-0.00028547,0.00019835,-0.000758243,0,0,0,0,0,0,0,0.275585,-10.213,1.01111,21.0193,-0.701887,-0.636998,-0.0712183,0.317635,-1.10524,0.824048,2.45941,-0.145013,-0.629819,-0.137149
3680906,1,-1.57107,-0.522791,-0.000642155,-2.09595,-1.57095,1.5716,0.785655,-1.5708,-0.523599,-6.08659e-08,-2.0944,-1.5708,1.5708,0.785399,0.000686676,0.000396266,0.00218537,0.00134951,1.3137e-05,0.000132233,-0.000742854,0,0,0,0,0,0,0,0.275585,-10.2408,0.907962,20.9439,-0.707381,-0.636998,-0.0648096,0.315254,-1.10129,0.820477,2.45719,-0.144994,-0.630152,-0.137039
3680907,1,-1.57107,-0.522795,-0.000649394,-2.09596,-1.57095,1.5716,0.785659,-1.5708,-0.523599,-6.08659e-08,-2.0944,-1.5708,1.5708,0.785399,0.000457784,-0.000385436,-0.00095594,-0.000306754,0.000415659,-0.000149204,0.000928918,0,0,0,0,0,0,0,0.275585,-10.213,1.01111,20.9955,-0.718367,-0.63059,-0.103262,0.312357,-1.09864,0.816232,2.45539,-0.144994,-0.63058,-0.136925
3680908,1,-1.57107,-0.522791,-0.000649394,-2.09596,-1.57095,1.5716,0.785659,-1.5708,-0.523599,-6.08659e-08,-2.0944,-1.5708,1.5708,0.785399,0.000305189,0.000392656,-0.000637294,0.000352309,-0.000129795,0.00013789,0.000619278,0,0,0,0,0,0,0,0.275585,-10.2408,1.01111,20.9717,-0.707381,-0.636998,-0.103262,0.310502,-1.09708,0.813704,2.45418,-0.144982,-0.630855,-0.136792
3680909,1,-1.57108,-0.522793,-0.000647445,-2.09596,-1.57095,1.5716,0.785654,-1.5708,-0.523599,-6.08659e-08,-2.0944,-1.5708,1.5708,0.785399,-0.00100297,0.000261771,0.000224752,0.000234873,-8.653e-05,-0.000145432,-0.00124866,0,0,0,0,0,0,0,0.32716,-10.2408,0.98334,20.9717,-0.707381,-0.63059,-0.0584009,0.310163,-1.09684,0.813561,2.4537,-0.144956,-0.630906,-0.136662
3680910,1,-1.57108,-0.522793,-0.000647445,-2.09596,-1.57095,1.5716,0.785657,-1.5708,-0.523599,-6.08659e-08,-2.0944,-1.5708,1.5708,0.785399,-0.00122546,-0.0004751,0.000149834,0.000156582,0.000145764,0.000140404,0.000116996,0,0,0,0,0,0,0,0.350963,-10.213,0.98334,20.9717,-0.712874,-0.636998,-0.0840357,0.310784,-1.09703,0.814707,2.45346,-0.144917,-0.630816,-0.136544
3680911,1,-1.57107,-0.522795,-0.000645775,-2.09596,-1.57095,1.5716,0.785662,-1.5708,-0.523599,-6.08659e-08,-2.0944,-1.5708,1.5708,0.785399,0.000946267,-0.000873545,0.000656702,-0.000452424,-0.000513176,9.36027e-05,0.00173951,0,0,0,0,0,0,0,0.275585,-10.1892,0.959536,20.9955,-0.696394,-0.636998,-0.128897,0.311485,-1.09623,0.815806,2.45297,-0.144876,-0.630707,-0.136421
3680912,1,-1.57108,-0.522791,-0.000647445,-2.09596,-1.57095,1.5716,0.785656,-1.5708,-0.523599,-6.08659e-08,-2.0944,-1.5708,1.5708,0.785399,-0.000575581,0.000624062,-0.000119011,-0.000858428,0.000268234,-0.000412316,-0.000739198,0,0,0,0,0,0,0,0.32716,-10.2408,0.98334,21.0193,-0.712874,-0.624181,-0.077627,0.311573,-1.09546,0.816007,2.45292,-0.144873,-0.630694,-0.136302
3680913,1,-1.57108,-0.522793,-0.000649394,-2.09596,-1.57095,1.5716,0.785658,-1.5708,-0.523599,-6.08659e-08,-2.0944,-1.5708,1.5708,0.785399,-0.000383721,-0.000233572,-0.000728955,0.000541339,-0.000228078,0.000437199,-1.80811e-05,0,0,0,0,0,0,0,0.32716,-10.213,1.01111,20.9717,-0.701887,-0.643407,-0.0904444,0.31191,-1.09605,0.816617,2.45373,-0.144884,-0.630661,-0.136215
3680914,1,-1.57108,-0.522793,-0.000649576,-2.09595,-1.57095,1.5716,0.78566,-1.5708,-0.523599,-6.08659e-08,-2.0944,-1.5708,1.5708,0.785399,-0.000812626,-0.000155715,0.000163644,0.00101051,5.13985e-05,5.41073e-05,0.000700023,0,0,0,0,0,0,0,0.350963,-10.213,0.98334,20.9439,-0.707381,-0.636998,-0.10967,0.313009,-1.0963,0.818281,2.45396,-0.144838,-0.630522,-0.136163
3680915,1,-1.57108,-0.522791,-0.000648155,-2.09596,-1.57095,1.5716,0.785658,-1.5708,-0.523599,-6.08659e-08,-2.0944,-1.5708,1.5708,0.785399,1.50614e-05,0.000545804,0.000109096,-0.00108957,-0.000169185,-0.000438646,-8.03604e-06,0,0,0,0,0,0,0,0.32716,-10.2408,0.98334,21.0193,-0.701887,-0.624181,-0.0968531,0.314147,-1.09624,0.819879,2.45375,-0.144767,-0.630392,-0.13614
3680916,1,-1.57108,-0.522794,-0.000647682,-2.09596,-1.57095,1.5716,0.785657,-1.5708,-0.523599,-6.08659e-08,-2.0944,-1.5708,1.5708,0.785399,0.000566853,-0.000842557,7.27308e-05,-0.000726378,-0.00031624,0.000182287,-0.000480075,0,0,0,0,0,0,0,0.303356,-10.1892,0.98334,21.0193,-0.696394,-0.636998,-0.0840357,0.314671,-1.09717,0.82054,2.45445,-0.14474,-0.630374,-0.136148
3680917,1,-1.57108,-0.522793,-0.000647524,-2.09596,-1.57095,1.5716,0.78566,-1.5708,-0.523599,-6.08659e-08,-2.0944,-1.5708,1.5708,0.785399,-0.00017891,-4.89242e-06,4.84872e-05,7.256e-05,0.000196074,0.000121525,0.000629386,0,0,0,0,0,0,0,0.32716,-10.213,0.98334,20.9955,-0.707381,-0.636998,-0.10967,0.314605,-1.09784,0.820331,2.45542,-0.144727,-0.630444,-0.136187
3680918,1,-1.57108,-0.522791,-0.000647471,-2.09595,-1.57095,1.5716,0.785658,-1.5708,-0.523599,-6.08659e-08,-2.0944,-1.5708,1.5708,0.785399,0.000437539,0.000646352,3.23248e-05,0.0012548,0.000130716,-0.000156342,-5.51275e-05,0,0,0,0,0,0,0,0.303356,-10.2408,0.98334,20.9439,-0.707381,-0.63059,-0.0968531,0.314307,-1.09798,0.819745,2.45576,-0.144675,-0.630551,-0.136252
3680919,1,-1.57108,-0.522793,-0.000649584,-2.09596,-1.57095,1.5716,0.785658,-1.5708,-0.523599,-6.08659e-08,-2.0944,-1.5708,1.5708,0.785399,-0.000821932,0.000430902,2.15499e-05,-0.000926705,8.7144e-05,0.000133131,-3.67517e-05,0,0,0,0,0,0,0,0.350963,-10.2408,0.98334,21.0193,-0.707381,-0.636998,-0.0968531,0.314086,-1.09891,0.819235,2.45603,-0.144605,-0.630664,-0.136341
3680920,1,-1.57107,-0.522791,-0.000650107,-2.09596,-1.57095,1.5716,0.785655,-1.5708,-0.523599,-6.08659e-08,-2.0944,-1.5708,1.5708,0.785399,0.00121528,0.000287268,-0.000635247,-6.09914e-05,0.000702356,8.87537e-05,-0.0012113,0,0,0,0,0,0,0,0.275585,-10.2408,1.01111,20.9955,-0.724776,-0.636998,-0.0648096,0.314081,-1.10104,0.81906,2.45703,-0.144554,-0.630759,-0.136451
3680921,1,-1.57108,-0.522793,-0.000647683,-2.09595,-1.57095,1.5716,0.78566,-1.5708,-0.523599,-6.08659e-08,-2.0944,-1.5708,1.5708,0.785399,-0.000953049,-0.000458102,0.000226116,0.000516151,-0.000176023,-0.00017819,0.000853982,0,0,0,0,0,0,0,0.350963,-10.213,0.98334,20.9717,-0.707381,-0.63059,-0.10967,0.314203,-1.10272,0.819103,2.45793,-0.144507,-0.630828,-0.136565
3680922,1,-1.57108,-0.522791,-0.000651604,-2.09596,-1.57095,1.5716,0.78566,-1.5708,-0.523599,-6.08659e-08,-2.0944,-1.5708,1.5708,0.785399,-0.000635366,0.000344213,-0.00049887,-0.000212711,-0.000117348,-0.000118793,0.000569321,0,0,0,0,0,0,0,0.350963,-10.2408,1.01111,20.9955,-0.707381,-0.63059,-0.10967,0.314778,-1.10293,0.81969,2.45799,-0.144441,-0.630817,-0.136667
3680923,1,-1.57108,-0.522793,-0.00065013,-2.09596,-1.57095,1.5716,0.785656,-1.5708,-0.523599,-6.08659e-08,-2.0944,-1.5708,1.5708,0.785399,0.000133235,0.000229475,-0.00033258,-0.000141808,0.000328669,-0.000316554,-0.000807247,0,0,0,0,0,0,0,0.32716,-10.2408,1.01111,20.9955,-0.718367,-0.624181,-0.077627,0.315882,-1.10312,0.820969,2.45809,-0.144384,-0.630726,-0.136766
3680924,1,-1.57108,-0.522792,-0.000649639,-2.09596,-1.57095,1.5716,0.785655,-1.5708,-0.523599,-6.08659e-08,-2.0944,-1.5708,1.5708,0.785399,8.88231e-05,0.000709795,-0.00022172,-9.45383e-05,1.5662e-05,0.000263682,-0.000775524,0,0,0,0,0,0,0,0.32716,-10.2646,1.01111,20.9955,-0.712874,-0.636998,-0.0712183,0.316887,-1.10428,0.822163,2.45872,-0.144367,-0.630655,-0.136873
3680925,1,-1.57108,-0.522792,-0.000649657,-2.09596,-1.57095,1.5716,0.78566,-1.5708,-0.523599,-6.08659e-08,-2.0944,-1.5708,1.5708,0.785399,5.92154e-05,-8.36151e-05,0.000501801,-6.30256e-05,1.04413e-05,0.000413147,0.0011445,0,0,0,0,0,0,0,0.32716,-10.2408,0.98334,20.9955,-0.712874,-0.643407,-0.116079,0.3173,-1.10591,0.822521,2.45957,-0.144392,-0.630676,-0.136966
3680926,1,-1.57108,-0.522793,-0.000650131,-2.09596,-1.57095,1.5716,0.785659,-1.5708,-0.523599,-6.08659e-08,-2.0944,-1.5708,1.5708,0.785399,3.94769e-05,-0.000705357,-0.00031508,-0.000598829,6.96088e-06,-0.000436646,0.00028828,0,0,0,0,0,0,0,0.32716,-10.213,1.01111,21.0193,-0.712874,-0.624181,-0.103262,0.317217,-1.10652,0.822107,2.46004,-0.14444,-0.630763,-0.137039
3680927,1,-1.57108,-0.522793,-0.00064964,-2.09595,-1.57095,1.5716,0.785655,-1.5708,-0.523599,-6.08659e-08,-2.0944,-1.5708,1.5708,0.785399,0.00058313,-0.000470238,-0.000210053,0.00192083,0.000208091,0.000183621,-0.000994608,0,0,0,0,0,0,0,0.303356,-10.213,1.01111,20.9201,-0.718367,-0.636998,-0.0712183,0.317059,-1.1047,0.821559,2.45923,-0.14446,-0.630835,-0.13712
3680928,1,-1.57108,-0.522793,-0.000647987,-2.09596,-1.57095,1.5716,0.785659,-1.5708,-0.523599,-6.08659e-08,-2.0944,-1.5708,1.5708,0.785399,-0.000168059,-0.000313492,0.00106639,-0.0010395,-6.47231e-05,-0.000352304,0.000523723,0,0,0,0,0,0,0,0.32716,-10.213,0.959536,21.0193,-0.712874,-0.624181,-0.103262,0.316628,-1.10118,0.820599,2.45724,-0.144459,-0.630926,-0.137214
3680929,1,-1.57108,-0.522793,-0.000650131,-2.09596,-1.57095,1.5716,0.785658,-1.5708,-0.523599,-6.08659e-08,-2.0944,-1.5708,1.5708,0.785399,-0.000112039,0.000440619,-0.000495499,-0.000136185,0.000397661,0.000239849,0.00011179,0,0,0,0,0,0,0,0.32716,-10.2408,1.01111,20.9955,-0.724776,-0.636998,-0.0968531,0.315948,-1.0987,0.819254,2.45597,-0.144512,-0.631058,-0.137298
3680930,1,-1.57108,-0.522795,-0.000647691,-2.09595,-1.57095,1.5716,0.785658,-1.5708,-0.523599,-6.08659e-08,-2.0944,-1.5708,1.5708,0.785399,0.000482119,-0.000355868,0.000319281,0.00111564,-0.000379153,-0.000314819,7.45263e-05,0,0,0,0,0,0,0,0.303356,-10.213,0.98334,20.9439,-0.707381,-0.624181,-0.0968531,0.315473,-1.09757,0.81826,2.45543,-0.144605,-0.631167,-0.137373
3680931,1,-1.57108,-0.522794,-0.000651146,-2.09596,-1.57095,1.5716,0.785657,-1.5708,-0.523599,-6.08659e-08,-2.0944,-1.5708,1.5708,0.785399,0.000321413,-0.000237245,-0.000993572,-0.00222591,-4.9318e-05,2.74797e-05,-0.000425034,0,0,0,0,0,0,0,0.303356,-10.213,1.03491,21.0709,-0.712874,-0.63059,-0.0840357,0.315273,-1.09671,0.817802,2.45508,-0.14471,-0.631222,-0.137452
3680932,1,-1.57107,-0.522793,-0.000647472,-2.09596,-1.57095,1.5716,0.785655,-1.5708,-0.523599,-6.08659e-08,-2.0944,-1.5708,1.5708,0.785399,0.000863889,-0.000158163,0.000544045,0.0002793,-0.000236329,-0.000219039,-0.000995433,0,0,0,0,0,0,0,0.275585,-10.213,0.98334,20.9955,-0.707381,-0.624181,-0.0648096,0.315124,-1.09664,0.81761,2.45568,-0.144854,-0.631254,-0.137528
3680933,1,-1.57108,-0.522793,-0.000649403,-2.09596,-1.57095,1.5716,0.78566,-1.5708,-0.523599,-6.08659e-08,-2.0944,-1.5708,1.5708,0.785399,-0.0006305,-0.000105442,-0.000286917,0.0001862,-0.000157553,0.000328692,0.00123525,0,0,0,0,0,0,0,0.32716,-10.213,1.01111,20.9955,-0.707381,-0.636998,-0.116079,0.314839,-1.09672,0.817321,2.4564,-0.144999,-0.631287,-0.137584
3680934,1,-1.57108,-0.522793,-0.000649579,-2.09596,-1.57095,1.5716,0.785658,-1.5708,-0.523599,-6.08659e-08,-2.0944,-1.5708,1.5708,0.785399,0.000136479,-7.02949e-05,0.000458336,0.000124133,0.000301866,0.000219128,-0.000125936,0,0,0,0,0,0,0,0.303356,-10.213,0.98334,20.9955,-0.718367,-0.636998,-0.0904444,0.314652,-1.09626,0.81716,2.45647,-0.145105,-0.63129,-0.137616
3680935,1,-1.57107,-0.522791,-0.000650105,-2.09596,-1.57095,1.5716,0.785652,-1.5708,-0.523599,-6.08659e-08,-2.0944,-1.5708,1.5708,0.785399,0.0007406,0.000602751,-0.000344057,-0.00103087,-0.000409108,-9.12737e-05,-0.00177938,0,0,0,0,0,0,0,0.275585,-10.2408,1.01111,21.0431,-0.701887,-0.63059,-0.044668,0.314399,-1.09658,0.816984,2.45692,-0.145212,-0.631306,-0.137637
3680936,1,-1.57108,-0.522793,-0.000649813,-2.09596,-1.57095,1.5716,0.78566,-1.5708,-0.523599,-6.08659e-08,-2.0944,-1.5708,1.5708,0.785399,-0.000712693,-0.00024778,0.000420243,0.000426378,-6.92879e-05,-0.000298208,0.00122125,0,0,0,0,0,0,0,0.32716,-10.213,0.98334,20.9955,-0.707381,-0.624181,-0.10967,0.314041,-1.09797,0.816772,2.45805,-0.145333,-0.631342,-0.137638
3680937,1,-1.57108,-0.522793,-0.000650183,-2.09596,-1.57095,1.5716,0.785658,-1.5708,-0.523599,-6.08659e-08,-2.0944,-1.5708,1.5708,0.785399,8.16835e-05,-0.000165187,-0.000369452,0.000284252,-4.6192e-05,0.000513271,0.000339446,0,0,0,0,0,0,0,0.303356,-10.213,1.01111,20.9955,-0.707381,-0.643407,-0.0968531,0.313992,-1.09858,0.817003,2.45867,-0.14541,-0.631319,-0.137601
3680938,1,-1.57107,-0.522795,-0.000648168,-2.09596,-1.57095,1.5716,0.785659,-1.5708,-0.523599,-6.08659e-08,-2.0944,-1.5708,1.5708,0.785399,0.00070407,-0.000110125,0.000960124,-0.00036731,-3.07946e-05,0.000342181,0.000463656,0,0,0,0,0,0,0,0.275585,-10.213,0.959536,21.0193,-0.707381,-0.643407,-0.103262,0.313759,-1.0981,0.816965,2.4586,-0.145447,-0.631314,-0.137549
3680939,1,-1.57108,-0.522794,-0.000648703,-2.09596,-1.57095,1.5716,0.785655,-1.5708,-0.523599,-6.08659e-08,-2.0944,-1.5708,1.5708,0.785399,-0.000737046,0.000576198,0.000640083,0.00086875,0.000182921,-9.2383e-06,-0.000877691,0,0,0,0,0,0,0,0.32716,-10.2408,0.959536,20.9717,-0.712874,-0.636998,-0.0712183,0.312836,-1.09775,0.815914,2.45855,-0.145485,-0.631428,-0.137508
3680940,1,-1.57107,-0.522792,-0.000646751,-2.09596,-1.57095,1.5716,0.78566,-1.5708,-0.523599,-6.08659e-08,-2.0944,-1.5708,1.5708,0.785399,0.000715062,0.000384132,0.000426722,-0.00109127,-8.15033e-05,-0.000243518,0.000839027,0,0,0,0,0,0,0,0.275585,-10.2408,0.959536,21.0431,-0.707381,-0.63059,-0.10967,0.311644,-1.09845,0.814412,2.45895,-0.145535,-0.631608,-0.137477
3680941,1,-1.57108,-0.522791,-0.00064777,-2.09596,-1.57095,1.5716,0.785661,-1.5708,-0.523599,-6.08659e-08,-2.0944,-1.5708,1.5708,0.785399,-0.000172906,0.000256088,-0.000272331,0.000386111,0.000352565,-0.000399704,0.00103407,0,0,0,0,0,0,0,0.303356,-10.2408,0.98334,20.9955,-0.718367,-0.624181,-0.122488,0.310667,-1.10018,0.813265,2.46007,-0.145601,-0.631772,-0.137449
3680942,1,-1.57107,-0.522789,-0.000645883,-2.09596,-1.57095,1.5716,0.785657,-1.5708,-0.523599,-6.08659e-08,-2.0944,-1.5708,1.5708,0.785399,0.00109116,0.000727537,0.000375258,0.000257407,3.15931e-05,-0.000266469,-0.000734774,0,0,0,0,0,0,0,0.251781,-10.2646,0.959536,20.9955,-0.712874,-0.624181,-0.0840357,0.309922,-1.10213,0.812543,2.46125,-0.145659,-0.631893,-0.137448
3680943,1,-1.57108,-0.522791,-0.0006511,-2.09596,-1.57095,1.5716,0.785654,-1.5708,-0.523599,-6.08659e-08,-2.0944,-1.5708,1.5708,0.785399,-0.000478989,-7.17872e-05,-0.00151307,0.000728417,-0.000385839,5.97127e-05,-0.00143929,0,0,0,0,0,0,0,0.303356,-10.2408,1.03491,20.9717,-0.701887,-0.63059,-0.0584009,0.30965,-1.10356,0.812623,2.46186,-0.145677,-0.631916,-0.137494
3680944,1,-1.57108,-0.522789,-0.000645787,-2.09596,-1.57095,1.5716,0.785661,-1.5708,-0.523599,-6.08659e-08,-2.0944,-1.5708,1.5708,0.785399,-0.000876138,0.000508954,0.000754527,0.000485611,0.000149675,3.98084e-05,0.00141407,0,0,0,0,0,0,0,0.32716,-10.2646,0.959536,20.9717,-0.712874,-0.63059,-0.122488,0.310348,-1.104,0.814125,2.46171,-0.145637,-0.63176,-0.137557
3680945,1,-1.57108,-0.522789,-0.000649398,-2.09596,-1.57095,1.5716,0.785654,-1.5708,-0.523599,-6.08659e-08,-2.0944,-1.5708,1.5708,0.785399,-0.000584092,0.000339303,-0.000703408,0.000323741,0.000540593,-0.000448179,-0.000244084,0,0,0,0,0,0,0,0.32716,-10.2646,1.01111,20.9717,-0.724776,-0.617772,-0.0904444,0.311642,-1.10408,0.816355,2.46126,-0.145575,-0.631495,-0.13761
3680946,1,-1.57108,-0.522791,-0.000649577,-2.09596,-1.57095,1.5716,0.785654,-1.5708,-0.523599,-6.08659e-08,-2.0944,-1.5708,1.5708,0.785399,-0.000389395,-0.00033061,0.000180676,0.000215827,-0.000283865,0.000175932,-0.0008748,0,0,0,0,0,0,0,0.32716,-10.2408,0.98334,20.9717,-0.707381,-0.63059,-0.0712183,0.313048,-1.1039,0.818627,2.46072,-0.14552,-0.631195,-0.137665
3680947,1,-1.57108,-0.522793,-0.000648156,-2.09596,-1.57095,1.5716,0.785656,-1.5708,-0.523599,-6.08659e-08,-2.0944,-1.5708,1.5708,0.785399,0.000297215,-0.000870021,0.00012045,-0.000412927,-0.000189243,0.000354647,-0.000345841,0,0,0,0,0,0,0,0.303356,-10.213,0.98334,20.9955,-0.707381,-0.636998,-0.077627,0.314057,-1.10242,0.820234,2.45982,-0.145478,-0.630927,-0.137723
3680948,1,-1.57107,-0.522795,-0.000646011,-2.09596,-1.57095,1.5716,0.78566,-1.5708,-0.523599,-6.08659e-08,-2.0944,-1.5708,1.5708,0.785399,0.000847758,-0.000580014,0.000637112,-0.00138891,0.000280739,-9.27677e-07,0.000956234,0,0,0,0,0,0,0,0.275585,-10.213,0.959536,21.0431,-0.718367,-0.63059,-0.10967,0.313942,-1.10004,0.820169,2.45906,-0.145489,-0.630812,-0.137756
3680949,1,-1.57107,-0.522794,-0.000649473,-2.09596,-1.57095,1.5716,0.785657,-1.5708,-0.523599,-6.08659e-08,-2.0944,-1.5708,1.5708,0.785399,0.000565172,0.000262938,-0.000781684,-0.000369127,-0.000219742,0.00023674,-0.000311946,0,0,0,0,0,0,0,0.275585,-10.2408,1.01111,21.0193,-0.707381,-0.636998,-0.0840357,0.312971,-1.09849,0.818964,2.45927,-0.145567,-0.630834,-0.137758
3680950,1,-1.57108,-0.522794,-0.000649602,-2.09596,-1.57095,1.5716,0.785655,-1.5708,-0.523599,-6.08659e-08,-2.0944,-1.5708,1.5708,0.785399,-0.000272833,0.000175292,0.000128491,0.000867539,-0.000349945,0.000157827,-0.000920041,0,0,0,0,0,0,0,0.303356,-10.2408,0.98334,20.9717,-0.701887,-0.636998,-0.0648096,0.312118,-1.09817,0.818068,2.45989,-0.145651,-0.630858,-0.137749
3680951,1,-1.57108,-0.522792,-0.000648624,-2.09596,-1.57095,1.5716,0.785656,-1.5708,-0.523599,-6.08659e-08,-2.0944,-1.5708,1.5708,0.785399,-0.0007387,0.000116861,0.000642473,-0.000535264,-0.000233297,-0.000132141,-0.000138643,0,0,0,0,0,0,0,0.32716,-10.2408,0.959536,21.0193,-0.701887,-0.63059,-0.077627,0.311647,-1.09829,0.817672,2.4602,-0.1457,-0.630848,-0.137725
3680952,1,-1.57108,-0.522793,-0.000650344,-2.09596,-1.57095,1.5716,0.785662,-1.5708,-0.523599,-6.08659e-08,-2.0944,-1.5708,1.5708,0.785399,6.4345e-05,-0.000571706,-0.000778111,0.000199969,0.00025137,0.000149265,0.00180644,0,0,0,0,0,0,0,0.303356,-10.213,1.01111,20.9955,-0.712874,-0.636998,-0.128897,0.311499,-1.09825,0.817615,2.46031,-0.145719,-0.630804,-0.137665
3680953,1,-1.57108,-0.522791,-0.000644421,-2.09595,-1.57095,1.5716,0.785656,-1.5708,-0.523599,-6.08659e-08,-2.0944,-1.5708,1.5708,0.785399,4.28966e-05,0.000268476,0.0012445,0.00133974,0.00016758,-0.000375208,-0.000694576,0,0,0,0,0,0,0,0.303356,-10.2408,0.935733,20.9439,-0.712874,-0.624181,-0.077627,0.311387,-1.09731,0.817547,2.45973,-0.145698,-0.630759,-0.137589
3680954,1,-1.57108,-0.522793,-0.00064755,-2.09596,-1.57095,1.5716,0.785651,-1.5708,-0.523599,-6.08659e-08,-2.0944,-1.5708,1.5708,0.785399,-0.000528214,0.000178984,-0.000283959,-0.000870079,0.00011172,0.000224579,-0.00215847,0,0,0,0,0,0,0,0.32716,-10.2408,0.98334,21.0193,-0.712874,-0.636998,-0.0318506,0.310947,-1.09637,0.816912,2.45884,-0.145664,-0.630774,-0.137528
3680955,1,-1.57108,-0.522793,-0.000649429,-2.09596,-1.57095,1.5716,0.785658,-1.5708,-0.523599,-6.08659e-08,-2.0944,-1.5708,1.5708,0.785399,-0.000908955,-0.000530291,-0.00083892,-2.32406e-05,0.00027793,0.00014972,0.000968517,0,0,0,0,0,0,0,0.350963,-10.213,1.01111,20.9955,-0.718367,-0.636998,-0.0968531,0.311126,-1.09624,0.817107,2.45862,-0.145639,-0.630712,-0.137453
3680956,1,-1.57108,-0.522791,-0.000647917,-2.09596,-1.57095,1.5716,0.785661,-1.5708,-0.523599,-6.08659e-08,-2.0944,-1.5708,1.5708,0.785399,0.000507654,0.000296087,0.000647146,0.000541318,0.000185287,-0.000137546,0.00159511,0,0,0,0,0,0,0,0.303356,-10.2408,0.959536,20.9717,-0.718367,-0.63059,-0.122488,0.311962,-1.09606,0.818208,2.45856,-0.145614,-0.630563,-0.137328
3680957,1,-1.57107,-0.522793,-0.000648159,-2.09596,-1.57095,1.5716,0.785655,-1.5708,-0.523599,-6.08659e-08,-2.0944,-1.5708,1.5708,0.785399,0.00098805,0.000197391,-0.000125381,-0.000752745,-0.000486827,0.000145662,-0.00107282,0,0,0,0,0,0,0,0.275585,-10.2408,0.98334,21.0193,-0.701887,-0.636998,-0.0648096,0.312014,-1.09629,0.818188,2.45862,-0.145632,-0.630556,-0.137178
3680958,1,-1.57107,-0.522794,-0.000647683,-2.09596,-1.57095,1.5716,0.785652,-1.5708,-0.523599,-6.08659e-08,-2.0944,-1.5708,1.5708,0.785399,0.0006587,0.000131594,-8.35876e-05,-0.00050183,0.0002858,0.000334467,-0.00169856,0,0,0,0,0,0,0,0.275585,-10.2408,0.98334,21.0193,-0.718367,-0.643407,-0.0382593,0.311141,-1.09776,0.816965,2.45952,-0.145715,-0.63071,-0.137039
3680959,1,-1.57108,-0.522792,-0.000647524,-2.09596,-1.57095,1.5716,0.785658,-1.5708,-0.523599,-6.08659e-08,-2.0944,-1.5708,1.5708,0.785399,-0.000767293,8.77293e-05,-5.5725e-05,0.000222259,-1.2917e-05,-0.00025174,0.000800408,0,0,0,0,0,0,0,0.32716,-10.2408,0.98334,20.9955,-0.712874,-0.63059,-0.0904444,0.310323,-1.09964,0.815885,2.4608,-0.145811,-0.630867,-0.136884
3680960,1,-1.57108,-0.522791,-0.00064942,-2.09596,-1.57095,1.5716,0.78566,-1.5708,-0.523599,-6.08659e-08,-2.0944,-1.5708,1.5708,0.785399,-0.000511528,5.84862e-05,-0.000686764,0.000148172,0.000194839,-0.000167827,0.00148304,0,0,0,0,0,0,0,0.32716,-10.2408,1.01111,20.9955,-0.718367,-0.63059,-0.116079,0.310405,-1.10091,0.816032,2.4616,-0.145875,-0.630892,-0.136682
3680961,1,-1.57108,-0.522793,-0.000644113,-2.09596,-1.57095,1.5716,0.785658,-1.5708,-0.523599,-6.08659e-08,-2.0944,-1.5708,1.5708,0.785399,-0.000341019,-0.000610623,0.0013054,0.000655594,-0.000480459,-0.000111884,3.92581e-05,0,0,0,0,0,0,0,0.32716,-10.213,0.935733,20.9717,-0.701887,-0.63059,-0.0904444,0.310966,-1.10081,0.81672,2.46146,-0.145903,-0.630839,-0.136461
3680962,1,-1.57108,-0.522791,-0.000649397,-2.09596,-1.57095,1.5716,0.785653,-1.5708,-0.523599,-6.08659e-08,-2.0944,-1.5708,1.5708,0.785399,-0.000227346,0.000242532,-0.000892974,0.000437062,8.65952e-05,-0.000311949,-0.00143189,0,0,0,0,0,0,0,0.32716,-10.2408,1.01111,20.9717,-0.712874,-0.624181,-0.0510767,0.311308,-1.09936,0.816928,2.4604,-0.145907,-0.630808,-0.13627
3680963,1,-1.57108,-0.522791,-0.000649395,-2.09595,-1.57095,1.5716,0.785658,-1.5708,-0.523599,-6.08659e-08,-2.0944,-1.5708,1.5708,0.785399,-0.000151564,0.000161688,-0.000595316,0.000940989,0.000261181,0.000266752,0.000740828,0,0,0,0,0,0,0,0.32716,-10.2408,1.01111,20.9439,-0.718367,-0.636998,-0.0968531,0.311988,-1.09782,0.817631,2.45902,-0.145885,-0.630724,-0.136102
3680964,1,-1.57107,-0.522789,-0.000644104,-2.09596,-1.57095,1.5716,0.78566,-1.5708,-0.523599,-6.08659e-08,-2.0944,-1.5708,1.5708,0.785399,0.0016622,0.000664604,0.00136636,-0.0005791,-0.000436231,-0.000534242,0.000968603,0,0,0,0,0,0,0,0.251781,-10.2646,0.935733,20.9955,-0.701887,-0.617772,-0.10967,0.312232,-1.09751,0.817816,2.45815,-0.145891,-0.630712,-0.135929
3680965,1,-1.57107,-0.522793,-0.000647445,-2.09596,-1.57095,1.5716,0.785656,-1.5708,-0.523599,-6.08659e-08,-2.0944,-1.5708,1.5708,0.785399,0.000551318,-0.000113743,-0.000202717,-0.000942879,0.00011608,0.000355915,-0.000541059,0,0,0,0,0,0,0,0.275585,-10.2408,0.98334,21.0193,-0.712874,-0.636998,-0.077627,0.310882,-1.09899,0.815812,2.45858,-0.145995,-0.630942,-0.13576
3680966,1,-1.57108,-0.522791,-0.000651064,-2.09595,-1.57095,1.5716,0.785654,-1.5708,-0.523599,-6.08659e-08,-2.0944,-1.5708,1.5708,0.785399,-0.00204531,-7.58285e-05,-0.00134157,0.00113465,-0.000126064,-0.000237441,-0.00107278,0,0,0,0,0,0,0,0.378734,-10.2408,1.03491,20.9439,-0.707381,-0.624181,-0.0584009,0.310027,-1.10065,0.814575,2.45943,-0.146095,-0.631075,-0.135621
3680967,1,-1.57108,-0.522787,-0.000651524,-2.09596,-1.57095,1.5716,0.785658,-1.5708,-0.523599,-6.08659e-08,-2.0944,-1.5708,1.5708,0.785399,0.0003997,0.00115587,-0.000337568,-0.000449991,-8.40424e-05,-0.000158294,0.000471606,0,0,0,0,0,0,0,0.303356,-10.2924,1.01111,20.9955,-0.707381,-0.624181,-0.0904444,0.311155,-1.10195,0.816198,2.45989,-0.146111,-0.630887,-0.135495
3680968,1,-1.57108,-0.522794,-0.000648155,-2.09596,-1.57095,1.5716,0.78566,-1.5708,-0.523599,-6.08659e-08,-2.0944,-1.5708,1.5708,0.785399,-0.000290345,-0.00164227,0.000424568,-0.000856806,0.000147422,-0.000342888,0.00102648,0,0,0,0,0,0,0,0.32716,-10.1892,0.98334,21.0193,-0.712874,-0.617772,-0.10967,0.312529,-1.10327,0.818167,2.46047,-0.146121,-0.630647,-0.135356
3680969,1,-1.57108,-0.522791,-0.000647682,-2.09596,-1.57095,1.5716,0.785656,-1.5708,-0.523599,-6.08659e-08,-2.0944,-1.5708,1.5708,0.785399,0.000363249,0.000668392,0.000283046,-1.43921e-05,9.82815e-05,0.000246126,-0.000502474,0,0,0,0,0,0,0,0.303356,-10.2646,0.98334,20.9955,-0.712874,-0.63059,-0.077627,0.31292,-1.10351,0.818646,2.46093,-0.146154,-0.630522,-0.13522
3680970,1,-1.57108,-0.52279,-0.000649654,-2.09596,-1.57095,1.5716,0.785653,-1.5708,-0.523599,-6.08659e-08,-2.0944,-1.5708,1.5708,0.785399,-0.000314646,0.000445594,0.000188697,-9.59472e-06,-0.00013793,0.000401443,-0.00131833,0,0,0,0,0,0,0,0.32716,-10.2646,0.98334,20.9955,-0.707381,-0.636998,-0.0510767,0.312601,-1.10395,0.81806,2.46139,-0.1462,-0.630494,-0.135107
3680971,1,-1.57108,-0.522791,-0.000648181,-2.09596,-1.57095,1.5716,0.78566,-1.5708,-0.523599,-6.08659e-08,-2.0944,-1.5708,1.5708,0.785399,0.000347048,-0.000259749,0.000125798,-0.00112002,-9.1953e-05,-0.000207089,0.00152861,0,0,0,0,0,0,0,0.303356,-10.2408,0.98334,21.0431,-0.707381,-0.624181,-0.116079,0.312015,-1.10543,0.817103,2.4623,-0.146262,-0.630516,-0.134996
3680972,1,-1.57108,-0.522793,-0.00065177,-2.09596,-1.57095,1.5716,0.785661,-1.5708,-0.523599,-6.08659e-08,-2.0944,-1.5708,1.5708,0.785399,-0.000325447,-0.000173166,-0.000565749,0.000923756,-6.1302e-05,9.92994e-05,0.00125643,0,0,0,0,0,0,0,0.32716,-10.2408,1.01111,20.9717,-0.707381,-0.63059,-0.122488,0.311635,-1.10629,0.81645,2.46296,-0.146305,-0.630501,-0.134873
3680973,1,-1.57107,-0.522791,-0.000652316,-2.09596,-1.57095,1.5716,0.785652,-1.5708,-0.523599,-6.08659e-08,-2.0944,-1.5708,1.5708,0.785399,0.000989461,-0.000115444,-0.000377166,0.000615837,0.000162583,-0.000171159,-0.00204459,0,0,0,0,0,0,0,0.275585,-10.2408,1.01111,20.9717,-0.712874,-0.624181,-0.044668,0.311626,-1.10557,0.816396,2.46242,-0.14628,-0.630413,-0.134782
3680974,1,-1.57108,-0.522793,-0.000648419,-2.09596,-1.57095,1.5716,0.785655,-1.5708,-0.523599,-6.08659e-08,-2.0944,-1.5708,1.5708,0.785399,-0.00175321,-7.69627e-05,0.00039817,-0.000703066,-9.50622e-05,-0.000114106,-0.000379718,0,0,0,0,0,0,0,0.378734,-10.2408,0.98334,21.0193,-0.707381,-0.624181,-0.0712183,0.311871,-1.10417,0.816714,2.46131,-0.146215,-0.630276,-0.134733
3680975,1,-1.57108,-0.522794,-0.00064777,-2.09596,-1.57095,1.5716,0.785662,-1.5708,-0.523599,-6.08659e-08,-2.0944,-1.5708,1.5708,0.785399,3.76187e-05,-5.13084e-05,0.000265447,-0.00102552,0.000140076,0.000398647,0.00188309,0,0,0,0,0,0,0,0.32716,-10.2408,0.98334,21.0431,-0.712874,-0.636998,-0.128897,0.312315,-1.10366,0.817176,2.46108,-0.146181,-0.630119,-0.134676
3680976,1,-1.57108,-0.522794,-0.000649502,-2.09596,-1.57095,1.5716,0.785655,-1.5708,-0.523599,-6.08659e-08,-2.0944,-1.5708,1.5708,0.785399,0.000581891,-3.42056e-05,-0.000472649,0.000986754,-0.000110067,2.84058e-05,-0.00088084,0,0,0,0,0,0,0,0.303356,-10.2408,1.01111,20.9717,-0.707381,-0.63059,-0.0712183,0.312605,-1.10375,0.817371,2.46139,-0.146174,-0.63,-0.134606
3680977,1,-1.57108,-0.522795,-0.00064943,-2.09596,-1.57095,1.5716,0.785656,-1.5708,-0.523599,-6.08659e-08,-2.0944,-1.5708,1.5708,0.785399,-0.000168885,-0.00122923,-0.0003151,0.000101024,-7.33778e-05,0.000256296,-0.000349868,0,0,0,0,0,0,0,0.32716,-10.1892,1.01111,20.9955,-0.707381,-0.636998,-0.077627,0.312769,-1.10246,0.817453,2.46073,-0.146125,-0.6299,-0.134561
3680978,1,-1.57107,-0.522797,-0.000649406,-2.09596,-1.57095,1.5716,0.785659,-1.5708,-0.523599,-6.08659e-08,-2.0944,-1.5708,1.5708,0.785399,0.00109384,-0.000819486,-0.000210066,-0.000489463,-4.89185e-05,-0.000303854,0.000716191,0,0,0,0,0,0,0,0.275585,-10.1892,1.01111,21.0193,-0.707381,-0.624181,-0.103262,0.312918,-1.09913,0.817565,2.45907,-0.146035,-0.62979,-0.134534
3680979,1,-1.57108,-0.522793,-0.000651528,-2.09596,-1.57095,1.5716,0.785659,-1.5708,-0.523599,-6.08659e-08,-2.0944,-1.5708,1.5708,0.785399,7.96102e-05,1.04877e-05,-0.000140044,0.000787316,-3.26124e-05,-0.000202569,0.00047746,0,0,0,0,0,0,0,0.303356,-10.213,1.01111,20.9717,-0.707381,-0.624181,-0.103262,0.31276,-1.09546,0.817349,2.4574,-0.145951,-0.629728,-0.134509
3680980,1,-1.57108,-0.522795,-0.000650287,-2.09596,-1.57095,1.5716,0.78566,-1.5708,-0.523599,-6.08659e-08,-2.0944,-1.5708,1.5708,0.785399,-0.000503739,6.99177e-06,0.000556251,0.000524877,0.000181709,0.000102313,0.000793025,0,0,0,0,0,0,0,0.32716,-10.213,0.98334,20.9717,-0.712874,-0.63059,-0.116079,0.312439,-1.09279,0.81695,2.45594,-0.145873,-0.629706,-0.134501
3680981,1,-1.57107,-0.522792,-0.000650341,-2.09596,-1.57095,1.5716,0.785658,-1.5708,-0.523599,-6.08659e-08,-2.0944,-1.5708,1.5708,0.785399,0.0008706,0.00121109,-0.00027878,-0.000763706,-8.23112e-05,6.82085e-05,-0.000420753,0,0,0,0,0,0,0,0.275585,-10.2646,1.01111,21.0193,-0.707381,-0.63059,-0.0904444,0.311993,-1.09255,0.81642,2.45553,-0.145834,-0.62973,-0.134529
3680982,1,-1.57107,-0.52279,-0.00064971,-2.09596,-1.57095,1.5716,0.785657,-1.5708,-0.523599,-6.08659e-08,-2.0944,-1.5708,1.5708,0.785399,0.0005804,0.000807391,-0.000185853,0.000604487,-5.48741e-05,-0.000191887,-0.000517861,0,0,0,0,0,0,0,0.275585,-10.2646,1.01111,20.9717,-0.707381,-0.624181,-0.0840357,0.311295,-1.09564,0.815761,2.45686,-0.145862,-0.629825,-0.134599
3680983,1,-1.57108,-0.522789,-0.000651169,-2.09596,-1.57095,1.5716,0.785662,-1.5708,-0.523599,-6.08659e-08,-2.0944,-1.5708,1.5708,0.785399,-0.000819492,0.000538261,-0.000680714,-0.00191706,-3.65828e-05,0.000109435,0.00131627,0,0,0,0,0,0,0,0.32716,-10.2646,1.03491,21.0709,-0.707381,-0.63059,-0.128897,0.310931,-1.10083,0.815808,2.45947,-0.145924,-0.629879,-0.134698
3680984,1,-1.57108,-0.522793,-0.000649429,-2.09596,-1.57095,1.5716,0.785655,-1.5708,-0.523599,-6.08659e-08,-2.0944,-1.5708,1.5708,0.785399,-0.000546328,-0.000197971,0.000103003,0.00104201,-2.43885e-05,7.29564e-05,-0.00030928,0,0,0,0,0,0,0,0.32716,-10.2408,1.01111,20.9717,-0.707381,-0.63059,-0.0968531,0.311421,-1.10577,0.817107,2.46231,-0.145972,-0.62979,-0.134822
3680985,1,-1.57107,-0.522793,-0.000649405,-2.09595,-1.57095,1.5716,0.785656,-1.5708,-0.523599,-6.08659e-08,-2.0944,-1.5708,1.5708,0.785399,0.000842207,-0.000781595,6.86684e-05,0.00134429,-0.00021971,0.000285997,-0.000443546,0,0,0,0,0,0,0,0.275585,-10.213,1.01111,20.9439,-0.701887,-0.636998,-0.0904444,0.311966,-1.10734,0.818393,2.46312,-0.145936,-0.629658,-0.134998
3680986,1,-1.57108,-0.522793,-0.000647909,-2.09596,-1.57095,1.5716,0.785655,-1.5708,-0.523599,-6.08659e-08,-2.0944,-1.5708,1.5708,0.785399,-8.81426e-05,0.000128551,0.0012522,-0.000867046,-0.000146473,-0.000284054,-0.00100777,0,0,0,0,0,0,0,0.303356,-10.2408,0.959536,21.0193,-0.701887,-0.624181,-0.0712183,0.311518,-1.10578,0.818174,2.46197,-0.145845,-0.629646,-0.135219
3680987,1,-1.57108,-0.522791,-0.000653906,-2.09596,-1.57095,1.5716,0.78566,-1.5708,-0.523599,-6.08659e-08,-2.0944,-1.5708,1.5708,0.785399,-5.87617e-05,8.57005e-05,-0.000928435,-0.000578031,0.000309252,0.000285349,0.000752304,0,0,0,0,0,0,0,0.303356,-10.2408,1.03491,21.0193,-0.712874,-0.636998,-0.10967,0.310573,-1.10472,0.817247,2.46145,-0.145786,-0.629715,-0.135438
3680988,1,-1.57107,-0.522791,-0.000648392,-2.09596,-1.57095,1.5716,0.785656,-1.5708,-0.523599,-6.08659e-08,-2.0944,-1.5708,1.5708,0.785399,0.000610439,5.71337e-05,0.000587469,0.00072827,2.71772e-06,-0.000521844,-0.000685258,0,0,0,0,0,0,0,0.275585,-10.2408,0.98334,20.9717,-0.707381,-0.617772,-0.077627,0.3099,-1.10472,0.816813,2.46171,-0.145742,-0.629751,-0.135633
3680989,1,-1.57108,-0.522797,-0.00065184,-2.09596,-1.57095,1.5716,0.785657,-1.5708,-0.523599,-6.08659e-08,-2.0944,-1.5708,1.5708,0.785399,-0.000799466,-0.00116834,-0.000257968,-7.12985e-05,1.81181e-06,0.000364181,-0.00021948,0,0,0,0,0,0,0,0.32716,-10.1892,1.01111,20.9955,-0.707381,-0.636998,-0.0840357,0.30944,-1.10363,0.816705,2.46127,-0.145661,-0.629741,-0.135812
3680990,1,-1.57108,-0.522791,-0.00064492,-2.09595,-1.57095,1.5716,0.785659,-1.5708,-0.523599,-6.08659e-08,-2.0944,-1.5708,1.5708,0.785399,2.38344e-05,0.000427535,0.00159126,0.00115889,0.000204658,5.42816e-06,0.000565757,0,0,0,0,0,0,0,0.303356,-10.2408,0.935733,20.9439,-0.712874,-0.63059,-0.103262,0.308936,-1.10102,0.816387,2.45985,-0.145548,-0.629722,-0.135969
3680991,1,-1.57108,-0.522795,-0.000649666,-2.09596,-1.57095,1.5716,0.785661,-1.5708,-0.523599,-6.08659e-08,-2.0944,-1.5708,1.5708,0.785399,1.58896e-05,-0.000364591,-0.000702398,-0.00043383,-6.70116e-05,-0.00023374,0.00108925,0,0,0,0,0,0,0,0.303356,-10.213,1.01111,20.9955,-0.707381,-0.624181,-0.122488,0.308221,-1.0986,0.815656,2.45833,-0.145444,-0.629744,-0.136099
3680992,1,-1.57108,-0.522793,-0.000649666,-2.09596,-1.57095,1.5716,0.785656,-1.5708,-0.523599,-6.08659e-08,-2.0944,-1.5708,1.5708,0.785399,-0.000546219,-0.000243061,0.000181348,0.000267592,0.000158776,8.15322e-05,-0.000935347,0,0,0,0,0,0,0,0.32716,-10.213,0.98334,20.9717,-0.712874,-0.63059,-0.077627,0.307917,-1.09694,0.815525,2.45728,-0.145358,-0.629714,-0.136225
3680993,1,-1.57108,-0.522793,-0.000650134,-2.09595,-1.57095,1.5716,0.785654,-1.5708,-0.523599,-6.08659e-08,-2.0944,-1.5708,1.5708,0.785399,-0.000364146,-0.00016204,-0.000528715,0.000828008,0.000309301,5.43548e-05,-0.00133564,0,0,0,0,0,0,0,0.32716,-10.213,1.01111,20.9439,-0.718367,-0.63059,-0.0584009,0.308418,-1.09535,0.816527,2.4563,-0.145259,-0.629562,-0.136368
3680994,1,-1.57108,-0.522791,-0.000647692,-2.09596,-1.57095,1.5716,0.785664,-1.5708,-0.523599,-6.08659e-08,-2.0944,-1.5708,1.5708,0.785399,0.000314048,0.0010984,0.000297137,-0.00121123,-0.0002007,3.62365e-05,0.00246651,0,0,0,0,0,0,0,0.303356,-10.2646,0.98334,21.0193,-0.707381,-0.63059,-0.149038,0.309126,-1.09511,0.817821,2.45595,-0.145193,-0.629401,-0.136498
3680995,1,-1.57108,-0.522796,-0.000649476,-2.09595,-1.57095,1.5716,0.785661,-1.5708,-0.523599,-6.08659e-08,-2.0944,-1.5708,1.5708,0.785399,-0.000347447,-0.00047416,-0.000451522,0.00095575,-0.000337251,0.000261517,0.000660993,0,0,0,0,0,0,0,0.32716,-10.213,1.01111,20.9439,-0.701887,-0.636998,-0.122488,0.309647,-1.09683,0.818872,2.45672,-0.145194,-0.629303,-0.136603
3680996,1,-1.57108,-0.522794,-0.000649421,-2.09596,-1.57095,1.5716,0.785655,-1.5708,-0.523599,-6.08659e-08,-2.0944,-1.5708,1.5708,0.785399,-0.000231631,-0.000316107,-0.000301015,-0.0023325,-0.000428284,-0.000300373,-0.00169557,0,0,0,0,0,0,0,0.32716,-10.213,1.01111,21.0709,-0.696394,-0.624181,-0.0648096,0.310331,-1.09853,0.82012,2.45779,-0.145212,-0.629191,-0.136737
3680997,1,-1.57108,-0.522791,-0.000651533,-2.09596,-1.57095,1.5716,0.785655,-1.5708,-0.523599,-6.08659e-08,-2.0944,-1.5708,1.5708,0.785399,0.000402391,0.000438876,-0.000200677,0.000765052,0.000121378,0.000274469,-0.00089302,0,0,0,0,0,0,0,0.303356,-10.2408,1.01111,20.9717,-0.707381,-0.636998,-0.0712183,0.311139,-1.10015,0.821519,2.45926,-0.145231,-0.629064,-0.136915
3680998,1,-1.57108,-0.522793,-0.000650107,-2.09596,-1.57095,1.5716,0.785658,-1.5708,-0.523599,-6.08659e-08,-2.0944,-1.5708,1.5708,0.785399,-0.000288551,0.000292584,-0.000133784,-4.67775e-05,8.09188e-05,-0.000291739,0.000354089,0,0,0,0,0,0,0,0.32716,-10.2408,1.01111,20.9955,-0.707381,-0.624181,-0.0968531,0.31168,-1.10208,0.822531,2.46067,-0.145236,-0.628993,-0.13709
3680999,1,-1.57108,-0.522793,-0.000647683,-2.09596,-1.57095,1.5716,0.785657,-1.5708,-0.523597,-2.17163e-06,-2.09439,-1.5708,1.5708,0.785399,-0.000192367,-0.000454558,0.000560424,-0.000587997,-0.000149505,0.000280225,-0.000238658,-0.00362688,0.001875,-0.00211076,0.00261762,-0.00132195,0.005,-0.00046918,0.32716,-10.213,0.98334,21.0193,-0.701887,-0.636998,-0.0840357,0.311933,-1.1035,0.823036,2.46155,-0.145215,-0.628971,-0.137229
3681000,1,-1.57108,-0.522793,-0.000647524,-2.09596,-1.57095,1.5716,0.785656,-1.57081,-0.523593,-6.39315e-06,-2.09439,-1.5708,1.57081,0.785398,-0.000128245,-0.000303039,0.000373616,-0.000391998,0.000307231,-5.0542e-05,-0.000396465,-0.00725376,0.00375,-0.00422152,0.00523524,-0.0026439,0.01,-0.00093836,0.32716,-10.213,0.98334,21.0193,-0.712874,-0.63059,-0.077627,0.311781,-1.10397,0.822782,2.46216,-0.145191,-0.62901,-0.137334
3681001,1,-1.57108,-0.522793,-0.000647471,-2.09596,-1.57095,1.5716,0.785655,-1.57082,-0.523587,-1.27254e-05,-2.09438,-1.57081,1.57083,0.785397,0.000471315,-0.000202026,0.000249077,0.000852292,0.000204821,-0.000271054,-0.000501669,-0.0108806,0.005625,-0.00633229,0.00785286,-0.00396586,0.015,-0.00140754,0.303356,-10.213,0.98334,20.9717,-0.712874,-0.624181,-0.0712183,0.311215,-1.10326,0.821803,2.46215,-0.145149,-0.629106,-0.137405
3681002,1,-1.57108,-0.522794,-0.000647527,-2.09596,-1.57095,1.5716,0.785664,-1.57083,-0.52358,-2.11685e-05,-2.09437,-1.57081,1.57085,0.785395,-0.00106822,0.00508014,-0.00260586,0.00129878,0.000984258,0.000294015,0.00254777,-0.0145075,0.0075,-0.00844305,0.0104705,-0.00528781,0.02,-0.00187672,0.227978,-10.1654,0.832583,21.0709,-0.735762,-0.636998,-0.149038,0.311393,-1.10515,0.822038,2.4626,-0.1451,-0.629132,-0.137427
3681003,1,-1.57108,-0.522795,-0.000644622,-2.09596,-1.57095,1.5716,0.78566,-1.57085,-0.523571,-3.17223e-05,-2.09436,-1.57082,1.57087,0.785392,-0.00410316,0.0034393,-0.000905311,0.00249787,0.00126652,-0.000278708,0.000240451,-0.0181344,0.009375,-0.0105538,0.0130881,-0.00660976,0.025,-0.0023459,-0.0497324,-10.0107,0.376346,21.1423,-0.752241,-0.624181,-0.10967,0.314206,-1.11393,0.826216,2.4651,-0.145066,-0.628856,-0.137412
3681004,1,-1.57107,-0.522794,-0.000649824,-2.09596,-1.57095,1.5716,0.785655,-1.57087,-0.523559,-4.43869e-05,-2.09434,-1.57083,1.5709,0.78539,0.00156697,0.00204512,-0.000962469,0.00131323,0.00128516,-0.000423164,-0.00126385,-0.0217613,0.01125,-0.0126646,0.0157057,-0.00793171,0.03,-0.00281508,-0.557545,-9.83615,-0.0521213,21.3169,-0.764143,-0.617772,-0.0712183,0.318349,-1.12559,0.832173,2.46831,-0.145068,-0.628386,-0.137426
3681005,1,-1.57107,-0.522789,-0.000663192,-2.09596,-1.57095,1.5716,0.785658,-1.5709,-0.523546,-5.91622e-05,-2.09432,-1.57083,1.57094,0.785386,-0.000280864,0.001719,-0.0015744,0.000983204,0.00126367,-0.000519468,0.000106867,-0.0253882,0.013125,-0.0147753,0.0183233,-0.00925366,0.035,-0.00328426,-0.958241,-9.68539,-0.484555,21.4676,-0.77513,-0.611364,-0.0968531,0.320547,-1.13454,0.835415,2.47096,-0.145168,-0.628027,-0.137495
3681006,1,-1.57108,-0.522783,-0.000676035,-2.09595,-1.57095,1.5716,0.785662,-1.57093,-0.523531,-7.60483e-05,-2.0943,-1.57084,1.57098,0.785382,-0.000152711,-0.000438013,-0.00125207,0.00401592,0.000638998,-0.00082103,0.00125804,-0.029015,0.015,-0.0168861,0.020941,-0.0105756,0.04,-0.00375344,-1.31133,-9.58224,-0.964597,21.4914,-0.769636,-0.598546,-0.128897,0.319939,-1.13712,0.834991,2.47187,-0.145346,-0.627705,-0.137595
3681007,1,-1.57109,-0.522771,-0.000692975,-2.09594,-1.57095,1.5716,0.785655,-1.57096,-0.523514,-9.50451e-05,-2.09428,-1.57086,1.57102,0.785378,0.00133771,0.0023062,-0.00622854,0.0055467,0.000629449,-0.000547353,-0.00129754,-0.0326419,0.016875,-0.0189969,0.0235586,-0.0118976,0.045,-0.00422262,-1.71599,-9.53067,-1.36926,21.543,-0.77513,-0.598546,-0.0712183,0.317144,-1.13128,0.832273,2.46945,-0.145489,-0.627137,-0.137733
3681008,1,-1.5711,-0.522756,-0.000709057,-2.09593,-1.57095,1.57161,0.785652,-1.571,-0.523496,-0.000116153,-2.09425,-1.57087,1.57107,0.785374,0.0014532,0.0054183,-0.00735781,0.0108708,0.000623083,0.000821892,-0.000865025,-0.0362688,0.01875,-0.0211076,0.0261762,-0.0132195,0.05,-0.0046918,-2.09288,-9.53067,-1.75012,21.543,-0.780623,-0.63059,-0.0712183,0.312712,-1.12134,0.82903,2.46453,-0.145545,-0.626136,-0.137914
3681009,1,-1.57111,-0.522745,-0.000730046,-2.09593,-1.57095,1.57162,0.785653,-1.57104,-0.523473,-0.000141166,-2.09422,-1.57089,1.57113,0.785368,-0.00225703,0.00584176,-0.00950274,0.00762435,0.000856198,0.000785287,-0.000101965,-0.0429278,0.0225,-0.0250136,0.0308256,-0.0153429,0.06,-0.00536125,-2.44597,-9.45529,-2.0794,21.7176,-0.792525,-0.636998,-0.0840357,0.307126,-1.11288,0.826346,2.45956,-0.145551,-0.624584,-0.138091
3681010,1,-1.57112,-0.522739,-0.000744892,-2.09592,-1.57095,1.57162,0.785659,-1.57109,-0.523447,-0.000170086,-2.09418,-1.5709,1.5712,0.785362,-0.00241854,0.00697926,-0.0116256,0.0089434,0.00162196,0.00380562,0.00206825,-0.0495869,0.02625,-0.0289195,0.0354751,-0.0174662,0.07,-0.00603071,-2.77526,-9.28073,-2.38092,21.7414,-0.820906,-0.598546,-0.141714,0.30082,-1.10836,0.824806,2.45758,-0.145607,-0.622378,-0.138218
3681011,1,-1.57113,-0.522733,-0.000767801,-2.09591,-1.57095,1.57162,0.785654,-1.57114,-0.523417,-0.000202911,-2.09414,-1.57092,1.57128,0.785355,-0.00804948,0.00790412,-0.0159073,0.00478212,0.00209856,0.00499252,-0.000282677,-0.056246,0.03,-0.0328254,0.0401246,-0.0195896,0.08,-0.00670017,-3.00139,-9.1022,-2.55945,21.8405,-0.848372,-0.527135,-0.0968531,0.294776,-1.10919,0.825997,2.46139,-0.1458,-0.619332,-0.138302
3681012,1,-1.57115,-0.522729,-0.000784663,-2.0959,-1.57094,1.57162,0.785653,-1.57121,-0.523383,-0.000239643,-2.0941,-1.57094,1.57137,0.785348,-0.0143597,0.00961643,-0.0210882,0.00556248,0.0024502,0.00539249,-0.000188451,-0.062905,0.03375,-0.0367314,0.044774,-0.0217129,0.09,-0.00736962,-3.2553,-8.82449,-2.91253,21.9159,-0.876753,-0.437413,-0.0968531,0.29231,-1.11671,0.834782,2.47309,-0.146149,-0.614862,-0.138374
3681013,1,-1.57118,-0.522714,-0.000807006,-2.09589,-1.57094,1.57163,0.785651,-1.57128,-0.523346,-0.00028028,-2.09405,-1.57097,1.57147,0.78534,-0.0197034,0.0124256,-0.0194765,0.00873212,0.00332889,0.00557666,-0.00107507,-0.0695641,0.0375,-0.0406373,0.0494235,-0.0238363,0.1,-0.00803908,-3.60839,-8.59836,-3.36877,22.1381,-0.922529,-0.340367,-0.0712183,0.295202,-1.13032,0.853314,2.49185,-0.146629,-0.608544,-0.138443
3681014,1,-1.5712,-0.522692,-0.0008436,-2.09587,-1.57094,1.57164,0.785658,-1.57135,-0.523304,-0.000324823,-2.094,-1.57099,1.57158,0.785331,-0.0180044,0.014508,-0.0229125,0.0112989,-0.00121572,0.00594574,0.00165688,-0.0762231,0.04125,-0.0445433,0.0540729,-0.0259596,0.11,-0.00870853,-4.21538,-8.36826,-3.77343,22.2373,-0.956404,-0.244237,-0.135305,0.299608,-1.14762,0.875752,2.51444,-0.147273,-0.600736,-0.138494
3681015,1,-1.57123,-0.522667,-0.000885869,-2.09585,-1.57094,1.57166,0.785649,-1.57144,-0.523259,-0.000373272,-2.09394,-1.57102,1.5717,0.785322,-0.0273057,0.0181825,-0.0287649,0.0194886,-0.00442543,0.012274,-0.00644752,-0.0828822,0.045,-0.0484492,0.0587224,-0.028083,0.12,-0.00937799,-4.66765,-8.09055,-4.1781,22.3365,-0.995772,-0.179235,-0.0584009,0.303155,-1.16536,0.899103,2.5371,-0.148,-0.591551,-0.138529
3681016,1,-1.57128,-0.522625,-0.000917501,-2.09582,-1.57094,1.57168,0.78565,-1.57153,-0.523211,-0.000425628,-2.09387,-1.57105,1.57183,0.785312,-0.034034,0.0250883,-0.0287958,0.0216781,-0.00278586,0.0221041,-0.00350353,-0.0895412,0.04875,-0.0523552,0.0633719,-0.0302063,0.13,-0.0100474,-4.99694,-7.99136,-4.76129,22.4634,-1.01866,-0.127965,-0.0904444,0.307109,-1.18413,0.925488,2.55826,-0.148718,-0.580659,-0.138556
3681017,1,-1.57134,-0.522583,-0.000962291,-2.09578,-1.57094,1.57171,0.785649,-1.57162,-0.523158,-0.000481889,-2.09381,-1.57108,1.57197,0.785301,-0.0418368,0.0318101,-0.0336316,0.0272016,-0.0015559,0.0248273,-0.00239232,-0.0962003,0.0525,-0.0562611,0.0680213,-0.0323297,0.14,-0.0107169,-5.35003,-7.84061,-5.16595,22.4356,-1.04063,-0.0766956,-0.0968531,0.31133,-1.21072,0.954667,2.58099,-0.149615,-0.568025,-0.138549
3681018,1,-1.5714,-0.522538,-0.00100729,-2.09575,-1.57094,1.57176,0.785643,-1.57172,-0.523102,-0.000542056,-2.09373,-1.57112,1.57212,0.78529,-0.0489449,0.035103,-0.037169,0.0283248,-0.000133096,0.0326212,-0.00252745,-0.102859,0.05625,-0.060167,0.0726708,-0.0344531,0.15,-0.0113864,-5.62774,-7.73746,-5.57061,22.511,-1.07542,-0.0574695,-0.077627,0.315689,-1.24875,0.986454,2.60807,-0.150876,-0.553552,-0.13849
3681019,1,-1.57147,-0.522497,-0.00104874,-2.09571,-1.57094,1.57182,0.785635,-1.57184,-0.52304,-0.00060776,-2.09365,-1.57116,1.57229,0.785278,-0.0568746,0.0350986,-0.0353501,0.0281441,0.00108107,0.0445534,-0.00330839,-0.112158,0.061875,-0.0657047,0.0789231,-0.0370526,0.164712,-0.0120393,-5.8023,-7.53513,-6.02685,22.634,-1.11479,-0.0766956,-0.0382593,0.318667,-1.29358,1.01816,2.63968,-0.152608,-0.537367,-0.138396
3681020,1,-1.57155,-0.522454,-0.00109441,-2.09567,-1.57094,1.57188,0.785623,-1.57196,-0.522972,-0.000679003,-2.09357,-1.5712,1.57247,0.785265,-0.0619531,0.0351713,-0.0407564,0.0305192,0.00196258,0.0537662,-0.0081858,-0.121456,0.0675,-0.0712423,0.0851754,-0.0396522,0.179425,-0.0126923,-5.98082,-7.33279,-6.33233,22.7848,-1.15416,-0.108739,-0.00621587,0.317077,-1.33598,1.04442,2.67396,-0.154875,-0.51994,-0.138259
3681021,1,-1.57163,-0.522415,-0.0011437,-2.09563,-1.57094,1.57196,0.785614,-1.57209,-0.522899,-0.000755783,-2.09348,-1.57124,1.57266,0.785252,-0.0652814,0.0371183,-0.045581,0.0356733,0.00280775,0.0638422,-0.0109305,-0.130755,0.073125,-0.0767799,0.0914277,-0.0422517,0.194137,-0.0133453,-6.17919,-7.07889,-6.58624,22.9355,-1.19902,-0.108739,0.000192821,0.310072,-1.36769,1.06391,2.70726,-0.157585,-0.501484,-0.138035
3681022,1,-1.57172,-0.522372,-0.00119409,-2.09558,-1.57094,1.57205,0.785615,-1.57223,-0.522821,-0.0008381,-2.09338,-1.57128,1.57287,0.785238,-0.0731627,0.0402847,-0.050017,0.039781,0.0036491,0.0741141,-0.00445047,-0.140053,0.07875,-0.0823175,0.09768,-0.0448513,0.208849,-0.0139983,-6.28234,-6.75357,-6.91552,23.0823,-1.25029,-0.0510608,-0.0968531,0.298428,-1.38605,1.0779,2.7371,-0.160646,-0.482108,-0.137668
3681023,1,-1.57182,-0.522317,-0.00125244,-2.09552,-1.57094,1.57216,0.785594,-1.57238,-0.522736,-0.000925955,-2.09328,-1.57133,1.57309,0.785223,-0.0818257,0.0460519,-0.0577237,0.0486271,0.00549501,0.0867703,-0.0108931,-0.149352,0.084375,-0.0878552,0.103932,-0.0474508,0.223562,-0.0146513,-6.40929,-6.42429,-7.34399,23.1061,-1.33543,0.00753292,-0.0254419,0.284818,-1.39348,1.08992,2.76298,-0.164006,-0.461721,-0.137158
3681024,1,-1.57192,-0.522257,-0.00132382,-2.09546,-1.57094,1.57228,0.785575,-1.57254,-0.522646,-0.00101935,-2.09317,-1.57138,1.57333,0.785208,-0.0895204,0.0503179,-0.0610941,0.0526909,0.00566335,0.101959,-0.0146732,-0.15865,0.09,-0.0933928,0.110185,-0.0500504,0.238274,-0.0153043,-6.73461,-6.095,-7.74865,23.2331,-1.39128,0.0395764,0.0258276,0.272032,-1.39411,1.10338,2.78546,-0.167659,-0.440182,-0.136553
3681025,1,-1.57204,-0.522181,-0.00140233,-2.09539,-1.57094,1.57244,0.785556,-1.57271,-0.522551,-0.00111828,-2.09305,-1.57143,1.57358,0.785192,-0.102661,0.0593815,-0.0680417,0.060336,0.00562313,0.118243,-0.0170371,-0.167949,0.095625,-0.0989304,0.116437,-0.0526499,0.252986,-0.0159573,-7.04009,-5.86887,-8.10571,23.1815,-1.44255,-0.0574695,0.0651953,0.261422,-1.39386,1.11939,2.80699,-0.171733,-0.417534,-0.135836
3681026,1,-1.57217,-0.522099,-0.00147987,-2.09532,-1.57095,1.57261,0.785538,-1.57288,-0.522449,-0.00122275,-2.09293,-1.57149,1.57385,0.785175,-0.114055,0.0664599,-0.0732188,0.0669703,-0.000653987,0.134546,-0.0174932,-0.177247,0.10125,-0.104468,0.122689,-0.0552495,0.267699,-0.0166103,-7.26622,-5.66653,-8.58575,23.2053,-1.45354,-0.160009,0.071604,0.255098,-1.3995,1.14032,2.83044,-0.176334,-0.393718,-0.134899
3681027,1,-1.57232,-0.522003,-0.00156478,-2.09523,-1.57096,1.57279,0.78551,-1.57307,-0.522342,-0.00133275,-2.0928,-1.57155,1.57413,0.785158,-0.122694,0.0768481,-0.0765945,0.0790445,-0.00531837,0.15409,-0.0195733,-0.186546,0.106875,-0.110006,0.128942,-0.057849,0.282411,-0.0172632,-7.49236,-5.53958,-8.96661,23.0585,-1.45994,-0.199376,0.122873,0.252635,-1.41466,1.16524,2.85603,-0.181475,-0.369128,-0.133643
3681028,1,-1.57246,-0.521916,-0.00164604,-2.09514,-1.57097,1.573,0.785487,-1.57326,-0.52223,-0.0014483,-2.09266,-1.57161,1.57443,0.78514,-0.127563,0.078096,-0.0754502,0.0805388,-0.00790865,0.168879,-0.0193386,-0.195844,0.1125,-0.115543,0.135194,-0.0604486,0.297123,-0.0179162,-7.77007,-5.28568,-9.37127,23.0823,-1.48741,-0.244237,0.129282,0.247843,-1.43727,1.18499,2.88239,-0.187252,-0.34498,-0.132006
3681029,1,-1.57262,-0.521824,-0.00172922,-2.09504,-1.57099,1.57323,0.785464,-1.57347,-0.52211,-0.00157035,-2.09252,-1.57167,1.57474,0.785122,-0.138532,0.0796442,-0.0769668,0.0849547,-0.0059574,0.19051,-0.0188037,-0.206832,0.11999,-0.122052,0.14253,-0.0633133,0.314164,-0.0185597,-7.89702,-5.05954,-9.79974,23.1061,-1.49382,-0.314733,0.122873,0.233948,-1.45854,1.18924,2.90823,-0.193828,-0.322399,-0.129954
3681030,1,-1.57279,-0.521737,-0.00181861,-2.09495,-1.571,1.57348,0.785444,-1.57369,-0.521983,-0.00169891,-2.09237,-1.57174,1.57508,0.785102,-0.147783,0.0821989,-0.0799929,0.0870873,-0.0125697,0.210168,-0.015951,-0.217819,0.12748,-0.12856,0.149865,-0.0661779,0.331205,-0.0192033,-8.07158,-4.75406,-10.1568,23.1815,-1.53319,-0.366002,0.0523779,0.209542,-1.46996,1.17535,2.9328,-0.201214,-0.301702,-0.127487
3681031,1,-1.57297,-0.521637,-0.00191397,-2.09485,-1.57102,1.57374,0.785409,-1.57392,-0.521848,-0.00183398,-2.09221,-1.57181,1.57542,0.785082,-0.159575,0.0866951,-0.0840699,0.09431,-0.0126077,0.225698,-0.0182094,-0.228806,0.13497,-0.135069,0.157201,-0.0690426,0.348246,-0.0198468,-8.27391,-4.55173,-10.4345,23.2807,-1.58354,-0.314733,0.09083,0.177444,-1.46906,1.14711,2.95591,-0.209274,-0.282632,-0.12466
3681032,1,-1.57316,-0.521538,-0.00200269,-2.09474,-1.57104,1.57402,0.785382,-1.57416,-0.521705,-0.00197555,-2.09205,-1.57188,1.57579,0.785062,-0.168114,0.0894569,-0.0839233,0.0988022,-0.0125882,0.246537,-0.0230818,-0.239793,0.14246,-0.141578,0.164536,-0.0719072,0.365287,-0.0204903,-8.40087,-4.19864,-10.8392,23.3084,-1.63481,-0.23142,0.09083,0.139489,-1.45564,1.10698,2.97702,-0.21791,-0.265002,-0.121581
3681033,1,-1.57336,-0.52143,-0.0020928,-2.09462,-1.57107,1.57432,0.785355,-1.57441,-0.521555,-0.00212364,-2.09188,-1.57195,1.57617,0.785041,-0.178526,0.0956478,-0.0859199,0.106465,-0.0166664,0.26344,-0.0251781,-0.250781,0.14995,-0.148086,0.171872,-0.0747719,0.382327,-0.0211338,-8.50005,-3.86935,-11.2954,23.2807,-1.70256,-0.179235,0.0523779,0.0948196,-1.43066,1.05359,2.99575,-0.227142,-0.248908,-0.118328
3681034,1,-1.57357,-0.521309,-0.00220183,-2.09449,-1.57109,1.57465,0.785328,-1.57467,-0.521398,-0.00227823,-2.0917,-1.57203,1.57657,0.785019,-0.187576,0.105201,-0.0938926,0.116445,-0.0200489,0.288458,-0.0277077,-0.261768,0.15744,-0.154595,0.179207,-0.0776366,0.399368,-0.0217773,-8.82933,-3.49246,-11.5969,23.2053,-1.76481,-0.212194,0.0322363,0.044535,-1.39946,0.98888,3.01277,-0.236954,-0.234124,-0.114954
3681035,1,-1.57379,-0.521175,-0.00231178,-2.09435,-1.57112,1.575,0.78529,-1.57494,-0.521233,-0.00243934,-2.09151,-1.57211,1.57699,0.784997,-0.199473,0.117397,-0.10416,0.125221,-0.0234554,0.311326,-0.0322807,-0.272755,0.16493,-0.161103,0.186543,-0.0805012,0.416409,-0.0224208,-9.18242,-3.21475,-11.954,23.0585,-1.80418,-0.346776,0.0844213,-0.00599009,-1.37245,0.921712,3.03048,-0.247269,-0.219862,-0.11153
3681036,1,-1.57402,-0.521022,-0.00242491,-2.09419,-1.57116,1.57538,0.78525,-1.57523,-0.52106,-0.00260695,-2.09132,-1.57219,1.57742,0.784974,-0.207397,0.130807,-0.110546,0.132602,-0.0272095,0.329349,-0.0358734,-0.283743,0.17242,-0.167612,0.193879,-0.0833659,0.43345,-0.0230643,-9.38475,-3.0878,-12.4102,22.8601,-1.80968,-0.392553,0.149424,-0.052327,-1.36242,0.859848,3.05369,-0.258161,-0.205541,-0.108092
3681037,1,-1.57426,-0.520868,-0.00255485,-2.09404,-1.57121,1.57577,0.785215,-1.57552,-0.52088,-0.00278107,-2.09112,-1.57228,1.57787,0.78495,-0.218868,0.137614,-0.115248,0.142911,-0.0349708,0.35198,-0.0327921,-0.29473,0.17991,-0.17412,0.201214,-0.0862306,0.450491,-0.0237079,-9.55931,-2.83389,-12.7355,22.7332,-1.80418,-0.424596,0.187876,-0.0948587,-1.37372,0.80334,3.08411,-0.269733,-0.191286,-0.104602
3681038,1,-1.57452,-0.52071,-0.00268596,-2.09387,-1.57126,1.57617,0.78519,-1.57583,-0.520693,-0.0029617,-2.09091,-1.57237,1.57834,0.784926,-0.231481,0.14347,-0.120399,0.150966,-0.0365195,0.368586,-0.0320949,-0.305717,0.1874,-0.180629,0.20855,-0.0890952,0.467531,-0.0243514,-9.81322,-2.60776,-12.9894,22.5864,-1.7877,-0.450231,0.149424,-0.135065,-1.39627,0.749426,3.11681,-0.281852,-0.177279,-0.100988
3681039,1,-1.57478,-0.520547,-0.00280947,-2.0937,-1.57132,1.57661,0.785154,-1.57615,-0.520498,-0.00314926,-2.09069,-1.57246,1.57882,0.784901,-0.240872,0.145035,-0.120067,0.156395,-0.0419744,0.38569,-0.0346695,-0.317577,0.19489,-0.187559,0.216559,-0.0920749,0.485497,-0.0249921,-9.96398,-2.27847,-13.3941,22.5864,-1.7758,-0.495092,0.181467,-0.174978,-1.41496,0.694073,3.14589,-0.294352,-0.163651,-0.0971988
3681040,1,-1.57505,-0.520384,-0.00294474,-2.09352,-1.57137,1.57706,0.785122,-1.57647,-0.520296,-0.00334375,-2.09047,-1.57256,1.57933,0.784875,-0.252492,0.149417,-0.128499,0.165226,-0.0499304,0.412527,-0.0362691,-0.329438,0.20238,-0.194489,0.224568,-0.0950546,0.503463,-0.0256329,-10.1147,-1.92538,-13.6758,22.5348,-1.7758,-0.520726,0.207102,-0.217251,-1.4176,0.632938,3.16735,-0.307057,-0.150685,-0.0932296
3681041,1,-1.57534,-0.520212,-0.00307752,-2.09334,-1.57143,1.57752,0.785093,-1.57682,-0.520086,-0.00354516,-2.09023,-1.57265,1.57985,0.784849,-0.261054,0.1587,-0.128887,0.16963,-0.0505546,0.429822,-0.0342531,-0.341298,0.20987,-0.201419,0.232576,-0.0980343,0.521429,-0.0262736,-10.3448,-1.69528,-13.9773,22.5626,-1.80418,-0.463048,0.149424,-0.263117,-1.40304,0.564475,3.18154,-0.319859,-0.138646,-0.089068
3681042,1,-1.57563,-0.520033,-0.00321819,-2.09315,-1.57149,1.57802,0.785066,-1.57717,-0.519869,-0.00375351,-2.08999,-1.57275,1.58039,0.784822,-0.273287,0.162794,-0.132019,0.181216,-0.0491802,0.443625,-0.0325393,-0.353158,0.21736,-0.208348,0.240585,-0.101014,0.539395,-0.0269144,-10.444,-1.49295,-14.2828,22.6102,-1.88383,-0.418187,0.0780126,-0.314282,-1.37635,0.486252,3.19104,-0.332849,-0.127783,-0.0847147
3681043,1,-1.57594,-0.519842,-0.00336036,-2.09294,-1.57155,1.57852,0.785037,-1.57753,-0.519644,-0.00396879,-2.08974,-1.57286,1.58095,0.784794,-0.284794,0.172195,-0.136588,0.189999,-0.050025,0.460037,-0.0314543,-0.365018,0.22485,-0.215278,0.248594,-0.103994,0.55736,-0.0275552,-10.5432,-1.41757,-14.6359,22.7094,-1.91771,-0.40537,0.00660151,-0.370575,-1.33826,0.39825,3.19525,-0.34604,-0.117861,-0.0802735
3681044,1,-1.57625,-0.519645,-0.00351899,-2.09271,-1.57162,1.57907,0.784997,-1.57791,-0.519411,-0.004191,-2.08949,-1.57297,1.58152,0.784766,-0.293938,0.177366,-0.146645,0.201725,-0.0557245,0.479888,-0.0353116,-0.376878,0.23234,-0.222208,0.256603,-0.106973,0.575326,-0.0281959,-10.7733,-1.41757,-14.8382,22.7332,-1.9406,-0.507909,0.0587866,-0.428712,-1.28917,0.305595,3.19314,-0.359315,-0.108219,-0.0759295
3681045,1,-1.57658,-0.519437,-0.00367958,-2.09248,-1.5717,1.57962,0.78496,-1.5783,-0.519172,-0.00442014,-2.08922,-1.57308,1.58211,0.784737,-0.303804,0.189211,-0.147736,0.212185,-0.0598924,0.509521,-0.0311131,-0.388738,0.23983,-0.229138,0.264612,-0.109953,0.593292,-0.0288367,-11.0232,-1.49295,-15.0405,22.6856,-1.96806,-0.598546,0.0523779,-0.487615,-1.23226,0.210588,3.1852,-0.372614,-0.0987617,-0.0718495
3681046,1,-1.57694,-0.519231,-0.00383934,-2.09224,-1.57178,1.5802,0.784928,-1.5787,-0.518924,-0.00465621,-2.08895,-1.57319,1.58273,0.784708,-0.31902,0.195086,-0.1535,0.220383,-0.0645864,0.529547,-0.0321627,-0.400598,0.24732,-0.236068,0.272621,-0.112933,0.611258,-0.0294774,-11.0748,-1.46915,-15.2944,22.761,-1.95158,-0.63059,0.0322363,-0.548509,-1.17289,0.111608,3.17374,-0.38602,-0.0899403,-0.0680964
3681047,1,-1.57729,-0.519009,-0.00401067,-2.09199,-1.57187,1.5808,0.784898,-1.57911,-0.518669,-0.0048992,-2.08867,-1.5733,1.58336,0.784678,-0.330484,0.203346,-0.160351,0.229077,-0.0687406,0.549083,-0.0285973,-0.412459,0.25481,-0.242998,0.28063,-0.115912,0.629224,-0.0301182,-11.2533,-1.49295,-15.5483,22.7332,-1.91221,-0.662633,0.0258276,-0.609629,-1.11367,0.0111249,3.16113,-0.399568,-0.0816568,-0.0646726
3681048,1,-1.57765,-0.518789,-0.00419265,-2.09173,-1.57196,1.58142,0.784855,-1.57954,-0.518407,-0.00514913,-2.08838,-1.57342,1.584,0.784647,-0.339916,0.208172,-0.16892,0.235277,-0.0752947,0.573934,-0.0284115,-0.424319,0.2623,-0.249928,0.288638,-0.118892,0.64719,-0.0307589,-11.5033,-1.44534,-15.6753,22.7094,-1.90581,-0.713903,0.0844213,-0.668422,-1.05379,-0.0866585,3.1486,-0.413168,-0.0735771,-0.0615863
3681049,1,-1.57802,-0.518554,-0.00437825,-2.09146,-1.57204,1.58207,0.784812,-1.57997,-0.518137,-0.00540594,-2.08808,-1.57355,1.58467,0.784615,-0.361472,0.216408,-0.170997,0.243787,-0.0797555,0.598649,-0.0337334,-0.43633,0.26979,-0.256813,0.297,-0.12186,0.665307,-0.031405,-11.6064,-1.46915,-15.8499,22.761,-1.91221,-0.836583,0.16865,-0.723694,-0.99289,-0.179912,3.1372,-0.426694,-0.0656225,-0.0588068
3681050,1,-1.57842,-0.518316,-0.00456635,-2.09118,-1.57214,1.58274,0.784777,-1.58042,-0.51786,-0.00566964,-2.08778,-1.57367,1.58535,0.784583,-0.375326,0.221679,-0.178074,0.255065,-0.0837856,0.621016,-0.0300718,-0.448341,0.27728,-0.263698,0.305361,-0.124828,0.683424,-0.0320511,-11.6302,-1.44534,-16.0522,22.761,-1.90031,-0.90067,0.181467,-0.773786,-0.929446,-0.267002,3.1259,-0.439959,-0.0576731,-0.0562187
3681051,1,-1.57883,-0.518065,-0.00476141,-2.09089,-1.57223,1.58339,0.784748,-1.58088,-0.517575,-0.00594023,-2.08747,-1.5738,1.58605,0.784551,-0.385522,0.231444,-0.184605,0.264228,-0.0903207,0.630271,-0.0299736,-0.460351,0.28477,-0.270583,0.313722,-0.127796,0.701541,-0.0326972,-11.6302,-1.54453,-16.2069,22.7332,-1.9232,-0.778905,0.135691,-0.818449,-0.862411,-0.347448,3.11287,-0.452833,-0.0497389,-0.0536537
3681052,1,-1.57924,-0.517804,-0.00497113,-2.09059,-1.57233,1.58408,0.784712,-1.58135,-0.517283,-0.00621769,-2.08714,-1.57393,1.58677,0.784517,-0.400759,0.241814,-0.191892,0.273571,-0.0894658,0.642699,-0.0316611,-0.472362,0.29226,-0.277469,0.322083,-0.130764,0.719658,-0.0333433,-11.7294,-1.67148,-16.2307,22.7332,-1.96806,-0.681859,0.129282,-0.858171,-0.796883,-0.421211,3.09988,-0.465385,-0.0418094,-0.0509766
3681053,1,-1.57966,-0.517533,-0.00517692,-2.09029,-1.57243,1.58478,0.784687,-1.58184,-0.516983,-0.00650205,-2.08681,-1.57406,1.58751,0.784483,-0.409057,0.256481,-0.196335,0.281863,-0.0895983,0.657912,-0.0300837,-0.484373,0.29975,-0.284354,0.330444,-0.133732,0.737775,-0.0339894,-11.7294,-1.87381,-16.3061,22.8086,-1.99644,-0.694677,0.0459692,-0.894271,-0.744299,-0.489722,3.0922,-0.477901,-0.0339347,-0.048142
3681054,1,-1.58009,-0.51725,-0.00538963,-2.08997,-1.57254,1.58552,0.784642,-1.58234,-0.516676,-0.00679329,-2.08647,-1.5742,1.58827,0.784449,-0.418336,0.264956,-0.204424,0.290711,-0.0948993,0.681806,-0.0345958,-0.496384,0.30724,-0.291239,0.338805,-0.1367,0.755892,-0.0346355,-11.8326,-2.05234,-16.433,22.761,-2.01933,-0.817357,0.110056,-0.930526,-0.713322,-0.557649,3.0939,-0.490679,-0.0265634,-0.0452015
3681055,1,-1.58053,-0.516963,-0.00562756,-2.08965,-1.57265,1.58627,0.784618,-1.58284,-0.516361,-0.00709141,-2.08613,-1.57434,1.58904,0.784413,-0.427727,0.27303,-0.213605,0.299836,-0.0944157,0.700574,-0.0320074,-0.508395,0.31473,-0.298124,0.347166,-0.139669,0.774009,-0.0352816,-11.8326,-2.17532,-16.433,22.761,-2.03673,-0.823766,0.0194189,-0.968909,-0.701142,-0.627051,3.10369,-0.503743,-0.0199311,-0.0422621
3681056,1,-1.58099,-0.516669,-0.00586833,-2.08931,-1.57276,1.58702,0.784588,-1.58336,-0.516039,-0.00739642,-2.08577,-1.57448,1.58983,0.784377,-0.435446,0.283617,-0.224078,0.308868,-0.103682,0.716319,-0.0265846,-0.520406,0.32222,-0.30501,0.355528,-0.142637,0.792126,-0.0359277,-11.8802,-2.35385,-16.4092,22.7848,-2.04771,-0.75327,-0.044668,-1.00823,-0.701334,-0.695637,3.11847,-0.516978,-0.0138439,-0.0394203
3681057,1,-1.58146,-0.516365,-0.00610001,-2.08896,-1.57289,1.58781,0.784551,-1.5839,-0.515709,-0.00770832,-2.08541,-1.57463,1.59064,0.784341,-0.450831,0.287061,-0.225687,0.32194,-0.111761,0.729899,-0.0348872,-0.532417,0.32971,-0.311895,0.363889,-0.145605,0.810243,-0.0365738,-11.8326,-2.4808,-16.6116,22.6856,-2.01384,-0.759679,-0.0318506,-1.04763,-0.706107,-0.762552,3.13368,-0.530212,-0.00808865,-0.0367995
3681058,1,-1.58194,-0.516048,-0.00636261,-2.08861,-1.57302,1.5886,0.784517,-1.58444,-0.515372,-0.0080271,-2.08504,-1.57478,1.59147,0.784304,-0.45444,0.296748,-0.240903,0.33102,-0.122044,0.752108,-0.0311445,-0.544428,0.3372,-0.31878,0.37225,-0.148573,0.82836,-0.0372199,-11.9833,-2.63156,-16.5878,22.6102,-1.97996,-0.791722,-0.0318506,-1.0868,-0.705496,-0.828124,3.1435,-0.543188,-0.00247905,-0.0345472
3681059,1,-1.58242,-0.515731,-0.00662428,-2.08826,-1.57316,1.58944,0.784469,-1.585,-0.515027,-0.00835252,-2.08465,-1.57493,1.59232,0.784266,-0.466757,0.304836,-0.246804,0.335782,-0.125335,0.77661,-0.0376572,-0.556159,0.34469,-0.325418,0.380743,-0.151394,0.846056,-0.0378556,-12.2333,-2.68314,-16.5878,22.7094,-1.95158,-0.907079,0.0972387,-1.12536,-0.700478,-0.89131,3.14915,-0.555838,0.00300431,-0.0327289
3681060,1,-1.58292,-0.515396,-0.00688351,-2.0879,-1.57329,1.59028,0.78444,-1.58556,-0.514675,-0.00868457,-2.08427,-1.57508,1.59318,0.784227,-0.476822,0.311887,-0.251531,0.354889,-0.125458,0.794331,-0.0360356,-0.56789,0.35218,-0.332056,0.389236,-0.154216,0.863753,-0.0384913,-12.3602,-2.81009,-16.6869,22.7848,-1.98546,-0.894261,0.0587866,-1.16454,-0.693214,-0.953918,3.15176,-0.568166,0.0080587,-0.031302
3681061,1,-1.58344,-0.515059,-0.00714024,-2.08752,-1.57342,1.59112,0.784407,-1.58614,-0.514316,-0.00902326,-2.08387,-1.57524,1.59406,0.784188,-0.490957,0.320176,-0.254782,0.360851,-0.130518,0.808736,-0.0351809,-0.579621,0.35967,-0.338694,0.397729,-0.157037,0.88145,-0.039127,-12.3364,-2.88547,-16.9647,22.761,-2.01933,-0.778905,0.0258276,-1.20651,-0.679493,-1.02002,3.14768,-0.580098,0.0123608,-0.0301472
3681062,1,-1.58395,-0.5147,-0.0074209,-2.08714,-1.57356,1.592,0.78437,-1.58674,-0.513948,-0.0093686,-2.08346,-1.5754,1.59496,0.784148,-0.497156,0.329408,-0.262182,0.370027,-0.129351,0.826916,-0.0355467,-0.591352,0.36716,-0.345331,0.406222,-0.159859,0.899146,-0.0397627,-12.6379,-3.1116,-17.04,22.7848,-2.0587,-0.772496,0.0194189,-1.25259,-0.662148,-1.09174,3.13916,-0.591792,0.0157868,-0.0291543
3681063,1,-1.58447,-0.51434,-0.00770648,-2.08675,-1.5737,1.59291,0.784327,-1.58734,-0.513574,-0.00972057,-2.08305,-1.57556,1.59588,0.784108,-0.504193,0.33797,-0.268378,0.375363,-0.134123,0.874865,-0.037613,-0.603083,0.37465,-0.351969,0.414716,-0.16268,0.916843,-0.0403983,-12.8403,-3.26236,-17.0916,22.9077,-2.08159,-0.907079,0.0587866,-1.30541,-0.649041,-1.17201,3.13231,-0.603553,0.0178899,-0.0282921
3681064,1,-1.58502,-0.51397,-0.00799101,-2.08635,-1.57385,1.59384,0.784286,-1.58795,-0.513192,-0.0100792,-2.08262,-1.57573,1.59681,0.784067,-0.512648,0.350132,-0.273019,0.381568,-0.137402,0.891641,-0.038698,-0.614813,0.38214,-0.358607,0.423209,-0.165502,0.93454,-0.041034,-12.9156,-3.41708,-17.1432,23.0585,-2.10997,-1.02976,0.0844213,-1.36834,-0.648438,-1.26446,3.13275,-0.615656,0.0179631,-0.0275341
3681065,1,-1.58558,-0.513594,-0.00828352,-2.08594,-1.57399,1.59479,0.784252,-1.58858,-0.512802,-0.0104444,-2.08219,-1.57589,1.59776,0.784025,-0.529619,0.357308,-0.276141,0.392015,-0.144826,0.907015,-0.0403489,-0.626544,0.38963,-0.365245,0.431702,-0.168323,0.952236,-0.0416697,-12.8403,-3.49246,-17.167,23.1339,-2.12095,-0.997716,0.0194189,-1.44039,-0.66406,-1.36781,3.14275,-0.628219,0.0161186,-0.0267965
3681066,1,-1.58615,-0.513211,-0.00857759,-2.08553,-1.57415,1.59574,0.784218,-1.58922,-0.512405,-0.0108163,-2.08175,-1.57607,1.59873,0.783983,-0.54235,0.365878,-0.282921,0.3972,-0.146183,0.921377,-0.0377811,-0.638275,0.39712,-0.371883,0.440195,-0.171145,0.969933,-0.0423054,-12.9156,-3.66702,-17.167,23.3084,-2.13286,-0.997716,-0.0318506,-1.51606,-0.691224,-1.47534,3.15993,-0.641134,0.0132981,-0.0260237
3681067,1,-1.58672,-0.512813,-0.00888775,-2.08511,-1.57431,1.59672,0.784175,-1.58987,-0.512,-0.0111948,-2.0813,-1.57624,1.59972,0.78394,-0.547641,0.37555,-0.292145,0.405369,-0.148289,0.933601,-0.039662,-0.650006,0.40461,-0.378521,0.448688,-0.173966,0.98763,-0.042941,-12.991,-3.86935,-17.1194,23.4076,-2.10997,-0.959264,0.0130102,-1.59115,-0.727014,-1.58105,3.18353,-0.654357,0.0102548,-0.02526
3681068,1,-1.58731,-0.512408,-0.00920308,-2.08468,-1.57448,1.59771,0.784131,-1.59053,-0.511588,-0.01158,-2.08085,-1.57642,1.60073,0.783896,-0.565579,0.384836,-0.297903,0.416831,-0.148956,0.952638,-0.0409211,-0.661737,0.4121,-0.385158,0.457181,-0.176788,1.00533,-0.0435767,-12.9672,-4.02011,-17.1194,23.4552,-2.10448,-0.881444,0.0587866,-1.66349,-0.770689,-1.68121,3.2127,-0.66782,0.00742657,-0.0245882
3681069,1,-1.58792,-0.512003,-0.00953107,-2.08424,-1.57463,1.59872,0.78408,-1.5912,-0.511169,-0.0119715,-2.08038,-1.5766,1.60175,0.783852,-0.57439,0.389343,-0.306948,0.423792,-0.14869,0.964428,-0.042978,-0.67288,0.41959,-0.391471,0.465648,-0.179286,1.02224,-0.0441857,-12.991,-4.07169,-17.04,23.5544,-2.12645,-0.862218,0.143015,-1.73041,-0.816385,-1.77224,3.24356,-0.681287,0.00536808,-0.0240279
3681070,1,-1.58854,-0.511582,-0.0098654,-2.0838,-1.57479,1.59975,0.784049,-1.59189,-0.510742,-0.0123692,-2.07991,-1.57678,1.60279,0.783807,-0.578391,0.396352,-0.312613,0.426242,-0.152362,0.978271,-0.0386538,-0.684022,0.42708,-0.397783,0.474115,-0.181784,1.03915,-0.0447946,-12.8918,-4.17484,-16.9647,23.6298,-2.16032,-0.798131,0.071604,-1.79296,-0.858616,-1.85538,3.27495,-0.694717,0.00418647,-0.0234914
3681071,1,-1.58918,-0.511159,-0.0102068,-2.08335,-1.57495,1.60081,0.784,-1.59258,-0.510307,-0.0127733,-2.07942,-1.57696,1.60385,0.783762,-0.59336,0.413438,-0.330675,0.432737,-0.156798,1.00737,-0.0407356,-0.695165,0.43457,-0.404096,0.482581,-0.184282,1.05606,-0.0454036,-12.6379,-4.30179,-16.7901,23.6536,-2.16032,-0.887853,0.135691,-1.85168,-0.905708,-1.93013,3.31284,-0.708262,0.00381678,-0.022838
3681072,1,-1.58985,-0.510731,-0.0105676,-2.08289,-1.57511,1.60188,0.783958,-1.59329,-0.509865,-0.0131837,-2.07893,-1.57715,1.60492,0.783716,-0.615079,0.421776,-0.339622,0.438956,-0.159566,1.02336,-0.0391814,-0.706307,0.44206,-0.410408,0.491048,-0.18678,1.07297,-0.0460126,-12.4634,-4.27402,-16.6116,23.5544,-2.17222,-0.972081,0.122873,-1.89866,-0.971166,-1.98496,3.36346,-0.721857,0.0051651,-0.0219706
3681073,1,-1.5905,-0.510287,-0.010944,-2.08242,-1.57528,1.60298,0.783921,-1.59401,-0.509415,-0.0136005,-2.07843,-1.57734,1.60601,0.783669,-0.629302,0.428524,-0.345195,0.444418,-0.163087,1.04437,-0.0368425,-0.71745,0.44955,-0.41672,0.499515,-0.189279,1.08988,-0.0466215,-12.388,-4.27402,-16.3339,23.479,-2.14384,-1.02335,0.071604,-1.9283,-1.05298,-2.01371,3.42529,-0.735327,0.00886001,-0.0208508
3681074,1,-1.59118,-0.509832,-0.0113158,-2.08194,-1.57545,1.60407,0.783884,-1.59473,-0.508958,-0.0140235,-2.07792,-1.57753,1.60711,0.783622,-0.644258,0.437959,-0.350778,0.45234,-0.168185,1.06205,-0.0396207,-0.728593,0.45704,-0.423033,0.507981,-0.191777,1.1068,-0.0472305,-12.2095,-4.42477,-16.1315,23.3561,-2.17222,-1.03617,0.0194189,-1.94426,-1.14148,-2.02349,3.49317,-0.748635,0.014179,-0.0195008
3681075,1,-1.59186,-0.509371,-0.011694,-2.08144,-1.57563,1.60518,0.783838,-1.59547,-0.508494,-0.0144528,-2.07741,-1.57772,1.60824,0.783574,-0.656196,0.447959,-0.354317,0.46663,-0.168754,1.07079,-0.0400591,-0.739735,0.46453,-0.429345,0.516448,-0.194275,1.12371,-0.0478395,-12.0587,-4.5795,-16.0522,23.1339,-2.15483,-0.972081,0.038645,-1.95257,-1.23065,-2.02375,3.56142,-0.761762,0.0200827,-0.0180267
3681076,1,-1.59257,-0.508911,-0.012083,-2.08095,-1.57581,1.60629,0.783789,-1.59623,-0.508022,-0.0148885,-2.07688,-1.57792,1.60938,0.783526,-0.674057,0.453548,-0.364671,0.476413,-0.177293,1.08462,-0.0416861,-0.750878,0.47202,-0.435658,0.524915,-0.196773,1.14062,-0.0484484,-11.8326,-4.62711,-15.953,22.9355,-2.14934,-0.913488,0.09083,-1.95529,-1.31299,-2.01791,3.62274,-0.774531,0.0263004,-0.0165677
3681077,1,-1.5933,-0.508443,-0.0124839,-2.08043,-1.57598,1.60741,0.783744,-1.59699,-0.507542,-0.0153305,-2.07635,-1.57812,1.61054,0.783477,-0.680965,0.453059,-0.375529,0.484955,-0.175902,1.09481,-0.0447692,-0.76202,0.47951,-0.44197,0.533381,-0.199271,1.15753,-0.0490574,-11.7056,-4.62711,-15.8499,22.7848,-2.13286,-0.830175,0.0780126,-1.95036,-1.37526,-2.00301,3.66985,-0.786641,0.0333579,-0.0152067
3681078,1,-1.59403,-0.507972,-0.0129086,-2.07992,-1.57617,1.60856,0.783711,-1.59776,-0.507055,-0.0157787,-2.07581,-1.57832,1.61171,0.783427,-0.696048,0.452383,-0.384692,0.494842,-0.174798,1.10432,-0.0397869,-0.773163,0.487,-0.448282,0.541848,-0.201769,1.17444,-0.0496664,-11.5549,-4.52792,-15.6753,22.6618,-2.11546,-0.798131,-0.0190333,-1.93665,-1.40086,-1.97729,3.69601,-0.797869,0.0417995,-0.0139745
3681079,1,-1.59478,-0.507503,-0.0133254,-2.07938,-1.57635,1.60972,0.783667,-1.59854,-0.506561,-0.016233,-2.07526,-1.57853,1.6129,0.783377,-0.71131,0.459998,-0.395166,0.505472,-0.179776,1.12102,-0.0386168,-0.783511,0.49449,-0.454216,0.550188,-0.203869,1.19032,-0.0502277,-11.4517,-4.42477,-15.5206,22.5348,-2.0706,-0.913488,-0.044668,-1.91315,-1.3838,-1.93963,3.69854,-0.808109,0.0520024,-0.0129177
3681080,1,-1.59553,-0.507012,-0.0137664,-2.07884,-1.57655,1.6109,0.783629,-1.59934,-0.506059,-0.0166931,-2.0747,-1.57873,1.61411,0.783326,-0.742876,0.470416,-0.410393,0.516755,-0.188308,1.12859,-0.0367489,-0.79386,0.50198,-0.46015,0.558529,-0.205969,1.2062,-0.0507891,-11.4041,-4.42477,-15.2944,22.4872,-2.01384,-0.965673,-0.0968531,-1.87279,-1.3366,-1.88043,3.6823,-0.81723,0.0648725,-0.0121003
3681081,1,-1.59631,-0.506513,-0.0142036,-2.07829,-1.57675,1.61209,0.783585,-1.60014,-0.505549,-0.0171592,-2.07413,-1.57894,1.61533,0.783275,-0.759479,0.475748,-0.414984,0.531927,-0.192293,1.17036,-0.0373567,-0.804208,0.50947,-0.466084,0.566869,-0.208068,1.22209,-0.0513505,-11.2018,-4.42477,-15.2429,22.3365,-2.02482,-1.03617,-0.0968531,-1.80936,-1.27271,-1.79149,3.65188,-0.825026,0.0808591,-0.0116118
3681082,1,-1.59711,-0.506019,-0.014639,-2.07771,-1.57694,1.61331,0.783554,-1.60096,-0.505032,-0.0176312,-2.07356,-1.57915,1.61657,0.783223,-0.770266,0.479379,-0.418612,0.546532,-0.194689,1.18032,-0.0345356,-0.814557,0.51696,-0.472018,0.575209,-0.210168,1.23797,-0.0519118,-11.051,-4.42477,-15.1952,22.1381,-2.05321,-1.17807,-0.181082,-1.73133,-1.19193,-1.68512,3.60527,-0.831493,0.0982407,-0.0115842
3681083,1,-1.5979,-0.505494,-0.0150901,-2.07713,-1.57714,1.61456,0.783517,-1.60178,-0.504508,-0.0181092,-2.07297,-1.57936,1.61782,0.78317,-0.784749,0.490348,-0.425651,0.550781,-0.197501,1.19573,-0.0387522,-0.824905,0.52445,-0.477951,0.583549,-0.212267,1.25385,-0.0524732,-10.9241,-4.55173,-15.0405,22.1381,-2.05321,-1.42893,-0.219534,-1.65145,-1.09725,-1.57898,3.54464,-0.837041,0.114908,-0.0121071
3681084,1,-1.59869,-0.504979,-0.0155421,-2.07655,-1.57733,1.61578,0.783472,-1.60262,-0.503976,-0.018593,-2.07238,-1.57958,1.61909,0.783117,-0.786867,0.500837,-0.434314,0.561643,-0.199724,1.19568,-0.0405484,-0.835253,0.53194,-0.483885,0.59189,-0.214367,1.26973,-0.0530346,-11.0986,-4.5795,-14.9413,22.0905,-2.05321,-1.37125,-0.174673,-1.57611,-1.00559,-1.48081,3.48113,-0.842309,0.129683,-0.0132164
3681085,1,-1.59949,-0.504457,-0.0160024,-2.07596,-1.57754,1.61699,0.783441,-1.60346,-0.503437,-0.0190829,-2.07178,-1.57979,1.62038,0.783064,-0.794799,0.50454,-0.443345,0.56657,-0.200956,1.19259,-0.0372866,-0.845602,0.53943,-0.489819,0.60023,-0.216466,1.28561,-0.0535959,-11.2533,-4.6033,-14.9889,22.2373,-2.0706,-0.984899,-0.246084,-1.50912,-0.926889,-1.39411,3.42201,-0.847755,0.141895,-0.0149314
3681086,1,-1.6003,-0.503923,-0.0164688,-2.07537,-1.57774,1.61825,0.783409,-1.60432,-0.50289,-0.0195786,-2.07117,-1.58001,1.62168,0.78301,-0.797857,0.511611,-0.44632,0.573609,-0.205572,1.19815,-0.0397344,-0.85595,0.54692,-0.495753,0.60857,-0.218566,1.30149,-0.0541573,-11.5033,-4.55173,-15.0683,22.3127,-2.11546,-0.733129,-0.303762,-1.45397,-0.858664,-1.32268,3.3686,-0.853617,0.15135,-0.0172411
3681087,1,-1.60113,-0.503395,-0.0169319,-2.07477,-1.57795,1.61954,0.783369,-1.60518,-0.502335,-0.0200803,-2.07056,-1.58023,1.623,0.782955,-0.805453,0.517259,-0.455764,0.578169,-0.203618,1.22199,-0.0412538,-0.866298,0.55441,-0.501687,0.61691,-0.220666,1.31738,-0.0547187,-11.6064,-4.47635,-15.1437,22.4356,-2.18321,-0.875035,-0.258901,-1.41457,-0.799469,-1.27126,3.32244,-0.860084,0.158027,-0.0201638
3681088,1,-1.60198,-0.502855,-0.0174066,-2.07416,-1.57815,1.62085,0.783326,-1.60606,-0.501773,-0.0205879,-2.06993,-1.58045,1.62433,0.7829,-0.818031,0.518812,-0.458196,0.585935,-0.206001,1.23842,-0.0434048,-0.876647,0.5619,-0.50762,0.625251,-0.222765,1.33326,-0.05528,-11.6302,-4.45255,-15.2191,22.6618,-2.26286,-1.06821,-0.181082,-1.39141,-0.745282,-1.24032,3.28294,-0.867189,0.162348,-0.0237401
3681089,1,-1.60284,-0.502306,-0.0178734,-2.07355,-1.57837,1.62218,0.783284,-1.60695,-0.501204,-0.0211011,-2.0693,-1.58068,1.62568,0.782844,-0.838176,0.528853,-0.466077,0.59752,-0.210324,1.26522,-0.0435342,-0.886064,0.56939,-0.513141,0.633417,-0.224438,1.34795,-0.0557631,-11.4517,-4.47635,-15.3698,22.6618,-2.26286,-1.35843,-0.135305,-1.37962,-0.689742,-1.22402,3.24647,-0.874773,0.165143,-0.0279028
3681090,1,-1.60371,-0.501734,-0.0183581,-2.07292,-1.57859,1.62351,0.783262,-1.60784,-0.500627,-0.0216197,-2.06866,-1.58091,1.62704,0.782788,-0.849392,0.537779,-0.470122,0.601444,-0.212474,1.28423,-0.0364455,-0.895481,0.57688,-0.518662,0.641583,-0.226112,1.36264,-0.0562461,-11.4517,-4.6033,-15.346,22.7848,-2.1887,-1.35843,-0.278127,-1.3734,-0.637126,-1.2152,3.21378,-0.882805,0.166824,-0.0324423
3681091,1,-1.60456,-0.501145,-0.0188593,-2.07231,-1.57882,1.62485,0.78322,-1.60875,-0.500043,-0.0221439,-2.06801,-1.58113,1.62842,0.782731,-0.855646,0.548239,-0.479413,0.60581,-0.214388,1.30015,-0.0429277,-0.904898,0.58437,-0.524183,0.649749,-0.227785,1.37733,-0.0567292,-11.6818,-4.93259,-15.2944,22.9355,-2.10448,-1.28061,-0.246084,-1.37165,-0.599429,-1.21215,3.19162,-0.891513,0.166977,-0.0371698
3681092,1,-1.60543,-0.500554,-0.0193612,-2.07166,-1.57904,1.62619,0.783173,-1.60966,-0.499451,-0.0226736,-2.06735,-1.58136,1.62981,0.782674,-0.858169,0.56496,-0.48969,0.617794,-0.218053,1.31508,-0.044563,-0.914316,0.59186,-0.529705,0.657915,-0.229458,1.39201,-0.0572122,-11.8048,-5.2103,-15.2429,22.9593,-2.07609,-1.16526,-0.168264,-1.37619,-0.588699,-1.21586,3.18569,-0.900999,0.165066,-0.0420285
3681093,1,-1.60631,-0.499955,-0.0198649,-2.07102,-1.57927,1.62755,0.783117,-1.61059,-0.498851,-0.0232088,-2.06668,-1.58159,1.63122,0.782616,-0.864006,0.57432,-0.487335,0.620407,-0.216951,1.32148,-0.0474832,-0.923733,0.59935,-0.535226,0.66608,-0.231132,1.4067,-0.0576952,-11.6818,-5.38882,-15.1675,23.0823,-2.13835,-0.991307,-0.0382593,-1.39112,-0.613141,-1.23083,3.19828,-0.911238,0.160624,-0.0469627
3681094,1,-1.60722,-0.499352,-0.0203756,-2.07039,-1.57948,1.62891,0.783056,-1.61152,-0.498245,-0.0237496,-2.06601,-1.58183,1.63264,0.782558,-0.873439,0.583327,-0.489145,0.627383,-0.213963,1.34267,-0.051051,-0.93315,0.60684,-0.540747,0.674246,-0.232805,1.42139,-0.0581783,-11.4517,-5.51181,-15.1159,23.3084,-2.24547,-0.907079,0.135691,-1.42215,-0.670536,-1.26582,3.22877,-0.922285,0.153247,-0.051803
3681095,1,-1.60814,-0.498753,-0.0208845,-2.06973,-1.5797,1.63029,0.783014,-1.61246,-0.49763,-0.0242959,-2.06533,-1.58206,1.63407,0.782499,-0.881331,0.587201,-0.496406,0.635249,-0.210096,1.35172,-0.0475456,-0.942567,0.61433,-0.546268,0.682412,-0.234478,1.43608,-0.0586613,-11.301,-5.51181,-15.0683,23.3799,-2.31322,-0.72672,0.0322363,-1.46868,-0.747291,-1.32131,3.27138,-0.934021,0.14357,-0.056274
3681096,1,-1.60905,-0.498146,-0.0214108,-2.06907,-1.57992,1.63171,0.782962,-1.61341,-0.497008,-0.0248476,-2.06464,-1.5823,1.63552,0.78244,-0.892044,0.588689,-0.500441,0.64055,-0.209218,1.36237,-0.0496127,-0.951985,0.62182,-0.551789,0.690578,-0.236152,1.45077,-0.0591444,-11.2256,-5.4642,-14.8898,23.3799,-2.31871,-0.67545,0.0322363,-1.5241,-0.823232,-1.38912,3.31678,-0.946172,0.133213,-0.0601182
3681097,1,-1.60997,-0.497541,-0.0219335,-2.0684,-1.58014,1.63313,0.782916,-1.61437,-0.496379,-0.025405,-2.06394,-1.58254,1.63699,0.78238,-0.897267,0.596246,-0.510405,0.64598,-0.215099,1.38214,-0.0482593,-0.961402,0.62931,-0.55731,0.698744,-0.237825,1.46546,-0.0596274,-11.3763,-5.36105,-14.739,23.4076,-2.27934,-0.701085,-0.0584009,-1.58255,-0.885485,-1.4616,3.35973,-0.958573,0.12354,-0.0632396
3681098,1,-1.6109,-0.496905,-0.0224666,-2.06771,-1.58037,1.63459,0.782848,-1.61535,-0.495742,-0.0259678,-2.06323,-1.58277,1.63847,0.78232,-0.929549,0.60572,-0.514198,0.654403,-0.217266,1.40422,-0.0578005,-0.970819,0.6368,-0.562831,0.70691,-0.239498,1.48015,-0.0601105,-11.3287,-5.43643,-14.5843,23.2331,-2.29033,-0.855809,0.0130102,-1.6361,-0.936142,-1.52807,3.40095,-0.971029,0.115764,-0.0656801
3681099,1,-1.61186,-0.496266,-0.0229954,-2.06703,-1.58058,1.63606,0.782782,-1.61632,-0.495098,-0.0265357,-2.06251,-1.58302,1.63996,0.78226,-0.94098,0.614358,-0.514805,0.665887,-0.212173,1.41618,-0.0598043,-0.979214,0.64429,-0.567921,0.714902,-0.240731,1.49354,-0.060467,-11.0986,-5.53958,-14.6597,23.0069,-2.36449,-0.830175,0.0780126,-1.67723,-0.980444,-1.57931,3.44065,-0.983316,0.110785,-0.0675429
3681100,1,-1.61282,-0.495622,-0.023523,-2.06633,-1.5808,1.63751,0.782723,-1.61731,-0.494446,-0.0271087,-2.06179,-1.58326,1.64147,0.782199,-0.94153,0.625563,-0.523301,0.677504,-0.214743,1.4308,-0.0628592,-0.98761,0.65178,-0.573012,0.722894,-0.241964,1.50693,-0.0608235,-11.0748,-5.61496,-14.6874,22.8839,-2.40385,-0.707494,0.0651953,-1.70945,-1.02119,-1.62007,3.47678,-0.995492,0.107877,-0.0688942
3681101,1,-1.61377,-0.494965,-0.0240633,-2.06562,-1.58102,1.63901,0.782654,-1.61831,-0.493787,-0.0276868,-2.06106,-1.5835,1.64299,0.782138,-0.929718,0.630993,-0.523663,0.683917,-0.212387,1.44625,-0.0673329,-0.996005,0.65927,-0.578102,0.730886,-0.243196,1.52032,-0.06118,-11.2018,-5.74191,-14.7866,22.7332,-2.40935,-0.746862,0.0972387,-1.74657,-1.06069,-1.66733,3.50851,-1.00794,0.10489,-0.06974
3681102,1,-1.61474,-0.494315,-0.0246096,-2.0649,-1.58125,1.64051,0.782594,-1.61931,-0.49312,-0.02827,-2.06032,-1.58374,1.64452,0.782076,-0.935244,0.654629,-0.537643,0.693967,-0.215339,1.46856,-0.0653028,-1.0044,0.66676,-0.583193,0.738878,-0.244429,1.53371,-0.0615365,-11.2018,-5.74191,-14.7628,22.4872,-2.30223,-0.75327,0.00660151,-1.79908,-1.11008,-1.73333,3.5408,-1.0211,0.100139,-0.0700683
3681103,1,-1.61571,-0.493674,-0.0251786,-2.06417,-1.58148,1.64203,0.782532,-1.62033,-0.492446,-0.0288583,-2.05958,-1.58399,1.64607,0.782014,-0.949503,0.648504,-0.54846,0.700395,-0.220703,1.47892,-0.0659342,-1.0128,0.67425,-0.588284,0.74687,-0.245662,1.5471,-0.061893,-11.1502,-5.41263,-14.5843,22.3603,-2.22899,-0.643407,-0.044668,-1.85969,-1.17517,-1.80701,3.57661,-1.03481,0.0945618,-0.0699133
3681104,1,-1.61672,-0.493027,-0.0257514,-2.06344,-1.58172,1.64358,0.782473,-1.62135,-0.491764,-0.0294517,-2.05882,-1.58424,1.64763,0.781952,-0.968425,0.644203,-0.553103,0.714693,-0.223892,1.4967,-0.0657092,-1.02119,0.68174,-0.593374,0.754862,-0.246895,1.56049,-0.0622495,-10.8209,-5.03177,-14.4097,22.2889,-2.16673,-0.656224,-0.122488,-1.91276,-1.22497,-1.86893,3.60205,-1.0481,0.0906765,-0.0694796
3681105,1,-1.61775,-0.492376,-0.0263229,-2.06268,-1.58195,1.64513,0.782407,-1.62238,-0.491075,-0.0300501,-2.05806,-1.58449,1.64921,0.78189,-0.975996,0.646438,-0.557932,0.724374,-0.221011,1.5085,-0.0623411,-1.02959,0.68923,-0.598465,0.762854,-0.248127,1.57389,-0.062606,-10.4956,-4.70645,-14.1796,22.1381,-2.12095,-0.713903,-0.161856,-1.95231,-1.2253,-1.91386,3.60091,-1.06017,0.0896444,-0.0690696
3681106,1,-1.61876,-0.491696,-0.0268995,-2.06193,-1.58217,1.64671,0.782333,-1.62341,-0.490378,-0.0306537,-2.05729,-1.58473,1.65079,0.781827,-0.973915,0.652231,-0.56521,0.728367,-0.225074,1.52635,-0.0643823,-1.03798,0.69672,-0.603555,0.770846,-0.24936,1.58728,-0.0629625,-10.1425,-4.73026,-14.0051,22.0905,-2.14934,-0.894261,-0.077627,-1.98357,-1.17752,-1.94953,3.57476,-1.07102,0.0906083,-0.0689199
3681107,1,-1.6198,-0.491006,-0.0274894,-2.06118,-1.5824,1.64827,0.782262,-1.62446,-0.489674,-0.0312623,-2.05651,-1.58499,1.65239,0.781763,-0.989591,0.667398,-0.586103,0.734795,-0.231296,1.5432,-0.0685882,-1.04638,0.70421,-0.608646,0.778837,-0.250593,1.60067,-0.0633191,-9.8886,-4.90482,-13.6242,22.0905,-2.20061,-0.92722,-0.0382593,-2.00761,-1.10777,-1.97572,3.5384,-1.08093,0.0928969,-0.0690997
3681108,1,-1.62085,-0.49029,-0.0280775,-2.06041,-1.58263,1.64985,0.782195,-1.62552,-0.488962,-0.0318761,-2.05572,-1.58524,1.65401,0.7817,-1.00861,0.680322,-0.582758,0.74339,-0.23423,1.55376,-0.0654032,-1.05477,0.7117,-0.613736,0.786829,-0.251826,1.61406,-0.0636756,-9.68627,-5.2341,-13.4734,22.1143,-2.21709,-0.907079,-0.0382593,-2.01669,-1.04621,-1.98131,3.50662,-1.09003,0.0969215,-0.0694974
3681109,1,-1.62188,-0.489573,-0.0286867,-2.05965,-1.58287,1.65145,0.782144,-1.62658,-0.488243,-0.0324945,-2.05493,-1.58549,1.65563,0.781636,-1.01647,0.690695,-0.588234,0.76493,-0.235908,1.56155,-0.0637169,-1.06209,0.71919,-0.618388,0.794662,-0.252612,1.62608,-0.0638617,-9.68627,-5.48801,-13.2433,22.3365,-2.24547,-0.868627,-0.149038,-2.011,-1.004,-1.96869,3.4812,-1.09854,0.102194,-0.0699904
3681110,1,-1.62293,-0.488866,-0.0292865,-2.05887,-1.5831,1.65307,0.782092,-1.62765,-0.487517,-0.0331175,-2.05412,-1.58574,1.65727,0.781572,-1.01992,0.699901,-0.595391,0.76676,-0.231358,1.58037,-0.0571228,-1.0694,0.72668,-0.62304,0.802494,-0.253399,1.63811,-0.0640479,-9.71404,-5.61496,-13.1918,22.6856,-2.30772,-1.0618,-0.278127,-1.99823,-0.977605,-1.94925,3.45739,-1.1067,0.107474,-0.070585
3681111,1,-1.62399,-0.488148,-0.029881,-2.05808,-1.58334,1.65473,0.782038,-1.62872,-0.486782,-0.0337452,-2.05331,-1.586,1.65892,0.781507,-1.03308,0.704399,-0.589386,0.769453,-0.232129,1.60255,-0.0548485,-1.07672,0.73417,-0.627691,0.810326,-0.254185,1.65014,-0.064234,-9.68627,-5.71414,-13.3187,22.9831,-2.37547,-1.30716,-0.362356,-1.98657,-0.965993,-1.93387,3.43857,-1.115,0.111427,-0.0714234
3681112,1,-1.62505,-0.487414,-0.0305015,-2.05732,-1.58359,1.65634,0.781968,-1.62981,-0.486041,-0.0343775,-2.0525,-1.58625,1.66058,0.781443,-1.04939,0.710529,-0.593032,0.768062,-0.234866,1.63328,-0.0595455,-1.08403,0.74166,-0.632343,0.818158,-0.254972,1.66216,-0.0644202,-9.73784,-5.71414,-13.2949,23.3322,-2.39836,-1.13321,-0.26531,-1.98128,-0.968039,-1.93067,3.43106,-1.12391,0.112863,-0.0727323
3681113,1,-1.62612,-0.486681,-0.0311115,-2.05653,-1.58384,1.65798,0.781899,-1.6309,-0.485292,-0.0350145,-2.05167,-1.58651,1.66226,0.781378,-1.04406,0.717948,-0.593343,0.767899,-0.240535,1.63622,-0.0621916,-1.09135,0.74915,-0.636994,0.825991,-0.255758,1.67419,-0.0646063,-9.91637,-5.84109,-13.3703,23.6298,-2.31871,-1.01053,-0.174673,-1.98501,-0.984061,-1.94318,3.44002,-1.13375,0.111095,-0.0746575
3681114,1,-1.62719,-0.485919,-0.0317316,-2.05573,-1.58409,1.65966,0.781837,-1.632,-0.484535,-0.0356562,-2.05084,-1.58676,1.66394,0.781314,-1.05407,0.728085,-0.604556,0.777292,-0.24748,1.64088,-0.0626018,-1.09867,0.75664,-0.641646,0.833823,-0.256545,1.68621,-0.0647925,-9.91637,-6.095,-13.3465,23.6814,-2.27385,-0.959264,-0.135305,-1.99897,-1.01595,-1.97107,3.46728,-1.14462,0.1063,-0.0771301
3681115,1,-1.62827,-0.485156,-0.0323483,-2.05491,-1.58435,1.66134,0.781774,-1.6331,-0.483771,-0.0363025,-2.04999,-1.58702,1.66564,0.781249,-1.05612,0.73452,-0.605407,0.79161,-0.253032,1.65816,-0.061792,-1.10598,0.76413,-0.646298,0.841655,-0.257331,1.69824,-0.0649786,-10.1663,-6.39651,-13.2949,23.4076,-2.22899,-1.13321,-0.10967,-2.02004,-1.05737,-2.00847,3.50534,-1.15608,0.0995624,-0.0799647
3681116,1,-1.62935,-0.484387,-0.0329649,-2.05407,-1.58459,1.66304,0.781717,-1.63422,-0.482999,-0.0369534,-2.04914,-1.58728,1.66735,0.781183,-1.08109,0.738663,-0.606083,0.801242,-0.249833,1.66437,-0.064219,-1.1133,0.77162,-0.650949,0.849487,-0.258118,1.71027,-0.0651648,-10.0671,-6.47189,-13.3703,23.0585,-2.25645,-1.11399,-0.128897,-2.04404,-1.09387,-2.05021,3.54195,-1.16752,0.0919069,-0.0829896
3681117,1,-1.63048,-0.483609,-0.0335868,-2.05323,-1.58484,1.66474,0.781665,-1.63534,-0.48222,-0.037609,-2.04829,-1.58754,1.66908,0.781118,-1.09583,0.745435,-0.609097,0.817122,-0.252509,1.67344,-0.0602667,-1.12061,0.77911,-0.655601,0.857319,-0.258904,1.72229,-0.065351,-9.73784,-6.49966,-13.4734,22.6618,-2.27934,-1.09385,-0.181082,-2.06409,-1.11257,-2.0885,3.56747,-1.17841,0.0845816,-0.0860749
3681118,1,-1.63162,-0.482837,-0.0342218,-2.05237,-1.58509,1.66643,0.781602,-1.63647,-0.481433,-0.0382693,-2.04742,-1.5878,1.67081,0.781053,-1.10246,0.756055,-0.622345,0.832954,-0.249023,1.67952,-0.0613191,-1.12793,0.7866,-0.660253,0.865152,-0.259691,1.73432,-0.0655371,-9.51171,-6.47189,-13.3941,22.2373,-2.32512,-0.97849,-0.128897,-2.07334,-1.11041,-2.11384,3.57652,-1.18844,0.078726,-0.089171
3681119,1,-1.63271,-0.482055,-0.0348789,-2.0515,-1.58535,1.66815,0.781537,-1.6376,-0.480639,-0.0389337,-2.04655,-1.58806,1.67255,0.780987,-1.09222,0.761289,-0.629187,0.843132,-0.252471,1.68834,-0.0659977,-1.13413,0.79409,-0.664461,0.872811,-0.260035,1.74494,-0.0655449,-9.71404,-6.37271,-13.0926,21.9635,-2.31871,-0.881444,-0.0968531,-2.07403,-1.09176,-2.12722,3.56852,-1.19765,0.0741487,-0.0922756
3681120,1,-1.63382,-0.48128,-0.0355327,-2.05064,-1.58561,1.66985,0.781473,-1.63874,-0.479838,-0.0396024,-2.04567,-1.58832,1.67431,0.780921,-1.09653,0.784309,-0.634452,0.851025,-0.257537,1.69724,-0.0644963,-1.14034,0.80158,-0.66867,0.88047,-0.260379,1.75556,-0.0655527,-9.8886,-6.29733,-12.8387,21.8167,-2.26286,-0.649816,-0.0712183,-2.07592,-1.07371,-2.13992,3.5521,-1.20657,0.0695211,-0.0953003
3681121,1,-1.63495,-0.480491,-0.0361963,-2.04975,-1.58587,1.67158,0.781411,-1.63989,-0.479029,-0.0402753,-2.04478,-1.58858,1.67608,0.780856,-1.10833,0.784858,-0.638897,0.855641,-0.259357,1.69878,-0.0666229,-1.14654,0.80907,-0.672879,0.888129,-0.260723,1.76618,-0.0655605,-9.68627,-6.14658,-12.6879,21.6422,-2.25645,-0.5015,-0.077627,-2.08284,-1.07542,-2.15639,3.53906,-1.21566,0.0645192,-0.0980897
3681122,1,-1.6361,-0.479701,-0.0368622,-2.04888,-1.58613,1.67334,0.781347,-1.64104,-0.478212,-0.0409524,-2.04388,-1.58884,1.67785,0.78079,-1.11352,0.786606,-0.640678,0.861963,-0.254493,1.70668,-0.0681436,-1.15275,0.81656,-0.677087,0.895788,-0.261067,1.7768,-0.0655683,-9.58709,-5.89267,-12.5848,21.5906,-2.28483,-0.411779,-0.0904444,-2.09198,-1.08749,-2.17375,3.52895,-1.22489,0.0601672,-0.100577
3681123,1,-1.63725,-0.478913,-0.037527,-2.04799,-1.58638,1.67509,0.781283,-1.6422,-0.477388,-0.0416337,-2.04298,-1.5891,1.67964,0.780725,-1.12185,0.790284,-0.653633,0.86472,-0.254663,1.72218,-0.0690032,-1.15895,0.82405,-0.681296,0.903447,-0.261411,1.78742,-0.0655761,-9.55931,-5.66653,-12.434,21.7414,-2.35258,-0.450231,-0.116079,-2.10067,-1.09096,-2.18904,3.51638,-1.2341,0.0574181,-0.102789
3681124,1,-1.6384,-0.47811,-0.0381875,-2.04707,-1.58665,1.67688,0.781226,-1.64336,-0.476557,-0.0423192,-2.04207,-1.58936,1.68144,0.780659,-1.14973,0.792005,-0.655243,0.87537,-0.253729,1.73109,-0.06767,-1.16516,0.83154,-0.685505,0.911107,-0.261755,1.79804,-0.0655839,-9.36095,-5.48801,-12.3824,21.7176,-2.31322,-0.533544,-0.200308,-2.10068,-1.07672,-2.19154,3.49863,-1.24301,0.0576582,-0.104778
3681125,1,-1.63955,-0.477299,-0.0388756,-2.04619,-1.5869,1.67866,0.781154,-1.64453,-0.475718,-0.0430089,-2.04115,-1.58963,1.68325,0.780594,-1.15379,0.802579,-0.672231,0.871741,-0.25463,1.74566,-0.065698,-1.17136,0.83903,-0.689713,0.918766,-0.262099,1.80866,-0.0655917,-9.38475,-5.4642,-12.1047,21.9159,-2.31871,-0.611364,-0.18749,-2.08242,-1.04604,-2.16873,3.47751,-1.25149,0.0621484,-0.106628
3681126,1,-1.64071,-0.476474,-0.0395609,-2.04528,-1.58715,1.68046,0.781082,-1.64571,-0.474871,-0.0437028,-2.04022,-1.58989,1.68507,0.780528,-1.15208,0.814686,-0.673585,0.870077,-0.252862,1.75619,-0.0692031,-1.17757,0.84652,-0.693922,0.926425,-0.262443,1.81928,-0.0655995,-9.36095,-5.4642,-11.7993,22.2373,-2.30223,-0.539952,-0.155447,-2.04949,-1.02103,-2.12378,3.46681,-1.25997,0.0699373,-0.108414
3681127,1,-1.64189,-0.475633,-0.0402592,-2.04438,-1.5874,1.68227,0.781014,-1.6469,-0.474017,-0.0444009,-2.03929,-1.59015,1.6869,0.780462,-1.16338,0.825435,-0.679461,0.896162,-0.248664,1.77144,-0.0665402,-1.18377,0.85401,-0.698131,0.934084,-0.262787,1.8299,-0.0656073,-9.05547,-5.53958,-11.4977,22.388,-2.35258,-0.411779,-0.141714,-2.01394,-1.01633,-2.07191,3.47156,-1.26885,0.0788251,-0.110206
3681128,1,-1.64309,-0.47479,-0.0409398,-2.04346,-1.58765,1.68407,0.780949,-1.64809,-0.473155,-0.0451033,-2.03835,-1.59041,1.68874,0.780397,-1.17501,0.83666,-0.682536,0.902455,-0.25069,1.78226,-0.0680346,-1.18998,0.8615,-0.702339,0.941743,-0.263131,1.84052,-0.0656151,-8.5794,-5.69034,-11.4224,22.634,-2.40385,-0.373326,-0.161856,-1.97998,-1.02478,-2.01988,3.48067,-1.2779,0.0879769,-0.112054
3681129,1,-1.64427,-0.473937,-0.0416529,-2.04253,-1.58791,1.68591,0.780876,-1.64928,-0.472286,-0.0458094,-2.0374,-1.59068,1.69059,0.780331,-1.19595,0.838756,-0.693207,0.908486,-0.252656,1.79023,-0.0668163,-1.19506,0.86899,-0.706103,0.949218,-0.263042,1.84972,-0.0654392,-8.40087,-5.76572,-11.1169,22.6618,-2.43223,-0.469457,-0.116079,-1.94133,-1.03737,-1.96054,3.4887,-1.28683,0.0982876,-0.113948
3681130,1,-1.64546,-0.473072,-0.0423823,-2.04161,-1.58816,1.68773,0.780802,-1.65048,-0.47141,-0.0465193,-2.03644,-1.59094,1.69245,0.780266,-1.19699,0.849613,-0.707443,0.908254,-0.25129,1.83762,-0.0663581,-1.20014,0.87648,-0.709867,0.956693,-0.262954,1.85891,-0.0652633,-8.42467,-5.91647,-10.8392,22.8086,-2.42674,-0.592137,-0.077627,-1.8907,-1.05096,-1.88423,3.49906,-1.29557,0.110582,-0.115854
3681131,1,-1.64669,-0.472216,-0.0430887,-2.04065,-1.58842,1.68958,0.780725,-1.65169,-0.470526,-0.0472329,-2.03548,-1.5912,1.69431,0.780201,-1.20978,0.852058,-0.707136,0.92068,-0.257346,1.84733,-0.0701824,-1.20523,0.88397,-0.713631,0.964169,-0.262865,1.86811,-0.0650875,-8.04778,-5.99185,-10.7638,22.6618,-2.35258,-0.636998,-0.0254419,-1.8305,-1.06465,-1.79379,3.51391,-1.30422,0.123969,-0.117719
3681132,1,-1.64789,-0.471358,-0.0438318,-2.0397,-1.58868,1.69145,0.780649,-1.6529,-0.469635,-0.0479503,-2.03451,-1.59147,1.69619,0.780136,-1.21159,0.851875,-0.710358,0.92303,-0.256042,1.84346,-0.0730603,-1.21031,0.89146,-0.717395,0.971644,-0.262776,1.8773,-0.0649116,-7.89702,-5.78952,-10.4583,22.5348,-2.28483,-0.669042,0.00660151,-1.76891,-1.06651,-1.70166,3.52734,-1.31288,0.137123,-0.119449
3681133,1,-1.64909,-0.470496,-0.044572,-2.03873,-1.58895,1.69335,0.780571,-1.65411,-0.468736,-0.0486714,-2.03353,-1.59173,1.69808,0.780071,-1.20378,0.851606,-0.716569,0.936182,-0.257656,1.86966,-0.0708578,-1.21539,0.89895,-0.721159,0.979119,-0.262688,1.88649,-0.0647357,-8.02398,-5.74191,-10.0775,22.1897,-2.15483,-1.17807,0.0651953,-1.71485,-1.03917,-1.6211,3.53041,-1.32153,0.148839,-0.120956
3681134,1,-1.65031,-0.46961,-0.0453066,-2.03776,-1.58922,1.69523,0.780508,-1.65533,-0.467829,-0.0493964,-2.03254,-1.59199,1.69997,0.780007,-1.21124,0.856091,-0.721063,0.942742,-0.255991,1.86747,-0.0721156,-1.22047,0.90644,-0.724923,0.986594,-0.262599,1.89569,-0.0645598,-7.86925,-5.71414,-9.9505,21.9873,-2.09807,-1.22934,-0.044668,-1.67448,-0.975424,-1.56001,3.51783,-1.33001,0.157897,-0.122152
3681135,1,-1.65153,-0.46871,-0.0460341,-2.03676,-1.58948,1.69712,0.780439,-1.65656,-0.466915,-0.0501251,-2.03155,-1.59225,1.70188,0.779942,-1.2078,0.86364,-0.718071,0.956518,-0.252451,1.87186,-0.0719106,-1.22556,0.91393,-0.728688,0.994069,-0.262511,1.90488,-0.064384,-7.79387,-5.78952,-10.1052,21.4914,-2.10448,-0.984899,-0.077627,-1.64977,-0.881648,-1.52081,3.48995,-1.33819,0.163454,-0.122968
3681136,1,-1.65273,-0.467814,-0.0467622,-2.03577,-1.58973,1.69897,0.780376,-1.65779,-0.465994,-0.0508575,-2.03055,-1.59252,1.70379,0.779878,-1.20296,0.874839,-0.722487,0.962821,-0.252987,1.86252,-0.0651069,-1.23064,0.92142,-0.732452,1.00154,-0.262422,1.91408,-0.0642081,-8.14696,-5.84109,-10.129,21.2693,-2.15483,-0.740453,-0.168264,-1.64481,-0.774888,-1.5087,3.45234,-1.34618,0.164629,-0.123445
3681137,1,-1.65392,-0.466917,-0.0474988,-2.03477,-1.58998,1.70089,0.780321,-1.65902,-0.465065,-0.0515937,-2.02954,-1.59278,1.70572,0.779814,-1.19431,0.878624,-0.725778,0.974166,-0.251737,1.8743,-0.0588452,-1.23572,0.92891,-0.736216,1.00902,-0.262333,1.92327,-0.0640322,-8.50005,-5.74191,-10.2322,21.1701,-2.23997,-0.836583,-0.290945,-1.66297,-0.669239,-1.52714,3.41028,-1.35416,0.161169,-0.123741
3681138,1,-1.65515,-0.466023,-0.0482252,-2.03378,-1.59024,1.70279,0.78027,-1.66027,-0.464129,-0.0523337,-2.02852,-1.59304,1.70765,0.77975,-1.2022,0.899037,-0.723842,0.982277,-0.251731,1.87655,-0.0541819,-1.24081,0.9364,-0.73998,1.01649,-0.262245,1.93247,-0.0638563,-8.6032,-5.61496,-10.3076,21.2693,-2.32512,-0.913488,-0.407217,-1.70382,-0.576966,-1.57453,3.36864,-1.36229,0.153544,-0.124091
3681139,1,-1.65641,-0.465092,-0.0489695,-2.03279,-1.59051,1.70471,0.780241,-1.66151,-0.463185,-0.053077,-2.0275,-1.5933,1.70959,0.779687,-1.21371,0.909529,-0.732013,0.979721,-0.254745,1.88247,-0.0450849,-1.24477,0.94389,-0.743299,1.02378,-0.261739,1.94023,-0.0634928,-8.27391,-5.78952,-10.2798,21.6422,-2.3361,-0.830175,-0.685537,-1.75894,-0.519535,-1.63892,3.33922,-1.37081,0.143177,-0.124752
3681140,1,-1.65767,-0.464147,-0.0497271,-2.03179,-1.59077,1.70663,0.780183,-1.66276,-0.462233,-0.0538236,-2.02647,-1.59356,1.71154,0.779624,-1.23161,0.918081,-0.735984,0.981762,-0.256136,1.89014,-0.0456044,-1.24874,0.95138,-0.746619,1.03106,-0.261233,1.948,-0.0631293,-7.89702,-5.99185,-10.0536,21.9873,-2.36998,-0.617772,-0.659902,-1.81183,-0.507886,-1.69799,3.3326,-1.37979,0.132553,-0.126081
3681141,1,-1.65893,-0.463208,-0.0504661,-2.03078,-1.59104,1.70854,0.780138,-1.66401,-0.461274,-0.0545736,-2.02543,-1.59382,1.71349,0.779561,-1.23105,0.930039,-0.737488,0.990393,-0.261592,1.89885,-0.0437929,-1.25271,0.95887,-0.749938,1.03834,-0.260727,1.95576,-0.0627658,-7.61931,-6.24576,-10.0298,22.2889,-2.28483,-0.585729,-0.679128,-1.85373,-0.535071,-1.74086,3.34825,-1.3891,0.123114,-0.128517
3681142,1,-1.66016,-0.462252,-0.0512414,-2.02975,-1.59131,1.7105,0.780069,-1.66527,-0.460308,-0.0553268,-2.02438,-1.59409,1.71546,0.779499,-1.23306,0.928916,-0.738897,0.987847,-0.266685,1.91033,-0.0509966,-1.25668,0.96636,-0.753258,1.04562,-0.260221,1.96353,-0.0624022,-7.79387,-6.44809,-9.64898,22.4356,-2.27385,-0.669042,-0.459402,-1.88962,-0.586943,-1.77547,3.38001,-1.39876,0.114432,-0.132347
3681143,1,-1.6614,-0.461299,-0.0520052,-2.02872,-1.59159,1.71243,0.780003,-1.66653,-0.459334,-0.0560834,-2.02333,-1.59434,1.71743,0.779436,-1.23084,0.940429,-0.755131,0.999248,-0.275949,1.91581,-0.05583,-1.26065,0.97385,-0.756577,1.0529,-0.259715,1.97129,-0.0620387,-7.89702,-6.59885,-9.54583,22.3127,-2.21159,-0.662633,-0.232351,-1.92253,-0.647213,-1.80592,3.42107,-1.40853,0.106331,-0.137542
