shamilmamedov/beam_handling/data/param_estimation_ICRA/ocp_Xup_35cm_0.57s_5.csv
duration, success rate, q[0], q[1], q[2], q[3], q[4], q[5], q[6],q_d[0], q_d[1], q_d[2], q_d[3], q_d[4], q_d[5], q_d[6],dq[0], dq[1], dq[2], dq[3], dq[4], dq[5], dq[6],dq_d[0], dq_d[1], dq_d[2], dq_d[3], dq_d[4], dq_d[5], dq_d[6],tau_J[0], tau_J[1], tau_J[2], tau_J[3], tau_J[4], tau_J[5], tau_J[6],tau_ext_hat_filtered[0], tau_ext_hat_filtered[1], tau_ext_hat_filtered[2], tau_ext_hat_filtered[3], tau_ext_hat_filtered[4], tau_ext_hat_filtered[5], tau_ext_hat_filtered[6]
5320591,0,-1.57035,-0.52283,0.000105558,-2.09585,1.57076,1.57168,0.785036,-1.5708,-0.523599,6.45343e-08,-2.0944,1.5708,1.5708,0.785397,-0.000333593,-0.000110601,-0.000499806,-0.000310583,3.49275e-05,3.60918e-05,0.000300439,0,0,0,0,0,0,0,-0.50597,-10.1654,-0.456784,20.8448,0.762956,-0.656224,0.110056,-0.503094,-1.04077,-0.0706326,2.31497,0.202368,-0.650919,0.166798
5320592,1,-1.57035,-0.522829,0.000107507,-2.09585,1.57076,1.57168,0.785037,-1.5708,-0.523599,6.45343e-08,-2.0944,1.5708,1.5708,0.785397,-0.000872009,0.000483078,0.00031641,-0.000856669,2.3285e-05,-0.000213298,-0.000511784,0,0,0,0,0,0,0,-0.478199,-10.1892,-0.484555,20.8725,0.762956,-0.649816,0.129282,-0.504305,-1.04095,-0.0720984,2.3151,0.202403,-0.650814,0.166845
5320593,1,-1.57035,-0.522827,0.000103888,-2.09585,1.57076,1.57168,0.785035,-1.5708,-0.523599,6.45343e-08,-2.0944,1.5708,1.5708,0.785397,6.8274e-05,0.000322052,-0.000995486,-0.000571113,1.55233e-05,-0.000379557,-0.00034119,0,0,0,0,0,0,0,-0.50597,-10.1892,-0.432981,20.8725,0.762956,-0.643407,0.129282,-0.504471,-1.04343,-0.0720725,2.31674,0.202447,-0.650886,0.166861
5320594,1,-1.57035,-0.522828,0.000103888,-2.09585,1.57076,1.57168,0.785037,-1.5708,-0.523599,6.45343e-08,-2.0944,1.5708,1.5708,0.785397,4.5516e-05,-0.000342111,-0.000663657,0.000825684,-0.000600003,-1.56794e-05,0.000721976,0,0,0,0,0,0,0,-0.50597,-10.1654,-0.432981,20.821,0.779436,-0.649816,0.103647,-0.503927,-1.04619,-0.0709069,2.31849,0.202452,-0.651055,0.166867
5320595,1,-1.57035,-0.522828,0.000107507,-2.09585,1.57076,1.57168,0.785035,-1.5708,-0.523599,6.45343e-08,-2.0944,1.5708,1.5708,0.785397,-0.000619269,0.000328738,0.000763988,0.000550456,0.0004138,-1.04529e-05,-0.000230759,0,0,0,0,0,0,0,-0.478199,-10.1892,-0.484555,20.821,0.757463,-0.649816,0.122873,-0.50329,-1.04727,-0.0695637,2.31893,0.202399,-0.651206,0.166876
5320596,1,-1.57034,-0.522829,0.000107507,-2.09586,1.57076,1.57168,0.785037,-1.5708,-0.523599,6.45343e-08,-2.0944,1.5708,1.5708,0.785397,0.000793579,0.000219159,0.000509325,-0.00139627,-0.000131034,0.00023039,0.000795596,0,0,0,0,0,0,0,-0.529774,-10.1892,-0.484555,20.8963,0.76845,-0.656224,0.0972387,-0.503457,-1.04817,-0.0695501,2.31916,0.202381,-0.651217,0.166875
5320597,1,-1.57035,-0.522831,0.000105558,-2.09585,1.57076,1.57168,0.785036,-1.5708,-0.523599,6.45343e-08,-2.0944,1.5708,1.5708,0.785397,-2.77593e-05,-0.000410706,-0.000310064,0.000275581,-0.000290807,-0.000321124,-0.00116502,0,0,0,0,0,0,0,-0.50597,-10.1654,-0.456784,20.8448,0.773943,-0.643407,0.143015,-0.504377,-1.04963,-0.0707183,2.32005,0.202422,-0.651104,0.166853
5320598,1,-1.57035,-0.522829,0.000107507,-2.09585,1.57076,1.57168,0.785031,-1.5708,-0.523599,6.45343e-08,-2.0944,1.5708,1.5708,0.785397,-1.85062e-05,0.000283008,0.000442905,0.000740533,0.00021303,0.000260635,-0.00172612,0,0,0,0,0,0,0,-0.50597,-10.1892,-0.484555,20.821,0.762956,-0.656224,0.16865,-0.505301,-1.0501,-0.0718759,2.32035,0.202449,-0.650969,0.166815
5320599,1,-1.57035,-0.522831,0.000109178,-2.09585,1.57076,1.57168,0.785038,-1.5708,-0.523599,6.45343e-08,-2.0944,1.5708,1.5708,0.785397,-1.23375e-05,-0.00036814,0.000852082,0.000493688,-0.000264881,0.000411116,0.00149411,0,0,0,0,0,0,0,-0.50597,-10.1654,-0.508359,20.821,0.773943,-0.662633,0.0972387,-0.506278,-1.04925,-0.0731867,2.31954,0.202449,-0.650811,0.166805
5320600,1,-1.57035,-0.522831,0.000107507,-2.09585,1.57076,1.57168,0.785032,-1.5708,-0.523599,6.45343e-08,-2.0944,1.5708,1.5708,0.785397,-0.00121465,-0.000245427,1.12426e-05,-0.00199092,0.000230314,3.67181e-05,-0.000699347,0,0,0,0,0,0,0,-0.454395,-10.1654,-0.484555,20.9201,0.762956,-0.656224,0.143015,-0.507132,-1.04823,-0.0745083,2.31883,0.202466,-0.65067,0.166846
5320601,1,-1.57034,-0.522831,0.000103888,-2.09585,1.57076,1.57168,0.785039,-1.5708,-0.523599,6.45343e-08,-2.0944,1.5708,1.5708,0.785397,0.00095347,-0.000163618,-0.00119893,0.000435955,0.000153542,-0.000687598,0.00170391,0,0,0,0,0,0,0,-0.529774,-10.1654,-0.432981,20.8448,0.762956,-0.636998,0.0844213,-0.507115,-1.0479,-0.0746034,2.31904,0.202491,-0.650664,0.166917
5320602,1,-1.57034,-0.522826,0.000105558,-2.09585,1.57076,1.57168,0.785035,-1.5708,-0.523599,6.45343e-08,-2.0944,1.5708,1.5708,0.785397,0.000635647,0.00100455,-0.000242475,0.000847449,0.000102362,0.000253678,-5.08562e-05,0,0,0,0,0,0,0,-0.529774,-10.213,-0.456784,20.821,0.762956,-0.656224,0.116465,-0.506594,-1.04811,-0.0737396,2.31932,0.202479,-0.650739,0.166995
5320603,1,-1.57035,-0.522827,0.000109178,-2.09585,1.57077,1.57168,0.785037,-1.5708,-0.523599,6.45343e-08,-2.0944,1.5708,1.5708,0.785397,-0.000133047,0.000669697,0.00104478,-0.00064146,0.000271692,-6.82402e-05,-0.000508622,0,0,0,0,0,0,0,-0.50597,-10.213,-0.508359,20.8725,0.757463,-0.649816,0.129282,-0.506544,-1.04963,-0.0734751,2.31974,0.202473,-0.650763,0.167053
5320604,1,-1.57034,-0.522829,0.000105558,-2.09586,1.57076,1.57168,0.785035,-1.5708,-0.523599,6.45343e-08,-2.0944,1.5708,1.5708,0.785397,0.000468114,-0.000110347,-0.000509909,-0.000984452,-2.23228e-05,0.000191865,-0.000339081,0,0,0,0,0,0,0,-0.529774,-10.1892,-0.456784,20.8963,0.762956,-0.656224,0.129282,-0.507039,-1.0526,-0.0741176,2.3211,0.202518,-0.650719,0.167077
5320605,1,-1.57035,-0.522831,0.000107507,-2.09585,1.57076,1.57168,0.785035,-1.5708,-0.523599,6.45343e-08,-2.0944,1.5708,1.5708,0.785397,-0.000244736,-0.00127999,0.000309675,0.000550125,-0.000421783,0.000365269,1.13047e-05,0,0,0,0,0,0,0,-0.50597,-10.1377,-0.484555,20.8448,0.773943,-0.662633,0.122873,-0.507479,-1.05396,-0.0746953,2.32205,0.202539,-0.650667,0.167092
5320606,1,-1.57035,-0.522828,0.000107507,-2.09585,1.57076,1.57168,0.785038,-1.5708,-0.523599,6.45343e-08,-2.0944,1.5708,1.5708,0.785397,-0.000163157,-0.000203713,0.00020645,-0.000282864,-7.77381e-05,-0.000231205,0.000956972,0,0,0,0,0,0,0,-0.50597,-10.1654,-0.484555,20.8725,0.76845,-0.649816,0.0972387,-0.507721,-1.05206,-0.0749958,2.32138,0.20249,-0.650618,0.167115
5320607,1,-1.57035,-0.52283,0.000107507,-2.09585,1.57076,1.57168,0.785035,-1.5708,-0.523599,6.45343e-08,-2.0944,1.5708,1.5708,0.785397,-0.000108772,-0.000135809,0.000137633,0.000461038,0.000355076,-0.000391496,-0.000311454,0,0,0,0,0,0,0,-0.50597,-10.1654,-0.484555,20.8448,0.757463,-0.643407,0.122873,-0.507913,-1.04906,-0.0752738,2.32003,0.202414,-0.650576,0.167137
5320608,1,-1.57035,-0.522829,0.000105558,-2.09585,1.57076,1.57168,0.785039,-1.5708,-0.523599,6.45343e-08,-2.0944,1.5708,1.5708,0.785397,-7.25144e-05,0.000466273,-0.00679964,-0.000342255,-0.000577085,-0.000260997,0.000267082,0,0,0,0,0,0,0,-0.50597,-10.1892,-0.456784,20.8725,0.779436,-0.643407,0.110056,-0.506088,-1.04718,-0.0722166,2.31905,0.20226,-0.650849,0.167133
5320609,1,-1.57035,-0.522829,0.000107507,-2.09585,1.57076,1.57168,0.785036,-1.5708,-0.523599,6.45343e-08,-2.0944,1.5708,1.5708,0.785397,-4.83429e-05,0.000310848,-0.00440362,0.000978256,0.000225628,6.33609e-05,-0.000296663,0,0,0,0,0,0,0,-0.50597,-10.1892,-0.484555,20.821,0.762956,-0.649816,0.122873,-0.500029,-1.04687,-0.0621117,2.31855,0.201936,-0.651764,0.167096
5320610,1,-1.57034,-0.522829,0.000107507,-2.09585,1.57076,1.57168,0.785031,-1.5708,-0.523599,6.45343e-08,-2.0944,1.5708,1.5708,0.785397,0.0011742,-0.00034958,-0.00332586,-0.000554255,-5.30317e-05,0.000516958,-0.00141848,0,0,0,0,0,0,0,-0.557545,-10.1654,-0.484555,20.8725,0.76845,-0.662633,0.155832,-0.492049,-1.04706,-0.0486933,2.31809,0.201532,-0.652962,0.167036
5320611,1,-1.57034,-0.52283,0.000109178,-2.09586,1.57076,1.57168,0.785038,-1.5708,-0.523599,6.45343e-08,-2.0944,1.5708,1.5708,0.785397,0.000133184,-0.000233053,-0.00195301,-0.000926316,0.000168096,-0.000130079,0.00146185,0,0,0,0,0,0,0,-0.529774,-10.1654,-0.508359,20.8963,0.762956,-0.649816,0.09083,-0.485626,-1.04711,-0.0376752,2.31795,0.201213,-0.653923,0.166983
5320612,1,-1.57035,-0.522828,0.000105558,-2.09585,1.57076,1.57168,0.785032,-1.5708,-0.523599,6.45343e-08,-2.0944,1.5708,1.5708,0.785397,-0.000468022,0.000958255,-0.00272787,0.00114569,0.000112064,0.00015064,-0.00119558,0,0,0,0,0,0,0,-0.50597,-10.213,-0.456784,20.821,0.762956,-0.656224,0.149424,-0.481152,-1.04772,-0.029904,2.31837,0.201005,-0.654607,0.166956
5320613,1,-1.57035,-0.522826,0.000107507,-2.09585,1.57076,1.57168,0.785037,-1.5708,-0.523599,6.45343e-08,-2.0944,1.5708,1.5708,0.785397,-0.000961628,0.000638837,-0.00133354,-0.00044263,-0.000128741,0.000100426,0.000898371,0,0,0,0,0,0,0,-0.478199,-10.213,-0.484555,20.8725,0.76845,-0.656224,0.103647,-0.47787,-1.04958,-0.024356,2.31912,0.200868,-0.655144,0.166948
5320614,1,-1.57035,-0.522828,0.000103888,-2.09585,1.57076,1.57168,0.785037,-1.5708,-0.523599,6.45343e-08,-2.0944,1.5708,1.5708,0.785397,-0.000641085,-0.000687733,-0.00221889,0.00146815,0.000321074,-0.000170408,0.000836273,0,0,0,0,0,0,0,-0.478199,-10.1654,-0.432981,20.7972,0.757463,-0.649816,0.0972387,-0.475565,-1.05112,-0.0206985,2.31946,0.200765,-0.655541,0.166958
5320615,1,-1.57035,-0.52283,0.000103888,-2.09585,1.57076,1.57168,0.785033,-1.5708,-0.523599,6.45343e-08,-2.0944,1.5708,1.5708,0.785397,-0.00042739,-0.0011081,-0.00157183,-0.00078447,-0.000192852,0.000361113,-0.000866638,0,0,0,0,0,0,0,-0.478199,-10.1377,-0.432981,20.8725,0.76845,-0.662633,0.135691,-0.474161,-1.04968,-0.0186764,2.31833,0.200654,-0.655767,0.166968
5320616,1,-1.57035,-0.522828,0.000107507,-2.09586,1.57076,1.57168,0.785037,-1.5708,-0.523599,6.45343e-08,-2.0944,1.5708,1.5708,0.785397,0.000364686,-8.9121e-05,8.91046e-05,-0.0016366,7.48825e-05,-0.000233976,0.000846395,0,0,0,0,0,0,0,-0.50597,-10.1654,-0.484555,20.9201,0.762956,-0.649816,0.0972387,-0.474295,-1.04696,-0.0191848,2.31725,0.200612,-0.655736,0.166954
5320617,1,-1.57035,-0.522823,0.000107507,-2.09585,1.57076,1.57168,0.78503,-1.5708,-0.523599,6.45343e-08,-2.0944,1.5708,1.5708,0.785397,0.000243124,0.00170382,7.32954e-06,2.25545e-05,-0.000153529,-0.000155984,-0.00184323,0,0,0,0,0,0,0,-0.50597,-10.2408,-0.484555,20.8725,0.76845,-0.649816,0.162241,-0.476763,-1.04718,-0.0234198,2.3183,0.200742,-0.655383,0.166921
5320618,1,-1.57035,-0.52283,0.000105558,-2.09585,1.57076,1.57168,0.785035,-1.5708,-0.523599,6.45343e-08,-2.0944,1.5708,1.5708,0.785397,-0.00048753,-0.000627355,-0.000683783,0.00122146,0.000101098,-0.000103989,0.000229239,0,0,0,0,0,0,0,-0.478199,-10.1654,-0.456784,20.821,0.762956,-0.649816,0.122873,-0.480561,-1.0495,-0.0297882,2.32005,0.200945,-0.654856,0.16689
5320619,1,-1.57035,-0.522829,0.000105558,-2.09585,1.57076,1.57168,0.785037,-1.5708,-0.523599,6.45343e-08,-2.0944,1.5708,1.5708,0.785397,-0.000881832,-0.000418237,-0.000485147,0.000257496,6.73986e-05,-6.93263e-05,0.00110226,0,0,0,0,0,0,0,-0.454395,-10.1654,-0.456784,20.8448,0.762956,-0.649816,0.0972387,-0.484051,-1.04966,-0.0357833,2.32007,0.20107,-0.654346,0.16689
5320620,1,-1.57035,-0.522828,0.000103888,-2.09585,1.57077,1.57168,0.785036,-1.5708,-0.523599,6.45343e-08,-2.0944,1.5708,1.5708,0.785397,0.000618537,-0.000278825,-0.000902211,-0.00047795,0.000248383,-4.62175e-05,0.000260123,0,0,0,0,0,0,0,-0.50597,-10.1654,-0.432981,20.8725,0.757463,-0.649816,0.110056,-0.486907,-1.04771,-0.0408568,2.319,0.20113,-0.653887,0.166916
5320621,1,-1.57035,-0.522828,0.000107507,-2.09586,1.57076,1.57168,0.78504,-1.5708,-0.523599,6.45343e-08,-2.0944,1.5708,1.5708,0.785397,0.000412358,-0.000185883,0.000588475,-0.000875445,-0.000241312,0.000443906,0.000410774,0,0,0,0,0,0,0,-0.50597,-10.1654,-0.484555,20.8963,0.76845,-0.662633,0.103647,-0.489951,-1.04618,-0.0461505,2.31857,0.201213,-0.653385,0.166927
5320622,1,-1.57035,-0.52283,0.000109178,-2.09585,1.57076,1.57168,0.785034,-1.5708,-0.523599,6.45343e-08,-2.0944,1.5708,1.5708,0.785397,-0.000374708,-0.000123922,0.000936771,0.000622796,-0.000364325,5.85785e-05,-0.000912945,0,0,0,0,0,0,0,-0.478199,-10.1654,-0.508359,20.8448,0.773943,-0.656224,0.135691,-0.493762,-1.04526,-0.0526433,2.31874,0.201345,-0.652771,0.166907
5320623,1,-1.57034,-0.522827,0.000107507,-2.09585,1.57076,1.57168,0.785036,-1.5708,-0.523599,6.45343e-08,-2.0944,1.5708,1.5708,0.785397,0.00095662,0.00103101,5.84344e-05,-0.000234417,-3.94331e-05,-0.000198307,0.000340806,0,0,0,0,0,0,0,-0.529774,-10.213,-0.484555,20.8725,0.76845,-0.649816,0.110056,-0.498011,-1.04521,-0.0598717,2.31914,0.201506,-0.65211,0.166863
5320624,1,-1.57035,-0.522828,0.000103428,-2.09585,1.57076,1.57168,0.785032,-1.5708,-0.523599,6.45343e-08,-2.0944,1.5708,1.5708,0.785397,-0.00112549,0.000687339,-0.000617609,0.000493336,-2.62887e-05,-0.000132204,-0.000993499,0,0,0,0,0,0,0,-0.454395,-10.213,-0.456784,20.8448,0.76845,-0.649816,0.143015,-0.501568,-1.04707,-0.0660098,2.32018,0.201666,-0.651583,0.166808
5320625,1,-1.57035,-0.522826,0.000106797,-2.09585,1.57076,1.57168,0.785037,-1.5708,-0.523599,6.45343e-08,-2.0944,1.5708,1.5708,0.785397,-0.000193515,0.000458226,0.000232662,-0.000320723,-1.75258e-05,-0.000562854,0.00103309,0,0,0,0,0,0,0,-0.478199,-10.213,-0.484555,20.8725,0.76845,-0.636998,0.0972387,-0.503672,-1.05017,-0.0699629,2.32165,0.201796,-0.651283,0.166756
5320626,0.99,-1.57034,-0.522828,0.00010727,-2.09585,1.57076,1.57168,0.78504,-1.5708,-0.523599,6.45343e-08,-2.0944,1.5708,1.5708,0.785397,0.00107742,-0.00080814,0.000151198,0.00099261,-0.000215134,9.94818e-05,0.0014008,0,0,0,0,0,0,0,-0.529774,-10.1654,-0.484555,20.821,0.773943,-0.649816,0.0780126,-0.505312,-1.05196,-0.0732004,2.32239,0.20189,-0.65102,0.166716
5320627,0.98,-1.57034,-0.52283,0.000107428,-2.09585,1.57076,1.57168,0.785032,-1.5708,-0.523599,6.45343e-08,-2.0944,1.5708,1.5708,0.785397,0.000718277,-0.00118837,9.78661e-05,-0.000544686,0.000466929,0.000541039,-0.00171099,0,0,0,0,0,0,0,-0.529774,-10.1377,-0.484555,20.8725,0.757463,-0.662633,0.149424,-0.50741,-1.05031,-0.0769684,2.32146,0.20195,-0.650629,0.166661
5320628,0.98,-1.57035,-0.522825,0.000105532,-2.09585,1.57076,1.57168,0.785036,-1.5708,-0.523599,6.45343e-08,-2.0944,1.5708,1.5708,0.785397,-0.000727574,0.000970989,-0.000586569,0.00028649,0.000107835,-0.000114025,0.000317403,0,0,0,0,0,0,0,-0.478199,-10.213,-0.456784,20.8448,0.762956,-0.649816,0.110056,-0.509139,-1.0473,-0.080061,2.32002,0.201988,-0.650272,0.166567
5320629,0.98,-1.57034,-0.522827,0.000107498,-2.09585,1.57076,1.57168,0.78503,-1.5708,-0.523599,6.45343e-08,-2.0944,1.5708,1.5708,0.785397,0.000721376,0.000647326,0.000256918,0.000190993,7.18902e-05,-7.60168e-05,-0.00195854,0,0,0,0,0,0,0,-0.529774,-10.213,-0.484555,20.8448,0.762956,-0.649816,0.16865,-0.509984,-1.04663,-0.0817791,2.31965,0.20203,-0.650081,0.16646
5320630,0.98,-1.57035,-0.522829,0.000105555,-2.09585,1.57076,1.57168,0.785033,-1.5708,-0.523599,6.45343e-08,-2.0944,1.5708,1.5708,0.785397,-0.000725508,-0.000125261,-0.000479572,-0.000522285,-0.000155524,0.000186681,-8.49881e-05,0,0,0,0,0,0,0,-0.478199,-10.1892,-0.456784,20.8725,0.76845,-0.656224,0.135691,-0.510358,-1.04793,-0.0827454,2.32019,0.202079,-0.649992,0.166378
5320631,0.98,-1.57034,-0.522833,0.000105557,-2.09585,1.57076,1.57168,0.785039,-1.5708,-0.523599,6.45343e-08,-2.0944,1.5708,1.5708,0.785397,0.000722753,-0.00128993,-0.000320643,-0.00034819,9.9768e-05,-0.000112905,0.00184221,0,0,0,0,0,0,0,-0.529774,-10.1377,-0.456784,20.8725,0.762956,-0.649816,0.0844213,-0.510313,-1.04833,-0.0830088,2.32058,0.2021,-0.649958,0.166358
5320632,0.98,-1.57035,-0.522829,0.000109177,-2.09585,1.57076,1.57168,0.785031,-1.5708,-0.523599,6.45343e-08,-2.0944,1.5708,1.5708,0.785397,-7.49765e-05,-0.000210342,0.000991968,0.000417487,6.6512e-05,-7.52699e-05,-0.00141671,0,0,0,0,0,0,0,-0.50597,-10.1654,-0.508359,20.8448,0.762956,-0.649816,0.155832,-0.510454,-1.04641,-0.0834665,2.32003,0.202088,-0.649874,0.166394
5320633,0.98,-1.57034,-0.522829,0.000109177,-2.09585,1.57076,1.57168,0.785036,-1.5708,-0.523599,6.45343e-08,-2.0944,1.5708,1.5708,0.785397,0.000506828,0.000416584,0.00066079,0.000278325,4.43413e-05,0.000187179,0.000750944,0,0,0,0,0,0,0,-0.529774,-10.1892,-0.508359,20.8448,0.762956,-0.656224,0.110056,-0.511473,-1.04406,-0.0852375,2.31906,0.202086,-0.649665,0.166453
5320634,0.98,-1.57035,-0.522829,0.000107507,-2.09585,1.57076,1.57168,0.785033,-1.5708,-0.523599,6.45343e-08,-2.0944,1.5708,1.5708,0.785397,-0.000218927,-0.000279089,-0.000116677,-0.000464064,-0.00017389,-0.000112573,-0.000448806,0,0,0,0,0,0,0,-0.50597,-10.1654,-0.484555,20.8725,0.76845,-0.649816,0.135691,-0.512775,-1.04302,-0.0874382,2.31859,0.202104,-0.649442,0.166531
5320635,0.98,-1.57034,-0.522825,0.000107507,-2.09585,1.57076,1.57168,0.785035,-1.5708,-0.523599,6.45343e-08,-2.0944,1.5708,1.5708,0.785397,0.000410861,0.000927564,-7.80779e-05,0.00089705,-0.000115926,0.00016231,0.000412873,0,0,0,0,0,0,0,-0.529774,-10.213,-0.484555,20.821,0.76845,-0.656224,0.116465,-0.513569,-1.04325,-0.0888043,2.31867,0.202114,-0.649323,0.166626
5320636,0.98,-1.57034,-0.522828,0.000107507,-2.09585,1.57076,1.57168,0.785036,-1.5708,-0.523599,6.45343e-08,-2.0944,1.5708,1.5708,0.785397,0.000273907,-0.000495248,-5.22721e-05,0.00115485,-7.72843e-05,0.000108207,0.000512607,0,0,0,0,0,0,0,-0.529774,-10.1654,-0.484555,20.7972,0.76845,-0.656224,0.110056,-0.513929,-1.04362,-0.0893897,2.31837,0.202084,-0.64929,0.166731
5320637,0.98,-1.57035,-0.522825,0.000105558,-2.09585,1.57076,1.57168,0.785033,-1.5708,-0.523599,6.45343e-08,-2.0944,1.5708,1.5708,0.785397,-0.000374207,0.000783459,-0.000684627,-0.000343727,-5.15229e-05,7.21379e-05,-0.000607697,0,0,0,0,0,0,0,-0.50597,-10.213,-0.456784,20.8448,0.76845,-0.656224,0.135691,-0.51382,-1.04365,-0.0891511,2.31757,0.202021,-0.649343,0.166835
5320638,0.98,-1.57035,-0.522828,0.000107507,-2.09585,1.57076,1.57168,0.785039,-1.5708,-0.523599,6.45343e-08,-2.0944,1.5708,1.5708,0.785397,-0.000249471,-0.000591318,0.000193072,-0.000229151,-0.000237799,-0.000189267,0.00149374,0,0,0,0,0,0,0,-0.50597,-10.1654,-0.484555,20.8448,0.773943,-0.649816,0.0844213,-0.513087,-1.04424,-0.0879489,2.31732,0.201969,-0.649505,0.166922
5320639,0.98,-1.57035,-0.522832,0.000107507,-2.09585,1.57076,1.57168,0.785031,-1.5708,-0.523599,6.45343e-08,-2.0944,1.5708,1.5708,0.785397,-0.000815928,-0.00160064,0.000128622,-0.000152768,0.000248368,0.000111181,-0.00164903,0,0,0,0,0,0,0,-0.478199,-10.1139,-0.484555,20.8448,0.762956,-0.656224,0.155832,-0.512165,-1.04356,-0.0865387,2.3169,0.201928,-0.64968,0.166987
5320640,0.98,-1.57035,-0.522827,0.000107507,-2.09585,1.57076,1.57168,0.785036,-1.5708,-0.523599,6.45343e-08,-2.0944,1.5708,1.5708,0.785397,-0.00110076,0.00125296,8.56782e-05,0.000454967,0.000369029,-0.000163238,0.000596068,0,0,0,0,0,0,0,-0.454395,-10.213,-0.484555,20.821,0.757463,-0.649816,0.110056,-0.511088,-1.04145,-0.0850562,2.3159,0.201883,-0.649857,0.167029
5320641,0.98,-1.57035,-0.522827,0.000107507,-2.09585,1.57077,1.57168,0.785033,-1.5708,-0.523599,6.45343e-08,-2.0944,1.5708,1.5708,0.785397,0.000472583,0.000835305,5.70665e-05,0.000303311,0.00024602,-0.000346184,-0.000552057,0,0,0,0,0,0,0,-0.50597,-10.213,-0.484555,20.821,0.757463,-0.643407,0.135691,-0.509983,-1.04168,-0.0836502,2.31573,0.201868,-0.65006,0.167063
5320642,0.98,-1.57035,-0.522829,0.000107507,-2.09585,1.57076,1.57168,0.785032,-1.5708,-0.523599,6.45343e-08,-2.0944,1.5708,1.5708,0.785397,-0.000334558,5.82087e-08,3.80052e-05,-0.000354604,-0.000242888,0.000243928,-0.000639306,0,0,0,0,0,0,0,-0.478199,-10.1892,-0.484555,20.8448,0.76845,-0.656224,0.143015,-0.50931,-1.04427,-0.0829185,2.31653,0.201887,-0.650212,0.167103
5320643,0.98,-1.57034,-0.522829,0.000105558,-2.09585,1.57076,1.57168,0.785039,-1.5708,-0.523599,6.45343e-08,-2.0944,1.5708,1.5708,0.785397,0.000983386,3.88058e-08,-0.000624307,-0.000236403,0.000244976,0.000162619,0.00174394,0,0,0,0,0,0,0,-0.529774,-10.1892,-0.456784,20.8448,0.757463,-0.656224,0.0844213,-0.508952,-1.04683,-0.082622,2.3175,0.201909,-0.650298,0.16716
5320644,0.98,-1.57035,-0.522829,0.000107507,-2.09585,1.57076,1.57168,0.785035,-1.5708,-0.523599,6.45343e-08,-2.0944,1.5708,1.5708,0.785397,-0.00110765,-0.000556786,0.000233388,-0.000157602,-4.01334e-05,0.000108413,-0.00026153,0,0,0,0,0,0,0,-0.454395,-10.1654,-0.484555,20.8448,0.762956,-0.656224,0.122873,-0.508572,-1.04824,-0.0822663,2.3181,0.201902,-0.650363,0.16723
5320645,0.98,-1.57035,-0.52283,0.000105558,-2.09585,1.57076,1.57168,0.785037,-1.5708,-0.523599,6.45343e-08,-2.0944,1.5708,1.5708,0.785397,0.000467994,-0.0010208,-0.000494039,-0.000105068,-2.67556e-05,-0.000402443,0.000537723,0,0,0,0,0,0,0,-0.50597,-10.1377,-0.456784,20.8448,0.762956,-0.643407,0.103647,-0.508021,-1.04753,-0.0817158,2.31778,0.201848,-0.650422,0.167285
5320646,0.98,-1.57035,-0.522828,0.000107507,-2.09585,1.57076,1.57168,0.785035,-1.5708,-0.523599,6.45343e-08,-2.0944,1.5708,1.5708,0.785397,0.000311996,-3.09225e-05,0.000320242,-7.00453e-05,-1.78371e-05,0.000206423,-0.000353595,0,0,0,0,0,0,0,-0.50597,-10.1654,-0.484555,20.8448,0.762956,-0.656224,0.122873,-0.507668,-1.0452,-0.0814666,2.3167,0.201764,-0.650425,0.167308
5320647,0.98,-1.57035,-0.522827,0.000105558,-2.09585,1.57076,1.57168,0.785033,-1.5708,-0.523599,6.45343e-08,-2.0944,1.5708,1.5708,0.785397,0.000207998,0.00109301,-0.000436128,0.000510115,-0.000418792,0.000137615,-0.000710448,0,0,0,0,0,0,0,-0.50597,-10.213,-0.456784,20.821,0.773943,-0.656224,0.135691,-0.507694,-1.04397,-0.0817344,2.31596,0.201697,-0.650384,0.167299
5320648,0.98,-1.57034,-0.522827,0.000107507,-2.09585,1.57076,1.57168,0.785037,-1.5708,-0.523599,6.45343e-08,-2.0944,1.5708,1.5708,0.785397,0.000695477,0.000171861,0.000358855,-0.000866349,-7.57444e-05,9.17434e-05,0.000950522,0,0,0,0,0,0,0,-0.529774,-10.1892,-0.484555,20.8725,0.76845,-0.656224,0.0972387,-0.507953,-1.04534,-0.0822991,2.31632,0.201676,-0.650348,0.167273
5320649,0.98,-1.57035,-0.522828,0.000109178,-2.09585,1.57076,1.57168,0.785032,-1.5708,-0.523599,6.45343e-08,-2.0944,1.5708,1.5708,0.785397,-0.000742774,-0.000442238,0.000796043,7.20478e-05,-0.000253947,6.11623e-05,-0.00106174,0,0,0,0,0,0,0,-0.478199,-10.1654,-0.508359,20.8448,0.773943,-0.656224,0.143015,-0.50857,-1.04743,-0.0834313,2.31721,0.201701,-0.650277,0.167242
5320650,0.98,-1.57035,-0.522828,0.000107507,-2.09585,1.57077,1.57168,0.785037,-1.5708,-0.523599,6.45343e-08,-2.0944,1.5708,1.5708,0.785397,0.000154431,-0.000294825,-2.61204e-05,4.80319e-05,0.000678413,-0.000433943,0.000750236,0,0,0,0,0,0,0,-0.50597,-10.1654,-0.484555,20.8448,0.751055,-0.643407,0.103647,-0.509274,-1.048,-0.0848004,2.31744,0.201729,-0.650179,0.167209
5320651,0.98,-1.57034,-0.522826,0.000103888,-2.09585,1.57076,1.57168,0.785033,-1.5708,-0.523599,6.45343e-08,-2.0944,1.5708,1.5708,0.785397,0.00130938,0.000360262,-0.00122384,-0.000617593,1.14656e-05,-5.19364e-05,-0.000686638,0,0,0,0,0,0,0,-0.557545,-10.1892,-0.432981,20.8725,0.762956,-0.649816,0.135691,-0.509629,-1.04785,-0.0855212,2.31731,0.201731,-0.650126,0.167176
5320652,0.98,-1.57034,-0.52283,0.000107507,-2.09585,1.57076,1.57168,0.78503,-1.5708,-0.523599,6.45343e-08,-2.0944,1.5708,1.5708,0.785397,0.000223306,-0.000316638,0.000390529,0.000237885,7.64375e-06,-0.000271983,-0.0014411,0,0,0,0,0,0,0,-0.529774,-10.1654,-0.484555,20.8448,0.762956,-0.643407,0.162241,-0.509797,-1.0481,-0.0856647,2.31742,0.201717,-0.650104,0.167148
5320653,0.98,-1.57035,-0.522825,0.000103888,-2.09585,1.57077,1.57168,0.785036,-1.5708,-0.523599,6.45343e-08,-2.0944,1.5708,1.5708,0.785397,-0.000407941,0.00155215,-0.000946075,-0.000491024,0.000208546,5.60368e-05,0.000972045,0,0,0,0,0,0,0,-0.50597,-10.2408,-0.432981,20.8725,0.757463,-0.649816,0.110056,-0.509705,-1.04939,-0.0852812,2.31799,0.201696,-0.650132,0.167147
5320654,0.98,-1.57035,-0.522827,0.000107507,-2.09585,1.57076,1.57168,0.785032,-1.5708,-0.523599,6.45343e-08,-2.0944,1.5708,1.5708,0.785397,-0.000271961,-0.000171662,0.000575708,-0.000327349,-0.000471321,0.000274717,-0.000810032,0,0,0,0,0,0,0,-0.50597,-10.1892,-0.484555,20.8725,0.773943,-0.656224,0.149424,-0.509109,-1.05242,-0.0841493,2.3194,0.201681,-0.650256,0.167195
5320655,0.98,-1.57035,-0.522827,0.000105558,-2.09585,1.57076,1.57168,0.78504,-1.5708,-0.523599,6.45343e-08,-2.0944,1.5708,1.5708,0.785397,-0.000181307,0.000442371,-0.00026581,-0.000218233,-0.000110763,-5.42144e-05,0.00210484,0,0,0,0,0,0,0,-0.50597,-10.213,-0.456784,20.8725,0.76845,-0.649816,0.0780126,-0.508464,-1.05555,-0.0829794,2.32098,0.20167,-0.650387,0.167288
5320656,0.98,-1.57034,-0.522831,0.000105558,-2.09585,1.57076,1.57168,0.785032,-1.5708,-0.523599,6.45343e-08,-2.0944,1.5708,1.5708,0.785397,0.00043594,-0.00081871,-0.000177207,0.00106094,-7.38422e-05,-3.61429e-05,-0.00124163,0,0,0,0,0,0,0,-0.529774,-10.1654,-0.456784,20.821,0.76845,-0.649816,0.149424,-0.508055,-1.05656,-0.0820962,2.32136,0.201626,-0.650459,0.167403
5320657,0.98,-1.57035,-0.522826,0.000107507,-2.09585,1.57076,1.57168,0.785033,-1.5708,-0.523599,6.45343e-08,-2.0944,1.5708,1.5708,0.785397,-0.000266185,0.000567817,0.000531475,0.00015048,0.000357673,0.000213264,-0.000319129,0,0,0,0,0,0,0,-0.50597,-10.213,-0.484555,20.8448,0.757463,-0.656224,0.135691,-0.507969,-1.05528,-0.0815897,2.32026,0.201546,-0.650459,0.167515
5320658,0.98,-1.57035,-0.522829,0.000105558,-2.09586,1.57076,1.57168,0.785036,-1.5708,-0.523599,6.45343e-08,-2.0944,1.5708,1.5708,0.785397,-0.00138388,-0.000178267,-0.000295297,-0.00166292,-0.000371903,0.000379535,0.000736683,0,0,0,0,0,0,0,-0.454395,-10.1892,-0.456784,20.9201,0.773943,-0.662633,0.110056,-0.50781,-1.05429,-0.0810524,2.31949,0.201491,-0.650473,0.167624
5320659,0.98,-1.57034,-0.522825,0.000105558,-2.09586,1.57076,1.57168,0.785032,-1.5708,-0.523599,6.45343e-08,-2.0944,1.5708,1.5708,0.785397,0.000840649,0.000437967,-0.000196865,-0.0005518,-4.44848e-05,-0.000459054,-0.00096694,0,0,0,0,0,0,0,-0.529774,-10.213,-0.456784,20.8963,0.76845,-0.643407,0.149424,-0.507208,-1.05518,-0.0799485,2.32033,0.201491,-0.650574,0.167737
5320660,0.98,-1.57035,-0.52283,0.000105558,-2.09585,1.57076,1.57168,0.785037,-1.5708,-0.523599,6.45343e-08,-2.0944,1.5708,1.5708,0.785397,-0.000645992,-0.00147126,-0.000131244,0.00139537,-2.96565e-05,-0.000306036,0.00128815,0,0,0,0,0,0,0,-0.478199,-10.1377,-0.456784,20.821,0.76845,-0.643407,0.0972387,-0.506689,-1.05506,-0.0789012,2.32073,0.201479,-0.650648,0.167859
5320661,0.98,-1.57035,-0.522827,0.000105558,-2.09585,1.57076,1.57168,0.785035,-1.5708,-0.523599,6.45343e-08,-2.0944,1.5708,1.5708,0.785397,0.000218952,0.000782398,-8.7496e-05,0.000930247,0.00018368,-0.000204024,-9.06669e-05,0,0,0,0,0,0,0,-0.50597,-10.213,-0.456784,20.821,0.762956,-0.643407,0.122873,-0.506366,-1.05203,-0.0780818,2.319,0.201396,-0.650654,0.167991
5320663,0.96,-1.57035,-0.522831,0.000107507,-2.09586,1.57076,1.57168,0.785039,-1.5708,-0.523599,6.45343e-08,-2.0944,1.5708,1.5708,0.785397,-0.000737905,-0.000394683,0.000796331,-0.00150446,0.000217269,-1.15576e-05,0.000683083,0,0,0,0,0,0,0,-0.478199,-10.1654,-0.484555,20.9201,0.762956,-0.649816,0.116465,-0.506256,-1.04693,-0.0770815,2.3159,0.201284,-0.650555,0.168217
5320664,0.95,-1.57035,-0.522826,0.000107507,-2.09585,1.57076,1.57168,0.785034,-1.5708,-0.523599,6.45343e-08,-2.0944,1.5708,1.5708,0.785397,-0.000491937,0.000850502,0.000530887,0.000760261,-5.86045e-05,-0.000245064,-0.000256688,0,0,0,0,0,0,0,-0.478199,-10.213,-0.484555,20.8448,0.76845,-0.643407,0.135691,-0.506569,-1.04659,-0.0773178,2.31629,0.201338,-0.650454,0.16834
5320665,0.95,-1.57035,-0.522828,0.000103888,-2.09586,1.57076,1.57168,0.785037,-1.5708,-0.523599,6.45343e-08,-2.0944,1.5708,1.5708,0.785397,-0.000327958,-0.000546623,-0.000852501,-0.0012564,-3.90697e-05,0.000311342,0.00101567,0,0,0,0,0,0,0,-0.478199,-10.1654,-0.432981,20.9201,0.76845,-0.656224,0.103647,-0.506644,-1.04757,-0.0773619,2.31733,0.201413,-0.650394,0.168482
5320666,0.95,-1.57035,-0.522827,0.000105558,-2.09585,1.57076,1.57168,0.785033,-1.5708,-0.523599,6.45343e-08,-2.0944,1.5708,1.5708,0.785397,0.000430975,0.000749209,-1.15223e-05,0.00148245,-2.60464e-05,0.000207561,-0.000509682,0,0,0,0,0,0,0,-0.50597,-10.213,-0.456784,20.821,0.76845,-0.656224,0.135691,-0.506195,-1.04869,-0.0765959,2.31827,0.20146,-0.650409,0.168625
5320667,0.95,-1.57034,-0.522827,0.000107507,-2.09585,1.57076,1.57168,0.785033,-1.5708,-0.523599,6.45343e-08,-2.0944,1.5708,1.5708,0.785397,0.000844128,-5.73395e-05,0.000641932,0.000431489,0.000186086,-0.000336344,-0.000339788,0,0,0,0,0,0,0,-0.529774,-10.1892,-0.484555,20.8448,0.762956,-0.643407,0.135691,-0.506211,-1.04926,-0.0764359,2.31841,0.201488,-0.650352,0.16876
5320668,0.95,-1.57035,-0.522832,0.000105558,-2.09585,1.57076,1.57168,0.785035,-1.5708,-0.523599,6.45343e-08,-2.0944,1.5708,1.5708,0.785397,5.94029e-06,-0.00124465,-0.000221659,-0.000361954,0.000327508,1.31298e-05,0.000248193,0,0,0,0,0,0,0,-0.50597,-10.1377,-0.456784,20.8725,0.757463,-0.649816,0.122873,-0.507047,-1.04833,-0.0774511,2.31763,0.201509,-0.650158,0.168892
5320669,0.95,-1.57035,-0.522827,0.000105558,-2.09586,1.57076,1.57168,0.785037,-1.5708,-0.523599,6.45343e-08,-2.0944,1.5708,1.5708,0.785397,3.96019e-06,0.000376658,-0.000147773,-0.000798115,1.48881e-05,0.000246112,0.000877539,0,0,0,0,0,0,0,-0.50597,-10.1892,-0.456784,20.8963,0.762956,-0.656224,0.103647,-0.50771,-1.04648,-0.0782024,2.3169,0.201522,-0.649974,0.169024
5320670,0.95,-1.57035,-0.522827,0.000105558,-2.09585,1.57076,1.57168,0.785035,-1.5708,-0.523599,6.45343e-08,-2.0944,1.5708,1.5708,0.785397,2.64013e-06,0.000251105,-9.85151e-05,2.47354e-05,-0.000193525,0.000164075,-0.000127051,0,0,0,0,0,0,0,-0.50597,-10.1892,-0.456784,20.8725,0.76845,-0.656224,0.122873,-0.507822,-1.04612,-0.0781415,2.31726,0.201543,-0.649895,0.169141
5320671,0.95,-1.57035,-0.522826,0.000109178,-2.09585,1.57076,1.57168,0.78503,-1.5708,-0.523599,6.45343e-08,-2.0944,1.5708,1.5708,0.785397,1.76009e-06,0.000167403,0.00114075,0.000666104,7.44338e-05,-0.000602694,-0.00154276,0,0,0,0,0,0,0,-0.50597,-10.1892,-0.508359,20.8448,0.762956,-0.636998,0.162241,-0.50804,-1.04695,-0.0782891,2.31806,0.201573,-0.649828,0.169231
5320672,0.95,-1.57035,-0.522826,0.000109178,-2.09585,1.57077,1.57168,0.785037,-1.5708,-0.523599,6.45343e-08,-2.0944,1.5708,1.5708,0.785397,1.17339e-06,0.000111602,0.000760499,-0.000205544,0.000490432,7.29221e-05,0.00137899,0,0,0,0,0,0,0,-0.50597,-10.1892,-0.508359,20.8725,0.751055,-0.649816,0.0972387,-0.508937,-1.04764,-0.0795707,2.31853,0.201609,-0.649663,0.169311
5320673,0.95,-1.57035,-0.522827,0.000107507,-2.09585,1.57076,1.57168,0.785037,-1.5708,-0.523599,6.45343e-08,-2.0944,1.5708,1.5708,0.785397,7.8226e-07,0.000631213,-4.98124e-05,0.000512584,-0.000317305,0.000285974,0.000919326,0,0,0,0,0,0,0,-0.50597,-10.213,-0.484555,20.8448,0.76845,-0.656224,0.0972387,-0.51001,-1.04862,-0.0812114,2.31904,0.201639,-0.649475,0.169399
5320674,0.95,-1.57035,-0.522829,0.000107507,-2.09585,1.57076,1.57168,0.785035,-1.5708,-0.523599,6.45343e-08,-2.0944,1.5708,1.5708,0.785397,-0.000649092,-0.000136003,-3.32082e-05,-0.000307891,-8.08636e-06,-0.000284069,-0.000336552,0,0,0,0,0,0,0,-0.478199,-10.1892,-0.484555,20.8725,0.762956,-0.643407,0.122873,-0.51037,-1.05001,-0.081831,2.31971,0.201631,-0.649399,0.169468
5320675,0.95,-1.57034,-0.522829,0.000107507,-2.09585,1.57076,1.57168,0.785036,-1.5708,-0.523599,6.45343e-08,-2.0944,1.5708,1.5708,0.785397,0.000773697,-9.06686e-05,-2.21388e-05,0.000444353,0.00019806,-0.000189379,0.00025035,0,0,0,0,0,0,0,-0.529774,-10.1892,-0.484555,20.8448,0.757463,-0.643407,0.110056,-0.510138,-1.05084,-0.0815788,2.32013,0.201581,-0.649398,0.169489
5320676,0.95,-1.57035,-0.522826,0.000107507,-2.09585,1.57076,1.57168,0.785032,-1.5708,-0.523599,6.45343e-08,-2.0944,1.5708,1.5708,0.785397,-0.000690627,0.000496366,-1.47592e-05,-0.000353378,-7.14108e-05,0.000348465,-0.0010538,0,0,0,0,0,0,0,-0.478199,-10.213,-0.484555,20.8725,0.762956,-0.656224,0.143015,-0.509751,-1.05127,-0.0810912,2.3204,0.201509,-0.649407,0.169466
5320677,0.95,-1.57035,-0.52283,0.000107507,-2.09585,1.57076,1.57168,0.785037,-1.5708,-0.523599,6.45343e-08,-2.0944,1.5708,1.5708,0.785397,0.000189195,-0.000782713,-9.83948e-06,0.000414028,-4.76072e-05,-5.04887e-06,0.000755527,0,0,0,0,0,0,0,-0.50597,-10.1654,-0.484555,20.8448,0.762956,-0.649816,0.103647,-0.509137,-1.05148,-0.0803237,2.32057,0.201422,-0.64944,0.169419
5320678,0.95,-1.57035,-0.522833,0.000105558,-2.09586,1.57076,1.57168,0.785034,-1.5708,-0.523599,6.45343e-08,-2.0944,1.5708,1.5708,0.785397,0.00012613,-0.00117142,-0.000656174,-0.000930407,-3.17381e-05,-0.000240725,-0.000445751,0,0,0,0,0,0,0,-0.50597,-10.1377,-0.456784,20.8963,0.762956,-0.643407,0.129282,-0.508328,-1.04988,-0.079275,2.32006,0.201298,-0.649476,0.169365
5320679,0.95,-1.57034,-0.522826,0.000105558,-2.09585,1.57076,1.57168,0.785033,-1.5708,-0.523599,6.45343e-08,-2.0944,1.5708,1.5708,0.785397,0.00129051,0.0016319,-0.000437449,-6.34594e-05,-0.000224609,0.000551594,-0.000534526,0,0,0,0,0,0,0,-0.557545,-10.2408,-0.456784,20.8725,0.76845,-0.662633,0.135691,-0.507583,-1.04835,-0.0781861,2.31986,0.20118,-0.649502,0.169304
5320680,0.95,-1.57035,-0.522826,0.000105558,-2.09585,1.57076,1.57168,0.785037,-1.5708,-0.523599,6.45343e-08,-2.0944,1.5708,1.5708,0.785397,-0.000346084,0.000438322,-0.000291633,-4.23063e-05,-0.00035319,-0.000106989,0.000830444,0,0,0,0,0,0,0,-0.50597,-10.213,-0.456784,20.8725,0.773943,-0.649816,0.103647,-0.507026,-1.05004,-0.0772209,2.32115,0.201116,-0.649553,0.169245
5320681,0.95,-1.57035,-0.52283,0.000101757,-2.09585,1.57076,1.57168,0.785036,-1.5708,-0.523599,6.45343e-08,-2.0944,1.5708,1.5708,0.785397,-0.000880336,-0.00147102,-0.000751234,0.00117822,0.000171441,-0.000308685,0.00031627,0,0,0,0,0,0,0,-0.478199,-10.1377,-0.432981,20.821,0.762956,-0.643407,0.110056,-0.506102,-1.05148,-0.0756637,2.32194,0.20103,-0.649677,0.1692
5320682,0.95,-1.57034,-0.522826,0.000106797,-2.09586,1.57077,1.57168,0.785037,-1.5708,-0.523599,6.45343e-08,-2.0944,1.5708,1.5708,0.785397,0.000619535,0.000225744,0.000705603,-0.00153457,0.000555103,3.15691e-05,0.000685565,0,0,0,0,0,0,0,-0.529774,-10.1892,-0.484555,20.9201,0.751055,-0.649816,0.0972387,-0.50501,-1.05012,-0.0738758,2.32132,0.200907,-0.649796,0.169149
5320683,0.95,-1.57034,-0.522826,0.000105322,-2.09585,1.57076,1.57168,0.785034,-1.5708,-0.523599,6.45343e-08,-2.0944,1.5708,1.5708,0.785397,0.000413023,0.000150496,-0.000179212,0.000740192,-0.000274191,0.000495764,-0.000729752,0,0,0,0,0,0,0,-0.529774,-10.1892,-0.456784,20.8448,0.76845,-0.662633,0.129282,-0.504808,-1.04908,-0.0733905,2.32114,0.200843,-0.649786,0.169068
5320684,0.95,-1.57034,-0.522828,0.000109099,-2.09585,1.57076,1.57168,0.785037,-1.5708,-0.523599,6.45343e-08,-2.0944,1.5708,1.5708,0.785397,0.000275349,0.00010033,0.00108695,-0.000156153,2.06565e-05,0.000330509,0.000700294,0,0,0,0,0,0,0,-0.529774,-10.1892,-0.508359,20.8725,0.762956,-0.662633,0.0972387,-0.505577,-1.04916,-0.0743117,2.32145,0.200831,-0.649663,0.168954
5320685,0.95,-1.57035,-0.522831,0.000107481,-2.09585,1.57076,1.57168,0.785037,-1.5708,-0.523599,6.45343e-08,-2.0944,1.5708,1.5708,0.785397,-0.000373246,-0.00113954,0.000167822,0.000545512,1.3771e-05,-1.70194e-05,0.000229503,0,0,0,0,0,0,0,-0.50597,-10.1377,-0.484555,20.8448,0.762956,-0.656224,0.103647,-0.506833,-1.04831,-0.0759849,2.32115,0.200816,-0.649486,0.168817
5320686,0.95,-1.57034,-0.522828,0.000107498,-2.09586,1.57076,1.57168,0.785032,-1.5708,-0.523599,6.45343e-08,-2.0944,1.5708,1.5708,0.785397,0.000307981,-0.000110079,0.000111882,-0.000842751,9.18068e-06,-1.13463e-05,-0.00154242,0,0,0,0,0,0,0,-0.529774,-10.1654,-0.484555,20.8963,0.762956,-0.656224,0.149424,-0.50798,-1.0461,-0.0775128,2.32029,0.20078,-0.649336,0.16865
5320687,0.95,-1.57035,-0.522827,0.000107504,-2.09585,1.57076,1.57168,0.785037,-1.5708,-0.523599,6.45343e-08,-2.0944,1.5708,1.5708,0.785397,-0.000351491,0.00104024,7.45877e-05,0.00175822,-0.00019733,-0.000482282,0.000667142,0,0,0,0,0,0,0,-0.50597,-10.213,-0.484555,20.7972,0.76845,-0.643407,0.103647,-0.508726,-1.04467,-0.0784031,2.31971,0.200735,-0.649279,0.168465
5320688,0.95,-1.57035,-0.522831,0.000103887,-2.09585,1.57076,1.57168,0.785031,-1.5708,-0.523599,6.45343e-08,-2.0944,1.5708,1.5708,0.785397,-0.000883941,-0.000420132,-0.0011567,0.000615332,0.000275348,0.000153197,-0.00148802,0,0,0,0,0,0,0,-0.478199,-10.1654,-0.432981,20.821,0.757463,-0.656224,0.155832,-0.508563,-1.04432,-0.0778971,2.31906,0.200648,-0.649389,0.168292
5320689,0.95,-1.57035,-0.522831,0.000105376,-2.09586,1.57076,1.57168,0.785037,-1.5708,-0.523599,6.45343e-08,-2.0944,1.5708,1.5708,0.785397,-0.000589294,-0.000280088,0.000435292,-0.00246664,-1.98854e-05,0.000102131,0.000940767,0,0,0,0,0,0,0,-0.478199,-10.1654,-0.484555,20.9439,0.762956,-0.656224,0.103647,-0.507303,-1.04431,-0.075805,2.31876,0.200541,-0.649662,0.168144
5320690,0.95,-1.57035,-0.522829,0.000108467,-2.09586,1.57076,1.57168,0.785037,-1.5708,-0.523599,6.45343e-08,-2.0944,1.5708,1.5708,0.785397,0.000256751,0.000370087,0.000847007,-0.000530803,0.000190194,-0.000169272,0.000627178,0,0,0,0,0,0,0,-0.50597,-10.1892,-0.508359,20.8963,0.757463,-0.649816,0.103647,-0.506355,-1.04591,-0.0743579,2.32033,0.200525,-0.64989,0.168027
5320691,0.95,-1.57035,-0.522826,0.00010727,-2.09585,1.57076,1.57168,0.785033,-1.5708,-0.523599,6.45343e-08,-2.0944,1.5708,1.5708,0.785397,0.000171167,0.000803536,7.85915e-06,0.000852557,-7.66548e-05,0.000124511,-0.000768676,0,0,0,0,0,0,0,-0.50597,-10.213,-0.484555,20.8448,0.762956,-0.656224,0.135691,-0.506492,-1.04899,-0.07465,2.32281,0.200575,-0.649966,0.167932
5320692,0.95,-1.57035,-0.522829,0.000107428,-2.09585,1.57076,1.57168,0.785039,-1.5708,-0.523599,6.45343e-08,-2.0944,1.5708,1.5708,0.785397,-0.000535502,-2.1121e-05,5.23943e-06,0.000568371,-5.11032e-05,0.000320366,0.00138642,0,0,0,0,0,0,0,-0.478199,-10.1892,-0.484555,20.8448,0.762956,-0.662633,0.0844213,-0.506824,-1.05168,-0.0752587,2.32438,0.200583,-0.650014,0.167843
5320693,0.95,-1.57035,-0.522828,0.000107481,-2.09585,1.57076,1.57168,0.785032,-1.5708,-0.523599,6.45343e-08,-2.0944,1.5708,1.5708,0.785397,-0.000913813,0.000542731,3.49296e-06,-0.0002707,-0.000237519,-0.00026114,-0.00124586,0,0,0,0,0,0,0,-0.454395,-10.213,-0.484555,20.8725,0.76845,-0.649816,0.143015,-0.506559,-1.0535,-0.0750967,2.32512,0.200535,-0.650143,0.167753
5320694,0.95,-1.57034,-0.522826,0.00010555,-2.09585,1.57076,1.57168,0.785035,-1.5708,-0.523599,6.45343e-08,-2.0944,1.5708,1.5708,0.785397,0.00115403,0.000361821,-0.000647285,0.000469148,-0.000158346,6.32654e-05,-8.45869e-05,0,0,0,0,0,0,0,-0.529774,-10.213,-0.456784,20.8448,0.76845,-0.656224,0.122873,-0.505911,-1.05527,-0.0744378,2.3258,0.200473,-0.650322,0.167652
5320695,0.95,-1.57035,-0.522832,0.000105555,-2.09585,1.57076,1.57168,0.785032,-1.5708,-0.523599,6.45343e-08,-2.0944,1.5708,1.5708,0.785397,0.00021254,-0.00152202,-0.000431524,0.000312765,-0.000105564,0.000279536,-0.000802377,0,0,0,0,0,0,0,-0.50597,-10.1377,-0.456784,20.8448,0.76845,-0.662633,0.143015,-0.505391,-1.05539,-0.0738434,2.32562,0.200389,-0.650458,0.167559
5320696,0.95,-1.57035,-0.522829,0.000105557,-2.09585,1.57076,1.57168,0.785036,-1.5708,-0.523599,6.45343e-08,-2.0944,1.5708,1.5708,0.785397,-0.00050792,-0.000365069,-0.000287682,0.000765322,0.000133074,-0.000288361,0.000685785,0,0,0,0,0,0,0,-0.478199,-10.1654,-0.456784,20.821,0.762956,-0.649816,0.110056,-0.504845,-1.05205,-0.0731273,2.32368,0.200254,-0.650557,0.167498
5320697,0.95,-1.57034,-0.522829,0.000105558,-2.09585,1.57076,1.57168,0.785035,-1.5708,-0.523599,6.45343e-08,-2.0944,1.5708,1.5708,0.785397,0.000867812,0.000313433,-0.000191788,-4.65973e-05,8.87163e-05,4.51185e-05,0.000219831,0,0,0,0,0,0,0,-0.529774,-10.1892,-0.456784,20.8448,0.762956,-0.656224,0.116465,-0.504273,-1.04793,-0.0723762,2.32128,0.200118,-0.650652,0.167472
5320698,0.95,-1.57035,-0.522827,0.000109177,-2.09585,1.57076,1.57168,0.785034,-1.5708,-0.523599,6.45343e-08,-2.0944,1.5708,1.5708,0.785397,-0.000627884,0.000208955,0.00107857,-3.10649e-05,5.91442e-05,-0.00020728,-0.000328164,0,0,0,0,0,0,0,-0.478199,-10.1892,-0.508359,20.8448,0.762956,-0.649816,0.129282,-0.504282,-1.04596,-0.0725379,2.32002,0.200057,-0.650686,0.167464
5320699,0.95,-1.57035,-0.522827,0.000107507,-2.09585,1.57076,1.57168,0.785037,-1.5708,-0.523599,6.45343e-08,-2.0944,1.5708,1.5708,0.785397,0.000231024,0.000139303,0.000162233,-0.000670324,-0.000164021,-0.000375546,0.000968019,0,0,0,0,0,0,0,-0.50597,-10.1892,-0.484555,20.8725,0.76845,-0.643407,0.0972387,-0.504933,-1.04613,-0.0738076,2.32009,0.200082,-0.650642,0.16746
5320700,0.95,-1.57035,-0.522826,0.000107507,-2.09586,1.57076,1.57168,0.785032,-1.5708,-0.523599,6.45343e-08,-2.0944,1.5708,1.5708,0.785397,-0.000495597,9.2869e-05,0.000108155,-0.00100369,9.41031e-05,0.000224354,-0.00128743,0,0,0,0,0,0,0,-0.478199,-10.1892,-0.484555,20.8963,0.762956,-0.656224,0.149424,-0.505587,-1.04781,-0.0751988,2.32133,0.200161,-0.650597,0.167452
5320701,0.95,-1.57034,-0.522828,0.000109178,-2.09585,1.57076,1.57168,0.785035,-1.5708,-0.523599,6.45343e-08,-2.0944,1.5708,1.5708,0.785397,0.000876027,-0.000494899,0.000628915,-0.000112318,6.27354e-05,0.000149569,0.000362414,0,0,0,0,0,0,0,-0.529774,-10.1654,-0.508359,20.8725,0.762956,-0.656224,0.116465,-0.506179,-1.04977,-0.0765306,2.32302,0.200261,-0.650548,0.167437
5320702,0.95,-1.57034,-0.522827,0.000107507,-2.09585,1.57076,1.57168,0.785035,-1.5708,-0.523599,6.45343e-08,-2.0944,1.5708,1.5708,0.785397,0.000584018,0.000783691,-0.000137535,-7.48785e-05,4.18236e-05,-0.000137646,0.000241609,0,0,0,0,0,0,0,-0.529774,-10.213,-0.484555,20.8725,0.762956,-0.649816,0.116465,-0.507132,-1.05125,-0.0783349,2.32439,0.200357,-0.650435,0.167435
5320703,0.95,-1.57035,-0.522827,0.000105558,-2.09585,1.57076,1.57168,0.785033,-1.5708,-0.523599,6.45343e-08,-2.0944,1.5708,1.5708,0.785397,-0.000167467,-3.43513e-05,-0.000741304,-4.9919e-05,0.000468692,0.000145595,-0.000551004,0,0,0,0,0,0,0,-0.50597,-10.1892,-0.456784,20.8725,0.751055,-0.656224,0.135691,-0.507785,-1.05294,-0.0795416,2.32555,0.200417,-0.650374,0.167444
5320704,0.95,-1.57034,-0.522828,0.000107507,-2.09585,1.57076,1.57168,0.785041,-1.57079,-0.523597,2.17643e-06,-2.09439,1.5708,1.5708,0.785397,0.000445168,-0.000579713,0.000155411,-3.32793e-05,-0.000331799,9.70633e-05,0.00105682,0.00362557,0.001875,0.00211189,0.0026176,0.00132141,0.005,0.000469724,-0.529774,-10.1654,-0.484555,20.8725,0.76845,-0.656224,0.0972387,-0.507677,-1.05389,-0.079492,2.32618,0.200414,-0.650424,0.16746
5320705,0.95,-1.57035,-0.522828,0.000105558,-2.09585,1.57076,1.57168,0.785033,-1.57079,-0.523593,6.40022e-06,-2.09439,1.5708,1.57081,0.785398,-0.000260034,0.000170337,-0.000546006,0.00118424,-0.00042465,6.47089e-05,-0.000990876,0.00725114,0.00375,0.00422379,0.00523521,0.00264281,0.01,0.000939449,-0.50597,-10.1892,-0.456784,20.821,0.773943,-0.656224,0.143015,-0.507272,-1.05301,-0.0789209,2.32567,0.200344,-0.65051,0.167481
5320706,0.95,-1.57034,-0.522825,0.000105558,-2.09585,1.57076,1.57168,0.785036,-1.57077,-0.523587,1.27359e-05,-2.09438,1.57081,1.57083,0.7854,0.000383456,0.00067037,-0.000364004,0.000232681,-0.0002831,-0.000431579,0.00032276,0.0108767,0.005625,0.00633568,0.00785281,0.00396422,0.015,0.00140917,-0.529774,-10.213,-0.456784,20.8448,0.773943,-0.643407,0.116465,-0.506644,-1.05182,-0.0779128,2.32456,0.200239,-0.650642,0.167502
5320707,0.95,-1.57034,-0.52283,0.000103961,-2.09585,1.57076,1.57168,0.785037,-1.57076,-0.52358,2.11835e-05,-2.09437,1.57081,1.57085,0.785402,0.00210105,-0.00187314,0.0019749,0.00204195,0.000218168,0.000186999,-0.000259544,0.0145023,0.0075,0.00844758,0.0104704,0.00528562,0.02,0.0018789,-0.478199,-10.1139,-0.282224,20.8963,0.762956,-0.656224,0.129282,-0.507065,-1.04947,-0.078324,2.32249,0.200147,-0.650615,0.167532
5320708,0.95,-1.57035,-0.522834,0.000104221,-2.09585,1.57076,1.57168,0.785038,-1.57074,-0.523571,3.1743e-05,-2.09436,1.57082,1.57087,0.785404,0.00219959,-0.00286623,0.00242513,-0.00125779,0.000348896,-0.000350052,-0.000410389,0.0181279,0.009375,0.0105595,0.013088,0.00660703,0.025,0.00234862,-0.101307,-9.91153,0.0986355,21.0193,0.757463,-0.643407,0.135691,-0.51052,-1.04233,-0.0830983,2.3183,0.200111,-0.650075,0.16758
5320709,0.95,-1.57035,-0.522833,0.000118266,-2.09585,1.57076,1.57168,0.785035,-1.57072,-0.523559,4.44143e-05,-2.09434,1.57083,1.5709,0.785407,-0.0017913,-2.56452e-05,0.00397489,-0.000170795,0.000232597,-0.000470727,-3.62334e-05,0.0217534,0.01125,0.0126714,0.0157056,0.00792843,0.03,0.00281835,0.350963,-9.7092,0.451724,21.1423,0.757463,-0.636998,0.129282,-0.516103,-1.03283,-0.091222,2.31405,0.200186,-0.649139,0.167644
5320710,0.95,-1.57035,-0.522829,0.000133278,-2.09585,1.57077,1.57168,0.785029,-1.57069,-0.523546,5.91976e-05,-2.09432,1.57083,1.57094,0.78541,-0.00369507,-0.000324645,0.0031074,-0.00210245,0.000155065,-7.6459e-05,-0.00171958,0.025379,0.013125,0.0147833,0.0183232,0.00924984,0.035,0.00328807,0.77943,-9.53067,0.907962,21.2455,0.757463,-0.643407,0.175059,-0.520224,-1.02692,-0.0981,2.31299,0.200382,-0.648302,0.167724
5320711,0.95,-1.57035,-0.522819,0.000149078,-2.09584,1.57077,1.57168,0.785033,-1.57067,-0.523531,7.60928e-05,-2.0943,1.57084,1.57098,0.785414,-0.0017198,0.00197144,0.00525291,0.000505763,0.00135799,-0.000525691,0.000311678,0.0290046,0.015,0.0168952,0.0209408,0.0105712,0.04,0.00375779,1.21186,-9.45529,1.39197,21.3169,0.723589,-0.63059,0.135691,-0.520961,-1.02636,-0.10136,2.31592,0.200662,-0.647724,0.167838
5320712,0.95,-1.57035,-0.522812,0.000178596,-2.09583,1.57077,1.57168,0.78503,-1.57063,-0.523514,9.50998e-05,-2.09428,1.57086,1.57102,0.785418,0.000212615,0.00615258,0.0144083,0.00475016,0.000294974,-0.00035046,-0.00101292,0.0326301,0.016875,0.0190071,0.0235584,0.0118926,0.045,0.00422752,1.64033,-9.35611,1.69348,21.2931,0.740068,-0.63059,0.16865,-0.52201,-1.03173,-0.106968,2.32188,0.201114,-0.646725,0.168032
5320713,0.95,-1.57035,-0.5228,0.000199049,-2.09583,1.57077,1.57169,0.785032,-1.5706,-0.523496,0.000116219,-2.09425,1.57087,1.57107,0.785423,-0.0013669,0.0040693,0.0159621,0.00455051,0.00857881,0.000953154,0.000274157,0.0362557,0.01875,0.0211189,0.026176,0.0132141,0.05,0.00469724,2.0688,-9.30453,2.09815,21.3922,0.76845,-0.662633,0.143015,-0.527303,-1.04151,-0.121675,2.32907,0.201804,-0.644549,0.168329
5320714,0.95,-1.57034,-0.522791,0.000229472,-2.09583,1.57076,1.5717,0.785038,-1.57055,-0.523473,0.000141246,-2.09422,1.57089,1.57113,0.785428,-0.000778853,0.00444378,0.0207084,0.00271978,0.00565761,0.0064145,0.00211555,0.0429127,0.0225,0.0250268,0.0308254,0.0153369,0.06,0.0053676,2.42189,-9.20535,2.35205,21.5668,0.791338,-0.688268,0.09083,-0.535197,-1.05104,-0.143851,2.33657,0.202681,-0.641257,0.168716
5320715,0.95,-1.57033,-0.522781,0.000259051,-2.09581,1.57077,1.5717,0.785039,-1.5705,-0.523447,0.00017018,-2.09418,1.5709,1.5712,0.785434,0.000298997,0.00525358,0.0253342,0.00496595,0.00459868,0.00372936,0.000698291,0.0495696,0.02625,0.0289346,0.0354747,0.0174597,0.07,0.00603795,2.7472,-9.12601,2.55438,21.6144,0.784929,-0.662633,0.110056,-0.543833,-1.05836,-0.171299,2.34507,0.203814,-0.637039,0.169152
5320716,0.95,-1.57031,-0.522776,0.000279903,-2.0958,1.57077,1.57171,0.785045,-1.57045,-0.523417,0.000203022,-2.09414,1.57092,1.57128,0.785441,0.00931702,0.00408234,0.0229064,0.00684444,0.00327062,0.00733123,0.00212704,0.0562265,0.03,0.0328424,0.040124,0.0195825,0.08,0.00670831,2.85035,-8.97525,2.85987,21.6422,0.791338,-0.656224,0.0651953,-0.5531,-1.06125,-0.203423,2.35348,0.205222,-0.631847,0.169579
5320717,0.95,-1.57028,-0.522766,0.00030711,-2.09579,1.57076,1.57172,0.785039,-1.57039,-0.523383,0.000239773,-2.0941,1.57094,1.57137,0.785448,0.0138484,0.00593384,0.0269199,0.00574912,0.00210515,0.00866894,-0.000955563,0.0628834,0.03375,0.0367502,0.0447734,0.0217053,0.09,0.00737866,3.02491,-8.80069,3.18915,21.7652,0.802324,-0.611364,0.129282,-0.562831,-1.05813,-0.238673,2.36093,0.206849,-0.625678,0.16994
5320718,0.95,-1.57026,-0.522754,0.000340686,-2.09577,1.57077,1.57173,0.785036,-1.57032,-0.523346,0.000280431,-2.09405,1.57097,1.57147,0.785456,0.0149358,0.0106919,0.0308661,0.0123716,0.00185561,0.00740428,-0.00162039,0.0695404,0.0375,0.040658,0.0494227,0.0238282,0.1,0.00804902,3.42958,-8.49521,3.61762,21.8644,0.796831,-0.5015,0.155832,-0.573178,-1.05335,-0.276845,2.36907,0.208762,-0.618541,0.170208
5320719,0.95,-1.57024,-0.522735,0.000386948,-2.09576,1.57077,1.57173,0.78504,-1.57024,-0.523304,0.000324996,-2.094,1.57099,1.57158,0.785465,0.016863,0.0152841,0.0337896,0.0131992,0.00162707,0.0106154,0.000377805,0.0761973,0.04125,0.0445658,0.054072,0.025951,0.11,0.00871937,3.93342,-8.2175,4.05005,21.9873,0.791338,-0.373326,0.116465,-0.582934,-1.05367,-0.31647,2.37967,0.210992,-0.610609,0.17042
5320720,0.95,-1.5702,-0.522704,0.000421662,-2.09573,1.57077,1.57174,0.785038,-1.57016,-0.523259,0.00037347,-2.09394,1.57102,1.5717,0.785474,0.0208988,0.0206285,0.0341122,0.0169677,0.00186889,0.00927863,-0.00144355,0.0828542,0.045,0.0484736,0.0587214,0.0280738,0.12,0.00938972,4.33809,-8.01517,4.70862,21.9873,0.773943,-0.263463,0.162241,-0.58948,-1.065,-0.353626,2.39513,0.213511,-0.602126,0.170626
5320721,0.95,-1.57015,-0.522673,0.000468215,-2.0957,1.57078,1.57177,0.785043,-1.57007,-0.523211,0.000425852,-2.09387,1.57105,1.57183,0.785484,0.0288838,0.0235609,0.0392051,0.0195044,0.00280892,0.0144768,0.00144513,0.0895112,0.04875,0.0523814,0.0633707,0.0301966,0.13,0.0100601,4.66737,-7.76126,5.18866,22.1143,0.734575,-0.192968,0.0972387,-0.592401,-1.08882,-0.387223,2.41655,0.216291,-0.59286,0.170847
5320722,0.95,-1.5701,-0.522634,0.000519827,-2.09567,1.57079,1.5718,0.785045,-1.56997,-0.523158,0.000482141,-2.09381,1.57108,1.57197,0.785495,0.0343739,0.0269276,0.0415764,0.022914,0.00801654,0.0234412,0.000726061,0.0961681,0.0525,0.0562892,0.06802,0.0323194,0.14,0.0107304,5.02046,-7.55893,5.59333,22.1897,0.700701,-0.127965,0.103647,-0.593527,-1.1212,-0.419466,2.44234,0.219278,-0.582238,0.17109
5320723,0.95,-1.57003,-0.522593,0.000569693,-2.09564,1.57079,1.57185,0.785037,-1.56987,-0.523102,0.000542338,-2.09373,1.57112,1.57212,0.785507,0.0457,0.033827,0.0427247,0.0240734,0.00539736,0.0321567,-0.00263553,0.102825,0.05625,0.0601971,0.0726694,0.0344423,0.15,0.0114008,5.19502,-7.40817,6.02179,22.3365,0.711687,-0.121556,0.187876,-0.593468,-1.16124,-0.4506,2.47275,0.222417,-0.570031,0.171317
5320724,0.95,-1.56996,-0.522552,0.000617124,-2.09561,1.5708,1.57191,0.785046,-1.56976,-0.52304,0.000608075,-2.09365,1.57116,1.57229,0.785519,0.055785,0.0343328,0.0432658,0.027135,0.00716366,0.0444513,-0.000807587,0.112121,0.061875,0.0657371,0.0789214,0.0370416,0.164713,0.0120549,5.42115,-7.20584,6.45423,22.511,0.751055,-0.147191,0.162241,-0.592108,-1.20912,-0.479376,2.50872,0.225662,-0.55624,0.171521
5320725,0.95,-1.56988,-0.522512,0.000672103,-2.09557,1.5708,1.57197,0.785036,-1.56963,-0.522972,0.000679352,-2.09357,1.5712,1.57247,0.785531,0.0643036,0.0347697,0.0448505,0.031158,0.00352548,0.0531937,-0.0046074,0.121417,0.0675,0.0712771,0.0851734,0.039641,0.179425,0.012709,5.59968,-7.00351,6.70813,22.634,0.802324,-0.166417,0.272104,-0.589076,-1.25574,-0.504334,2.54647,0.228856,-0.540909,0.171774
5320726,0.96,-1.56979,-0.522466,0.000727553,-2.09551,1.5708,1.57206,0.785034,-1.5695,-0.522899,0.000756169,-2.09348,1.57124,1.57266,0.785545,0.0730565,0.0394899,0.0456837,0.0372704,0.00117524,0.0652951,-0.00402104,0.130713,0.073125,0.0768171,0.0914254,0.0422403,0.194138,0.0133631,5.67506,-6.85275,6.96204,22.6102,0.847185,-0.218602,0.297739,-0.583275,-1.29197,-0.523482,2.58122,0.231873,-0.524293,0.172185
5320727,0.97,-1.56969,-0.522419,0.000782591,-2.09546,1.5708,1.57216,0.785032,-1.56936,-0.522821,0.000838526,-2.09338,1.57128,1.57287,0.785559,0.0823854,0.0400971,0.0467987,0.0393066,9.71562e-05,0.0775924,-0.00461347,0.140009,0.07875,0.0823571,0.0976775,0.0448397,0.208851,0.0140172,5.75044,-6.57504,7.31513,22.6856,0.875566,-0.244237,0.349924,-0.573735,-1.31637,-0.53521,2.6119,0.234768,-0.506811,0.172892
5320728,0.97,-1.56959,-0.522369,0.000848516,-2.0954,1.57081,1.57227,0.785031,-1.56921,-0.522736,0.000926423,-2.09328,1.57133,1.57309,0.785573,0.0890443,0.0451212,0.053443,0.0463783,0.00523143,0.0886039,-0.00378772,0.149305,0.084375,0.0878971,0.103929,0.047439,0.223564,0.0146713,5.95277,-6.22195,7.69599,22.6856,0.870073,-0.179235,0.36915,-0.56112,-1.32924,-0.540607,2.63863,0.237688,-0.488696,0.174031
5320729,0.97,-1.56948,-0.522305,0.00092752,-2.09534,1.57082,1.57239,0.785033,-1.56906,-0.522646,0.00101986,-2.09317,1.57138,1.57333,0.785589,0.0987299,0.0498823,0.0613858,0.0512912,0.00574514,0.101169,-0.00181307,0.158601,0.09,0.0934371,0.110182,0.0500384,0.238276,0.0153254,6.20668,-5.89267,8.07288,22.6618,0.825212,-0.10233,0.349924,-0.549001,-1.33312,-0.545503,2.66196,0.240861,-0.469717,0.175708
5320730,0.97,-1.56937,-0.522237,0.000998444,-2.09526,1.57082,1.57254,0.785035,-1.56889,-0.522551,0.00111884,-2.09305,1.57143,1.57358,0.785605,0.103661,0.0534548,0.0652919,0.0588687,0.00887104,0.11496,-0.000733997,0.167897,0.095625,0.0989771,0.116434,0.0526377,0.252989,0.0159795,6.60737,-5.56339,8.65607,22.6102,0.830705,-0.127965,0.337107,-0.539749,-1.33044,-0.553877,2.68224,0.244408,-0.449694,0.177975
5320731,0.97,-1.56923,-0.522155,0.0010819,-2.09519,1.57084,1.57271,0.785044,-1.56871,-0.522449,0.00122335,-2.09293,1.57149,1.57385,0.785621,0.11414,0.0627894,0.0704059,0.0668904,0.0123514,0.130472,0.00263024,0.177193,0.10125,0.104517,0.122686,0.0552371,0.267702,0.0166336,6.86128,-5.36105,9.06073,22.6102,0.802324,-0.179235,0.252878,-0.532005,-1.32381,-0.563718,2.69961,0.248234,-0.428911,0.180795
5320732,0.97,-1.56908,-0.522065,0.00115858,-2.0951,1.57086,1.5729,0.78505,-1.56852,-0.522342,0.00133341,-2.0928,1.57155,1.57413,0.785639,0.123298,0.0691162,0.0710775,0.0742549,0.0106312,0.147598,0.00273684,0.186489,0.106875,0.110057,0.128938,0.0578365,0.282414,0.0172877,7.06361,-5.15872,9.59235,22.511,0.762956,-0.244237,0.226328,-0.523552,-1.31937,-0.571209,2.71588,0.252237,-0.407867,0.184043
5320733,0.97,-1.56893,-0.521976,0.00124487,-2.09502,1.57088,1.57312,0.78506,-1.56833,-0.52223,0.00144901,-2.09266,1.57161,1.57443,0.785657,0.132299,0.0735605,0.0748802,0.073971,0.0137525,0.171275,0.00372343,0.195785,0.1125,0.115597,0.13519,0.0604358,0.297127,0.0179418,7.28975,-4.93259,9.99701,22.5626,0.729082,-0.359594,0.175059,-0.51176,-1.32143,-0.571863,2.73427,0.256382,-0.387199,0.187516
5320734,0.97,-1.56876,-0.521886,0.00134095,-2.09493,1.5709,1.57335,0.785067,-1.56812,-0.52211,0.00157112,-2.09252,1.57167,1.57474,0.785675,0.145639,0.0782957,0.0824359,0.0788787,0.0180245,0.192604,0.00698754,0.206769,0.11999,0.122108,0.142525,0.0633007,0.314169,0.0185865,7.46431,-4.65488,10.3263,22.634,0.76845,-0.456639,0.181467,-0.496861,-1.33014,-0.565834,2.75773,0.260714,-0.367152,0.190986
5320735,0.97,-1.56859,-0.521797,0.00144124,-2.09483,1.57093,1.5736,0.785063,-1.5679,-0.521983,0.00169974,-2.09237,1.57174,1.57508,0.785694,0.153909,0.0799178,0.0871528,0.0827601,0.0215352,0.21184,0.00555595,0.217754,0.12748,0.128619,0.14986,0.0661656,0.33121,0.0192312,7.61903,-4.40097,10.5564,22.7332,0.807817,-0.507909,0.297739,-0.481893,-1.34036,-0.557625,2.78531,0.265228,-0.347511,0.194275
5320736,0.97,-1.56841,-0.521702,0.00153577,-2.09472,1.57095,1.57386,0.785068,-1.56768,-0.521848,0.00183487,-2.09221,1.5718,1.57542,0.785714,0.162609,0.0838114,0.0911668,0.0869161,0.0236607,0.227854,0.00294304,0.228738,0.13497,0.13513,0.157195,0.0690305,0.348251,0.019876,7.79359,-4.14706,10.8857,22.7848,0.859087,-0.475866,0.337107,-0.466638,-1.34452,-0.547019,2.81378,0.269794,-0.328442,0.197341
5320737,0.97,-1.56821,-0.521595,0.00163858,-2.0946,1.57098,1.57414,0.785069,-1.56744,-0.521705,0.00197651,-2.09205,1.57188,1.57579,0.785735,0.172089,0.0905926,0.0950801,0.0938469,0.0248502,0.2434,-0.000363421,0.239723,0.14246,0.141642,0.16453,0.0718954,0.365293,0.0205207,7.84517,-3.92093,11.1634,22.761,0.921343,-0.40537,0.414011,-0.449026,-1.34111,-0.530978,2.84213,0.274364,-0.310339,0.200294
5320738,0.97,-1.568,-0.52148,0.00173618,-2.09448,1.57102,1.57444,0.785067,-1.56718,-0.521555,0.00212466,-2.09188,1.57195,1.57617,0.785756,0.179731,0.0975977,0.095181,0.105865,0.0235727,0.25989,-0.000141176,0.250707,0.14995,0.148153,0.171865,0.0747604,0.382334,0.0211655,7.99592,-3.64322,11.5681,22.6102,0.926836,-0.32755,0.550425,-0.426678,-1.33225,-0.505659,2.86902,0.2789,-0.293573,0.203326
5320739,0.97,-1.56779,-0.521361,0.00184139,-2.09434,1.57106,1.57476,0.785076,-1.56692,-0.521398,0.00227932,-2.0917,1.57203,1.57657,0.785778,0.192433,0.103009,0.0985963,0.115186,0.0276102,0.279555,0.00107148,0.261692,0.15744,0.154664,0.179201,0.0776253,0.399375,0.0218102,8.24983,-3.21475,11.9727,22.4118,0.921343,-0.32755,0.537607,-0.397589,-1.31697,-0.467391,2.89077,0.283289,-0.278338,0.206676
5320740,0.97,-1.56756,-0.521228,0.00195358,-2.09419,1.5711,1.57511,0.785083,-1.56665,-0.521233,0.0024405,-2.09151,1.57211,1.57699,0.7858,0.202338,0.108547,0.10055,0.124175,0.0303434,0.303118,0.0052248,0.272676,0.16493,0.161175,0.186536,0.0804902,0.416417,0.022455,8.49977,-2.8577,12.4052,22.2889,0.921343,-0.418187,0.556833,-0.362186,-1.29263,-0.416187,2.90465,0.287498,-0.264416,0.210582
5320741,0.97,-1.56733,-0.521088,0.0020669,-2.09405,1.57116,1.57547,0.785103,-1.56637,-0.52106,0.00260819,-2.09132,1.57219,1.57742,0.785823,0.212449,0.118609,0.105454,0.127842,0.039738,0.32273,0.00904494,0.283661,0.17242,0.167686,0.193871,0.0833551,0.433458,0.0230997,8.75367,-2.57999,12.8336,22.1897,0.847185,-0.450231,0.427744,-0.321391,-1.26341,-0.353462,2.91345,0.29167,-0.251619,0.215156
5320742,0.97,-1.56708,-0.52093,0.00218978,-2.0939,1.57123,1.57586,0.78512,-1.56607,-0.52088,0.00278238,-2.09112,1.57228,1.57787,0.785847,0.223845,0.13286,0.110584,0.137313,0.0474891,0.342207,0.00949767,0.294645,0.17991,0.174197,0.201206,0.08622,0.450499,0.0237445,9.00361,-2.37766,13.1907,22.1381,0.745561,-0.475866,0.349924,-0.276794,-1.24371,-0.282069,2.9252,0.296079,-0.239825,0.220345
5320743,0.97,-1.56681,-0.520776,0.00231018,-2.09373,1.57129,1.57626,0.785143,-1.56577,-0.520693,0.00296309,-2.09091,1.57237,1.57834,0.785871,0.234822,0.138268,0.114732,0.14689,0.0514824,0.362461,0.0188992,0.30563,0.1874,0.180708,0.208541,0.0890849,0.46754,0.0243892,9.15437,-2.07614,13.5438,22.0151,0.688799,-0.527135,0.284922,-0.230515,-1.24122,-0.205533,2.94313,0.300747,-0.228804,0.225938
5320744,0.97,-1.56654,-0.52061,0.00243329,-2.09355,1.57136,1.57668,0.785165,-1.56545,-0.520498,0.00315073,-2.09069,1.57246,1.57882,0.785896,0.241884,0.146588,0.115889,0.155803,0.0568976,0.38225,0.0195877,0.317487,0.19489,0.187641,0.21655,0.0920653,0.485507,0.0250313,9.3567,-1.82224,13.8453,21.9159,0.688799,-0.598546,0.252878,-0.181501,-1.24828,-0.122555,2.96293,0.305277,-0.218645,0.231644
5320745,0.97,-1.56626,-0.52044,0.00256008,-2.09337,1.57143,1.57712,0.78517,-1.56512,-0.520296,0.00334531,-2.09047,1.57256,1.57933,0.785922,0.254432,0.149226,0.119718,0.163099,0.0605924,0.411794,0.0146903,0.329344,0.20238,0.194573,0.224558,0.0950456,0.503473,0.0256733,9.50746,-1.54453,14.1508,21.9159,0.706194,-0.617772,0.36915,-0.127048,-1.25374,-0.0293619,2.97982,0.309256,-0.209721,0.237189
5320746,0.97,-1.56598,-0.520271,0.00269755,-2.09318,1.57151,1.57759,0.785184,-1.56478,-0.520086,0.00354681,-2.09023,1.57265,1.57985,0.785948,0.261325,0.157407,0.12478,0.170069,0.0631045,0.431664,0.0129812,0.341202,0.20987,0.201506,0.232566,0.098026,0.52144,0.0263153,9.73756,-1.26682,14.3531,21.8405,0.734575,-0.624181,0.44697,-0.0669338,-1.25035,0.0739532,2.99174,0.312585,-0.20213,0.242424
5320747,0.97,-1.56567,-0.520092,0.00283533,-2.09297,1.57159,1.57807,0.785197,-1.56443,-0.519869,0.00375525,-2.08999,1.57275,1.58039,0.785975,0.274573,0.161738,0.128762,0.18163,0.0700153,0.443232,0.011288,0.353059,0.21736,0.208439,0.240575,0.101006,0.539406,0.0269573,9.78517,-1.06448,14.6586,21.789,0.757463,-0.560094,0.544016,-0.00309466,-1.23448,0.184091,2.99753,0.315307,-0.195515,0.247411
5320748,0.97,-1.56536,-0.519909,0.00299287,-2.09275,1.57168,1.57856,0.785205,-1.56406,-0.519644,0.00397062,-2.08974,1.57286,1.58095,0.786003,0.28746,0.169782,0.138778,0.194566,0.0751778,0.457117,0.0106078,0.364916,0.22485,0.215371,0.248583,0.103987,0.557372,0.0275993,9.9637,-0.913727,14.8093,21.7414,0.784929,-0.488683,0.628245,0.0595506,-1.20179,0.293771,2.99378,0.317474,-0.188891,0.252371
5320749,0.97,-1.56503,-0.519717,0.00313826,-2.09254,1.57178,1.57909,0.785226,-1.56368,-0.519411,0.00419293,-2.08949,1.57297,1.58152,0.786031,0.293221,0.173402,0.142544,0.204394,0.0801128,0.475537,0.0141717,0.376773,0.23234,0.222304,0.256592,0.106967,0.575339,0.0282413,10.166,-0.810577,15.1148,21.8644,0.779436,-0.527135,0.601694,0.117497,-1.14862,0.397482,2.97747,0.319175,-0.181485,0.257572
5320750,0.97,-1.5647,-0.519509,0.00330093,-2.0923,1.57188,1.57965,0.785248,-1.5633,-0.519172,0.00442216,-2.08922,1.57308,1.58211,0.78606,0.306693,0.18326,0.148198,0.213077,0.0886102,0.502364,0.0179551,0.38863,0.23983,0.229236,0.2646,0.109947,0.593305,0.0288834,10.2652,-0.885956,15.2894,21.8405,0.773943,-0.63059,0.544016,0.172877,-1.07752,0.497814,2.95038,0.320516,-0.173538,0.263213
5320751,0.97,-1.56434,-0.519303,0.0034624,-2.09205,1.57199,1.58022,0.785275,-1.56289,-0.518924,0.00465833,-2.08895,1.57319,1.58273,0.78609,0.319698,0.188956,0.154478,0.218255,0.092782,0.524923,0.0222663,0.400488,0.24732,0.236169,0.272608,0.112928,0.611272,0.0295254,10.3406,-0.885956,15.5195,21.8644,0.700701,-0.681859,0.434153,0.226591,-0.997553,0.596047,2.91882,0.321763,-0.165357,0.269324
5320752,0.97,-1.56399,-0.51909,0.0036357,-2.0918,1.57211,1.58081,0.7853,-1.56248,-0.518669,0.00490143,-2.08867,1.5733,1.58336,0.78612,0.337923,0.196209,0.15899,0.227569,0.0999063,0.544525,0.0232216,0.412345,0.25481,0.243101,0.280617,0.115908,0.629238,0.0301674,10.5191,-0.786774,15.7456,21.9635,0.638445,-0.701085,0.375559,0.276111,-0.915326,0.68897,2.88787,0.323169,-0.15678,0.275774
5320753,0.97,-1.56362,-0.518861,0.0038071,-2.09153,1.57222,1.58143,0.785328,-1.56206,-0.518407,0.00515146,-2.08838,1.57342,1.584,0.786151,0.349747,0.207992,0.161581,0.23972,0.103091,0.568,0.0249026,0.424202,0.2623,0.250034,0.288625,0.118888,0.647204,0.0308094,10.5945,-0.885956,16.0233,21.9159,0.632951,-0.80454,0.291331,0.320784,-0.834809,0.776431,2.85896,0.324676,-0.147893,0.282328
5320754,0.97,-1.56324,-0.518625,0.00398706,-2.09126,1.57234,1.58208,0.785357,-1.56162,-0.518137,0.00540839,-2.08808,1.57354,1.58467,0.786182,0.359604,0.217175,0.170624,0.243448,0.10533,0.589754,0.030083,0.43621,0.26979,0.256922,0.296986,0.121857,0.665322,0.0314567,10.7453,-0.937531,16.1265,21.8882,0.627458,-0.90067,0.226328,0.362806,-0.764238,0.861436,2.83531,0.326211,-0.139262,0.288699
5320755,0.97,-1.56286,-0.518382,0.00417374,-2.09098,1.57247,1.58273,0.785375,-1.56117,-0.51786,0.0056722,-2.08778,1.57367,1.58535,0.786214,0.366841,0.224465,0.174333,0.252595,0.116711,0.611706,0.0295188,0.448218,0.27728,0.26381,0.305346,0.124826,0.683439,0.0321039,10.9238,-0.989105,16.3288,21.9397,0.599077,-0.90067,0.278513,0.405089,-0.70857,0.947052,2.82042,0.327773,-0.131511,0.294596
5320756,0.97,-1.56246,-0.518137,0.00437138,-2.09069,1.57259,1.58339,0.785405,-1.56071,-0.517575,0.00594289,-2.08747,1.5738,1.58605,0.786247,0.377741,0.231681,0.183962,0.266889,0.115799,0.623399,0.0324398,0.460226,0.28477,0.270697,0.313707,0.127795,0.701557,0.0327512,10.9992,-1.01291,16.5311,21.9397,0.592668,-0.766088,0.252878,0.449267,-0.661588,1.0348,2.81061,0.329146,-0.124875,0.299829
5320757,0.97,-1.56205,-0.517876,0.00457842,-2.09038,1.57272,1.58407,0.785418,-1.56024,-0.517283,0.00622048,-2.08714,1.57393,1.58677,0.78628,0.383779,0.242582,0.186006,0.279442,0.119789,0.637583,0.023758,0.472233,0.29226,0.277585,0.322068,0.130764,0.719674,0.0333984,11.1737,-1.13986,16.6819,21.9159,0.587175,-0.669042,0.388376,0.495941,-0.615686,1.12521,2.79936,0.330056,-0.119236,0.304377
5320758,0.97,-1.56164,-0.517612,0.00479332,-2.09007,1.57285,1.58479,0.785442,-1.55976,-0.516983,0.00650495,-2.08681,1.57406,1.58751,0.786314,0.394708,0.249581,0.190855,0.286941,0.125253,0.66088,0.0251494,0.484241,0.29975,0.284473,0.330429,0.133733,0.737792,0.0340457,11.3522,-1.21524,16.8088,21.9159,0.643938,-0.746862,0.453379,0.547648,-0.570799,1.22212,2.78557,0.330374,-0.114705,0.308319
5320759,0.97,-1.56121,-0.517336,0.00501344,-2.08976,1.57299,1.58555,0.785471,-1.55926,-0.516676,0.00679631,-2.08647,1.5742,1.58827,0.786349,0.403459,0.260827,0.199563,0.290193,0.131549,0.691474,0.0281613,0.496249,0.30724,0.291361,0.338789,0.136702,0.755909,0.034693,11.4752,-1.34219,16.8604,21.9635,0.643938,-0.92722,0.466196,0.605418,-0.53299,1.32678,2.77444,0.330315,-0.111341,0.311828
5320760,0.97,-1.56077,-0.517051,0.00524298,-2.08943,1.57314,1.58631,0.785496,-1.55875,-0.516361,0.00709456,-2.08613,1.57434,1.58904,0.786384,0.418919,0.267442,0.207416,0.302016,0.137527,0.708706,0.0250519,0.508257,0.31473,0.298249,0.34715,0.139671,0.774027,0.0353402,11.503,-1.49295,16.9596,21.9635,0.615556,-0.959264,0.49824,0.665483,-0.506951,1.43312,2.77038,0.330293,-0.108672,0.315133
5320761,0.97,-1.5603,-0.516752,0.00546314,-2.08909,1.57328,1.58707,0.785535,-1.55823,-0.516039,0.0073997,-2.08577,1.57448,1.58983,0.78642,0.431889,0.278318,0.211354,0.312054,0.141726,0.722217,0.0259804,0.520265,0.32222,0.305137,0.355511,0.14264,0.792144,0.0359875,11.4752,-1.74686,17.1619,22.0151,0.587175,-0.894261,0.440561,0.723372,-0.489784,1.53499,2.77118,0.330417,-0.106083,0.318453
5320762,0.98,-1.55984,-0.516448,0.00570067,-2.08874,1.57343,1.58787,0.785562,-1.5577,-0.515709,0.00771172,-2.08541,1.57463,1.59064,0.786457,0.442513,0.286918,0.219557,0.321549,0.143459,0.742203,0.0234819,0.532273,0.32971,0.312025,0.363872,0.145609,0.810262,0.0366347,11.6538,-1.89761,17.2889,21.9159,0.592668,-0.868627,0.459788,0.777642,-0.47922,1.63093,2.77437,0.33062,-0.103367,0.32192
5320763,0.99,-1.55938,-0.516138,0.00596178,-2.08839,1.57357,1.58869,0.785593,-1.55716,-0.515372,0.00803064,-2.08504,1.57478,1.59147,0.786494,0.444916,0.295402,0.231644,0.329308,0.144145,0.781736,0.0266839,0.544281,0.3372,0.318913,0.372232,0.148578,0.828379,0.037282,11.8283,-2.00076,17.2889,21.8644,0.62105,-0.946447,0.472605,0.829742,-0.475609,1.72215,2.78011,0.330953,-0.100844,0.325552
5320764,1,-1.55888,-0.515821,0.00621582,-2.08804,1.57372,1.58955,0.785632,-1.5566,-0.515027,0.00835619,-2.08466,1.57493,1.59232,0.786532,0.457017,0.3055,0.238502,0.331002,0.145819,0.803366,0.0308143,0.556008,0.34469,0.325553,0.380725,0.151401,0.846076,0.0379188,11.9077,-2.09995,17.3682,21.9159,0.62105,-1.06821,0.44697,0.88179,-0.482104,1.81012,2.79157,0.331625,-0.0989954,0.329313
5320765,1,-1.55837,-0.515489,0.00648011,-2.08766,1.57389,1.59041,0.785661,-1.55603,-0.514675,0.00868838,-2.08427,1.57508,1.59318,0.786571,0.487094,0.311302,0.243742,0.339568,0.155547,0.821509,0.0306513,0.567736,0.35218,0.332194,0.389218,0.154223,0.863773,0.0385556,11.8045,-2.17532,17.4158,21.8882,0.524919,-1.02335,0.49824,0.930144,-0.500881,1.89055,2.81174,0.332837,-0.0973101,0.333171
5320766,1,-1.55784,-0.51515,0.00675912,-2.08728,1.57406,1.59127,0.785698,-1.55545,-0.514316,0.00902722,-2.08387,1.57524,1.59406,0.78661,0.498225,0.321689,0.259446,0.351076,0.160316,0.834374,0.0330794,0.579464,0.35967,0.338835,0.39771,0.157046,0.88147,0.0391924,11.6538,-2.33005,17.4436,21.8882,0.485552,-0.92722,0.49824,0.965359,-0.525908,1.95181,2.83679,0.334583,-0.0942459,0.337131
5320767,1,-1.5573,-0.514797,0.00703897,-2.0869,1.57423,1.59217,0.785738,-1.55486,-0.513948,0.00937269,-2.08346,1.5754,1.59496,0.78665,0.509909,0.330005,0.266625,0.357206,0.162327,0.85218,0.0358915,0.591191,0.36716,0.345475,0.406203,0.159868,0.899167,0.0398292,11.6022,-2.45303,17.3405,22.0389,0.480058,-0.952855,0.453379,0.984041,-0.553155,1.98889,2.86277,0.336702,-0.0891219,0.341228
5320768,1,-1.55676,-0.514444,0.00733217,-2.0865,1.57439,1.5931,0.785775,-1.55426,-0.513574,0.00972481,-2.08305,1.57556,1.59588,0.78669,0.520625,0.337567,0.27553,0.368642,0.165369,0.87502,0.0324684,0.602919,0.37465,0.352116,0.414696,0.16269,0.916865,0.040466,11.6022,-2.57999,17.1897,21.9873,0.542314,-1.07462,0.427744,0.991268,-0.581417,2.00868,2.8884,0.33891,-0.0825695,0.34546
5320769,1,-1.55619,-0.514074,0.00763723,-2.08611,1.57456,1.59402,0.785822,-1.55364,-0.513192,0.0100836,-2.08262,1.57573,1.59681,0.786731,0.533312,0.351388,0.288723,0.370553,0.164343,0.892255,0.0373334,0.614647,0.38214,0.358756,0.423188,0.165513,0.934562,0.0411028,11.376,-2.78232,17.0389,22.1897,0.599077,-1.07462,0.330698,0.990922,-0.613918,2.01655,2.91557,0.341154,-0.075236,0.349752
5320770,1,-1.55561,-0.513699,0.00794864,-2.08569,1.57474,1.59496,0.785863,-1.55302,-0.512802,0.010449,-2.08219,1.57589,1.59777,0.786773,0.560323,0.359023,0.291663,0.38213,0.172116,0.900634,0.0370156,0.626374,0.38963,0.365397,0.431681,0.168335,0.952259,0.0417396,11.1975,-2.88547,16.8842,22.3127,0.558794,-1.00412,0.330698,0.981103,-0.657848,2.01042,2.94856,0.343666,-0.066984,0.35397
5320771,1,-1.55503,-0.513315,0.00827033,-2.08527,1.57492,1.5959,0.785906,-1.55238,-0.512405,0.010821,-2.08175,1.57607,1.59874,0.786815,0.573011,0.37198,0.300321,0.394479,0.171693,0.914471,0.0369987,0.638102,0.39712,0.372037,0.440174,0.171157,0.969956,0.0423764,11.0745,-3.0878,16.7335,22.4118,0.553301,-0.952855,0.330698,0.959837,-0.711765,1.98952,2.9853,0.346395,-0.0575065,0.357959
5320772,1,-1.55443,-0.51292,0.0085922,-2.08484,1.5751,1.59686,0.785948,-1.55173,-0.512,0.0111997,-2.0813,1.57624,1.59972,0.786858,0.576729,0.380609,0.305833,0.395525,0.169923,0.929154,0.0358362,0.64983,0.40461,0.378678,0.448666,0.17398,0.987653,0.0430132,11.0468,-3.29013,16.6303,22.4356,0.576189,-0.881444,0.362742,0.932565,-0.774771,1.96189,3.02478,0.349171,-0.0475446,0.361604
5320773,1,-1.55382,-0.512514,0.00892561,-2.08441,1.57528,1.59785,0.785986,-1.55107,-0.511588,0.011585,-2.08085,1.57642,1.60073,0.786902,0.58645,0.389008,0.31555,0.403201,0.174632,0.945152,0.0333157,0.661558,0.4121,0.385318,0.457159,0.176802,1.00535,0.04365,11.023,-3.49246,16.5311,22.5626,0.576189,-0.810948,0.44697,0.907816,-0.848735,1.93821,3.07052,0.351967,-0.0382549,0.364849
5320774,1,-1.5532,-0.512108,0.00926498,-2.08397,1.57547,1.59883,0.786034,-1.5504,-0.511169,0.0119766,-2.08038,1.5766,1.60175,0.786946,0.597818,0.396831,0.323781,0.418172,0.178755,0.953316,0.0356912,0.672697,0.41959,0.391634,0.465625,0.1793,1.02226,0.0442601,11.0983,-3.59164,16.5549,22.5864,0.558794,-0.75327,0.42042,0.887688,-0.926196,1.92067,3.11877,0.354638,-0.029669,0.367764
5320775,1,-1.55255,-0.511693,0.00961728,-2.08352,1.57566,1.59985,0.786085,-1.54971,-0.510742,0.0123746,-2.07991,1.57678,1.60279,0.786991,0.614957,0.406716,0.330667,0.42497,0.181955,0.967416,0.0368744,0.683836,0.42708,0.397949,0.474091,0.181799,1.03917,0.0448701,11.0745,-3.64322,16.5549,22.6618,0.531328,-0.740453,0.407602,0.86928,-0.998545,1.9054,3.16296,0.357009,-0.0210349,0.370496
5320776,1,-1.55191,-0.511274,0.00998204,-2.08307,1.57586,1.60087,0.78613,-1.54902,-0.510307,0.0127788,-2.07942,1.57696,1.60385,0.787037,0.625041,0.411403,0.338243,0.434343,0.186711,0.988732,0.0368805,0.694975,0.43457,0.404264,0.482557,0.184297,1.05609,0.0454802,11.0745,-3.61942,16.5827,22.7094,0.446184,-0.817357,0.414011,0.850884,-1.0625,1.89037,3.20145,0.359041,-0.0119367,0.373131
5320777,1,-1.55125,-0.510854,0.0103486,-2.08261,1.57605,1.60194,0.786187,-1.54831,-0.509865,0.0131894,-2.07893,1.57715,1.60492,0.787083,0.626902,0.415366,0.34309,0.437449,0.185948,1.01118,0.0405761,0.706114,0.44206,0.41058,0.491023,0.186795,1.073,0.0460902,11.1221,-3.56784,16.5311,22.7332,0.469072,-0.946447,0.323374,0.836831,-1.11323,1.8813,3.23393,0.360592,-0.0030183,0.375681
5320778,1,-1.55059,-0.510413,0.0107285,-2.08214,1.57624,1.60302,0.786243,-1.54759,-0.509415,0.0136063,-2.07843,1.57734,1.60601,0.78713,0.634347,0.421498,0.355313,0.445803,0.186164,1.02484,0.0460289,0.717253,0.44955,0.416895,0.49949,0.189294,1.08991,0.0467003,11.2253,-3.59164,16.4558,22.6618,0.474565,-1.02335,0.278513,0.832537,-1.14717,1.88467,3.2609,0.361517,0.00479326,0.378106
5320779,1,-1.5499,-0.509969,0.011109,-2.08164,1.57643,1.6041,0.786291,-1.54686,-0.508958,0.0140295,-2.07793,1.57753,1.60712,0.787177,0.649343,0.432162,0.360509,0.462828,0.189863,1.04187,0.0481524,0.728392,0.45704,0.423211,0.507956,0.191792,1.10682,0.0473104,11.2253,-3.66702,16.4558,22.4118,0.519426,-1.02335,0.291331,0.836068,-1.16512,1.89721,3.28141,0.361808,0.0115362,0.38032
5320780,1,-1.5492,-0.509513,0.0114993,-2.08115,1.57663,1.6052,0.786343,-1.54613,-0.508494,0.0144591,-2.07741,1.57772,1.60824,0.787225,0.664065,0.439367,0.369152,0.470847,0.192077,1.05435,0.0504766,0.739532,0.46453,0.429526,0.516422,0.194291,1.12373,0.0479204,11.1737,-3.77017,16.4042,22.2135,0.570696,-0.919896,0.278513,0.841934,-1.16973,1.91189,3.29305,0.361504,0.0177496,0.382232
5320781,1,-1.5485,-0.509044,0.0119035,-2.08064,1.57683,1.60629,0.786388,-1.54537,-0.508022,0.0148949,-2.07688,1.57792,1.60938,0.787273,0.677865,0.449439,0.374016,0.481255,0.200085,1.08741,0.0445287,0.750671,0.47202,0.435841,0.524888,0.196789,1.14065,0.0485305,11.1499,-3.89713,16.2772,22.0151,0.592668,-0.842992,0.349924,0.847216,-1.16637,1.92538,3.29729,0.3608,0.0236295,0.383784
5320782,1,-1.54779,-0.50858,0.0123004,-2.08013,1.57704,1.60743,0.786434,-1.54461,-0.507542,0.0153371,-2.07635,1.57812,1.61054,0.787322,0.687911,0.45681,0.382935,0.486952,0.198789,1.10025,0.0455461,0.76181,0.47951,0.442157,0.533354,0.199287,1.15756,0.0491406,11.1975,-3.94473,16.2018,21.8167,0.558794,-0.862218,0.407602,0.852218,-1.16173,1.93816,3.2981,0.359998,0.0290312,0.384976
5320783,1,-1.54707,-0.508109,0.0127197,-2.07961,1.57726,1.60858,0.786492,-1.54384,-0.507055,0.0157855,-2.07581,1.57832,1.61171,0.787372,0.706911,0.461886,0.388619,0.498299,0.200984,1.10828,0.0505838,0.772949,0.487,0.448472,0.54182,0.201786,1.17447,0.0497506,11.1737,-3.94473,16.1265,21.7414,0.435198,-0.881444,0.356333,0.85571,-1.15609,1.94842,3.29637,0.359301,0.0343891,0.385925
5320784,1,-1.54633,-0.507645,0.0131473,-2.07906,1.57747,1.60975,0.786539,-1.54306,-0.506561,0.0162399,-2.07526,1.57853,1.6129,0.787423,0.71246,0.475972,0.395704,0.511511,0.205998,1.12462,0.0502608,0.783294,0.49449,0.454409,0.55016,0.203885,1.19035,0.050313,11.1737,-3.82175,15.9757,21.5906,0.332659,-1.00412,0.407602,0.856531,-1.14784,1.95457,3.29013,0.358632,0.0401683,0.386778
5320785,1,-1.54557,-0.507163,0.0135727,-2.07852,1.57768,1.61095,0.786597,-1.54226,-0.506059,0.0167003,-2.0747,1.57873,1.61411,0.787473,0.718443,0.477628,0.402214,0.511431,0.206953,1.13302,0.0480571,0.793639,0.50198,0.460346,0.5585,0.205985,1.20623,0.0508754,11.0745,-3.7186,15.8726,21.4914,0.293291,-1.10026,0.394785,0.858781,-1.14046,1.96163,3.28095,0.357748,0.0458022,0.387613
5320786,1,-1.5448,-0.506663,0.0140061,-2.07796,1.57788,1.61216,0.786663,-1.54146,-0.505549,0.0171666,-2.07413,1.57894,1.61533,0.787525,0.731647,0.484802,0.41048,0.522648,0.208768,1.148,0.0548297,0.803983,0.50947,0.466282,0.566839,0.208085,1.22212,0.0514379,11.023,-3.7424,15.8726,21.4676,0.36104,-1.1204,0.284922,0.865037,-1.13208,1.97235,3.27075,0.356451,0.050828,0.388477
5320787,1,-1.54402,-0.506171,0.0144429,-2.0774,1.5781,1.61337,0.786716,-1.54064,-0.505032,0.0176388,-2.07356,1.57915,1.61657,0.787577,0.74375,0.491105,0.41407,0.52546,0.210224,1.16325,0.0540593,0.814328,0.51696,0.472219,0.575179,0.210184,1.238,0.0520003,10.9476,-3.7424,15.8964,21.3684,0.440691,-1.28061,0.310557,0.873726,-1.11938,1.98478,3.25942,0.35465,0.0552365,0.38936
5320788,1,-1.54323,-0.505662,0.0148941,-2.07681,1.5783,1.61464,0.786779,-1.53982,-0.504508,0.0181169,-2.07297,1.57936,1.61782,0.787629,0.750851,0.496037,0.423013,0.540689,0.205382,1.18184,0.0576795,0.824673,0.52445,0.478156,0.583519,0.212284,1.25388,0.0525627,10.9992,-3.7186,15.7694,21.2455,0.553301,-1.57724,0.226328,0.884633,-1.10043,1.99916,3.24542,0.352355,0.0587146,0.390173
5320789,1,-1.54243,-0.505137,0.0153431,-2.07622,1.57851,1.61586,0.786843,-1.53898,-0.503976,0.018601,-2.07238,1.57958,1.61909,0.787683,0.767153,0.501077,0.428293,0.555825,0.200723,1.19013,0.0594407,0.835018,0.53194,0.484092,0.591858,0.214384,1.26976,0.0531251,10.8722,-3.79398,15.7218,21.2693,0.581682,-1.51316,0.162241,0.89682,-1.06597,2.0145,3.22122,0.349595,0.0610331,0.390844
5320790,1,-1.54163,-0.50462,0.0157931,-2.07563,1.57872,1.61708,0.786892,-1.53814,-0.503437,0.0190911,-2.07178,1.57979,1.62038,0.787736,0.77275,0.508153,0.439149,0.559264,0.203986,1.19594,0.0545856,0.845362,0.53943,0.490029,0.600198,0.216483,1.28564,0.0536875,10.8444,-3.79398,15.6464,21.2693,0.542314,-1.15244,0.265696,0.907266,-1.01226,2.02668,3.18336,0.34662,0.0623175,0.391268
5320791,1,-1.54083,-0.50409,0.0162429,-2.07504,1.57894,1.61833,0.786955,-1.53728,-0.50289,0.019587,-2.07117,1.58001,1.62168,0.78779,0.77951,0.515438,0.439656,0.563709,0.209846,1.20642,0.0556099,0.855707,0.54692,0.495966,0.608538,0.218583,1.30153,0.0542499,10.9992,-3.79398,15.7218,21.3922,0.502947,-0.940038,0.252878,0.917617,-0.950162,2.03784,3.14011,0.343794,0.062332,0.391315
5320792,1,-1.54003,-0.503566,0.0166986,-2.07443,1.57916,1.61963,0.787011,-1.53642,-0.502335,0.0200889,-2.07056,1.58023,1.623,0.787845,0.784695,0.517921,0.444166,0.579081,0.21846,1.22829,0.059064,0.866052,0.55441,0.501903,0.616877,0.220683,1.31741,0.0548123,11.3007,-3.7424,15.6702,21.4676,0.502947,-1.11399,0.304148,0.934975,-0.884242,2.05833,3.09512,0.340983,0.0604858,0.390965
5320793,1,-1.53919,-0.503025,0.0171476,-2.07383,1.5794,1.62093,0.787069,-1.53554,-0.501773,0.0205968,-2.06993,1.58046,1.62433,0.787901,0.796138,0.525243,0.446176,0.585252,0.223429,1.2439,0.0570551,0.876397,0.5619,0.507839,0.625217,0.222783,1.33329,0.0553747,11.3007,-3.7186,15.821,21.6144,0.417803,-1.18448,0.343516,0.963972,-0.808903,2.09515,3.0443,0.337814,0.0566365,0.390297
5320794,1,-1.53835,-0.502471,0.017603,-2.07322,1.57963,1.62223,0.78714,-1.53466,-0.501204,0.0211101,-2.0693,1.58068,1.62568,0.787956,0.814081,0.53275,0.448032,0.602667,0.2273,1.26698,0.0600494,0.88581,0.56939,0.513363,0.633382,0.224456,1.34798,0.0558587,11.1737,-3.7186,16.0987,21.8644,0.321672,-1.2678,0.265696,1.00304,-0.724444,2.14664,2.98664,0.334183,0.0511932,0.389445
5320795,1,-1.53749,-0.501915,0.0180699,-2.0726,1.57986,1.62354,0.787213,-1.53376,-0.500627,0.021629,-2.06866,1.58091,1.62704,0.788013,0.821866,0.54027,0.456484,0.595994,0.229938,1.28428,0.0662866,0.895224,0.57688,0.518887,0.641548,0.226129,1.36267,0.0563427,11.1975,-3.77017,16.2256,22.1143,0.225542,-1.08103,0.200693,1.0475,-0.63977,2.2065,2.9281,0.330267,0.0446906,0.388506
5320796,1,-1.53666,-0.501344,0.0185472,-2.07198,1.58008,1.62489,0.787291,-1.53286,-0.500043,0.0221534,-2.06801,1.58113,1.62842,0.78807,0.820663,0.548955,0.45914,0.603105,0.225656,1.3013,0.0724415,0.904638,0.58437,0.524411,0.649713,0.227803,1.37736,0.0568267,11.4752,-3.89713,16.3288,22.2889,0.298784,-1.15885,0.09083,1.09737,-0.569565,2.27375,2.88132,0.326317,0.0370086,0.387432
5320797,1,-1.53581,-0.500764,0.0190294,-2.07134,1.5803,1.62624,0.787364,-1.53194,-0.499451,0.0226834,-2.06735,1.58136,1.62981,0.788127,0.820207,0.554769,0.472167,0.612956,0.22011,1.32055,0.0736866,0.914051,0.59186,0.529935,0.657878,0.229476,1.39205,0.0573107,11.7529,-4.09946,16.4042,22.511,0.451677,-1.25498,0.0651953,1.1568,-0.518749,2.35251,2.8508,0.322293,0.0276448,0.386092
5320798,1,-1.53494,-0.500175,0.0195143,-2.07071,1.58052,1.62762,0.787422,-1.53102,-0.498851,0.0232188,-2.06668,1.58159,1.63122,0.788185,0.823747,0.562153,0.47322,0.620735,0.220064,1.33366,0.0681891,0.923465,0.59935,0.535459,0.666044,0.231149,1.40674,0.0577947,11.8561,-4.17484,16.4558,22.634,0.496538,-1.19089,0.213511,1.22738,-0.48028,2.44372,2.83128,0.318091,0.0165468,0.38434
5320799,1,-1.53404,-0.49957,0.0199946,-2.07006,1.58075,1.62902,0.787483,-1.53009,-0.498245,0.0237598,-2.06601,1.58183,1.63264,0.788243,0.844407,0.573076,0.468356,0.630372,0.223227,1.34685,0.0669048,0.932878,0.60684,0.540983,0.674209,0.232823,1.42143,0.0582787,11.4752,-4.45255,16.6065,22.6856,0.462663,-1.11399,0.291331,1.30886,-0.452265,2.54847,2.82022,0.31374,0.00385682,0.38212
5320800,1,-1.53314,-0.498972,0.020474,-2.06943,1.58098,1.6304,0.787542,-1.52914,-0.49763,0.0243063,-2.06533,1.58206,1.63407,0.788302,0.85814,0.584655,0.474055,0.621671,0.220882,1.35673,0.0659037,0.942292,0.61433,0.546506,0.682374,0.234496,1.43612,0.0587627,11.2491,-4.50412,16.6303,22.8601,0.423296,-1.00412,0.401194,1.39669,-0.446341,2.66318,2.82474,0.309629,-0.00970863,0.379558
5320801,1,-1.53224,-0.498367,0.0209794,-2.06877,1.58121,1.63184,0.787602,-1.52819,-0.497008,0.0248583,-2.06464,1.5823,1.63553,0.788361,0.890459,0.588386,0.481576,0.630188,0.222056,1.37322,0.0660798,0.951706,0.62182,0.55203,0.69054,0.23617,1.4508,0.0592467,11.1737,-4.47635,16.4796,22.9077,0.423296,-1.0618,0.479014,1.47718,-0.47092,2.7703,2.85285,0.30647,-0.0220614,0.376924
5320802,1,-1.53132,-0.497767,0.0215043,-2.0681,1.58143,1.63327,0.787681,-1.52723,-0.496379,0.0254159,-2.06394,1.58254,1.63699,0.788421,0.901669,0.604888,0.494414,0.644356,0.222049,1.39911,0.0691297,0.961119,0.62931,0.557554,0.698705,0.237843,1.46549,0.0597307,11.0745,-4.37717,16.178,22.8839,0.451677,-1.08744,0.349924,1.53543,-0.51854,2.84935,2.89908,0.304581,-0.0309908,0.374569
5320803,1,-1.53037,-0.497137,0.0220112,-2.06743,1.58168,1.63473,0.78775,-1.52626,-0.495742,0.025979,-2.06323,1.58277,1.63847,0.788481,0.913561,0.611468,0.503121,0.642865,0.230079,1.40986,0.071658,0.970533,0.6368,0.563078,0.70687,0.239516,1.48018,0.0602147,10.6699,-4.42477,16.0233,22.761,0.383928,-1.01694,0.323374,1.5679,-0.585168,2.89416,2.95753,0.30392,-0.0360926,0.372724
5320804,1,-1.52941,-0.496503,0.0225446,-2.06674,1.58193,1.63618,0.787828,-1.52528,-0.495098,0.0265471,-2.06252,1.58302,1.63996,0.788542,0.934241,0.616758,0.509044,0.652921,0.240623,1.41596,0.0718902,0.978924,0.64429,0.568171,0.714862,0.240749,1.49357,0.060572,10.0629,-4.47635,15.8488,22.634,0.282305,-0.75327,0.226328,1.57753,-0.664989,2.90818,3.02563,0.304244,-0.0376929,0.37137
5320805,1,-1.52845,-0.495871,0.0230838,-2.06605,1.58217,1.63762,0.787899,-1.52429,-0.494446,0.0271204,-2.06179,1.58326,1.64147,0.788603,0.934705,0.623034,0.52482,0.668982,0.243039,1.42776,0.0744611,0.987316,0.65178,0.573265,0.722853,0.241982,1.50697,0.0609292,9.9637,-4.50412,15.6187,22.4118,0.236528,-0.649816,0.187876,1.56647,-0.73915,2.89476,3.09202,0.304965,-0.0357469,0.370371
5320806,1,-1.52748,-0.495217,0.0236293,-2.06534,1.5824,1.63913,0.787953,-1.5233,-0.493787,0.0276988,-2.06106,1.5835,1.64299,0.788664,0.935121,0.631726,0.530381,0.679398,0.235755,1.43916,0.0662061,0.995707,0.65927,0.578358,0.730844,0.243215,1.52036,0.0612865,9.93989,-4.6033,15.4917,22.1619,0.310686,-0.720311,0.278513,1.54221,-0.794297,2.86364,3.14558,0.305433,-0.0310338,0.369555
5320807,1,-1.52651,-0.494574,0.0241916,-2.06461,1.58265,1.64062,0.788007,-1.52229,-0.49312,0.0282822,-2.06032,1.58375,1.64453,0.788725,0.949623,0.635891,0.535825,0.695714,0.243493,1.45851,0.0601853,1.0041,0.66676,0.583451,0.738836,0.244447,1.53375,0.0616437,9.88832,-4.47635,15.3409,21.8882,0.293291,-0.72672,0.381968,1.51447,-0.825678,2.82851,3.18109,0.305165,-0.0248434,0.368786
5320808,1,-1.5255,-0.493939,0.0247482,-2.0639,1.58292,1.64212,0.788071,-1.52128,-0.492446,0.0288708,-2.05958,1.58399,1.64607,0.788787,0.960301,0.637026,0.54301,0.692781,0.254666,1.4646,0.0643874,1.01249,0.67425,0.588544,0.746827,0.24568,1.54714,0.062001,9.61061,-4.19864,15.1902,21.7652,0.118425,-0.520726,0.381968,1.48573,-0.828659,2.79416,3.19714,0.303979,-0.0175168,0.36806
5320809,1,-1.5245,-0.493301,0.0253061,-2.06317,1.58319,1.64365,0.788138,-1.52026,-0.491764,0.0294644,-2.05882,1.58424,1.64763,0.78885,0.974177,0.635472,0.545883,0.698178,0.256278,1.47788,0.0689953,1.02088,0.68174,0.593638,0.754819,0.246913,1.56053,0.0623582,9.28132,-3.84555,15.087,21.666,0.078142,-0.424596,0.337107,1.4549,-0.800012,2.75992,3.19738,0.301912,-0.00879187,0.367463
5320810,1,-1.52348,-0.492659,0.0258603,-2.06242,1.58343,1.64519,0.7882,-1.51923,-0.491075,0.0300631,-2.05806,1.58449,1.64921,0.788913,0.981264,0.637127,0.543819,0.716573,0.25607,1.49161,0.0666706,1.02927,0.68923,0.598731,0.76281,0.248145,1.57392,0.0627155,9.10676,-3.51627,15.087,21.5152,0.118425,-0.560094,0.316965,1.42545,-0.732142,2.73194,3.17938,0.298607,0.000969278,0.367075
5320811,1,-1.52246,-0.491984,0.0264476,-2.06168,1.58368,1.64678,0.788261,-1.51819,-0.490378,0.030667,-2.05729,1.58474,1.65079,0.788976,0.986693,0.647697,0.559194,0.727953,0.249322,1.51671,0.0695848,1.03766,0.69672,0.603824,0.770801,0.249378,1.58731,0.0630728,9.20594,-3.46469,14.7855,21.4914,0.214556,-0.798131,0.316965,1.40124,-0.624141,2.71592,3.1383,0.293757,0.0110426,0.366919
5320812,1,-1.52144,-0.491293,0.0270234,-2.06092,1.58393,1.64834,0.788314,-1.51715,-0.489674,0.0312759,-2.05651,1.58499,1.6524,0.789039,1.00287,0.663956,0.564351,0.73501,0.255683,1.53269,0.0643829,1.04606,0.70421,0.608917,0.778793,0.250611,1.6007,0.06343,9.10676,-3.64322,14.734,21.5152,0.270403,-0.90067,0.36915,1.37865,-0.501737,2.70518,3.08472,0.287959,0.0212701,0.36694
5320813,1,-1.52039,-0.490597,0.0275983,-2.06017,1.58419,1.64992,0.788375,-1.51609,-0.488962,0.0318899,-2.05572,1.58524,1.65401,0.789103,1.01499,0.678274,0.566421,0.745588,0.257775,1.54127,0.0673984,1.05445,0.7117,0.614011,0.786784,0.251843,1.61409,0.0637873,8.90443,-3.89713,14.7855,21.6422,0.276811,-0.894261,0.36915,1.35359,-0.3991,2.6934,3.03591,0.282002,0.031466,0.36708
5320814,1,-1.51935,-0.489893,0.0281968,-2.0594,1.58447,1.65151,0.788439,-1.51503,-0.488243,0.0325085,-2.05493,1.58549,1.65564,0.789167,1.01623,0.684945,0.570292,0.746121,0.258253,1.54729,0.0653861,1.06176,0.71919,0.618665,0.794616,0.25263,1.62612,0.063974,8.95601,-4.09946,14.6824,21.9159,0.186174,-0.785314,0.356333,1.32927,-0.331808,2.68525,3.00151,0.276197,0.0407504,0.367329
5320815,1,-1.5183,-0.489193,0.0287869,-2.05863,1.58472,1.65314,0.788491,-1.51396,-0.487517,0.0331319,-2.05413,1.58574,1.65727,0.789231,1.02398,0.680803,0.592389,0.75652,0.258594,1.57571,0.0657373,1.06907,0.72668,0.623319,0.802448,0.253416,1.63815,0.0641608,9.15437,-4.19864,14.607,22.2373,0.220049,-1.13962,0.42042,1.30606,-0.285884,2.67961,2.97849,0.270693,0.0490187,0.367705
5320816,1,-1.51724,-0.488475,0.0293919,-2.05785,1.58497,1.65481,0.788567,-1.51289,-0.486782,0.0337598,-2.05332,1.586,1.65892,0.789295,1.03068,0.686894,0.593614,0.760428,0.256543,1.59666,0.0695971,1.07638,0.73417,0.627973,0.810279,0.254203,1.65017,0.0643476,9.3329,-4.3494,14.5316,22.4872,0.304277,-1.49393,0.259287,1.27949,-0.235736,2.66803,2.95701,0.265559,0.0568305,0.368241
5320817,1,-1.51617,-0.487748,0.0300019,-2.05707,1.58524,1.65641,0.788638,-1.5118,-0.486041,0.0343925,-2.0525,1.58625,1.66059,0.78936,1.03713,0.697318,0.59419,0.760501,0.260568,1.59536,0.0708249,1.0837,0.74166,0.632627,0.818111,0.254989,1.6622,0.0645343,9.3329,-4.42477,14.4562,22.761,0.253923,-1.28702,0.135691,1.25366,-0.181984,2.65614,2.93944,0.260741,0.0631988,0.368892
5320818,1,-1.51509,-0.48702,0.0305924,-2.05628,1.5855,1.65803,0.788707,-1.51071,-0.485292,0.0350297,-2.05167,1.58651,1.66226,0.789425,1.04649,0.704806,0.597864,0.757317,0.259304,1.59693,0.0682915,1.09101,0.74915,0.637281,0.825943,0.255776,1.67422,0.0647211,9.30909,-4.50412,14.5316,22.7848,0.316179,-1.02335,0.09083,1.23516,-0.144638,2.65379,2.93889,0.256319,0.0668729,0.369436
5320819,1,-1.51404,-0.486262,0.0311868,-2.05546,1.58575,1.6597,0.788787,-1.50961,-0.484535,0.0356717,-2.05084,1.58677,1.66395,0.789489,1.06823,0.719487,0.591847,0.777279,0.256848,1.60818,0.0694535,1.09832,0.75664,0.641936,0.833774,0.256562,1.68625,0.0649078,9.53523,-4.80563,14.6586,22.511,0.417803,-1.05539,-0.0318506,1.22382,-0.133395,2.66193,2.95922,0.252331,0.0679865,0.369592
5320820,1,-1.51298,-0.485504,0.0317926,-2.05462,1.586,1.66138,0.788851,-1.50851,-0.483771,0.0363183,-2.05,1.58702,1.66564,0.789555,1.05734,0.745425,0.59531,0.798359,0.258686,1.63543,0.0695309,1.10563,0.76413,0.64659,0.841606,0.257349,1.69827,0.0650946,10.0153,-5.08334,14.6308,22.1143,0.428789,-1.28061,-0.0126246,1.22379,-0.155096,2.68727,2.99407,0.248502,0.066093,0.369114
5320821,1,-1.51189,-0.484745,0.0323897,-2.05379,1.58626,1.66307,0.788931,-1.50739,-0.482999,0.0369695,-2.04915,1.58728,1.66735,0.78962,1.0607,0.756138,0.598477,0.809966,0.254225,1.64328,0.0735049,1.11294,0.77162,0.651244,0.849438,0.258135,1.7103,0.0652814,10.1383,-5.2103,14.7578,21.789,0.327165,-1.24216,-0.0712183,1.24443,-0.218362,2.74089,3.03853,0.244659,0.0598767,0.367793
5320822,1,-1.5108,-0.483974,0.0329989,-2.05294,1.58653,1.66477,0.789019,-1.50627,-0.48222,0.0376254,-2.04829,1.58754,1.66908,0.789685,1.07212,0.756701,0.601063,0.816416,0.269737,1.65445,0.0770508,1.12026,0.77911,0.655898,0.857269,0.258921,1.72233,0.0654681,10.0629,-5.15872,14.9363,21.5668,0.180681,-1.17807,-0.149038,1.28541,-0.308919,2.82031,3.08572,0.240784,0.0497056,0.365506
5320823,1,-1.50972,-0.483219,0.033611,-2.05209,1.58681,1.66645,0.789089,-1.50515,-0.481433,0.038286,-2.04742,1.5878,1.67081,0.789751,1.06808,0.755807,0.608602,0.814767,0.277307,1.66282,0.0786185,1.12757,0.7866,0.660552,0.865101,0.259708,1.73435,0.0656549,10.2652,-5.00797,14.9363,21.3446,0.0506761,-0.965673,-0.0904444,1.33972,-0.395936,2.91508,3.12692,0.236728,0.0371961,0.36216
5320824,1,-1.50863,-0.482443,0.0342536,-2.05122,1.58708,1.6682,0.789163,-1.50401,-0.480639,0.0389507,-2.04655,1.58806,1.67256,0.789817,1.06907,0.758737,0.614867,0.828154,0.275291,1.68062,0.0790053,1.13377,0.79409,0.664763,0.87276,0.260052,1.74497,0.0656631,10.6699,-4.90482,14.7578,21.1185,0.00489977,-1.00412,-0.00621587,1.40448,-0.457462,3.01997,3.1563,0.232228,0.0233238,0.357721
5320825,1,-1.50755,-0.481659,0.0348829,-2.05034,1.58734,1.66993,0.789224,-1.50287,-0.479838,0.0396197,-2.04567,1.58832,1.67431,0.789882,1.07464,0.767286,0.616213,0.852424,0.275679,1.70077,0.071016,1.13997,0.80158,0.668974,0.880418,0.260395,1.75559,0.0656714,10.7453,-4.85721,14.734,20.8963,0.027788,-0.997716,0.187876,1.47896,-0.481086,3.13345,3.16425,0.226831,0.0085577,0.352363
5320826,1,-1.50641,-0.480874,0.0355097,-2.04947,1.5876,1.6717,0.789275,-1.50173,-0.479029,0.0402929,-2.04478,1.58858,1.67608,0.789948,1.08489,0.773636,0.622525,0.859371,0.270517,1.72281,0.0673377,1.14617,0.80907,0.673185,0.888077,0.260739,1.76621,0.0656796,10.3684,-4.85721,14.734,20.8448,0.0726488,-1.0618,0.466196,1.5603,-0.465926,3.25176,3.14453,0.220286,-0.00656569,0.346464
5320827,1,-1.50527,-0.480078,0.0361668,-2.04858,1.58788,1.67348,0.789336,-1.50057,-0.478212,0.0409703,-2.04389,1.58884,1.67786,0.790014,1.10655,0.779306,0.632229,0.864845,0.275884,1.72905,0.0614244,1.15237,0.81656,0.677396,0.895736,0.261083,1.77683,0.0656878,9.78517,-4.85721,14.48,20.821,0.00489977,-1.00412,0.588877,1.63752,-0.423044,3.35996,3.10423,0.213081,-0.0204434,0.34058
5320828,1,-1.50411,-0.479287,0.0368333,-2.04768,1.58815,1.67524,0.789382,-1.49942,-0.477388,0.0416519,-2.04298,1.5891,1.67964,0.790079,1.12138,0.782904,0.645148,0.871159,0.272312,1.73867,0.0561902,1.15857,0.82405,0.681607,0.903394,0.261427,1.78745,0.0656961,9.25752,-4.73026,14,20.8448,0.0103929,-0.913488,0.744517,1.69378,-0.361865,3.43545,3.05311,0.205991,-0.0306035,0.335396
5320829,1,-1.50296,-0.478491,0.0375246,-2.04678,1.5884,1.67702,0.789439,-1.49825,-0.476557,0.0423377,-2.04207,1.58937,1.68144,0.790145,1.12131,0.786483,0.659596,0.879515,0.265949,1.74486,0.051814,1.16477,0.83154,0.685819,0.911053,0.261771,1.79807,0.0657043,8.97981,-4.47635,13.4406,20.9439,0.112016,-0.772496,0.770151,1.72045,-0.28405,3.46654,2.99501,0.199427,-0.0357786,0.331552
5320830,1,-1.50183,-0.477679,0.0382239,-2.04587,1.58866,1.67877,0.789496,-1.49708,-0.475718,0.0430277,-2.04115,1.58963,1.68325,0.790211,1.12782,0.790548,0.669926,0.885649,0.268804,1.73315,0.0560112,1.17097,0.83903,0.69003,0.918711,0.262115,1.80869,0.0657125,8.85286,-4.27402,12.7344,21.0193,0.157793,-0.482274,0.718882,1.71979,-0.189558,3.45621,2.93137,0.193426,-0.0361444,0.329507
5320831,1,-1.50066,-0.476867,0.0389066,-2.04496,1.58895,1.68055,0.789543,-1.4959,-0.474871,0.043722,-2.04023,1.58989,1.68507,0.790276,1.13582,0.796438,0.678038,0.884388,0.270059,1.73367,0.0520907,1.17718,0.84652,0.694241,0.92637,0.262458,1.81932,0.0657208,8.62672,-4.27402,12.3774,21.0947,0.0900438,-0.160009,0.712473,1.6965,-0.0849488,3.41148,2.86782,0.18802,-0.0320035,0.329429
5320832,1,-1.49948,-0.476027,0.0396047,-2.04404,1.58924,1.68236,0.789595,-1.49472,-0.474017,0.0444204,-2.03929,1.59015,1.6869,0.790342,1.15357,0.810637,0.681779,0.891593,0.276341,1.74733,0.0513926,1.18338,0.85401,0.698452,0.934029,0.262802,1.82994,0.065729,8.01973,-4.40097,12.2028,21.2177,0.00489977,-0.0510608,0.641062,1.65479,0.012295,3.33928,2.81501,0.183364,-0.0236519,0.331196
5320833,1,-1.49829,-0.475188,0.0402948,-2.0431,1.58953,1.68417,0.789645,-1.49353,-0.473155,0.0451231,-2.03835,1.59042,1.68874,0.790408,1.16372,0.823711,0.699433,0.904211,0.277417,1.76416,0.0498913,1.18958,0.8615,0.702663,0.941687,0.263146,1.84056,0.0657373,7.66664,-4.5795,12.1235,21.2693,-0.114119,-0.140783,0.588877,1.59536,0.0842235,3.2415,2.77936,0.17955,-0.011105,0.334548
5320834,1,-1.49711,-0.474327,0.041015,-2.04218,1.5898,1.68603,0.789703,-1.49233,-0.472286,0.0458295,-2.0374,1.59068,1.69059,0.790474,1.16129,0.829602,0.700096,0.909246,0.275408,1.78514,0.0529996,1.19466,0.86899,0.706429,0.949162,0.263057,1.84975,0.0655616,7.69441,-4.78183,11.9727,21.4676,-0.0518629,-0.450231,0.42042,1.52225,0.127316,3.12412,2.75918,0.176323,0.00493503,0.339145
5320835,1,-1.49594,-0.473461,0.0417394,-2.04124,1.59007,1.68786,0.789774,-1.49113,-0.47141,0.0465397,-2.03645,1.59094,1.69245,0.790539,1.16788,0.837268,0.699905,0.907,0.271884,1.832,0.0625773,1.19974,0.87648,0.710195,0.956636,0.262968,1.85894,0.065386,7.84517,-5.00797,11.822,21.5906,-0.0344679,-0.681859,0.162241,1.45145,0.145251,3.0104,2.75388,0.173102,0.0215519,0.344512
5320836,1,-1.49474,-0.472603,0.0424586,-2.04031,1.59034,1.68972,0.789856,-1.48993,-0.470526,0.0472537,-2.03548,1.5912,1.69432,0.790604,1.16539,0.841769,0.701026,0.901606,0.267017,1.84664,0.0715234,1.20481,0.88397,0.713961,0.964111,0.262879,1.86814,0.0652104,7.81739,-5.10715,11.6434,21.666,0.0442674,-0.791722,-0.135305,1.39868,0.137176,2.92313,2.7688,0.169557,0.035506,0.350001
5320837,1,-1.49352,-0.471737,0.043173,-2.03935,1.59062,1.6916,0.789928,-1.48872,-0.469635,0.0479714,-2.03451,1.59147,1.69619,0.790669,1.20964,0.848058,0.694004,0.916147,0.268104,1.8461,0.0717909,1.20989,0.89146,0.717727,0.971585,0.262791,1.87733,0.0650347,7.51588,-5.05954,11.6196,21.666,-0.000593394,-0.959264,-0.290945,1.36225,0.110121,2.86187,2.80191,0.165646,0.0464871,0.354853
5320838,1,-1.4923,-0.470873,0.0439042,-2.03838,1.59088,1.69351,0.790007,-1.48751,-0.468736,0.0486929,-2.03353,1.59173,1.69808,0.790734,1.20473,0.870757,0.70402,0.928519,0.264726,1.87303,0.0752046,1.21497,0.89895,0.721494,0.97906,0.262702,1.88653,0.0648591,7.36512,-4.95639,11.4173,21.5668,0.0671556,-1.55802,-0.400808,1.32963,0.0692651,2.81145,2.84454,0.16145,0.0559187,0.358322
5320839,1,-1.49107,-0.469987,0.0446098,-2.03741,1.59115,1.69541,0.790068,-1.48629,-0.467829,0.0494182,-2.03254,1.59199,1.69998,0.790799,1.21188,0.881808,0.709459,0.94438,0.26119,1.87605,0.0697289,1.22005,0.90644,0.72526,0.986534,0.262613,1.89572,0.0646834,7.26594,-4.90482,11.4173,21.3169,0.1523,-1.72556,-0.290945,1.29741,0.00591199,2.76551,2.89344,0.157141,0.0634754,0.3598
5320840,1,-1.48987,-0.469088,0.0453207,-2.03641,1.59141,1.6973,0.790128,-1.48506,-0.466915,0.0501472,-2.03155,1.59226,1.70188,0.790863,1.20826,0.884761,0.708652,0.957497,0.265068,1.87367,0.067259,1.22513,0.91393,0.729026,0.994009,0.262524,1.90492,0.0645078,7.34132,-4.93259,11.4689,20.9201,0.282305,-1.51957,-0.0648096,1.27035,-0.0700798,2.72886,2.94005,0.152574,0.0677121,0.358997
5320841,1,-1.48867,-0.468199,0.0460213,-2.03544,1.59167,1.69913,0.790197,-1.48383,-0.465994,0.05088,-2.03055,1.59252,1.70379,0.790928,1.2015,0.889385,0.704494,0.980923,0.263466,1.85453,0.0646161,1.23021,0.92142,0.732792,1.00148,0.262435,1.91411,0.0643322,7.76979,-4.90482,11.6196,20.7694,0.332659,-0.933629,0.0844213,1.2576,-0.127394,2.71462,2.9666,0.147185,0.0672449,0.356086
5320842,1,-1.48747,-0.467303,0.0467294,-2.03445,1.59195,1.70101,0.790257,-1.48259,-0.465065,0.0516165,-2.02954,1.59278,1.70572,0.790992,1.18921,0.882981,0.706504,0.980701,0.261799,1.84916,0.059001,1.23529,0.92891,0.736559,1.00896,0.262346,1.9233,0.0641565,8.24983,-4.75406,11.7982,20.7456,0.270403,-0.643407,0.323374,1.2698,-0.139482,2.73734,2.96055,0.140618,0.0613183,0.351627
5320843,1,-1.48626,-0.466394,0.0474423,-2.03346,1.59223,1.70289,0.790329,-1.48135,-0.464129,0.0523569,-2.02852,1.59304,1.70765,0.791056,1.19885,0.889295,0.70315,0.979077,0.266666,1.85764,0.0565587,1.24037,0.9364,0.740325,1.01643,0.262257,1.9325,0.0639809,8.47596,-4.62711,12.0759,21.0193,0.0387743,-0.546361,0.42042,1.30957,-0.102686,2.79924,2.92765,0.133247,0.0507667,0.346321
5320844,1,-1.48503,-0.46548,0.0481474,-2.03248,1.59252,1.70482,0.790395,-1.48011,-0.463185,0.0531005,-2.0275,1.5933,1.70959,0.791119,1.19851,0.89906,0.699799,0.98129,0.279165,1.87872,0.058073,1.24433,0.94389,0.743646,1.02371,0.261751,1.94026,0.0636174,8.49977,-4.70645,12.2782,21.3922,-0.215742,-0.694677,0.537607,1.37403,-0.0413837,2.8954,2.88729,0.125621,0.0369182,0.340858
5320845,1,-1.48382,-0.464531,0.0488692,-2.03148,1.59282,1.70677,0.790461,-1.47886,-0.462233,0.0538475,-2.02647,1.59357,1.71154,0.791183,1.20506,0.907863,0.699456,0.978565,0.286545,1.89635,0.0610442,1.2483,0.95138,0.746968,1.03099,0.261245,1.94803,0.0632539,8.7259,-5.00797,12.4528,21.666,-0.418989,-0.810948,0.608103,1.46049,0.0142193,3.02144,2.85743,0.117846,0.0205581,0.335832
5320846,1,-1.48259,-0.463593,0.0495822,-2.03047,1.59309,1.70869,0.790537,-1.47761,-0.461274,0.0545978,-2.02543,1.59383,1.71349,0.791245,1.2005,0.916543,0.701807,0.989932,0.276539,1.89833,0.0642595,1.25226,0.95887,0.750289,1.03828,0.260739,1.95579,0.0628903,8.85286,-5.26187,12.5797,22.0151,-0.340254,-0.817357,0.518381,1.56451,0.0494882,3.17031,2.84577,0.109675,0.00242986,0.331742
5320847,1,-1.48136,-0.462634,0.0503145,-2.02945,1.59335,1.71063,0.790603,-1.47635,-0.460308,0.0553514,-2.02439,1.59409,1.71546,0.791308,1.2047,0.935656,0.711036,0.996494,0.272665,1.90231,0.0638989,1.25623,0.96636,0.753611,1.04556,0.260233,1.96356,0.0625268,9.00361,-5.41263,12.5559,21.9397,-0.221235,-0.746862,0.49824,1.6781,0.0567414,3.32946,2.85311,0.100941,-0.0163007,0.328939
5320848,1,-1.48014,-0.461675,0.0510565,-2.02841,1.5936,1.71256,0.790666,-1.47509,-0.459334,0.0561083,-2.02333,1.59435,1.71743,0.79137,1.20812,0.94777,0.720291,1.00836,0.261368,1.94742,0.06449,1.26019,0.97385,0.756932,1.05284,0.259726,1.97132,0.0621633,8.92823,-5.43643,12.4052,21.7414,0.0158861,-0.688268,0.440561,1.79095,0.0256949,3.4828,2.88077,0.0919695,-0.0344299,0.327487
5320849,1,-1.47885,-0.460723,0.0517875,-2.02736,1.59386,1.71452,0.790733,-1.47383,-0.458353,0.0568686,-2.02227,1.59461,1.71941,0.791432,1.22927,0.951566,0.728035,1.02397,0.257149,1.95544,0.0659474,1.26415,0.98134,0.760254,1.06012,0.25922,1.97909,0.0617997,8.17048,-5.43643,12.2028,21.2931,0.163286,-0.636998,0.349924,1.89071,-0.0327942,3.61302,2.92014,0.0832984,-0.0504926,0.327261
5320850,1,-1.47758,-0.459746,0.0525542,-2.02629,1.59414,1.71649,0.790793,-1.47256,-0.457364,0.0576321,-2.02121,1.59486,1.7214,0.791493,1.23566,0.958299,0.735313,1.03451,0.259435,1.95387,0.0602936,1.26812,0.98883,0.763575,1.0674,0.258714,1.98685,0.0614362,7.4405,-5.4642,11.695,20.821,0.168779,-0.527135,0.304148,1.96509,-0.0894915,3.70507,2.9544,0.0753316,-0.0624601,0.328039
5320851,1,-1.47631,-0.458782,0.0533326,-2.02521,1.59441,1.71843,0.790864,-1.47129,-0.456368,0.058399,-2.02013,1.59512,1.72339,0.791554,1.24641,0.961248,0.76564,1.04355,0.260601,1.95439,0.0650149,1.27208,0.99632,0.766897,1.07468,0.258208,1.99462,0.0610727,7.13899,-5.38882,10.9373,20.4718,0.0616625,-0.437413,0.143015,2.0015,-0.125061,3.74266,2.97419,0.0686348,-0.0680574,0.329513
5320852,1,-1.47503,-0.457801,0.0541113,-2.02413,1.59469,1.72042,0.790928,-1.47001,-0.455364,0.0591693,-2.01905,1.59538,1.72539,0.791615,1.24762,0.962062,0.768556,1.05855,0.267372,1.95604,0.064964,1.27605,1.00381,0.770218,1.08196,0.257702,2.00238,0.0607092,6.91285,-5.2103,10.481,20.1743,-0.10771,-0.359594,0.0651953,1.99247,-0.12518,3.7156,2.97294,0.0635324,-0.0659531,0.331308
5320853,1,-1.47377,-0.45679,0.054887,-2.02304,1.59497,1.7224,0.790991,-1.46873,-0.454353,0.0599428,-2.01796,1.59564,1.7274,0.791675,1.25608,0.979138,0.768795,1.05869,0.272464,1.94979,0.0676626,1.28001,1.0113,0.77354,1.08924,0.257195,2.01015,0.0603456,6.73433,-5.38882,10.1993,19.9997,-0.277998,-0.134374,0.0459692,1.94933,-0.0936778,3.64116,2.95245,0.0595152,-0.0576605,0.332967
