shamilmamedov/beam_handling/data/param_estimation_ICRA/ocp_Xdown_25cm_0.44s_6.csv
duration, success rate, q[0], q[1], q[2], q[3], q[4], q[5], q[6],q_d[0], q_d[1], q_d[2], q_d[3], q_d[4], q_d[5], q_d[6],dq[0], dq[1], dq[2], dq[3], dq[4], dq[5], dq[6],dq_d[0], dq_d[1], dq_d[2], dq_d[3], dq_d[4], dq_d[5], dq_d[6],tau_J[0], tau_J[1], tau_J[2], tau_J[3], tau_J[4], tau_J[5], tau_J[6],tau_ext_hat_filtered[0], tau_ext_hat_filtered[1], tau_ext_hat_filtered[2], tau_ext_hat_filtered[3], tau_ext_hat_filtered[4], tau_ext_hat_filtered[5], tau_ext_hat_filtered[6]
2999015,0,-1.571,-0.522771,-0.000695805,-2.09594,-1.57087,1.57158,0.785785,-1.5708,-0.523599,-4.03174e-08,-2.0944,-1.5708,1.5708,0.785399,0.000198592,-0.000140824,0.000760292,0.00325989,0.000375751,8.299e-05,-0.00136322,0,0,0,0,0,0,0,0.176403,-10.2924,1.03491,21.0193,-0.741255,-0.604955,-0.161856,0.192811,-1.14601,0.886966,2.45615,-0.165108,-0.601689,-0.244478
2999016,1,-1.571,-0.522771,-0.000695805,-2.09594,-1.57087,1.57158,0.785787,-1.5708,-0.523599,-4.03174e-08,-2.0944,-1.5708,1.5708,0.785399,0.000132394,-9.38826e-05,0.000506861,0.00423478,-0.0001564,-0.000182032,-0.000434094,0,0,0,0,0,0,0,0.176403,-10.2924,1.03491,20.9439,-0.730269,-0.598546,-0.174673,0.192013,-1.13772,0.885535,2.44709,-0.164773,-0.60178,-0.244514
2999017,1,-1.571,-0.522773,-0.000697754,-2.09594,-1.57087,1.57158,0.785788,-1.5708,-0.523599,-4.03174e-08,-2.0944,-1.5708,1.5708,0.785399,-0.00111816,-0.000712202,-0.000311706,0.00184048,-0.000545076,0.000116004,0.000185322,0,0,0,0,0,0,0,0.227978,-10.2646,1.06269,20.9955,-0.718367,-0.604955,-0.18749,0.191378,-1.12995,0.8843,2.43933,-0.164503,-0.601833,-0.244498
2999018,1,-1.571,-0.522773,-0.000694135,-2.09594,-1.57087,1.57158,0.785791,-1.5708,-0.523599,-4.03174e-08,-2.0944,-1.5708,1.5708,0.785399,-9.5828e-05,-0.000474802,0.000998622,0.00139477,0.000280876,-0.000160023,0.00107298,0,0,0,0,0,0,0,0.200207,-10.2646,1.01111,20.9955,-0.735762,-0.598546,-0.213125,0.191391,-1.12369,0.883946,2.43395,-0.164323,-0.601786,-0.24441
2999019,1,-1.571,-0.522768,-0.000695805,-2.09594,-1.57087,1.57158,0.78579,-1.5708,-0.523599,-4.03174e-08,-2.0944,-1.5708,1.5708,0.785399,-6.38853e-05,0.0014467,0.000108936,0.000498877,-1.62e-05,-0.000106682,0.000240605,0,0,0,0,0,0,0,0.200207,-10.34,1.03491,21.0193,-0.730269,-0.598546,-0.200308,0.191311,-1.12144,0.88346,2.43228,-0.164295,-0.601779,-0.244268
2999020,1,-1.571,-0.522771,-0.000695805,-2.09594,-1.57087,1.57158,0.785787,-1.5708,-0.523599,-4.03174e-08,-2.0944,-1.5708,1.5708,0.785399,-4.25902e-05,-0.000149155,7.26238e-05,0.00154059,-0.000214251,0.000166238,-0.000551674,0,0,0,0,0,0,0,0.200207,-10.2924,1.03491,20.9717,-0.724776,-0.604955,-0.181082,0.191062,-1.12386,0.882818,2.43404,-0.164401,-0.601837,-0.24411
2999021,1,-1.571,-0.522771,-0.000697754,-2.09594,-1.57087,1.57158,0.78579,-1.5708,-0.523599,-4.03174e-08,-2.0944,-1.5708,1.5708,0.785399,0.000528418,-9.94366e-05,-0.000601198,0.000541033,6.06168e-05,-0.000126534,0.000581653,0,0,0,0,0,0,0,0.176403,-10.2924,1.06269,20.9955,-0.730269,-0.598546,-0.206716,0.191072,-1.12781,0.882635,2.43716,-0.164544,-0.60186,-0.243959
2999022,1,-1.571,-0.522773,-0.000695805,-2.09594,-1.57087,1.57158,0.785786,-1.5708,-0.523599,-4.03174e-08,-2.0944,-1.5708,1.5708,0.785399,0.00100189,-0.000715905,0.000248815,-0.000143035,4.04112e-05,-8.43559e-05,-0.00103638,0,0,0,0,0,0,0,0.148632,-10.2646,1.03491,21.0193,-0.730269,-0.598546,-0.168264,0.191034,-1.13135,0.882489,2.44073,-0.164699,-0.601869,-0.243816
2999023,1,-1.571,-0.522769,-0.000697754,-2.09594,-1.57087,1.57158,0.785791,-1.5708,-0.523599,-4.03174e-08,-2.0944,-1.5708,1.5708,0.785399,1.83147e-05,0.000729156,-0.000483737,-5.55397e-05,-0.00017651,0.000418481,0.000970589,0,0,0,0,0,0,0,0.176403,-10.3162,1.06269,21.0193,-0.724776,-0.611364,-0.213125,0.190724,-1.13538,0.882079,2.44516,-0.164889,-0.601905,-0.243673
2999024,1,-1.571,-0.522773,-0.000697754,-2.09594,-1.57087,1.57158,0.785789,-1.5708,-0.523599,-4.03174e-08,-2.0944,-1.5708,1.5708,0.785399,1.22098e-05,-0.000720322,-0.000322491,-7.16394e-06,-0.000355032,-0.000195731,-6.50172e-05,0,0,0,0,0,0,0,0.176403,-10.2646,1.06269,21.0193,-0.718367,-0.598546,-0.193899,0.190684,-1.14017,0.882155,2.45022,-0.165086,-0.601899,-0.243524
2999025,1,-1.571,-0.522771,-0.000694135,-2.09594,-1.57087,1.57158,0.785793,-1.5708,-0.523599,-4.03174e-08,-2.0944,-1.5708,1.5708,0.785399,8.13985e-06,-0.000480215,0.000991432,0.000574433,0.000611022,0.000106872,0.00138081,0,0,0,0,0,0,0,0.176403,-10.2646,1.01111,20.9955,-0.741255,-0.604955,-0.232351,0.190764,-1.14388,0.882368,2.45467,-0.165245,-0.60186,-0.243386
2999026,1,-1.571,-0.522772,-0.000701095,-2.09594,-1.57087,1.57158,0.785792,-1.5708,-0.523599,-4.03174e-08,-2.0944,-1.5708,1.5708,0.785399,-0.000551385,-0.000320143,-0.0016591,-0.000157059,4.4726e-07,-0.00040347,0.000445821,0,0,0,0,0,0,0,0.200207,-10.2646,1.11029,21.0193,-0.730269,-0.592137,-0.219534,0.190995,-1.14597,0.882735,2.4581,-0.165353,-0.601777,-0.243289
2999027,1,-1.571,-0.522771,-0.000695805,-2.09594,-1.57087,1.57158,0.785792,-1.5708,-0.523599,-4.03174e-08,-2.0944,-1.5708,1.5708,0.785399,0.000189222,0.000436185,0.000657174,-9.21078e-05,-0.000440511,0.000205738,0.000534573,0,0,0,0,0,0,0,0.176403,-10.2924,1.03491,21.0193,-0.718367,-0.604955,-0.225942,0.191817,-1.14824,0.884025,2.46145,-0.165437,-0.601603,-0.243254
2999028,1,-1.571,-0.522771,-0.000697754,-2.09594,-1.57087,1.57158,0.785787,-1.5708,-0.523599,-4.03174e-08,-2.0944,-1.5708,1.5708,0.785399,0.000126148,0.00029079,-0.000211498,0.000504855,-0.000293674,0.000611876,-0.00154249,0,0,0,0,0,0,0,0.176403,-10.2924,1.06269,20.9955,-0.718367,-0.617772,-0.174673,0.192344,-1.15159,0.88497,2.46501,-0.165526,-0.60149,-0.243299
2999029,1,-1.571,-0.522773,-0.000697754,-2.09594,-1.57087,1.57158,0.785789,-1.5708,-0.523599,-4.03174e-08,-2.0944,-1.5708,1.5708,0.785399,-0.00112233,-0.000455754,-0.000140999,-0.000769967,0.000448477,-6.68003e-05,-0.000316249,0,0,0,0,0,0,0,0.227978,-10.2646,1.06269,21.0431,-0.735762,-0.604955,-0.193899,0.192596,-1.1551,0.885505,2.4684,-0.165597,-0.601433,-0.243408
2999030,1,-1.571,-0.522771,-0.000699425,-2.09594,-1.57087,1.57158,0.785787,-1.5708,-0.523599,-4.03174e-08,-2.0944,-1.5708,1.5708,0.785399,-9.86043e-05,0.000345778,-0.000650811,4.88154e-05,9.55343e-05,0.000192825,-0.00092291,0,0,0,0,0,0,0,0.200207,-10.2924,1.08649,21.0193,-0.730269,-0.611364,-0.174673,0.193392,-1.15816,0.886778,2.47159,-0.165632,-0.601308,-0.243538
2999031,1,-1.571,-0.522775,-0.000697754,-2.09594,-1.57087,1.57158,0.785792,-1.5708,-0.523599,-4.03174e-08,-2.0944,-1.5708,1.5708,0.785399,-6.57362e-05,-0.000975907,0.000122938,0.000593342,-0.000139761,-0.000346168,0.0012836,0,0,0,0,0,0,0,0.200207,-10.2408,1.06269,20.9955,-0.724776,-0.598546,-0.225942,0.194344,-1.1601,0.888252,2.47402,-0.165632,-0.601172,-0.243651
2999032,1,-1.57099,-0.522771,-0.000695805,-2.09594,-1.57087,1.57158,0.785792,-1.5708,-0.523599,-4.03174e-08,-2.0944,-1.5708,1.5708,0.785399,0.00171941,0.000555821,0.000731573,0.000398551,0.000110277,6.58055e-06,0.000618373,0,0,0,0,0,0,0,0.124828,-10.2924,1.03491,20.9955,-0.730269,-0.604955,-0.219534,0.194248,-1.16048,0.888221,2.47518,-0.165616,-0.6012,-0.243745
2999033,1,-1.571,-0.522766,-0.000699425,-2.09594,-1.57087,1.57158,0.785792,-1.5708,-0.523599,-4.03174e-08,-2.0944,-1.5708,1.5708,0.785399,0.000589464,0.00213379,-0.000718711,0.00147437,7.35177e-05,0.000241746,0.000412249,0,0,0,0,0,0,0,0.148632,-10.3678,1.08649,20.9439,-0.730269,-0.611364,-0.219534,0.192792,-1.16206,0.886417,2.47622,-0.16563,-0.601462,-0.243842
2999034,1,-1.571,-0.522771,-0.000701095,-2.09594,-1.57087,1.57158,0.785788,-1.5708,-0.523599,-4.03174e-08,-2.0944,-1.5708,1.5708,0.785399,-0.00081345,-0.000340714,-0.00103595,-0.000221832,4.90118e-05,-0.000313554,-0.000911962,0,0,0,0,0,0,0,0.200207,-10.2924,1.11029,20.9955,-0.730269,-0.598546,-0.18749,0.191738,-1.16576,0.885452,2.47771,-0.165645,-0.601691,-0.24397
2999035,1,-1.571,-0.522769,-0.000697754,-2.09594,-1.57087,1.57158,0.785787,-1.5708,-0.523599,-4.03174e-08,-2.0944,-1.5708,1.5708,0.785399,-0.0005423,0.000329669,0.000422989,0.0010598,0.000236125,0.000503041,-0.00108269,0,0,0,0,0,0,0,0.200207,-10.3162,1.06269,20.9439,-0.735762,-0.617772,-0.174673,0.191964,-1.16868,0.886354,2.47875,-0.165615,-0.601715,-0.24413
2999036,1,-1.571,-0.522771,-0.000699885,-2.09594,-1.57087,1.57158,0.78579,-1.5708,-0.523599,-4.03174e-08,-2.0944,-1.5708,1.5708,0.785399,-0.000361533,-0.000337033,0.000281993,-0.00105576,-0.000249484,-0.000139357,0.000227641,0,0,0,0,0,0,0,0.200207,-10.2924,1.06269,21.0193,-0.724776,-0.604955,-0.200308,0.192346,-1.17003,0.887331,2.47922,-0.16558,-0.601701,-0.244288
2999037,1,-1.571,-0.522771,-0.000698464,-2.09594,-1.57087,1.57158,0.785789,-1.5708,-0.523599,-4.03174e-08,-2.0944,-1.5708,1.5708,0.785399,-0.000890636,-0.000874302,0.000187995,-0.000146318,3.71276e-05,-9.29049e-05,-8.55985e-05,0,0,0,0,0,0,0,0.227978,-10.2646,1.06269,20.9955,-0.730269,-0.604955,-0.193899,0.192501,-1.17016,0.887813,2.47957,-0.165571,-0.601716,-0.244411
2999038,1,-1.571,-0.52277,-0.000699661,-2.09594,-1.57087,1.57158,0.785791,-1.5708,-0.523599,-4.03174e-08,-2.0944,-1.5708,1.5708,0.785399,5.58565e-05,6.67457e-05,-0.000431482,-0.000653825,0.000228202,-0.000774013,0.000655011,0,0,0,0,0,0,0,0.200207,-10.2924,1.08649,21.0193,-0.735762,-0.585729,-0.213125,0.192839,-1.16924,0.888452,2.47981,-0.165572,-0.601697,-0.244498
2999039,1,-1.571,-0.522769,-0.000694214,-2.09594,-1.57087,1.57158,0.78579,-1.5708,-0.523599,-4.03174e-08,-2.0944,-1.5708,1.5708,0.785399,3.72377e-05,0.000601309,0.00147558,-0.000435484,-5.13157e-05,0.000196068,0.000199315,0,0,0,0,0,0,0,0.200207,-10.3162,1.01111,21.0193,-0.730269,-0.604955,-0.206716,0.192809,-1.16916,0.888524,2.48053,-0.165614,-0.601742,-0.24456
2999040,1,-1.571,-0.522771,-0.000695832,-2.09594,-1.57087,1.57158,0.78579,-1.5708,-0.523599,-4.03174e-08,-2.0944,-1.5708,1.5708,0.785399,2.48251e-05,-0.000155939,0.00042691,0.0008236,-0.000237661,-0.000106647,-0.000104482,0,0,0,0,0,0,0,0.200207,-10.2924,1.03491,20.9717,-0.724776,-0.598546,-0.200308,0.191759,-1.17011,0.887018,2.48146,-0.165699,-0.601949,-0.244618
2999041,1,-1.571,-0.522771,-0.000699433,-2.09594,-1.57087,1.57158,0.785787,-1.5708,-0.523599,-4.03174e-08,-2.0944,-1.5708,1.5708,0.785399,0.000573362,-0.000103959,-0.000921819,-0.000564333,-0.000158441,0.000166261,-0.00101909,0,0,0,0,0,0,0,0.176403,-10.2924,1.08649,21.0193,-0.724776,-0.604955,-0.174673,0.190552,-1.17043,0.885236,2.48167,-0.165759,-0.602167,-0.244687
2999042,1,-1.571,-0.522768,-0.000697757,-2.09594,-1.57087,1.57158,0.785787,-1.5708,-0.523599,-4.03174e-08,-2.0944,-1.5708,1.5708,0.785399,-0.000824185,0.00104432,-5.77341e-05,-0.000932865,9.78234e-05,0.000110841,-0.000679394,0,0,0,0,0,0,0,0.227978,-10.34,1.06269,21.0431,-0.730269,-0.604955,-0.174673,0.190207,-1.17137,0.884791,2.48226,-0.165797,-0.602249,-0.244749
2999043,1,-1.571,-0.522771,-0.000695806,-2.09594,-1.57087,1.57158,0.78579,-1.5708,-0.523599,-4.03174e-08,-2.0944,-1.5708,1.5708,0.785399,0.00065697,-0.000417412,0.000611125,0.00049184,-0.000138235,-0.000163465,0.000496507,0,0,0,0,0,0,0,0.176403,-10.2924,1.03491,20.9955,-0.724776,-0.598546,-0.200308,0.190239,-1.17346,0.884873,2.48353,-0.165842,-0.602282,-0.244771
2999044,1,-1.571,-0.522773,-0.000697755,-2.09594,-1.57087,1.57158,0.785796,-1.5708,-0.523599,-4.03174e-08,-2.0944,-1.5708,1.5708,0.785399,-0.000118832,-0.000927889,-0.000242198,0.0008848,-0.000329516,0.000128382,0.0105756,0,0,0,0,0,0,0,0.200207,-10.2646,1.06269,20.9717,-0.718367,-0.604955,-0.225942,0.189986,-1.17338,0.884411,2.48335,-0.16584,-0.602337,-0.244756
2999045,1,-1.571,-0.522773,-0.000695805,-2.09594,-1.57087,1.57158,0.785794,-1.5708,-0.523599,-4.03174e-08,-2.0944,-1.5708,1.5708,0.785399,0.00047759,-0.000618592,0.000488149,-0.0010805,1.76819e-05,0.000560306,0.00806237,0,0,0,0,0,0,0,0.176403,-10.2646,1.03491,21.0431,-0.724776,-0.617772,-0.232351,0.18957,-1.17037,0.883624,2.48157,-0.165787,-0.602391,-0.244741
2999046,1,-1.571,-0.522773,-0.000697754,-2.09594,-1.57087,1.57158,0.785791,-1.5708,-0.523599,-4.03174e-08,-2.0944,-1.5708,1.5708,0.785399,0.000318394,-0.000412395,-0.000324181,-0.000163467,0.00062214,-0.00033854,0.00524379,0,0,0,0,0,0,0,0.176403,-10.2646,1.06269,21.0193,-0.741255,-0.598546,-0.213125,0.189064,-1.167,0.882714,2.47998,-0.165741,-0.602458,-0.244763
2999047,1,-1.571,-0.522771,-0.000694135,-2.09594,-1.57087,1.57158,0.78579,-1.5708,-0.523599,-4.03174e-08,-2.0944,-1.5708,1.5708,0.785399,-0.00034455,0.000374684,0.000990305,0.000447874,-0.000195592,-0.000225693,0.00345685,0,0,0,0,0,0,0,0.200207,-10.2924,1.01111,20.9955,-0.724776,-0.598546,-0.200308,0.188527,-1.16462,0.881755,2.47899,-0.165706,-0.602542,-0.244844
2999048,1,-1.571,-0.522769,-0.000697754,-2.09594,-1.57087,1.57158,0.785784,-1.5708,-0.523599,-4.03174e-08,-2.0944,-1.5708,1.5708,0.785399,-0.0002297,0.000806601,-0.000546223,0.000855425,-0.000367754,-0.000150462,0.00168192,0,0,0,0,0,0,0,0.200207,-10.3162,1.06269,20.9717,-0.718367,-0.598546,-0.174673,0.188241,-1.16371,0.881099,2.47824,-0.16566,-0.602606,-0.244973
2999049,1,-1.571,-0.522767,-0.000697754,-2.09594,-1.57087,1.57158,0.785786,-1.5708,-0.523599,-4.03174e-08,-2.0944,-1.5708,1.5708,0.785399,0.000403679,0.000537734,-0.000364148,0.000570306,0.00019564,0.00037441,0.00160372,0,0,0,0,0,0,0,0.176403,-10.3162,1.06269,20.9717,-0.730269,-0.611364,-0.181082,0.188481,-1.16437,0.881249,2.47773,-0.165588,-0.602605,-0.245114
2999050,1,-1.571,-0.52277,-0.000695805,-2.09594,-1.57087,1.57158,0.785788,-1.5708,-0.523599,-4.03174e-08,-2.0944,-1.5708,1.5708,0.785399,0.000269119,-0.000198323,0.000406848,-0.000733403,0.000130427,1.22476e-05,0.00149032,0,0,0,0,0,0,0,0.176403,-10.2924,1.03491,21.0193,-0.730269,-0.604955,-0.18749,0.188808,-1.16574,0.881622,2.47757,-0.16551,-0.60259,-0.245223
2999051,1,-1.571,-0.522771,-0.000699425,-2.09594,-1.57087,1.57158,0.785793,-1.5708,-0.523599,-4.03174e-08,-2.0944,-1.5708,1.5708,0.785399,0.000179413,-0.000132215,-0.000935194,-0.000488923,8.69513e-05,-0.000229194,0.00279292,0,0,0,0,0,0,0,0.176403,-10.2924,1.08649,21.0193,-0.730269,-0.598546,-0.232351,0.189007,-1.16702,0.881865,2.47793,-0.165454,-0.602581,-0.245277
2999052,1,-1.571,-0.522771,-0.000699425,-2.09594,-1.57087,1.57158,0.785789,-1.5708,-0.523599,-4.03174e-08,-2.0944,-1.5708,1.5708,0.785399,-0.000437203,-8.81433e-05,-0.000623462,0.000230873,-0.000145483,-0.000152796,0.000541192,0,0,0,0,0,0,0,0.200207,-10.2924,1.08649,20.9955,-0.724776,-0.598546,-0.193899,0.189791,-1.16774,0.883036,2.47838,-0.16539,-0.602463,-0.245294
2999053,1,-1.571,-0.522769,-0.000697754,-2.09594,-1.57087,1.57158,0.785792,-1.5708,-0.523599,-4.03174e-08,-2.0944,-1.5708,1.5708,0.785399,0.000265343,0.00049805,0.00014117,0.000153922,0.000106462,-0.000101864,0.00162514,0,0,0,0,0,0,0,0.176403,-10.3162,1.06269,20.9955,-0.730269,-0.598546,-0.225942,0.190954,-1.16812,0.884808,2.47856,-0.165306,-0.602275,-0.245312
2999054,1,-1.571,-0.522769,-0.000695805,-2.09594,-1.57087,1.57158,0.785787,-1.5708,-0.523599,-4.03174e-08,-2.0944,-1.5708,1.5708,0.785399,0.000176895,0.000332033,0.000743727,-0.001011,0.000274425,0.000406809,-0.000757287,0,0,0,0,0,0,0,0.176403,-10.3162,1.03491,21.0431,-0.735762,-0.611364,-0.174673,0.191357,-1.16928,0.885493,2.4791,-0.165259,-0.602201,-0.245347
2999055,1,-1.571,-0.522769,-0.000699425,-2.09594,-1.57087,1.57158,0.78579,-1.5708,-0.523599,-4.03174e-08,-2.0944,-1.5708,1.5708,0.785399,0.000767544,0.000221355,-0.000710608,0.000996437,-2.05005e-05,-0.000203512,0.000488198,0,0,0,0,0,0,0,0.148632,-10.3162,1.08649,20.9717,-0.730269,-0.598546,-0.200308,0.190883,-1.17108,0.884971,2.47997,-0.165254,-0.602258,-0.245398
2999056,1,-1.571,-0.522769,-0.000699425,-2.09594,-1.57087,1.57158,0.785791,-1.5708,-0.523599,-4.03174e-08,-2.0944,-1.5708,1.5708,0.785399,-0.000137918,0.00014757,-0.000473738,0.000107483,-0.000217117,-0.000135675,0.000832899,0,0,0,0,0,0,0,0.176403,-10.3162,1.08649,20.9955,-0.724776,-0.598546,-0.213125,0.190493,-1.17212,0.884723,2.48016,-0.165227,-0.602285,-0.245449
2999057,1,-1.571,-0.522769,-0.000695805,-2.09594,-1.57087,1.57158,0.785787,-1.5708,-0.523599,-4.03174e-08,-2.0944,-1.5708,1.5708,0.785399,-0.000648757,9.83802e-05,0.0008906,-0.000485155,0.000262156,0.000146909,-0.000844351,0,0,0,0,0,0,0,0.200207,-10.3162,1.03491,21.0193,-0.735762,-0.604955,-0.174673,0.190429,-1.17255,0.884986,2.47995,-0.165186,-0.602247,-0.245494
2999058,1,-1.571,-0.522771,-0.000699425,-2.09594,-1.57087,1.57158,0.785794,-1.5708,-0.523599,-4.03174e-08,-2.0944,-1.5708,1.5708,0.785399,-0.00108212,-0.000491225,-0.000612692,-0.000323435,-0.00023213,-0.00013942,0.00182909,0,0,0,0,0,0,0,0.227978,-10.2924,1.08649,21.0193,-0.724776,-0.598546,-0.23876,0.190646,-1.17265,0.885523,2.47988,-0.165157,-0.602155,-0.245532
2999059,1,-1.571,-0.522771,-0.000697754,-2.09594,-1.57087,1.57158,0.785788,-1.5708,-0.523599,-4.03174e-08,-2.0944,-1.5708,1.5708,0.785399,0.000485013,-0.000977097,0.00014835,-0.000215622,-0.000154754,0.000144413,-0.000665676,0,0,0,0,0,0,0,0.176403,-10.2646,1.06269,21.0193,-0.724776,-0.604955,-0.18749,0.191245,-1.17133,0.886518,2.47941,-0.165114,-0.601988,-0.245569
2999060,1,-1.571,-0.522767,-0.000694135,-2.09594,-1.57087,1.57158,0.78579,-1.5708,-0.523599,-4.03174e-08,-2.0944,-1.5708,1.5708,0.785399,-0.00023347,0.00111184,0.00130533,-0.000143747,0.000303732,0.000333634,4.12853e-05,0,0,0,0,0,0,0,0.200207,-10.34,1.01111,21.0193,-0.735762,-0.611364,-0.200308,0.19124,-1.1696,0.886601,2.47878,-0.165082,-0.601914,-0.245622
2999061,1,-1.571,-0.522771,-0.000695805,-2.09594,-1.57087,1.57158,0.785785,-1.5708,-0.523599,-4.03174e-08,-2.0944,-1.5708,1.5708,0.785399,0.00105078,-0.00102201,0.000313405,0.000460981,-0.000204413,-0.000252295,-0.00138887,0,0,0,0,0,0,0,0.148632,-10.2646,1.03491,20.9955,-0.724776,-0.598546,-0.161856,0.189986,-1.16865,0.884824,2.47834,-0.165089,-0.602051,-0.245685
2999062,1,-1.571,-0.522769,-0.000697754,-2.09594,-1.57087,1.57158,0.785787,-1.5708,-0.523599,-4.03174e-08,-2.0944,-1.5708,1.5708,0.785399,-0.000505906,0.000525085,-0.000440677,0.000864133,0.000270626,6.91621e-05,-0.000445371,0,0,0,0,0,0,0,0.200207,-10.3162,1.06269,20.9717,-0.735762,-0.604955,-0.174673,0.18853,-1.1672,0.882758,2.47728,-0.165074,-0.602222,-0.245732
2999063,1,-1.571,-0.522766,-0.000699425,-2.09594,-1.57087,1.57158,0.78579,-1.5708,-0.523599,-4.03174e-08,-2.0944,-1.5708,1.5708,0.785399,-0.000337271,0.00155648,-0.000850597,1.92774e-05,-2.30334e-05,-0.00042861,0.000656889,0,0,0,0,0,0,0,0.200207,-10.3678,1.08649,20.9955,-0.730269,-0.592137,-0.200308,0.188221,-1.16687,0.882443,2.47638,-0.165032,-0.602238,-0.245724
2999064,1,-1.571,-0.522768,-0.000699425,-2.09594,-1.57087,1.57158,0.785792,-1.5708,-0.523599,-4.03174e-08,-2.0944,-1.5708,1.5708,0.785399,-0.000224847,0.000388041,-0.000567064,-0.00054396,0.000391545,-0.00028574,0.00115328,0,0,0,0,0,0,0,0.200207,-10.34,1.08649,21.0193,-0.741255,-0.592137,-0.219534,0.189151,-1.1696,0.884047,2.47701,-0.165023,-0.602097,-0.245642
2999065,1,-1.571,-0.522769,-0.000694135,-2.09594,-1.57087,1.57158,0.785791,-1.5708,-0.523599,-4.03174e-08,-2.0944,-1.5708,1.5708,0.785399,-0.000149898,-0.000298118,0.00138519,0.000194172,-0.000145871,0.000521584,0.00053395,0,0,0,0,0,0,0,0.200207,-10.3162,1.01111,20.9955,-0.730269,-0.611364,-0.213125,0.190021,-1.17281,0.885519,2.47817,-0.165056,-0.60196,-0.24553
2999066,1,-1.571,-0.522771,-0.000695805,-2.09594,-1.57087,1.57158,0.785794,-1.5708,-0.523599,-4.03174e-08,-2.0944,-1.5708,1.5708,0.785399,0.00110649,-0.000755557,0.000366651,0.00068626,-0.000538057,-0.000126995,0.00130724,0,0,0,0,0,0,0,0.148632,-10.2924,1.03491,20.9717,-0.718367,-0.598546,-0.23876,0.189599,-1.17341,0.884918,2.47806,-0.1651,-0.601987,-0.24544
2999067,1,-1.571,-0.522769,-0.000695805,-2.09594,-1.57087,1.57158,0.785788,-1.5708,-0.523599,-4.03174e-08,-2.0944,-1.5708,1.5708,0.785399,-0.00111838,5.31071e-05,0.000244434,-9.9305e-05,0.000285556,0.000390054,-0.00102599,0,0,0,0,0,0,0,0.227978,-10.3162,1.03491,20.9955,-0.735762,-0.611364,-0.18749,0.188483,-1.17166,0.883171,2.47668,-0.165122,-0.602093,-0.245411
2999068,1,-1.571,-0.522769,-0.000695805,-2.09594,-1.57087,1.57158,0.785787,-1.5708,-0.523599,-4.03174e-08,-2.0944,-1.5708,1.5708,0.785399,0.000460841,3.54048e-05,0.000162956,-0.000623015,-0.000216531,-0.000214682,-0.000920318,0,0,0,0,0,0,0,0.176403,-10.3162,1.03491,21.0193,-0.724776,-0.598546,-0.181082,0.187783,-1.17012,0.881945,2.47556,-0.165139,-0.60214,-0.245444
2999069,1,-1.571,-0.522769,-0.000699425,-2.09594,-1.57087,1.57158,0.785786,-1.5708,-0.523599,-4.03174e-08,-2.0944,-1.5708,1.5708,0.785399,0.000307227,2.36032e-05,-0.00109779,0.000141469,5.90967e-05,9.42378e-05,-0.00108749,0,0,0,0,0,0,0,0.176403,-10.3162,1.08649,20.9955,-0.730269,-0.604955,-0.168264,0.187625,-1.16975,0.881561,2.47528,-0.165164,-0.60212,-0.245505
2999070,1,-1.571,-0.522771,-0.000695805,-2.09594,-1.57087,1.57158,0.785787,-1.5708,-0.523599,-4.03174e-08,-2.0944,-1.5708,1.5708,0.785399,-0.000351994,-0.000541077,0.000474567,0.000651124,3.93978e-05,6.28252e-05,-0.000487049,0,0,0,0,0,0,0,0.200207,-10.2924,1.03491,20.9717,-0.730269,-0.604955,-0.174673,0.18794,-1.16914,0.881939,2.47477,-0.165157,-0.60203,-0.245548
2999071,1,-1.571,-0.522771,-0.000697754,-2.09594,-1.57087,1.57158,0.785791,-1.5708,-0.523599,-4.03174e-08,-2.0944,-1.5708,1.5708,0.785399,0.000322149,-0.000360718,-0.000333236,-0.000679541,2.62652e-05,4.18835e-05,0.00109989,0,0,0,0,0,0,0,0.176403,-10.2924,1.06269,21.0193,-0.730269,-0.604955,-0.213125,0.188368,-1.16758,0.882436,2.47369,-0.165124,-0.601919,-0.245538
2999072,1,-1.571,-0.522771,-0.000695805,-2.09593,-1.57087,1.57158,0.785792,-1.5708,-0.523599,-4.03174e-08,-2.0944,-1.5708,1.5708,0.785399,0.000214766,-0.000240478,0.000427457,0.00186702,0.000220961,2.79223e-05,0.00120831,0,0,0,0,0,0,0,0.176403,-10.2924,1.03491,20.9201,-0.735762,-0.604955,-0.225942,0.188497,-1.16541,0.882472,2.47217,-0.165085,-0.601857,-0.245475
2999073,1,-1.571,-0.522771,-0.000697754,-2.09594,-1.57087,1.57158,0.785793,-1.5708,-0.523599,-4.03174e-08,-2.0944,-1.5708,1.5708,0.785399,0.000792791,-0.000160319,-0.000364643,-0.00163218,-5.61434e-05,-0.000218744,0.00104314,0,0,0,0,0,0,0,0.148632,-10.2924,1.06269,21.0431,-0.730269,-0.598546,-0.232351,0.188232,-1.16335,0.882,2.47056,-0.16506,-0.601862,-0.245402
2999074,1,-1.571,-0.522769,-0.000697754,-2.09594,-1.57087,1.57158,0.785788,-1.5708,-0.523599,-4.03174e-08,-2.0944,-1.5708,1.5708,0.785399,-0.000121086,0.000449933,-0.000243095,-0.00108812,-3.74289e-05,-0.000145829,-0.0009659,0,0,0,0,0,0,0,0.176403,-10.3162,1.06269,21.0431,-0.730269,-0.598546,-0.18749,0.187896,-1.16343,0.881593,2.47056,-0.165106,-0.601892,-0.245363
2999075,1,-1.571,-0.522768,-0.000697754,-2.09594,-1.57087,1.57158,0.785786,-1.5708,-0.523599,-4.03174e-08,-2.0944,-1.5708,1.5708,0.785399,-0.000637536,0.000856767,-0.000162063,0.000388211,-0.000465762,-0.000334579,-0.00135587,0,0,0,0,0,0,0,0.200207,-10.34,1.06269,20.9955,-0.718367,-0.592137,-0.168264,0.188026,-1.16623,0.881982,2.47233,-0.165203,-0.601869,-0.245371
2999076,1,-1.571,-0.522771,-0.000695805,-2.09594,-1.57087,1.57158,0.785789,-1.5708,-0.523599,-4.03174e-08,-2.0944,-1.5708,1.5708,0.785399,0.000131788,-0.000542446,0.000541572,-0.000298005,0.000130301,0.000251666,4.56251e-05,0,0,0,0,0,0,0,0.176403,-10.2924,1.03491,21.0193,-0.730269,-0.604955,-0.193899,0.188373,-1.16946,0.882647,2.47404,-0.16528,-0.601808,-0.2454
2999077,1,-1.571,-0.522771,-0.000697754,-2.09594,-1.57087,1.57158,0.785787,-1.5708,-0.523599,-4.03174e-08,-2.0944,-1.5708,1.5708,0.785399,-0.00111857,-0.000361631,-0.000288566,0.000358142,-0.000116583,0.000405136,-0.000444223,0,0,0,0,0,0,0,0.227978,-10.2924,1.06269,20.9955,-0.724776,-0.611364,-0.181082,0.188674,-1.17083,0.883118,2.47464,-0.165304,-0.601727,-0.245413
2999078,1,-1.571,-0.522773,-0.000697754,-2.09594,-1.57087,1.57158,0.785792,-1.5708,-0.523599,-4.03174e-08,-2.0944,-1.5708,1.5708,0.785399,0.000460714,-0.000890701,-0.000192377,-0.00152448,0.000125729,3.27317e-05,0.00136542,0,0,0,0,0,0,0,0.176403,-10.2646,1.06269,21.0709,-0.730269,-0.604955,-0.225942,0.18921,-1.17031,0.883841,2.47451,-0.165283,-0.601592,-0.245394
2999079,1,-1.571,-0.522771,-0.000697754,-2.09594,-1.57087,1.57158,0.785792,-1.5708,-0.523599,-4.03174e-08,-2.0944,-1.5708,1.5708,0.785399,-0.000249669,5.58133e-05,-0.000128252,0.00195335,-0.000119631,-0.000215538,0.000910325,0,0,0,0,0,0,0,0.200207,-10.2924,1.06269,20.9439,-0.724776,-0.598546,-0.225942,0.189773,-1.16871,0.884608,2.47391,-0.165236,-0.601451,-0.245355
2999080,1,-1.571,-0.522769,-0.000697754,-2.09594,-1.57087,1.57158,0.78579,-1.5708,-0.523599,-4.03174e-08,-2.0944,-1.5708,1.5708,0.785399,-0.000166446,0.000594021,-8.55011e-05,-0.000461007,0.000123696,9.36671e-05,-0.00034252,0,0,0,0,0,0,0,0.200207,-10.3162,1.06269,21.0193,-0.730269,-0.604955,-0.200308,0.190189,-1.16715,0.885176,2.47283,-0.165164,-0.601351,-0.245337
2999081,1,-1.571,-0.522769,-0.000695805,-2.09594,-1.57087,1.57158,0.78579,-1.5708,-0.523599,-4.03174e-08,-2.0944,-1.5708,1.5708,0.785399,0.000445848,0.000396014,0.000592613,0.000806286,-0.000120986,6.24447e-05,-0.000228322,0,0,0,0,0,0,0,0.176403,-10.3162,1.03491,20.9717,-0.724776,-0.604955,-0.200308,0.190222,-1.16712,0.885199,2.47217,-0.165107,-0.60134,-0.24536
2999082,1,-1.571,-0.522768,-0.000701095,-2.09594,-1.57087,1.57158,0.785787,-1.5708,-0.523599,-4.03174e-08,-2.0944,-1.5708,1.5708,0.785399,0.000297232,0.000820821,-0.00136816,-0.0005761,-8.06576e-05,0.000278989,-0.00110163,0,0,0,0,0,0,0,0.176403,-10.34,1.11029,21.0193,-0.724776,-0.611364,-0.174673,0.189917,-1.16881,0.884835,2.47237,-0.165083,-0.601409,-0.245414
2999083,1,-1.571,-0.522769,-0.000695805,-2.09594,-1.57087,1.57158,0.785786,-1.5708,-0.523599,-4.03174e-08,-2.0944,-1.5708,1.5708,0.785399,0.000198155,-9.59782e-06,0.00085113,-0.000940879,0.00055658,-0.000288725,-0.000971766,0,0,0,0,0,0,0,0.176403,-10.3162,1.03491,21.0431,-0.741255,-0.598546,-0.168264,0.189673,-1.17183,0.884703,2.47359,-0.165088,-0.601486,-0.245471
2999084,1,-1.571,-0.522773,-0.000699425,-2.09594,-1.57087,1.57158,0.785792,-1.5708,-0.523599,-4.03174e-08,-2.0944,-1.5708,1.5708,0.785399,0.000132103,-0.00121282,-0.000639006,-7.04405e-05,-0.000239298,4.48754e-05,0.0014884,0,0,0,0,0,0,0,0.176403,-10.2646,1.08649,21.0193,-0.724776,-0.604955,-0.225942,0.18932,-1.17396,0.88442,2.47493,-0.165108,-0.601566,-0.245495
2999085,1,-1.571,-0.522769,-0.000701095,-2.09594,-1.57087,1.57158,0.785789,-1.5708,-0.523599,-4.03174e-08,-2.0944,-1.5708,1.5708,0.785399,8.80687e-05,0.000397876,-0.000982816,0.00106666,-0.000159532,2.99169e-05,-0.000194522,0,0,0,0,0,0,0,0.176403,-10.3162,1.11029,20.9717,-0.724776,-0.604955,-0.193899,0.189311,-1.17341,0.884652,2.47489,-0.165076,-0.601566,-0.245484
2999086,1,-1.571,-0.522769,-0.000699425,-2.09594,-1.57087,1.57158,0.785794,-1.5708,-0.523599,-4.03174e-08,-2.0944,-1.5708,1.5708,0.785399,5.87125e-05,0.000265251,-9.83988e-05,0.000154297,9.70957e-05,-0.000217414,0.00153184,0,0,0,0,0,0,0,0.176403,-10.3162,1.08649,20.9955,-0.730269,-0.598546,-0.23876,0.18985,-1.17209,0.885814,2.47397,-0.164994,-0.601478,-0.245462
2999087,1,-1.571,-0.522769,-0.000697754,-2.09594,-1.57087,1.57158,0.78579,-1.5708,-0.523599,-4.03174e-08,-2.0944,-1.5708,1.5708,0.785399,-0.00051767,0.000176834,0.000491213,0.000659677,0.000268181,9.2416e-05,-0.000402925,0,0,0,0,0,0,0,0.200207,-10.3162,1.06269,20.9717,-0.735762,-0.604955,-0.200308,0.19021,-1.17144,0.886752,2.47306,-0.164919,-0.601426,-0.245457
2999088,1,-1.571,-0.522773,-0.000699425,-2.09594,-1.57087,1.57158,0.785787,-1.5708,-0.523599,-4.03174e-08,-2.0944,-1.5708,1.5708,0.785399,0.000211698,-0.00108854,-0.000229337,-0.00123065,-0.000228114,6.16107e-05,-0.00121805,0,0,0,0,0,0,0,0.176403,-10.2646,1.08649,21.0431,-0.724776,-0.604955,-0.174673,0.190165,-1.17061,0.887052,2.47228,-0.16487,-0.601427,-0.245493
2999089,1,-1.571,-0.522771,-0.000699425,-2.09594,-1.57087,1.57158,0.785786,-1.5708,-0.523599,-4.03174e-08,-2.0944,-1.5708,1.5708,0.785399,-0.00106529,-7.60771e-05,-0.000152891,-0.000820434,-0.000389435,-0.000196285,-0.00104939,0,0,0,0,0,0,0,0.227978,-10.2924,1.08649,21.0431,-0.718367,-0.598546,-0.168264,0.190226,-1.16947,0.887483,2.47205,-0.164848,-0.601402,-0.245553
2999090,1,-1.571,-0.522773,-0.000695805,-2.09594,-1.57087,1.57158,0.785789,-1.5708,-0.523599,-4.03174e-08,-2.0944,-1.5708,1.5708,0.785399,0.00114584,-0.000700332,0.0011045,0.000566668,0.000384637,-0.000130857,0.000249845,0,0,0,0,0,0,0,0.148632,-10.2646,1.03491,20.9955,-0.735762,-0.598546,-0.193899,0.190084,-1.16819,0.887588,2.47211,-0.164842,-0.601402,-0.245589
2999091,1,-1.571,-0.522773,-0.000697754,-2.09594,-1.57087,1.57158,0.785793,-1.5708,-0.523599,-4.03174e-08,-2.0944,-1.5708,1.5708,0.785399,-0.00109214,-0.000466888,8.67184e-05,0.00093459,5.2974e-05,0.000150121,0.00159072,0,0,0,0,0,0,0,0.227978,-10.2646,1.06269,20.9717,-0.730269,-0.604955,-0.232351,0.1892,-1.16576,0.886528,2.47117,-0.164816,-0.601504,-0.24558
2999092,1,-1.571,-0.522767,-0.000699425,-2.09594,-1.57087,1.57158,0.785789,-1.5708,-0.523599,-4.03174e-08,-2.0944,-1.5708,1.5708,0.785399,0.00047833,0.000895167,-0.000499,6.62483e-05,-0.000168135,-0.000137278,-0.000363674,0,0,0,0,0,0,0,0.176403,-10.3162,1.08649,20.9955,-0.724776,-0.598546,-0.193899,0.188487,-1.16332,0.885687,2.46971,-0.164763,-0.601585,-0.245544
2999093,1,-1.571,-0.522767,-0.000699425,-2.09594,-1.57087,1.57158,0.785793,-1.5708,-0.523599,-4.03174e-08,-2.0944,-1.5708,1.5708,0.785399,0.000318887,0.00115359,-0.000332666,-0.00106946,9.13609e-05,-9.15188e-05,0.00118171,0,0,0,0,0,0,0,0.176403,-10.34,1.08649,21.0431,-0.730269,-0.598546,-0.232351,0.188286,-1.16426,0.885775,2.46993,-0.164756,-0.601623,-0.245509
2999094,1,-1.571,-0.522769,-0.000699425,-2.09594,-1.57087,1.57158,0.785786,-1.5708,-0.523599,-4.03174e-08,-2.0944,-1.5708,1.5708,0.785399,-0.000344221,0.000212248,-0.000221778,0.000957464,6.09072e-05,-6.10125e-05,-0.00158579,0,0,0,0,0,0,0,0.200207,-10.3162,1.08649,20.9717,-0.730269,-0.598546,-0.168264,0.188276,-1.16808,0.886314,2.47173,-0.164801,-0.601655,-0.245497
2999095,1,-1.571,-0.522769,-0.000701095,-2.09594,-1.57087,1.57158,0.78579,-1.5708,-0.523599,-4.03174e-08,-2.0944,-1.5708,1.5708,0.785399,0.000327331,0.000141499,-0.000704664,0.000638309,4.06048e-05,0.000196684,0.000129605,0,0,0,0,0,0,0,0.176403,-10.3162,1.11029,20.9717,-0.730269,-0.604955,-0.200308,0.188591,-1.17113,0.88734,2.47287,-0.164808,-0.601622,-0.245518
2999096,1,-1.571,-0.522771,-0.000695805,-2.09594,-1.57087,1.57158,0.785786,-1.5708,-0.523599,-4.03174e-08,-2.0944,-1.5708,1.5708,0.785399,-0.000338591,-0.000462479,0.00129346,-0.0012449,2.70699e-05,0.000131123,-0.00110039,0,0,0,0,0,0,0,0.200207,-10.2924,1.03491,21.0431,-0.730269,-0.604955,-0.168264,0.188746,-1.17248,0.88807,2.47316,-0.164793,-0.601586,-0.245548
2999097,1,-1.571,-0.522769,-0.000695805,-2.09594,-1.57087,1.57158,0.785791,-1.5708,-0.523599,-4.03174e-08,-2.0944,-1.5708,1.5708,0.785399,-0.000875341,0.000248492,0.000862308,-0.000273119,0.000221497,-0.000387303,0.0103583,0,0,0,0,0,0,0,0.227978,-10.3162,1.03491,21.0193,-0.735762,-0.592137,-0.213125,0.188224,-1.17333,0.887595,2.47376,-0.164835,-0.601647,-0.245555
2999098,1,-1.571,-0.522771,-0.000699425,-2.09594,-1.57087,1.57158,0.78579,-1.5708,-0.523599,-4.03174e-08,-2.0944,-1.5708,1.5708,0.785399,6.60531e-05,-0.00039115,-0.000631554,-0.000738891,-5.57858e-05,0.000453875,0.00745403,0,0,0,0,0,0,0,0.200207,-10.2924,1.08649,21.0431,-0.730269,-0.611364,-0.206716,0.18767,-1.17406,0.886877,2.47467,-0.164922,-0.60172,-0.24554
2999099,1,-1.571,-0.522771,-0.000697754,-2.09594,-1.57087,1.57158,0.785792,-1.5708,-0.523599,-4.03174e-08,-2.0944,-1.5708,1.5708,0.785399,0.000600847,-0.000260767,0.000135776,0.00062103,-0.000240641,-0.000172135,0.00603347,0,0,0,0,0,0,0,0.176403,-10.2924,1.06269,20.9955,-0.724776,-0.598546,-0.219534,0.187485,-1.1739,0.886704,2.47512,-0.164998,-0.601736,-0.245522
2999100,1,-1.571,-0.522773,-0.000699425,-2.09594,-1.57087,1.57158,0.785787,-1.5708,-0.523599,-4.03174e-08,-2.0944,-1.5708,1.5708,0.785399,0.000400565,-0.000823459,-0.000466295,0.00041402,-0.000160427,-0.000114756,0.00280285,0,0,0,0,0,0,0,0.176403,-10.2646,1.08649,20.9955,-0.724776,-0.598546,-0.174673,0.187319,-1.17193,0.88661,2.47434,-0.165021,-0.601734,-0.245525
2999101,1,-1.571,-0.522773,-0.000697754,-2.09594,-1.57087,1.57158,0.785792,-1.5708,-0.523599,-4.03174e-08,-2.0944,-1.5708,1.5708,0.785399,-0.000939383,-0.000548972,0.000245949,0.000276013,0.000299949,-7.65043e-05,0.00409898,0,0,0,0,0,0,0,0.227978,-10.2646,1.06269,20.9955,-0.735762,-0.598546,-0.225942,0.187391,-1.16827,0.886811,2.47244,-0.164983,-0.601675,-0.24555
2999102,1,-1.571,-0.522773,-0.000697754,-2.09594,-1.57087,1.57158,0.785788,-1.5708,-0.523599,-4.03174e-08,-2.0944,-1.5708,1.5708,0.785399,0.000580171,-0.000365982,0.000163966,-0.000372803,-3.48421e-06,-5.10028e-05,0.00155715,0,0,0,0,0,0,0,0.176403,-10.2646,1.06269,21.0193,-0.730269,-0.598546,-0.18749,0.187683,-1.16438,0.887219,2.4705,-0.164928,-0.601573,-0.24558
2999103,1,-1.571,-0.522773,-0.000697754,-2.09594,-1.57087,1.57158,0.785787,-1.5708,-0.523599,-4.03174e-08,-2.0944,-1.5708,1.5708,0.785399,0.000386781,-0.000243988,0.000109311,-0.000248535,0.000201128,0.000203357,0.00098723,0,0,0,0,0,0,0,0.176403,-10.2646,1.06269,21.0193,-0.735762,-0.604955,-0.181082,0.187596,-1.16162,0.887075,2.46936,-0.164908,-0.601533,-0.245613
2999104,1,-1.571,-0.522769,-0.000699425,-2.09594,-1.57087,1.57158,0.785792,-1.5708,-0.523599,-4.03174e-08,-2.0944,-1.5708,1.5708,0.785399,0.000257854,0.00104377,-0.000483938,0.000391122,-0.000272816,0.000135571,0.00222217,0,0,0,0,0,0,0,0.176403,-10.3162,1.08649,20.9955,-0.724776,-0.604955,-0.219534,0.187264,-1.16085,0.886702,2.46925,-0.164926,-0.601548,-0.245636
2999105,1,-1.571,-0.522771,-0.000701095,-2.09594,-1.57087,1.57158,0.785789,-1.5708,-0.523599,-4.03174e-08,-2.0944,-1.5708,1.5708,0.785399,0.000171902,0.000139033,-0.000879437,0.000260748,2.15733e-05,9.03809e-05,0.000636914,0,0,0,0,0,0,0,0.176403,-10.2924,1.11029,20.9955,-0.730269,-0.604955,-0.193899,0.187362,-1.16215,0.887132,2.46987,-0.164952,-0.601525,-0.245638
2999106,1,-1.571,-0.522773,-0.000695805,-2.09594,-1.57087,1.57158,0.785793,-1.5708,-0.523599,-4.03174e-08,-2.0944,-1.5708,1.5708,0.785399,-0.00044221,-0.000556925,0.00117695,-0.00038298,1.43822e-05,6.02539e-05,0.00192744,0,0,0,0,0,0,0,0.200207,-10.2646,1.03491,21.0193,-0.730269,-0.604955,-0.232351,0.187712,-1.16363,0.88797,2.47054,-0.164971,-0.601469,-0.245638
2999107,1,-1.571,-0.522769,-0.000697754,-2.09594,-1.57087,1.57158,0.78579,-1.5708,-0.523599,-4.03174e-08,-2.0944,-1.5708,1.5708,0.785399,-0.000944421,0.000835142,0.000135017,-0.000812132,9.58811e-06,4.01693e-05,0.00015717,0,0,0,0,0,0,0,0.227978,-10.3162,1.06269,21.0431,-0.730269,-0.604955,-0.200308,0.187846,-1.165,0.888318,2.4715,-0.165013,-0.601451,-0.245653
2999108,1,-1.571,-0.522771,-0.000695805,-2.09594,-1.57087,1.57158,0.785788,-1.5708,-0.523599,-4.03174e-08,-2.0944,-1.5708,1.5708,0.785399,0.00122643,-5.03698e-08,0.000739625,0.000572203,0.000209843,-0.000447938,-0.000325683,0,0,0,0,0,0,0,0.148632,-10.2924,1.03491,20.9955,-0.735762,-0.592137,-0.18749,0.187589,-1.16717,0.887981,2.47303,-0.16509,-0.601509,-0.245697
2999109,1,-1.571,-0.522771,-0.000695805,-2.09594,-1.57087,1.57158,0.785785,-1.5708,-0.523599,-4.03174e-08,-2.0944,-1.5708,1.5708,0.785399,0.000817617,-3.35799e-08,0.000493083,-0.000175344,-6.35555e-05,0.000413451,-0.00113337,0,0,0,0,0,0,0,0.148632,-10.2924,1.03491,21.0193,-0.730269,-0.611364,-0.161856,0.186413,-1.16895,0.886346,2.47418,-0.165175,-0.601703,-0.245768
2999110,1,-1.571,-0.522771,-0.000697754,-2.09594,-1.57087,1.57158,0.785789,-1.5708,-0.523599,-4.03174e-08,-2.0944,-1.5708,1.5708,0.785399,-0.000104536,-2.23866e-08,-0.000320892,-0.000673708,-4.23703e-05,-0.000436443,0.00045611,0,0,0,0,0,0,0,0.176403,-10.2924,1.06269,21.0431,-0.730269,-0.592137,-0.193899,0.184881,-1.16996,0.88427,2.47499,-0.165258,-0.601932,-0.245822
2999111,1,-1.571,-0.522771,-0.000699425,-2.09594,-1.57087,1.57158,0.78579,-1.5708,-0.523599,-4.03174e-08,-2.0944,-1.5708,1.5708,0.785399,-0.000626502,-1.49244e-08,-0.00077074,0.000664485,-2.82469e-05,0.000183756,0.000560102,0,0,0,0,0,0,0,0.200207,-10.2924,1.08649,20.9955,-0.730269,-0.604955,-0.200308,0.184502,-1.17055,0.883909,2.4757,-0.165307,-0.601972,-0.245825
2999112,1,-1.571,-0.522769,-0.000695805,-2.09594,-1.57087,1.57158,0.785793,-1.5708,-0.523599,-4.03174e-08,-2.0944,-1.5708,1.5708,0.785399,-0.00106728,0.000556802,0.000692599,-0.000113822,-0.000459641,-0.000114855,0.0015742,0,0,0,0,0,0,0,0.227978,-10.3162,1.03491,21.0193,-0.718367,-0.598546,-0.232351,0.185379,-1.17077,0.885298,2.47604,-0.165309,-0.601815,-0.245781
2999113,1,-1.571,-0.522769,-0.000697754,-2.09594,-1.57087,1.57158,0.785791,-1.5708,-0.523599,-4.03174e-08,-2.0944,-1.5708,1.5708,0.785399,0.000494904,0.000371201,-0.000187881,0.000480931,-6.90682e-05,0.000160789,0.000347891,0,0,0,0,0,0,0,0.176403,-10.3162,1.06269,20.9955,-0.724776,-0.604955,-0.213125,0.186409,-1.17134,0.886786,2.47631,-0.1653,-0.601644,-0.245726
2999114,1,-1.571,-0.522769,-0.000699425,-2.09594,-1.57087,1.57158,0.78579,-1.5708,-0.523599,-4.03174e-08,-2.0944,-1.5708,1.5708,0.785399,0.000329936,0.000247468,-0.000682066,0.000320621,-4.60455e-05,0.000581911,-0.000234914,0,0,0,0,0,0,0,0.176403,-10.3162,1.08649,20.9955,-0.724776,-0.617772,-0.200308,0.18711,-1.17209,0.887836,2.47648,-0.165277,-0.601531,-0.245705
2999115,1,-1.571,-0.522768,-0.000695805,-2.09594,-1.57087,1.57158,0.785787,-1.5708,-0.523599,-4.03174e-08,-2.0944,-1.5708,1.5708,0.785399,0.000219958,0.00072179,0.000751715,0.000213747,0.000376204,-0.000324136,-0.00110014,0,0,0,0,0,0,0,0.176403,-10.34,1.03491,20.9955,-0.735762,-0.598546,-0.174673,0.187437,-1.17291,0.888435,2.47654,-0.16524,-0.601484,-0.24573
2999116,1,-1.571,-0.522769,-0.000697754,-2.09594,-1.57087,1.57158,0.785787,-1.5708,-0.523599,-4.03174e-08,-2.0944,-1.5708,1.5708,0.785399,-0.000410174,-0.00063243,-0.00014847,-0.000414314,0.000250803,-0.00045345,-0.000491636,0,0,0,0,0,0,0,0.200207,-10.2924,1.06269,21.0193,-0.735762,-0.592137,-0.181082,0.18739,-1.17364,0.888431,2.47668,-0.165211,-0.601496,-0.245773
2999117,1,-1.571,-0.522769,-0.000695805,-2.09594,-1.57087,1.57158,0.785787,-1.5708,-0.523599,-4.03174e-08,-2.0944,-1.5708,1.5708,0.785399,-0.000273449,0.000135192,0.000550634,-0.000833021,-0.000239699,0.000172418,-0.000561793,0,0,0,0,0,0,0,0.200207,-10.3162,1.03491,21.0431,-0.724776,-0.604955,-0.174673,0.187354,-1.17375,0.888309,2.47696,-0.165198,-0.601495,-0.245794
2999118,1,-1.571,-0.522771,-0.000699425,-2.09594,-1.57087,1.57158,0.785791,-1.5708,-0.523599,-4.03174e-08,-2.0944,-1.5708,1.5708,0.785399,-0.000182299,-0.000466684,-0.000839337,0.0017647,4.3651e-05,0.000114945,0.00105212,0,0,0,0,0,0,0,0.200207,-10.2924,1.08649,20.9439,-0.730269,-0.604955,-0.213125,0.187625,-1.17282,0.888537,2.47679,-0.165169,-0.601436,-0.245769
2999119,1,-1.571,-0.522769,-0.000695805,-2.09594,-1.57087,1.57158,0.785794,-1.5708,-0.523599,-4.03174e-08,-2.0944,-1.5708,1.5708,0.785399,0.00108489,0.000245689,0.000646868,-0.00114358,-0.00017435,7.66302e-05,0.00165272,0,0,0,0,0,0,0,0.148632,-10.3162,1.03491,21.0431,-0.724776,-0.604955,-0.23876,0.187855,-1.17102,0.888728,2.47584,-0.165115,-0.601379,-0.245703
2999120,1,-1.571,-0.522769,-0.000699425,-2.09594,-1.57087,1.57158,0.78579,-1.5708,-0.523599,-4.03174e-08,-2.0944,-1.5708,1.5708,0.785399,-0.00113278,0.000163793,-0.000775181,-0.000205576,8.72173e-05,5.10868e-05,-0.000320941,0,0,0,0,0,0,0,0.227978,-10.3162,1.08649,21.0193,-0.730269,-0.604955,-0.200308,0.187897,-1.17017,0.888715,2.47552,-0.165092,-0.601364,-0.245633
2999121,1,-1.571,-0.522769,-0.000697754,-2.09594,-1.57087,1.57158,0.785792,-1.5708,-0.523599,-4.03174e-08,-2.0944,-1.5708,1.5708,0.785399,-0.000105571,0.000109195,4.00249e-05,0.000419761,5.81449e-05,0.000271417,0.000499167,0,0,0,0,0,0,0,0.200207,-10.3162,1.06269,20.9955,-0.730269,-0.611364,-0.219534,0.188447,-1.17039,0.889423,2.47587,-0.165079,-0.601291,-0.245603
2999122,1,-1.571,-0.522771,-0.000697754,-2.09594,-1.57087,1.57158,0.785786,-1.5708,-0.523599,-4.03174e-08,-2.0944,-1.5708,1.5708,0.785399,0.000486431,-0.000484015,2.66833e-05,0.000836653,-0.000164687,-5.64144e-05,-0.0015653,0,0,0,0,0,0,0,0.176403,-10.2924,1.06269,20.9717,-0.724776,-0.604955,-0.168264,0.189122,-1.1698,0.890256,2.47546,-0.165029,-0.601206,-0.245629
2999123,1,-1.571,-0.522769,-0.000695805,-2.09594,-1.57087,1.57158,0.785789,-1.5708,-0.523599,-4.03174e-08,-2.0944,-1.5708,1.5708,0.785399,0.000973901,0.000234135,0.000667403,9.56654e-07,-0.000109792,-3.76096e-05,-9.35093e-05,0,0,0,0,0,0,0,0.148632,-10.3162,1.03491,20.9955,-0.724776,-0.604955,-0.193899,0.188849,-1.16824,0.889725,2.47426,-0.164972,-0.601268,-0.245689
2999124,1,-1.571,-0.522769,-0.000694135,-2.09594,-1.57087,1.57158,0.78579,-1.5708,-0.523599,-4.03174e-08,-2.0944,-1.5708,1.5708,0.785399,-3.46386e-07,-0.000400722,0.00100175,0.00055745,0.000333707,-0.000262432,0.000175463,0,0,0,0,0,0,0,0.176403,-10.2924,1.01111,20.9717,-0.735762,-0.598546,-0.200308,0.187482,-1.16666,0.887603,2.47296,-0.164942,-0.6015,-0.245744
2999125,1,-1.571,-0.522772,-0.000694135,-2.09594,-1.57087,1.57158,0.785792,-1.5708,-0.523599,-4.03174e-08,-2.0944,-1.5708,1.5708,0.785399,-2.30924e-07,-0.000916762,0.000667831,-0.000185179,-0.00018443,-0.000174955,0.000829385,0,0,0,0,0,0,0,0.176403,-10.2646,1.01111,20.9955,-0.724776,-0.598546,-0.219534,0.185654,-1.1645,0.884695,2.47148,-0.164924,-0.60179,-0.245778
2999126,1,-1.571,-0.522771,-0.000699425,-2.09594,-1.57087,1.57158,0.78579,-1.5708,-0.523599,-4.03174e-08,-2.0944,-1.5708,1.5708,0.785399,-1.53949e-07,3.84394e-05,-0.00131802,-0.000123453,8.04972e-05,-0.000353995,7.84548e-05,0,0,0,0,0,0,0,0.176403,-10.2924,1.08649,20.9955,-0.730269,-0.592137,-0.206716,0.184559,-1.16191,0.882827,2.47002,-0.164893,-0.601945,-0.245804
2999127,1,-1.571,-0.522768,-0.000695805,-2.09594,-1.57087,1.57158,0.785793,-1.5708,-0.523597,-2.54032e-06,-2.09439,-1.5708,1.5708,0.785399,-1.02633e-07,0.00113925,0.000327748,-8.23017e-05,-0.000149786,-0.000235997,0.00100193,-0.00312521,0.001875,-0.0025,0.00231151,-0.00155837,0.005,-0.000158103,0.176403,-10.34,1.03491,20.9955,-0.724776,-0.592137,-0.232351,0.184644,-1.16129,0.88284,2.46967,-0.164869,-0.60192,-0.24584
2999128,1,-1.571,-0.522773,-0.000701095,-2.09594,-1.57087,1.57158,0.785786,-1.57081,-0.523593,-7.54032e-06,-2.09439,-1.5708,1.57081,0.785398,-0.00120649,-0.00100374,-0.00154474,-5.48678e-05,0.000103593,0.000317387,-0.0017055,-0.00625042,0.00375,-0.005,0.00462301,-0.00311674,0.01,-0.000316207,0.227978,-10.2646,1.11029,20.9955,-0.730269,-0.604955,-0.168264,0.185757,-1.16252,0.884445,2.47022,-0.164844,-0.601736,-0.245905
2999129,1,-1.571,-0.522764,-0.000699425,-2.09594,-1.57087,1.57158,0.785787,-1.57082,-0.523587,-1.50403e-05,-2.09438,-1.57081,1.57083,0.785398,-0.000154716,0.00174369,-0.000473014,-3.65785e-05,0.000272513,-0.000263127,-0.000899535,-0.00937563,0.005625,-0.0075,0.00693452,-0.00467511,0.015,-0.00047431,0.200207,-10.3678,1.08649,20.9955,-0.735762,-0.592137,-0.174673,0.187939,-1.16434,0.887633,2.47104,-0.164794,-0.601376,-0.245998
2999130,1,-1.57101,-0.522768,-0.000699498,-2.09594,-1.57087,1.57158,0.785787,-1.57083,-0.52358,-2.50403e-05,-2.09437,-1.57081,1.57085,0.785397,-0.00590228,-0.00125039,-0.0030724,-0.00178762,0.000385126,0.0002993,-0.000599611,-0.0125008,0.0075,-0.01,0.00924603,-0.00623348,0.02,-0.000632413,0.176403,-10.2646,0.935733,21.0709,-0.741255,-0.604955,-0.174673,0.192327,-1.16713,0.893906,2.47263,-0.164717,-0.600686,-0.246072
2999131,1,-1.571,-0.522772,-0.000690849,-2.09594,-1.57087,1.57158,0.785791,-1.57084,-0.523571,-3.75403e-05,-2.09436,-1.57082,1.57087,0.785396,-0.00327676,-6.08567e-05,-0.000122214,0.000172913,0.00151136,-3.78256e-05,0.00102447,-0.0156261,0.009375,-0.0125,0.0115575,-0.00779185,0.025,-0.000790516,-0.152882,-10.0385,0.42792,21.1423,-0.77513,-0.598546,-0.213125,0.199742,-1.16914,0.904086,2.4744,-0.164596,-0.599537,-0.246088
2999132,1,-1.57099,-0.522772,-0.000701734,-2.09594,-1.57087,1.57158,0.785794,-1.57086,-0.523559,-5.25403e-05,-2.09435,-1.57083,1.5709,0.785395,0.00116834,0.000948285,-0.000563521,-0.00260146,0.00226219,-0.000974653,0.00163246,-0.0187513,0.01125,-0.015,0.013869,-0.00935022,0.03,-0.00094862,-0.605152,-9.80838,-0.000546589,21.2693,-0.809004,-0.572911,-0.23876,0.206428,-1.17102,0.912912,2.47661,-0.164568,-0.598463,-0.246048
2999133,1,-1.57099,-0.522768,-0.000709577,-2.09594,-1.57087,1.57158,0.785792,-1.57088,-0.523546,-7.00403e-05,-2.09433,-1.57084,1.57094,0.785394,0.000430713,-0.000203358,-0.00243534,-0.00115035,0.00215238,-0.00041241,0.000376264,-0.0218765,0.013125,-0.0175,0.0161806,-0.0109086,0.035,-0.00110672,-1.03362,-9.60605,-0.508359,21.3922,-0.826399,-0.57932,-0.219534,0.209064,-1.17462,0.916251,2.48057,-0.164796,-0.597869,-0.245996
2999134,1,-1.57101,-0.522758,-0.000722522,-2.09594,-1.57087,1.57158,0.785792,-1.57091,-0.523531,-9.00403e-05,-2.09431,-1.57085,1.57098,0.785393,-0.00430164,0.00450003,-0.00456106,-0.000352034,0.00143492,-3.75808e-05,0.000250868,-0.0250017,0.015,-0.02,0.0184921,-0.012467,0.04,-0.00126483,-1.31133,-9.50687,-1.01617,21.3922,-0.826399,-0.585729,-0.219534,0.210011,-1.18033,0.917772,2.48647,-0.165237,-0.597264,-0.245982
2999135,1,-1.57101,-0.522742,-0.000742277,-2.09593,-1.57087,1.57158,0.785787,-1.57094,-0.523514,-0.00011254,-2.09429,-1.57087,1.57102,0.785392,-0.00365785,0.0100963,-0.00884982,0.00261661,0.000312355,-0.000499772,-0.00125689,-0.0281269,0.016875,-0.0225,0.0208036,-0.0140253,0.045,-0.00142293,-1.76757,-9.50687,-1.42083,21.416,-0.809004,-0.572911,-0.181082,0.212809,-1.19398,0.922818,2.49602,-0.165839,-0.596057,-0.24601
2999136,1,-1.57101,-0.522731,-0.000767177,-2.09592,-1.57087,1.57159,0.785787,-1.57097,-0.523496,-0.00013754,-2.09427,-1.57088,1.57107,0.78539,-0.00289228,0.00939368,-0.0138985,0.00430055,0.000649046,0.000616255,-0.00107527,-0.0312521,0.01875,-0.025,0.0231151,-0.0155837,0.05,-0.00158103,-2.12066,-9.43149,-1.75012,21.4676,-0.820906,-0.598546,-0.174673,0.218564,-1.21835,0.933742,2.50962,-0.166536,-0.593975,-0.246056
2999137,1,-1.57103,-0.522722,-0.000784428,-2.09591,-1.57087,1.5716,0.785785,-1.57101,-0.523473,-0.00016754,-2.09424,-1.5709,1.57113,0.785388,-0.00333201,0.0105043,-0.0131502,0.00550148,0.000432698,0.00136027,-0.00142891,-0.037128,0.0225,-0.03,0.0272517,-0.0182673,0.06,-0.00174171,-2.42217,-9.30453,-2.12701,21.5152,-0.820906,-0.624181,-0.155447,0.225462,-1.24701,0.948384,2.52437,-0.167222,-0.591083,-0.246093
2999138,1,-1.57104,-0.522715,-0.000803124,-2.09591,-1.57087,1.5716,0.78579,-1.57105,-0.523447,-0.00020254,-2.09421,-1.57092,1.5712,0.785386,-0.00564566,0.0101506,-0.0141361,0.00570932,0.00174653,-0.000517306,0.00094627,-0.0430039,0.02625,-0.035,0.0313884,-0.020951,0.07,-0.0019024,-2.6483,-9.12601,-2.43249,21.5906,-0.860274,-0.585729,-0.206716,0.230302,-1.27382,0.961769,2.53833,-0.167908,-0.587702,-0.246082
2999139,1,-1.57105,-0.522712,-0.00082212,-2.0959,-1.57087,1.5716,0.785792,-1.5711,-0.523417,-0.00024254,-2.09417,-1.57095,1.57128,0.785384,-0.00886748,0.00908444,-0.0161562,0.00583233,0.00262241,0.00157219,0.00110557,-0.0488798,0.03,-0.04,0.035525,-0.0236346,0.08,-0.00206308,-2.92601,-8.89987,-2.6864,21.666,-0.899641,-0.507909,-0.219534,0.231999,-1.29464,0.97175,2.55087,-0.168624,-0.583897,-0.246006
2999140,1,-1.57108,-0.522703,-0.000841752,-2.09589,-1.57087,1.57161,0.785795,-1.57115,-0.523383,-0.00028754,-2.09413,-1.57097,1.57137,0.785382,-0.0164598,0.00831375,-0.0207011,0.00685702,-0.00185354,-0.0016376,0.0017204,-0.0547557,0.03375,-0.045,0.0396617,-0.0263183,0.09,-0.00222376,-3.12835,-8.67374,-3.06726,21.7176,-0.928023,-0.424596,-0.246084,0.233401,-1.30529,0.981985,2.56102,-0.169289,-0.579121,-0.2459
2999141,1,-1.5711,-0.522686,-0.000871879,-2.09589,-1.57087,1.57161,0.785792,-1.57121,-0.523346,-0.00033754,-2.09409,-1.571,1.57147,0.78538,-0.0182989,0.0104529,-0.0263766,0.00889704,-0.00400726,0.000204198,0.00016359,-0.0606316,0.0375,-0.05,0.0437983,-0.0290019,0.1,-0.00238444,-3.48143,-8.41983,-3.49572,21.8405,-0.990278,-0.32755,-0.219534,0.238638,-1.30489,0.998424,2.56841,-0.169794,-0.572611,-0.24582
2999142,1,-1.57112,-0.522666,-0.000915321,-2.09587,-1.57086,1.57162,0.785793,-1.57128,-0.523304,-0.00039254,-2.09404,-1.57103,1.57158,0.785377,-0.0207196,0.0137555,-0.0331461,0.0096804,-0.00104734,-0.00162997,-0.00875119,-0.0665075,0.04125,-0.055,0.047935,-0.0316856,0.11,-0.00254512,-4.06066,-8.11832,-3.95196,21.8644,-1.05253,-0.263463,-0.232351,0.249244,-1.29849,1.02399,2.57508,-0.170213,-0.563983,-0.245797
2999143,1,-1.57115,-0.522638,-0.000961151,-2.09585,-1.57087,1.57164,0.785787,-1.57135,-0.523259,-0.00045254,-2.09399,-1.57107,1.5717,0.785374,-0.024276,0.0204872,-0.0362088,0.0111454,0.000452077,0.00235499,-0.00851091,-0.0723834,0.045,-0.06,0.0520716,-0.0343692,0.12,-0.0027058,-4.59227,-7.86441,-4.50738,21.9873,-1.0974,-0.218602,-0.181082,0.263838,-1.29584,1.05752,2.58554,-0.170852,-0.553312,-0.245829
2999144,1,-1.57119,-0.522602,-0.00100982,-2.09583,-1.57087,1.57166,0.785786,-1.57143,-0.523211,-0.00051754,-2.09393,-1.5711,1.57183,0.785372,-0.0301863,0.0247404,-0.0386666,0.0151527,0.000358789,0.0109403,-0.0055453,-0.0782594,0.04875,-0.065,0.0562083,-0.0370529,0.13,-0.00286648,-4.99694,-7.68588,-5.06677,21.9873,-1.1093,-0.199376,-0.200308,0.279257,-1.3049,1.0947,2.60298,-0.172027,-0.541016,-0.24589
2999145,1,-1.57124,-0.522558,-0.00106343,-2.0958,-1.57088,1.57169,0.78578,-1.57151,-0.523158,-0.00058754,-2.09387,-1.57114,1.57197,0.785369,-0.0346071,0.0286253,-0.0417901,0.0212558,-0.0043292,0.0157266,-0.00701666,-0.0841353,0.0525,-0.07,0.0603449,-0.0397365,0.14,-0.00302716,-5.39763,-7.55893,-5.57061,21.9873,-1.12028,-0.140783,-0.122488,0.292343,-1.32475,1.13079,2.62532,-0.17379,-0.527523,-0.245951
2999146,1,-1.5713,-0.522515,-0.00111664,-2.09577,-1.57088,1.57174,0.785781,-1.5716,-0.523102,-0.00066254,-2.09381,-1.57119,1.57212,0.785365,-0.036678,0.0310374,-0.0448683,0.0230193,-0.00159357,0.0260339,-0.00378525,-0.0900112,0.05625,-0.075,0.0644816,-0.0424201,0.15,-0.00318785,-5.75072,-7.40817,-6.05462,22.0905,-1.17155,-0.134374,-0.155447,0.300286,-1.34948,1.16164,2.64874,-0.176066,-0.513156,-0.245971
2999147,1,-1.57137,-0.522478,-0.0011738,-2.09573,-1.57088,1.5718,0.785778,-1.5717,-0.52304,-0.00074504,-2.09374,-1.57123,1.57229,0.785362,-0.044662,0.0325529,-0.0472961,0.0273131,0.000144396,0.0361727,-0.00351562,-0.0984782,0.061875,-0.0825,0.0701127,-0.046137,0.165,-0.0031804,-5.92925,-7.13046,-6.53467,22.0905,-1.21641,-0.192968,-0.135305,0.300914,-1.37355,1.18395,2.67123,-0.178854,-0.498165,-0.245897
2999148,1,-1.57143,-0.522437,-0.00123488,-2.0957,-1.57089,1.57187,0.785773,-1.57181,-0.522972,-0.00083504,-2.09366,-1.57128,1.57247,0.785359,-0.0478789,0.0379641,-0.0513919,0.0267864,-0.00344152,0.0479205,-0.0039525,-0.106945,0.0675,-0.09,0.0757438,-0.0498538,0.18,-0.00317296,-6.20696,-6.90433,-6.91552,22.2373,-1.25578,-0.250646,-0.0968531,0.293939,-1.39541,1.19684,2.69338,-0.182207,-0.482676,-0.245686
2999149,1,-1.57149,-0.522398,-0.00130413,-2.09567,-1.57089,1.57196,0.785775,-1.57192,-0.522899,-0.00093254,-2.09358,-1.57134,1.57266,0.785356,-0.0501054,0.0378081,-0.054202,0.0257803,-0.00083571,0.0591231,-0.00206138,-0.115412,0.073125,-0.0975,0.081375,-0.0535706,0.195,-0.00316552,-6.48467,-6.59885,-7.16546,22.4118,-1.31254,-0.244237,-0.116079,0.278591,-1.41744,1.19904,2.71855,-0.186293,-0.467048,-0.245287
2999150,1,-1.57158,-0.522353,-0.00136876,-2.09562,-1.57091,1.57205,0.785768,-1.57205,-0.522821,-0.00103754,-2.0935,-1.57139,1.57287,0.785353,-0.0642151,0.040367,-0.0576238,0.0353916,-0.00427143,0.0715854,-0.00290224,-0.123879,0.07875,-0.105,0.0870061,-0.0572874,0.21,-0.00315808,-6.48467,-6.29733,-7.5979,22.4356,-1.35191,-0.225011,-0.077627,0.255748,-1.43542,1.19117,2.74542,-0.191082,-0.451384,-0.244671
2999151,1,-1.57167,-0.522304,-0.00144343,-2.09558,-1.57091,1.57216,0.785771,-1.57218,-0.522736,-0.00115004,-2.0934,-1.57145,1.5731,0.78535,-0.0737351,0.0438961,-0.0681572,0.0367391,-0.00452624,0.0825431,-0.000588555,-0.132346,0.084375,-0.1125,0.0926372,-0.0610043,0.225,-0.00315063,-6.65923,-5.91647,-8.07794,22.5626,-1.45354,-0.115148,-0.116079,0.232247,-1.44318,1.18192,2.76937,-0.196248,-0.43487,-0.243833
2999152,1,-1.57176,-0.522242,-0.00153173,-2.09552,-1.57092,1.57228,0.785765,-1.57232,-0.522646,-0.00127004,-2.0933,-1.57152,1.57334,0.785346,-0.0777398,0.0480629,-0.0756971,0.0402841,-0.00615147,0.0986962,-0.00116286,-0.140814,0.09,-0.12,0.0982684,-0.0647211,0.24,-0.00314319,-7.0877,-5.58719,-8.60956,22.5864,-1.52128,-0.0831043,-0.0968531,0.214206,-1.44277,1.17998,2.79118,-0.201694,-0.416774,-0.242765
2999153,1,-1.57187,-0.522168,-0.00163365,-2.09546,-1.57093,1.57244,0.785759,-1.57247,-0.522551,-0.00139754,-2.0932,-1.57159,1.57359,0.785343,-0.0860916,0.0588389,-0.0827086,0.046069,-0.0120947,0.11902,-0.00251447,-0.149281,0.095625,-0.1275,0.1039,-0.0684379,0.255,-0.00313575,-7.46856,-5.36105,-9.0896,22.6102,-1.58995,-0.1536,-0.0510767,0.201357,-1.44272,1.18541,2.81494,-0.207624,-0.397317,-0.241473
2999154,1,-1.57199,-0.522088,-0.00173955,-2.0954,-1.57096,1.57261,0.785752,-1.57263,-0.522449,-0.00153254,-2.09309,-1.57166,1.57386,0.78534,-0.0947965,0.0677791,-0.0869731,0.0501288,-0.0188458,0.141731,-0.00759479,-0.157748,0.10125,-0.135,0.109531,-0.0721547,0.27,-0.00312831,-7.74627,-5.13492,-9.62121,22.634,-1.58995,-0.295507,-0.0190333,0.190907,-1.45461,1.19415,2.84486,-0.214289,-0.37719,-0.239936
2999155,1,-1.57211,-0.521998,-0.00185243,-2.09532,-1.57098,1.5728,0.785746,-1.5728,-0.522342,-0.00167504,-2.09298,-1.57173,1.57415,0.785337,-0.102299,0.0740718,-0.0923682,0.0614213,-0.0234297,0.159853,-0.0109155,-0.166215,0.106875,-0.1425,0.115162,-0.0758716,0.285,-0.00312086,-8.09935,-4.93259,-10.1806,22.5864,-1.60643,-0.353185,0.000192821,0.179953,-1.4817,1.20157,2.88081,-0.221771,-0.357081,-0.238104
2999156,1,-1.57224,-0.521911,-0.00197274,-2.09524,-1.57101,1.57301,0.785744,-1.57297,-0.52223,-0.00182504,-2.09285,-1.57181,1.57445,0.785334,-0.11411,0.0781041,-0.10277,0.0668494,-0.0265385,0.176249,-0.00679605,-0.174682,0.1125,-0.15,0.120793,-0.0795884,0.3,-0.00311342,-8.42467,-4.70645,-10.5853,22.511,-1.62932,-0.366002,-0.0318506,0.168583,-1.51491,1.20723,2.91694,-0.229859,-0.33709,-0.235952
2999157,1,-1.57239,-0.521824,-0.00208682,-2.09516,-1.57105,1.57324,0.785734,-1.57315,-0.522111,-0.00198503,-2.09273,-1.5719,1.57477,0.785331,-0.120615,0.0783542,-0.102559,0.0708541,-0.0289686,0.195674,-0.0104907,-0.184801,0.119423,-0.15999,0.127417,-0.0838764,0.319216,-0.00301908,-8.627,-4.45255,-11.0931,22.5626,-1.6458,-0.437413,-0.0126246,0.157231,-1.54202,1.21114,2.94842,-0.238373,-0.317151,-0.233498
2999158,1,-1.57254,-0.521732,-0.00220271,-2.09508,-1.57108,1.5735,0.785733,-1.57335,-0.521984,-0.00215501,-2.09259,-1.57199,1.5751,0.785328,-0.130014,0.0806022,-0.103452,0.0750167,-0.0354644,0.218945,-0.00635985,-0.194919,0.126345,-0.16998,0.134041,-0.0881644,0.338431,-0.00292475,-8.75396,-4.19864,-11.5493,22.5864,-1.66319,-0.507909,-0.0510767,0.140477,-1.55328,1.20454,2.97311,-0.247375,-0.298107,-0.23079
2999159,1,-1.5727,-0.521644,-0.00232718,-2.095,-1.57113,1.57377,0.785728,-1.57355,-0.521851,-0.00233498,-2.09245,-1.57208,1.57546,0.785325,-0.138078,0.0820216,-0.110557,0.0779592,-0.0349444,0.236736,-0.00361188,-0.205038,0.133268,-0.17997,0.140664,-0.0924524,0.357647,-0.00283041,-8.95629,-3.89713,-11.8746,22.7332,-1.69707,-0.488683,-0.0840357,0.114426,-1.54438,1.18115,2.99087,-0.256926,-0.280668,-0.227895
2999160,1,-1.57286,-0.521539,-0.00245375,-2.0949,-1.57117,1.57405,0.78572,-1.57377,-0.521711,-0.00252494,-2.09231,-1.57218,1.57584,0.785322,-0.146428,0.0905488,-0.116695,0.0827386,-0.0336314,0.254015,-0.00261507,-0.215157,0.140191,-0.18996,0.147288,-0.0967403,0.376863,-0.00273607,-9.18242,-3.69479,-12.4102,22.8086,-1.75932,-0.398961,-0.0904444,0.0810838,-1.51974,1.14411,3.00493,-0.26707,-0.264657,-0.224898
2999161,1,-1.57305,-0.521435,-0.00259203,-2.0948,-1.57123,1.57435,0.785713,-1.57399,-0.521564,-0.00272489,-2.09215,-1.57228,1.57623,0.78532,-0.160663,0.0968625,-0.122653,0.0903161,-0.0428288,0.267113,-0.00581138,-0.225276,0.147113,-0.19995,0.153912,-0.101028,0.396079,-0.00264174,-9.40856,-3.36551,-13.041,22.8363,-1.79869,-0.314733,-0.116079,0.0443518,-1.48901,1.09924,3.01928,-0.277816,-0.249524,-0.22188
2999162,1,-1.57322,-0.521319,-0.00274405,-2.09469,-1.57128,1.57468,0.785701,-1.57423,-0.52141,-0.00293483,-2.09199,-1.57238,1.57665,0.785317,-0.168315,0.101711,-0.134749,0.0999234,-0.0500441,0.290732,-0.00990158,-0.235394,0.154036,-0.20994,0.160536,-0.105316,0.415294,-0.0025474,-9.8886,-3.1116,-13.6242,22.8086,-1.83256,-0.32755,-0.0968531,0.00895815,-1.45517,1.05328,3.03319,-0.288926,-0.23444,-0.218915
2999163,1,-1.57341,-0.521188,-0.00291316,-2.09457,-1.57134,1.57504,0.785686,-1.57448,-0.521249,-0.00315476,-2.09182,-1.57249,1.57708,0.785315,-0.176097,0.111222,-0.142674,0.107774,-0.0551171,0.310386,-0.0140896,-0.245513,0.160959,-0.21993,0.16716,-0.109604,0.43451,-0.00245306,-10.3924,-2.90927,-14.1042,22.7848,-1.87834,-0.411779,-0.044668,-0.0228244,-1.41783,1.01012,3.04449,-0.300165,-0.218883,-0.216072
2999164,1,-1.57362,-0.521045,-0.00307683,-2.09443,-1.57141,1.57544,0.785676,-1.57473,-0.521081,-0.00338468,-2.09165,-1.57261,1.57754,0.785312,-0.188958,0.11896,-0.151728,0.117412,-0.0605693,0.33686,-0.0152938,-0.255632,0.167881,-0.22992,0.173784,-0.113892,0.453726,-0.00235873,-10.7455,-2.83389,-14.739,22.5626,-1.87834,-0.566503,-0.0382593,-0.0516741,-1.38133,0.969515,3.05409,-0.311543,-0.202896,-0.213355
2999165,1,-1.57385,-0.520905,-0.00325472,-2.09429,-1.57149,1.57585,0.785659,-1.575,-0.520906,-0.00362459,-2.09147,-1.57272,1.57801,0.78531,-0.198345,0.124122,-0.156965,0.123567,-0.0642601,0.360207,-0.018435,-0.265751,0.174804,-0.23991,0.180407,-0.11818,0.472941,-0.00226439,-10.9756,-2.60776,-15.3182,22.511,-1.88933,-0.701085,0.0258276,-0.0791617,-1.34713,0.929318,3.06256,-0.323122,-0.186784,-0.210708
2999166,1,-1.57407,-0.520748,-0.0034459,-2.09415,-1.57157,1.57627,0.785654,-1.57527,-0.520724,-0.00387449,-2.09128,-1.57285,1.5785,0.785308,-0.207349,0.132731,-0.167978,0.129288,-0.067122,0.378513,-0.0167661,-0.27587,0.181726,-0.2499,0.187031,-0.122468,0.492157,-0.00217005,-11.3763,-2.50461,-15.7269,22.4356,-1.88933,-0.75327,-0.0126246,-0.107369,-1.31488,0.886623,3.07087,-0.335001,-0.171002,-0.208051
2999167,1,-1.57431,-0.520594,-0.00362973,-2.09399,-1.57165,1.57672,0.785639,-1.57556,-0.520535,-0.00413438,-2.09109,-1.57297,1.57902,0.785306,-0.217899,0.141493,-0.172476,0.140155,-0.0737613,0.401353,-0.0132258,-0.286861,0.189216,-0.25989,0.194259,-0.127002,0.512147,-0.00203487,-11.6302,-2.30228,-16.1553,22.3127,-1.88383,-0.766088,0.00660151,-0.1379,-1.28701,0.839342,3.08052,-0.347261,-0.155997,-0.205295
2999168,1,-1.57456,-0.520429,-0.00381712,-2.09383,-1.57175,1.57719,0.785632,-1.57586,-0.520338,-0.00440426,-2.09089,-1.5731,1.57955,0.785304,-0.225681,0.146924,-0.175649,0.145362,-0.0799809,0.422953,-0.00839528,-0.297852,0.196706,-0.26988,0.201487,-0.131535,0.532137,-0.0018997,-11.8564,-2.12772,-16.6869,22.3365,-1.85545,-0.766088,-0.0318506,-0.174416,-1.26322,0.781994,3.09067,-0.359902,-0.14249,-0.202412
2999169,1,-1.57481,-0.520269,-0.0040238,-2.09367,-1.57185,1.57769,0.785612,-1.57617,-0.520134,-0.00468413,-2.09068,-1.57324,1.5801,0.785302,-0.239183,0.149897,-0.192722,0.153025,-0.0866979,0.442737,-0.0134797,-0.308843,0.204196,-0.27987,0.208715,-0.136069,0.552127,-0.00176452,-12.0825,-1.89761,-16.9647,22.3365,-1.89482,-0.740453,0.0322363,-0.217062,-1.23715,0.714284,3.09902,-0.372743,-0.130474,-0.19942
2999170,1,-1.57507,-0.520099,-0.00423179,-2.0935,-1.57195,1.5782,0.785598,-1.57649,-0.519922,-0.00497399,-2.09046,-1.57338,1.58067,0.785301,-0.248938,0.152792,-0.195123,0.162122,-0.0879997,0.466557,-0.0145942,-0.319834,0.211686,-0.28986,0.215942,-0.140603,0.572117,-0.00162934,-12.3126,-1.64767,-17.3217,22.4118,-1.91771,-0.681859,0.0322363,-0.261239,-1.19872,0.64286,3.10161,-0.385412,-0.119065,-0.196353
2999171,1,-1.57535,-0.51992,-0.00444449,-2.09331,-1.57205,1.57874,0.785588,-1.57682,-0.519703,-0.00527384,-2.09024,-1.57353,1.58126,0.785299,-0.255096,0.161648,-0.199807,0.170089,-0.0934035,0.485188,-0.0140066,-0.330825,0.219176,-0.29985,0.22317,-0.145136,0.592107,-0.00149416,-12.4118,-1.46915,-17.6748,22.388,-1.9406,-0.67545,-0.00621587,-0.30963,-1.14424,0.56358,3.09642,-0.39788,-0.108487,-0.193207
2999172,1,-1.57564,-0.51973,-0.00466626,-2.09312,-1.57216,1.57931,0.785579,-1.57716,-0.519477,-0.00558368,-2.09001,-1.57368,1.58188,0.785298,-0.268235,0.167675,-0.20471,0.178517,-0.10256,0.519668,-0.0136341,-0.341816,0.226666,-0.30984,0.230398,-0.14967,0.612097,-0.00135899,-12.4356,-1.34219,-17.9803,22.3603,-1.93419,-0.772496,-0.0510767,-0.367722,-1.0795,0.468398,3.08588,-0.410363,-0.0995251,-0.189966
2999173,1,-1.57593,-0.519526,-0.00490339,-2.09292,-1.57227,1.57991,0.785573,-1.57751,-0.519242,-0.00590351,-2.08977,-1.57383,1.58251,0.785297,-0.276391,0.180385,-0.210778,0.18828,-0.104111,0.542231,-0.00869941,-0.352807,0.234156,-0.31983,0.237626,-0.154203,0.632087,-0.00122381,-12.5903,-1.36996,-18.1548,22.3603,-1.96257,-0.836583,-0.0968531,-0.436151,-1.01309,0.35631,3.07358,-0.422965,-0.0924153,-0.186675
2999174,1,-1.57623,-0.519319,-0.00514489,-2.0927,-1.57239,1.58053,0.785565,-1.57788,-0.519001,-0.00623333,-2.08953,-1.57399,1.58316,0.785295,-0.2867,0.19046,-0.22107,0.197149,-0.110581,0.567948,-0.0060666,-0.363798,0.241646,-0.32982,0.244853,-0.158737,0.652077,-0.00108863,-12.6657,-1.31839,-18.3572,22.2611,-1.97996,-0.90067,-0.116079,-0.51281,-0.955028,0.230691,3.0635,-0.435769,-0.087035,-0.183439
2999175,1,-1.57656,-0.519106,-0.00539507,-2.09248,-1.57251,1.58117,0.785553,-1.57825,-0.518752,-0.00657314,-2.08927,-1.57415,1.58383,0.785295,-0.297085,0.199863,-0.231094,0.202209,-0.11571,0.587105,-0.0101564,-0.374789,0.249136,-0.33981,0.252081,-0.16327,0.672067,-0.000953452,-12.6895,-1.26682,-18.5873,22.2135,-1.98546,-0.946447,-0.0968531,-0.593122,-0.912054,0.098847,3.05933,-0.448798,-0.0828191,-0.180366
2999176,1,-1.57689,-0.518878,-0.00566437,-2.09224,-1.57264,1.58183,0.785544,-1.57864,-0.518495,-0.00692294,-2.08901,-1.57432,1.58452,0.785294,-0.304255,0.208753,-0.2412,0.217303,-0.118426,0.604275,-0.00842254,-0.38578,0.256626,-0.3498,0.259309,-0.167804,0.692057,-0.000818274,-12.8641,-1.26682,-18.6865,22.1381,-2.02482,-0.965673,-0.077627,-0.67299,-0.882794,-0.0329145,3.06062,-0.461958,-0.0791557,-0.177538
2999177,1,-1.57721,-0.518652,-0.00593142,-2.092,-1.57278,1.58253,0.785529,-1.57903,-0.518231,-0.00728273,-2.08875,-1.57449,1.58524,0.785293,-0.313018,0.212207,-0.250168,0.222365,-0.126464,0.64567,-0.00872717,-0.396985,0.264116,-0.35979,0.266848,-0.172378,0.712047,-0.000662276,-13.0426,-1.19144,-18.865,22.1143,-2.03032,-1.06821,-0.0126246,-0.751944,-0.858297,-0.163759,3.06226,-0.475069,-0.0760142,-0.175006
2999178,1,-1.57757,-0.518413,-0.00621448,-2.09176,-1.57293,1.58323,0.785521,-1.57944,-0.517959,-0.00765251,-2.08847,-1.57467,1.58597,0.785293,-0.327198,0.221121,-0.256706,0.230086,-0.132894,0.657235,-0.00563452,-0.40819,0.271606,-0.36978,0.274387,-0.176952,0.732037,-0.000506279,-13.0188,-1.19144,-19.0435,22.1143,-2.02482,-1.0618,-0.0318506,-0.830389,-0.83119,-0.294531,3.06181,-0.488064,-0.0735856,-0.172728
2999179,1,-1.57793,-0.518168,-0.00649788,-2.0915,-1.57308,1.58394,0.785516,-1.57986,-0.51768,-0.00803228,-2.08819,-1.57485,1.58672,0.785292,-0.34008,0.229203,-0.263251,0.239954,-0.137806,0.675511,-0.00753008,-0.419395,0.279096,-0.37977,0.281926,-0.181527,0.752027,-0.000350281,-13.0426,-1.13986,-19.2935,22.1143,-2.00834,-0.959264,-0.0648096,-0.906908,-0.801389,-0.42406,3.06022,-0.501005,-0.0716472,-0.170586
2999180,1,-1.5783,-0.517914,-0.00679697,-2.09124,-1.57324,1.58466,0.785503,-1.58029,-0.517394,-0.00842204,-2.0879,-1.57504,1.58749,0.785292,-0.348778,0.235261,-0.275938,0.248522,-0.140832,0.686579,-0.0123082,-0.4306,0.286586,-0.38976,0.289465,-0.186101,0.772017,-0.000194284,-13.2172,-1.24301,-19.345,22.1381,-2.01384,-0.842992,-0.0126246,-0.979313,-0.768361,-0.549648,3.05686,-0.513852,-0.0696569,-0.168507
2999181,1,-1.57868,-0.517656,-0.00711202,-2.09097,-1.57341,1.58544,0.785497,-1.58073,-0.5171,-0.00882179,-2.08761,-1.57523,1.58828,0.785292,-0.353095,0.241403,-0.286746,0.256679,-0.145048,0.712811,-0.00958006,-0.441805,0.294076,-0.39975,0.297004,-0.190675,0.792007,-3.8286e-05,-13.3441,-1.26682,-19.4204,22.1619,-1.96806,-0.972081,0.000192821,-1.04715,-0.729082,-0.669755,3.05043,-0.526509,-0.067222,-0.166482
2999182,1,-1.57906,-0.517379,-0.00742888,-2.09068,-1.57357,1.58623,0.785498,-1.58119,-0.516798,-0.00923153,-2.0873,-1.57542,1.5891,0.785292,-0.35868,0.250911,-0.298132,0.269241,-0.150204,0.741973,-0.0108185,-0.45301,0.301566,-0.40974,0.304543,-0.195249,0.811997,0.000117711,-13.4195,-1.44534,-19.5236,22.1143,-1.98546,-1.11399,-0.0254419,-1.11329,-0.683285,-0.786949,3.04029,-0.538905,-0.0646337,-0.164487
2999183,1,-1.57947,-0.517093,-0.00776552,-2.09039,-1.57375,1.58701,0.785499,-1.58165,-0.516489,-0.00965126,-2.08699,-1.57562,1.58993,0.785292,-0.370695,0.25872,-0.308094,0.289005,-0.158775,0.755471,-0.00641527,-0.464214,0.309056,-0.41973,0.312082,-0.199823,0.831987,0.000273709,-13.3957,-1.64767,-19.5751,22.0389,-2.01384,-1.02335,-0.0712183,-1.17924,-0.630181,-0.902692,3.02268,-0.550796,-0.0622112,-0.162503
2999184,1,-1.57988,-0.516799,-0.0081057,-2.09009,-1.57392,1.58783,0.785495,-1.58213,-0.516172,-0.010081,-2.08667,-1.57583,1.59078,0.785293,-0.384336,0.270636,-0.315223,0.28976,-0.160041,0.769737,-0.00495063,-0.475419,0.316546,-0.42972,0.319621,-0.204398,0.851977,0.000429707,-13.4473,-1.82224,-19.6227,22.0627,-2.04222,-0.959264,-0.0712183,-1.24278,-0.572722,-1.01451,2.99727,-0.562094,-0.0596956,-0.160533
2999185,1,-1.5803,-0.516498,-0.00844733,-2.08978,-1.57411,1.58867,0.785493,-1.58261,-0.515848,-0.0105207,-2.08634,-1.57604,1.59165,0.785293,-0.394596,0.278617,-0.325804,0.298483,-0.174661,0.795267,-0.00380576,-0.486624,0.324036,-0.43971,0.32716,-0.208972,0.871967,0.000585704,-13.4949,-1.97299,-19.7259,22.0627,-2.06419,-0.984899,-0.0712183,-1.30237,-0.522398,-1.12083,2.97286,-0.57314,-0.0569083,-0.158587
2999186,1,-1.58073,-0.51619,-0.00881604,-2.08947,-1.5743,1.58955,0.785483,-1.58311,-0.515517,-0.0109704,-2.08601,-1.57625,1.59254,0.785294,-0.40679,0.290156,-0.336999,0.309671,-0.177287,0.814158,-0.00627312,-0.497829,0.331526,-0.4497,0.3347,-0.213546,0.891957,0.000741702,-13.5702,-2.09995,-19.6505,22.0905,-2.09257,-1.13962,0.0194189,-1.3573,-0.485547,-1.22052,2.95437,-0.584106,-0.0537768,-0.156685
2999187,1,-1.58116,-0.515884,-0.00919008,-2.08914,-1.5745,1.59043,0.785482,-1.58362,-0.515178,-0.0114301,-2.08566,-1.57647,1.59346,0.785295,-0.408323,0.296543,-0.355441,0.314321,-0.183439,0.834733,-0.00470369,-0.508677,0.339016,-0.45969,0.342339,-0.218025,0.911947,0.000919523,-13.7726,-2.12772,-19.5989,22.0905,-2.13286,-1.10026,0.0258276,-1.40647,-0.461647,-1.31085,2.94154,-0.59499,-0.0501216,-0.154825
2999188,1,-1.58163,-0.515559,-0.00957625,-2.08881,-1.57469,1.59132,0.78548,-1.58414,-0.514831,-0.0118998,-2.08531,-1.57669,1.59439,0.785296,-0.424947,0.301004,-0.362915,0.32577,-0.189585,0.846438,-0.0038237,-0.519525,0.346506,-0.46968,0.349978,-0.222504,0.931937,0.00109734,-13.6734,-2.15152,-19.6505,22.0389,-2.13835,-0.952855,0.038645,-1.44907,-0.444321,-1.38961,2.93241,-0.605801,-0.0457488,-0.152938
2999189,1,-1.5821,-0.515217,-0.00996507,-2.08847,-1.5749,1.59224,0.785483,-1.58467,-0.514477,-0.0123794,-2.08496,-1.57692,1.59534,0.785297,-0.439495,0.313754,-0.370883,0.327637,-0.19484,0.868662,-0.00175959,-0.530373,0.353996,-0.47967,0.357618,-0.226983,0.951927,0.00127517,-13.6734,-2.30228,-19.7259,22.0389,-2.10997,-0.959264,0.0130102,-1.48498,-0.429543,-1.45746,2.92608,-0.616631,-0.0405516,-0.150931
2999190,1,-1.58256,-0.51487,-0.0103764,-2.08813,-1.57511,1.59319,0.785484,-1.58521,-0.514116,-0.0128691,-2.08459,-1.57715,1.59631,0.785299,-0.4462,0.319284,-0.384643,0.329295,-0.198895,0.910105,-0.000818264,-0.541221,0.361486,-0.48966,0.365257,-0.231462,0.971917,0.00145299,-13.8995,-2.45303,-19.6227,22.0627,-2.08159,-1.07462,0.000192821,-1.51621,-0.424994,-1.51781,2.92854,-0.627784,-0.0349334,-0.14874
2999191,1,-1.58305,-0.514514,-0.0107946,-2.08779,-1.57531,1.59418,0.785484,-1.58576,-0.513747,-0.0133687,-2.08422,-1.57738,1.5973,0.7853,-0.459846,0.331763,-0.391056,0.342576,-0.201329,0.935773,-0.000635449,-0.55207,0.368976,-0.49965,0.372896,-0.235942,0.991907,0.00163081,-14.0781,-2.68314,-19.6505,22.1619,-2.0706,-1.18448,0.000192821,-1.5465,-0.434976,-1.57537,2.94233,-0.639359,-0.0296666,-0.146387
2999192,1,-1.58354,-0.514153,-0.0112234,-2.08742,-1.57554,1.59518,0.78549,-1.58633,-0.51337,-0.0138784,-2.08384,-1.57762,1.59832,0.785302,-0.470707,0.343643,-0.401989,0.349787,-0.207011,0.952077,0.00140778,-0.562918,0.376466,-0.50964,0.380536,-0.240421,1.0119,0.00180863,-14.1257,-2.78232,-19.7259,22.1381,-2.0706,-1.22934,-0.0510767,-1.57796,-0.459829,-1.63298,2.9643,-0.651206,-0.0251664,-0.14393
2999193,1,-1.58405,-0.51378,-0.0116488,-2.08706,-1.57576,1.59618,0.785492,-1.5869,-0.512986,-0.014398,-2.08345,-1.57787,1.59935,0.785304,-0.483896,0.34962,-0.409123,0.353883,-0.211471,0.960486,0.00163392,-0.573766,0.383956,-0.51963,0.388175,-0.2449,1.03189,0.00198645,-14.201,-2.96085,-19.8251,22.2611,-2.08159,-1.15244,-0.0712183,-1.61018,-0.499367,-1.69011,2.99315,-0.663236,-0.0212757,-0.141413
2999194,1,-1.58456,-0.513399,-0.0121041,-2.08669,-1.57598,1.59721,0.785489,-1.58748,-0.512595,-0.0149276,-2.08305,-1.57812,1.6004,0.785306,-0.49219,0.357697,-0.42481,0.361629,-0.213411,0.978322,6.79901e-05,-0.584614,0.391446,-0.52962,0.395815,-0.249379,1.05188,0.00216427,-14.3558,-3.0878,-19.8528,22.2611,-2.12095,-1.04899,-0.044668,-1.64146,-0.547479,-1.74414,3.02731,-0.675349,-0.0175104,-0.138926
2999195,1,-1.58507,-0.513012,-0.0125682,-2.08631,-1.57621,1.59827,0.785493,-1.58808,-0.512196,-0.0154672,-2.08265,-1.57837,1.60147,0.785309,-0.49606,0.362083,-0.440136,0.366563,-0.219873,1.00024,0.000254228,-0.595462,0.398936,-0.53961,0.403454,-0.253858,1.07187,0.00234209,-14.5541,-3.29013,-19.9044,22.4872,-2.16673,-1.07462,-0.0510767,-1.6705,-0.596151,-1.79203,3.06353,-0.687362,-0.0134406,-0.136569
2999196,1,-1.5856,-0.512611,-0.0130457,-2.08593,-1.57644,1.59935,0.785488,-1.58869,-0.51179,-0.0160168,-2.08224,-1.57863,1.60256,0.785311,-0.506041,0.375443,-0.447222,0.372917,-0.225286,1.02056,-0.00198809,-0.60631,0.406426,-0.5496,0.411093,-0.258337,1.09186,0.00251992,-14.7565,-3.51627,-19.8766,22.6618,-2.20061,-1.13962,0.00660151,-1.69936,-0.644285,-1.8355,3.10136,-0.699285,-0.00923729,-0.134376
2999197,1,-1.58615,-0.512209,-0.0135454,-2.08553,-1.57668,1.60045,0.785492,-1.5893,-0.511376,-0.0165764,-2.08182,-1.57889,1.60367,0.785314,-0.52268,0.383107,-0.460945,0.381349,-0.234275,1.04243,0.000794831,-0.61629,0.413916,-0.55959,0.418693,-0.262621,1.11106,0.00274184,-14.7842,-3.54007,-19.7497,22.7332,-2.21159,-1.17807,-0.0510767,-1.72918,-0.696986,-1.87639,3.14251,-0.711235,-0.00509315,-0.132305
2999198,1,-1.58671,-0.5118,-0.014041,-2.08513,-1.57692,1.60157,0.785496,-1.58993,-0.510954,-0.017146,-2.08139,-1.57916,1.6048,0.785317,-0.533893,0.386113,-0.472168,0.384417,-0.236529,1.06945,0.0022133,-0.626271,0.421406,-0.56958,0.426293,-0.266905,1.13027,0.00296377,-14.7327,-3.64322,-19.7259,22.8363,-2.22899,-1.19089,-0.0968531,-1.75684,-0.751254,-1.9109,3.1855,-0.723135,-0.000615494,-0.130323
2999199,1,-1.5873,-0.511375,-0.0145501,-2.08473,-1.57716,1.60272,0.7855,-1.59056,-0.510525,-0.0177256,-2.08096,-1.57943,1.60595,0.78532,-0.548125,0.396425,-0.482387,0.393687,-0.237971,1.09575,0.00194125,-0.636251,0.428896,-0.57957,0.433892,-0.271189,1.14948,0.00318569,-14.5819,-3.7424,-19.6743,22.8839,-2.25096,-1.24857,-0.10967,-1.78119,-0.800539,-1.93778,3.22798,-0.734944,0.00426901,-0.128476
2999200,1,-1.58788,-0.510952,-0.0150707,-2.08431,-1.57741,1.60389,0.785494,-1.59121,-0.510089,-0.0183151,-2.08052,-1.57971,1.60712,0.785324,-0.556641,0.39512,-0.496015,0.402414,-0.235137,1.11552,-0.00112009,-0.646231,0.436386,-0.58956,0.441492,-0.275472,1.16869,0.00340762,-14.5541,-3.82175,-19.5751,22.8839,-2.25096,-1.31998,-0.044668,-1.80309,-0.838407,-1.95871,3.26621,-0.746643,0.00937514,-0.126872
2999201,1,-1.58846,-0.510516,-0.0156245,-2.08389,-1.57765,1.60506,0.785486,-1.59187,-0.509645,-0.0189147,-2.08007,-1.57999,1.60831,0.785327,-0.564137,0.40085,-0.51541,0.419923,-0.238171,1.13391,-0.00336274,-0.656211,0.443876,-0.59955,0.449092,-0.279756,1.18789,0.00362954,-14.6057,-3.82175,-19.345,22.8839,-2.24547,-1.34562,0.0258276,-1.82113,-0.850935,-1.97169,3.29099,-0.757934,0.0149903,-0.125597
2999202,1,-1.58908,-0.51007,-0.0161855,-2.08346,-1.57792,1.60624,0.785477,-1.59253,-0.509194,-0.0195242,-2.07961,-1.58027,1.60952,0.785331,-0.575413,0.411424,-0.523057,0.424409,-0.244086,1.14232,-0.00441576,-0.666192,0.451366,-0.60954,0.456691,-0.28404,1.2071,0.00385147,-14.4311,-3.82175,-19.2181,22.8839,-2.24547,-1.28702,0.0844213,-1.83413,-0.836273,-1.97473,3.2991,-0.768666,0.0212815,-0.124574
2999203,1,-1.5897,-0.509616,-0.0167438,-2.08303,-1.57818,1.60742,0.785482,-1.59321,-0.508735,-0.0201438,-2.07915,-1.58056,1.61074,0.785335,-0.593981,0.42157,-0.534243,0.428571,-0.251355,1.14784,-0.000776551,-0.676172,0.458856,-0.61953,0.464291,-0.288324,1.22631,0.0040734,-14.3558,-3.99631,-19.1665,22.8601,-2.26835,-1.13321,0.0258276,-1.84204,-0.812753,-1.96841,3.30083,-0.779188,0.0281455,-0.123552
2999204,1,-1.59033,-0.509151,-0.0173182,-2.08258,-1.57845,1.60863,0.785484,-1.5939,-0.508269,-0.0207733,-2.07868,-1.58085,1.61199,0.785339,-0.607243,0.438951,-0.543736,0.436777,-0.253809,1.15843,0.000192239,-0.686152,0.466346,-0.62952,0.47189,-0.292607,1.24551,0.00429532,-14.2526,-4.14706,-19.1427,22.7332,-2.29033,-1.02976,0.00660151,-1.84365,-0.802376,-1.95212,3.30903,-0.789935,0.0357156,-0.122299
2999205,1,-1.59098,-0.508686,-0.0179026,-2.08212,-1.57872,1.60989,0.785493,-1.59459,-0.507795,-0.0214128,-2.0782,-1.58115,1.61325,0.785344,-0.621642,0.445055,-0.558869,0.441019,-0.261798,1.18616,0.00202543,-0.696132,0.473836,-0.63951,0.47949,-0.296891,1.26472,0.00451725,-14.1019,-4.12326,-19.0911,22.634,-2.27385,-1.21653,-0.044668,-1.83827,-0.817584,-1.92522,3.32995,-0.801081,0.0440995,-0.120751
2999206,1,-1.59163,-0.508214,-0.0184956,-2.08166,-1.579,1.61115,0.785497,-1.5953,-0.507313,-0.0220623,-2.07771,-1.58145,1.61454,0.785349,-0.632106,0.450851,-0.568487,0.456639,-0.268163,1.21185,0.0115271,-0.706113,0.481326,-0.6495,0.48709,-0.301175,1.28393,0.00473917,-14.0027,-4.22244,-19.0157,22.4872,-2.24547,-1.39689,-0.0712183,-1.82714,-0.849597,-1.88978,3.35838,-0.812411,0.0530775,-0.119019
2999207,1,-1.5923,-0.507745,-0.0191108,-2.08119,-1.57929,1.61243,0.785503,-1.59601,-0.506825,-0.0227218,-2.07722,-1.58176,1.61584,0.785354,-0.64326,0.455596,-0.582566,0.464466,-0.271177,1.22873,0.00939951,-0.714748,0.488816,-0.65949,0.494575,-0.30523,1.30175,0.00505434,-13.8757,-4.14706,-18.9919,22.3365,-2.24547,-1.46738,-0.0968531,-1.81267,-0.879065,-1.84986,3.38276,-0.823532,0.0621611,-0.117294
2999208,1,-1.59298,-0.507273,-0.0197237,-2.08071,-1.57959,1.61375,0.785507,-1.59674,-0.506328,-0.0233913,-2.07671,-1.58206,1.61716,0.785359,-0.64764,0.457007,-0.594906,0.471332,-0.279893,1.27874,0.00877311,-0.723383,0.496306,-0.66948,0.50206,-0.309285,1.31956,0.0053695,-13.8241,-4.07169,-18.9404,22.1381,-2.21159,-1.66788,-0.149038,-1.79828,-0.893146,-1.81044,3.3968,-0.834231,0.0704688,-0.115742
2999209,1,-1.59367,-0.506775,-0.0203665,-2.08022,-1.57988,1.61507,0.78552,-1.59747,-0.505824,-0.0240707,-2.0762,-1.58238,1.6185,0.785365,-0.661324,0.469776,-0.604326,0.478806,-0.283929,1.29901,0.00987353,-0.732018,0.503796,-0.67947,0.509545,-0.313339,1.33738,0.00568467,-13.8003,-4.12326,-18.8372,21.9159,-2.12095,-1.83451,-0.246084,-1.78807,-0.891806,-1.77721,3.40177,-0.844536,0.0767717,-0.114486
2999210,1,-1.59435,-0.506274,-0.0210164,-2.07971,-1.58019,1.61639,0.785518,-1.59821,-0.505313,-0.0247602,-2.07569,-1.5827,1.61985,0.785371,-0.672712,0.478312,-0.611534,0.490157,-0.289125,1.30628,0.00592188,-0.740653,0.511286,-0.68946,0.51703,-0.317394,1.3552,0.00599984,-13.8995,-4.14706,-18.7896,21.7176,-2.07609,-1.69352,-0.219534,-1.78338,-0.885551,-1.75286,3.40209,-0.854581,0.0804437,-0.113627
2999211,1,-1.59506,-0.505774,-0.0216611,-2.07919,-1.58049,1.6177,0.785525,-1.59896,-0.504794,-0.0254596,-2.07516,-1.58302,1.62123,0.785377,-0.684404,0.483366,-0.62342,0.498314,-0.29056,1.30384,0.00541078,-0.749288,0.518776,-0.69945,0.524516,-0.321449,1.37301,0.006315,-13.7488,-4.14706,-18.7142,21.5906,-2.10997,-1.39689,-0.252493,-1.78195,-0.877592,-1.7351,3.39812,-0.864317,0.0819682,-0.113276
2999212,1,-1.59579,-0.505264,-0.0223158,-2.07867,-1.58079,1.61907,0.785526,-1.59972,-0.504268,-0.0261691,-2.07463,-1.58334,1.62262,0.785384,-0.695863,0.491562,-0.631447,0.508592,-0.289531,1.32323,0.00355144,-0.757923,0.526266,-0.70944,0.532001,-0.325504,1.39083,0.00663017,-13.6734,-4.04788,-18.738,21.3922,-2.20061,-1.34562,-0.246084,-1.78131,-0.8638,-1.72073,3.38764,-0.873607,0.0822325,-0.11351
2999213,1,-1.59651,-0.504753,-0.0229685,-2.07813,-1.58109,1.62046,0.785534,-1.60048,-0.503734,-0.0268885,-2.07409,-1.58367,1.62402,0.785391,-0.702993,0.490442,-0.637887,0.517495,-0.290407,1.33954,0.00416535,-0.766558,0.533756,-0.71943,0.539486,-0.329559,1.40864,0.00694533,-13.598,-4.02011,-18.6865,21.2931,-2.26286,-1.39689,-0.290945,-1.7832,-0.837861,-1.71243,3.36781,-0.882457,0.0815307,-0.114374
2999214,1,-1.59725,-0.504224,-0.0236552,-2.07759,-1.5814,1.62185,0.785544,-1.60126,-0.503193,-0.0276179,-2.07354,-1.58401,1.62545,0.785398,-0.715355,0.506387,-0.651712,0.524953,-0.297463,1.3532,0.00926548,-0.775193,0.541246,-0.72942,0.546971,-0.333613,1.42646,0.0072605,-13.4711,-4.04788,-18.5119,21.2177,-2.28483,-1.50675,-0.336721,-1.78943,-0.799019,-1.7126,3.33863,-0.891039,0.0799681,-0.115871
2999215,1,-1.59802,-0.503691,-0.0243507,-2.07704,-1.58173,1.62327,0.785557,-1.60204,-0.502644,-0.0283573,-2.07299,-1.58434,1.6269,0.785406,-0.725141,0.51394,-0.661524,0.5315,-0.308274,1.36206,0.0104762,-0.783828,0.548736,-0.73941,0.554456,-0.337668,1.44428,0.00757567,-13.1933,-4.02011,-18.4841,21.1939,-2.26286,-1.5452,-0.440176,-1.79683,-0.761446,-1.71585,3.30752,-0.89963,0.0780746,-0.117953
2999216,1,-1.59878,-0.503161,-0.0250501,-2.07647,-1.58205,1.62468,0.78556,-1.60283,-0.502088,-0.0291067,-2.07243,-1.58469,1.62836,0.785413,-0.740595,0.515652,-0.672457,0.543155,-0.320896,1.38011,0.00733477,-0.792462,0.556226,-0.7494,0.561942,-0.341723,1.46209,0.00789083,-13.0942,-4.02011,-18.4603,21.1701,-2.2061,-1.55161,-0.440176,-1.80146,-0.727653,-1.71663,3.27598,-0.908229,0.0763502,-0.120649
2999217,1,-1.59953,-0.502608,-0.0257685,-2.0759,-1.58238,1.62613,0.785558,-1.60363,-0.501524,-0.0298661,-2.07186,-1.58503,1.62984,0.785422,-0.745866,0.529652,-0.677992,0.556463,-0.317246,1.40315,0.00736276,-0.799298,0.563705,-0.75939,0.569297,-0.345517,1.47826,0.0083875,-13.3441,-4.12326,-18.4603,21.1185,-2.17772,-1.55161,-0.375173,-1.80384,-0.689526,-1.71652,3.23876,-0.916667,0.0745341,-0.12407
2999218,1,-1.60029,-0.502047,-0.0264762,-2.07533,-1.58271,1.62758,0.785544,-1.60444,-0.500953,-0.0306355,-2.07128,-1.58538,1.63133,0.785431,-0.742317,0.541647,-0.691048,0.554216,-0.322904,1.40892,0.00519762,-0.806134,0.571184,-0.76938,0.576653,-0.349311,1.49442,0.00888417,-13.4949,-4.30179,-18.5873,21.1939,-2.16673,-1.41611,-0.23876,-1.81098,-0.658776,-1.72445,3.20166,-0.925271,0.0713881,-0.128218
2999219,1,-1.60108,-0.50147,-0.0271936,-2.07476,-1.58303,1.62903,0.785529,-1.60525,-0.500375,-0.0314149,-2.0707,-1.58573,1.63284,0.78544,-0.76076,0.547305,-0.701244,0.572597,-0.318651,1.42561,-0.000957587,-0.81297,0.578662,-0.77937,0.584009,-0.353105,1.51059,0.00938084,-13.5464,-4.55173,-18.8134,21.3169,-2.26286,-1.30716,-0.0968531,-1.82551,-0.645811,-1.74248,3.17167,-0.934281,0.0666679,-0.1329
2999220,1,-1.60186,-0.500884,-0.0279153,-2.07416,-1.58336,1.63049,0.785525,-1.60607,-0.499788,-0.0322042,-2.07011,-1.58609,1.63437,0.78545,-0.768391,0.563106,-0.707778,0.576784,-0.323588,1.4186,-0.00120033,-0.819805,0.586141,-0.78936,0.591365,-0.3569,1.52675,0.00987751,-13.6972,-4.75406,-18.9642,21.3446,-2.38096,-1.01694,-0.0648096,-1.84253,-0.647354,-1.76423,3.14669,-0.943514,0.0615615,-0.137772
2999221,1,-1.60265,-0.500304,-0.0286436,-2.07358,-1.5837,1.63198,0.785513,-1.6069,-0.499195,-0.0330036,-2.06951,-1.58645,1.63591,0.78546,-0.777902,0.559061,-0.715849,0.575435,-0.333354,1.44339,-0.00345115,-0.826641,0.593619,-0.79935,0.59872,-0.360694,1.54292,0.0103742,-13.725,-4.82944,-19.0157,21.543,-2.43223,-1.01694,0.0194189,-1.86099,-0.66048,-1.78905,3.12773,-0.953086,0.0568063,-0.142412
2999222,1,-1.60346,-0.49971,-0.0293878,-2.07299,-1.58406,1.63352,0.785508,-1.60773,-0.498594,-0.0338129,-2.0689,-1.58682,1.63747,0.785471,-0.792156,0.570053,-0.721385,0.581419,-0.341088,1.47559,-0.00316999,-0.833477,0.601098,-0.80934,0.606076,-0.364488,1.55909,0.0108708,-13.598,-4.95639,-18.9919,21.7176,-2.39836,-1.17807,0.0523779,-1.88303,-0.678116,-1.82044,3.11629,-0.963202,0.0524464,-0.14648
2999223,1,-1.60426,-0.499097,-0.030165,-2.07239,-1.58441,1.63508,0.785509,-1.60857,-0.497985,-0.0346323,-2.06829,-1.58718,1.63904,0.785483,-0.817719,0.583473,-0.738449,0.589135,-0.347749,1.49832,-0.00256179,-0.840312,0.608576,-0.81933,0.613432,-0.368282,1.57525,0.0113675,-13.5464,-5.15872,-18.7618,21.8644,-2.3416,-1.33921,0.071604,-1.90336,-0.702031,-1.85136,3.1134,-0.97379,0.0491503,-0.149727
2999224,1,-1.60509,-0.49849,-0.0309452,-2.07179,-1.58475,1.6366,0.785505,-1.60942,-0.497369,-0.0354616,-2.06767,-1.58756,1.64064,0.785494,-0.818156,0.587061,-0.748223,0.600526,-0.340657,1.50454,-0.00293431,-0.847148,0.616055,-0.82932,0.620788,-0.372076,1.59142,0.0118642,-13.3203,-5.26187,-18.4841,22.0627,-2.34709,-1.1973,0.110056,-1.91393,-0.735501,-1.87009,3.1179,-0.984618,0.0479255,-0.152005
2999225,1,-1.60595,-0.497874,-0.0317345,-2.07119,-1.58511,1.63816,0.785502,-1.61027,-0.496746,-0.0363009,-2.06704,-1.58793,1.64224,0.785507,-0.833524,0.593019,-0.75869,0.608812,-0.344167,1.51338,-0.00302863,-0.853984,0.623533,-0.83931,0.628143,-0.37587,1.60758,0.0123609,-12.8165,-5.33725,-18.4088,22.1897,-2.35899,-1.01053,0.143015,-1.91549,-0.766738,-1.87705,3.12226,-0.995494,0.0487447,-0.153297
2999226,1,-1.60677,-0.497246,-0.0325268,-2.07058,-1.58547,1.63973,0.785501,-1.61113,-0.496115,-0.0371502,-2.0664,-1.58831,1.64387,0.78552,-0.837888,0.600394,-0.766698,0.605419,-0.346319,1.53097,-0.00214523,-0.860819,0.631012,-0.8493,0.635499,-0.379664,1.62375,0.0128575,-12.6895,-5.48801,-18.2818,22.388,-2.40385,-0.952855,0.149424,-1.9124,-0.791442,-1.87834,3.12615,-1.0065,0.0510324,-0.153591
2999227,1,-1.60761,-0.496606,-0.0333469,-2.06997,-1.58583,1.64133,0.785501,-1.612,-0.495476,-0.0380095,-2.06576,-1.58869,1.64551,0.785533,-0.839625,0.613601,-0.780356,0.61001,-0.348211,1.54393,-0.00158411,-0.865636,0.638238,-0.85929,0.642569,-0.38317,1.63805,0.0134816,-12.7887,-5.63876,-18.0279,22.5626,-2.43223,-0.823766,0.155832,-1.90956,-0.82257,-1.88017,3.13958,-1.018,0.0540113,-0.152853
2999228,1,-1.60848,-0.49597,-0.0341661,-2.06935,-1.58619,1.64295,0.785507,-1.61287,-0.494831,-0.0388788,-2.06511,-1.58908,1.64716,0.785547,-0.852689,0.625137,-0.788787,0.616303,-0.34744,1.56223,0.00212606,-0.870452,0.645464,-0.86928,0.649638,-0.386676,1.65235,0.0141056,-12.511,-5.61496,-18.0279,22.6856,-2.49998,-0.713903,0.071604,-1.90988,-0.873775,-1.88572,3.16949,-1.03028,0.0572285,-0.151118
2999229,1,-1.60934,-0.495331,-0.0349963,-2.06871,-1.58656,1.64457,0.785519,-1.61375,-0.494178,-0.039758,-2.06446,-1.58947,1.64882,0.785562,-0.862535,0.623598,-0.803395,0.618669,-0.349104,1.5786,0.00482122,-0.875268,0.65269,-0.87927,0.656708,-0.390182,1.66665,0.0147296,-12.3602,-5.61496,-17.9525,22.7332,-2.53935,-0.733129,-0.0190333,-1.91005,-0.940188,-1.89083,3.21265,-1.0432,0.0613147,-0.148538
2999230,1,-1.6102,-0.49468,-0.0358558,-2.06808,-1.58694,1.64623,0.78553,-1.61463,-0.493518,-0.0406473,-2.06379,-1.58986,1.65051,0.785577,-0.860501,0.630865,-0.810306,0.625306,-0.352357,1.59257,0.0147869,-0.880084,0.659916,-0.88926,0.663777,-0.393688,1.68096,0.0153536,-12.4356,-5.63876,-17.6986,22.7332,-2.52287,-0.849401,-0.077627,-1.90931,-1.00403,-1.89518,3.26081,-1.05657,0.0666253,-0.145411
2999231,1,-1.61108,-0.494037,-0.0367125,-2.06743,-1.58731,1.64792,0.785526,-1.61551,-0.492851,-0.0415465,-2.06312,-1.59026,1.6522,0.785593,-0.869739,0.625905,-0.822979,0.632695,-0.35547,1.62121,0.00802009,-0.884901,0.667142,-0.89925,0.670847,-0.397194,1.69526,0.0159777,-12.1579,-5.53958,-17.4725,22.6102,-2.47709,-1.15244,-0.00621587,-1.91178,-1.04825,-1.90488,3.30481,-1.07026,0.0725605,-0.142107
2999232,1,-1.61198,-0.49339,-0.0375849,-2.06678,-1.5877,1.6496,0.785529,-1.6164,-0.492177,-0.0424558,-2.06244,-1.59066,1.65391,0.78561,-0.879628,0.631643,-0.827583,0.655808,-0.36837,1.64065,0.00642671,-0.889717,0.674368,-0.90924,0.677917,-0.400699,1.70956,0.0166017,-11.6818,-5.33725,-17.2939,22.388,-2.39836,-1.46097,-0.0190333,-1.91813,-1.05368,-1.92195,3.33076,-1.08375,0.0786117,-0.13893
2999233,1,-1.61287,-0.492732,-0.0384794,-2.06611,-1.58808,1.6513,0.785534,-1.61729,-0.491495,-0.043375,-2.06176,-1.59107,1.65563,0.785627,-0.878866,0.643851,-0.839238,0.664475,-0.369146,1.64609,0.00521313,-0.894533,0.681594,-0.91923,0.684986,-0.404205,1.72386,0.0172257,-11.5549,-5.13492,-17.04,22.1143,-2.40935,-1.49393,-0.0318506,-1.92815,-1.01813,-1.9468,3.33111,-1.09662,0.0840469,-0.135997
2999234,1,-1.61374,-0.492065,-0.0393666,-2.06543,-1.58846,1.653,0.785546,-1.61819,-0.490806,-0.0443042,-2.06107,-1.59147,1.65737,0.785645,-0.87633,0.643472,-0.847987,0.671101,-0.372891,1.66788,0.00646074,-0.899349,0.68882,-0.92922,0.692056,-0.407711,1.73817,0.0178497,-11.6302,-5.10715,-16.7901,21.9159,-2.35899,-1.62851,-0.103262,-1.94501,-0.956974,-1.98297,3.31225,-1.10904,0.0875568,-0.13331
2999235,1,-1.61464,-0.491374,-0.0402673,-2.06476,-1.58887,1.65474,0.785565,-1.6191,-0.49011,-0.0452434,-2.06037,-1.59189,1.65912,0.785663,-0.875496,0.657618,-0.8569,0.673319,-0.380232,1.68571,0.00934359,-0.904165,0.696046,-0.93921,0.699125,-0.411217,1.75247,0.0184738,-11.6302,-5.33725,-16.7385,21.7652,-2.30772,-1.70633,-0.232351,-1.97277,-0.885132,-2.03468,3.28524,-1.12132,0.0877996,-0.13089
2999236,1,-1.61552,-0.490679,-0.0411644,-2.06407,-1.58927,1.65647,0.785572,-1.62001,-0.489407,-0.0461926,-2.05966,-1.5923,1.66089,0.785683,-0.879806,0.674345,-0.868121,0.675836,-0.38381,1.68857,0.00692919,-0.908982,0.703272,-0.9492,0.706195,-0.414723,1.76677,0.0190978,-11.654,-5.58719,-16.6869,21.5906,-2.30223,-1.4097,-0.246084,-2.01159,-0.829412,-2.10054,3.26617,-1.13385,0.0841891,-0.128793
2999237,1,-1.61643,-0.489975,-0.0421032,-2.06338,-1.58966,1.65819,0.78558,-1.62092,-0.488697,-0.0471518,-2.05895,-1.59272,1.66267,0.785702,-0.888154,0.673919,-0.890073,0.696953,-0.385118,1.69577,0.00500045,-0.91167,0.710067,-0.95919,0.712843,-0.417899,1.77911,0.0198114,-11.5787,-5.81729,-16.5084,21.5906,-2.3416,-1.14603,-0.252493,-2.05133,-0.79993,-2.16544,3.25882,-1.14638,0.0782795,-0.12718
2999238,1,-1.61735,-0.489264,-0.0430318,-2.06268,-1.59005,1.65996,0.78559,-1.62183,-0.48798,-0.048121,-2.05823,-1.59314,1.66446,0.785723,-0.895338,0.685473,-0.897712,0.704055,-0.388069,1.71025,0.00721558,-0.914359,0.716861,-0.96918,0.71949,-0.421075,1.79144,0.020525,-11.6064,-5.94424,-16.6631,21.5152,-2.44322,-1.07462,-0.225942,-2.0799,-0.777403,-2.21304,3.24979,-1.15818,0.0725227,-0.126254
2999239,1,-1.61824,-0.488553,-0.0439564,-2.06197,-1.59048,1.66177,0.7856,-1.62275,-0.487256,-0.0491002,-2.0575,-1.59356,1.66627,0.785744,-0.897296,0.68874,-0.90597,0.699775,-0.407371,1.77337,0.00784839,-0.917048,0.723656,-0.97917,0.726138,-0.424251,1.80378,0.0212386,-11.8048,-6.095,-16.8139,21.5152,-2.41484,-1.44816,-0.168264,-2.09961,-0.757515,-2.24713,3.23821,-1.16925,0.0669649,-0.126065
2999240,1,-1.61914,-0.487836,-0.0449179,-2.06127,-1.59089,1.66358,0.785625,-1.62367,-0.486526,-0.0500893,-2.05677,-1.59399,1.66808,0.785766,-0.893643,0.700129,-0.916647,0.685624,-0.409955,1.78157,0.0137958,-0.919736,0.73045,-0.98916,0.732785,-0.427427,1.81611,0.0219523,-12.1341,-6.1188,-16.6631,21.6422,-2.38646,-1.58365,-0.252493,-2.12178,-0.756959,-2.28268,3.24075,-1.18037,0.0598627,-0.126473
2999241,1,-1.62006,-0.487099,-0.0458915,-2.06055,-1.59133,1.6654,0.785642,-1.62459,-0.485789,-0.0510885,-2.05603,-1.59442,1.66991,0.785789,-0.898239,0.714874,-0.926061,0.702067,-0.423615,1.78602,0.0179064,-0.922425,0.737244,-0.99915,0.739432,-0.430603,1.82845,0.0226659,-12.0349,-6.27353,-16.5362,21.6898,-2.29033,-1.55802,-0.219534,-2.15156,-0.792067,-2.3256,3.26947,-1.19212,0.0505568,-0.127298
2999242,1,-1.62097,-0.486357,-0.0468543,-2.0598,-1.59176,1.66719,0.785655,-1.62552,-0.485045,-0.0520976,-2.05528,-1.59486,1.67175,0.785812,-0.900357,0.715885,-0.939405,0.710496,-0.426655,1.78801,0.0182576,-0.925114,0.744039,-1.00914,0.74608,-0.433779,1.84078,0.0233795,-11.8802,-6.59885,-16.5362,21.7652,-2.26286,-1.32639,-0.0968531,-2.18573,-0.854863,-2.37144,3.31477,-1.20423,0.0398863,-0.128487
2999243,1,-1.62186,-0.48559,-0.0478523,-2.05909,-1.59219,1.66901,0.785669,-1.62645,-0.484294,-0.0531168,-2.05453,-1.59529,1.6736,0.785836,-0.889066,0.732102,-0.95636,0.713511,-0.423011,1.78501,0.0141888,-0.927802,0.750833,-1.01913,0.752727,-0.436955,1.85312,0.0240931,-12.1341,-7.00351,-16.1791,22.0389,-2.25645,-1.20371,0.0258276,-2.22081,-0.929455,-2.41508,3.36449,-1.21623,0.0288799,-0.129974
2999244,1,-1.62275,-0.484837,-0.0488342,-2.05835,-1.59262,1.67087,0.785672,-1.62738,-0.483536,-0.0541459,-2.05377,-1.59573,1.67547,0.785861,-0.890224,0.727265,-0.966479,0.715628,-0.425348,1.80056,0.0120218,-0.930491,0.757628,-1.02912,0.759375,-0.440131,1.86545,0.0248067,-12.3364,-7.28122,-15.9768,22.2611,-2.38096,-1.1204,0.259287,-2.25783,-1.01046,-2.45688,3.41738,-1.22807,0.0179611,-0.131522
2999245,1,-1.62368,-0.484075,-0.0498257,-2.05762,-1.59304,1.67271,0.785705,-1.62831,-0.482772,-0.055185,-2.05301,-1.59618,1.67735,0.785887,-0.900892,0.740589,-0.971406,0.715172,-0.423206,1.8147,0.0207884,-0.93318,0.764422,-1.03911,0.766022,-0.443307,1.87779,0.0255204,-12.0349,-7.33279,-15.9768,22.511,-2.49998,-1.05539,0.219919,-2.29771,-1.09112,-2.49878,3.47302,-1.23979,0.00737799,-0.13275
2999246,1,-1.62461,-0.483317,-0.050846,-2.05687,-1.59347,1.67457,0.785727,-1.62924,-0.482001,-0.0562341,-2.05223,-1.59662,1.67924,0.785913,-0.911961,0.746035,-0.979703,0.728064,-0.416593,1.81464,0.0209163,-0.935868,0.771217,-1.0491,0.77267,-0.446483,1.89012,0.026234,-11.7056,-7.18204,-15.8022,22.6102,-2.619,-0.90067,0.219919,-2.33749,-1.17043,-2.53864,3.53099,-1.25152,-0.00217318,-0.133236
2999247,1,-1.62553,-0.482557,-0.0518737,-2.05612,-1.5939,1.6764,0.785752,-1.63018,-0.481223,-0.0572932,-2.05145,-1.59707,1.68114,0.78594,-0.911082,0.7426,-1.00012,0.731435,-0.419907,1.82302,0.0212757,-0.936418,0.777445,-1.05909,0.778781,-0.449263,1.90047,0.0270145,-11.654,-7.10666,-15.5999,22.761,-2.66386,-0.611364,0.207102,-2.3704,-1.23762,-2.56839,3.58408,-1.26322,-0.00931016,-0.132764
2999248,1,-1.62645,-0.481783,-0.0529055,-2.05537,-1.59434,1.67829,0.78577,-1.63112,-0.480439,-0.0583623,-2.05067,-1.59752,1.68305,0.785968,-0.910021,0.749781,-1.00521,0.744552,-0.424962,1.83505,0.0200983,-0.936967,0.783673,-1.06908,0.784892,-0.452042,1.91083,0.027795,-11.654,-7.13046,-15.5483,22.6856,-2.63548,-0.63059,0.226328,-2.39439,-1.27489,-2.58537,3.62263,-1.2748,-0.013337,-0.131335
2999249,1,-1.62737,-0.481008,-0.0539378,-2.0546,-1.59478,1.68023,0.785778,-1.63206,-0.47965,-0.0594413,-2.04988,-1.59798,1.68497,0.785996,-0.91929,0.76186,-1.00879,0.751204,-0.430511,1.86102,0.016877,-0.937517,0.789902,-1.07907,0.791003,-0.454822,1.92118,0.0285755,-11.6302,-7.18204,-15.4968,22.5864,-2.53935,-0.842992,0.304148,-2.41659,-1.28692,-2.59998,3.64689,-1.28652,-0.0152337,-0.128992
2999250,1,-1.62829,-0.480221,-0.0549976,-2.05383,-1.59522,1.68213,0.785793,-1.63299,-0.478853,-0.0605304,-2.04908,-1.59844,1.6869,0.786026,-0.925018,0.755156,-1.01876,0.776486,-0.433513,1.87392,0.017662,-0.938066,0.79613,-1.08906,0.797115,-0.457602,1.93154,0.0293561,-11.654,-7.23361,-15.4214,22.3127,-2.47709,-0.810948,0.304148,-2.44094,-1.27378,-2.61928,3.65311,-1.29831,-0.0157951,-0.125803
2999251,1,-1.62925,-0.479424,-0.0560543,-2.05303,-1.59566,1.68406,0.785812,-1.63393,-0.478051,-0.0616294,-2.04828,-1.5989,1.68884,0.786056,-0.928351,0.768658,-1.02766,0.786432,-0.432238,1.87602,0.0149289,-0.938615,0.802359,-1.09905,0.803226,-0.460381,1.94189,0.0301366,-11.2018,-7.28122,-15.4214,22.0627,-2.47709,-0.80454,0.265696,-2.46479,-1.22225,-2.64065,3.63093,-1.30968,-0.0148199,-0.121847
2999252,1,-1.63019,-0.478641,-0.0571179,-2.05221,-1.59611,1.68597,0.785838,-1.63487,-0.477243,-0.0627385,-2.04747,-1.59936,1.6908,0.786087,-0.935157,0.764791,-1.03817,0.798142,-0.448221,1.88605,0.0186135,-0.939165,0.808587,-1.10904,0.809337,-0.463161,1.95224,0.0309171,-10.6979,-7.23361,-15.2429,21.5668,-2.36449,-0.881444,0.194285,-2.4852,-1.1344,-2.65987,3.58123,-1.32039,-0.0120449,-0.117178
2999253,1,-1.63114,-0.477855,-0.0582196,-2.0514,-1.59657,1.68793,0.785865,-1.63581,-0.476428,-0.0638575,-2.04665,-1.59983,1.69276,0.786118,-0.931702,0.773445,-1.05376,0.790433,-0.449563,1.89881,0.0221937,-0.939714,0.814816,-1.11903,0.815448,-0.465941,1.9626,0.0316976,-10.5194,-7.05508,-14.8898,21.3169,-2.21159,-1.11399,0.09083,-2.49981,-1.02295,-2.67303,3.51583,-1.33047,-0.00750331,-0.111901
2999254,1,-1.63207,-0.477058,-0.0593247,-2.05058,-1.59703,1.68992,0.785902,-1.63675,-0.475607,-0.0649865,-2.04583,-1.60029,1.69473,0.786151,-0.918067,0.780809,-1.09447,0.800998,-0.447116,1.91648,0.0264361,-0.940263,0.821044,-1.12902,0.821559,-0.468721,1.97295,0.0324781,-10.3924,-6.90433,-14.4573,21.0193,-2.15483,-1.25498,-0.0584009,-2.5037,-0.908601,-2.67011,3.45093,-1.33996,-0.00110528,-0.10624
2999255,1,-1.63302,-0.476273,-0.0604496,-2.04974,-1.59747,1.69187,0.785947,-1.63769,-0.474779,-0.0661255,-2.045,-1.60077,1.69671,0.786184,-0.926488,0.778936,-1.10044,0.824152,-0.451786,1.92535,0.0354274,-0.940813,0.827272,-1.13901,0.827671,-0.4715,1.9833,0.0332586,-9.99175,-6.75357,-14.128,20.8725,-2.17772,-1.35843,-0.252493,-2.49033,-0.793531,-2.63958,3.38546,-1.34833,0.0074277,-0.100602
2999256,1,-1.63399,-0.475464,-0.0615891,-2.04892,-1.59792,1.6939,0.785985,-1.63863,-0.473946,-0.0672745,-2.04417,-1.60124,1.69871,0.786218,-0.940293,0.790858,-1.10735,0.831982,-0.453115,1.9471,0.0424158,-0.941362,0.833501,-1.149,0.833782,-0.47428,1.99366,0.0340392,-9.66246,-6.7258,-13.9019,20.7694,-2.23448,-1.72556,-0.329397,-2.45983,-0.66375,-2.58487,3.30638,-1.35508,0.0173706,-0.0955118
2999257,1,-1.63494,-0.474639,-0.0627445,-2.04807,-1.59838,1.69585,0.786027,-1.63957,-0.473107,-0.0684331,-2.04333,-1.60172,1.70071,0.786253,-0.948488,0.798001,-1.12796,0.834242,-0.456621,1.9914,0.0422099,-0.94008,0.839064,-1.15855,0.839267,-0.476555,2.00188,0.0348761,-9.40856,-6.97971,-13.3703,20.7218,-2.31871,-1.53238,-0.381582,-2.41417,-0.530563,-2.5116,3.21962,-1.36038,0.027374,-0.0914221
2999258,1,-1.63589,-0.473799,-0.0638872,-2.04723,-1.59884,1.69784,0.786056,-1.64051,-0.472262,-0.0696012,-2.04249,-1.6022,1.70272,0.786289,-0.937713,0.813848,-1.12686,0.842639,-0.459008,1.98327,0.0373299,-0.938797,0.844627,-1.16809,0.844751,-0.47883,2.0101,0.035713,-9.40856,-7.25742,-13.2671,20.821,-2.35258,-1.30076,-0.303762,-2.35992,-0.418296,-2.42845,3.14055,-1.36492,0.035608,-0.0886278
2999259,1,-1.63682,-0.472945,-0.0650583,-2.04638,-1.5993,1.69985,0.786101,-1.64145,-0.471412,-0.0707788,-2.04164,-1.60268,1.70474,0.786325,-0.949231,0.83118,-1.14467,0.845862,-0.450809,1.98325,0.041843,-0.937515,0.850191,-1.17764,0.850236,-0.481105,2.01833,0.0365499,-9.51171,-7.63828,-13.1442,20.9439,-2.38646,-1.15885,-0.31658,-2.30743,-0.34992,-2.34875,3.08152,-1.36961,0.0407742,-0.0872034
2999260,1,-1.63777,-0.472104,-0.066219,-2.04553,-1.59976,1.70185,0.786157,-1.64239,-0.470556,-0.071966,-2.04078,-1.60316,1.70677,0.786363,-0.942161,0.827877,-1.14981,0.84549,-0.454413,1.9932,0.0482001,-0.936232,0.855754,-1.18719,0.855721,-0.48338,2.02655,0.0373868,-9.55931,-7.88821,-13.1164,21.2177,-2.43773,-1.17807,-0.394399,-2.25839,-0.330587,-2.27439,3.04763,-1.37504,0.0434746,-0.0870673
2999261,1,-1.63873,-0.471259,-0.0673931,-2.04469,-1.60022,1.70388,0.786209,-1.64332,-0.469695,-0.0731628,-2.03992,-1.60365,1.7088,0.786401,-0.944828,0.836769,-1.15088,0.844529,-0.45219,1.99159,0.0500587,-0.934949,0.861317,-1.19674,0.861206,-0.485655,2.03477,0.0382238,-9.48394,-7.96359,-13.0926,21.5906,-2.49449,-1.17167,-0.407217,-2.21784,-0.343414,-2.21272,3.03532,-1.38149,0.0438051,-0.0881329
2999262,1,-1.63968,-0.470413,-0.0685627,-2.04383,-1.6007,1.70591,0.786261,-1.64425,-0.468828,-0.074369,-2.03905,-1.60413,1.71084,0.78644,-0.951315,0.827118,-1.15362,0.848961,-0.453366,2.00075,0.0514044,-0.933667,0.866881,-1.20628,0.866691,-0.487931,2.04299,0.0390607,-9.28557,-8.11832,-13.168,21.8167,-2.47709,-1.0618,-0.407217,-2.19196,-0.365435,-2.17404,3.03622,-1.38913,0.0415092,-0.090361
2999263,1,-1.64063,-0.469545,-0.0697539,-2.04298,-1.60118,1.70792,0.786287,-1.64519,-0.467956,-0.0755849,-2.03818,-1.60462,1.71289,0.78648,-0.949771,0.845298,-1.15544,0.832728,-0.46182,2.00763,0.0425111,-0.932384,0.872444,-1.21583,0.872175,-0.490206,2.05122,0.0398976,-9.2578,-8.34445,-13.2195,21.9635,-2.36998,-1.04258,-0.141714,-2.18166,-0.389047,-2.16062,3.04967,-1.39805,0.0367985,-0.0936494
2999264,1,-1.64154,-0.468668,-0.0709643,-2.04211,-1.60167,1.70993,0.786318,-1.64612,-0.467078,-0.0768102,-2.0373,-1.60512,1.71495,0.78652,-0.928743,0.853655,-1.16804,0.848043,-0.466821,1.99537,0.0380814,-0.931102,0.878007,-1.22538,0.87766,-0.492481,2.05944,0.0407345,-9.66246,-8.59836,-13.0926,21.9635,-2.26286,-0.75327,0.09083,-2.19125,-0.433674,-2.17633,3.08581,-1.40847,0.029314,-0.0976758
2999265,1,-1.64243,-0.467802,-0.0721679,-2.04122,-1.60214,1.71196,0.78635,-1.64705,-0.466194,-0.0780452,-2.03642,-1.60561,1.71702,0.786562,-0.915265,0.848265,-1.17491,0.85122,-0.468746,2.00916,0.0315201,-0.929819,0.883571,-1.23493,0.883145,-0.494756,2.06766,0.0415715,-10.0394,-8.74911,-12.9418,21.789,-2.23448,-0.67545,0.297739,-2.22585,-0.495371,-2.22563,3.1371,-1.42004,0.0188362,-0.101943
2999266,1,-1.64338,-0.46694,-0.0733815,-2.04034,-1.60262,1.71401,0.786389,-1.64798,-0.465305,-0.0792896,-2.03553,-1.60611,1.7191,0.786604,-0.916624,0.849558,-1.1766,0.866149,-0.466641,2.02217,0.0330604,-0.928537,0.889134,-1.24447,0.88863,-0.497031,2.07588,0.0424084,-9.8648,-8.62216,-13.0648,21.5668,-2.29674,-0.694677,0.330698,-2.28594,-0.540821,-2.30911,3.18151,-1.4319,0.0058494,-0.105867
2999267,1,-1.6443,-0.466076,-0.0746027,-2.03945,-1.60309,1.71607,0.786421,-1.6489,-0.464411,-0.0805427,-2.03464,-1.60661,1.72118,0.786648,-0.915987,0.860159,-1.18992,0.873773,-0.461896,2.02307,0.0324122,-0.925822,0.893966,-1.25309,0.893407,-0.498625,2.08189,0.0432975,-9.78942,-8.57059,-12.9141,21.3446,-2.44322,-0.585729,0.407602,-2.36371,-0.557458,-2.41662,3.20848,-1.44345,-0.00816116,-0.108857
2999268,1,-1.64523,-0.465184,-0.075865,-2.03855,-1.60357,1.71811,0.786445,-1.64983,-0.463512,-0.0818044,-2.03374,-1.60711,1.72327,0.786692,-0.921454,0.856938,-1.20939,0.901565,-0.472163,2.03524,0.0306343,-0.923107,0.898799,-1.26171,0.898185,-0.500218,2.0879,0.0441866,-9.71404,-8.74911,-12.4856,21.0193,-2.50548,-0.5015,0.511057,-2.44151,-0.542137,-2.52369,3.21083,-1.45408,-0.020434,-0.110499
2999269,1,-1.64618,-0.464286,-0.0771309,-2.03764,-1.60406,1.72018,0.786479,-1.65075,-0.462608,-0.0830748,-2.03284,-1.60761,1.72536,0.786737,-0.930658,0.86864,-1.21895,0.91176,-0.475383,2.03573,0.0303288,-0.920392,0.903632,-1.27032,0.902963,-0.501812,2.09391,0.0450757,-9.43633,-8.8483,-12.2317,20.821,-2.52287,-0.386144,0.459788,-2.501,-0.48645,-2.60542,3.17927,-1.46321,-0.0282259,-0.110542
2999270,1,-1.64712,-0.463396,-0.0784024,-2.03673,-1.60454,1.72224,0.786508,-1.65166,-0.4617,-0.0843537,-2.03193,-1.60811,1.72746,0.786783,-0.939419,0.865715,-1.23331,0.908544,-0.487349,2.03909,0.025625,-0.917677,0.908464,-1.27894,0.907741,-0.503406,2.09992,0.0459648,-8.98009,-9.02682,-11.8508,20.821,-2.47709,-0.353185,0.394785,-2.5326,-0.398948,-2.64882,3.12055,-1.471,-0.0300941,-0.108806
2999271,1,-1.64805,-0.462495,-0.0796899,-2.03585,-1.60504,1.72432,0.786556,-1.65258,-0.460787,-0.0856413,-2.03102,-1.60862,1.72957,0.78683,-0.934662,0.876896,-1.23736,0.890688,-0.490871,2.04802,0.0368342,-0.914962,0.913297,-1.28756,0.912519,-0.504999,2.10593,0.0468539,-8.75396,-9.0784,-11.47,20.8725,-2.40935,-0.346776,0.175059,-2.53914,-0.307233,-2.65687,3.06013,-1.47833,-0.0265346,-0.105264
