shamilmamedov/beam_handling/data/param_estimation_ICRA/ocp_Z_15cm_0.42s_2.csv
duration, success rate, q[0], q[1], q[2], q[3], q[4], q[5], q[6],q_d[0], q_d[1], q_d[2], q_d[3], q_d[4], q_d[5], q_d[6],dq[0], dq[1], dq[2], dq[3], dq[4], dq[5], dq[6],dq_d[0], dq_d[1], dq_d[2], dq_d[3], dq_d[4], dq_d[5], dq_d[6],tau_J[0], tau_J[1], tau_J[2], tau_J[3], tau_J[4], tau_J[5], tau_J[6],tau_ext_hat_filtered[0], tau_ext_hat_filtered[1], tau_ext_hat_filtered[2], tau_ext_hat_filtered[3], tau_ext_hat_filtered[4], tau_ext_hat_filtered[5], tau_ext_hat_filtered[6]
574836,0,-1.57044,-0.522983,0.00031125,-2.09664,-0.00129249,1.57105,0.785741,-1.5708,-0.523598,1.17488e-06,-2.0944,-7.25539e-07,1.5708,0.785399,0.000347388,-0.000234469,0.000294905,-0.00014563,0.000160241,-0.000260266,-0.000939971,0,0,0,0,0,0,0,-0.454395,-10.0107,-0.837644,21.7176,1.75264,1.5209,-0.232351,-0.43129,-0.89002,-0.309916,3.16164,1.04219,-0.153489,-0.255142
574837,1,-1.57044,-0.522983,0.00031125,-2.09664,-0.0012931,1.57105,0.785741,-1.5708,-0.523598,1.17488e-06,-2.0944,-7.25539e-07,1.5708,0.785399,-0.000974834,-0.000156312,0.000174947,0.000552527,-9.66233e-05,6.38485e-05,-0.000389288,0,0,0,0,0,0,0,-0.402821,-10.0107,-0.837644,21.6898,1.75813,1.51449,-0.23876,-0.435155,-0.890266,-0.316438,3.16244,1.042,-0.153429,-0.255009
574838,1,-1.57044,-0.522983,0.000309579,-2.09665,-0.00129371,1.57105,0.785748,-1.5708,-0.523598,1.17488e-06,-2.0944,-7.25539e-07,1.5708,0.785399,0.00111335,-0.000104208,-0.000456422,0.000368352,-0.000267866,-0.000194793,0.00191061,0,0,0,0,0,0,0,-0.478199,-10.0107,-0.81384,21.6898,1.76363,1.5209,-0.297354,-0.438651,-0.889377,-0.322456,3.16226,1.04181,-0.153475,-0.254879
574839,1,-1.57044,-0.522984,0.00031125,-2.09664,-0.00129249,1.57105,0.785744,-1.5708,-0.523598,1.17488e-06,-2.0944,-7.25539e-07,1.5708,0.785399,-0.000371392,-0.000626284,0.000240349,0.00080238,0.000228324,0.000107497,8.69475e-05,0,0,0,0,0,0,0,-0.430592,-9.98691,-0.837644,21.666,1.75264,1.51449,-0.26531,-0.441807,-0.887411,-0.327883,3.16118,1.04162,-0.153611,-0.254758
574840,1,-1.57044,-0.522983,0.000309579,-2.09665,-0.00129371,1.57105,0.785741,-1.5708,-0.523598,1.17488e-06,-2.0944,-7.25539e-07,1.5708,0.785399,0.000309218,0.000139289,-0.000405715,-0.000671506,-0.000254685,7.16645e-05,-0.000925379,0,0,0,0,0,0,0,-0.454395,-10.0107,-0.81384,21.7176,1.76363,1.51449,-0.23876,-0.444554,-0.885054,-0.332642,3.15985,1.04145,-0.153763,-0.254682
574841,1,-1.57044,-0.522981,0.000307449,-2.09665,-0.00129178,1.57105,0.785744,-1.5708,-0.523598,1.17488e-06,-2.0944,-7.25539e-07,1.5708,0.785399,0.000206145,0.000742473,-0.000277329,-0.000447671,0.00047447,-0.000189583,0.000366425,0,0,0,0,0,0,0,-0.454395,-10.0385,-0.81384,21.7176,1.74623,1.5209,-0.26531,-0.446702,-0.884586,-0.336446,3.15973,1.04135,-0.153793,-0.254656
574842,1,-1.57044,-0.52298,0.00031054,-2.09664,-0.00129437,1.57105,0.785745,-1.5708,-0.523598,1.17488e-06,-2.0944,-7.25539e-07,1.5708,0.785399,0.00013743,-0.000154632,0.000366787,0.000907979,0.000519764,-0.000126388,0.000481642,0,0,0,0,0,0,0,-0.454395,-10.0107,-0.837644,21.666,1.74074,1.5209,-0.271719,-0.448537,-0.885887,-0.339686,3.16056,1.04128,-0.153737,-0.254653
574843,1,-1.57044,-0.522982,0.000311013,-2.09665,-0.00129356,1.57106,0.785743,-1.5708,-0.523598,1.17488e-06,-2.0944,-7.25539e-07,1.5708,0.785399,-0.000465192,-0.000103088,0.000240671,4.85072e-05,-9.43003e-05,0.000390459,-0.000390982,0,0,0,0,0,0,0,-0.430592,-10.0107,-0.837644,21.6898,1.75264,1.50808,-0.252493,-0.450248,-0.886541,-0.34274,3.16078,1.04119,-0.153738,-0.254676
574844,1,-1.57044,-0.522982,0.0003095,-2.09665,-0.00129346,1.57105,0.785745,-1.5708,-0.523598,1.17488e-06,-2.0944,-7.25539e-07,1.5708,0.785399,-0.000310128,-6.87252e-05,-0.000399256,3.23381e-05,-0.000266317,2.2947e-05,0.000688781,0,0,0,0,0,0,0,-0.430592,-10.0107,-0.81384,21.6898,1.75813,1.51449,-0.278127,-0.451427,-0.886348,-0.345062,3.16051,1.0411,-0.153777,-0.25473
574845,1,-1.57044,-0.522981,0.000311223,-2.09664,-0.00128942,1.57106,0.785747,-1.5708,-0.523598,1.17488e-06,-2.0944,-7.25539e-07,1.5708,0.785399,0.00035006,0.000603797,0.000288474,2.15588e-05,2.59056e-05,0.000252657,0.000933905,0,0,0,0,0,0,0,-0.454395,-10.0385,-0.837644,21.6898,1.75264,1.50808,-0.290945,-0.452076,-0.886593,-0.346595,3.16052,1.04103,-0.153791,-0.254813
574846,1,-1.57044,-0.522979,0.000311241,-2.09665,-0.0012933,1.57105,0.785741,-1.5708,-0.523598,1.17488e-06,-2.0944,-7.25539e-07,1.5708,0.785399,0.000790185,0.000959343,0.00019069,1.43725e-05,-0.000593081,-6.8921e-05,-0.00131018,0,0,0,0,0,0,0,-0.478199,-10.0623,-0.837644,21.6898,1.76912,1.51449,-0.23876,-0.452969,-0.888373,-0.348387,3.16126,1.04095,-0.153758,-0.254934
574847,1,-1.57044,-0.522983,0.000312917,-2.09664,-0.00129215,1.57105,0.785741,-1.5708,-0.523598,1.17488e-06,-2.0944,-7.25539e-07,1.5708,0.785399,0.00052679,-0.000566864,0.000682719,9.58167e-06,0.000214964,-4.59473e-05,-0.000873451,0,0,0,0,0,0,0,-0.478199,-10.0107,-0.861447,21.6898,1.75264,1.51449,-0.23876,-0.454507,-0.8908,-0.351008,3.16233,1.04085,-0.153705,-0.255096
574848,1,-1.57044,-0.522981,0.000311249,-2.09665,-0.00129106,1.57105,0.785747,-1.5708,-0.523598,1.17488e-06,-2.0944,-7.25539e-07,1.5708,0.785399,-0.00076243,0.000271705,-0.000102581,-0.000643226,0.000584119,-0.000505349,0.00135048,0,0,0,0,0,0,0,-0.430592,-10.0385,-0.837644,21.7176,1.74074,1.52731,-0.290945,-0.456056,-0.892281,-0.353623,3.16312,1.04076,-0.153658,-0.255268
574849,1,-1.57044,-0.522979,0.00030596,-2.09665,-0.00129307,1.57105,0.785745,-1.5708,-0.523598,1.17488e-06,-2.0944,-7.25539e-07,1.5708,0.785399,4.8525e-05,0.000737949,-0.00183231,-0.000428817,-0.000254847,-9.95407e-05,0.000188243,0,0,0,0,0,0,0,-0.454395,-10.0623,-0.762265,21.7176,1.75813,1.5209,-0.271719,-0.456266,-0.894013,-0.354248,3.16427,1.04074,-0.153555,-0.255436
574850,1,-1.57044,-0.522984,0.000309579,-2.09664,-0.00129309,1.57105,0.78574,-1.5708,-0.523598,1.17488e-06,-2.0944,-7.25539e-07,1.5708,0.785399,-0.000524462,-0.00127127,-1.56292e-05,0.000363736,-0.000169898,0.000170998,-0.00156993,0,0,0,0,0,0,0,-0.430592,-9.98691,-0.81384,21.6898,1.75813,1.51449,-0.225942,-0.454971,-0.895447,-0.352552,3.16526,1.04079,-0.15345,-0.255625
574851,1,-1.57044,-0.522983,0.00031125,-2.09665,-0.0012931,1.57106,0.785743,-1.5708,-0.523598,1.17488e-06,-2.0944,-7.25539e-07,1.5708,0.785399,0.000763983,-0.000290703,0.000546007,-0.000407124,-0.000113266,0.000113999,-6.32731e-05,0,0,0,0,0,0,0,-0.478199,-10.0107,-0.837644,21.7176,1.75813,1.51449,-0.252493,-0.453841,-0.894326,-0.351042,3.16492,1.04081,-0.153447,-0.255822
574852,1,-1.57044,-0.522983,0.000309579,-2.09664,-0.00129371,1.57106,0.785744,-1.5708,-0.523598,1.17488e-06,-2.0944,-7.25539e-07,1.5708,0.785399,0.000509322,-0.000193802,-0.000193097,-0.000271416,-0.000278961,7.59993e-05,0.000432536,0,0,0,0,0,0,0,-0.478199,-10.0107,-0.81384,21.7176,1.76363,1.51449,-0.26531,-0.453887,-0.892062,-0.351182,3.16411,1.04077,-0.153479,-0.255985
574853,1,-1.57044,-0.522981,0.00031125,-2.09665,-0.0012931,1.57106,0.785739,-1.5708,-0.523598,1.17488e-06,-2.0944,-7.25539e-07,1.5708,0.785399,-0.000774076,0.000520413,0.000427864,-0.000737756,1.74766e-05,0.000288025,-0.00140706,0,0,0,0,0,0,0,-0.430592,-10.0385,-0.837644,21.7414,1.75813,1.50808,-0.219534,-0.454388,-0.891041,-0.351922,3.16405,1.04073,-0.153456,-0.256105
574854,1,-1.57044,-0.522983,0.00031125,-2.09665,-0.00129371,1.57106,0.785745,-1.5708,-0.523598,1.17488e-06,-2.0944,-7.25539e-07,1.5708,0.785399,4.07612e-05,-0.000302672,0.00028508,0.000714589,-0.000191799,-0.000282701,0.0012321,0,0,0,0,0,0,0,-0.454395,-10.0107,-0.837644,21.6898,1.76363,1.5209,-0.278127,-0.454757,-0.891104,-0.352531,3.16445,1.04073,-0.153418,-0.256184
574855,1,-1.57044,-0.522981,0.00031292,-2.09665,-0.00129249,1.57106,0.785748,-1.5708,-0.523598,1.17488e-06,-2.0944,-7.25539e-07,1.5708,0.785399,0.000583986,0.000447833,0.000746743,-0.000730033,0.000279035,4.88915e-05,0.00153347,0,0,0,0,0,0,0,-0.478199,-10.0385,-0.861447,21.7414,1.75264,1.51449,-0.297354,-0.455441,-0.891303,-0.353627,3.16475,1.04072,-0.153415,-0.256219
574856,1,-1.57044,-0.52298,0.00031125,-2.09665,-0.00129371,1.57105,0.785739,-1.5708,-0.523598,1.17488e-06,-2.0944,-7.25539e-07,1.5708,0.785399,0.000389324,-0.000351059,-5.90749e-05,7.0123e-05,-0.000220878,-0.000204765,-0.0018599,0,0,0,0,0,0,0,-0.478199,-10.0107,-0.837644,21.7176,1.76363,1.5209,-0.219534,-0.456641,-0.891677,-0.355405,3.16518,1.04069,-0.153409,-0.256245
574857,1,-1.57044,-0.522982,0.000309579,-2.09665,-0.00129371,1.57106,0.785741,-1.5708,-0.523598,1.17488e-06,-2.0944,-7.25539e-07,1.5708,0.785399,-0.000297263,-0.000234039,-0.000596264,4.67487e-05,-0.000147252,0.000338208,-0.000527856,0,0,0,0,0,0,0,-0.454395,-10.0107,-0.81384,21.7176,1.76363,1.50808,-0.23876,-0.457476,-0.891557,-0.35656,3.16539,1.04069,-0.153422,-0.256294
574858,1,-1.57044,-0.522982,0.00030596,-2.09664,-0.00129371,1.57105,0.785746,-1.5708,-0.523598,1.17488e-06,-2.0944,-7.25539e-07,1.5708,0.785399,-0.000754987,-0.000156026,-0.00160399,0.00068078,-9.81679e-05,-1.18868e-05,0.00134352,0,0,0,0,0,0,0,-0.430592,-10.0107,-0.762265,21.6898,1.76363,1.51449,-0.284536,-0.456802,-0.890393,-0.355426,3.16486,1.04077,-0.153511,-0.256342
574859,1,-1.57044,-0.522983,0.00031292,-2.09664,-0.00129178,1.57105,0.785749,-1.5708,-0.523598,1.17488e-06,-2.0944,-7.25539e-07,1.5708,0.785399,5.34873e-05,-0.000104017,0.00125069,0.000453853,0.000578815,-0.000482642,0.000658319,0,0,0,0,0,0,0,-0.454395,-10.0107,-0.861447,21.6898,1.74623,1.52731,-0.278127,-0.455245,-0.888649,-0.352984,3.16375,1.04088,-0.153666,-0.256371
574860,1,-1.57044,-0.522981,0.00031125,-2.09665,-0.0012931,1.57105,0.785742,-1.5708,-0.523598,1.17488e-06,-2.0944,-7.25539e-07,1.5708,0.785399,-0.000521154,0.000580269,0.00027695,-0.000903857,-5.4933e-05,-8.44027e-05,-0.00101918,0,0,0,0,0,0,0,-0.430592,-10.0385,-0.837644,21.7414,1.75813,1.5209,-0.23876,-0.454472,-0.887705,-0.351797,3.16312,1.04097,-0.153774,-0.256404
574861,1,-1.57044,-0.522979,0.00031125,-2.09665,-0.0012931,1.57105,0.785745,-1.5708,-0.523598,1.17488e-06,-2.0944,-7.25539e-07,1.5708,0.785399,0.000766188,0.000943658,0.000184612,-4.57595e-05,-3.6622e-05,-0.000293627,0.000541248,0,0,0,0,0,0,0,-0.478199,-10.0623,-0.837644,21.7176,1.75813,1.52731,-0.271719,-0.454598,-0.889273,-0.352005,3.16408,1.04105,-0.153725,-0.256452
574862,1,-1.57044,-0.522984,0.00031125,-2.09665,-0.00129178,1.57106,0.785744,-1.5708,-0.523598,1.17488e-06,-2.0944,-7.25539e-07,1.5708,0.785399,-4.60199e-05,-0.00113413,0.00642642,0.000619108,0.000416395,0.000516325,0.000123473,0,0,0,0,0,0,0,-0.454395,-9.98691,-0.837644,21.6898,1.74623,1.50808,-0.26531,-0.456887,-0.89123,-0.355607,3.16532,1.04102,-0.153642,-0.256497
574863,1,-1.57044,-0.522981,0.00031292,-2.09665,-0.00129178,1.57106,0.785743,-1.5708,-0.523598,1.17488e-06,-2.0944,-7.25539e-07,1.5708,0.785399,-0.000587492,0.000450338,0.00536636,-0.000793687,0.000277597,0.000344217,-0.000155044,0,0,0,0,0,0,0,-0.430592,-10.0385,-0.861447,21.7414,1.74623,1.50808,-0.258901,-0.463171,-0.891233,-0.365707,3.16569,1.04078,-0.15363,-0.25653
574864,1,-1.57044,-0.522981,0.00031125,-2.09664,-0.00129178,1.57105,0.785747,-1.5708,-0.523598,1.17488e-06,-2.0944,-7.25539e-07,1.5708,0.785399,-0.000391661,0.000300225,0.00341471,0.00123411,0.000185064,-0.00024524,0.00108343,0,0,0,0,0,0,0,-0.430592,-10.0385,-0.837644,21.666,1.74623,1.5209,-0.290945,-0.471387,-0.890903,-0.379143,3.16592,1.04043,-0.153639,-0.256566
574865,1,-1.57044,-0.52298,0.000309579,-2.09664,-0.00129249,1.57106,0.785745,-1.5708,-0.523598,1.17488e-06,-2.0944,-7.25539e-07,1.5708,0.785399,-0.000910721,-0.000449464,0.00201513,0.00026593,-0.000113983,0.000311225,1.02114e-05,0,0,0,0,0,0,0,-0.402821,-10.0107,-0.81384,21.6898,1.75264,1.50808,-0.271719,-0.478073,-0.89038,-0.390354,3.16569,1.0401,-0.153706,-0.256636
574866,1,-1.57044,-0.522982,0.00031125,-2.09664,-0.00129249,1.57105,0.785748,-1.5708,-0.523598,1.17488e-06,-2.0944,-7.25539e-07,1.5708,0.785399,0.00115609,-0.000299643,0.00212183,0.000734099,-7.59885e-05,-2.98759e-05,6.80759e-06,0,0,0,0,0,0,0,-0.478199,-10.0107,-0.837644,21.666,1.75264,1.51449,-0.271719,-0.482339,-0.888546,-0.397743,3.16452,1.03984,-0.153856,-0.256763
574867,1,-1.57044,-0.522982,0.00031125,-2.09665,-0.00129371,1.57105,0.785741,-1.5708,-0.523598,1.17488e-06,-2.0944,-7.25539e-07,1.5708,0.785399,0.000213915,-0.000199762,0.00158075,-0.000717027,-0.00045756,-0.000257276,-0.00145352,0,0,0,0,0,0,0,-0.454395,-10.0107,-0.837644,21.7176,1.76363,1.5209,-0.232351,-0.485018,-0.886353,-0.402391,3.16328,1.03963,-0.153994,-0.256945
574868,1,-1.57044,-0.522983,0.000309579,-2.09664,-0.0012931,1.57106,0.785749,-1.5708,-0.523598,1.17488e-06,-2.0944,-7.25539e-07,1.5708,0.785399,0.00014261,-0.000133174,0.000621669,0.000728408,-0.000101589,-0.000171517,0.000726405,0,0,0,0,0,0,0,-0.454395,-10.0107,-0.81384,21.666,1.75813,1.5209,-0.278127,-0.486061,-0.884785,-0.404274,3.16255,1.03951,-0.154063,-0.257153
574869,1,-1.57044,-0.522983,0.00031125,-2.09665,-0.0012931,1.57106,0.785746,-1.5708,-0.523598,1.17488e-06,-2.0944,-7.25539e-07,1.5708,0.785399,-0.000461739,-8.8783e-05,0.00106474,-7.12066e-05,-6.77263e-05,-0.000114345,0.000246911,0,0,0,0,0,0,0,-0.430592,-10.0107,-0.837644,21.6898,1.75813,1.5209,-0.271719,-0.485136,-0.883699,-0.403037,3.16201,1.03948,-0.154102,-0.257364
574870,1,-1.57044,-0.522981,0.00031125,-2.09665,-0.00129178,1.57106,0.78574,-1.5708,-0.523598,1.17488e-06,-2.0944,-7.25539e-07,1.5708,0.785399,0.000248986,0.000590425,0.000779944,-4.74711e-05,0.000395659,0.000398488,-0.00153081,0,0,0,0,0,0,0,-0.454395,-10.0385,-0.837644,21.6898,1.74623,1.50808,-0.225942,-0.482909,-0.883611,-0.399769,3.16186,1.03953,-0.154097,-0.257574
574871,1,-1.57044,-0.522981,0.000309579,-2.09665,-0.00129249,1.57105,0.785744,-1.5708,-0.523598,1.17488e-06,-2.0944,-7.25539e-07,1.5708,0.785399,-0.000390821,0.000393617,1.57371e-05,-0.000681261,2.64134e-05,2.82997e-05,-0.000545824,0,0,0,0,0,0,0,-0.430592,-10.0385,-0.81384,21.7176,1.75264,1.51449,-0.23876,-0.479858,-0.885434,-0.395199,3.16273,1.03965,-0.153995,-0.257776
574872,1,-1.57044,-0.52298,0.00030763,-2.09665,-0.0012931,1.57106,0.785745,-1.5708,-0.523598,1.17488e-06,-2.0944,-7.25539e-07,1.5708,0.785399,-0.000260547,-0.000387203,-0.000599683,0.00019544,-0.000185842,0.000256225,0.000619461,0,0,0,0,0,0,0,-0.430592,-10.0107,-0.786069,21.6898,1.75813,1.50808,-0.26531,-0.47573,-0.88798,-0.388958,3.16405,1.03983,-0.153848,-0.257935
574873,1,-1.57044,-0.52298,0.00031292,-2.09664,-0.00129432,1.57106,0.785744,-1.5708,-0.523598,1.17488e-06,-2.0944,-7.25539e-07,1.5708,0.785399,0.000383114,0.000391479,0.00139303,0.000687105,-0.000530795,0.000408176,0.000175615,0,0,0,0,0,0,0,-0.454395,-10.0385,-0.861447,21.666,1.76912,1.50167,-0.258901,-0.47129,-0.889506,-0.382213,3.16468,1.04001,-0.15378,-0.258036
574874,1,-1.57044,-0.522982,0.000309579,-2.09665,-0.00129249,1.57105,0.785745,-1.5708,-0.523598,1.17488e-06,-2.0944,-7.25539e-07,1.5708,0.785399,0.000812221,-0.000388628,-0.000162753,-0.000748356,0.000256488,-0.00043996,-0.000357641,0,0,0,0,0,0,0,-0.478199,-10.0107,-0.81384,21.7176,1.75264,1.5209,-0.246084,-0.46787,-0.890213,-0.376925,3.16475,1.04014,-0.153786,-0.258089
574875,1,-1.57044,-0.52298,0.00030763,-2.09665,-0.0012931,1.57105,0.785747,-1.5708,-0.523598,1.17488e-06,-2.0944,-7.25539e-07,1.5708,0.785399,-0.000572143,-0.000259085,-0.000741478,-0.000498904,-3.24586e-05,-5.59474e-05,-1.06845e-06,0,0,0,0,0,0,0,-0.430592,-10.0107,-0.786069,21.7176,1.75813,1.51449,-0.252493,-0.464806,-0.890661,-0.372076,3.16502,1.04027,-0.153767,-0.258114
574876,1,-1.57044,-0.522982,0.000309579,-2.09665,-0.0012931,1.57105,0.785743,-1.5708,-0.523598,1.17488e-06,-2.0944,-7.25539e-07,1.5708,0.785399,0.000732195,-0.000172724,0.000167775,-0.000332603,-2.1639e-05,-3.72983e-05,-0.000509339,0,0,0,0,0,0,0,-0.478199,-10.0107,-0.81384,21.7176,1.75813,1.51449,-0.23876,-0.461416,-0.89088,-0.366676,3.16548,1.04044,-0.153718,-0.258115
574877,1,-1.57044,-0.522984,0.000309579,-2.09664,-0.00129249,1.57105,0.785742,-1.5708,-0.523598,1.17488e-06,-2.0944,-7.25539e-07,1.5708,0.785399,-6.86819e-05,-0.000671961,0.000121209,0.0015415,0.000189024,-0.000262224,-0.000339559,0,0,0,0,0,0,0,-0.454395,-9.98691,-0.81384,21.6422,1.75264,1.5209,-0.23876,-0.458507,-0.889987,-0.361934,3.16517,1.04057,-0.153752,-0.258083
574878,1,-1.57044,-0.522983,0.000309579,-2.09665,-0.00129249,1.57106,0.785744,-1.5708,-0.523598,1.17488e-06,-2.0944,-7.25539e-07,1.5708,0.785399,-4.57879e-05,0.000108838,8.78253e-05,-8.59554e-05,0.000126016,0.000299902,0.000756971,0,0,0,0,0,0,0,-0.454395,-10.0107,-0.81384,21.6898,1.75264,1.50808,-0.26531,-0.456231,-0.887678,-0.35811,3.16364,1.04066,-0.153918,-0.258009
574879,1,-1.57044,-0.522983,0.00031125,-2.09664,-0.00129371,1.57105,0.785746,-1.5708,-0.523598,1.17488e-06,-2.0944,-7.25539e-07,1.5708,0.785399,-0.000587337,7.25586e-05,0.000620627,0.000499508,-0.00032289,-3.74246e-05,0.00121672,0,0,0,0,0,0,0,-0.430592,-10.0107,-0.837644,21.666,1.76363,1.51449,-0.284536,-0.454277,-0.88575,-0.354841,3.16208,1.04073,-0.1541,-0.257897
574880,1,-1.57044,-0.522979,0.00031292,-2.09664,-0.0012931,1.57106,0.78574,-1.5708,-0.523598,1.17488e-06,-2.0944,-7.25539e-07,1.5708,0.785399,0.000165254,0.0012548,0.000974512,-0.000223806,-1.18096e-05,0.000212409,-0.00112163,0,0,0,0,0,0,0,-0.454395,-10.0623,-0.861447,21.6898,1.75813,1.50808,-0.232351,-0.452927,-0.885942,-0.352606,3.16159,1.04079,-0.154201,-0.257777
574881,1,-1.57044,-0.522983,0.00031292,-2.09664,-0.00129249,1.57105,0.785747,-1.5708,-0.523598,1.17488e-06,-2.0944,-7.25539e-07,1.5708,0.785399,0.000666981,-0.000369894,0.000652636,-0.000798818,0.000195577,-9.57528e-05,0.00047295,0,0,0,0,0,0,0,-0.478199,-10.0107,-0.861447,21.7176,1.75264,1.51449,-0.26531,-0.452587,-0.888276,-0.351942,3.1624,1.04084,-0.154189,-0.257671
574882,1,-1.57044,-0.522984,0.000309579,-2.09664,-0.0012893,1.57105,0.785745,-1.5708,-0.523598,1.17488e-06,-2.0944,-7.25539e-07,1.5708,0.785399,-0.000112158,-0.000803408,-0.000676312,0.00067388,0.000130385,-0.000301194,0.0003153,0,0,0,0,0,0,0,-0.454395,-9.98691,-0.81384,21.666,1.75264,1.5209,-0.26531,-0.452627,-0.889918,-0.351811,3.16319,1.04088,-0.154154,-0.257577
574883,1,-1.57044,-0.522983,0.000309579,-2.09665,-0.00129326,1.57105,0.785745,-1.5708,-0.523598,1.17488e-06,-2.0944,-7.25539e-07,1.5708,0.785399,-0.000631584,2.12068e-05,-0.000449209,-0.000757172,-0.000523428,3.65629e-05,0.000447559,0,0,0,0,0,0,0,-0.430592,-10.0107,-0.81384,21.7176,1.76912,1.51449,-0.271719,-0.451767,-0.889554,-0.350342,3.16307,1.04095,-0.154176,-0.257507
574884,1,-1.57044,-0.522983,0.000309579,-2.09664,-0.00129397,1.57105,0.785744,-1.5708,-0.523598,1.17488e-06,-2.0944,-7.25539e-07,1.5708,0.785399,-0.000421056,1.41379e-05,-0.000298224,0.00190807,-0.000348952,2.43752e-05,6.10136e-05,0,0,0,0,0,0,0,-0.430592,-10.0107,-0.81384,21.6144,1.76912,1.51449,-0.26531,-0.449885,-0.888597,-0.347437,3.1624,1.04105,-0.15425,-0.257473
574885,1,-1.57044,-0.522983,0.00030763,-2.09664,-0.00129298,1.57105,0.785746,-1.5708,-0.523598,1.17488e-06,-2.0944,-7.25539e-07,1.5708,0.785399,-0.000280704,9.42524e-06,-0.000847493,6.5621e-05,0.000174266,-0.000221109,0.000515394,0,0,0,0,0,0,0,-0.430592,-10.0107,-0.786069,21.666,1.75813,1.5209,-0.278127,-0.447553,-0.887306,-0.343921,3.16101,1.04117,-0.154406,-0.25748
574886,1,-1.57044,-0.522984,0.000309579,-2.09664,-0.00129367,1.57105,0.785744,-1.5708,-0.523598,1.17488e-06,-2.0944,-7.25539e-07,1.5708,0.785399,0.000369676,-0.000550528,8.53216e-05,-0.000513065,-8.7273e-05,8.99531e-05,-0.000131122,0,0,0,0,0,0,0,-0.454395,-9.98691,-0.81384,21.6898,1.76363,1.51449,-0.26531,-0.445391,-0.885989,-0.340636,3.1596,1.04131,-0.154545,-0.25753
574887,1,-1.57044,-0.522984,0.000309579,-2.09664,-0.00129116,1.57105,0.78574,-1.5708,-0.523598,1.17488e-06,-2.0944,-7.25539e-07,1.5708,0.785399,-0.000310361,-0.000367019,5.74081e-05,0.000214769,0.000789528,-0.000652108,-0.00154548,0,0,0,0,0,0,0,-0.430592,-9.98691,-0.81384,21.666,1.74074,1.53372,-0.225942,-0.444018,-0.884745,-0.33851,3.1587,1.04143,-0.154592,-0.257621
574888,1,-1.57044,-0.522983,0.00031292,-2.09664,-0.00129178,1.57105,0.785746,-1.5708,-0.523598,1.17488e-06,-2.0944,-7.25539e-07,1.5708,0.785399,0.000906716,0.000312133,0.00115229,-0.000413633,0.000322902,0.000277338,0.00113982,0,0,0,0,0,0,0,-0.478199,-10.0107,-0.861447,21.6898,1.74623,1.51449,-0.284536,-0.44385,-0.88386,-0.338197,3.15819,1.04151,-0.154572,-0.257724
574889,1,-1.57044,-0.522984,0.00031125,-2.09665,-0.00129371,1.57105,0.785747,-1.5708,-0.523598,1.17488e-06,-2.0944,-7.25539e-07,1.5708,0.785399,-0.00115876,-0.000348724,0.000211679,-0.000925369,-0.000428992,-5.24669e-05,0.00099724,0,0,0,0,0,0,0,-0.402821,-9.98691,-0.837644,21.7176,1.76363,1.5209,-0.290945,-0.444611,-0.884172,-0.339359,3.15851,1.04155,-0.154456,-0.257813
574890,1,-1.57044,-0.522984,0.00031292,-2.09664,-0.0012931,1.57106,0.785743,-1.5708,-0.523598,1.17488e-06,-2.0944,-7.25539e-07,1.5708,0.785399,-0.000122893,-0.000232482,0.000698153,0.000589513,-8.25442e-05,0.00043974,-0.000759327,0,0,0,0,0,0,0,-0.430592,-9.98691,-0.861447,21.666,1.75813,1.50808,-0.252493,-0.445299,-0.88475,-0.34062,3.15913,1.04158,-0.154301,-0.257915
574891,1,-1.57044,-0.522983,0.00030596,-2.09664,-0.0012931,1.57105,0.78574,-1.5708,-0.523598,1.17488e-06,-2.0944,-7.25539e-07,1.5708,0.785399,0.000474883,0.000401824,-0.00185445,0.000949821,-5.50295e-05,-0.000181558,-0.0012522,0,0,0,0,0,0,0,-0.454395,-10.0107,-0.762265,21.6422,1.75813,1.5209,-0.232351,-0.445308,-0.884656,-0.340924,3.15897,1.04161,-0.154234,-0.258057
574892,1,-1.57044,-0.522986,0.00031125,-2.09665,-0.0012931,1.57105,0.785744,-1.5708,-0.523598,1.17488e-06,-2.0944,-7.25539e-07,1.5708,0.785399,0.000316589,-0.000845741,0.000527065,-0.00113002,-3.66863e-05,-0.000121039,0.000385901,0,0,0,0,0,0,0,-0.454395,-9.9631,-0.837644,21.7176,1.75813,1.5209,-0.26531,-0.44478,-0.884245,-0.340276,3.15836,1.04165,-0.154216,-0.25821
574893,1,-1.57044,-0.522981,0.00031125,-2.09664,-0.00129249,1.57105,0.785745,-1.5708,-0.523598,1.17488e-06,-2.0944,-7.25539e-07,1.5708,0.785399,-0.000345753,0.00119941,0.00035147,0.000453077,0.000178993,-0.000318051,-0.00045481,0,0,0,0,0,0,0,-0.430592,-10.0385,-0.837644,21.666,1.75264,1.52731,-0.246084,-0.444481,-0.884498,-0.339951,3.15833,1.04168,-0.15413,-0.258333
574894,1,-1.57044,-0.522983,0.00031338,-2.09665,-0.0012931,1.57105,0.785742,-1.5708,-0.523598,1.17488e-06,-2.0944,-7.25539e-07,1.5708,0.785399,0.00032631,0.000149993,0.000234384,-0.000254761,-8.41219e-05,0.000262684,-0.000574474,0,0,0,0,0,0,0,-0.454395,-10.0107,-0.837644,21.6898,1.75813,1.51449,-0.23876,-0.444672,-0.886272,-0.340447,3.15906,1.04171,-0.153981,-0.258417
574895,1,-1.57044,-0.522983,0.000308341,-2.09665,-0.00129249,1.57105,0.785751,-1.5708,-0.523598,1.17488e-06,-2.0944,-7.25539e-07,1.5708,0.785399,-0.000339272,9.99953e-05,-0.00105012,-0.000169841,0.000147369,-6.22365e-05,0.00178716,0,0,0,0,0,0,0,-0.430592,-10.0107,-0.786069,21.6898,1.75264,1.5209,-0.297354,-0.444644,-0.888594,-0.34063,3.15999,1.04174,-0.153816,-0.258461
574896,1,-1.57044,-0.522981,0.000307867,-2.09665,-0.0012931,1.57105,0.785742,-1.5708,-0.523598,1.17488e-06,-2.0944,-7.25539e-07,1.5708,0.785399,0.000330631,0.000716277,-0.000700039,-0.000762841,-0.000105204,0.000195868,-0.000978701,0,0,0,0,0,0,0,-0.454395,-10.0385,-0.786069,21.7176,1.75813,1.51449,-0.23876,-0.443849,-0.891033,-0.339597,3.16113,1.04181,-0.153619,-0.258482
574897,1,-1.57044,-0.522984,0.00031513,-2.09665,-0.00129371,1.57105,0.78574,-1.5708,-0.523598,1.17488e-06,-2.0944,-7.25539e-07,1.5708,0.785399,-0.000336391,-0.000728908,0.00129658,-0.000508561,-0.000273587,0.000130579,-0.00112719,0,0,0,0,0,0,0,-0.430592,-9.98691,-0.861447,21.7176,1.76363,1.51449,-0.225942,-0.443084,-0.89342,-0.338586,3.1625,1.04188,-0.153392,-0.2585
574898,1,-1.57044,-0.522984,0.000308367,-2.09665,-0.00129249,1.57105,0.785747,-1.5708,-0.523598,1.17488e-06,-2.0944,-7.25539e-07,1.5708,0.785399,0.000332551,-0.000485938,-0.000898832,-0.00033904,0.00022451,8.70524e-05,0.000469246,0,0,0,0,0,0,0,-0.454395,-9.98691,-0.786069,21.7176,1.75264,1.51449,-0.258901,-0.443001,-0.894023,-0.338633,3.16326,1.04191,-0.153213,-0.258497
574899,1,-1.57044,-0.522984,0.000309825,-2.09665,-0.0012931,1.57105,0.785748,-1.5708,-0.523598,1.17488e-06,-2.0944,-7.25539e-07,1.5708,0.785399,0.000221701,-0.000323959,5.04092e-05,-0.000782839,-5.37773e-05,-0.000179324,0.00149963,0,0,0,0,0,0,0,-0.454395,-9.98691,-0.81384,21.7414,1.75813,1.5209,-0.290945,-0.443031,-0.892932,-0.338783,3.16336,1.04193,-0.153094,-0.258454
574900,1,-1.57044,-0.522983,0.000311332,-2.09665,-0.00129178,1.57105,0.785741,-1.5708,-0.523598,1.17488e-06,-2.0944,-7.25539e-07,1.5708,0.785399,0.0001478,0.000340839,0.000590431,3.49193e-05,0.000404958,-0.000119549,-0.00117039,0,0,0,0,0,0,0,-0.454395,-10.0107,-0.837644,21.7176,1.74623,1.5209,-0.232351,-0.44328,-0.891829,-0.339174,3.1635,1.04193,-0.152991,-0.258391
574901,1,-1.57044,-0.522983,0.000305987,-2.09665,-0.00129249,1.57105,0.785743,-1.5708,-0.523598,1.17488e-06,-2.0944,-7.25539e-07,1.5708,0.785399,-0.00110789,0.000227226,-0.00136961,2.32796e-05,3.2613e-05,-7.96996e-05,-3.42738e-05,0,0,0,0,0,0,0,-0.402821,-10.0107,-0.762265,21.7176,1.75264,1.5209,-0.252493,-0.443316,-0.891423,-0.339262,3.16377,1.04193,-0.152911,-0.258338
574902,1,-1.57044,-0.522983,0.00030764,-2.09665,-0.00128991,1.57105,0.785746,-1.5708,-0.523598,1.17488e-06,-2.0944,-7.25539e-07,1.5708,0.785399,0.00102464,0.000151484,-0.000356253,-0.0010981,-0.000181709,0.000184226,0.000926587,0,0,0,0,0,0,0,-0.478199,-10.0107,-0.786069,21.7652,1.75813,1.51449,-0.278127,-0.442458,-0.891803,-0.33797,3.16433,1.04197,-0.152826,-0.258288
574903,1,-1.57044,-0.522983,0.000307633,-2.09665,-0.00129204,1.57105,0.785743,-1.5708,-0.523598,1.17488e-06,-2.0944,-7.25539e-07,1.5708,0.785399,0.000683095,0.000100989,-0.000237497,0.000381554,-0.000121139,-0.000114542,-9.43524e-05,0,0,0,0,0,0,0,-0.478199,-10.0107,-0.786069,21.7176,1.75813,1.5209,-0.258901,-0.441819,-0.892561,-0.336785,3.16522,1.04199,-0.152724,-0.258234
574904,1,-1.57044,-0.522983,0.00030958,-2.09665,-0.00129214,1.57105,0.785742,-1.5708,-0.523598,1.17488e-06,-2.0944,-7.25539e-07,1.5708,0.785399,-0.000658227,6.73263e-05,0.000491287,-0.000302442,0.000122691,0.000160998,-0.00053762,0,0,0,0,0,0,0,-0.430592,-10.0107,-0.81384,21.7414,1.75264,1.51449,-0.246084,-0.441955,-0.892905,-0.33661,3.16585,1.04196,-0.152665,-0.258192
574905,1,-1.57044,-0.522983,0.00031125,-2.09665,-0.00129237,1.57105,0.785748,-1.5708,-0.523598,1.17488e-06,-2.0944,-7.25539e-07,1.5708,0.785399,-0.000438818,4.48842e-05,0.000884339,0.000355184,8.17941e-05,0.000107332,0.00154046,0,0,0,0,0,0,0,-0.430592,-10.0107,-0.837644,21.7176,1.75264,1.51449,-0.297354,-0.442452,-0.892616,-0.337077,3.16604,1.0419,-0.152666,-0.258165
574906,1,-1.57044,-0.522979,0.000309579,-2.09664,-0.00129245,1.57105,0.785745,-1.5708,-0.523598,1.17488e-06,-2.0944,-7.25539e-07,1.5708,0.785399,0.000264267,0.00123635,3.27499e-05,0.000886403,5.45294e-05,7.15546e-05,7.75366e-05,0,0,0,0,0,0,0,-0.454395,-10.0623,-0.81384,21.6898,1.75264,1.51449,-0.271719,-0.443241,-0.892435,-0.338085,3.16599,1.04182,-0.152723,-0.258155
574907,1,-1.57044,-0.522984,0.000309579,-2.09665,-0.0012937,1.57105,0.78574,-1.5708,-0.523598,1.17488e-06,-2.0944,-7.25539e-07,1.5708,0.785399,-0.000380634,-0.000939005,2.18349e-05,-0.00061549,-0.000370548,4.77031e-05,-0.00140637,0,0,0,0,0,0,0,-0.430592,-9.98691,-0.81384,21.7414,1.76363,1.51449,-0.232351,-0.443977,-0.892418,-0.339006,3.16584,1.04173,-0.152813,-0.258188
574908,1,-1.57044,-0.522983,0.00031125,-2.09665,-0.0012931,1.57105,0.785743,-1.5708,-0.523598,1.17488e-06,-2.0944,-7.25539e-07,1.5708,0.785399,-0.000253756,-6.91916e-05,0.00057137,-0.000410327,-4.35815e-05,3.1802e-05,-0.000191595,0,0,0,0,0,0,0,-0.430592,-10.0107,-0.837644,21.7414,1.75813,1.51449,-0.252493,-0.444446,-0.891529,-0.33958,3.16568,1.04166,-0.152882,-0.258261
574909,1,-1.57044,-0.522983,0.000309579,-2.09665,-0.00129371,1.57105,0.785745,-1.5708,-0.523598,1.17488e-06,-2.0944,-7.25539e-07,1.5708,0.785399,-0.000169171,-4.61278e-05,-0.000175898,0.000932875,-0.000232505,2.12014e-05,0.000584347,0,0,0,0,0,0,0,-0.430592,-10.0107,-0.81384,21.6898,1.76363,1.51449,-0.271719,-0.444745,-0.889819,-0.339996,3.16537,1.0416,-0.152956,-0.258334
574910,1,-1.57044,-0.522979,0.000309579,-2.09665,-0.0012931,1.57105,0.78574,-1.5708,-0.523598,1.17488e-06,-2.0944,-7.25539e-07,1.5708,0.785399,-0.000112781,0.00117567,-0.000117264,-2.76976e-05,4.84473e-05,1.41342e-05,-0.0010685,0,0,0,0,0,0,0,-0.430592,-10.0623,-0.81384,21.7176,1.75813,1.51449,-0.232351,-0.444727,-0.888752,-0.339977,3.16507,1.04157,-0.153056,-0.258391
574911,1,-1.57044,-0.522979,0.00031125,-2.09664,-0.0012931,1.57105,0.785743,-1.5708,-0.523598,1.17488e-06,-2.0944,-7.25539e-07,1.5708,0.785399,0.000481625,0.000783783,0.000478636,0.000631149,3.22982e-05,-0.000227936,3.36534e-05,0,0,0,0,0,0,0,-0.454395,-10.0623,-0.837644,21.6898,1.75813,1.5209,-0.252493,-0.44468,-0.889663,-0.339915,3.16547,1.04156,-0.153123,-0.25843
574912,1,-1.57044,-0.522981,0.00031125,-2.09664,-0.00129432,1.57105,0.785745,-1.5708,-0.523598,1.17488e-06,-2.0944,-7.25539e-07,1.5708,0.785399,0.000321083,-3.42901e-05,0.000319091,0.000977578,-0.000385369,-0.000151957,0.000734512,0,0,0,0,0,0,0,-0.454395,-10.0385,-0.837644,21.666,1.76912,1.5209,-0.271719,-0.445157,-0.891125,-0.340628,3.1659,1.04154,-0.153198,-0.258435
574913,1,-1.57044,-0.522984,0.00031125,-2.09664,-0.00129371,1.57106,0.785744,-1.5708,-0.523598,1.17488e-06,-2.0944,-7.25539e-07,1.5708,0.785399,0.000214056,-0.00122929,0.000212728,9.49066e-05,-5.34621e-05,0.000373413,-0.000731028,0,0,0,0,0,0,0,-0.454395,-9.98691,-0.837644,21.6898,1.76363,1.50808,-0.23876,-0.445992,-0.890261,-0.341885,3.16509,1.04149,-0.153358,-0.258415
574914,1,-1.57044,-0.522981,0.000309579,-2.09665,-0.00129249,1.57106,0.785741,-1.5708,-0.523598,1.17488e-06,-2.0944,-7.25539e-07,1.5708,0.785399,0.000142704,0.000386902,-0.000414993,6.32711e-05,0.00037126,0.000248942,-0.00096207,0,0,0,0,0,0,0,-0.454395,-10.0385,-0.81384,21.6898,1.75264,1.50808,-0.225942,-0.446618,-0.887464,-0.342843,3.16354,1.04146,-0.153542,-0.258385
574915,1,-1.57044,-0.522981,0.00031125,-2.09664,-0.0012931,1.57105,0.785748,-1.5708,-0.523598,1.17488e-06,-2.0944,-7.25539e-07,1.5708,0.785399,9.51358e-05,0.000257935,0.00028015,0.000598993,4.40559e-05,-7.13976e-05,0.000816682,0,0,0,0,0,0,0,-0.454395,-10.0385,-0.837644,21.666,1.75813,1.51449,-0.26531,-0.446842,-0.885376,-0.343199,3.16242,1.04149,-0.153677,-0.258329
574916,1,-1.57044,-0.522983,0.000309579,-2.09665,-0.00129178,1.57105,0.785746,-1.5708,-0.523598,1.17488e-06,-2.0944,-7.25539e-07,1.5708,0.785399,6.34239e-05,-0.000477658,-0.000370045,-0.000157483,0.00047018,-0.000284957,0.000781814,0,0,0,0,0,0,0,-0.454395,-10.0107,-0.81384,21.6898,1.74623,1.5209,-0.271719,-0.446822,-0.884242,-0.343191,3.16173,1.04154,-0.153773,-0.258229
574917,1,-1.57044,-0.522984,0.000309579,-2.09664,-0.00129178,1.57105,0.785739,-1.5708,-0.523598,1.17488e-06,-2.0944,-7.25539e-07,1.5708,0.785399,4.22826e-05,-0.00087525,-0.000246697,-0.000104989,0.000313453,-0.000427331,-0.00141157,0,0,0,0,0,0,0,-0.454395,-9.98691,-0.81384,21.6898,1.74623,1.52731,-0.219534,-0.446535,-0.882563,-0.342769,3.16099,1.0416,-0.153843,-0.258115
574918,1,-1.57044,-0.522981,0.000309579,-2.09664,-0.00129249,1.57106,0.78574,-1.5708,-0.523598,1.17488e-06,-2.0944,-7.25539e-07,1.5708,0.785399,2.81884e-05,0.000622926,-0.000164464,-6.99927e-05,-2.839e-05,0.00042719,-0.000703688,0,0,0,0,0,0,0,-0.454395,-10.0385,-0.81384,21.6898,1.75264,1.50808,-0.225942,-0.446029,-0.880882,-0.341989,3.16044,1.04166,-0.153864,-0.257997
574919,0.99,-1.57044,-0.522983,0.000309579,-2.09664,-0.00129178,1.57105,0.785747,-1.5708,-0.523598,1.17488e-06,-2.0944,-7.25539e-07,1.5708,0.785399,-0.00118763,-0.00023433,-0.000109643,0.00106696,0.000218432,-0.000189925,0.00193837,0,0,0,0,0,0,0,-0.402821,-10.0107,-0.81384,21.6422,1.74623,1.5209,-0.290945,-0.445235,-0.880207,-0.340827,3.16013,1.04171,-0.153871,-0.257846
574920,0.99,-1.57044,-0.522984,0.00030596,-2.09664,-0.0012931,1.57105,0.785743,-1.5708,-0.523598,1.17488e-06,-2.0944,-7.25539e-07,1.5708,0.785399,0.00041467,-0.000713032,-0.00127952,0.000154496,-0.000295188,-0.000126616,0.000105453,0,0,0,0,0,0,0,-0.454395,-9.98691,-0.762265,21.666,1.75813,1.5209,-0.258901,-0.44386,-0.879199,-0.338845,3.15926,1.04175,-0.153931,-0.257665
574921,0.99,-1.57044,-0.522983,0.00031292,-2.09664,-0.00129493,1.57105,0.785738,-1.5708,-0.523598,1.17488e-06,-2.0944,-7.25539e-07,1.5708,0.785399,-0.000280365,8.14572e-05,0.00146704,-0.000453815,-0.000807144,-8.4411e-05,-0.00162512,0,0,0,0,0,0,0,-0.430592,-10.0107,-0.861447,21.6898,1.77461,1.5209,-0.213125,-0.442664,-0.877742,-0.337103,3.15823,1.04176,-0.153983,-0.257492
574922,0.99,-1.57044,-0.522983,0.00031125,-2.09665,-0.0012931,1.57105,0.785744,-1.5708,-0.523598,1.17488e-06,-2.0944,-7.25539e-07,1.5708,0.785399,-0.00018691,5.43048e-05,0.000421212,-0.000302543,7.22559e-05,0.000181085,0.000849367,0,0,0,0,0,0,0,-0.430592,-10.0107,-0.837644,21.6898,1.75813,1.51449,-0.26531,-0.442613,-0.877544,-0.337149,3.15814,1.04174,-0.153928,-0.257322
574923,0.99,-1.57044,-0.522983,0.000309579,-2.09664,-0.00129249,1.57105,0.785743,-1.5708,-0.523598,1.17488e-06,-2.0944,-7.25539e-07,1.5708,0.785399,0.000989017,3.62032e-05,-0.000276004,-0.000201695,0.000251621,0.000120723,-0.000891817,0,0,0,0,0,0,0,-0.478199,-10.0107,-0.81384,21.6898,1.75264,1.51449,-0.225942,-0.443337,-0.878635,-0.338375,3.15885,1.04171,-0.153794,-0.257133
574924,0.99,-1.57044,-0.522986,0.000309579,-2.09664,-0.0012931,1.57105,0.785744,-1.5708,-0.523598,1.17488e-06,-2.0944,-7.25539e-07,1.5708,0.785399,0.00130896,-0.00108949,-0.000184003,-0.000134464,-3.57031e-05,8.04822e-05,0.000626158,0,0,0,0,0,0,0,-0.50597,-9.9631,-0.81384,21.6898,1.75813,1.51449,-0.258901,-0.444436,-0.879332,-0.339932,3.15938,1.04167,-0.153668,-0.256925
574925,0.99,-1.57044,-0.522984,0.00031292,-2.09664,-0.0012931,1.57105,0.785746,-1.5708,-0.523598,1.17488e-06,-2.0944,-7.25539e-07,1.5708,0.785399,-0.000333787,-0.000169514,0.000990955,0.00046717,-2.38021e-05,5.36548e-05,0.00112952,0,0,0,0,0,0,0,-0.454395,-9.98691,-0.861447,21.666,1.75813,1.51449,-0.278127,-0.445935,-0.878459,-0.341912,3.15907,1.0416,-0.153616,-0.256702
574926,0.99,-1.57044,-0.522984,0.00031292,-2.09664,-0.00129117,1.57105,0.785747,-1.5708,-0.523598,1.17488e-06,-2.0944,-7.25539e-07,1.5708,0.785399,-0.000779336,-0.000113009,0.000660637,0.000311446,0.000628392,3.57699e-05,4.09337e-05,0,0,0,0,0,0,0,-0.430592,-9.98691,-0.861447,21.666,1.74074,1.51449,-0.258901,-0.44741,-0.876963,-0.343983,3.15818,1.04153,-0.153636,-0.256485
574927,0.99,-1.57044,-0.522984,0.000309579,-2.09664,-0.0012931,1.57105,0.785747,-1.5708,-0.523598,1.17488e-06,-2.0944,-7.25539e-07,1.5708,0.785399,3.72544e-05,-7.53394e-05,-0.000673199,0.000207631,-0.000225332,2.38466e-05,0.000739366,0,0,0,0,0,0,0,-0.454395,-9.98691,-0.81384,21.666,1.75813,1.51449,-0.278127,-0.448163,-0.875956,-0.345152,3.15729,1.04149,-0.153678,-0.256311
574928,0.99,-1.57044,-0.52298,0.000309579,-2.09664,-0.00129249,1.57105,0.785748,-1.5708,-0.523598,1.17488e-06,-2.0944,-7.25539e-07,1.5708,0.785399,0.000581648,0.000506586,-0.000448799,-0.000418391,5.32292e-05,1.58977e-05,0.000255552,0,0,0,0,0,0,0,-0.478199,-10.0107,-0.81384,21.6898,1.75264,1.51449,-0.271719,-0.448074,-0.876142,-0.345008,3.15696,1.04149,-0.15368,-0.256195
574929,0.99,-1.57044,-0.522982,0.00031125,-2.09664,-0.00129178,1.57105,0.785744,-1.5708,-0.523598,1.17488e-06,-2.0944,-7.25539e-07,1.5708,0.785399,-0.000725858,0.000337724,0.000257612,0.000834696,0.000272845,1.05985e-05,-0.000541709,0,0,0,0,0,0,0,-0.430592,-10.0107,-0.837644,21.6422,1.74623,1.51449,-0.252493,-0.447622,-0.877759,-0.344236,3.15731,1.0415,-0.153637,-0.256144
574930,0.99,-1.57044,-0.522982,0.00031125,-2.09664,-0.00129371,1.57105,0.78574,-1.5708,-0.523598,1.17488e-06,-2.0944,-7.25539e-07,1.5708,0.785399,0.000629718,0.000225149,0.000171742,-0.00055716,-0.000462363,7.06565e-06,-0.00134448,0,0,0,0,0,0,0,-0.478199,-10.0107,-0.837644,21.6898,1.76363,1.51449,-0.225942,-0.447295,-0.879977,-0.343673,3.15785,1.04151,-0.153588,-0.25615
574931,0.99,-1.57044,-0.522983,0.000309579,-2.09664,-0.00129249,1.57105,0.785752,-1.5708,-0.523598,1.17488e-06,-2.0944,-7.25539e-07,1.5708,0.785399,-0.000693812,0.000150099,-0.000442318,-0.00102105,9.86589e-05,4.71044e-06,0.00222325,0,0,0,0,0,0,0,-0.430592,-10.0107,-0.81384,21.7176,1.75264,1.51449,-0.310171,-0.447063,-0.88266,-0.343273,3.15893,1.04152,-0.153481,-0.256178
574932,0.99,-1.57044,-0.522986,0.00031292,-2.09665,-0.0012931,1.57105,0.785747,-1.5708,-0.523598,1.17488e-06,-2.0944,-7.25539e-07,1.5708,0.785399,-0.000462541,-0.00101356,0.000818746,-3.10885e-05,-0.000137678,-0.000234219,0.000295373,0,0,0,0,0,0,0,-0.430592,-9.9631,-0.861447,21.6898,1.75813,1.5209,-0.278127,-0.446658,-0.884766,-0.342707,3.16021,1.04154,-0.153332,-0.256216
574933,0.99,-1.57044,-0.522981,0.000309579,-2.09664,-0.00129178,1.57105,0.78574,-1.5708,-0.523598,1.17488e-06,-2.0944,-7.25539e-07,1.5708,0.785399,0.000805263,0.00108753,-0.000567794,0.000536086,0.000349024,8.12132e-05,-0.00173586,0,0,0,0,0,0,0,-0.478199,-10.0385,-0.81384,21.666,1.74623,1.51449,-0.225942,-0.44643,-0.885478,-0.342463,3.16073,1.04153,-0.153252,-0.256298
574934,0.99,-1.57044,-0.522983,0.00030763,-2.09665,-0.00129371,1.57105,0.785742,-1.5708,-0.523598,1.17488e-06,-2.0944,-7.25539e-07,1.5708,0.785399,-0.0012264,7.54079e-05,-0.00102814,-0.000199421,-0.000411577,5.41421e-05,-0.000411258,0,0,0,0,0,0,0,-0.402821,-10.0107,-0.786069,21.6898,1.76363,1.51449,-0.246084,-0.445921,-0.886433,-0.341742,3.16095,1.04153,-0.153223,-0.256427
574935,0.99,-1.57044,-0.522984,0.00030763,-2.09665,-0.00129249,1.57106,0.785748,-1.5708,-0.523598,1.17488e-06,-2.0944,-7.25539e-07,1.5708,0.785399,0.000388829,-0.00050654,-0.000685429,-0.000132947,0.000132516,0.000273454,0.0016247,0,0,0,0,0,0,0,-0.454395,-9.98691,-0.786069,21.6898,1.75264,1.50808,-0.297354,-0.444473,-0.887356,-0.339595,3.16106,1.04157,-0.153211,-0.256558
574936,0.99,-1.57044,-0.522981,0.000309579,-2.09665,-0.0012931,1.57105,0.78574,-1.5708,-0.523598,1.17488e-06,-2.0944,-7.25539e-07,1.5708,0.785399,0.000259219,0.000868733,0.000192662,-0.000738246,-0.000115106,-5.50565e-05,-0.00251116,0,0,0,0,0,0,0,-0.454395,-10.0385,-0.81384,21.7176,1.75813,1.51449,-0.200308,-0.443158,-0.887953,-0.337587,3.16123,1.04161,-0.153189,-0.256674
574937,0.99,-1.57044,-0.522981,0.000309579,-2.09665,-0.0012931,1.57105,0.785741,-1.5708,-0.523598,1.17488e-06,-2.0944,-7.25539e-07,1.5708,0.785399,0.000729625,0.000579155,0.000128441,-0.00104898,-7.67376e-05,-3.67043e-05,-0.00072467,0,0,0,0,0,0,0,-0.478199,-10.0385,-0.81384,21.7414,1.75813,1.51449,-0.225942,-0.442991,-0.890171,-0.337182,3.16253,1.04162,-0.153075,-0.256768
574938,0.99,-1.57044,-0.522984,0.000309579,-2.09665,-0.00129178,1.57106,0.785744,-1.5708,-0.523598,1.17488e-06,-2.0944,-7.25539e-07,1.5708,0.785399,-0.000627207,-0.000820323,8.56273e-05,-0.000142505,0.000389651,0.000212889,0.000737589,0,0,0,0,0,0,0,-0.430592,-9.98691,-0.81384,21.7176,1.74623,1.50808,-0.258901,-0.443574,-0.892775,-0.33785,3.16431,1.04161,-0.152925,-0.2568
574939,0.99,-1.57044,-0.522983,0.000309579,-2.09665,-0.0012931,1.57105,0.785739,-1.5708,-0.523598,1.17488e-06,-2.0944,-7.25539e-07,1.5708,0.785399,-0.000418138,9.93026e-06,5.70849e-05,0.000554611,-0.000181042,-0.000570151,-0.000966336,0,0,0,0,0,0,0,-0.430592,-10.0107,-0.81384,21.6898,1.75813,1.52731,-0.219534,-0.444045,-0.893019,-0.338424,3.16481,1.04158,-0.152899,-0.256756
574940,0.99,-1.57044,-0.522979,0.00031125,-2.09664,-0.0012931,1.57105,0.785737,-1.5708,-0.523598,1.17488e-06,-2.0944,-7.25539e-07,1.5708,0.785399,0.000278053,0.000656234,0.000594869,0.00036974,-0.000120695,-0.0003801,-0.0013563,0,0,0,0,0,0,0,-0.454395,-10.0385,-0.837644,21.6898,1.75813,1.52731,-0.200308,-0.444474,-0.891954,-0.339009,3.16425,1.04152,-0.152993,-0.256643
574941,0.99,-1.57044,-0.522982,0.00030763,-2.09665,-0.0012931,1.57105,0.785748,-1.5708,-0.523598,1.17488e-06,-2.0944,-7.25539e-07,1.5708,0.785399,0.000185369,-0.000212125,-0.000809847,-0.00040312,-8.04631e-05,-1.60413e-05,0.00174066,0,0,0,0,0,0,0,-0.454395,-10.0107,-0.786069,21.7176,1.75813,1.5209,-0.271719,-0.445071,-0.891317,-0.339804,3.16368,1.04145,-0.153093,-0.256443
574942,0.99,-1.57044,-0.52298,0.000309579,-2.09665,-0.00129371,1.57105,0.785747,-1.5708,-0.523598,1.17488e-06,-2.0944,-7.25539e-07,1.5708,0.785399,0.000123579,0.000508198,0.000109716,0.000380867,-0.000257093,-1.06942e-05,0.0013978,0,0,0,0,0,0,0,-0.454395,-10.0385,-0.81384,21.6898,1.76363,1.5209,-0.278127,-0.445447,-0.890982,-0.340175,3.16332,1.04139,-0.153158,-0.256159
574943,0.99,-1.57044,-0.522986,0.00030763,-2.09665,-0.00129178,1.57105,0.785738,-1.5708,-0.523598,1.17488e-06,-2.0944,-7.25539e-07,1.5708,0.785399,-0.00112404,-0.00142444,-0.00057647,-0.000395703,0.000472865,-7.12947e-06,-0.00171299,0,0,0,0,0,0,0,-0.402821,-9.9631,-0.786069,21.7176,1.74623,1.5209,-0.206716,-0.445295,-0.889819,-0.339766,3.16263,1.04137,-0.153223,-0.255852
574944,0.99,-1.57044,-0.522981,0.00031125,-2.09665,-0.00129249,1.57105,0.785738,-1.5708,-0.523598,1.17488e-06,-2.0944,-7.25539e-07,1.5708,0.785399,-9.97459e-05,0.000813612,0.000822113,-0.000820614,7.78843e-05,-4.75298e-06,-0.00114199,0,0,0,0,0,0,0,-0.430592,-10.0385,-0.837644,21.7414,1.75264,1.5209,-0.206716,-0.444791,-0.887976,-0.338968,3.16193,1.04137,-0.153249,-0.255558
574945,0.99,-1.57044,-0.522983,0.000314869,-2.09665,-0.00129371,1.57105,0.785746,-1.5708,-0.523598,1.17488e-06,-2.0944,-7.25539e-07,1.5708,0.785399,-0.000716111,-0.000107206,0.0017545,0.00065935,-0.000354978,-3.16865e-06,0.00188353,0,0,0,0,0,0,0,-0.402821,-10.0107,-0.889218,21.6898,1.76363,1.5209,-0.278127,-0.444965,-0.887105,-0.339393,3.16189,1.04136,-0.153207,-0.255231
574946,0.99,-1.57044,-0.522983,0.00030763,-2.09664,-0.00129113,1.57105,0.785747,-1.5708,-0.523598,1.17488e-06,-2.0944,-7.25539e-07,1.5708,0.785399,0.000729018,-7.14708e-05,-0.00124318,0.000996379,-0.000440103,-2.11244e-06,0.0017304,0,0,0,0,0,0,0,-0.454395,-10.0107,-0.786069,21.666,1.76912,1.5209,-0.290945,-0.44578,-0.886216,-0.34091,3.16146,1.04129,-0.153221,-0.254861
574947,0.99,-1.57044,-0.522984,0.00031125,-2.09665,-0.00129204,1.57106,0.785738,-1.5708,-0.523598,1.17488e-06,-2.0944,-7.25539e-07,1.5708,0.785399,0.000486012,-0.000604459,0.000377636,0.000107441,0.000113499,0.00047331,-0.00172861,0,0,0,0,0,0,0,-0.454395,-9.98691,-0.837644,21.6898,1.75813,1.50808,-0.213125,-0.44637,-0.883956,-0.341998,3.15994,1.04122,-0.153338,-0.254513
574948,0.99,-1.57044,-0.522983,0.000309579,-2.09665,-0.00129275,1.57106,0.785738,-1.5708,-0.523597,1.17493e-06,-2.0944,-7.25616e-07,1.5708,0.785399,-0.000232804,0.000153839,-0.000305054,-0.000577987,7.56662e-05,0.00031554,-0.00138977,1.18455e-07,0.00155352,4.60725e-08,-0.003125,-7.70999e-08,0.005,1.18982e-07,-0.430592,-10.0107,-0.81384,21.7176,1.75813,1.50808,-0.206716,-0.446743,-0.881561,-0.342688,3.15849,1.04118,-0.153435,-0.254223
574949,0.99,-1.57044,-0.522983,0.00031125,-2.09665,-0.00129237,1.57105,0.785745,-1.5708,-0.523594,1.17502e-06,-2.0944,-7.2577e-07,1.57081,0.785399,0.000958421,0.000102559,0.000353442,0.000264289,0.000253895,-0.000501717,0.00148099,2.3691e-07,0.00310704,9.2145e-08,-0.00625,-1.542e-07,0.01,2.37964e-07,-0.478199,-10.0107,-0.837644,21.6898,1.75264,1.52731,-0.271719,-0.447117,-0.880406,-0.343389,3.15798,1.04118,-0.153443,-0.253945
574950,0.99,-1.57044,-0.522984,0.000309579,-2.09665,-0.00129245,1.57105,0.785746,-1.5708,-0.523589,1.17516e-06,-2.09441,-7.26002e-07,1.57083,0.785399,-0.000474676,-0.00104525,-0.000321184,-0.000473421,0.000169263,0.00014024,0.00146204,3.55365e-07,0.00466055,1.38218e-07,-0.009375,-2.313e-07,0.015,3.56946e-07,-0.430592,-9.9631,-0.81384,21.7176,1.75264,1.51449,-0.284536,-0.447506,-0.87957,-0.344093,3.15783,1.04119,-0.153416,-0.253647
574951,0.99,-1.57044,-0.522981,0.00031292,-2.09665,-0.00129177,1.57105,0.785745,-1.5708,-0.523583,1.17534e-06,-2.09443,-7.2631e-07,1.57085,0.785399,-0.000966065,-0.000525738,0.000899501,-0.00368188,0.000350201,-0.000143866,0.000737335,4.73819e-07,0.00621407,1.8429e-07,-0.0125,-3.084e-07,0.02,4.75928e-07,-0.402821,-9.83615,-0.861447,21.5906,1.74623,1.5209,-0.278127,-0.447548,-0.878814,-0.344429,3.15859,1.04123,-0.153269,-0.253371
574952,0.99,-1.57044,-0.522986,0.00031125,-2.09664,-0.00129056,1.57105,0.785746,-1.5708,-0.523575,1.17557e-06,-2.09444,-7.26696e-07,1.57087,0.785399,0.000562383,-0.00177228,4.28557e-05,-8.51353e-06,0.000640368,-0.00104535,0.000728916,5.92274e-07,0.00776759,2.30363e-07,-0.015625,-3.855e-07,0.025,5.9491e-07,-0.454395,-9.37991,-0.837644,21.1939,1.73525,1.54653,-0.284536,-0.447444,-0.878158,-0.344757,3.16053,1.04131,-0.152953,-0.253171
574953,0.99,-1.57044,-0.522985,0.00030596,-2.09665,-0.00129121,1.57105,0.785743,-1.5708,-0.523566,1.17585e-06,-2.09446,-7.27158e-07,1.5709,0.785399,0.000374922,0.000582128,-0.00173467,0.00289656,0.00127462,-0.00164633,-0.000463492,7.10729e-07,0.00932111,2.76435e-07,-0.01875,-4.626e-07,0.03,7.13892e-07,-0.454395,-8.87607,-0.762265,20.7694,1.71236,1.57217,-0.258901,-0.447153,-0.87526,-0.344719,3.16053,1.04131,-0.152769,-0.253078
574954,0.99,-1.57044,-0.522974,0.00030763,-2.09665,-0.00128725,1.57105,0.785739,-1.5708,-0.523555,1.17617e-06,-2.09448,-7.27698e-07,1.57094,0.785399,-0.000306864,0.00320272,-0.000599633,0.00351633,0.0014601,-0.00157227,-0.00176706,8.29184e-07,0.0108746,3.22508e-07,-0.021875,-5.397e-07,0.035,8.32874e-07,-0.430592,-8.39603,-0.786069,20.2497,1.69588,1.58499,-0.219534,-0.445947,-0.871659,-0.343062,3.15723,1.04122,-0.152836,-0.253094
574955,0.99,-1.57044,-0.522962,0.000309579,-2.09665,-0.00128593,1.57106,0.785748,-1.5708,-0.523543,1.17654e-06,-2.09451,-7.28315e-07,1.57098,0.785399,0.000352236,0.0032588,0.000249859,0.00353026,0.00117685,-0.00104818,0.000754742,9.47639e-07,0.0124281,3.6858e-07,-0.025,-6.168e-07,0.04,9.51857e-07,-0.454395,-7.93979,-0.81384,19.726,1.69039,1.58499,-0.271719,-0.444455,-0.870441,-0.340847,3.15182,1.04101,-0.152938,-0.253166
574956,0.99,-1.57044,-0.52294,0.00030596,-2.09666,-0.00128569,1.57106,0.785748,-1.5708,-0.523529,1.17695e-06,-2.09454,-7.29008e-07,1.57102,0.785399,-0.000971602,0.00633926,-0.00103985,-0.000348594,0.000784567,-0.00164822,0.00121524,1.06609e-06,0.0139817,4.14653e-07,-0.028125,-6.939e-07,0.045,1.07084e-06,-0.402821,-7.6105,-0.762265,19.3531,1.69039,1.61062,-0.290945,-0.443134,-0.873289,-0.338872,3.14614,1.0407,-0.152707,-0.253237
574957,0.99,-1.57044,-0.522917,0.00031125,-2.09668,-0.0012849,1.57107,0.785743,-1.5708,-0.523513,1.17741e-06,-2.09457,-7.29779e-07,1.57107,0.785399,0.000558691,0.0104403,0.00107,-0.00399994,0.000760404,0.00425537,-0.000613995,1.18455e-06,0.0155352,4.60725e-07,-0.03125,-7.70999e-07,0.05,1.18982e-06,-0.454395,-7.3566,-0.837644,19.0079,1.68398,1.5914,-0.252493,-0.441924,-0.886026,-0.337101,3.14438,1.0404,-0.151607,-0.253305
574958,0.99,-1.57044,-0.5229,0.000309579,-2.09669,-0.0012862,1.57108,0.785742,-1.5708,-0.523495,1.17795e-06,-2.0946,-7.3064e-07,1.57113,0.785399,-0.000184351,0.0120275,0.000156523,-0.0075296,6.61263e-05,0.00393583,-0.00163003,1.39022e-06,0.0176023,5.36882e-07,-0.0375,-8.60127e-07,0.0584956,1.40124e-06,-0.430592,-7.05508,-0.81384,18.7064,1.69588,1.57217,-0.219534,-0.44156,-0.913375,-0.336643,3.14962,1.04019,-0.149282,-0.253382
574959,0.99,-1.57044,-0.522886,0.00031292,-2.09671,-0.00128619,1.57109,0.785747,-1.5708,-0.523476,1.17856e-06,-2.09465,-7.31589e-07,1.5712,0.785399,-0.000122901,0.00887096,0.00121797,-0.00861053,4.40842e-05,0.00664496,0.00108345,1.59589e-06,0.0196694,6.13039e-07,-0.04375,-9.49254e-07,0.0669912,1.61265e-06,-0.430592,-6.702,-0.861447,18.4842,1.69588,1.5978,-0.278127,-0.442046,-0.948894,-0.337566,3.15878,1.04002,-0.145901,-0.253448
574960,0.99,-1.57044,-0.522878,0.00030763,-2.09673,-0.0012868,1.5711,0.785747,-1.5708,-0.523454,1.17925e-06,-2.0947,-7.32627e-07,1.57127,0.785399,-8.19338e-05,0.00541643,-0.000951256,-0.0117229,-0.000174061,0.00757808,0.000959659,1.80156e-06,0.0217365,6.89195e-07,-0.05,-1.03838e-06,0.0754868,1.82407e-06,-0.430592,-6.29733,-0.786069,18.3612,1.70137,1.65548,-0.284536,-0.442597,-0.977728,-0.338724,3.16446,1.03985,-0.142003,-0.253495
574961,0.99,-1.57044,-0.522863,0.000309579,-2.09674,-0.00128938,1.5711,0.785741,-1.5708,-0.52343,1.18002e-06,-2.09475,-7.33755e-07,1.57136,0.785399,0.001059,0.00731134,1.54431e-05,-0.0153346,8.74098e-05,0.00650887,-0.00129301,2.00723e-06,0.0238035,7.65352e-07,-0.05625,-1.12751e-06,0.0839824,2.03548e-06,-0.478199,-5.94424,-0.81384,18.0359,1.69588,1.76535,-0.232351,-0.442835,-0.992301,-0.339403,3.16328,1.03964,-0.137782,-0.253555
574962,0.99,-1.57044,-0.522849,0.00031125,-2.09677,-0.00128984,1.57111,0.785745,-1.5708,-0.523404,1.18086e-06,-2.09482,-7.34971e-07,1.57145,0.785399,-0.00105724,0.00831902,0.000567107,-0.0211476,0.000261724,0.00592384,0.000596057,2.2129e-06,0.0258706,8.41509e-07,-0.0625,-1.21664e-06,0.0924781,2.2469e-06,-0.402821,-5.43643,-0.837644,17.7146,1.69039,1.87521,-0.271719,-0.443038,-0.997742,-0.340029,3.15854,1.03947,-0.132815,-0.253634
574963,0.99,-1.57044,-0.522834,0.00031125,-2.0968,-0.00128572,1.57112,0.785745,-1.5708,-0.523376,1.18178e-06,-2.09489,-7.36277e-07,1.57155,0.785399,0.000501601,0.0119499,0.000378072,-0.0264304,0.00166645,0.0110168,0.00063473,2.41858e-06,0.0279377,9.17665e-07,-0.06875,-1.30576e-06,0.100974,2.45831e-06,-0.454395,-4.90482,-0.837644,17.2901,1.6501,1.97134,-0.278127,-0.443379,-1.00277,-0.341027,3.15512,1.03942,-0.126527,-0.253704
574964,0.99,-1.57044,-0.522804,0.000309579,-2.09683,-0.00128024,1.57114,0.785742,-1.5708,-0.523346,1.18277e-06,-2.09496,-7.37672e-07,1.57166,0.785399,0.000891213,0.0144598,-0.000304764,-0.0272157,0.00297593,0.0115454,-0.000763641,2.62425e-06,0.0300048,9.93822e-07,-0.075,-1.39489e-06,0.109469,2.66973e-06,-0.478199,-4.50412,-0.81384,16.7188,1.59975,2.02902,-0.246084,-0.443937,-1.0126,-0.342357,3.15465,1.0395,-0.118663,-0.253768
574965,0.99,-1.57044,-0.52278,0.00030763,-2.09688,-0.0012759,1.57117,0.785739,-1.5708,-0.523314,1.18384e-06,-2.09504,-7.39156e-07,1.57178,0.785399,0.000594142,0.0184718,-0.00085279,-0.0307475,0.00344202,0.0190397,-0.00149244,2.82992e-06,0.0320719,1.06998e-06,-0.08125,-1.48402e-06,0.117965,2.88114e-06,-0.478199,-4.04788,-0.786069,16.2467,1.56038,2.02261,-0.219534,-0.444459,-1.02804,-0.343392,3.15526,1.0396,-0.1093,-0.253839
574966,0.99,-1.57043,-0.52275,0.00030596,-2.09693,-0.00127018,1.57122,0.785747,-1.5708,-0.52328,1.18499e-06,-2.09513,-7.40729e-07,1.5719,0.785399,0.00104571,0.0239125,-0.00112534,-0.0359135,0.00314239,0.0259769,0.0016499,3.03559e-06,0.034139,1.14614e-06,-0.0875,-1.57314e-06,0.12646,3.09256e-06,-0.50597,-3.69479,-0.762265,15.8738,1.53749,1.97134,-0.290945,-0.444396,-1.05154,-0.343241,3.15664,1.03967,-0.0984524,-0.253887
574967,0.99,-1.57044,-0.522721,0.000309579,-2.09699,-0.0012679,1.57129,0.785739,-1.5708,-0.523244,1.18621e-06,-2.09522,-7.42391e-07,1.57204,0.785399,-0.000509287,0.0252154,0.0004562,-0.0398823,0.00250183,0.0431883,-0.00154492,3.24126e-06,0.0362061,1.22229e-06,-0.09375,-1.66227e-06,0.134956,3.30397e-06,-0.454395,-3.36551,-0.81384,15.5246,1.52651,1.83584,-0.219534,-0.443912,-1.08446,-0.342253,3.15887,1.03965,-0.0862564,-0.253891
574968,0.99,-1.57044,-0.522701,0.00030763,-2.09705,-0.00126937,1.57136,0.78574,-1.5708,-0.523206,1.18752e-06,-2.09533,-7.4409e-07,1.57219,0.785399,-0.000896336,0.0253686,-0.000345481,-0.0460728,0.00105753,0.0545254,-0.000792591,3.50912e-06,0.0377552,1.31447e-06,-0.103125,-1.69881e-06,0.14588,3.61328e-06,-0.430592,-2.90927,-0.786069,15.3025,1.54299,1.72689,-0.225942,-0.443121,-1.12034,-0.340886,3.15868,1.03948,-0.0732824,-0.253871
574969,0.99,-1.57044,-0.522679,0.00030763,-2.09712,-0.00126926,1.57144,0.78574,-1.5708,-0.523167,1.18893e-06,-2.09544,-7.45826e-07,1.57234,0.785399,0.000516066,0.0219822,-0.00023032,-0.0511894,0.000705022,0.0604328,-0.00147783,3.77699e-06,0.0393043,1.40665e-06,-0.1125,-1.73535e-06,0.156804,3.92258e-06,-0.478199,-2.53238,-0.786069,15.1279,1.54299,1.69485,-0.200308,-0.442056,-1.1481,-0.339238,3.15168,1.03906,-0.0601599,-0.253819
574970,0.99,-1.57044,-0.522659,0.00031292,-2.0972,-0.00126922,1.57153,0.785739,-1.5708,-0.523126,1.19043e-06,-2.09556,-7.47598e-07,1.57251,0.785399,0.00155047,0.0217883,0.00160969,-0.0596134,0.000470015,0.0677503,-0.000510502,4.04485e-06,0.0408535,1.49883e-06,-0.121875,-1.77188e-06,0.167728,4.23188e-06,-0.529774,-2.15152,-0.861447,15.0287,1.54299,1.70767,-0.213125,-0.442127,-1.15906,-0.339214,3.13561,1.03832,-0.0472444,-0.253688
574971,0.99,-1.57043,-0.522635,0.000314869,-2.09727,-0.00127297,1.57162,0.785732,-1.5708,-0.523084,1.19202e-06,-2.09569,-7.49406e-07,1.57269,0.785399,0.00168326,0.0235643,0.00172274,-0.0661981,-0.000941268,0.0760505,-0.00247657,4.31271e-06,0.0424026,1.59101e-06,-0.13125,-1.80842e-06,0.178653,4.54118e-06,-0.557545,-1.82224,-0.889218,14.8066,1.57686,1.78457,-0.155447,-0.444821,-1.15379,-0.342957,3.11249,1.03724,-0.0345505,-0.253434
574972,0.99,-1.57043,-0.52261,0.000317,-2.09736,-0.00127362,1.57172,0.785735,-1.5708,-0.52304,1.1937e-06,-2.09583,-7.51251e-07,1.57288,0.785399,0.00112217,0.0247392,0.00114849,-0.0740136,0.000220198,0.0864989,-0.000701608,4.58058e-06,0.0439517,1.68319e-06,-0.140625,-1.84496e-06,0.189577,4.85048e-06,-0.557545,-1.49295,-0.889218,14.5804,1.55397,1.87521,-0.181082,-0.449465,-1.13828,-0.349496,3.08589,1.03598,-0.0219523,-0.253019
574973,0.99,-1.57042,-0.522574,0.00031771,-2.09746,-0.00127346,1.57183,0.785735,-1.5708,-0.522994,1.19548e-06,-2.09598,-7.53132e-07,1.57308,0.785399,0.00306817,0.0285334,0.000765663,-0.0795847,0.0005537,0.0955887,-0.000230379,4.84844e-06,0.0455008,1.77537e-06,-0.15,-1.8815e-06,0.200501,5.15978e-06,-0.656727,-1.29062,-0.889218,14.2075,1.54299,1.9457,-0.18749,-0.454837,-1.11794,-0.356883,3.05808,1.03468,-0.00931499,-0.25241
574974,0.99,-1.57042,-0.522549,0.000317946,-2.09756,-0.00126944,1.57197,0.785738,-1.5708,-0.522947,1.19735e-06,-2.09614,-7.5505e-07,1.57329,0.785399,0.00325187,0.0281212,0.000510442,-0.0888063,0.0018272,0.104698,0.000558491,5.1163e-06,0.04705,1.86755e-06,-0.159375,-1.91804e-06,0.211425,5.46908e-06,-0.708302,-0.965302,-0.889218,13.9099,1.50362,1.95211,-0.206716,-0.460821,-1.09603,-0.364637,3.03029,1.03337,0.00358097,-0.251603
574975,0.99,-1.57042,-0.522518,0.000318025,-2.09768,-0.00126128,1.57212,0.785732,-1.5708,-0.522899,1.19931e-06,-2.09631,-7.57005e-07,1.57351,0.785399,0.0015183,0.0296101,0.000340295,-0.0949044,0.00291355,0.119031,-0.00152654,5.38416e-06,0.0485991,1.95973e-06,-0.16875,-1.95457e-06,0.222349,5.77838e-06,-0.680531,-0.711395,-0.889218,13.5886,1.45784,1.87521,-0.155447,-0.466913,-1.07169,-0.371948,3.00193,1.03208,0.0168634,-0.25064
574976,0.99,-1.57042,-0.522492,0.000321671,-2.09781,-0.00125461,1.5723,0.785735,-1.5708,-0.522848,1.20136e-06,-2.09649,-7.58996e-07,1.57375,0.785399,0.00166181,0.0290251,0.00143329,-0.106027,0.0122224,0.136579,0.000169098,5.65203e-06,0.0501482,2.05191e-06,-0.178125,-1.99111e-06,0.233273,6.08768e-06,-0.708302,-0.405914,-0.940793,13.3902,1.43587,1.74612,-0.18749,-0.472586,-1.04274,-0.378213,2.97168,1.03076,0.0304439,-0.24957
574977,0.99,-1.57042,-0.522463,0.00031806,-2.09795,-0.00125321,1.57248,0.785738,-1.5708,-0.522797,1.2035e-06,-2.09668,-7.61024e-07,1.57399,0.785399,0.000458262,0.0301399,-0.0002509,-0.113531,0.00893711,0.152873,0.000824809,5.91989e-06,0.0516973,2.14408e-06,-0.1875,-2.02765e-06,0.244197,6.39698e-06,-0.680531,-0.155975,-0.889218,13.1641,1.43587,1.64907,-0.206716,-0.477694,-1.00829,-0.383315,2.93902,1.02933,0.0441063,-0.248414
574978,0.99,-1.57042,-0.522431,0.000319734,-2.0981,-0.00124761,1.57268,0.785738,-1.5708,-0.522744,1.20575e-06,-2.09688,-7.63041e-07,1.57425,0.785399,0.000305508,0.0319371,0.000389545,-0.127435,0.0118809,0.167138,0.000787232,6.2299e-06,0.0525803,2.2452e-06,-0.19912,-2.0171e-06,0.256415,6.7686e-06,-0.680531,0.0225525,-0.913022,13.0173,1.41847,1.61703,-0.213125,-0.481563,-0.9708,-0.386323,2.90566,1.02783,0.0577244,-0.247195
574979,0.99,-1.57041,-0.5224,0.000319735,-2.09826,-0.00124958,1.57288,0.785735,-1.5708,-0.522691,1.20809e-06,-2.09709,-7.65047e-07,1.57451,0.785399,0.00196691,0.0307632,0.000259697,-0.134765,0.00875488,0.176606,-0.000424615,6.53992e-06,0.0534633,2.34631e-06,-0.210739,-2.00656e-06,0.268633,7.14021e-06,-0.755909,0.197113,-0.913022,12.8904,1.41847,1.61703,-0.18749,-0.484731,-0.93259,-0.388007,2.87364,1.02626,0.071266,-0.24595
574980,0.99,-1.57042,-0.522376,0.000318065,-2.09842,-0.00125217,1.5731,0.785738,-1.5708,-0.522636,1.21054e-06,-2.09731,-7.67043e-07,1.5748,0.785399,0.000754461,0.0277137,-0.000383681,-0.142552,0.00581805,0.192684,0.000666359,6.84993e-06,0.0543463,2.44742e-06,-0.222359,-1.99601e-06,0.28085,7.51183e-06,-0.732105,0.451019,-0.889218,12.7436,1.43587,1.62344,-0.213125,-0.488025,-0.887459,-0.389478,2.83961,1.02454,0.0842983,-0.244707
574981,0.99,-1.57041,-0.522342,0.000323815,-2.09859,-0.00125239,1.57333,0.785733,-1.5708,-0.522581,1.21309e-06,-2.09754,-7.69029e-07,1.57509,0.7854,0.0017094,0.0298535,0.000950639,-0.154666,0.004348,0.210658,-0.00145463,7.15994e-06,0.0552293,2.54854e-06,-0.233978,-1.98546e-06,0.293068,7.88345e-06,-0.78368,0.526398,-0.940793,12.6444,1.43587,1.69485,-0.161856,-0.491538,-0.83047,-0.390911,2.8004,1.02265,0.0963895,-0.243481
574982,0.99,-1.57041,-0.522314,0.000324065,-2.09877,-0.0012519,1.57357,0.785724,-1.5708,-0.522525,1.21574e-06,-2.09779,-7.71004e-07,1.57539,0.7854,0.00225322,0.0284516,0.00119057,-0.160603,0.00450525,0.215577,-0.00266518,7.46995e-06,0.0561123,2.64965e-06,-0.245598,-1.97491e-06,0.305286,8.25506e-06,-0.831288,0.704926,-0.964597,12.3706,1.40199,1.79098,-0.116079,-0.496262,-0.764209,-0.393776,2.75715,1.02061,0.107631,-0.242257
574983,0.99,-1.5704,-0.522276,0.000324051,-2.09897,-0.00125044,1.57383,0.785728,-1.5708,-0.522468,1.21849e-06,-2.09805,-7.72968e-07,1.57571,0.7854,0.00215176,0.0338025,0.000236902,-0.17214,0.00411519,0.225336,-0.000318722,7.77997e-06,0.0569953,2.75076e-06,-0.257218,-1.96437e-06,0.317503,8.62668e-06,-0.859058,0.7565,-0.940793,12.2437,1.37911,1.85507,-0.155447,-0.502484,-0.69389,-0.39836,2.712,1.01841,0.118451,-0.240973
574984,0.99,-1.57041,-0.522245,0.000326274,-2.09917,-0.00125203,1.57411,0.785728,-1.5708,-0.52241,1.22134e-06,-2.09831,-7.74922e-07,1.57604,0.7854,0.000784895,0.0320245,0.000714747,-0.182209,0.00253454,0.241474,2.48778e-05,8.08998e-06,0.0578783,2.85188e-06,-0.268837,-1.95382e-06,0.329721,8.99829e-06,-0.831288,0.907257,-0.964597,12.0453,1.39009,1.81661,-0.161856,-0.509029,-0.625816,-0.402939,2.66797,1.01613,0.129394,-0.239563
574985,0.99,-1.57041,-0.522211,0.000322839,-2.0994,-0.00124956,1.57441,0.785721,-1.5708,-0.522351,1.22429e-06,-2.09859,-7.76865e-07,1.57638,0.7854,-3.35487e-05,0.0350962,-0.000729928,-0.192294,0.00163473,0.259459,-0.00120412,8.39999e-06,0.0587613,2.95299e-06,-0.280457,-1.94327e-06,0.341938,9.36991e-06,-0.807484,1.00644,-0.913022,11.847,1.39559,1.72048,-0.128897,-0.514568,-0.561689,-0.405735,2.62576,1.01386,0.140634,-0.238031
574986,0.99,-1.57041,-0.522174,0.00032336,-2.09964,-0.00124351,1.57473,0.785719,-1.5708,-0.522292,1.22735e-06,-2.09889,-7.78798e-07,1.57674,0.7854,-2.23658e-05,0.034732,0.00209707,-0.206481,0.0112109,0.282164,-0.0010401,8.71001e-06,0.0596443,3.0541e-06,-0.292076,-1.93273e-06,0.354156,9.74153e-06,-0.807484,1.08182,-0.889218,11.7716,1.37911,1.58499,-0.122488,-0.519219,-0.501876,-0.407074,2.58539,1.01161,0.152101,-0.236401
574987,0.99,-1.57041,-0.522144,0.000320012,-2.09988,-0.00124149,1.57505,0.785725,-1.5708,-0.522231,1.2305e-06,-2.09919,-7.8072e-07,1.5771,0.7854,-0.00177815,0.0355448,0.00101014,-0.21751,0.00854421,0.299017,0.00123938,9.02002e-06,0.0605273,3.15521e-06,-0.303696,-1.92218e-06,0.366374,1.01131e-05,-0.732105,1.23654,-0.861447,11.597,1.37361,1.50167,-0.174673,-0.524039,-0.446965,-0.408677,2.54764,1.00935,0.163676,-0.234675
574988,0.99,-1.57041,-0.522104,0.000323624,-2.10014,-0.0012397,1.57539,0.785723,-1.5708,-0.52217,1.23376e-06,-2.09951,-7.82605e-07,1.57748,0.7854,-0.00118543,0.0388435,0.00151932,-0.226328,0.00678706,0.304814,0.000351534,9.35614e-06,0.0608632,3.26104e-06,-0.316186,-1.88514e-06,0.379007,1.05104e-05,-0.732105,1.26035,-0.889218,11.4502,1.36171,1.4559,-0.161856,-0.528752,-0.396946,-0.410223,2.51236,1.00709,0.175137,-0.232855
574989,0.99,-1.57041,-0.522066,0.000322049,-2.10041,-0.00123894,1.57573,0.785722,-1.5708,-0.522109,1.23713e-06,-2.09984,-7.84453e-07,1.57787,0.7854,-0.000790288,0.0410591,0.00116009,-0.24133,0.00521574,0.318376,-3.00325e-06,9.69227e-06,0.0611992,3.36687e-06,-0.328676,-1.84811e-06,0.39164,1.09077e-05,-0.732105,1.31192,-0.889218,11.3749,1.35622,1.43667,-0.155447,-0.533185,-0.355204,-0.411371,2.48106,1.00486,0.186481,-0.230967
574990,0.99,-1.57041,-0.522028,0.000319574,-2.10068,-0.00124147,1.57609,0.785726,-1.57079,-0.522048,1.2406e-06,-2.10018,-7.86265e-07,1.57828,0.7854,-0.00108367,0.0392432,0.00023419,-0.249438,0.00404629,0.325816,0.00118479,1.00284e-05,0.0615351,3.4727e-06,-0.341166,-1.81107e-06,0.404273,1.1305e-05,-0.708302,1.36349,-0.861447,11.1765,1.35072,1.48794,-0.18749,-0.53737,-0.321235,-0.412083,2.45404,1.00266,0.197673,-0.229044
574991,0.99,-1.57041,-0.521986,0.000323019,-2.10097,-0.00124069,1.57646,0.785726,-1.57079,-0.521986,1.24418e-06,-2.10053,-7.88039e-07,1.5787,0.7854,0.000391177,0.0424702,0.00144536,-0.26185,0.00358214,0.335903,0.000789862,1.03645e-05,0.061871,3.57853e-06,-0.353656,-1.77404e-06,0.416906,1.17023e-05,-0.755909,1.36349,-0.913022,11.1011,1.33425,1.55294,-0.18749,-0.541445,-0.290057,-0.41253,2.42865,1.00043,0.208487,-0.227121
574992,0.99,-1.5704,-0.521952,0.00032296,-2.10128,-0.00124104,1.57684,0.785726,-1.57079,-0.521924,1.24787e-06,-2.1009,-7.89776e-07,1.57912,0.7854,0.00146721,0.0396332,0.00102568,-0.273682,0.00259379,0.35354,0.000526574,1.07006e-05,0.062207,3.68436e-06,-0.366146,-1.737e-06,0.42954,1.20996e-05,-0.807484,1.43887,-0.913022,11.0019,1.33425,1.60421,-0.18749,-0.546652,-0.258879,-0.414466,2.40325,0.998056,0.218836,-0.225238
574993,0.99,-1.57041,-0.521911,0.000325071,-2.10159,-0.00124176,1.57725,0.785724,-1.57079,-0.521861,1.25166e-06,-2.10128,-7.91476e-07,1.57957,0.7854,-0.00134191,0.0395006,0.000730363,-0.286925,0.00168002,0.367858,-0.000123668,1.10368e-05,0.0625429,3.79019e-06,-0.378636,-1.69997e-06,0.442173,1.24969e-05,-0.708302,1.43887,-0.913022,10.8789,1.33974,1.60421,-0.174673,-0.552711,-0.224048,-0.417585,2.37636,0.995567,0.228703,-0.223444
574994,0.99,-1.57041,-0.521874,0.000320485,-2.10192,-0.00123922,1.57767,0.785731,-1.57079,-0.521798,1.25555e-06,-2.10167,-7.93138e-07,1.58002,0.7854,-0.00154422,0.0385209,-0.0012414,-0.303343,0.00103227,0.385812,0.00205378,1.13729e-05,0.0628788,3.89602e-06,-0.391126,-1.66293e-06,0.454806,1.28942e-05,-0.680531,1.46268,-0.837644,10.8512,1.34523,1.57217,-0.232351,-0.557286,-0.184379,-0.418761,2.3483,0.993115,0.238285,-0.221772
574995,0.99,-1.57041,-0.521832,0.000318589,-2.10228,-0.00123755,1.5781,0.785727,-1.57079,-0.521735,1.25956e-06,-2.10207,-7.94764e-07,1.58049,0.7854,-0.00158629,0.0397258,-0.000801396,-0.320946,0.000978407,0.398991,-5.49637e-05,1.1709e-05,0.0632148,4.00184e-06,-0.403616,-1.6259e-06,0.467439,1.32915e-05,-0.656727,1.4111,-0.837644,10.9265,1.33974,1.53372,-0.193899,-0.559243,-0.144848,-0.416454,2.32326,0.990871,0.248109,-0.22024
574996,0.99,-1.57042,-0.521786,0.000316287,-2.10264,-0.0012372,1.57857,0.785727,-1.57079,-0.521671,1.26366e-06,-2.10249,-7.96353e-07,1.58097,0.7854,-0.00161434,0.0434924,-0.00107143,-0.33277,0.000717355,0.416067,-3.66424e-05,1.20452e-05,0.0635507,4.10767e-06,-0.416106,-1.58886e-06,0.480072,1.36888e-05,-0.632923,1.33572,-0.81384,10.9543,1.33974,1.42385,-0.193899,-0.559411,-0.11271,-0.411878,2.30524,0.988884,0.258534,-0.218862
574997,0.99,-1.57042,-0.521743,0.000314127,-2.10301,-0.00124028,1.57903,0.785727,-1.57079,-0.521607,1.26788e-06,-2.10291,-7.97905e-07,1.58146,0.7854,-0.00172584,0.0424888,-0.00134916,-0.345513,0.00052705,0.431933,-2.44283e-05,1.23813e-05,0.0638866,4.2135e-06,-0.428596,-1.55183e-06,0.492705,1.40861e-05,-0.605152,1.31192,-0.786069,10.8789,1.33974,1.35336,-0.193899,-0.558609,-0.090341,-0.406237,2.29363,0.987089,0.269289,-0.217629
574998,0.99,-1.57042,-0.521696,0.000316188,-2.10341,-0.00124131,1.57952,0.785729,-1.57079,-0.521544,1.2722e-06,-2.10336,-7.99405e-07,1.58197,0.7854,-0.00226418,0.042664,-0.000888387,-0.357721,0.000387976,0.445226,0.000695791,1.27307e-05,0.0637499,4.32054e-06,-0.441086,-1.49971e-06,0.505231,1.44878e-05,-0.557545,1.23654,-0.786069,10.9543,1.33974,1.34054,-0.213125,-0.557211,-0.072695,-0.400125,2.28437,0.985372,0.279769,-0.216521
574999,0.99,-1.57042,-0.521647,0.000314744,-2.1038,-0.00123968,1.58,0.785724,-1.57079,-0.52148,1.27662e-06,-2.10381,-8.00852e-07,1.58249,0.7854,-0.000952644,0.0461253,-0.000583968,-0.374197,-0.000120793,0.469439,-0.000960293,1.30801e-05,0.0636132,4.42758e-06,-0.453576,-1.44759e-06,0.517757,1.48895e-05,-0.581349,1.16116,-0.786069,10.8789,1.35072,1.39822,-0.174673,-0.555991,-0.0586125,-0.394735,2.27653,0.983685,0.28965,-0.215525
575000,0.99,-1.57042,-0.521597,0.000312592,-2.10421,-0.00123811,1.58051,0.78573,-1.57079,-0.521417,1.28116e-06,-2.10428,-8.02248e-07,1.58302,0.7854,-0.000635096,0.0477192,-0.000939906,-0.384941,0.000143515,0.481071,0.00125868,1.34295e-05,0.0634765,4.53462e-06,-0.466066,-1.39547e-06,0.530284,1.52911e-05,-0.581349,1.10959,-0.762265,10.9027,1.34523,1.47512,-0.225942,-0.555752,-0.0522907,-0.391148,2.27192,0.982036,0.298902,-0.214616
575001,0.99,-1.57042,-0.521552,0.000310943,-2.10464,-0.00123658,1.58103,0.785732,-1.57079,-0.521353,1.2858e-06,-2.10475,-8.03591e-07,1.58356,0.7854,-0.000423397,0.0455999,-0.00182837,-0.39523,0.000518022,0.491166,0.00131384,1.37789e-05,0.0633398,4.64166e-06,-0.478556,-1.34335e-06,0.54281,1.56928e-05,-0.581349,1.08182,-0.710691,10.9027,1.33425,1.50808,-0.23876,-0.556278,-0.0503631,-0.388867,2.26795,0.980365,0.30742,-0.213786
575002,0.99,-1.57042,-0.521507,0.000309469,-2.10508,-0.00123454,1.58156,0.785729,-1.57079,-0.52129,1.29055e-06,-2.10524,-8.04882e-07,1.58411,0.7854,-0.000282265,0.0442388,-0.00121541,-0.40475,0.00100119,0.502874,-7.35455e-05,1.41284e-05,0.0632031,4.74871e-06,-0.491046,-1.29123e-06,0.555336,1.60944e-05,-0.581349,1.03421,-0.710691,10.9543,1.31685,1.4559,-0.213125,-0.557102,-0.042279,-0.387103,2.25845,0.978539,0.314994,-0.213067
575003,0.99,-1.57042,-0.52146,0.000312597,-2.10553,-0.0012345,1.58213,0.785727,-1.57079,-0.521227,1.29541e-06,-2.10575,-8.06122e-07,1.58468,0.7854,-0.000744989,0.0447551,0.000398773,-0.416571,0.000676149,0.51687,-0.000523748,1.44778e-05,0.0630664,4.85575e-06,-0.503536,-1.23912e-06,0.567862,1.64961e-05,-0.557545,0.931061,-0.762265,10.9781,1.31685,1.34695,-0.200308,-0.558717,-0.0225051,-0.386666,2.24034,0.976457,0.321562,-0.212484
575004,0.99,-1.57043,-0.521412,0.000308814,-2.10599,-0.00123327,1.5827,0.785729,-1.57079,-0.521164,1.30037e-06,-2.10626,-8.07309e-07,1.58526,0.7854,-0.00170308,0.0456156,-0.00093861,-0.430576,0.000864183,0.524747,0.000362911,1.48272e-05,0.0629297,4.96279e-06,-0.516026,-1.187e-06,0.580388,1.68978e-05,-0.50597,0.804108,-0.710691,11.0535,1.30586,1.32131,-0.219534,-0.56103,0.00547696,-0.387616,2.21622,0.974154,0.327401,-0.212016
575005,0.99,-1.57043,-0.521367,0.000307089,-2.10645,-0.00123251,1.58326,0.785732,-1.57079,-0.521101,1.30544e-06,-2.10679,-8.08443e-07,1.58585,0.7854,-0.00113539,0.0453862,-0.00118108,-0.442653,-0.000232793,0.533186,0.000954018,1.51766e-05,0.062793,5.06983e-06,-0.528516,-1.13488e-06,0.592914,1.72994e-05,-0.50597,0.704926,-0.686887,10.9543,1.32784,1.35336,-0.23876,-0.562796,0.0361123,-0.388163,2.19044,0.971749,0.332888,-0.21163
575006,0.99,-1.57043,-0.52131,0.000307071,-2.10693,-0.00123277,1.58385,0.785727,-1.57079,-0.521039,1.31061e-06,-2.10733,-8.09526e-07,1.58646,0.7854,-0.00196335,0.0471397,-0.000786278,-0.450975,-0.00059234,0.544773,-0.000788142,1.5526e-05,0.0626563,5.17687e-06,-0.541006,-1.08276e-06,0.60544,1.77011e-05,-0.454395,0.502594,-0.686887,10.8512,1.33974,1.35977,-0.200308,-0.563531,0.0675173,-0.38755,2.16389,0.969269,0.338019,-0.211321
575007,0.99,-1.57043,-0.521257,0.000310406,-2.10741,-0.00123485,1.58445,0.785727,-1.57079,-0.520976,1.3159e-06,-2.10789,-8.10557e-07,1.58708,0.7854,-0.0013089,0.0507305,0.000590269,-0.46054,-0.00120595,0.55557,-0.000525428,1.58754e-05,0.0625195,5.28391e-06,-0.553496,-1.03064e-06,0.617966,1.81027e-05,-0.454395,0.351837,-0.734494,10.6806,1.36171,1.32772,-0.200308,-0.563948,0.0976044,-0.386887,2.13563,0.966679,0.342559,-0.211082
575008,0.99,-1.57043,-0.521208,0.000303444,-2.10791,-0.00123168,1.58507,0.78573,-1.57079,-0.520914,1.32129e-06,-2.10845,-8.11525e-07,1.58771,0.7854,-0.000872601,0.0476593,-0.00192591,-0.472659,0.00021535,0.57061,0.000599151,1.62279e-05,0.0619437,5.3892e-06,-0.565986,-9.68507e-07,0.630087,1.84974e-05,-0.454395,0.300262,-0.635312,10.5814,1.33425,1.24349,-0.225942,-0.564404,0.125492,-0.386639,2.10498,0.963998,0.346384,-0.210888
575009,0.99,-1.57043,-0.521161,0.000307062,-2.10843,-0.00122849,1.5857,0.785729,-1.57079,-0.520853,1.32678e-06,-2.10903,-8.12432e-07,1.58835,0.7854,0.000624691,0.0483418,-7.70505e-05,-0.480875,0.00119627,0.579446,0.000162075,1.65803e-05,0.0613678,5.49449e-06,-0.578476,-9.06371e-07,0.642207,1.88921e-05,-0.50597,0.276459,-0.686887,10.4544,1.30586,1.22427,-0.219534,-0.564963,0.155636,-0.386655,2.0698,0.961232,0.349319,-0.210727
575010,0.99,-1.57043,-0.521119,0.000305113,-2.10895,-0.00122471,1.58632,0.785727,-1.57079,-0.520792,1.33238e-06,-2.10962,-8.13276e-07,1.589,0.7854,-0.000233152,0.0462837,-0.000700631,-0.496536,0.00205329,0.591068,-0.000841386,1.69328e-05,0.0607919,5.59977e-06,-0.590966,-8.44235e-07,0.654328,1.92868e-05,-0.478199,0.351837,-0.659116,10.3315,1.27199,1.31491,-0.193899,-0.566258,0.190796,-0.387771,2.02944,0.958348,0.351337,-0.210605
575011,0.99,-1.57043,-0.521068,0.000307062,-2.10949,-0.00122471,1.58697,0.78573,-1.57079,-0.520732,1.33809e-06,-2.11023,-8.14058e-07,1.58967,0.7854,0.000494178,0.0488775,0.000182789,-0.50441,0.00136973,0.599543,0.000625871,1.72852e-05,0.0602161,5.70506e-06,-0.603456,-7.82099e-07,0.666449,1.96814e-05,-0.50597,0.276459,-0.686887,10.2323,1.27199,1.3854,-0.225942,-0.568353,0.228775,-0.390151,1.98592,0.95535,0.352694,-0.210512
575012,0.99,-1.57043,-0.521019,0.000303443,-2.11004,-0.00122334,1.58763,0.785729,-1.57079,-0.520672,1.3439e-06,-2.11084,-8.14778e-07,1.59035,0.7854,-0.000876973,0.0486639,-0.00734568,-0.520371,0.0050365,0.616019,0.000179888,1.76377e-05,0.0596402,5.81035e-06,-0.615946,-7.19964e-07,0.67857,2.00761e-05,-0.454395,0.149506,-0.635312,10.2323,1.28847,1.35977,-0.219534,-0.568724,0.265369,-0.389886,1.94143,0.952338,0.353706,-0.210443
575013,0.99,-1.57043,-0.520969,0.000307062,-2.1106,-0.00122228,1.58832,0.785724,-1.57079,-0.520613,1.34981e-06,-2.11147,-8.15436e-07,1.59104,0.7854,-2.78367e-05,0.0483339,-0.00421233,-0.532972,0.00375258,0.632878,-0.00154159,1.79901e-05,0.0590643,5.91564e-06,-0.628436,-6.57828e-07,0.690691,2.04708e-05,-0.478199,0.0225525,-0.686887,10.2561,1.28847,1.31491,-0.174673,-0.564747,0.297695,-0.382888,1.89799,0.949463,0.354681,-0.210424
575014,0.99,-1.57043,-0.520919,0.000305113,-2.11119,-0.00121934,1.58902,0.785722,-1.57079,-0.520555,1.35583e-06,-2.11211,-8.16031e-07,1.59174,0.7854,0.000631055,0.0483487,-0.00384905,-0.55029,0.00726843,0.65219,-0.00197716,1.83426e-05,0.0584884,6.02093e-06,-0.640926,-5.95692e-07,0.702812,2.08654e-05,-0.50597,-0.128204,-0.659116,10.3553,1.29396,1.21145,-0.149038,-0.558638,0.324689,-0.372601,1.85747,0.946715,0.355815,-0.210431
575015,0.99,-1.57043,-0.520876,0.000303443,-2.11179,-0.00121632,1.58972,0.78573,-1.57079,-0.520497,1.36196e-06,-2.11277,-8.16565e-07,1.59246,0.7854,0.000420704,0.0462723,-0.00341626,-0.563154,0.00606761,0.667233,0.0015302,1.8695e-05,0.0579126,6.12621e-06,-0.653416,-5.33557e-07,0.714932,2.12601e-05,-0.50597,-0.179779,-0.635312,10.5814,1.27748,1.22427,-0.225942,-0.553465,0.346616,-0.363791,1.82087,0.944023,0.357123,-0.210392
575016,0.99,-1.57043,-0.520827,0.000302983,-2.1124,-0.00121593,1.59043,0.785727,-1.57079,-0.520439,1.36819e-06,-2.11343,-8.17036e-07,1.59319,0.7854,-0.000369144,0.0463075,-0.00194076,-0.576656,0.0045038,0.678218,-0.000166661,1.90475e-05,0.0573367,6.2315e-06,-0.665906,-4.71421e-07,0.727053,2.16548e-05,-0.478199,-0.306732,-0.659116,10.7798,1.27748,1.32772,-0.193899,-0.549804,0.365918,-0.357488,1.78738,0.941367,0.358441,-0.210266
575017,0.99,-1.57043,-0.520779,0.000302272,-2.11301,-0.00121443,1.59116,0.785725,-1.57079,-0.520383,1.37453e-06,-2.11411,-8.17446e-07,1.59392,0.7854,-0.000246096,0.0459173,-0.00145889,-0.592824,0.00273623,0.705286,-0.000585825,1.93999e-05,0.0567608,6.33679e-06,-0.678396,-4.09285e-07,0.739174,2.20495e-05,-0.478199,-0.405914,-0.659116,10.9265,1.29396,1.37899,-0.181082,-0.547868,0.3829,-0.354198,1.75697,0.938758,0.359663,-0.210073
575018,0.99,-1.57043,-0.520732,0.000300365,-2.11365,-0.00121408,1.5919,0.785726,-1.57079,-0.520327,1.38097e-06,-2.1148,-8.17783e-07,1.59468,0.7854,-0.000164064,0.0449202,-0.00165319,-0.609489,0.00289599,0.714615,-0.000153191,1.97472e-05,0.05574,6.43775e-06,-0.690886,-3.37126e-07,0.750741,2.24329e-05,-0.478199,-0.48526,-0.635312,11.0257,1.27199,1.32772,-0.18749,-0.547477,0.3954,-0.353652,1.73176,0.936267,0.360992,-0.209827
575019,1,-1.57042,-0.520688,0.000300286,-2.11431,-0.0012071,1.59266,0.785729,-1.57079,-0.520272,1.38751e-06,-2.1155,-8.18048e-07,1.59544,0.7854,0.00286029,0.0431564,-0.00119496,-0.623042,0.00361615,0.727809,0.000847308,2.00945e-05,0.0547192,6.53871e-06,-0.703376,-2.64966e-07,0.762309,2.28164e-05,-0.605152,-0.509064,-0.635312,11.2003,1.23171,1.32772,-0.213125,-0.548877,0.403709,-0.355867,1.7128,0.933877,0.362739,-0.20952
575020,1,-1.57042,-0.520641,0.00030193,-2.11498,-0.00120566,1.59342,0.785724,-1.57079,-0.520218,1.39414e-06,-2.11622,-8.18241e-07,1.59621,0.7854,0.00135005,0.0426166,-0.000309459,-0.638762,0.00275936,0.731577,-0.00109664,2.04418e-05,0.0536984,6.63967e-06,-0.715866,-1.92806e-07,0.773876,2.31999e-05,-0.581349,-0.560638,-0.659116,11.2995,1.22621,1.41104,-0.168264,-0.552743,0.409612,-0.361478,1.69967,0.931471,0.365089,-0.209156
575021,1,-1.57042,-0.520601,0.000300251,-2.11567,-0.00120599,1.59419,0.78573,-1.57079,-0.520166,1.40089e-06,-2.11695,-8.18361e-07,1.597,0.7854,0.000900031,0.0378537,-0.00081534,-0.654809,0.00174498,0.737611,0.00140514,2.07891e-05,0.0526776,6.74063e-06,-0.728356,-1.20646e-07,0.785444,2.35834e-05,-0.581349,-0.560638,-0.635312,11.3272,1.23171,1.49526,-0.225942,-0.558198,0.415284,-0.369214,1.69219,0.929001,0.368252,-0.208748
575022,1,-1.57043,-0.520559,0.000300248,-2.11638,-0.00120463,1.59499,0.785732,-1.57079,-0.520114,1.40773e-06,-2.11769,-8.1841e-07,1.59779,0.7854,-0.00116322,0.0392855,-0.000582726,-0.668053,0.000600705,0.753754,0.00141148,2.11364e-05,0.0516568,6.84159e-06,-0.740846,-4.84866e-08,0.797011,2.39668e-05,-0.50597,-0.636017,-0.635312,11.351,1.2491,1.44308,-0.23876,-0.563255,0.422725,-0.376356,1.68952,0.926498,0.372308,-0.208317
575023,1,-1.57043,-0.520515,0.000301918,-2.11709,-0.00120537,1.59578,0.785724,-1.57079,-0.520063,1.41467e-06,-2.11844,-8.18386e-07,1.5986,0.7854,-0.000775478,0.0420479,0.000138953,-0.684244,-0.000148649,0.771117,-0.00166996,2.14837e-05,0.050636,6.94255e-06,-0.753336,2.36732e-08,0.808579,2.43503e-05,-0.50597,-0.786774,-0.659116,11.3987,1.26558,1.34695,-0.168264,-0.566978,0.42707,-0.381672,1.69229,0.92403,0.377174,-0.207909
575024,1,-1.57043,-0.520477,0.000300247,-2.11782,-0.00119743,1.59658,0.785723,-1.57079,-0.520014,1.42171e-06,-2.11921,-8.1829e-07,1.59942,0.7854,0.00068944,0.0422485,-0.000486208,-0.694752,0.00140489,0.771635,-0.00135067,2.1831e-05,0.0496152,7.04351e-06,-0.765826,9.58329e-08,0.820146,2.47338e-05,-0.557545,-0.862152,-0.635312,11.4264,1.22621,1.39822,-0.161856,-0.570001,0.421857,-0.38596,1.70177,0.92161,0.38278,-0.207538
575025,1,-1.57043,-0.52044,0.000296628,-2.11854,-0.00119244,1.59739,0.78573,-1.57079,-0.519965,1.42886e-06,-2.11999,-8.18122e-07,1.60025,0.7854,-0.000189987,0.0393156,-0.00154709,-0.702787,0.00589821,0.779907,0.00147314,2.21782e-05,0.0485944,7.14447e-06,-0.778316,1.67993e-07,0.831714,2.51173e-05,-0.529774,-0.937531,-0.583737,11.2757,1.22072,1.43667,-0.225942,-0.572606,0.412177,-0.389285,1.71321,0.919086,0.388671,-0.20717
575026,1,-1.57043,-0.520404,0.000293008,-2.11928,-0.00119159,1.59822,0.78573,-1.57079,-0.519918,1.4361e-06,-2.12078,-8.17882e-07,1.6011,0.7854,-0.000126658,0.0393945,-0.00225021,-0.711996,0.00414816,0.797302,0.000982096,2.25255e-05,0.0475736,7.24543e-06,-0.790806,2.40152e-07,0.843281,2.55008e-05,-0.529774,-0.989105,-0.532163,11.1011,1.22621,1.43026,-0.225942,-0.573898,0.408498,-0.390173,1.71852,0.916292,0.394022,-0.2068
575027,1,-1.57043,-0.520368,0.000294957,-2.12004,-0.00118536,1.59907,0.785722,-1.57079,-0.519871,1.44345e-06,-2.12158,-8.1757e-07,1.60195,0.7854,-8.44387e-05,0.0366365,-0.00085982,-0.718214,0.00392776,0.805329,-0.00195622,2.28728e-05,0.0465527,7.34639e-06,-0.803296,3.12312e-07,0.854849,2.58842e-05,-0.529774,-1.04068,-0.559934,11.0019,1.20333,1.44308,-0.155447,-0.573946,0.41733,-0.388748,1.7119,0.913141,0.398163,-0.206475
575028,1,-1.57043,-0.520342,0.000293008,-2.12079,-0.00118291,1.59992,0.785726,-1.57079,-0.519826,1.45089e-06,-2.1224,-8.1717e-07,1.60282,0.7854,-5.62924e-05,0.0314731,-0.0012298,-0.727771,0.00326136,0.817697,-0.000117351,2.32084e-05,0.0450417,7.44071e-06,-0.815786,3.99577e-07,0.865828,2.62584e-05,-0.529774,-0.965302,-0.532163,10.8512,1.19234,1.39822,-0.18749,-0.573846,0.445375,-0.386693,1.68895,0.909544,0.400715,-0.206205
575029,1,-1.57043,-0.52031,0.000292827,-2.12158,-0.00116859,1.60079,0.785729,-1.57079,-0.519783,1.45843e-06,-2.12322,-8.16683e-07,1.60369,0.7854,-3.75283e-05,0.0298321,-0.00017548,-0.742407,0.0095766,0.828293,0.00110856,2.3544e-05,0.0435306,7.53502e-06,-0.828276,4.86841e-07,0.876807,2.66325e-05,-0.529774,-0.965302,-0.559934,10.9543,1.12459,1.39181,-0.219534,-0.574304,0.495141,-0.385112,1.64988,0.905481,0.401835,-0.205958
575030,1,-1.57043,-0.52028,0.000293787,-2.12236,-0.00116434,1.60166,0.785731,-1.57079,-0.519741,1.46605e-06,-2.12407,-8.16109e-07,1.60458,0.7854,-0.000581831,0.031728,0.000435904,-0.754985,0.0112364,0.840424,0.00121376,2.38795e-05,0.0420196,7.62934e-06,-0.840766,5.74106e-07,0.887786,2.70067e-05,-0.50597,-0.965302,-0.583737,10.9543,1.13558,1.3085,-0.232351,-0.575763,0.556845,-0.384762,1.60218,0.901034,0.402254,-0.205717
575031,1,-1.57043,-0.520246,0.00028659,-2.12317,-0.0011638,1.60256,0.78573,-1.57079,-0.5197,1.47378e-06,-2.12492,-8.15448e-07,1.60548,0.7854,0.000168925,0.0322885,-0.00203239,-0.769225,0.0067877,0.857776,0.000571813,2.42151e-05,0.0405085,7.72366e-06,-0.853256,6.61371e-07,0.898765,2.73808e-05,-0.529774,-1.06448,-0.484555,11.0019,1.17586,1.24349,-0.225942,-0.577576,0.616591,-0.384733,1.55428,0.89636,0.402591,-0.20551
575032,1,-1.57043,-0.52021,0.000289852,-2.124,-0.0011595,1.60346,0.785728,-1.57079,-0.519661,1.4816e-06,-2.12578,-8.14699e-07,1.60639,0.7854,-0.000444195,0.0318407,-0.000243507,-0.785947,0.00386207,0.86603,-0.000330868,2.45507e-05,0.0389974,7.81798e-06,-0.865746,7.48635e-07,0.909744,2.7755e-05,-0.50597,-1.26682,-0.532163,11.2003,1.20973,1.19223,-0.206716,-0.578693,0.665675,-0.38348,1.51221,0.891681,0.40319,-0.20536
575033,1,-1.57043,-0.520176,0.000288155,-2.12483,-0.00115677,1.60436,0.785729,-1.57079,-0.519624,1.48951e-06,-2.12666,-8.13863e-07,1.60731,0.7854,0.000910296,0.0343956,-0.000720804,-0.798588,0.00196722,0.873173,1.67804e-05,2.48862e-05,0.0374864,7.91229e-06,-0.878236,8.359e-07,0.920722,2.81291e-05,-0.557545,-1.46915,-0.508359,11.3987,1.23812,1.24349,-0.213125,-0.579584,0.699054,-0.381742,1.48031,0.887158,0.404348,-0.205255
575034,1,-1.57043,-0.520151,0.000288146,-2.12569,-0.00115029,1.60528,0.785725,-1.57079,-0.519588,1.49751e-06,-2.12755,-8.1294e-07,1.60824,0.7854,-0.000599562,0.0330704,-0.000481777,-0.810995,0.00208504,0.880729,-0.00117561,2.52218e-05,0.0359753,8.00661e-06,-0.890726,9.23165e-07,0.931701,2.85033e-05,-0.50597,-1.54453,-0.508359,11.6724,1.22621,1.3085,-0.181082,-0.580633,0.715604,-0.380089,1.45932,0.882861,0.40607,-0.205171
575035,1,-1.57043,-0.520124,0.000286473,-2.12656,-0.00114355,1.60619,0.785733,-1.57079,-0.519553,1.50562e-06,-2.12846,-8.1193e-07,1.60919,0.785401,-0.000399708,0.0328538,-0.000878927,-0.826119,0.00224994,0.906652,0.00186112,2.55574e-05,0.0344643,8.10093e-06,-0.903216,1.01043e-06,0.94268,2.88775e-05,-0.50597,-1.64767,-0.484555,11.9977,1.20973,1.37899,-0.252493,-0.581228,0.719321,-0.377692,1.44676,0.878848,0.408019,-0.205097
575036,1,-1.57043,-0.520102,0.000282853,-2.12745,-0.00113932,1.60711,0.785733,-1.57079,-0.51952,1.51381e-06,-2.12937,-8.10832e-07,1.61014,0.785401,-0.0014729,0.0288547,-0.00179308,-0.842336,0.00148368,0.904982,0.00124075,2.58929e-05,0.0329532,8.19525e-06,-0.915706,1.09769e-06,0.953659,2.92516e-05,-0.454395,-1.72305,-0.432981,12.2953,1.21523,1.41104,-0.252493,-0.580625,0.715407,-0.373552,1.44115,0.875169,0.410108,-0.205047
575037,1,-1.57043,-0.52008,0.000279051,-2.12837,-0.00113014,1.60805,0.785727,-1.57079,-0.519489,1.5221e-06,-2.1303,-8.09647e-07,1.6111,0.785401,-0.000981932,0.0253032,-0.00175272,-0.864519,0.00258756,0.910829,-0.00134298,2.62285e-05,0.0314421,8.28956e-06,-0.928196,1.18496e-06,0.964638,2.96258e-05,-0.454395,-1.77066,-0.409177,12.6682,1.17586,1.46231,-0.193899,-0.578486,0.707528,-0.367212,1.44455,0.871867,0.412981,-0.205059
575038,1,-1.57044,-0.520051,0.000280472,-2.1293,-0.00112158,1.60897,0.785722,-1.57079,-0.519459,1.53048e-06,-2.13124,-8.08359e-07,1.61208,0.785401,-0.00121143,0.0258019,-0.00116887,-0.885761,0.00308493,0.913491,-0.00231947,2.65471e-05,0.0294706,8.37575e-06,-0.940656,1.28796e-06,0.974981,2.99896e-05,-0.430592,-1.94919,-0.409177,13.0649,1.14198,1.61703,-0.155447,-0.575544,0.692935,-0.35978,1.46297,0.86898,0.417662,-0.205139
575039,1,-1.57043,-0.520026,0.000275195,-2.13024,-0.00111801,1.60993,0.785727,-1.57079,-0.519432,1.53894e-06,-2.13219,-8.06968e-07,1.61306,0.785401,-0.000807622,0.0247706,-0.00198597,-0.900968,0.00646548,0.924643,0.000115199,2.68657e-05,0.027499,8.46193e-06,-0.953117,1.39096e-06,0.985323,3.03534e-05,-0.430592,-2.07614,-0.357602,13.3149,1.15297,1.62344,-0.200308,-0.572576,0.666199,-0.352361,1.50037,0.866452,0.424677,-0.205217
575040,1,-1.57044,-0.519997,0.000271024,-2.13119,-0.00111575,1.61089,0.78573,-1.57079,-0.519406,1.54749e-06,-2.13316,-8.05474e-07,1.61406,0.785401,-0.00118803,0.0252435,-0.00567982,-0.915749,0.00862001,0.933534,0.00102624,2.71843e-05,0.0255274,8.54811e-06,-0.965577,1.49396e-06,0.995665,3.07172e-05,-0.402821,-2.25467,-0.306028,13.414,1.17586,1.65548,-0.225942,-0.568509,0.6277,-0.343143,1.55391,0.864138,0.433722,-0.205242
575041,1,-1.57044,-0.519967,0.000267039,-2.13215,-0.00111157,1.61186,0.785727,-1.57079,-0.519383,1.55612e-06,-2.13414,-8.03877e-07,1.61507,0.785401,-0.00255526,0.0227649,-0.00460596,-0.930041,0.0110143,0.937009,-0.000265279,2.75029e-05,0.0235559,8.63429e-06,-0.978038,1.59696e-06,1.00601,3.10811e-05,-0.327442,-2.45303,-0.282224,13.5132,1.18135,1.61703,-0.200308,-0.561703,0.581682,-0.329604,1.61827,0.861931,0.444265,-0.205233
575042,1,-1.57044,-0.519941,0.000264318,-2.13312,-0.00111374,1.61285,0.785725,-1.57079,-0.519361,1.56484e-06,-2.13513,-8.02177e-07,1.61608,0.785401,-0.00226032,0.0240518,-0.0039172,-0.935793,0.00703246,0.951772,-0.00088893,2.78215e-05,0.0215843,8.72047e-06,-0.990498,1.69996e-06,1.01635,3.14449e-05,-0.303639,-2.65536,-0.254453,13.3387,1.21523,1.44308,-0.181082,-0.552833,0.534411,-0.31299,1.68652,0.859683,0.455537,-0.205218
575043,1,-1.57045,-0.519924,0.00026555,-2.13408,-0.00110747,1.61386,0.785729,-1.57079,-0.519341,1.57365e-06,-2.13613,-8.00374e-07,1.61711,0.785401,-0.00206369,0.023164,-0.00155275,-0.944212,0.00624417,0.975537,0.000831534,2.81401e-05,0.0196128,8.80666e-06,-1.00296,1.80297e-06,1.02669,3.18087e-05,-0.279835,-2.78232,-0.306028,13.0887,1.19234,1.12173,-0.219534,-0.544333,0.492709,-0.297135,1.74939,0.857202,0.466154,-0.205191
575044,1,-1.57044,-0.51991,0.000261135,-2.13506,-0.00109987,1.61488,0.785724,-1.57079,-0.519324,1.58254e-06,-2.13715,-7.98468e-07,1.61815,0.785401,-0.000262169,0.0212929,-0.00235238,-0.948722,0.00574506,0.986438,-0.00110716,2.84588e-05,0.0176412,8.89284e-06,-1.01542,1.90597e-06,1.03703,3.21726e-05,-0.327442,-2.8577,-0.254453,12.7436,1.16396,0.967006,-0.174673,-0.538133,0.463472,-0.284861,1.79837,0.85434,0.4746,-0.205144
575045,1,-1.57044,-0.519904,0.000262818,-2.13605,-0.00109204,1.61587,0.785732,-1.57079,-0.519308,1.59152e-06,-2.13817,-7.96459e-07,1.61919,0.785401,0.000474834,0.0140947,-0.00100173,-0.955047,0.00527953,0.985986,0.00190675,2.87774e-05,0.0156696,8.97902e-06,-1.02788,2.00897e-06,1.04738,3.25364e-05,-0.355213,-2.81009,-0.282224,12.3429,1.13558,1.14096,-0.246084,-0.535001,0.456834,-0.277071,1.8262,0.850931,0.479755,-0.205087
575046,1,-1.57045,-0.519896,0.00026394,-2.13703,-0.00109238,1.61687,0.785742,-1.57079,-0.519294,1.60058e-06,-2.13921,-7.94347e-07,1.62025,0.785401,-0.00088987,0.00950661,-0.00276942,-0.962389,0.00212302,0.984887,0.00435683,2.9096e-05,0.0136981,9.0652e-06,-1.04034,2.11197e-06,1.05772,3.29002e-05,-0.303639,-2.78232,-0.329831,11.9223,1.18135,1.24349,-0.329397,-0.534029,0.482215,-0.272379,1.82855,0.84688,0.481269,-0.205038
575047,1,-1.57045,-0.519883,0.00026153,-2.13804,-0.00108943,1.61791,0.785737,-1.57079,-0.519283,1.60974e-06,-2.14027,-7.92132e-07,1.62132,0.785401,-0.000593246,0.011287,-0.00271257,-0.973518,0.00102906,0.990578,0.00124304,2.94146e-05,0.0117265,9.15139e-06,-1.0528,2.21497e-06,1.06806,3.3264e-05,-0.303639,-2.83389,-0.306028,11.7716,1.19783,1.2499,-0.284536,-0.53305,0.535285,-0.267756,1.80897,0.842334,0.479824,-0.20508
575048,1,-1.57044,-0.519865,0.000264903,-2.13906,-0.00108464,1.61897,0.785734,-1.57079,-0.519273,1.61897e-06,-2.14133,-7.89809e-07,1.6224,0.785401,0.000161314,0.0147064,-0.000834064,-1.01434,0.00557792,1.03442,-0.00110408,2.9712e-05,0.00947334,9.2291e-06,-1.06484,2.32335e-06,1.07762,3.36075e-05,-0.327442,-2.98465,-0.357602,11.8985,1.19783,1.08877,-0.232351,-0.531942,0.588387,-0.263212,1.78662,0.837813,0.477419,-0.205307
575049,1,-1.57045,-0.519839,0.000264821,-2.14009,-0.00107684,1.62003,0.785736,-1.57079,-0.519266,1.62827e-06,-2.14241,-7.87377e-07,1.62348,0.785401,-0.000449269,0.0202045,-0.000730125,-1.02119,0.00630672,1.03763,0.000484647,3.00095e-05,0.00722019,9.30681e-06,-1.07688,2.43174e-06,1.08718,3.3951e-05,-0.303639,-3.26236,-0.357602,11.8232,1.14198,1.12814,-0.26531,-0.532028,0.609516,-0.260879,1.78382,0.833871,0.476091,-0.205722
575050,1,-1.57045,-0.51982,0.000264793,-2.14116,-0.0010668,1.62109,0.785738,-1.57079,-0.519261,1.63766e-06,-2.1435,-7.84837e-07,1.62458,0.785401,-0.000299513,0.0214863,-0.000617312,-1.02965,0.00669657,1.04179,0.00150989,3.0307e-05,0.00496704,9.38453e-06,-1.08892,2.54012e-06,1.09674,3.42945e-05,-0.303639,-3.44089,-0.357602,11.9461,1.08522,1.23709,-0.297354,-0.533027,0.592513,-0.260382,1.80118,0.830485,0.475897,-0.206271
575051,1,-1.57045,-0.519802,0.000262835,-2.14221,-0.0010648,1.62217,0.785739,-1.57079,-0.519258,1.64712e-06,-2.1446,-7.82189e-07,1.62569,0.785401,-0.0014061,0.0204912,-0.00115908,-1.03811,0.0039429,1.06057,0.00124395,3.06045e-05,0.00271389,9.46224e-06,-1.10096,2.6485e-06,1.1063,3.46381e-05,-0.252064,-3.66702,-0.329831,11.847,1.10719,1.08877,-0.303762,-0.533701,0.551791,-0.259887,1.82555,0.827296,0.475726,-0.206948
575052,1,-1.57046,-0.51979,0.000261162,-2.14329,-0.00105891,1.62327,0.785749,-1.57079,-0.519258,1.65666e-06,-2.14571,-7.79432e-07,1.6268,0.785401,-0.00446388,0.0179381,-0.00140297,-1.05064,0.00325475,1.06922,0.00299944,3.09019e-05,0.000460737,9.53996e-06,-1.11301,2.75689e-06,1.11586,3.49816e-05,-0.101307,-3.82175,-0.306028,11.9699,1.09621,1.01187,-0.362356,-0.532227,0.502877,-0.256991,1.84716,0.824111,0.474775,-0.207803
575053,1,-1.57046,-0.519781,0.000255411,-2.14437,-0.00105415,1.62439,0.785747,-1.57079,-0.51926,1.66628e-06,-2.14684,-7.76567e-07,1.62793,0.785401,-0.00297592,0.0159787,-0.00219682,-1.06034,0.00233426,1.07869,0.00105019,3.11994e-05,-0.00179241,9.61767e-06,-1.12505,2.86527e-06,1.12542,3.53251e-05,-0.101307,-3.9725,-0.254453,11.9699,1.09621,0.908412,-0.336721,-0.527384,0.456407,-0.250164,1.86127,0.820842,0.472699,-0.208895
575054,1,-1.57046,-0.519781,0.000251081,-2.14546,-0.00105059,1.62549,0.785743,-1.57079,-0.519264,1.67597e-06,-2.14797,-7.73593e-07,1.62906,0.785401,-0.000220707,0.0102632,-0.00271228,-1.07023,0.0012726,1.07488,-0.000757934,3.14969e-05,-0.00404557,9.69539e-06,-1.13709,2.97365e-06,1.13498,3.56686e-05,-0.176685,-4.07169,-0.202878,11.8985,1.10719,0.960597,-0.297354,-0.52049,0.420868,-0.240985,1.86492,0.817333,0.46932,-0.210264
575055,1,-1.57046,-0.519792,0.000252793,-2.14657,-0.00104204,1.6266,0.785739,-1.57079,-0.51927,1.68575e-06,-2.14912,-7.70511e-07,1.63021,0.785401,0.00105929,0.000711735,-0.00118956,-1.07741,0.0069137,1.07358,-0.00192944,3.17943e-05,-0.00629872,9.7731e-06,-1.14913,3.08204e-06,1.14454,3.60121e-05,-0.22826,-4.07169,-0.230649,11.847,1.07332,1.19223,-0.258901,-0.514415,0.409007,-0.233051,1.85302,0.813313,0.464373,-0.211893
575056,1,-1.57046,-0.5198,0.000254203,-2.14766,-0.00103664,1.6277,0.785744,-1.57079,-0.519279,1.6956e-06,-2.15028,-7.67321e-07,1.63136,0.785401,-0.000500234,-0.00238714,0.00039015,-1.08321,0.00527514,1.08078,0.000375217,3.20918e-05,-0.00855187,9.85082e-06,-1.16117,3.19042e-06,1.1541,3.63556e-05,-0.176685,-4.09946,-0.282224,11.6486,1.06783,1.39822,-0.303762,-0.511004,0.431742,-0.228962,1.82001,0.808568,0.457572,-0.213704
575057,1,-1.57046,-0.519811,0.000256807,-2.14878,-0.00102428,1.62885,0.78574,-1.57079,-0.519289,1.70552e-06,-2.15146,-7.64022e-07,1.63253,0.785401,0.000316125,-0.00476045,0.0013563,-1.0945,0.0100399,1.09912,1.27859e-05,3.23893e-05,-0.010805,9.92853e-06,-1.17321,3.2988e-06,1.16366,3.66991e-05,-0.204456,-4.12326,-0.329831,11.5732,1.02846,1.36618,-0.297354,-0.510361,0.485998,-0.22912,1.76618,0.803114,0.449089,-0.215613
575058,1,-1.57046,-0.519822,0.00025638,-2.14994,-0.00101465,1.63001,0.785735,-1.57079,-0.519303,1.71552e-06,-2.15264,-7.60616e-07,1.6337,0.785401,-0.000995676,-0.00587535,0.00154074,-1.11262,0.0132771,1.11565,-0.00216161,3.26623e-05,-0.0131922,9.99754e-06,-1.18453,3.40613e-06,1.17235,3.70161e-05,-0.152882,-4.17484,-0.357602,11.7716,0.994585,1.40463,-0.23876,-0.511753,0.556578,-0.23263,1.70028,0.797185,0.439917,-0.217581
575059,1,-1.57045,-0.519822,0.000251969,-2.15107,-0.00100753,1.63118,0.785738,-1.57079,-0.519318,1.72559e-06,-2.15384,-7.57102e-07,1.63488,0.785401,0.00230588,-0.00120036,-0.000189069,-1.11622,0.0093242,1.13157,-0.000695091,3.29353e-05,-0.0155794,1.00666e-05,-1.19585,3.51346e-06,1.18104,3.73331e-05,-0.279835,-4.32559,-0.306028,11.847,1.00557,1.32131,-0.258901,-0.514036,0.625924,-0.237688,1.63215,0.791022,0.431042,-0.219561
575060,1,-1.57046,-0.519824,0.000253194,-2.15226,-0.00100151,1.63236,0.785736,-1.57079,-0.519336,1.73572e-06,-2.15505,-7.53481e-07,1.63607,0.785401,0.000330827,-0.00035073,0.00107303,-1.1348,0.00582474,1.14551,-0.00120938,3.32083e-05,-0.0179665,1.01356e-05,-1.20717,3.62079e-06,1.18973,3.765e-05,-0.22826,-4.50412,-0.357602,12.1961,1.03395,1.22427,-0.23876,-0.516298,0.679787,-0.242708,1.56827,0.784782,0.422961,-0.221459
575061,1,-1.57046,-0.519827,0.000248776,-2.15345,-0.000999588,1.63354,0.785736,-1.57079,-0.519356,1.74593e-06,-2.15626,-7.49753e-07,1.63727,0.785401,0.000220551,0.000598041,-0.000496588,-1.15255,0.00186876,1.15667,-0.000806253,3.34813e-05,-0.0203537,1.02046e-05,-1.21848,3.72812e-06,1.19842,3.7967e-05,-0.22826,-4.70645,-0.306028,12.7436,1.1017,1.21786,-0.23876,-0.517446,0.707758,-0.246229,1.51701,0.778734,0.416396,-0.223203
575062,1,-1.57046,-0.519832,0.000246379,-2.15467,-0.000996353,1.63474,0.785741,-1.57079,-0.519379,1.7562e-06,-2.15749,-7.45918e-07,1.63847,0.785401,0.000147034,-0.00186987,-0.000335195,-1.16973,0.00424774,1.16346,0.00092056,3.37543e-05,-0.0227409,1.02736e-05,-1.2298,3.83545e-06,1.2071,3.8284e-05,-0.22826,-4.90482,-0.306028,13.2395,1.15846,1.23068,-0.278127,-0.516464,0.706613,-0.246904,1.48518,0.773141,0.411987,-0.224759
575063,1,-1.57045,-0.519848,0.000247251,-2.15591,-0.00098367,1.63593,0.785741,-1.57079,-0.519404,1.76654e-06,-2.15873,-7.41975e-07,1.63969,0.785401,0.00186126,-0.00679809,0.000330247,-1.19052,0.0102938,1.17113,0.000613707,3.40273e-05,-0.0251281,1.03426e-05,-1.24112,3.94278e-06,1.21579,3.8601e-05,-0.303639,-4.98416,-0.329831,13.8108,1.1017,1.46871,-0.278127,-0.514337,0.682461,-0.245976,1.47398,0.768073,0.409883,-0.226138
575064,1,-1.57045,-0.519865,0.000250604,-2.15716,-0.000979671,1.63712,0.785734,-1.57079,-0.519432,1.77696e-06,-2.15999,-7.37925e-07,1.64092,0.785402,0.00300408,-0.00973044,0.00142426,-1.21139,0.0119369,1.17436,-0.001761,3.43004e-05,-0.0275153,1.04116e-05,-1.25244,4.05011e-06,1.22448,3.8918e-05,-0.379017,-5.08334,-0.381406,14.3344,1.1136,1.62344,-0.219534,-0.513474,0.64258,-0.246669,1.48402,0.763521,0.410309,-0.227384
575065,1,-1.57045,-0.519883,0.000245226,-2.15841,-0.000977143,1.63834,0.785733,-1.57079,-0.519462,1.78744e-06,-2.16125,-7.33767e-07,1.64215,0.785402,0.00144591,-0.0118929,-0.000815473,-1.21937,0.00820046,1.1804,-0.00164872,3.45734e-05,-0.0299024,1.04806e-05,-1.26375,4.15744e-06,1.23317,3.9235e-05,-0.355213,-5.18649,-0.306028,14.632,1.13558,1.73971,-0.206716,-0.514041,0.592952,-0.249071,1.51291,0.759447,0.413245,-0.228518
575066,1,-1.57045,-0.519909,0.000246685,-2.15965,-0.000963542,1.63953,0.785739,-1.57079,-0.519494,1.79799e-06,-2.16253,-7.29503e-07,1.64339,0.785402,0.000314324,-0.0153515,0.000661469,-1.24901,0.00917536,1.20471,0.000833634,3.48464e-05,-0.0322896,1.05496e-05,-1.27507,4.26477e-06,1.24186,3.95519e-05,-0.327442,-5.2103,-0.357602,14.5804,1.05684,1.97134,-0.258901,-0.513966,0.537487,-0.250318,1.55743,0.755902,0.418456,-0.229517
575067,1,-1.57045,-0.519934,0.000249584,-2.16091,-0.000944284,1.64074,0.785735,-1.57079,-0.519529,1.80861e-06,-2.16381,-7.25131e-07,1.64464,0.785402,0.00197279,-0.0164672,0.00164642,-1.24497,0.016263,1.20302,0.000555756,3.51194e-05,-0.0346768,1.06186e-05,-1.28639,4.3721e-06,1.25054,3.98689e-05,-0.402821,-5.28568,-0.409177,14.3821,0.926836,2.19015,-0.258901,-0.513469,0.479771,-0.250816,1.61353,0.752768,0.425648,-0.230369
575068,1,-1.57044,-0.51996,0.000247395,-2.16218,-0.000932567,1.64199,0.785733,-1.57079,-0.519566,1.81928e-06,-2.16511,-7.20656e-07,1.6459,0.785402,0.00196481,-0.0205393,0.000447266,-1.24925,0.0186841,1.21161,-0.00108756,3.53653e-05,-0.0370744,1.06788e-05,-1.29675,4.47425e-06,1.2583,4.01554e-05,-0.430592,-5.36105,-0.381406,14.0845,0.86458,2.11965,-0.219534,-0.513952,0.432736,-0.252268,1.66646,0.749443,0.433717,-0.231124
575069,1,-1.57044,-0.519987,0.000249264,-2.16346,-0.000923922,1.64326,0.785737,-1.57079,-0.519605,1.83002e-06,-2.16642,-7.1608e-07,1.64717,0.785402,0.00186668,-0.0197339,0.000947239,-1.25744,0.01263,1.23032,0.000258306,3.56112e-05,-0.039472,1.07389e-05,-1.30711,4.5764e-06,1.26606,4.04419e-05,-0.454395,-5.4642,-0.409177,13.8861,0.887468,1.72689,-0.246084,-0.515009,0.405817,-0.253847,1.70383,0.745429,0.441715,-0.231825
575070,1,-1.57044,-0.52002,0.000252578,-2.16477,-0.000919354,1.64455,0.785735,-1.57079,-0.519647,1.84082e-06,-2.16773,-7.11401e-07,1.64844,0.785402,3.80289e-05,-0.027003,0.0017447,-1.26379,0.0110051,1.24405,-0.000336423,3.58571e-05,-0.0418696,1.07991e-05,-1.31747,4.67854e-06,1.27382,4.07284e-05,-0.402821,-5.48801,-0.456784,14.0607,0.966203,1.35336,-0.232351,-0.515875,0.399668,-0.254676,1.72306,0.740618,0.449196,-0.232468
575071,1,-1.57044,-0.520046,0.000252569,-2.16609,-0.00091723,1.64582,0.785733,-1.57079,-0.519691,1.85168e-06,-2.16906,-7.06621e-07,1.64972,0.785402,-0.000531459,-0.026563,0.00116282,-1.27726,0.00903842,1.25198,-0.00117372,3.6103e-05,-0.0442672,1.08592e-05,-1.32782,4.78069e-06,1.28158,4.10149e-05,-0.379017,-5.63876,-0.456784,14.1599,1.07332,1.24349,-0.206716,-0.515894,0.413248,-0.254191,1.72537,0.735095,0.455676,-0.233055
575072,1,-1.57044,-0.520071,0.000256186,-2.16741,-0.000918819,1.64707,0.785737,-1.57079,-0.519738,1.8626e-06,-2.1704,-7.01738e-07,1.65101,0.785402,0.00140893,-0.0268011,0.00198141,-1.29084,0.00399071,1.24895,0.000675584,3.6349e-05,-0.0466648,1.09194e-05,-1.33818,4.88284e-06,1.28934,4.13014e-05,-0.454395,-5.89267,-0.508359,14.3067,1.15846,1.33413,-0.246084,-0.515204,0.435189,-0.252678,1.72004,0.729186,0.461349,-0.233553
575073,1,-1.57043,-0.520097,0.000259804,-2.16875,-0.000916153,1.64832,0.78574,-1.57079,-0.519787,1.87358e-06,-2.17175,-6.96753e-07,1.65231,0.785402,0.00270252,-0.0273465,0.00252719,-1.30005,0.00244825,1.24752,0.00139982,3.65949e-05,-0.0490624,1.09795e-05,-1.34854,4.98499e-06,1.2971,4.1588e-05,-0.529774,-6.14658,-0.559934,14.2353,1.18685,1.50167,-0.271719,-0.515525,0.452569,-0.252398,1.71678,0.723251,0.466693,-0.233915
575074,1,-1.57043,-0.520127,0.000261474,-2.17008,-0.000912848,1.64959,0.785733,-1.57079,-0.519839,1.88462e-06,-2.17311,-6.91666e-07,1.65361,0.785402,0.00421454,-0.0287569,0.00224147,-1.31347,0.00165102,1.25958,-0.00147428,3.68408e-05,-0.05146,1.10397e-05,-1.3589,5.08714e-06,1.30486,4.18745e-05,-0.632923,-6.37271,-0.583737,14.1599,1.20333,1.51449,-0.206716,-0.518216,0.461321,-0.255035,1.71855,0.717561,0.471816,-0.234162
575075,1,-1.57043,-0.520175,0.000263604,-2.17142,-0.000897972,1.65088,0.785736,-1.57079,-0.519892,1.89572e-06,-2.17448,-6.86476e-07,1.65492,0.785402,0.00280969,-0.0347686,0.00149422,-1.31854,0.0048956,1.27083,0.000203941,3.70867e-05,-0.0538576,1.10998e-05,-1.36926,5.18929e-06,1.31262,4.2161e-05,-0.632923,-6.39651,-0.583737,14.0091,1.1136,1.48153,-0.23876,-0.522694,0.466145,-0.259605,1.72194,0.71229,0.476358,-0.234358
575076,1,-1.57043,-0.520224,0.000264315,-2.17279,-0.000876805,1.65219,0.785736,-1.57079,-0.519949,1.90688e-06,-2.17586,-6.81185e-07,1.65624,0.785402,0.00122351,-0.0395706,0.000996072,-1.32332,0.0101281,1.27287,0.0011193,3.73326e-05,-0.0562552,1.116e-05,-1.37962,5.29144e-06,1.32037,4.24475e-05,-0.605152,-6.39651,-0.583737,13.9099,0.937822,1.48794,-0.26531,-0.52694,0.479961,-0.26331,1.71759,0.707381,0.479515,-0.234545
575077,1,-1.57043,-0.520287,0.0002665,-2.17413,-0.000861772,1.65351,0.785739,-1.57079,-0.520007,1.9181e-06,-2.17725,-6.75791e-07,1.65757,0.785402,0.000815675,-0.049397,0.00131361,-1.3283,0.0107813,1.2883,0.00217036,3.75785e-05,-0.0586528,1.12202e-05,-1.38998,5.39358e-06,1.32813,4.2734e-05,-0.605152,-6.24576,-0.611508,13.6878,0.836199,1.2499,-0.303762,-0.529677,0.516789,-0.264521,1.69579,0.702532,0.480495,-0.234774
575078,1,-1.57043,-0.520337,0.00026296,-2.1755,-0.000848437,1.65485,0.785754,-1.57079,-0.520068,1.92937e-06,-2.17865,-6.70304e-07,1.65891,0.785402,-0.00056984,-0.0516203,-0.00033073,-1.33326,0.00928551,1.29328,0.00527856,3.77953e-05,-0.060955,1.12714e-05,-1.3992,5.4877e-06,1.33492,4.29873e-05,-0.557545,-6.29733,-0.559934,13.6362,0.784929,1.09518,-0.407217,-0.530467,0.583626,-0.26276,1.65172,0.697369,0.478799,-0.235117
575079,1,-1.57043,-0.52039,0.000264656,-2.17687,-0.000845806,1.65616,0.785768,-1.57079,-0.520132,1.94069e-06,-2.18005,-6.64722e-07,1.66025,0.785402,-0.00102951,-0.0534398,0.000336294,-1.34627,0.00895925,1.29869,0.0114609,3.8012e-05,-0.0632572,1.13226e-05,-1.40842,5.58182e-06,1.34172,4.32406e-05,-0.529774,-6.34891,-0.583737,13.6124,0.841692,1.07595,-0.497854,-0.528866,0.671872,-0.257523,1.59046,0.69168,0.474705,-0.235675
575080,1,-1.57043,-0.520429,0.000268745,-2.17826,-0.000843878,1.65751,0.785764,-1.57079,-0.520197,1.95207e-06,-2.18147,-6.59046e-07,1.6616,0.785402,-0.000686338,-0.0465656,0.000873787,-1.35834,0.00186676,1.31013,0.00537785,3.82287e-05,-0.0655594,1.13738e-05,-1.41765,5.67593e-06,1.34851,4.3494e-05,-0.529774,-6.59885,-0.611508,13.5886,0.966203,1.01187,-0.426443,-0.525737,0.758209,-0.250185,1.5265,0.68552,0.469302,-0.236593
575081,1,-1.57043,-0.520474,0.00026389,-2.17969,-0.000844846,1.65888,0.785755,-1.57079,-0.520265,1.96349e-06,-2.1829,-6.53276e-07,1.66295,0.785402,-0.00101437,-0.0465641,-0.00127353,-1.37544,0.00210392,1.32435,0.000277504,3.84455e-05,-0.0678616,1.1425e-05,-1.42687,5.77005e-06,1.3553,4.37473e-05,-0.50597,-6.80118,-0.532163,14.0329,1.07973,0.908412,-0.329397,-0.521837,0.818807,-0.241862,1.47458,0.679219,0.463694,-0.237985
575082,1,-1.57043,-0.520525,0.000260786,-2.18111,-0.000847738,1.66022,0.785756,-1.57079,-0.520335,1.97497e-06,-2.18433,-6.47412e-07,1.66432,0.785402,0.00108699,-0.0464702,-0.00196266,-1.38878,0.0033886,1.33134,0.000671191,3.86622e-05,-0.0701638,1.14762e-05,-1.43609,5.86417e-06,1.36209,4.40006e-05,-0.581349,-7.00351,-0.484555,14.509,1.16945,0.941371,-0.336721,-0.517075,0.844108,-0.232199,1.44223,0.673167,0.458457,-0.239829
