shamilmamedov/beam_handling/data/param_estimation_ICRA/ocp_Z_35cm_0.61s_5.csv
duration, success rate, q[0], q[1], q[2], q[3], q[4], q[5], q[6],q_d[0], q_d[1], q_d[2], q_d[3], q_d[4], q_d[5], q_d[6],dq[0], dq[1], dq[2], dq[3], dq[4], dq[5], dq[6],dq_d[0], dq_d[1], dq_d[2], dq_d[3], dq_d[4], dq_d[5], dq_d[6],tau_J[0], tau_J[1], tau_J[2], tau_J[3], tau_J[4], tau_J[5], tau_J[6],tau_ext_hat_filtered[0], tau_ext_hat_filtered[1], tau_ext_hat_filtered[2], tau_ext_hat_filtered[3], tau_ext_hat_filtered[4], tau_ext_hat_filtered[5], tau_ext_hat_filtered[6]
1887978,0,-1.57035,-0.52283,-0.00015387,-2.09714,-0.00150215,1.57129,0.785936,-1.5708,-0.523599,-4.89507e-08,-2.0944,-1.30477e-07,1.5708,0.785398,-0.000412972,0.00012661,-0.00039107,0.000700198,-0.000145811,-7.81492e-05,0.000925518,0,0,0,0,0,0,0,-0.478199,-10.213,-0.357602,22.3127,1.87074,1.33413,-0.394399,-0.496852,-1.07217,0.0898338,3.78818,1.15025,-0.335747,-0.371065
1887979,1,-1.57035,-0.522828,-0.00015025,-2.09714,-0.00149774,1.57129,0.785934,-1.5708,-0.523599,-4.89507e-08,-2.0944,-1.30477e-07,1.5708,0.785398,0.000931111,8.44069e-05,0.000945713,0.000466798,0.000309693,-0.000526817,-9.50649e-05,0,0,0,0,0,0,0,-0.529774,-10.213,-0.409177,22.3127,1.85976,1.34695,-0.375173,-0.496235,-1.07171,0.0904373,3.78757,1.15027,-0.335859,-0.370818
1887980,1,-1.57035,-0.522828,-0.000152199,-2.09714,-0.00149865,1.57129,0.785934,-1.5708,-0.523599,-4.89507e-08,-2.0944,-1.30477e-07,1.5708,0.785398,6.39286e-05,5.62712e-05,-1.91389e-05,-0.000802425,0.000613363,0.000123506,-6.33766e-05,0,0,0,0,0,0,0,-0.50597,-10.213,-0.381406,22.3603,1.84877,1.33413,-0.375173,-0.496637,-1.07136,0.0895807,3.78701,1.15025,-0.335961,-0.370643
1887981,1,-1.57035,-0.522831,-0.00015025,-2.09715,-0.00150119,1.57129,0.785935,-1.5708,-0.523599,-4.89507e-08,-2.0944,-1.30477e-07,1.5708,0.785398,4.2619e-05,-0.00107611,0.000636855,-0.00118456,-0.000201443,0.000319696,0.000432467,0,0,0,0,0,0,0,-0.50597,-10.1654,-0.409177,22.388,1.86525,1.32772,-0.387991,-0.49753,-1.07118,0.0880264,3.78713,1.15021,-0.335961,-0.370536
1887982,1,-1.57035,-0.522828,-0.000152199,-2.09714,-0.00149823,1.57129,0.785937,-1.5708,-0.523599,-4.89507e-08,-2.0944,-1.30477e-07,1.5708,0.785398,2.84127e-05,0.000396217,-0.000225044,0.000973529,-0.000134295,-2.4228e-05,0.00100039,0,0,0,0,0,0,0,-0.50597,-10.213,-0.381406,22.3127,1.86525,1.33413,-0.407217,-0.498283,-1.07044,0.0866803,3.78735,1.15018,-0.335931,-0.370491
1887983,1,-1.57036,-0.522828,-0.00015025,-2.09714,-0.00150044,1.57129,0.785936,-1.5708,-0.523599,-4.89507e-08,-2.0944,-1.30477e-07,1.5708,0.785398,-0.00118748,0.000264145,0.000499584,9.22071e-05,-8.95301e-05,-0.000253511,0.000192207,0,0,0,0,0,0,0,-0.454395,-10.213,-0.409177,22.3365,1.86525,1.34054,-0.394399,-0.498509,-1.06972,0.086075,3.78722,1.15014,-0.33596,-0.370518
1887984,1,-1.57035,-0.522832,-0.000152199,-2.09714,-0.00150118,1.57129,0.785937,-1.5708,-0.523599,-4.89507e-08,-2.0944,-1.30477e-07,1.5708,0.785398,0.000971582,-0.000380715,-0.000316558,0.0011751,-5.96867e-05,0.000305711,-0.000583939,0,0,0,0,0,0,0,-0.529774,-10.1892,-0.381406,22.2889,1.86525,1.32772,-0.375173,-0.49829,-1.06902,0.0860923,3.78662,1.1501,-0.336057,-0.370632
1887985,1,-1.57035,-0.522828,-0.000152199,-2.09714,-0.00150203,1.57129,0.785939,-1.5708,-0.523599,-4.89507e-08,-2.0944,-1.30477e-07,1.5708,0.785398,-0.000558704,0.000303002,-0.000211038,-0.000330227,-0.000243242,-0.000270911,0.00103486,0,0,0,0,0,0,0,-0.478199,-10.213,-0.381406,22.3365,1.87074,1.34054,-0.413626,-0.497966,-1.0679,0.0863475,3.78562,1.15006,-0.336191,-0.370823
1887986,1,-1.57035,-0.522826,-0.00015387,-2.09714,-0.00150151,1.57129,0.785937,-1.5708,-0.523599,-4.89507e-08,-2.0944,-1.30477e-07,1.5708,0.785398,0.000277144,0.000851615,-0.000697504,-0.000220151,4.12894e-05,5.67517e-05,0.00021519,0,0,0,0,0,0,0,-0.50597,-10.2408,-0.357602,22.3365,1.86525,1.33413,-0.400808,-0.497282,-1.06817,0.0872282,3.78548,1.15006,-0.336238,-0.371076
1887987,1,-1.57035,-0.52283,-0.000152199,-2.09714,-0.00150153,1.57129,0.785933,-1.5708,-0.523599,-4.89507e-08,-2.0944,-1.30477e-07,1.5708,0.785398,-0.000464851,-0.000638682,9.18091e-05,0.000410044,2.75263e-05,-0.000199524,-0.00104333,0,0,0,0,0,0,0,-0.478199,-10.1892,-0.381406,22.3127,1.86525,1.34054,-0.368765,-0.496295,-1.06965,0.0885986,3.78613,1.1501,-0.336197,-0.371395
1887988,1,-1.57035,-0.522826,-0.00015387,-2.09714,-0.00150154,1.57129,0.785935,-1.5708,-0.523599,-4.89507e-08,-2.0944,-1.30477e-07,1.5708,0.785398,0.000896525,0.000780638,-0.000495606,-0.000283449,1.83508e-05,0.000579061,1.65202e-05,0,0,0,0,0,0,0,-0.529774,-10.2408,-0.357602,22.3365,1.86525,1.32131,-0.387991,-0.495522,-1.0707,0.0897206,3.78661,1.15013,-0.336155,-0.371768
1887989,1,-1.57035,-0.522828,-0.000156,-2.09715,-0.00150032,1.57129,0.785932,-1.5708,-0.523599,-4.89507e-08,-2.0944,-1.30477e-07,1.5708,0.785398,-0.000608742,-0.000129189,-0.000330404,-0.00139539,0.000419135,-8.86775e-05,-0.00117578,0,0,0,0,0,0,0,-0.478199,-10.213,-0.357602,22.388,1.85426,1.33413,-0.355947,-0.494979,-1.07238,0.0906038,3.7877,1.15018,-0.336044,-0.37216
1887990,1,-1.57035,-0.522832,-0.00015096,-2.09715,-0.00150155,1.57129,0.785934,-1.5708,-0.523599,-4.89507e-08,-2.0944,-1.30477e-07,1.5708,0.785398,0.000243785,-0.000642938,0.000986157,-0.000930261,-0.000127478,-0.000296477,-7.17773e-05,0,0,0,0,0,0,0,-0.50597,-10.1892,-0.409177,22.388,1.86525,1.34054,-0.375173,-0.494739,-1.0744,0.0910423,3.78963,1.15023,-0.335831,-0.372537
1887991,1,-1.57035,-0.522831,-0.000154106,-2.09714,-0.00150155,1.57129,0.785935,-1.5708,-0.523599,-4.89507e-08,-2.0944,-1.30477e-07,1.5708,0.785398,-0.00048709,0.000128187,-0.000548988,0.00234949,-8.49852e-05,3.97074e-05,0.000426866,0,0,0,0,0,0,0,-0.478199,-10.213,-0.357602,22.2611,1.86525,1.33413,-0.387991,-0.49491,-1.07462,0.0908136,3.79059,1.15024,-0.335711,-0.372875
1887992,1,-1.57035,-0.52283,-0.000152278,-2.09714,-0.00149835,1.57129,0.785932,-1.5708,-0.523599,-4.89507e-08,-2.0944,-1.30477e-07,1.5708,0.785398,-0.000324727,-0.000471354,0.00019082,-0.000196911,-5.66568e-05,-0.000210887,-0.000902217,0,0,0,0,0,0,0,-0.478199,-10.1892,-0.381406,22.3365,1.86525,1.34054,-0.355947,-0.49489,-1.0727,0.0908422,3.78963,1.1502,-0.335801,-0.373173
1887993,1,-1.57035,-0.522826,-0.000153896,-2.09715,-0.00150109,1.57129,0.785931,-1.5708,-0.523599,-4.89507e-08,-2.0944,-1.30477e-07,1.5708,0.785398,0.000433129,0.00089219,-0.000429599,-0.0013377,-0.000241222,-0.00037795,-0.000601478,0,0,0,0,0,0,0,-0.50597,-10.2408,-0.357602,22.388,1.87074,1.34695,-0.355947,-0.494644,-1.07141,0.091218,3.78896,1.15017,-0.335862,-0.373431
1887994,1,-1.57035,-0.522828,-0.000152208,-2.09714,-0.00149739,1.57129,0.785931,-1.5708,-0.523599,-4.89507e-08,-2.0944,-1.30477e-07,1.5708,0.785398,-0.000917673,0.000594793,0.000270413,0.000314626,0.000246087,0.00046011,-0.000400985,0,0,0,0,0,0,0,-0.454395,-10.2408,-0.381406,22.3365,1.85976,1.32772,-0.355947,-0.4944,-1.07293,0.0915971,3.79014,1.15018,-0.335738,-0.373628
1887995,1,-1.57035,-0.522831,-0.000152202,-2.09714,-0.00150097,1.57129,0.78594,-1.5708,-0.523599,-4.89507e-08,-2.0944,-1.30477e-07,1.5708,0.785398,-5.49698e-05,-0.000253085,0.000180275,0.000209751,-0.000242843,0.000544099,0.00163155,0,0,0,0,0,0,0,-0.478199,-10.213,-0.381406,22.3365,1.87074,1.32131,-0.407217,-0.494102,-1.07518,0.0919673,3.79154,1.1502,-0.335605,-0.373752
1887996,1,-1.57035,-0.522829,-0.000150251,-2.09714,-0.00150054,1.57129,0.785932,-1.5708,-0.523599,-4.89507e-08,-2.0944,-1.30477e-07,1.5708,0.785398,0.00116978,-0.000168723,0.000769797,0.000696646,0.000245005,-0.000349344,-0.00104853,0,0,0,0,0,0,0,-0.529774,-10.213,-0.409177,22.3127,1.85976,1.34054,-0.349539,-0.494445,-1.0756,0.0913598,3.79173,1.15017,-0.335596,-0.373817
1887997,1,-1.57035,-0.522832,-0.000152199,-2.09714,-0.00149822,1.57129,0.785935,-1.5708,-0.523599,-4.89507e-08,-2.0944,-1.30477e-07,1.5708,0.785398,0.000779852,-0.000669294,-0.000136416,-0.000649193,-4.01135e-05,0.000241822,0.000487773,0,0,0,0,0,0,0,-0.529774,-10.1892,-0.381406,22.3603,1.86525,1.32772,-0.381582,-0.495839,-1.07429,0.08933,3.79107,1.15007,-0.33566,-0.373853
1887998,1,-1.57035,-0.522834,-0.000155819,-2.09714,-0.00149663,1.57129,0.785931,-1.5708,-0.523599,-4.89507e-08,-2.0944,-1.30477e-07,1.5708,0.785398,-3.69103e-05,-0.00100301,-0.00129737,0.00123764,0.000176708,-7.61445e-05,-0.000861612,0,0,0,0,0,0,0,-0.50597,-10.1654,-0.329831,22.2889,1.85976,1.33413,-0.349539,-0.497006,-1.0713,0.087802,3.78969,1.14997,-0.335776,-0.373872
1887999,1,-1.57035,-0.522829,-0.00015387,-2.09714,-0.00149631,1.57129,0.785932,-1.5708,-0.523599,-4.89507e-08,-2.0944,-1.30477e-07,1.5708,0.785398,-2.46069e-05,0.000444952,-0.000215299,-0.000845342,0.000117805,-0.000288122,-0.000337049,0,0,0,0,0,0,0,-0.50597,-10.213,-0.357602,22.3603,1.85976,1.34054,-0.355947,-0.496947,-1.06772,0.0882007,3.78799,1.14992,-0.335916,-0.373873
1888000,1,-1.57035,-0.52283,-0.00015387,-2.09714,-0.00149681,1.57129,0.785932,-1.5708,-0.523599,-4.89507e-08,-2.0944,-1.30477e-07,1.5708,0.785398,0.000540407,-0.000260177,-0.000143533,-0.000563562,-0.000124914,-0.000192081,-0.0002247,0,0,0,0,0,0,0,-0.529774,-10.1892,-0.357602,22.3603,1.86525,1.34054,-0.355947,-0.496483,-1.06607,0.0892767,3.78753,1.14992,-0.33594,-0.373835
1888001,1,-1.57035,-0.522828,-0.00015387,-2.09714,-0.00149677,1.57129,0.78593,-1.5708,-0.523599,-4.89507e-08,-2.0944,-1.30477e-07,1.5708,0.785398,-0.000846154,0.00038336,-9.56885e-05,0.000181104,-8.32757e-05,-0.000128054,-0.000624518,0,0,0,0,0,0,0,-0.478199,-10.213,-0.357602,22.3365,1.86525,1.34054,-0.34313,-0.496143,-1.06635,0.0902057,3.78829,1.14993,-0.335846,-0.373741
1888002,1,-1.57035,-0.522828,-0.000152199,-2.09714,-0.00150056,1.57129,0.785932,-1.5708,-0.523599,-4.89507e-08,-2.0944,-1.30477e-07,1.5708,0.785398,8.55108e-05,0.000255574,0.00049302,0.000677548,-0.000258968,0.000151989,0.000295732,0,0,0,0,0,0,0,-0.50597,-10.213,-0.381406,22.3127,1.87074,1.33413,-0.362356,-0.495827,-1.06727,0.091061,3.7891,1.14993,-0.335764,-0.373589
1888003,1,-1.57035,-0.522829,-0.000152199,-2.09714,-0.00150163,1.57129,0.785931,-1.5708,-0.523599,-4.89507e-08,-2.0944,-1.30477e-07,1.5708,0.785398,5.70072e-05,-0.00038643,0.00032868,-0.000105113,-0.000172645,0.000101326,-0.000277563,0,0,0,0,0,0,0,-0.50597,-10.1892,-0.381406,22.3365,1.87074,1.33413,-0.349539,-0.495947,-1.06795,0.0912462,3.78947,1.14991,-0.335731,-0.373378
1888004,1,-1.57035,-0.522829,-0.00015025,-2.09714,-0.00149756,1.57129,0.785931,-1.5708,-0.523599,-4.89507e-08,-2.0944,-1.30477e-07,1.5708,0.785398,3.80048e-05,-0.00025762,0.000868734,-7.00755e-05,0.000291804,0.00030491,5.23167e-05,0,0,0,0,0,0,0,-0.50597,-10.1892,-0.409177,22.3365,1.85976,1.32772,-0.355947,-0.496736,-1.0678,0.0904362,3.78949,1.14987,-0.335719,-0.373115
1888005,1,-1.57035,-0.52283,-0.00015025,-2.09715,-0.00150042,1.57129,0.785934,-1.5708,-0.523599,-4.89507e-08,-2.0944,-1.30477e-07,1.5708,0.785398,0.000582148,0.000385065,0.000579156,-0.00180995,-8.91432e-06,0.000203273,0.000746955,0,0,0,0,0,0,0,-0.529774,-10.213,-0.409177,22.4118,1.86525,1.32772,-0.375173,-0.498144,-1.06816,0.088695,3.79021,1.14982,-0.335629,-0.372809
1888006,1,-1.57035,-0.522832,-0.00015025,-2.09714,-0.00149798,1.57129,0.785929,-1.5708,-0.523599,-4.89507e-08,-2.0944,-1.30477e-07,1.5708,0.785398,-0.000168713,-0.000300102,0.000386104,0.000556601,-5.94288e-06,-0.000101843,-0.00119745,0,0,0,0,0,0,0,-0.50597,-10.1892,-0.409177,22.3365,1.86525,1.33413,-0.329397,-0.49982,-1.06965,0.0865555,3.79191,1.14979,-0.335451,-0.372477
1888007,1,-1.57035,-0.522831,-0.00015433,-2.09714,-0.00150036,1.57129,0.785934,-1.5708,-0.523599,-4.89507e-08,-2.0944,-1.30477e-07,1.5708,0.785398,-0.000112475,0.000356744,-0.000392211,0.000927879,-3.96192e-06,0.000169463,-5.23156e-05,0,0,0,0,0,0,0,-0.50597,-10.213,-0.381406,22.3127,1.86525,1.32772,-0.349539,-0.500934,-1.07056,0.0852292,3.79298,1.14977,-0.335366,-0.372136
1888008,1,-1.57035,-0.522829,-0.00015096,-2.09714,-0.00150054,1.57129,0.785933,-1.5708,-0.523599,-4.89507e-08,-2.0944,-1.30477e-07,1.5708,0.785398,-0.000724597,0.000237829,0.00038814,0.00182501,0.000200809,-0.000124383,0.000439841,0,0,0,0,0,0,0,-0.478199,-10.213,-0.409177,22.2611,1.85976,1.33413,-0.362356,-0.501115,-1.07017,0.0852235,3.79247,1.14976,-0.335477,-0.371776
1888009,1,-1.57035,-0.52283,-0.000154106,-2.09714,-0.0015008,1.57129,0.785933,-1.5708,-0.523599,-4.89507e-08,-2.0944,-1.30477e-07,1.5708,0.785398,0.000166549,0.000158553,-0.000947666,-0.00110337,0.000133873,-8.29223e-05,0.000293227,0,0,0,0,0,0,0,-0.50597,-10.213,-0.357602,22.3603,1.85976,1.33413,-0.362356,-0.500548,-1.06963,0.086253,3.79145,1.14976,-0.335655,-0.371393
1888010,1,-1.57035,-0.522825,-0.000153948,-2.09714,-0.0014977,1.57129,0.785934,-1.5708,-0.523599,-4.89507e-08,-2.0944,-1.30477e-07,1.5708,0.785398,-0.000538581,0.00131213,-0.000631777,-0.000178771,8.92486e-05,-0.00029264,0.000670203,0,0,0,0,0,0,0,-0.478199,-10.2646,-0.357602,22.3365,1.85976,1.34054,-0.375173,-0.499266,-1.07102,0.0883415,3.79182,1.14982,-0.335689,-0.371003
1888011,1,-1.57036,-0.52283,-0.000153896,-2.09714,-0.00149666,1.57129,0.78593,-1.5708,-0.523599,-4.89507e-08,-2.0944,-1.30477e-07,1.5708,0.785398,-0.000915866,-0.000888486,-0.000421185,-0.000119181,5.9499e-05,4.22653e-05,-0.000739993,0,0,0,0,0,0,0,-0.454395,-10.1892,-0.357602,22.3365,1.85976,1.33413,-0.34313,-0.497327,-1.07377,0.09135,3.79327,1.14992,-0.335599,-0.370631
1888012,1,-1.57035,-0.52283,-0.000152208,-2.09714,-0.00149951,1.57129,0.785936,-1.5708,-0.523599,-4.89507e-08,-2.0944,-1.30477e-07,1.5708,0.785398,0.000595848,-0.000592324,0.000276022,-7.94539e-05,3.9666e-05,2.81769e-05,0.00140554,0,0,0,0,0,0,0,-0.50597,-10.1892,-0.381406,22.3365,1.85976,1.33413,-0.394399,-0.495563,-1.07451,0.0939989,3.79391,1.14999,-0.335548,-0.370284
1888013,1,-1.57035,-0.52283,-0.000150253,-2.09714,-0.00150229,1.57129,0.785934,-1.5708,-0.523599,-4.89507e-08,-2.0944,-1.30477e-07,1.5708,0.785398,0.000954044,0.000161929,0.000833629,0.000503843,-0.000583908,1.87846e-05,0.000224952,0,0,0,0,0,0,0,-0.529774,-10.213,-0.409177,22.3127,1.87624,1.33413,-0.375173,-0.495274,-1.07317,0.09448,3.79355,1.14996,-0.335571,-0.369959
1888014,1,-1.57035,-0.522829,-0.000150251,-2.09714,-0.00150139,1.57129,0.785937,-1.5708,-0.523599,-4.89507e-08,-2.0944,-1.30477e-07,1.5708,0.785398,-0.000570396,0.000757567,0.000555752,-0.000220917,1.76293e-05,1.25231e-05,0.000149968,0,0,0,0,0,0,0,-0.478199,-10.2408,-0.409177,22.3365,1.86525,1.33413,-0.375173,-0.496389,-1.0724,0.0928765,3.7933,1.14985,-0.335598,-0.369676
1888015,1,-1.57035,-0.522833,-0.000152199,-2.09714,-0.00150088,1.57129,0.785938,-1.5708,-0.523599,-4.89507e-08,-2.0944,-1.30477e-07,1.5708,0.785398,0.000269349,-0.000701381,-0.000279112,-0.000147278,0.000215203,0.000245708,9.99786e-05,0,0,0,0,0,0,0,-0.50597,-10.1892,-0.381406,22.3365,1.85976,1.32772,-0.375173,-0.497569,-1.07265,0.091083,3.79352,1.14976,-0.335587,-0.369456
1888016,1,-1.57035,-0.522833,-0.00015387,-2.09714,-0.00150153,1.57129,0.785936,-1.5708,-0.523599,-4.89507e-08,-2.0944,-1.30477e-07,1.5708,0.785398,0.000736378,-0.000467588,-0.000742887,0.000458627,-5.99816e-05,0.000401164,0.000304011,0,0,0,0,0,0,0,-0.529774,-10.1892,-0.357602,22.3127,1.86525,1.32131,-0.381582,-0.498193,-1.07187,0.0901584,3.79325,1.1497,-0.335609,-0.369303
1888017,1,-1.57035,-0.522833,-0.00015387,-2.09714,-0.00150154,1.57129,0.785938,-1.5708,-0.523599,-4.89507e-08,-2.0944,-1.30477e-07,1.5708,0.785398,-6.58932e-05,-0.000311725,-0.000495258,-0.000807873,-3.99877e-05,-0.000681993,0.00115211,0,0,0,0,0,0,0,-0.50597,-10.1892,-0.357602,22.3603,1.86525,1.34695,-0.407217,-0.498282,-1.06997,0.0901847,3.79249,1.14966,-0.335671,-0.369214
1888018,1,-1.57035,-0.522833,-0.00015025,-2.09714,-0.00150154,1.57129,0.785935,-1.5708,-0.523599,-4.89507e-08,-2.0944,-1.30477e-07,1.5708,0.785398,-4.39288e-05,-0.000207817,0.000876254,1.82301e-05,-2.66585e-05,2.00558e-05,-0.000181362,0,0,0,0,0,0,0,-0.50597,-10.1892,-0.409177,22.3365,1.86525,1.33413,-0.381582,-0.49823,-1.06842,0.0904458,3.79213,1.14964,-0.33569,-0.369194
1888019,1,-1.57035,-0.522831,-0.00015387,-2.09714,-0.00150277,1.57129,0.785936,-1.5708,-0.523599,-4.89507e-08,-2.0944,-1.30477e-07,1.5708,0.785398,-0.000678899,0.000418267,-0.000622257,0.000568965,-0.000424673,0.000250729,0.00035381,0,0,0,0,0,0,0,-0.478199,-10.213,-0.357602,22.3127,1.87624,1.32772,-0.394399,-0.498212,-1.06758,0.0905669,3.79203,1.14963,-0.335698,-0.369253
1888020,1,-1.57035,-0.522829,-0.000152199,-2.09714,-0.00150277,1.57129,0.785934,-1.5708,-0.523599,-4.89507e-08,-2.0944,-1.30477e-07,1.5708,0.785398,0.000197014,0.000278845,0.000141974,0.000936122,-0.000283116,-0.000307565,-0.000476204,0,0,0,0,0,0,0,-0.50597,-10.213,-0.381406,22.2889,1.87624,1.34054,-0.375173,-0.497873,-1.06736,0.0911181,3.79171,1.14964,-0.33576,-0.369391
1888021,1,-1.57035,-0.52283,-0.00015025,-2.09714,-0.00150277,1.57129,0.785939,-1.5708,-0.523599,-4.89507e-08,-2.0944,-1.30477e-07,1.5708,0.785398,0.000131343,-0.000370915,0.000744263,-0.000489542,-0.000188744,3.23157e-05,0.000394608,0,0,0,0,0,0,0,-0.50597,-10.1892,-0.409177,22.3365,1.87624,1.33413,-0.394399,-0.497794,-1.06732,0.0912911,3.79122,1.14965,-0.335845,-0.369588
1888022,1,-1.57035,-0.522833,-0.00015387,-2.09714,-0.00150094,1.57129,0.785938,-1.5708,-0.523599,-4.89507e-08,-2.0944,-1.30477e-07,1.5708,0.785398,0.000644374,-0.000804089,-0.00071025,-0.000326362,0.000484522,2.15438e-05,0.00073779,0,0,0,0,0,0,0,-0.529774,-10.1654,-0.357602,22.3365,1.85976,1.33413,-0.407217,-0.498323,-1.06669,0.0906183,3.79081,1.14967,-0.335889,-0.36983
1888023,1,-1.57035,-0.522829,-0.00014858,-2.09714,-0.00149835,1.57129,0.785936,-1.5708,-0.523599,-4.89507e-08,-2.0944,-1.30477e-07,1.5708,0.785398,0.000429582,0.000577565,0.00128974,-0.000217574,0.000119564,-0.000222996,1.71419e-05,0,0,0,0,0,0,0,-0.529774,-10.213,-0.432981,22.3365,1.86525,1.34054,-0.394399,-0.499272,-1.06598,0.089428,3.79074,1.1497,-0.33587,-0.370118
1888024,1,-1.57035,-0.522828,-0.00015025,-2.09714,-0.00150109,1.57129,0.785936,-1.5708,-0.523599,-4.89507e-08,-2.0944,-1.30477e-07,1.5708,0.785398,-0.000270424,0.000385043,0.000303013,0.000411762,-0.000123741,0.000326054,1.14279e-05,0,0,0,0,0,0,0,-0.50597,-10.213,-0.409177,22.3127,1.87074,1.32772,-0.394399,-0.500698,-1.06652,0.0875253,3.79122,1.14973,-0.335808,-0.370459
1888025,1,-1.57035,-0.52283,-0.00015387,-2.09714,-0.00149997,1.57129,0.785935,-1.5708,-0.523599,-4.89507e-08,-2.0944,-1.30477e-07,1.5708,0.785398,-0.000829896,0.000256695,-0.00100442,-0.000282304,0.000527858,0.000217369,-0.00022974,0,0,0,0,0,0,0,-0.478199,-10.213,-0.357602,22.3365,1.85426,1.32772,-0.387991,-0.501458,-1.06814,0.0865213,3.79201,1.1498,-0.335736,-0.370855
1888026,1,-1.57035,-0.522829,-0.000152199,-2.09714,-0.00150143,1.57129,0.785933,-1.5708,-0.523599,-4.89507e-08,-2.0944,-1.30477e-07,1.5708,0.785398,9.63495e-05,0.00017113,-0.000112799,-0.000188202,-5.4996e-05,0.000144913,-0.000865237,0,0,0,0,0,0,0,-0.50597,-10.213,-0.381406,22.3365,1.86525,1.32772,-0.368765,-0.500853,-1.07011,0.0875046,3.79291,1.14993,-0.335658,-0.371297
1888027,1,-1.57035,-0.52283,-0.00014858,-2.09714,-0.00150151,1.57129,0.785936,-1.5708,-0.523599,-4.89507e-08,-2.0944,-1.30477e-07,1.5708,0.785398,6.4233e-05,-0.000442725,0.00113123,-0.00068228,-3.6664e-05,9.66085e-05,0.00060997,0,0,0,0,0,0,0,-0.50597,-10.1892,-0.432981,22.3603,1.86525,1.32772,-0.400808,-0.5003,-1.07174,0.0883874,3.79388,1.15006,-0.335572,-0.371751
1888028,1,-1.57035,-0.522831,-0.00015387,-2.09714,-0.00150031,1.57129,0.785929,-1.5708,-0.523599,-4.89507e-08,-2.0944,-1.30477e-07,1.5708,0.785398,4.2822e-05,-0.000851962,-0.00100909,0.00065877,0.000382458,6.44057e-05,-0.00196694,0,0,0,0,0,0,0,-0.50597,-10.1654,-0.357602,22.3127,1.85426,1.32772,-0.336721,-0.500359,-1.07162,0.0883355,3.79415,1.15012,-0.33555,-0.372194
1888029,1,-1.57035,-0.522831,-0.00015387,-2.09714,-0.00150154,1.57129,0.785932,-1.5708,-0.523599,-4.89507e-08,-2.0944,-1.30477e-07,1.5708,0.785398,-0.000621065,-0.000567975,-0.000672725,0.00164561,-0.000151929,4.29371e-05,-0.000599218,0,0,0,0,0,0,0,-0.478199,-10.1654,-0.357602,22.2611,1.86525,1.32772,-0.355947,-0.499849,-1.06867,0.0891579,3.79259,1.15016,-0.335711,-0.372614
1888030,1,-1.57035,-0.522824,-0.000152199,-2.09714,-0.00150032,1.57129,0.785931,-1.5708,-0.523599,-4.89507e-08,-2.0944,-1.30477e-07,1.5708,0.785398,0.00023557,0.0019414,0.000108329,0.000447457,0.000305615,-0.000208734,-0.000399479,0,0,0,0,0,0,0,-0.50597,-10.2646,-0.381406,22.2889,1.85426,1.33413,-0.355947,-0.498736,-1.06567,0.0908975,3.79027,1.15018,-0.33599,-0.372967
1888031,1,-1.57035,-0.522828,-0.00015387,-2.09714,-0.00149774,1.57129,0.785931,-1.5708,-0.523599,-4.89507e-08,-2.0944,-1.30477e-07,1.5708,0.785398,-0.000492567,8.78408e-05,-0.000484593,-0.000815319,2.92938e-07,-0.000139156,-0.000503678,0,0,0,0,0,0,0,-0.478199,-10.213,-0.357602,22.3365,1.85976,1.33413,-0.349539,-0.497779,-1.06629,0.0923937,3.78964,1.1502,-0.336145,-0.373214
1888032,1,-1.57035,-0.522828,-0.000152199,-2.09714,-0.00149667,1.57129,0.785933,-1.5708,-0.523599,-4.89507e-08,-2.0944,-1.30477e-07,1.5708,0.785398,0.000321235,5.85605e-05,0.00023375,-0.00110036,1.95292e-07,-0.000567489,-0.000573144,0,0,0,0,0,0,0,-0.50597,-10.213,-0.381406,22.3603,1.85976,1.34695,-0.34313,-0.497114,-1.06925,0.0934353,3.79089,1.15023,-0.336096,-0.373351
1888033,1,-1.57036,-0.522832,-0.00015433,-2.09714,-0.00150013,1.57129,0.78593,-1.5708,-0.523599,-4.89507e-08,-2.0944,-1.30477e-07,1.5708,0.785398,-0.000992268,-0.000517772,0.000155833,0.000380052,-0.00020332,0.000333751,-0.000890723,0,0,0,0,0,0,0,-0.454395,-10.1892,-0.381406,22.3127,1.86525,1.32772,-0.329397,-0.496776,-1.07157,0.0939145,3.79241,1.15023,-0.335973,-0.373379
1888034,1,-1.57035,-0.522832,-0.00015504,-2.09715,-0.00150046,1.57129,0.785932,-1.5708,-0.523599,-4.89507e-08,-2.0944,-1.30477e-07,1.5708,0.785398,0.00110172,-0.000345181,0.000103889,-0.000860256,6.79036e-05,0.000222501,0.000389529,0,0,0,0,0,0,0,-0.529774,-10.1892,-0.381406,22.3603,1.85976,1.32772,-0.355947,-0.496832,-1.0721,0.0937441,3.79314,1.15019,-0.335898,-0.373291
1888035,1,-1.57035,-0.522832,-0.000153146,-2.09715,-0.00149819,1.57129,0.785929,-1.5708,-0.523599,-4.89507e-08,-2.0944,-1.30477e-07,1.5708,0.785398,0.000177671,-0.000786933,6.92593e-05,-0.00122312,-0.000158181,0.000148334,-0.000452391,0,0,0,0,0,0,0,-0.50597,-10.1654,-0.381406,22.388,1.86525,1.32772,-0.336721,-0.497479,-1.07151,0.0927657,3.79361,1.15011,-0.335827,-0.373088
1888036,1,-1.57035,-0.522826,-0.000152515,-2.09714,-0.00149784,1.57129,0.785933,-1.5708,-0.523599,-4.89507e-08,-2.0944,-1.30477e-07,1.5708,0.785398,-0.000531166,0.00123862,4.61729e-05,0.00150464,-0.000308905,0.000336248,0.000885201,0,0,0,0,0,0,0,-0.478199,-10.2408,-0.381406,22.2889,1.87074,1.32131,-0.368765,-0.498255,-1.07105,0.0916267,3.79411,1.15002,-0.335774,-0.372788
1888037,1,-1.57035,-0.52283,-0.000152304,-2.09714,-0.0014995,1.57129,0.785933,-1.5708,-0.523599,-4.89507e-08,-2.0944,-1.30477e-07,1.5708,0.785398,-0.00035411,0.00017613,3.07819e-05,-0.000667344,0.000200965,-1.31935e-05,0.000590134,0,0,0,0,0,0,0,-0.478199,-10.213,-0.381406,22.3603,1.85976,1.32772,-0.368765,-0.498509,-1.07166,0.091167,3.79448,1.14995,-0.3358,-0.372421
1888038,1,-1.57035,-0.522829,-0.000152234,-2.09714,-0.00149909,1.57129,0.785931,-1.5708,-0.523599,-4.89507e-08,-2.0944,-1.30477e-07,1.5708,0.785398,-0.000236074,0.00011742,2.05213e-05,0.000668728,-0.000476375,-0.000246155,-0.000318654,0,0,0,0,0,0,0,-0.478199,-10.213,-0.381406,22.3127,1.87624,1.33413,-0.349539,-0.498367,-1.07281,0.0912003,3.79482,1.14989,-0.335868,-0.372023
1888039,1,-1.57035,-0.522828,-0.000152211,-2.09714,-0.00150032,1.57129,0.785932,-1.5708,-0.523599,-4.89507e-08,-2.0944,-1.30477e-07,1.5708,0.785398,-0.000157382,7.828e-05,1.36808e-05,-0.000110993,8.93176e-05,-0.000164103,2.49228e-05,0,0,0,0,0,0,0,-0.478199,-10.213,-0.381406,22.3365,1.86525,1.33413,-0.355947,-0.498092,-1.07338,0.0913683,3.79484,1.14985,-0.335971,-0.371623
1888040,1,-1.57035,-0.522832,-0.000153873,-2.09714,-0.00150114,1.57129,0.785935,-1.5708,-0.523599,-4.89507e-08,-2.0944,-1.30477e-07,1.5708,0.785398,0.000544692,-0.000504625,-0.000547691,0.000482816,5.9545e-05,0.000365316,0.00120341,0,0,0,0,0,0,0,-0.50597,-10.1892,-0.357602,22.3127,1.86525,1.32131,-0.387991,-0.497801,-1.07294,0.0915776,3.79431,1.14981,-0.336121,-0.371225
1888041,1,-1.57035,-0.522829,-0.000150252,-2.09714,-0.00149882,1.57129,0.785936,-1.5708,-0.523599,-4.89507e-08,-2.0944,-1.30477e-07,1.5708,0.785398,0.000363128,0.000220395,0.000841298,-0.000234934,-0.000163754,-0.000231174,0.00103963,0,0,0,0,0,0,0,-0.50597,-10.213,-0.409177,22.3365,1.87074,1.33413,-0.394399,-0.497876,-1.07167,0.0913177,3.79343,1.14977,-0.336296,-0.370844
1888042,1,-1.57036,-0.522826,-0.000155819,-2.09714,-0.00150044,1.57129,0.785933,-1.5708,-0.523599,-4.89507e-08,-2.0944,-1.30477e-07,1.5708,0.785398,-0.00096434,0.000796544,-0.00129517,0.00160661,9.42813e-05,8.32429e-05,-0.000256348,0,0,0,0,0,0,0,-0.454395,-10.2408,-0.329831,22.2611,1.86525,1.32772,-0.368765,-0.497932,-1.0708,0.0910856,3.79255,1.14973,-0.336484,-0.370516
1888043,1,-1.57036,-0.52283,-0.000152199,-2.09714,-0.00150057,1.57129,0.785934,-1.5708,-0.523599,-4.89507e-08,-2.0944,-1.30477e-07,1.5708,0.785398,-0.000642893,-0.000675397,0.000342976,-0.000692161,0.000266305,5.54953e-05,6.64605e-05,0,0,0,0,0,0,0,-0.454395,-10.1892,-0.381406,22.3365,1.85976,1.32772,-0.375173,-0.497041,-1.07036,0.0921491,3.7916,1.14975,-0.336686,-0.370274
1888044,1,-1.57035,-0.522826,-0.00015387,-2.09714,-0.00150142,1.57129,0.785938,-1.5708,-0.523599,-4.89507e-08,-2.0944,-1.30477e-07,1.5708,0.785398,0.00077783,0.000756162,-0.000328161,-0.00101825,-2.5914e-05,-0.000200362,0.00146846,0,0,0,0,0,0,0,-0.50597,-10.2408,-0.357602,22.3603,1.86525,1.33413,-0.413626,-0.495956,-1.07048,0.0934333,3.79135,1.14981,-0.336794,-0.370105
1888045,1,-1.57035,-0.522829,-0.00015025,-2.09714,-0.00150151,1.57129,0.785934,-1.5708,-0.523599,-4.89507e-08,-2.0944,-1.30477e-07,1.5708,0.785398,0.000518553,-0.000702318,0.000987652,0.000434789,-1.7276e-05,0.000103784,-0.000207821,0,0,0,0,0,0,0,-0.50597,-10.1892,-0.409177,22.3127,1.86525,1.32772,-0.381582,-0.495911,-1.07131,0.0932398,3.792,1.14983,-0.336794,-0.370005
1888046,1,-1.57035,-0.522829,-0.00015025,-2.09714,-0.00150092,1.57129,0.785936,-1.5708,-0.523599,-4.89507e-08,-2.0944,-1.30477e-07,1.5708,0.785398,0.000345702,-0.000468212,0.000658435,-0.000266953,0.000191933,6.91895e-05,0.000336171,0,0,0,0,0,0,0,-0.50597,-10.1892,-0.409177,22.3365,1.85976,1.32772,-0.394399,-0.497063,-1.07092,0.091308,3.79209,1.14979,-0.336836,-0.369991
1888047,1,-1.57035,-0.522828,-0.000152199,-2.09715,-0.00150154,1.57129,0.785934,-1.5708,-0.523599,-4.89507e-08,-2.0944,-1.30477e-07,1.5708,0.785398,-0.000419145,0.000244671,-0.000210658,-0.00138439,-7.54951e-05,-0.000191233,-0.000487963,0,0,0,0,0,0,0,-0.478199,-10.213,-0.381406,22.388,1.86525,1.33413,-0.375173,-0.498434,-1.07002,0.0889977,3.79212,1.14974,-0.336871,-0.370066
1888048,1,-1.57035,-0.52283,-0.00015387,-2.09714,-0.00150154,1.57129,0.785939,-1.5708,-0.523599,-4.89507e-08,-2.0944,-1.30477e-07,1.5708,0.785398,0.000370183,0.000163114,-0.00069725,0.00139712,-5.033e-05,-0.000127488,0.000386768,0,0,0,0,0,0,0,-0.50597,-10.213,-0.357602,22.2889,1.86525,1.33413,-0.394399,-0.498895,-1.07017,0.0880358,3.79271,1.14973,-0.336858,-0.370217
1888049,1,-1.57035,-0.522828,-0.000152199,-2.09714,-0.00150216,1.57129,0.785935,-1.5708,-0.523599,-4.89507e-08,-2.0944,-1.30477e-07,1.5708,0.785398,-0.000959636,0.000108742,9.19784e-05,0.000374602,-0.000237004,0.000152367,-0.000216872,0,0,0,0,0,0,0,-0.454395,-10.213,-0.381406,22.3127,1.87074,1.32772,-0.381582,-0.498386,-1.07017,0.0885282,3.79261,1.14975,-0.336937,-0.370426
1888050,1,-1.57035,-0.522833,-0.00015025,-2.09714,-0.00150216,1.57129,0.785936,-1.5708,-0.523599,-4.89507e-08,-2.0944,-1.30477e-07,1.5708,0.785398,-8.29457e-05,-0.00104113,0.000710933,-0.000307078,-0.000158003,-0.000135781,0.000330136,0,0,0,0,0,0,0,-0.478199,-10.1654,-0.409177,22.3365,1.87074,1.33413,-0.394399,-0.497613,-1.06906,0.0893017,3.79167,1.14976,-0.337096,-0.370681
1888051,1,-1.57035,-0.522829,-0.00015025,-2.09715,-0.00149774,1.57129,0.785937,-1.5708,-0.523599,-4.89507e-08,-2.0944,-1.30477e-07,1.5708,0.785398,0.000594316,0.000419538,0.000473955,-0.00076153,0.000301566,-9.05208e-05,0.000694809,0,0,0,0,0,0,0,-0.50597,-10.213,-0.409177,22.3603,1.85976,1.33413,-0.407217,-0.497472,-1.06763,0.0890352,3.79098,1.14976,-0.337202,-0.370966
1888052,1,-1.57035,-0.522828,-0.00015387,-2.09714,-0.00150109,1.57129,0.785934,-1.5708,-0.523599,-4.89507e-08,-2.0944,-1.30477e-07,1.5708,0.785398,0.000396211,0.000279692,-0.000890456,0.000605937,-0.000205857,-0.000535065,-0.000723589,0,0,0,0,0,0,0,-0.50597,-10.213,-0.357602,22.3127,1.87074,1.34695,-0.375173,-0.497786,-1.06742,0.0881769,3.7911,1.14976,-0.337221,-0.371286
1888053,1,-1.57036,-0.52283,-0.00015025,-2.09715,-0.00149861,1.57129,0.785936,-1.5708,-0.523599,-4.89507e-08,-2.0944,-1.30477e-07,1.5708,0.785398,-0.000942285,-0.000370351,0.000612789,-0.000709666,-0.000137238,0.000118008,0.000467043,0,0,0,0,0,0,0,-0.454395,-10.1892,-0.409177,22.3603,1.87074,1.33413,-0.400808,-0.49767,-1.068,0.0879995,3.79154,1.14979,-0.337204,-0.371648
1888054,1,-1.57035,-0.522832,-0.000155818,-2.09714,-0.00149717,1.57129,0.785938,-1.5708,-0.523599,-4.89507e-08,-2.0944,-1.30477e-07,1.5708,0.785398,0.00113505,-0.0002469,-0.00144751,0.000640513,0.000111958,-0.000158687,-0.000163356,0,0,0,0,0,0,0,-0.529774,-10.1892,-0.329831,22.3127,1.86525,1.34054,-0.387991,-0.497022,-1.06796,0.0886072,3.79165,1.14984,-0.337191,-0.37204
1888055,1,-1.57035,-0.522832,-0.00015387,-2.09714,-0.00150009,1.57129,0.785935,-1.5708,-0.523599,-4.89507e-08,-2.0944,-1.30477e-07,1.5708,0.785398,-0.000449727,-0.0001646,-0.000315395,0.000983821,7.4639e-05,0.000131568,-0.000346263,0,0,0,0,0,0,0,-0.478199,-10.1892,-0.357602,22.2889,1.86525,1.33413,-0.381582,-0.49599,-1.06677,0.0899355,3.79089,1.1499,-0.337243,-0.372457
1888056,1,-1.57035,-0.522829,-0.000155818,-2.09715,-0.00150045,1.57129,0.785935,-1.5708,-0.523599,-4.89507e-08,-2.0944,-1.30477e-07,1.5708,0.785398,-0.000299818,0.000447078,-0.000859878,-0.00166417,0.00025321,0.000325071,-0.000230842,0,0,0,0,0,0,0,-0.478199,-10.213,-0.329831,22.388,1.85976,1.32772,-0.381582,-0.494512,-1.06588,0.0920216,3.79015,1.14999,-0.337283,-0.372888
1888057,1,-1.57035,-0.522828,-0.00015025,-2.09714,-0.00150077,1.57129,0.785931,-1.5708,-0.523599,-4.89507e-08,-2.0944,-1.30477e-07,1.5708,0.785398,-0.000199879,0.000298052,0.00128279,0.000653792,0.000168807,0.000216714,-0.00134069,0,0,0,0,0,0,0,-0.478199,-10.213,-0.409177,22.3127,1.85976,1.32772,-0.349539,-0.493224,-1.0669,0.0937747,3.79071,1.1501,-0.337195,-0.373307
1888058,1,-1.57035,-0.522828,-0.000152199,-2.09714,-0.00149952,1.57129,0.785938,-1.5708,-0.523599,-4.89507e-08,-2.0944,-1.30477e-07,1.5708,0.785398,0.000516361,0.000198702,0.000205578,-0.000120951,-0.000497814,0.000144476,0.000530361,0,0,0,0,0,0,0,-0.50597,-10.213,-0.381406,22.3365,1.87624,1.32772,-0.387991,-0.493085,-1.06864,0.0937743,3.79164,1.15015,-0.337089,-0.373684
1888059,1,-1.57035,-0.522832,-0.00015025,-2.09714,-0.00150107,1.57129,0.785934,-1.5708,-0.523599,-4.89507e-08,-2.0944,-1.30477e-07,1.5708,0.785398,-0.000305373,-0.000424344,0.000786666,0.000476178,-0.000128425,-0.000378401,-0.000358503,0,0,0,0,0,0,0,-0.478199,-10.1892,-0.409177,22.3127,1.87074,1.34054,-0.368765,-0.493886,-1.06951,0.0923623,3.792,1.15014,-0.337051,-0.374
1888060,1,-1.57035,-0.522832,-0.00015025,-2.09714,-0.00149677,1.57129,0.785934,-1.5708,-0.523599,-4.89507e-08,-2.0944,-1.30477e-07,1.5708,0.785398,0.000446031,-0.000839708,0.000524444,0.000874264,0.000524735,0.000222451,-0.00118844,0,0,0,0,0,0,0,-0.50597,-10.1654,-0.409177,22.2889,1.85426,1.32772,-0.34313,-0.495071,-1.06826,0.0903528,3.79119,1.15009,-0.337117,-0.374261
1888061,1,-1.57035,-0.522826,-0.00015025,-2.09714,-0.00149975,1.57129,0.785935,-1.5708,-0.523599,-4.89507e-08,-2.0944,-1.30477e-07,1.5708,0.785398,0.000297354,0.00120343,0.000349629,2.60307e-05,0.000146373,-0.000326417,0.000394503,0,0,0,0,0,0,0,-0.50597,-10.2408,-0.409177,22.3127,1.85976,1.34054,-0.375173,-0.496478,-1.06618,0.0880194,3.78975,1.15002,-0.33724,-0.374462
1888062,1,-1.57035,-0.522832,-0.00015387,-2.09714,-0.00150054,1.57129,0.785932,-1.5708,-0.523599,-4.89507e-08,-2.0944,-1.30477e-07,1.5708,0.785398,-0.000451377,-0.000404138,-0.00097334,1.73538e-05,9.75817e-05,0.000494465,-0.000449075,0,0,0,0,0,0,0,-0.478199,-10.1892,-0.357602,22.3127,1.85976,1.32131,-0.355947,-0.49729,-1.06575,0.0866061,3.78911,1.14997,-0.337294,-0.374588
1888063,1,-1.57035,-0.52283,-0.00014858,-2.09714,-0.00150141,1.57129,0.785936,-1.5708,-0.523599,-4.89507e-08,-2.0944,-1.30477e-07,1.5708,0.785398,0.000905507,-0.000269425,0.00111434,-0.00110205,-0.000138396,-0.000382433,0.00112477,0,0,0,0,0,0,0,-0.529774,-10.1892,-0.432981,22.3603,1.86525,1.34054,-0.394399,-0.497446,-1.06614,0.0861824,3.78924,1.14997,-0.337258,-0.374647
1888064,1,-1.57035,-0.522826,-0.00015025,-2.09714,-0.0015015,1.57129,0.785929,-1.5708,-0.523599,-4.89507e-08,-2.0944,-1.30477e-07,1.5708,0.785398,-0.000602754,0.00102681,0.000186085,0.000378921,-9.2264e-05,-1.75966e-05,-0.00165765,0,0,0,0,0,0,0,-0.478199,-10.2408,-0.409177,22.3127,1.86525,1.33413,-0.329397,-0.49787,-1.06715,0.0853335,3.79005,1.14996,-0.337145,-0.374652
1888065,1,-1.57036,-0.522826,-0.00015387,-2.09714,-0.00150092,1.57129,0.785934,-1.5708,-0.523599,-4.89507e-08,-2.0944,-1.30477e-07,1.5708,0.785398,-0.000958648,0.00124135,-0.00108237,0.000252614,0.000141941,0.000225628,-0.000359115,0,0,0,0,0,0,0,-0.454395,-10.2646,-0.357602,22.3127,1.85976,1.32772,-0.349539,-0.497652,-1.07012,0.0853345,3.79156,1.14998,-0.336995,-0.374617
1888066,1,-1.57035,-0.522832,-0.000155818,-2.09714,-0.00150093,1.57129,0.78593,-1.5708,-0.523599,-4.89507e-08,-2.0944,-1.30477e-07,1.5708,0.785398,-8.22866e-05,-0.00149248,-0.00137119,0.000168409,9.46274e-05,-8.69404e-05,-0.000714128,0,0,0,0,0,0,0,-0.478199,-10.1654,-0.329831,22.3127,1.85976,1.33413,-0.336721,-0.49573,-1.0729,0.0878253,3.79259,1.15006,-0.3369,-0.374534
1888067,1,-1.57035,-0.522828,-0.00015387,-2.09714,-0.00150154,1.57129,0.785929,-1.5708,-0.523599,-4.89507e-08,-2.0944,-1.30477e-07,1.5708,0.785398,0.00115157,0.000118636,-0.000264515,0.000112273,-0.000140366,0.000179399,-0.000747353,0,0,0,0,0,0,0,-0.529774,-10.213,-0.357602,22.3127,1.86525,1.32772,-0.329397,-0.493386,-1.07279,0.0911002,3.79219,1.15013,-0.336908,-0.374376
1888068,1,-1.57035,-0.52283,-0.000152381,-2.09714,-0.00150155,1.57129,0.785931,-1.5708,-0.523599,-4.89507e-08,-2.0944,-1.30477e-07,1.5708,0.785398,0.000767712,7.90905e-05,0.00103008,7.48485e-05,-9.3577e-05,-0.000355119,0.00024775,0,0,0,0,0,0,0,-0.529774,-10.213,-0.409177,22.3127,1.86525,1.34054,-0.349539,-0.492536,-1.07146,0.0923699,3.79128,1.15011,-0.336954,-0.374116
1888069,1,-1.57035,-0.522831,-0.00015096,-2.09714,-0.00150155,1.57129,0.785933,-1.5708,-0.523599,-4.89507e-08,-2.0944,-1.30477e-07,1.5708,0.785398,-4.50042e-05,5.2727e-05,0.000686722,4.9899e-05,-6.23847e-05,0.000237972,0.000877244,0,0,0,0,0,0,0,-0.50597,-10.213,-0.409177,22.3127,1.86525,1.32772,-0.368765,-0.493448,-1.0707,0.0910828,3.79067,1.15001,-0.336981,-0.373749
1888070,1,-1.57035,-0.522825,-0.000150487,-2.09714,-0.00150155,1.57129,0.785937,-1.5708,-0.523599,-4.89507e-08,-2.0944,-1.30477e-07,1.5708,0.785398,-0.000679616,0.00124158,0.000457814,3.3266e-05,-4.15898e-05,-0.00031607,0.000822188,0,0,0,0,0,0,0,-0.478199,-10.2646,-0.409177,22.3127,1.86525,1.34054,-0.375173,-0.494798,-1.07118,0.0890365,3.79062,1.14991,-0.336967,-0.37331
1888071,1,-1.57035,-0.522828,-0.000152278,-2.09714,-0.00150277,1.57129,0.785933,-1.5708,-0.523599,-4.89507e-08,-2.0944,-1.30477e-07,1.5708,0.785398,-0.000453077,-0.000378708,-0.000344404,-0.000534635,-0.000434628,0.000501364,-0.000163952,0,0,0,0,0,0,0,-0.478199,-10.213,-0.381406,22.3365,1.87624,1.32131,-0.355947,-0.495427,-1.07311,0.0879212,3.79129,1.14986,-0.336894,-0.372855
1888072,1,-1.57035,-0.522828,-0.000153896,-2.09715,-0.00149896,1.57129,0.785934,-1.5708,-0.523599,-4.89507e-08,-2.0944,-1.30477e-07,1.5708,0.785398,0.000904374,0.000397142,-0.000786415,-0.00156285,-8.63012e-05,-0.000377834,0.000602776,0,0,0,0,0,0,0,-0.529774,-10.2408,-0.357602,22.388,1.87074,1.34054,-0.375173,-0.495244,-1.07551,0.0880422,3.79259,1.14988,-0.336741,-0.37242
1888073,1,-1.57035,-0.522829,-0.00015239,-2.09714,-0.00149729,1.57129,0.785936,-1.5708,-0.523599,-4.89507e-08,-2.0944,-1.30477e-07,1.5708,0.785398,0.00125253,0.000264761,0.000682149,0.000721339,0.000145916,0.000222828,0.00111393,0,0,0,0,0,0,0,-0.557545,-10.2408,-0.409177,22.3127,1.86525,1.32772,-0.394399,-0.495328,-1.07797,0.0880092,3.79422,1.14992,-0.336547,-0.372012
1888074,1,-1.57035,-0.522827,-0.000152912,-2.09714,-0.00150013,1.57129,0.785932,-1.5708,-0.523599,-4.89507e-08,-2.0944,-1.30477e-07,1.5708,0.785398,-0.000371406,0.000176508,-0.000194848,-0.000632732,9.72776e-05,-0.000326166,-0.000681535,0,0,0,0,0,0,0,-0.50597,-10.2408,-0.381406,22.3603,1.86525,1.34054,-0.355947,-0.496154,-1.07992,0.087062,3.79538,1.14992,-0.336414,-0.371652
1888075,1,-1.57035,-0.522828,-0.000150488,-2.09715,-0.00149981,1.57129,0.785933,-1.5708,-0.523599,-4.89507e-08,-2.0944,-1.30477e-07,1.5708,0.785398,-0.000897217,0.000117672,0.000519715,-0.00107143,-0.000579408,-0.000217444,2.03609e-05,0,0,0,0,0,0,0,-0.478199,-10.2408,-0.409177,22.388,1.88265,1.34054,-0.368765,-0.496726,-1.08153,0.0864271,3.79639,1.14996,-0.336294,-0.37136
1888076,1,-1.57035,-0.522829,-0.000152278,-2.09714,-0.00150093,1.57129,0.785935,-1.5708,-0.523599,-4.89507e-08,-2.0944,-1.30477e-07,1.5708,0.785398,5.14684e-05,-0.000571166,-0.000303137,0.00104895,5.45373e-05,9.23964e-05,0.000725651,0,0,0,0,0,0,0,-0.50597,-10.213,-0.381406,22.3127,1.87074,1.33413,-0.387991,-0.496663,-1.08224,0.0865944,3.79705,1.15004,-0.336197,-0.371126
1888077,1,-1.57035,-0.522828,-0.000152226,-2.09714,-0.00150114,1.57129,0.785936,-1.5708,-0.523599,-4.89507e-08,-2.0944,-1.30477e-07,1.5708,0.785398,3.43122e-05,-0.000380777,-0.000202091,0.000142487,0.000239809,0.000298957,0.000958485,0,0,0,0,0,0,0,-0.50597,-10.213,-0.381406,22.3365,1.86525,1.32772,-0.400808,-0.496343,-1.08055,0.0871625,3.79609,1.15011,-0.336253,-0.370945
1888078,1,-1.57035,-0.52283,-0.000152208,-2.09714,-0.00149821,1.57129,0.785934,-1.5708,-0.523599,-4.89507e-08,-2.0944,-1.30477e-07,1.5708,0.785398,-0.000626738,-0.000810664,-0.000134728,9.49911e-05,0.000159872,-3.80546e-05,-7.30868e-05,0,0,0,0,0,0,0,-0.478199,-10.1892,-0.381406,22.3365,1.86525,1.33413,-0.381582,-0.495827,-1.07702,0.0880629,3.79398,1.15019,-0.336417,-0.370834
1888079,1,-1.57035,-0.52283,-0.000153872,-2.09714,-0.00149724,1.57129,0.785934,-1.5708,-0.523599,-4.89507e-08,-2.0944,-1.30477e-07,1.5708,0.785398,0.000231788,1.63696e-05,-0.00064663,6.33274e-05,0.000106582,0.000211989,-0.000286083,0,0,0,0,0,0,0,-0.50597,-10.213,-0.357602,22.3365,1.86525,1.32772,-0.375173,-0.495061,-1.07319,0.0893357,3.79179,1.15028,-0.336587,-0.370807
1888080,1,-1.57035,-0.522834,-0.0001522,-2.09715,-0.00149753,1.57129,0.785937,-1.5708,-0.523599,-4.89507e-08,-2.0944,-1.30477e-07,1.5708,0.785398,-0.000495088,-0.00110271,0.000125725,-0.00116421,-0.000132396,0.000141326,0.000996072,0,0,0,0,0,0,0,-0.478199,-10.1654,-0.381406,22.388,1.87074,1.32772,-0.407217,-0.49423,-1.06996,0.090724,3.7902,1.15039,-0.336702,-0.37085
1888081,1,-1.57035,-0.522831,-0.000152199,-2.09715,-0.00149878,1.57129,0.785934,-1.5708,-0.523599,-4.89507e-08,-2.0944,-1.30477e-07,1.5708,0.785398,0.000319554,0.000378483,8.38167e-05,-0.000126524,0.000522088,9.42174e-05,-0.000285387,0,0,0,0,0,0,0,-0.50597,-10.213,-0.381406,22.3603,1.85426,1.32772,-0.381582,-0.493746,-1.06778,0.0915821,3.7896,1.1505,-0.33673,-0.370952
1888082,1,-1.57035,-0.522831,-0.00015025,-2.09714,-0.00150042,1.57129,0.785936,-1.5708,-0.523599,-4.89507e-08,-2.0944,-1.30477e-07,1.5708,0.785398,0.000213036,0.000252322,0.000705492,0.00102927,0.000144608,6.28116e-05,0.00028446,0,0,0,0,0,0,0,-0.50597,-10.213,-0.409177,22.3127,1.85976,1.32772,-0.394399,-0.49403,-1.06695,0.0913004,3.78955,1.15056,-0.336753,-0.37111
1888083,1,-1.57035,-0.522831,-0.00015387,-2.09714,-0.00149818,1.57129,0.785935,-1.5708,-0.523599,-4.89507e-08,-2.0944,-1.30477e-07,1.5708,0.785398,0.000698836,0.000168215,-0.000736098,0.000129371,-0.000107045,-0.000195485,-0.00123451,0,0,0,0,0,0,0,-0.529774,-10.213,-0.357602,22.3365,1.86525,1.33413,-0.355947,-0.494897,-1.06698,0.0902296,3.78941,1.15056,-0.336839,-0.371321
1888084,1,-1.57035,-0.522829,-0.000155818,-2.09714,-0.00150103,1.57129,0.785936,-1.5708,-0.523599,-4.89507e-08,-2.0944,-1.30477e-07,1.5708,0.785398,-0.000740534,0.000112143,-0.00114035,-0.000470565,-0.000274814,-0.000130323,0.000363785,0,0,0,0,0,0,0,-0.478199,-10.213,-0.329831,22.3603,1.87074,1.33413,-0.387991,-0.495169,-1.0677,0.0901514,3.78956,1.15058,-0.336917,-0.371568
1888085,1,-1.57035,-0.522832,-0.000152381,-2.09714,-0.00150178,1.57129,0.785937,-1.5708,-0.523599,-4.89507e-08,-2.0944,-1.30477e-07,1.5708,0.785398,0.000155924,-0.00048205,0.00109581,0.000799914,-0.000183209,0.000150477,0.000717241,0,0,0,0,0,0,0,-0.50597,-10.1892,-0.409177,22.3127,1.87074,1.32772,-0.400808,-0.494768,-1.06843,0.0910742,3.7899,1.15062,-0.336973,-0.371823
1888086,1,-1.57035,-0.522829,-0.00015458,-2.09714,-0.00150203,1.57129,0.785934,-1.5708,-0.523599,-4.89507e-08,-2.0944,-1.30477e-07,1.5708,0.785398,-0.00110248,0.000235445,-0.000475886,0.000533276,-0.00012214,-0.000137041,-0.000471275,0,0,0,0,0,0,0,-0.454395,-10.213,-0.357602,22.3127,1.87074,1.33413,-0.375173,-0.494518,-1.06816,0.0916505,3.7896,1.15064,-0.33709,-0.372083
1888087,1,-1.57035,-0.522828,-0.000152436,-2.09714,-0.0014977,1.57129,0.785938,-1.5708,-0.523599,-4.89507e-08,-2.0944,-1.30477e-07,1.5708,0.785398,0.000471441,0.000156964,0.000239554,-0.000758107,0.000325475,-0.00032872,0.00110997,0,0,0,0,0,0,0,-0.50597,-10.213,-0.381406,22.3603,1.85976,1.34054,-0.413626,-0.494295,-1.06811,0.0920964,3.78941,1.15066,-0.337192,-0.372358
1888088,1,-1.57035,-0.522826,-0.000152278,-2.09714,-0.00150108,1.57129,0.785934,-1.5708,-0.523599,-4.89507e-08,-2.0944,-1.30477e-07,1.5708,0.785398,-0.000335319,0.000754256,0.000159703,-0.000505404,-0.000189918,1.82125e-05,-0.000684173,0,0,0,0,0,0,0,-0.478199,-10.2408,-0.381406,22.3603,1.87074,1.33413,-0.375173,-0.494269,-1.0699,0.0922372,3.79054,1.15071,-0.337153,-0.372652
1888089,1,-1.57035,-0.522833,-0.000152225,-2.09714,-0.00149738,1.57129,0.785935,-1.5708,-0.523599,-4.89507e-08,-2.0944,-1.30477e-07,1.5708,0.785398,-0.000780358,-0.00191001,0.000106469,0.0013335,0.000280289,-0.000225217,1.86023e-05,0,0,0,0,0,0,0,-0.454395,-10.1377,-0.381406,22.2889,1.85976,1.34054,-0.387991,-0.494375,-1.07108,0.0921024,3.79149,1.15075,-0.337104,-0.372974
1888090,1,-1.57035,-0.522826,-0.000153878,-2.09714,-0.00149717,1.57129,0.785935,-1.57079,-0.523597,-2.54895e-06,-2.0944,-1.65457e-06,1.5708,0.785399,0.000686186,0.00113951,-0.000485833,-0.000224624,-1.65911e-05,0.000324573,1.24015e-05,0.00304939,0.001875,-0.0025,-0.003125,-0.00152409,0.005,0.00102661,-0.50597,-10.2408,-0.357602,22.3365,1.86525,1.32772,-0.387991,-0.494259,-1.06983,0.0922269,3.79094,1.15076,-0.337171,-0.373317
1888091,1,-1.57035,-0.522828,-0.000152202,-2.09714,-0.00149689,1.57129,0.785934,-1.57079,-0.523593,-7.54895e-06,-2.0944,-4.70276e-06,1.57081,0.785401,0.000457458,0.000110059,0.000232923,-0.000149749,-1.10608e-05,0.000453741,-0.000229091,0.00609879,0.00375,-0.005,-0.00625,-0.00304819,0.01,0.00205323,-0.50597,-10.213,-0.381406,22.3365,1.86525,1.32131,-0.381582,-0.494358,-1.06946,0.0921186,3.79074,1.15076,-0.337208,-0.373664
1888092,1,-1.57035,-0.522828,-0.0001522,-2.09714,-0.00149999,1.57129,0.785934,-1.57078,-0.523587,-1.5049e-05,-2.09441,-9.27504e-06,1.57083,0.785405,0.000304972,7.33725e-05,0.000155282,0.000456979,-7.37384e-06,0.000302494,-0.000152727,0.00914818,0.005625,-0.0075,-0.009375,-0.00457228,0.015,0.00307984,-0.50597,-10.213,-0.381406,22.3127,1.86525,1.32131,-0.381582,-0.49497,-1.07056,0.0913323,3.79128,1.15075,-0.337188,-0.374004
1888093,1,-1.57035,-0.522827,-0.000154512,-2.09714,-0.00150042,1.57129,0.785933,-1.57077,-0.52358,-2.5049e-05,-2.09443,-1.53714e-05,1.57085,0.785409,-0.000446299,0.00252435,-0.00551066,-0.00349101,0.000198535,-0.000747773,-0.000576536,0.0121976,0.0075,-0.01,-0.0125,-0.00609637,0.02,0.00410645,-0.478199,-10.0385,-0.409177,22.2135,1.85976,1.34695,-0.368765,-0.49412,-1.07436,0.0928919,3.79354,1.15083,-0.337014,-0.374341
1888094,1,-1.57035,-0.522836,-0.000151744,-2.09714,-0.00150081,1.57129,0.785935,-1.57075,-0.523571,-3.7549e-05,-2.09444,-2.29919e-05,1.57087,0.785414,-0.00206077,0.00288223,-0.003816,-0.0011912,0.00118352,-0.000735874,-0.000621716,0.015247,0.009375,-0.0125,-0.015625,-0.00762046,0.025,0.00513307,-0.402821,-9.48306,-0.559934,21.7414,1.83138,1.35336,-0.362356,-0.48907,-1.085,0.100907,3.79988,1.15118,-0.336451,-0.374674
1888095,1,-1.57035,-0.522834,-0.000159251,-2.09713,-0.00150142,1.57129,0.785934,-1.57073,-0.523559,-5.2549e-05,-2.09446,-3.21364e-05,1.5709,0.78542,0.00243751,0.00071095,-0.00199129,0.000168414,-0.00262671,-0.00120266,-0.00112655,0.0182964,0.01125,-0.015,-0.01875,-0.00914456,0.03,0.00615968,-0.430592,-8.92368,-0.611508,21.2455,1.7975,1.37258,-0.34313,-0.482009,-1.0983,0.111868,3.80735,1.15163,-0.335738,-0.374971
1888096,1,-1.57034,-0.522819,-0.000164981,-2.09714,-0.00150033,1.57129,0.785932,-1.57071,-0.523546,-7.0049e-05,-2.09448,-4.28051e-05,1.57094,0.785427,0.00188848,0.00111832,-0.00523684,0.000176343,-0.00129263,-0.00198857,-0.00149702,0.0213458,0.013125,-0.0175,-0.021875,-0.0106687,0.035,0.00718629,-0.430592,-8.44363,-0.734494,20.7694,1.77461,1.40463,-0.322988,-0.476384,-1.10652,0.120561,3.81116,1.1519,-0.335198,-0.375189
1888097,1,-1.57034,-0.522798,-0.000174211,-2.09714,-0.00150021,1.57129,0.785933,-1.57069,-0.523531,-9.0049e-05,-2.09451,-5.49978e-05,1.57098,0.785435,0.00397495,0.00739713,-0.00687452,0.00146838,-0.000950197,-0.00180043,-0.000760655,0.0243952,0.015,-0.02,-0.025,-0.0121927,0.04,0.0082129,-0.402821,-8.03897,-0.762265,20.2259,1.76912,1.41745,-0.329397,-0.471338,-1.11207,0.128295,3.81156,1.15196,-0.334693,-0.375292
1888098,1,-1.57033,-0.522777,-0.00018284,-2.09714,-0.0015023,1.57129,0.785932,-1.57066,-0.523514,-0.000112549,-2.09454,-6.87147e-05,1.57102,0.785445,0.00194854,0.0115768,-0.00742723,0.000330775,-0.00149665,-0.00214972,-0.000981821,0.0274445,0.016875,-0.0225,-0.028125,-0.0137168,0.045,0.00923952,-0.355213,-7.63828,-0.81384,19.7538,1.78652,1.44308,-0.31658,-0.465207,-1.12523,0.137232,3.81235,1.15189,-0.333812,-0.375243
1888099,1,-1.57033,-0.522754,-0.000192104,-2.09714,-0.00150165,1.5713,0.785934,-1.57063,-0.523496,-0.000137549,-2.09457,-8.39556e-05,1.57107,0.785455,0.00301166,0.0162154,-0.00793288,-0.00175214,-0.000924597,-0.00095843,9.14376e-05,0.0304939,0.01875,-0.025,-0.03125,-0.0152409,0.05,0.0102661,-0.279835,-7.28122,-0.861447,19.3293,1.78011,1.43026,-0.336721,-0.457583,-1.15334,0.147355,3.81689,1.15179,-0.332128,-0.375015
1888100,1,-1.57032,-0.522732,-0.00019972,-2.09716,-0.00150044,1.5713,0.785931,-1.57059,-0.523473,-0.000167077,-2.0946,-0.000101637,1.57113,0.785467,0.00501566,0.01593,-0.0101467,-0.00644814,-0.000332641,-0.000638954,-0.000922386,0.0358261,0.0225,-0.029528,-0.0375,-0.0176816,0.06,0.011887,-0.252064,-6.90433,-0.964597,19.0317,1.76912,1.43026,-0.310171,-0.448884,-1.19623,0.157763,3.82621,1.1517,-0.329341,-0.374608
1888101,1,-1.57031,-0.522715,-0.000210034,-2.09717,-0.00150045,1.57131,0.785934,-1.57055,-0.523447,-0.000201133,-2.09465,-0.00012176,1.5712,0.78548,0.00527127,0.0184671,-0.0125317,-0.0100892,-0.000314118,-0.00018861,-0.000852283,0.0411582,0.02625,-0.034056,-0.04375,-0.0201223,0.07,0.013508,-0.176685,-6.52347,-1.03998,18.758,1.76912,1.42385,-0.303762,-0.439151,-1.24874,0.168413,3.83942,1.15166,-0.325319,-0.374042
1888102,1,-1.5703,-0.522698,-0.00021865,-2.09718,-0.00149988,1.57132,0.785932,-1.57051,-0.523417,-0.000239717,-2.0947,-0.000144322,1.57128,0.785495,0.00685643,0.0146936,-0.0136922,-0.0112234,0.000975931,0.00213556,-0.00151762,0.0464904,0.03,-0.038584,-0.05,-0.022563,0.08,0.0151289,-0.152882,-6.17038,-1.14312,18.5596,1.73525,1.48794,-0.278127,-0.427931,-1.30178,0.179764,3.85265,1.15165,-0.3203,-0.373334
1888103,1,-1.57029,-0.522683,-0.000236149,-2.09719,-0.00150354,1.57132,0.785932,-1.57045,-0.523383,-0.000282829,-2.09475,-0.000169326,1.57137,0.785512,0.00895862,0.0143888,-0.0177728,-0.0126326,0.00080212,0.0019466,-0.00101175,0.0518226,0.03375,-0.043112,-0.05625,-0.0250037,0.09,0.0167498,-0.176685,-5.63876,-1.24231,18.1351,1.72975,1.61062,-0.278127,-0.415201,-1.34294,0.19169,3.8593,1.15155,-0.314833,-0.372487
1888104,1,-1.57027,-0.522664,-0.000260318,-2.09721,-0.00150561,1.57132,0.78593,-1.5704,-0.523346,-0.000330469,-2.09482,-0.000196771,1.57147,0.78553,0.0116995,0.0170834,-0.0212897,-0.0161328,-0.00337291,0.00212146,-0.00138658,0.0571547,0.0375,-0.04764,-0.0625,-0.0274444,0.1,0.0183707,-0.125111,-4.95639,-1.31769,17.663,1.70687,1.7333,-0.258901,-0.400518,-1.36837,0.204999,3.85707,1.15133,-0.309046,-0.371485
1888105,1,-1.57024,-0.522639,-0.000288925,-2.09723,-0.00150794,1.57133,0.78593,-1.57033,-0.523304,-0.000382637,-2.09489,-0.000226656,1.57158,0.78555,0.0172429,0.0182233,-0.0260452,-0.021262,-0.000805898,0.00249081,-0.00116174,0.0624869,0.04125,-0.0521679,-0.06875,-0.029885,0.11,0.0199916,-0.204456,-4.17484,-1.44464,17.0163,1.65651,1.85507,-0.252493,-0.383943,-1.38413,0.220031,3.84936,1.15104,-0.302451,-0.370299
1888106,1,-1.57021,-0.522601,-0.000327639,-2.09726,-0.00150874,1.57134,0.785932,-1.57027,-0.523259,-0.000439333,-2.09496,-0.000258981,1.5717,0.785572,0.022867,0.0235657,-0.0314344,-0.0223892,0.00189262,0.00911067,-0.00101185,0.067819,0.045,-0.0566959,-0.075,-0.0323257,0.12,0.0216125,-0.22826,-3.46469,-1.49621,16.3697,1.58235,1.9393,-0.246084,-0.366518,-1.39638,0.235959,3.83899,1.15063,-0.294579,-0.36891
1888107,1,-1.57018,-0.522556,-0.000370088,-2.09729,-0.00151316,1.57137,0.785932,-1.57019,-0.523211,-0.000500557,-2.09504,-0.000293748,1.57183,0.785595,0.0238621,0.0272742,-0.0322856,-0.023941,-0.00201943,0.0150505,-0.000945837,0.0731512,0.04875,-0.0612239,-0.08125,-0.0347664,0.13,0.0232334,-0.252064,-2.83389,-1.54779,15.727,1.53749,1.99057,-0.23876,-0.349109,-1.40921,0.251696,3.82597,1.14996,-0.285326,-0.367309
1888108,1,-1.57014,-0.522504,-0.000419993,-2.09733,-0.00151379,1.57141,0.785939,-1.57011,-0.523158,-0.000566309,-2.09513,-0.000330955,1.57197,0.78562,0.026028,0.0316453,-0.0365443,-0.0272491,-1.76545e-05,0.0251797,0.000352786,0.0784833,0.0525,-0.0657519,-0.0875,-0.0372071,0.14,0.0248543,-0.204456,-2.27847,-1.57159,15.1795,1.48622,2.00979,-0.26531,-0.331737,-1.42417,0.266585,3.80918,1.14896,-0.274728,-0.365497
1888109,1,-1.5701,-0.522447,-0.000464495,-2.09738,-0.00152229,1.57146,0.785939,-1.57003,-0.523102,-0.000636588,-2.09522,-0.000370603,1.57212,0.785647,0.0307284,0.0424468,-0.0405128,-0.0347147,-0.000439448,0.0346474,-0.000239527,0.0838155,0.05625,-0.0702799,-0.09375,-0.0396478,0.15,0.0264752,-0.152882,-1.79843,-1.69854,14.7074,1.48622,1.97775,-0.252493,-0.313962,-1.44794,0.28104,3.79164,1.1476,-0.262485,-0.363491
1888110,1,-1.57005,-0.522404,-0.000519159,-2.09744,-0.0015303,1.57152,0.785934,-1.56994,-0.52304,-0.000712868,-2.09533,-0.000413269,1.57229,0.785675,0.0366065,0.0416875,-0.0452917,-0.0386442,-0.000206823,0.047893,0.001874,0.0908067,0.061875,-0.0762795,-0.103125,-0.042666,0.165,0.0284338,-0.0497324,-1.19144,-1.75012,14.3067,1.47524,1.90084,-0.181082,-0.296272,-1.48597,0.294738,3.77671,1.14588,-0.248335,-0.361329
1888111,1,-1.56999,-0.522363,-0.000577397,-2.09749,-0.00154099,1.5716,0.785936,-1.56984,-0.522972,-0.000795147,-2.09544,-0.000458953,1.57247,0.785705,0.0434587,0.0434988,-0.0493853,-0.043077,-0.000785352,0.0635254,0.000689778,0.0977978,0.0675,-0.0822791,-0.1125,-0.0456841,0.18,0.0303924,-0.0497324,-0.584442,-1.77392,13.9853,1.48622,1.79098,-0.155447,-0.280088,-1.52763,0.305932,3.75958,1.14365,-0.232842,-0.359028
1888112,1,-1.56993,-0.522323,-0.000629397,-2.09756,-0.00155509,1.57169,0.785932,-1.56974,-0.522899,-0.000883426,-2.09556,-0.000507655,1.57266,0.785738,0.0459612,0.0394545,-0.0495543,-0.0528284,-9.36428e-05,0.0715281,-0.00094316,0.104789,0.073125,-0.0882787,-0.121875,-0.0487023,0.195,0.0323511,-0.0775034,-0.00125125,-1.92468,13.8108,1.46974,1.76535,-0.10967,-0.267045,-1.5574,0.311882,3.73411,1.14077,-0.216731,-0.356536
1888113,1,-1.56986,-0.522278,-0.000692481,-2.09763,-0.00156867,1.57178,0.785932,-1.56963,-0.522821,-0.000977704,-2.09569,-0.000559375,1.57287,0.785772,0.0534249,0.0424173,-0.0534952,-0.059915,-0.00442182,0.0804689,-0.00159626,0.11178,0.07875,-0.0942783,-0.13125,-0.0517204,0.21,0.0343097,-0.0775034,0.629547,-2.05163,13.5132,1.45784,1.79739,-0.077627,-0.258482,-1.56788,0.309948,3.69969,1.13727,-0.200213,-0.353756
1888114,1,-1.56978,-0.522234,-0.000765094,-2.0977,-0.00158144,1.57189,0.785934,-1.56951,-0.522736,-0.00107798,-2.09583,-0.000614114,1.5731,0.785808,0.0590139,0.0416247,-0.0565882,-0.0691059,-0.00648732,0.0833864,-0.00188304,0.118771,0.084375,-0.100278,-0.140625,-0.0547386,0.225,0.0362683,-0.0775034,1.48648,-2.17859,13.1165,1.41298,1.93289,-0.0510767,-0.254835,-1.55965,0.299402,3.65884,1.13323,-0.18322,-0.350583
1888115,1,-1.5697,-0.522179,-0.000849792,-2.09779,-0.00160022,1.572,0.785936,-1.56938,-0.522646,-0.00118426,-2.09598,-0.000671871,1.57334,0.785847,0.0712618,0.0468502,-0.0651061,-0.0753628,-0.0123748,0.095003,-0.000860732,0.125763,0.09,-0.106277,-0.15,-0.0577568,0.24,0.0382269,-0.152882,2.32358,-2.17859,12.569,1.35622,2.07479,-0.0584009,-0.255658,-1.53702,0.281563,3.6144,1.12876,-0.165609,-0.346933
1888116,1,-1.5696,-0.522107,-0.00093452,-2.09789,-0.00161765,1.57215,0.785941,-1.56925,-0.522551,-0.00129654,-2.09614,-0.000732646,1.57359,0.785887,0.0795464,0.0553478,-0.0661878,-0.0785937,-0.0120151,0.109949,-6.58314e-06,0.132754,0.095625,-0.112277,-0.159375,-0.0607749,0.255,0.0401855,-0.204456,3.05356,-2.25396,11.9223,1.29396,2.06198,-0.0712183,-0.26137,-1.50827,0.256753,3.56846,1.12384,-0.147355,-0.342759
1888117,1,-1.56949,-0.522028,-0.00102482,-2.098,-0.00163802,1.57233,0.785942,-1.56911,-0.522449,-0.00141481,-2.09631,-0.000796439,1.57386,0.785929,0.0876247,0.0614032,-0.0738907,-0.0860158,-0.0118322,0.129598,-0.0023425,0.139745,0.10125,-0.118277,-0.16875,-0.0637931,0.27,0.0421441,-0.22826,3.68832,-2.30554,11.351,1.23171,1.9393,-0.00621587,-0.272414,-1.4826,0.224745,3.5223,1.11839,-0.128528,-0.338081
1888118,1,-1.56938,-0.521944,-0.00112431,-2.09812,-0.00166454,1.57253,0.785948,-1.56896,-0.522342,-0.00153909,-2.09649,-0.00086325,1.57415,0.785973,0.0963694,0.0704857,-0.0841594,-0.0953868,-0.0206577,0.15497,0.00353456,0.146736,0.106875,-0.124276,-0.178125,-0.0668113,0.285,0.0441027,-0.204456,4.29532,-2.30554,10.9265,1.15846,1.77175,-0.0126246,-0.285493,-1.46678,0.190714,3.47789,1.11253,-0.109149,-0.332964
1888119,1,-1.56927,-0.521855,-0.00122267,-2.09825,-0.00169531,1.57275,0.785956,-1.56881,-0.52223,-0.00166937,-2.09668,-0.000933079,1.57445,0.786019,0.101701,0.0761958,-0.0861585,-0.106486,-0.0196933,0.178105,0.00731243,0.153727,0.1125,-0.130276,-0.1875,-0.0698294,0.3,0.0460613,-0.125111,4.87454,-2.40869,10.5536,1.13008,1.61703,-0.00621587,-0.297067,-1.46584,0.159902,3.43821,1.10645,-0.08928,-0.327443
1888120,1,-1.56915,-0.521773,-0.00132335,-2.09839,-0.00173351,1.57299,0.785968,-1.56865,-0.52211,-0.00180666,-2.09688,-0.00100635,1.57477,0.786067,0.107348,0.0778187,-0.087826,-0.116851,-0.0297874,0.192183,0.0102959,0.161866,0.119954,-0.137296,-0.199509,-0.0732695,0.31999,0.0482125,-0.101307,5.48154,-2.50787,10.2799,1.14198,1.5209,-0.00621587,-0.307911,-1.4761,0.130035,3.40324,1.10006,-0.0691976,-0.321537
1888121,1,-1.56902,-0.521693,-0.00143128,-2.09854,-0.00177701,1.57324,0.785974,-1.56848,-0.521983,-0.00195098,-2.09709,-0.00108306,1.57511,0.786118,0.114511,0.0779924,-0.0944659,-0.128237,-0.032791,0.211833,0.0100743,0.170004,0.127408,-0.144317,-0.211519,-0.0767097,0.33998,0.0503638,-0.0775034,6.11234,-2.63482,10.0815,1.16396,1.44949,0.0587866,-0.319233,-1.48466,0.0981994,3.36896,1.0932,-0.0494125,-0.315287
1888122,1,-1.56888,-0.521613,-0.00154802,-2.0987,-0.00182519,1.57352,0.78598,-1.5683,-0.521848,-0.00210232,-2.09731,-0.00116321,1.57547,0.78617,0.126775,0.0810423,-0.103378,-0.136359,-0.0396618,0.227858,0.00867347,0.178142,0.134862,-0.151337,-0.223528,-0.0801498,0.35997,0.052515,-0.204456,6.71933,-2.7102,9.95853,1.18685,1.46871,0.162241,-0.330252,-1.47992,0.0657525,3.33074,1.08588,-0.0305299,-0.308731
1888123,1,-1.56872,-0.521529,-0.00166928,-2.09887,-0.0018781,1.5738,0.78599,-1.56811,-0.521705,-0.00226067,-2.09755,-0.0012468,1.57585,0.786225,0.138091,0.0859823,-0.109564,-0.146144,-0.0446483,0.245432,0.00851882,0.18628,0.142315,-0.158358,-0.235538,-0.0835899,0.37996,0.0546662,-0.303639,7.42947,-2.83716,9.76017,1.20973,1.60421,0.24647,-0.341161,-1.45884,0.0334574,3.28672,1.07813,-0.0129458,-0.301815
1888124,1,-1.56855,-0.521437,-0.00179583,-2.09904,-0.00192948,1.5741,0.786001,-1.56792,-0.521556,-0.00242605,-2.09779,-0.00133383,1.57625,0.786282,0.14858,0.0910446,-0.113697,-0.155034,-0.0463041,0.258524,0.00930121,0.194418,0.149769,-0.165378,-0.247547,-0.08703,0.39995,0.0568175,-0.50597,8.28641,-2.98791,9.36344,1.17586,1.76535,0.310557,-0.354209,-1.42473,-0.00138833,3.23821,1.06998,0.00339903,-0.294379
1888125,1,-1.56838,-0.521327,-0.00193017,-2.09923,-0.0019831,1.57442,0.786018,-1.56771,-0.521398,-0.00259845,-2.09805,-0.0014243,1.57667,0.786341,0.156481,0.0957845,-0.121291,-0.166009,-0.0468376,0.276886,0.0113473,0.202557,0.157223,-0.172399,-0.259557,-0.0904701,0.41994,0.0589687,-0.581349,9.04416,-3.09106,8.86356,1.1191,1.9393,0.337107,-0.370517,-1.38112,-0.0404192,3.18717,1.06149,0.0189283,-0.286248
1888126,1,-1.56821,-0.521205,-0.00207601,-2.09943,-0.00204348,1.57477,0.786035,-1.5675,-0.521234,-0.00277787,-2.09833,-0.00151821,1.57711,0.786402,0.160695,0.100562,-0.12787,-0.17205,-0.0468489,0.306019,0.0120032,0.210695,0.164677,-0.179419,-0.271566,-0.0939102,0.43993,0.06112,-0.581349,9.7543,-3.14264,8.24466,1.05135,1.92648,0.381968,-0.387438,-1.32817,-0.0800495,3.1329,1.05283,0.0339225,-0.277321
1888127,1,-1.56802,-0.521069,-0.00222661,-2.09964,-0.00210836,1.57516,0.786056,-1.56728,-0.521062,-0.00296431,-2.09861,-0.00161556,1.57757,0.786465,0.170219,0.11161,-0.136158,-0.183207,-0.0524545,0.328376,0.0134435,0.218833,0.172131,-0.18644,-0.283575,-0.0973504,0.45992,0.0632712,-0.581349,10.3613,-3.19421,7.74479,1.00008,1.81661,0.401194,-0.401577,-1.26869,-0.115573,3.0748,1.04415,0.048568,-0.267558
1888128,1,-1.56782,-0.52093,-0.00238972,-2.09987,-0.00217168,1.57558,0.786079,-1.56706,-0.520882,-0.00315777,-2.0989,-0.00171635,1.57805,0.78653,0.177338,0.120958,-0.145329,-0.192205,-0.0559009,0.357064,0.019689,0.226971,0.179585,-0.19346,-0.295585,-0.10079,0.47991,0.0654224,-0.557545,10.8651,-3.24182,7.29648,0.926836,1.61062,0.407602,-0.411269,-1.21277,-0.144341,3.01644,1.03554,0.0632869,-0.256941
1888129,1,-1.56761,-0.520786,-0.00256026,-2.10012,-0.00224348,1.57601,0.786107,-1.56682,-0.520695,-0.00335825,-2.09921,-0.00182058,1.57855,0.786598,0.188848,0.12893,-0.153105,-0.209186,-0.0601831,0.382032,0.0209192,0.23511,0.187038,-0.200481,-0.307594,-0.104231,0.4999,0.0675737,-0.557545,11.373,-3.24182,6.99894,0.898454,1.44949,0.375559,-0.416435,-1.16862,-0.165859,2.96236,1.02703,0.0784227,-0.245495
1888130,1,-1.56741,-0.520646,-0.00273215,-2.10037,-0.00232401,1.57647,0.786138,-1.56658,-0.5205,-0.00356651,-2.09953,-0.00192846,1.57907,0.786668,0.193667,0.131291,-0.159184,-0.220439,-0.0648521,0.407411,0.0253881,0.243969,0.194528,-0.208255,-0.320084,-0.107882,0.51989,0.0698478,-0.50597,11.9284,-3.24182,6.65378,0.909441,1.32131,0.36915,-0.418336,-1.13407,-0.1821,2.91362,1.01851,0.0939084,-0.233312
1888131,1,-1.56718,-0.520507,-0.00290578,-2.10064,-0.0024093,1.57694,0.786165,-1.56633,-0.520298,-0.00378253,-2.09986,-0.00203999,1.57961,0.78674,0.205092,0.133151,-0.164113,-0.236004,-0.0727645,0.432687,0.0265477,0.252828,0.202018,-0.216028,-0.332574,-0.111533,0.53988,0.0721219,-0.50597,12.5076,-3.34497,6.47922,0.921343,1.28836,0.42042,-0.418992,-1.09686,-0.196625,2.86617,1.00978,0.109159,-0.220543
1888132,1,-1.56694,-0.52036,-0.00309333,-2.10091,-0.00250045,1.57743,0.786185,-1.56606,-0.520089,-0.00400634,-2.10021,-0.00215518,1.58017,0.786814,0.215337,0.140906,-0.171491,-0.249266,-0.0832204,0.448975,0.0206326,0.261688,0.209508,-0.223802,-0.345064,-0.115184,0.55987,0.074396,-0.581349,13.0154,-3.44415,6.25309,0.943315,1.33413,0.537607,-0.421154,-1.04942,-0.213646,2.81766,1.00073,0.123757,-0.207308
1888133,1,-1.56668,-0.52021,-0.00328877,-2.1012,-0.00259648,1.57794,0.786226,-1.56579,-0.519872,-0.00423791,-2.10057,-0.00227401,1.58075,0.786891,0.2285,0.14227,-0.178066,-0.265779,-0.0868969,0.466114,0.0305431,0.270547,0.216998,-0.231576,-0.357554,-0.118835,0.57986,0.0766701,-0.755909,13.5193,-3.49572,6.05472,0.966203,1.48153,0.52479,-0.427052,-0.992449,-0.236039,2.76978,0.991381,0.137839,-0.193618
1888134,1,-1.56642,-0.520046,-0.00348896,-2.1015,-0.00269536,1.57847,0.786266,-1.56551,-0.519647,-0.00447726,-2.10094,-0.0023965,1.58135,0.78697,0.240036,0.148634,-0.180653,-0.274713,-0.0888506,0.48694,0.0328448,0.279406,0.224488,-0.23935,-0.370044,-0.122486,0.59985,0.0789442,-0.910633,13.9001,-3.62268,5.85636,0.971697,1.5978,0.518381,-0.439493,-0.923659,-0.267525,2.72145,0.981619,0.151457,-0.179431
1888135,1,-1.56614,-0.519881,-0.00369779,-2.10182,-0.00279584,1.57904,0.786316,-1.56523,-0.519415,-0.00472439,-2.10132,-0.00252264,1.58196,0.787051,0.252513,0.153408,-0.188146,-0.285217,-0.0904309,0.505125,0.0371286,0.288265,0.231978,-0.247124,-0.382534,-0.126138,0.61984,0.0812183,-1.00982,14.2532,-3.67425,5.80875,0.97719,1.65548,0.440561,-0.461099,-0.839902,-0.311581,2.66876,0.971299,0.164454,-0.164753
1888136,1,-1.56586,-0.519696,-0.00392051,-2.10215,-0.00289944,1.57963,0.786357,-1.56493,-0.519176,-0.00497928,-2.10171,-0.00265243,1.5826,0.787135,0.260131,0.162059,-0.200027,-0.295045,-0.0911016,0.531784,0.0356259,0.297125,0.239468,-0.254897,-0.395024,-0.129789,0.63983,0.0834924,-1.109,14.4278,-3.72583,5.60642,0.97719,1.61703,0.485422,-0.488967,-0.742568,-0.363422,2.6095,0.960578,0.176818,-0.149713
1888137,1,-1.56558,-0.519498,-0.00414666,-2.10249,-0.00299872,1.58024,0.786409,-1.56462,-0.518929,-0.00524195,-2.10212,-0.00278587,1.58326,0.78722,0.267345,0.172563,-0.204395,-0.309415,-0.0889922,0.556476,0.0416198,0.305984,0.246958,-0.262671,-0.407514,-0.13344,0.65982,0.0857665,-1.00982,14.4555,-3.82501,5.55881,0.898454,1.57217,0.466196,-0.517382,-0.640354,-0.414597,2.54642,0.949848,0.188868,-0.134503
1888138,1,-1.56529,-0.519307,-0.00438156,-2.10285,-0.00310386,1.58089,0.786473,-1.56431,-0.518675,-0.0055124,-2.10254,-0.00292296,1.58394,0.787309,0.275908,0.17863,-0.213998,-0.32258,-0.093725,0.584664,0.0517469,0.314843,0.254448,-0.270445,-0.420004,-0.137091,0.67981,0.0880406,-1.00982,14.6301,-3.80121,5.53501,0.859087,1.46871,0.42042,-0.543702,-0.542668,-0.461764,2.48435,0.939361,0.200992,-0.11927
1888139,1,-1.56498,-0.519101,-0.0046253,-2.10321,-0.00321589,1.58155,0.786537,-1.56398,-0.518413,-0.00579062,-2.10297,-0.0030637,1.58464,0.787399,0.284334,0.186098,-0.223747,-0.336205,-0.101834,0.612956,0.052822,0.323703,0.261938,-0.278219,-0.432494,-0.140742,0.6998,0.0903147,-0.986012,14.6579,-3.77343,5.50724,0.819719,1.32131,0.42042,-0.566051,-0.450902,-0.502509,2.42481,0.929233,0.21319,-0.104139
1888140,1,-1.56466,-0.51889,-0.00487756,-2.10359,-0.00333265,1.58225,0.786605,-1.56365,-0.518143,-0.00607713,-2.10342,-0.00320816,1.58536,0.787491,0.296678,0.199029,-0.23958,-0.346525,-0.104307,0.640693,0.0588991,0.332975,0.269428,-0.286517,-0.444984,-0.14446,0.71979,0.0926466,-1.06139,14.7055,-3.72583,5.48343,0.802324,1.12173,0.407602,-0.581431,-0.367142,-0.531996,2.36844,0.919552,0.225188,-0.0892494
1888141,1,-1.56433,-0.518678,-0.00513782,-2.10398,-0.00345032,1.58296,0.786671,-1.56331,-0.517866,-0.00637195,-2.10388,-0.00335634,1.5861,0.787586,0.30575,0.205938,-0.244934,-0.35624,-0.109643,0.659994,0.0605793,0.342247,0.276918,-0.294815,-0.457474,-0.148177,0.73978,0.0949786,-1.13677,14.8324,-3.74963,5.43583,0.757463,1.07595,0.466196,-0.589244,-0.294689,-0.548705,2.3155,0.910223,0.236575,-0.0747029
1888142,1,-1.56399,-0.518456,-0.00540261,-2.10438,-0.00357678,1.58366,0.786751,-1.56296,-0.517582,-0.00667506,-2.10435,-0.00350823,1.58686,0.787684,0.318681,0.211291,-0.251244,-0.367727,-0.11533,0.675529,0.0659466,0.351519,0.284408,-0.303113,-0.469964,-0.151895,0.75977,0.0973105,-1.23595,14.9872,-3.80121,5.28507,0.751055,1.28195,0.427744,-0.59401,-0.227875,-0.559342,2.26324,0.900873,0.246854,-0.0605153
1888143,1,-1.56365,-0.518228,-0.0056753,-2.10479,-0.00370682,1.58438,0.786826,-1.5626,-0.51729,-0.00698647,-2.10483,-0.00366384,1.58764,0.787783,0.327235,0.215571,-0.257541,-0.381631,-0.119139,0.685183,0.0716314,0.36079,0.291898,-0.311411,-0.482454,-0.155612,0.77976,0.0996425,-1.26372,15.0625,-3.80121,5.20969,0.734575,1.49526,0.466196,-0.60102,-0.157531,-0.572027,2.20947,0.891139,0.255997,-0.0466501
1888144,1,-1.56329,-0.517985,-0.00595099,-2.10521,-0.00384661,1.58513,0.786911,-1.56223,-0.516991,-0.00730618,-2.10532,-0.00382317,1.58844,0.787885,0.338445,0.22393,-0.259498,-0.390705,-0.127911,0.721986,0.0717149,0.370062,0.299388,-0.319709,-0.494944,-0.159329,0.79975,0.101974,-1.3629,15.0863,-3.90039,5.0629,0.762956,1.50167,0.491831,-0.613575,-0.0793373,-0.592035,2.15332,0.880848,0.264247,-0.0330765
1888145,1,-1.56292,-0.517728,-0.00624139,-2.10564,-0.00398667,1.58591,0.786989,-1.56185,-0.516684,-0.00763419,-2.10583,-0.00398622,1.58926,0.78799,0.348876,0.238835,-0.269595,-0.402706,-0.129592,0.740938,0.0746997,0.379334,0.306878,-0.328007,-0.507434,-0.163047,0.81974,0.104306,-1.41448,15.0348,-3.92816,5.01133,0.779436,1.48153,0.569651,-0.633332,0.000374274,-0.621967,2.09618,0.870011,0.27186,-0.0197448
1888146,1,-1.56254,-0.517477,-0.00653808,-2.10609,-0.00412283,1.58672,0.787071,-1.56146,-0.516369,-0.00797049,-2.10635,-0.00415298,1.5901,0.788096,0.355518,0.241044,-0.276174,-0.415746,-0.135049,0.757487,0.0775172,0.388606,0.314368,-0.336305,-0.519924,-0.166764,0.83973,0.106638,-1.41448,15.0625,-4.00354,4.91214,0.784929,1.48153,0.634653,-0.657846,0.0736446,-0.658118,2.04126,0.858863,0.2794,-0.00657559
1888147,1,-1.56216,-0.5172,-0.00685496,-2.10653,-0.00426648,1.58753,0.787171,-1.56106,-0.516047,-0.00831509,-2.10688,-0.00432347,1.59096,0.788205,0.363846,0.253464,-0.284118,-0.423722,-0.138709,0.774986,0.0832013,0.397878,0.321858,-0.344603,-0.532414,-0.170482,0.85972,0.10897,-1.43828,14.9356,-3.92816,4.81296,0.779436,1.50808,0.608103,-0.683285,0.142447,-0.695181,1.98809,0.847637,0.287212,0.00654996
1888148,1,-1.56178,-0.516915,-0.007174,-2.107,-0.00440785,1.58838,0.787275,-1.56065,-0.515718,-0.008668,-2.10743,-0.00449766,1.59184,0.788317,0.367668,0.264517,-0.297897,-0.436538,-0.141904,0.794899,0.0890294,0.40715,0.329348,-0.352901,-0.544904,-0.174199,0.87971,0.111302,-1.3391,14.7848,-3.92816,4.73758,0.784929,1.41745,0.537607,-0.704883,0.204644,-0.726478,1.93672,0.836606,0.29542,0.0197396
1888149,1,-1.56138,-0.51662,-0.00750193,-2.10748,-0.0045546,1.58928,0.787377,-1.56024,-0.515381,-0.00902919,-2.10799,-0.00467558,1.59274,0.78843,0.377846,0.27332,-0.304853,-0.447745,-0.142958,0.816265,0.0901051,0.416422,0.336838,-0.361199,-0.557394,-0.177917,0.8997,0.113634,-1.26372,14.6817,-3.92816,4.59079,0.762956,1.17941,0.537607,-0.718339,0.254569,-0.745686,1.88934,0.826046,0.304186,0.032989
1888150,1,-1.56098,-0.516319,-0.00784069,-2.10796,-0.00469516,1.59017,0.787485,-1.55981,-0.515037,-0.00939902,-2.10856,-0.00485719,1.59366,0.788546,0.381549,0.284997,-0.317871,-0.458888,-0.141331,0.846295,0.0932669,0.42587,0.344328,-0.369829,-0.569884,-0.181613,0.91969,0.115978,-1.16057,14.6301,-3.87658,4.44004,0.688799,1.09518,0.479014,-0.722774,0.291823,-0.751603,1.84577,0.816025,0.313225,0.046195
1888151,1,-1.56055,-0.516008,-0.00818974,-2.10845,-0.00483836,1.59108,0.787594,-1.55938,-0.514685,-0.00977748,-2.10914,-0.0050425,1.5946,0.788665,0.395298,0.292155,-0.325759,-0.469018,-0.138931,0.859616,0.0982431,0.435318,0.351818,-0.37846,-0.582374,-0.185308,0.93968,0.118322,-1.23595,14.5309,-3.77343,4.24167,0.553301,1.16018,0.491831,-0.719072,0.318647,-0.745532,1.80413,0.806413,0.321928,0.059221
1888152,1,-1.56012,-0.515696,-0.00855139,-2.10896,-0.00500052,1.592,0.787715,-1.55893,-0.514326,-0.0101646,-2.10973,-0.00523151,1.59556,0.788785,0.404919,0.294069,-0.333392,-0.481075,-0.146244,0.883738,0.10416,0.444766,0.359308,-0.38709,-0.594864,-0.189004,0.95967,0.120666,-1.3391,14.5071,-3.67425,4.06711,0.531328,1.17941,0.427744,-0.711686,0.345214,-0.733702,1.75993,0.796786,0.329724,0.071953
1888153,1,-1.55967,-0.515385,-0.0089214,-2.10949,-0.00516649,1.59297,0.787828,-1.55848,-0.513959,-0.0105603,-2.11034,-0.00542421,1.59654,0.788908,0.424246,0.300382,-0.350754,-0.496543,-0.153425,0.904184,0.105724,0.454214,0.366798,-0.39572,-0.607354,-0.1927,0.97966,0.123009,-1.38671,14.5547,-3.5473,4.04331,0.553301,1.16018,0.440561,-0.704821,0.382865,-0.721169,1.70952,0.786763,0.336362,0.0842995
1888154,1,-1.55925,-0.51506,-0.00928743,-2.11003,-0.00533474,1.59395,0.78795,-1.55801,-0.513585,-0.0109646,-2.11096,-0.0056206,1.59754,0.789034,0.425657,0.306799,-0.355658,-0.507024,-0.159138,0.925848,0.112149,0.463662,0.374288,-0.404351,-0.619844,-0.196395,0.99965,0.125353,-1.16057,14.6301,-3.59887,3.99173,0.599077,1.20504,0.434153,-0.698324,0.433023,-0.706779,1.65343,0.776307,0.341983,0.0961687
1888155,1,-1.55879,-0.514716,-0.00967826,-2.11059,-0.00550597,1.59493,0.788073,-1.55754,-0.513203,-0.0113776,-2.11159,-0.00582069,1.59856,0.789161,0.432495,0.317468,-0.365689,-0.52207,-0.163432,0.944051,0.117343,0.47311,0.381778,-0.412981,-0.632334,-0.200091,1.01964,0.127697,-1.16057,14.5547,-3.51953,4.09092,0.643938,1.20504,0.434153,-0.690088,0.489569,-0.68863,1.59466,0.765588,0.346911,0.107501
1888156,1,-1.55832,-0.514372,-0.0100678,-2.11117,-0.00567958,1.59595,0.788198,-1.55706,-0.512814,-0.0117992,-2.11224,-0.00602448,1.5996,0.789291,0.445808,0.325856,-0.372622,-0.541284,-0.16588,0.954791,0.116179,0.482558,0.389268,-0.421612,-0.644824,-0.203787,1.03963,0.130041,-1.23595,14.4793,-3.47192,4.31705,0.672319,1.21786,0.434153,-0.680396,0.5411,-0.668262,1.5404,0.754815,0.351994,0.118306
1888157,1,-1.55785,-0.514001,-0.010475,-2.11176,-0.00585587,1.59696,0.788317,-1.55657,-0.512417,-0.0122295,-2.1129,-0.00623196,1.60066,0.789424,0.453113,0.336808,-0.380051,-0.552676,-0.16686,0.994872,0.11718,0.492006,0.396758,-0.430242,-0.657314,-0.207483,1.05962,0.132385,-1.23595,14.2016,-3.42035,4.41623,0.683306,1.26913,0.511057,-0.672666,0.578618,-0.650559,1.4965,0.744097,0.357828,0.128625
1888158,1,-1.55737,-0.51363,-0.0108754,-2.11234,-0.00603383,1.59802,0.788446,-1.55606,-0.512013,-0.0126684,-2.11357,-0.00644314,1.60174,0.789558,0.463388,0.353883,-0.392848,-0.567189,-0.171495,1.01003,0.121235,0.501454,0.404248,-0.438872,-0.669804,-0.211178,1.07961,0.134729,-1.13677,13.9477,-3.39654,4.48764,0.666826,1.27554,0.511057,-0.667188,0.594492,-0.635733,1.46488,0.733606,0.364313,0.138517
1888159,1,-1.55688,-0.513244,-0.0112932,-2.11295,-0.00622361,1.5991,0.788578,-1.55555,-0.511601,-0.0131159,-2.11425,-0.00665801,1.60284,0.789695,0.464989,0.36264,-0.402375,-0.579498,-0.178995,1.02448,0.12391,0.510902,0.411738,-0.447503,-0.682294,-0.214874,1.0996,0.137072,-1.06139,13.7732,-3.34497,4.51542,0.627458,1.30117,0.511057,-0.659548,0.581531,-0.617471,1.44755,0.723663,0.371628,0.148082
1888160,1,-1.55639,-0.512852,-0.0117173,-2.11359,-0.00641187,1.60019,0.78871,-1.55503,-0.511182,-0.0135722,-2.11494,-0.00687651,1.60396,0.789835,0.467604,0.375797,-0.406463,-0.603567,-0.182595,1.04086,0.125466,0.52034,0.419228,-0.45631,-0.694784,-0.218495,1.11959,0.139399,-0.934437,13.67,-3.39654,4.73758,0.531328,1.32772,0.52479,-0.646111,0.538264,-0.591803,1.44724,0.714519,0.380367,0.15742
1888161,1,-1.55588,-0.512468,-0.0121448,-2.11425,-0.00659774,1.60131,0.788849,-1.5545,-0.510755,-0.0140373,-2.11565,-0.00709862,1.6051,0.789977,0.48386,0.378981,-0.415896,-0.621517,-0.182789,1.06147,0.129031,0.529778,0.426718,-0.465117,-0.707274,-0.222115,1.13958,0.141726,-1.109,13.7216,-3.34497,4.83677,0.485552,1.3085,0.479014,-0.62949,0.468444,-0.563324,1.46615,0.706057,0.391051,0.16661
1888162,1,-1.55535,-0.512073,-0.0125865,-2.11492,-0.00678489,1.60245,0.788987,-1.55396,-0.510321,-0.0145112,-2.11637,-0.00732436,1.60626,0.790121,0.495171,0.382378,-0.418006,-0.638094,-0.181757,1.08798,0.129876,0.539215,0.434208,-0.473924,-0.719764,-0.225736,1.15957,0.144053,-1.26372,13.797,-3.34497,4.93595,0.417803,1.32772,0.472605,-0.617599,0.388573,-0.54266,1.49823,0.697651,0.403259,0.175684
1888163,1,-1.55481,-0.511664,-0.0130326,-2.1156,-0.00698081,1.6036,0.789123,-1.55342,-0.509879,-0.0149939,-2.1171,-0.00755372,1.60744,0.790267,0.507928,0.393557,-0.425079,-0.65002,-0.188639,1.10907,0.134112,0.548653,0.441698,-0.482731,-0.732254,-0.229356,1.17956,0.14638,-1.3391,13.8723,-3.39654,5.01133,0.417803,1.31491,0.49824,-0.617058,0.314544,-0.538509,1.53394,0.688649,0.415974,0.184622
1888164,1,-1.55429,-0.511253,-0.013494,-2.1163,-0.00719106,1.60477,0.789264,-1.55286,-0.50943,-0.0154855,-2.11785,-0.00778669,1.60864,0.790416,0.514255,0.399403,-0.437392,-0.658469,-0.196135,1.12636,0.136807,0.558091,0.449188,-0.491537,-0.744744,-0.232976,1.19955,0.148707,-1.26372,13.8723,-3.42035,4.98752,0.485552,1.32772,0.537607,-0.626502,0.251344,-0.548289,1.56686,0.678849,0.428387,0.193385
1888165,1,-1.55374,-0.510827,-0.0139775,-2.117,-0.00741134,1.60594,0.789406,-1.55229,-0.508973,-0.0159858,-2.1186,-0.00802329,1.60986,0.790567,0.522851,0.413361,-0.448146,-0.674065,-0.205504,1.14179,0.136074,0.567528,0.456678,-0.500344,-0.757234,-0.236597,1.21954,0.151034,-1.38671,13.8247,-3.34497,4.88834,0.536821,1.34054,0.531199,-0.63835,0.198223,-0.560694,1.59443,0.668497,0.44018,0.201965
1888166,1,-1.55318,-0.510402,-0.0144563,-2.11773,-0.00763048,1.60714,0.789542,-1.55171,-0.508509,-0.016495,-2.11937,-0.00826351,1.6111,0.79072,0.546074,0.419408,-0.461984,-0.690788,-0.20605,1.15654,0.138949,0.576966,0.464168,-0.509151,-0.769724,-0.240217,1.23953,0.153361,-1.41448,13.7732,-3.3172,4.86057,0.542314,1.37258,0.556833,-0.649952,0.147996,-0.570764,1.62081,0.657882,0.451828,0.210416
1888167,1,-1.55262,-0.509961,-0.0149531,-2.11846,-0.00784915,1.60836,0.789687,-1.55113,-0.508037,-0.0170129,-2.12016,-0.00850734,1.61235,0.790876,0.5511,0.422843,-0.469767,-0.699549,-0.209044,1.17247,0.141353,0.586404,0.471658,-0.517958,-0.782214,-0.243838,1.25952,0.155688,-1.31133,13.7454,-3.26959,4.6622,0.502947,1.39181,0.569651,-0.663692,0.103868,-0.580599,1.64544,0.647019,0.46347,0.218784
1888168,1,-1.55206,-0.509515,-0.015461,-2.11919,-0.00807238,1.60961,0.789832,-1.55053,-0.507558,-0.0175397,-2.12095,-0.0087548,1.61363,0.791034,0.550184,0.436472,-0.477649,-0.707187,-0.220911,1.19819,0.139602,0.595842,0.479148,-0.526765,-0.794704,-0.247458,1.27951,0.158015,-1.109,13.7216,-3.14264,4.51542,0.491045,1.19223,0.588877,-0.676608,0.0747534,-0.58738,1.66126,0.636034,0.474422,0.22708
1888169,1,-1.55149,-0.509071,-0.0159616,-2.11995,-0.00829371,1.61089,0.789983,-1.54993,-0.507072,-0.0180753,-2.12176,-0.00900588,1.61493,0.791194,0.555775,0.439249,-0.484193,-0.716194,-0.219903,1.22318,0.138816,0.605279,0.486638,-0.535572,-0.807194,-0.251079,1.2995,0.160342,-0.882862,13.67,-3.11487,4.41623,0.428789,0.986232,0.563242,-0.683313,0.0626308,-0.586099,1.66324,0.625163,0.483889,0.23532
1888170,1,-1.5509,-0.508618,-0.0164764,-2.1207,-0.00852465,1.61217,0.790137,-1.54931,-0.506578,-0.0186197,-2.12258,-0.00926047,1.61625,0.791357,0.564463,0.439973,-0.487795,-0.741323,-0.223616,1.23954,0.147332,0.61456,0.493815,-0.544429,-0.819684,-0.254592,1.31949,0.162635,-0.755909,13.7732,-3.21801,4.28928,0.355547,0.895594,0.544016,-0.685169,0.0719498,-0.580152,1.65102,0.614342,0.491643,0.243519
1888171,1,-1.55029,-0.508172,-0.017019,-2.12148,-0.00876793,1.61348,0.790305,-1.54869,-0.506077,-0.019173,-2.12341,-0.00951858,1.61759,0.791522,0.589203,0.444995,-0.51699,-0.754353,-0.229586,1.26349,0.152152,0.62384,0.500991,-0.553286,-0.832174,-0.258104,1.33948,0.164928,-0.831288,13.9755,-3.06726,4.26548,0.36104,0.761012,0.440561,-0.684681,0.104394,-0.571911,1.62944,0.603462,0.498058,0.251648
1888172,1,-1.54968,-0.507706,-0.0175583,-2.12227,-0.00902438,1.61484,0.790483,-1.54805,-0.505569,-0.0197351,-2.12425,-0.00978019,1.61895,0.791689,0.593539,0.446276,-0.51959,-0.762937,-0.238636,1.28851,0.162271,0.633121,0.508168,-0.562144,-0.844664,-0.261617,1.35947,0.167221,-0.859058,14.0747,-3.03949,4.21787,0.502947,0.534877,0.284922,-0.680447,0.16123,-0.557265,1.59819,0.592446,0.502724,0.259592
1888173,1,-1.54907,-0.507235,-0.0181126,-2.12307,-0.0092777,1.61615,0.790646,-1.54741,-0.505053,-0.0203061,-2.12511,-0.0100453,1.62033,0.791858,0.598969,0.462793,-0.526544,-0.776664,-0.242244,1.2985,0.168687,0.642401,0.515344,-0.571001,-0.857154,-0.26513,1.37946,0.169514,-0.755909,14.1263,-3.06726,4.31705,0.565202,0.676783,0.24647,-0.672915,0.237751,-0.537875,1.5565,0.581243,0.505011,0.267144
1888174,1,-1.54844,-0.506738,-0.0186613,-2.12387,-0.00953416,1.6175,0.790813,-1.54676,-0.504531,-0.020886,-2.12598,-0.010314,1.62173,0.79203,0.613869,0.472036,-0.53127,-0.78192,-0.249994,1.30631,0.168132,0.651681,0.522521,-0.579858,-0.869644,-0.268642,1.39945,0.171807,-0.78368,13.9239,-3.14264,4.14249,0.638445,0.902003,0.252878,-0.666328,0.315928,-0.521414,1.51125,0.569924,0.50523,0.274071
1888175,1,-1.5478,-0.506241,-0.0192283,-2.12469,-0.00979773,1.61888,0.790989,-1.5461,-0.504001,-0.0214747,-2.12686,-0.0105861,1.62315,0.792204,0.619849,0.477496,-0.540021,-0.793301,-0.252911,1.35586,0.168654,0.660962,0.529697,-0.588715,-0.882134,-0.272155,1.41944,0.1741,-0.882862,13.797,-3.06726,4.09092,0.654924,0.863551,0.240061,-0.664494,0.390233,-0.51351,1.46284,0.558586,0.503307,0.280184
1888176,1,-1.54716,-0.505746,-0.0197827,-2.12554,-0.0100483,1.62029,0.791155,-1.54543,-0.503464,-0.0220723,-2.12776,-0.0108618,1.62459,0.792381,0.621181,0.484201,-0.545219,-0.812494,-0.249836,1.36807,0.166334,0.670242,0.536873,-0.597572,-0.894624,-0.275668,1.43943,0.176393,-0.831288,13.7732,-3.26959,4.34085,0.513933,0.805873,0.304148,-0.665616,0.465125,-0.512344,1.40947,0.547561,0.499254,0.285361
1888177,1,-1.54651,-0.505247,-0.0203654,-2.1264,-0.0103027,1.62173,0.791335,-1.54475,-0.50292,-0.0226787,-2.12866,-0.011141,1.62605,0.792559,0.633174,0.491485,-0.551658,-0.826938,-0.25382,1.37899,0.171919,0.679523,0.54405,-0.606429,-0.907114,-0.279181,1.45942,0.178686,-0.859058,13.7732,-3.34497,4.53922,0.394914,0.657557,0.297739,-0.667483,0.537223,-0.515374,1.35724,0.537146,0.494288,0.289615
1888178,1,-1.54584,-0.504739,-0.020967,-2.12727,-0.0105672,1.62315,0.791541,-1.54406,-0.502369,-0.023294,-2.12958,-0.0114237,1.62753,0.79274,0.643535,0.500399,-0.566503,-0.843805,-0.255477,1.39475,0.181353,0.688803,0.551226,-0.615287,-0.919604,-0.282693,1.47941,0.180979,-0.882862,13.797,-3.24182,4.81296,0.36104,0.708827,0.162241,-0.670333,0.600669,-0.522038,1.31269,0.527253,0.489528,0.29308
1888179,1,-1.54519,-0.504228,-0.0215542,-2.12817,-0.0108312,1.6246,0.79173,-1.54336,-0.501811,-0.0239181,-2.13052,-0.0117099,1.62903,0.792924,0.651803,0.499844,-0.573252,-0.859489,-0.25669,1.40716,0.183265,0.698083,0.558403,-0.624144,-0.932094,-0.286206,1.4994,0.183272,-0.732105,13.7216,-3.34497,5.0867,0.321672,0.825099,0.149424,-0.672643,0.657403,-0.529019,1.277,0.51766,0.48524,0.29582
1888180,1,-1.54451,-0.503692,-0.0221614,-2.12907,-0.0111161,1.62608,0.791914,-1.54266,-0.501246,-0.0245511,-2.13146,-0.0119995,1.63055,0.793109,0.659217,0.506143,-0.580557,-0.86944,-0.265454,1.46146,0.181621,0.707093,0.564844,-0.632947,-0.944158,-0.289591,1.51835,0.185521,-0.605152,13.5708,-3.34497,5.16208,0.383928,0.914821,0.213511,-0.674006,0.719404,-0.535885,1.24401,0.508083,0.480684,0.297783
1888181,1,-1.5438,-0.503141,-0.0227913,-2.12998,-0.011394,1.62754,0.792087,-1.54194,-0.500674,-0.0251928,-2.13242,-0.0122924,1.63208,0.793297,0.667411,0.526262,-0.59437,-0.88253,-0.267174,1.46671,0.177418,0.716102,0.571285,-0.64175,-0.956222,-0.292977,1.53731,0.187769,-0.732105,13.3685,-3.14264,5.23349,0.440691,1.08236,0.375559,-0.673508,0.783029,-0.541702,1.21198,0.498457,0.475351,0.298966
1888182,1,-1.5431,-0.502592,-0.0234097,-2.13091,-0.011663,1.62906,0.792252,-1.54121,-0.500097,-0.0258434,-2.13339,-0.0125888,1.63364,0.793487,0.676993,0.534874,-0.603162,-0.892848,-0.26881,1.46943,0.170884,0.725111,0.577726,-0.650553,-0.968286,-0.296362,1.55626,0.190017,-0.882862,13.1384,-3.11487,5.23349,0.378435,1.108,0.641062,-0.668891,0.828245,-0.542757,1.18879,0.488942,0.470334,0.299574
1888183,1,-1.54239,-0.502031,-0.024027,-2.13184,-0.0119346,1.63055,0.792439,-1.54048,-0.499513,-0.0265027,-2.13437,-0.0128885,1.63522,0.793679,0.683729,0.539087,-0.603542,-0.901366,-0.26572,1.48295,0.174465,0.73412,0.584168,-0.659356,-0.98035,-0.299748,1.57521,0.192265,-0.807484,12.8885,-3.16644,5.18589,0.327165,1.30117,0.692331,-0.663013,0.855587,-0.542911,1.17418,0.479379,0.466429,0.300046
1888184,1,-1.54168,-0.501473,-0.0246558,-2.13279,-0.0122182,1.63209,0.792616,-1.53974,-0.498922,-0.0271709,-2.13536,-0.0131917,1.63681,0.793874,0.706713,0.540975,-0.612883,-0.91227,-0.270148,1.49684,0.175133,0.74313,0.590609,-0.668159,-0.992414,-0.303133,1.59417,0.194513,-0.680531,12.6584,-3.16644,5.0629,0.321672,1.37899,0.80311,-0.664242,0.884731,-0.553627,1.15831,0.469241,0.463292,0.300949
1888185,1,-1.54096,-0.500899,-0.0253081,-2.13375,-0.0125105,1.63367,0.792818,-1.53898,-0.498325,-0.0278479,-2.13636,-0.0134982,1.63842,0.794071,0.709689,0.548853,-0.623355,-0.926051,-0.277219,1.51468,0.183062,0.752139,0.59705,-0.676962,-1.00448,-0.306519,1.61312,0.196761,-0.557545,12.3053,-3.14264,5.03513,0.316179,1.35977,0.69874,-0.675813,0.926587,-0.578474,1.13635,0.458318,0.460869,0.302755
1888186,1,-1.54023,-0.500325,-0.0259701,-2.1347,-0.0128049,1.63525,0.793019,-1.53822,-0.497721,-0.0285336,-2.13738,-0.0138081,1.64005,0.79427,0.714073,0.56379,-0.637279,-0.931909,-0.285723,1.53276,0.186375,0.761148,0.603492,-0.685766,-1.01654,-0.309904,1.63207,0.199009,-0.402821,12.1029,-3.11487,4.81296,0.304277,1.23709,0.531199,-0.688862,0.973523,-0.605248,1.11092,0.447055,0.459529,0.305692
1888187,1,-1.53949,-0.499751,-0.0266385,-2.13568,-0.0130808,1.63685,0.793205,-1.53745,-0.497111,-0.0292282,-2.13841,-0.0141214,1.64171,0.794471,0.727575,0.56434,-0.649074,-0.944661,-0.285093,1.54559,0.18254,0.770157,0.609933,-0.694569,-1.02861,-0.313289,1.65103,0.201257,-0.529774,11.9284,-3.03949,4.81296,0.174272,1.2499,0.52479,-0.694585,1.01818,-0.622163,1.08329,0.435836,0.45929,0.309667
1888188,1,-1.53872,-0.499157,-0.0273176,-2.13667,-0.0133821,1.63846,0.793394,-1.53667,-0.496495,-0.0299316,-2.13945,-0.0144381,1.64338,0.794674,0.741294,0.569927,-0.655265,-0.975906,-0.289353,1.57079,0.184868,0.779167,0.616374,-0.703372,-1.04067,-0.316675,1.66998,0.203506,-0.732105,11.6229,-2.88873,4.93595,0.174272,1.19863,0.49824,-0.695457,1.06098,-0.632377,1.05709,0.424639,0.460499,0.31439
1888189,1,-1.53795,-0.498552,-0.0279885,-2.13768,-0.0136858,1.64011,0.793584,-1.53589,-0.495872,-0.0306437,-2.1405,-0.0147581,1.64506,0.79488,0.747578,0.591225,-0.670826,-0.985399,-0.293443,1.59028,0.18663,0.788176,0.622815,-0.712175,-1.05273,-0.32006,1.68893,0.205754,-0.78368,11.246,-2.9403,5.03513,0.191667,1.14736,0.472605,-0.695194,1.08695,-0.640478,1.04472,0.413525,0.464119,0.319577
1888190,1,-1.53718,-0.497938,-0.0286797,-2.1387,-0.0139984,1.64179,0.79377,-1.53509,-0.495244,-0.0313646,-2.14156,-0.0150814,1.64677,0.795088,0.757745,0.596739,-0.672767,-0.995201,-0.299058,1.6097,0.185406,0.796829,0.628049,-0.720835,-1.06374,-0.323307,1.70548,0.207948,-0.755909,11.0159,-2.91253,5.26126,0.287798,1.18582,0.504648,-0.693639,1.08128,-0.645922,1.05032,0.402517,0.469981,0.324993
1888191,1,-1.53639,-0.497317,-0.0293815,-2.13974,-0.0143111,1.64344,0.793966,-1.53428,-0.494611,-0.0320941,-2.14264,-0.015408,1.64849,0.795298,0.763184,0.611464,-0.678238,-1.01448,-0.302076,1.62168,0.191721,0.805482,0.633282,-0.729496,-1.07475,-0.326554,1.72203,0.210143,-0.807484,10.7382,-2.86493,5.55881,0.355547,1.34695,0.491831,-0.693958,1.04599,-0.653723,1.06968,0.391461,0.477322,0.330478
1888192,1,-1.53562,-0.496695,-0.0300756,-2.14081,-0.0146156,1.64513,0.794164,-1.53347,-0.493972,-0.0328322,-2.14373,-0.0157378,1.65023,0.795511,0.763917,0.615312,-0.685852,-1.02515,-0.299933,1.63697,0.195377,0.814135,0.638515,-0.738157,-1.08575,-0.329801,1.73857,0.212337,-0.680531,10.5636,-2.9403,5.90793,0.310686,1.48794,0.49824,-0.696669,0.986637,-0.665645,1.10111,0.380464,0.486034,0.335921
1888193,1,-1.53481,-0.496059,-0.0307956,-2.1419,-0.0149368,1.64687,0.794355,-1.53265,-0.493329,-0.033579,-2.14482,-0.0160708,1.65199,0.795725,0.770239,0.617153,-0.696886,-1.04305,-0.297956,1.69016,0.194944,0.822788,0.643749,-0.746817,-1.09676,-0.333047,1.75512,0.214531,-0.78368,10.2343,-2.86493,6.20548,0.259416,1.44308,0.588877,-0.696591,0.919587,-0.675166,1.13696,0.369766,0.495421,0.341194
1888194,1,-1.53399,-0.495423,-0.0315283,-2.14298,-0.0152554,1.64859,0.794552,-1.53182,-0.49268,-0.0343345,-2.14593,-0.0164071,1.65376,0.795942,0.778477,0.631353,-0.715165,-1.05617,-0.304296,1.69701,0.197268,0.831441,0.648982,-0.755478,-1.10777,-0.336294,1.77167,0.216726,-0.934437,9.90506,-2.7102,6.52683,0.276811,1.31491,0.621836,-0.688421,0.856309,-0.674217,1.17153,0.359577,0.504848,0.346241
1888195,1,-1.53319,-0.494798,-0.0322595,-2.14409,-0.01557,1.65035,0.794758,-1.53098,-0.492025,-0.0350987,-2.14705,-0.0167467,1.65555,0.796161,0.781182,0.628077,-0.716562,-1.06468,-0.305698,1.7162,0.199251,0.840093,0.654215,-0.764138,-1.11877,-0.339541,1.78821,0.21892,-0.807484,9.62735,-2.76178,6.89975,0.202654,1.14096,0.641062,-0.670492,0.799793,-0.659547,1.20333,0.349903,0.514242,0.351162
1888196,1,-1.53237,-0.494178,-0.0330131,-2.14518,-0.0158995,1.6521,0.794965,-1.53013,-0.491366,-0.0358715,-2.14818,-0.0170895,1.65735,0.796382,0.786158,0.63082,-0.719475,-1.07691,-0.313663,1.72767,0.205232,0.848746,0.659449,-0.772799,-1.12978,-0.342787,1.80476,0.221114,-0.708302,9.5242,-2.7102,7.05051,0.186174,1.08236,0.666697,-0.648112,0.765652,-0.639318,1.22482,0.340344,0.522887,0.356113
1888197,1,-1.53153,-0.493564,-0.0337674,-2.14629,-0.0162354,1.65394,0.795195,-1.52927,-0.490701,-0.0366529,-2.14932,-0.0174355,1.65917,0.796605,0.800244,0.623458,-0.725418,-1.08408,-0.318284,1.74738,0.216419,0.857399,0.664682,-0.781459,-1.14078,-0.346034,1.82131,0.223309,-0.859058,9.47659,-2.53564,7.09812,0.259416,0.64474,0.518381,-0.629459,0.772723,-0.625592,1.22743,0.330365,0.529686,0.36122
1888198,1,-1.53067,-0.492927,-0.0345302,-2.14742,-0.0165639,1.65575,0.795431,-1.5284,-0.490031,-0.037443,-2.15047,-0.0177848,1.66101,0.796831,0.812703,0.626131,-0.73214,-1.09053,-0.317587,1.75871,0.224105,0.866052,0.669915,-0.79012,-1.15179,-0.349281,1.83785,0.225503,-1.08519,9.34964,-2.50787,7.1735,0.24843,0.702418,0.362742,-0.620911,0.833362,-0.626315,1.20446,0.319502,0.533486,0.366491
1888199,1,-1.5298,-0.492274,-0.0352933,-2.14853,-0.0168899,1.65756,0.795652,-1.52753,-0.489356,-0.0382418,-2.15163,-0.0181373,1.66286,0.797058,0.82455,0.639326,-0.735752,-1.0997,-0.330161,1.77337,0.22122,0.874705,0.675149,-0.798781,-1.1628,-0.352528,1.8544,0.227698,-1.16057,8.99655,-2.6864,6.99894,0.236528,0.74087,0.316965,-0.626485,0.936341,-0.645516,1.15957,0.307676,0.533885,0.37176
1888200,1,-1.52893,-0.491603,-0.0360693,-2.14966,-0.0172353,1.65941,0.79589,-1.52665,-0.488677,-0.039049,-2.15281,-0.0184929,1.66473,0.797288,0.843476,0.64972,-0.747502,-1.10814,-0.334673,1.78983,0.225087,0.88294,0.678799,-0.807223,-1.17224,-0.355631,1.86786,0.22983,-1.38671,8.46494,-2.65863,6.95133,0.293291,0.69601,0.233652,-0.648104,1.05001,-0.683996,1.10673,0.295165,0.531596,0.376765
1888201,1,-1.52805,-0.49093,-0.03686,-2.15079,-0.0175836,1.66126,0.796127,-1.52575,-0.487995,-0.0398647,-2.15399,-0.0188517,1.66661,0.79752,0.858003,0.648821,-0.753153,-1.11537,-0.336149,1.81336,0.225951,0.891174,0.68245,-0.815666,-1.18169,-0.358735,1.88132,0.231963,-1.43828,8.06027,-2.65863,6.82438,0.310686,0.547694,0.200693,-0.686169,1.16043,-0.740615,1.05163,0.28214,0.526962,0.381213
1888202,1,-1.52718,-0.490261,-0.0376489,-2.15196,-0.0179121,1.66314,0.79636,-1.52485,-0.487309,-0.0406888,-2.15518,-0.0192135,1.66851,0.797754,0.877435,0.664852,-0.76353,-1.13443,-0.332368,1.82675,0.22875,0.899409,0.686101,-0.824109,-1.19114,-0.361838,1.89478,0.234096,-1.23595,7.70718,-2.61102,7.02671,0.186174,0.683192,0.240061,-0.740731,1.26303,-0.81439,0.997434,0.26874,0.520346,0.384855
1888203,1,-1.52629,-0.489565,-0.0384735,-2.15315,-0.0182595,1.66502,0.796614,-1.52395,-0.486619,-0.0415214,-2.15638,-0.0195784,1.67042,0.79799,0.877315,0.673212,-0.77385,-1.14437,-0.338567,1.83791,0.234096,0.907644,0.689752,-0.832552,-1.20059,-0.364942,1.90823,0.236229,-1.08519,7.17557,-2.33331,7.34806,0.186174,0.908412,0.187876,-0.806437,1.33982,-0.897963,0.955403,0.255383,0.513055,0.387554
1888204,1,-1.5254,-0.488871,-0.0393255,-2.15433,-0.0186157,1.6669,0.796862,-1.52303,-0.485926,-0.0423624,-2.15759,-0.0199465,1.67234,0.798229,0.879301,0.686194,-0.794926,-1.158,-0.345025,1.84674,0.237368,0.915879,0.693403,-0.840995,-1.21004,-0.368045,1.92169,0.238361,-0.882862,6.54477,-1.8493,7.79636,0.163286,1.14096,0.16865,-0.866722,1.37818,-0.970067,0.932669,0.242699,0.506265,0.389245
1888205,1,-1.52454,-0.488176,-0.0401516,-2.15555,-0.0189641,1.66882,0.797103,-1.52211,-0.485229,-0.0432118,-2.15881,-0.0203176,1.67427,0.798469,0.873076,0.68977,-0.800481,-1.1777,-0.344402,1.86106,0.23976,0.924113,0.697054,-0.849438,-1.21948,-0.371149,1.93515,0.240494,-0.303639,5.8624,-1.67474,8.49063,0.180681,1.17941,0.316965,-0.904863,1.37763,-1.00986,0.931255,0.231215,0.500961,0.389881
1888206,1,-1.52365,-0.487465,-0.0410051,-2.15677,-0.0193135,1.67073,0.797346,-1.52117,-0.484528,-0.0440697,-2.16004,-0.0206919,1.67622,0.798712,0.871305,0.692247,-0.813758,-1.21667,-0.347631,1.91257,0.239863,0.932348,0.700704,-0.85788,-1.22893,-0.374252,1.94861,0.242627,0.124828,5.0253,-1.39306,9.1373,0.186174,1.27554,0.485422,-0.914194,1.34132,-1.01063,0.956793,0.221309,0.498374,0.389525
1888207,1,-1.52273,-0.486748,-0.0418654,-2.158,-0.0196796,1.67268,0.79758,-1.52023,-0.483824,-0.044936,-2.16128,-0.0210692,1.67818,0.798957,0.878628,0.709886,-0.845194,-1.2194,-0.351518,1.91731,0.23693,0.940583,0.704355,-0.866323,-1.23838,-0.377356,1.96207,0.244759,0.251781,4.09299,-0.988401,9.58561,0.220049,1.34695,0.750925,-0.889645,1.26802,-0.966102,1.01412,0.213282,0.499226,0.388455
1888208,1,-1.52182,-0.486032,-0.0427421,-2.15923,-0.0200502,1.67462,0.797837,-1.51929,-0.483116,-0.0458108,-2.16252,-0.0214497,1.68016,0.799204,0.885454,0.71292,-0.854487,-1.22345,-0.358437,1.91649,0.239031,0.948817,0.708006,-0.874766,-1.24783,-0.380459,1.97553,0.246892,0.303356,3.48599,-0.734494,9.73636,0.253923,1.60421,0.77656,-0.829065,1.16229,-0.872222,1.09412,0.20686,0.502874,0.387206
1888209,1,-1.52089,-0.485321,-0.0436224,-2.16043,-0.0204261,1.67652,0.798094,-1.51833,-0.482404,-0.046694,-2.16378,-0.0218333,1.68215,0.799453,0.896886,0.723722,-0.852762,-1.22464,-0.359527,1.91282,0.244095,0.957052,0.711657,-0.883209,-1.25727,-0.383563,1.98898,0.249025,0.378734,3.05356,-0.710691,9.60941,0.293291,1.90725,0.712473,-0.747408,1.0422,-0.749818,1.17915,0.201046,0.508063,0.386476
1888210,1,-1.51996,-0.484616,-0.0445064,-2.16167,-0.0207993,1.6785,0.79835,-1.51736,-0.48169,-0.0475854,-2.16505,-0.0222198,1.68415,0.799704,0.912624,0.71256,-0.857239,-1.22856,-0.367567,1.91756,0.250743,0.964826,0.713606,-0.891374,-1.26494,-0.386519,1.99901,0.251088,0.32716,2.82742,-0.635312,9.46262,0.26491,1.9393,0.685923,-0.668617,0.933507,-0.632819,1.25261,0.194743,0.513793,0.386778
1888211,1,-1.51901,-0.483903,-0.0453917,-2.16293,-0.021185,1.6805,0.798626,-1.51639,-0.480975,-0.0484849,-2.16632,-0.0226093,1.68616,0.799957,0.922109,0.707927,-0.856195,-1.23803,-0.3683,1.97488,0.257024,0.9726,0.715555,-0.899538,-1.27261,-0.389476,2.00904,0.25315,0.275585,2.67667,-0.786069,9.53403,0.24843,1.79739,0.479014,-0.608437,0.869549,-0.543576,1.2971,0.187296,0.518714,0.388225
1888212,1,-1.51804,-0.483181,-0.0462956,-2.1642,-0.0215551,1.68252,0.798887,-1.51541,-0.480257,-0.0493926,-2.1676,-0.0230017,1.68818,0.800212,0.929892,0.718412,-0.870153,-1.24797,-0.367591,1.9909,0.261017,0.980374,0.717504,-0.907703,-1.28028,-0.392432,2.01907,0.255213,0.148632,2.52591,-0.964597,9.73636,0.174272,1.39822,0.414011,-0.569152,0.858081,-0.48542,1.30869,0.178746,0.522142,0.390608
1888213,1,-1.51707,-0.482457,-0.0472003,-2.16548,-0.0219364,1.68455,0.799151,-1.51442,-0.479538,-0.0503085,-2.16889,-0.0233971,1.6902,0.800469,0.944888,0.714278,-0.88737,-1.25261,-0.373676,1.99635,0.259474,0.988148,0.719453,-0.915868,-1.28795,-0.395389,2.0291,0.257276,-0.204456,2.09348,-0.988401,10.1569,0.140398,1.23068,0.330698,-0.542241,0.881981,-0.445365,1.29628,0.169493,0.524585,0.39351
1888214,1,-1.51608,-0.481716,-0.048123,-2.16678,-0.0223244,1.68653,0.79943,-1.51343,-0.478816,-0.0512325,-2.17018,-0.0237954,1.69224,0.800729,0.950525,0.732202,-0.891313,-1.26964,-0.373017,1.99444,0.2724,0.995922,0.721402,-0.924032,-1.29562,-0.398345,2.03913,0.259339,-0.454395,1.4111,-1.03998,10.7282,0.0900438,1.37258,0.129282,-0.52098,0.920812,-0.412612,1.2728,0.159816,0.526975,0.39651
1888215,1,-1.51513,-0.480981,-0.0490227,-2.16808,-0.0227213,1.68856,0.799698,-1.51242,-0.478093,-0.0521647,-2.17149,-0.0241967,1.69429,0.80099,0.955581,0.731589,-0.896715,-1.27292,-0.387495,1.99967,0.276156,1.0037,0.723351,-0.932197,-1.30329,-0.401302,2.04916,0.261401,-0.252064,0.629547,-1.24231,11.0535,0.180681,1.41104,0.071604,-0.505295,0.951595,-0.386892,1.25293,0.149858,0.530228,0.399224
1888216,1,-1.51415,-0.480246,-0.0499479,-2.16941,-0.0231312,1.69062,0.799968,-1.51141,-0.477368,-0.0531051,-2.1728,-0.024601,1.69635,0.801254,0.961324,0.733275,-0.900483,-1.28538,-0.393041,2.00937,0.275559,1.01147,0.7253,-0.940362,-1.31096,-0.404258,2.05918,0.263464,-0.101307,-0.080597,-1.29388,11.5494,0.293291,1.35336,0.0972387,-0.495827,0.972582,-0.370057,1.23909,0.139659,0.534182,0.40123
1888217,1,-1.51315,-0.479527,-0.0509002,-2.17072,-0.0235327,1.69272,0.800235,-1.51039,-0.476641,-0.0540536,-2.17412,-0.0250082,1.69842,0.801519,0.967973,0.735813,-0.912852,-1.29482,-0.40162,2.03435,0.278823,1.01924,0.727249,-0.948526,-1.31863,-0.407215,2.06921,0.265527,-0.0259286,-0.358307,-1.09155,11.9223,0.327165,0.721644,0.175059,-0.490725,0.991998,-0.3604,1.22821,0.1294,0.538179,0.402194
1888218,1,-1.51216,-0.478833,-0.0518392,-2.17204,-0.023925,1.69481,0.800504,-1.50937,-0.475911,-0.0550103,-2.17544,-0.0254184,1.7005,0.801787,0.97205,0.719976,-0.917419,-1.29927,-0.396823,2.03697,0.271053,1.02702,0.729199,-0.956691,-1.3263,-0.410172,2.07924,0.26759,-0.0259286,-0.405914,-0.940793,12.1445,0.24843,0.560511,0.284922,-0.486063,1.02472,-0.353299,1.21345,0.11929,0.541014,0.401992
1888219,1,-1.51115,-0.47812,-0.0528125,-2.17334,-0.0243263,1.69685,0.800791,-1.50833,-0.47518,-0.0559751,-2.17678,-0.0258315,1.70259,0.802056,0.977932,0.711555,-0.92954,-1.3011,-0.397357,2.04194,0.276401,1.03479,0.731148,-0.964856,-1.33396,-0.413128,2.08927,0.269653,-0.00212494,-0.509064,-0.710691,12.0215,0.270403,0.882777,0.240061,-0.478374,1.10217,-0.344956,1.17887,0.109184,0.540499,0.400723
1888220,1,-1.51016,-0.477416,-0.0537669,-2.17464,-0.0247373,1.69892,0.801081,-1.50729,-0.474449,-0.0569478,-2.17812,-0.0262474,1.70469,0.802328,1.00157,0.697052,-0.941637,-1.29133,-0.40369,2.03628,0.28076,1.04208,0.731437,-0.972692,-1.33982,-0.415935,2.09587,0.271635,0.251781,-0.608246,-0.583737,11.6724,0.327165,1.09518,0.175059,-0.468168,1.25072,-0.335324,1.1084,0.0986513,0.534643,0.398624
1888221,1,-1.50915,-0.476686,-0.0547255,-2.17597,-0.0251627,1.70105,0.801386,-1.50624,-0.473717,-0.0579283,-2.17946,-0.0266662,1.70679,0.802602,0.999062,0.709497,-0.946859,-1.30363,-0.406303,2.05858,0.28567,1.04937,0.731726,-0.980528,-1.34567,-0.418742,2.10247,0.273617,0.553295,-0.862152,-0.734494,11.6486,0.469072,0.882777,0.0322363,-0.458604,1.46453,-0.327127,1.00116,0.0875451,0.523322,0.395907
1888222,1,-1.50812,-0.47594,-0.0557192,-2.17729,-0.0255704,1.70316,0.801664,-1.50518,-0.472985,-0.0589167,-2.18081,-0.0270877,1.7089,0.802877,0.999615,0.728933,-0.959207,-1.3075,-0.406566,2.07663,0.282478,1.05666,0.732016,-0.988364,-1.35152,-0.421549,2.10907,0.275599,0.581066,-1.24301,-0.559934,11.4502,0.435198,0.748195,0.09083,-0.446103,1.68985,-0.315519,0.882149,0.0766084,0.508908,0.392624
1888223,1,-1.50707,-0.475196,-0.0566895,-2.17863,-0.0259767,1.70526,0.80196,-1.50412,-0.472253,-0.0599129,-2.18217,-0.0275121,1.71101,0.803155,1.0182,0.730941,-0.958552,-1.30967,-0.405367,2.07139,0.287993,1.06394,0.732305,-0.9962,-1.35738,-0.424356,2.11567,0.277581,0.303356,-1.82224,-0.532163,11.597,0.355547,0.973414,0.0972387,-0.430233,1.87759,-0.300166,0.774376,0.0664641,0.493549,0.388759
1888224,1,-1.50601,-0.474423,-0.0576851,-2.18,-0.0263824,1.70735,0.802259,-1.50305,-0.47152,-0.0609169,-2.18353,-0.0279393,1.71313,0.803434,1.03185,0.737726,-0.964511,-1.34755,-0.403791,2.1124,0.292282,1.07123,0.732595,-1.00404,-1.36323,-0.427163,2.12227,0.279564,0.0732535,-2.78232,-0.508359,11.9977,0.259416,1.19863,0.071604,-0.423341,2.01134,-0.296811,0.691255,0.0571071,0.478802,0.384391
1888225,1,-1.50495,-0.473657,-0.0586642,-2.18137,-0.0267909,1.70946,0.802575,-1.50197,-0.470787,-0.0619288,-2.1849,-0.0283692,1.71526,0.803716,1.03632,0.755952,-0.992738,-1.35746,-0.407302,2.10992,0.304496,1.07852,0.732884,-1.01187,-1.36908,-0.42997,2.12887,0.281546,-0.00212494,-3.79398,-0.659116,12.7436,0.270403,1.39181,-0.0648096,-0.425433,2.07022,-0.303335,0.652813,0.0488994,0.467181,0.379592
1888226,1,-1.5039,-0.472897,-0.0596527,-2.18275,-0.0272136,1.71161,0.802884,-1.50088,-0.470054,-0.0629485,-2.18628,-0.028802,1.7174,0.803999,1.03648,0.756959,-0.984572,-1.36197,-0.410028,2.11094,0.303533,1.08581,0.733173,-1.01971,-1.37494,-0.432777,2.13547,0.283528,0.0732535,-4.78183,-0.988401,13.5132,0.293291,1.48153,-0.077627,-0.42463,2.04654,-0.303094,0.663325,0.0420397,0.459942,0.374318
1888227,1,-1.50283,-0.472155,-0.060656,-2.18413,-0.0276331,1.71372,0.803178,-1.49979,-0.469321,-0.0639761,-2.18766,-0.0292376,1.71954,0.804285,1.045,0.761662,-0.986984,-1.37269,-0.41085,2.11333,0.30338,1.0931,0.733463,-1.02754,-1.38079,-0.435584,2.14208,0.28551,0.0732535,-5.33725,-1.24231,14.2353,0.276811,1.5978,0.038645,-0.42367,1.96346,-0.302157,0.707341,0.0359692,0.456393,0.368505
1888228,1,-1.50174,-0.471435,-0.0616717,-2.18552,-0.0280383,1.71583,0.803466,-1.49869,-0.468587,-0.0650114,-2.18904,-0.029676,1.72169,0.804572,1.06192,0.750519,-0.992934,-1.37408,-0.4133,2.09927,0.296693,1.10038,0.733752,-1.03538,-1.38664,-0.438391,2.14868,0.287492,-0.279835,-5.58719,-1.09155,14.7074,0.186174,1.88162,0.207102,-0.432511,1.85513,-0.315709,0.767238,0.0299763,0.45549,0.362179
1888229,1,-1.50065,-0.470692,-0.0627175,-2.18691,-0.0284486,1.71792,0.803755,-1.49758,-0.467853,-0.0660547,-2.19044,-0.0301172,1.72385,0.804862,1.0614,0.747096,-1.01029,-1.37771,-0.407928,2.09827,0.294692,1.10767,0.734042,-1.04322,-1.39249,-0.441198,2.15528,0.289475,-0.379017,-5.91647,-0.861447,14.8066,0.0442674,2.22219,0.427744,-0.448945,1.75846,-0.340976,0.82423,0.0235848,0.456086,0.355506
1888230,1,-1.49956,-0.469945,-0.06377,-2.18828,-0.0288579,1.72005,0.804033,-1.49647,-0.46712,-0.0671053,-2.19183,-0.030561,1.726,0.805153,1.06828,0.754858,-1.02188,-1.37844,-0.408748,2.10819,0.285824,1.11446,0.732909,-1.05068,-1.39671,-0.443852,2.15876,0.291366,-0.22826,-6.27353,-0.559934,14.755,0.00489977,2.37051,0.621836,-0.460659,1.68801,-0.360938,0.868368,0.016687,0.45766,0.348832
1888231,1,-1.49851,-0.469206,-0.0648099,-2.18967,-0.0292763,1.72223,0.804317,-1.49535,-0.466388,-0.0681635,-2.19323,-0.0310075,1.72817,0.805446,1.06419,0.747808,-1.03176,-1.37743,-0.411691,2.12084,0.280675,1.12125,0.731776,-1.05815,-1.40092,-0.446506,2.16225,0.293257,0.32716,-6.57504,-0.202878,14.7074,0.027788,2.17092,0.77656,-0.458586,1.64132,-0.362999,0.896618,0.00925727,0.46008,0.342692
1888232,1,-1.49744,-0.46845,-0.065865,-2.19108,-0.0297007,1.72437,0.804609,-1.49422,-0.465657,-0.0692291,-2.19464,-0.0314567,1.73033,0.805742,1.05279,0.745095,-1.03906,-1.38706,-0.410812,2.12944,0.281882,1.12803,0.730643,-1.06562,-1.40513,-0.44916,2.16574,0.295148,0.957958,-6.9559,0.0232571,15.1795,-0.0179884,1.96493,0.80311,-0.43603,1.62434,-0.339584,0.904919,0.00131658,0.463059,0.337653
1888233,1,-1.49635,-0.467705,-0.0669317,-2.19251,-0.0301232,1.72653,0.804909,-1.49308,-0.464928,-0.0703022,-2.19605,-0.0319085,1.7325,0.806039,1.06943,0.738927,-1.05561,-1.39584,-0.41265,2.13063,0.285513,1.13482,0.729511,-1.07309,-1.40934,-0.451814,2.16922,0.297039,1.05714,-7.30899,0.328738,15.6238,-0.00608656,1.87521,0.744517,-0.389995,1.63857,-0.287663,0.896493,-0.00702041,0.466825,0.334171
