shamilmamedov/beam_handling/data/param_estimation_ICRA/ocp_Xdown_35cm_0.57s_3.csv
duration, success rate, q[0], q[1], q[2], q[3], q[4], q[5], q[6],q_d[0], q_d[1], q_d[2], q_d[3], q_d[4], q_d[5], q_d[6],dq[0], dq[1], dq[2], dq[3], dq[4], dq[5], dq[6],dq_d[0], dq_d[1], dq_d[2], dq_d[3], dq_d[4], dq_d[5], dq_d[6],tau_J[0], tau_J[1], tau_J[2], tau_J[3], tau_J[4], tau_J[5], tau_J[6],tau_ext_hat_filtered[0], tau_ext_hat_filtered[1], tau_ext_hat_filtered[2], tau_ext_hat_filtered[3], tau_ext_hat_filtered[4], tau_ext_hat_filtered[5], tau_ext_hat_filtered[6]
3349481,0,-1.57102,-0.522831,-0.000670663,-2.09598,-1.57094,1.57159,0.785653,-1.5708,-0.523599,-4.60177e-08,-2.0944,-1.5708,1.5708,0.785399,-0.000460244,3.56323e-05,-0.00206888,0.000404257,7.38948e-05,-0.000376135,0.00131006,0,0,0,0,0,0,0,0.227978,-10.1654,1.08649,21.0709,-0.707381,-0.604955,-0.135305,0.197785,-1.03679,0.843131,2.53734,-0.139577,-0.615039,-0.14823
3349482,1,-1.57103,-0.522829,-0.000668992,-2.09598,-1.57094,1.57158,0.785651,-1.5708,-0.523599,-4.60177e-08,-2.0944,-1.5708,1.5708,0.785399,-0.000306829,0.000580567,-0.000822441,0.000269504,-0.000154187,-1.33976e-05,0.000161294,0,0,0,0,0,0,0,0.227978,-10.1892,1.06269,21.0709,-0.701887,-0.611364,-0.116079,0.199585,-1.03673,0.845386,2.53721,-0.13948,-0.61473,-0.148228
3349483,1,-1.57102,-0.522827,-0.000665373,-2.09598,-1.57094,1.57159,0.785647,-1.5708,-0.523599,-4.60177e-08,-2.0944,-1.5708,1.5708,0.785399,0.00100187,0.000387045,0.000658132,0.0013861,-0.000102792,0.000465786,-0.00107927,0,0,0,0,0,0,0,0.176403,-10.1892,1.01111,21.0193,-0.701887,-0.624181,-0.0840357,0.201596,-1.03723,0.848054,2.53704,-0.139385,-0.614401,-0.148265
3349484,1,-1.57102,-0.522829,-0.000667043,-2.09598,-1.57094,1.57159,0.785646,-1.5708,-0.523599,-4.60177e-08,-2.0944,-1.5708,1.5708,0.785399,0.000111103,0.00025803,-0.000118057,-0.00139599,0.000134923,-0.000164194,-0.000956869,0,0,0,0,0,0,0,0.200207,-10.1892,1.03491,21.1185,-0.707381,-0.611364,-0.077627,0.202194,-1.03831,0.848714,2.53708,-0.139344,-0.614297,-0.148337
3349485,1,-1.57102,-0.522833,-0.000667043,-2.09598,-1.57094,1.57159,0.785651,-1.5708,-0.523599,-4.60177e-08,-2.0944,-1.5708,1.5708,0.785399,0.000630881,-0.00103441,-7.87049e-05,0.000182967,-0.000113502,-0.000109463,0.0010236,0,0,0,0,0,0,0,0.176403,-10.1377,1.03491,21.0709,-0.701887,-0.611364,-0.122488,0.201997,-1.03926,0.848278,2.53761,-0.139356,-0.614306,-0.148404
3349486,1,-1.57103,-0.522831,-0.000667043,-2.09598,-1.57094,1.57159,0.785652,-1.5708,-0.523599,-4.60177e-08,-2.0944,-1.5708,1.5708,0.785399,-0.00134265,-3.99901e-05,-5.247e-05,-0.000434834,0.000127783,0.000401743,0.000919759,0,0,0,0,0,0,0,0.251781,-10.1654,1.03491,21.0947,-0.707381,-0.624181,-0.128897,0.20198,-1.03885,0.848093,2.53791,-0.139369,-0.61427,-0.148448
3349487,1,-1.57102,-0.522829,-0.000667043,-2.09598,-1.57094,1.57159,0.78565,-1.5708,-0.523599,-4.60177e-08,-2.0944,-1.5708,1.5708,0.785399,0.000311326,0.000530152,-3.498e-05,0.000266922,-0.000321713,3.04696e-05,-9.89043e-05,0,0,0,0,0,0,0,0.200207,-10.1892,1.03491,21.0709,-0.696394,-0.617772,-0.10967,0.202397,-1.03829,0.848494,2.53815,-0.139374,-0.614176,-0.148494
3349488,1,-1.57102,-0.522831,-0.000667043,-2.09598,-1.57094,1.57159,0.785647,-1.5708,-0.523599,-4.60177e-08,-2.0944,-1.5708,1.5708,0.785399,0.00020755,-0.000852991,-2.332e-05,-0.000378864,-1.10246e-05,-0.000217046,-0.00101537,0,0,0,0,0,0,0,0.200207,-10.1377,1.03491,21.0947,-0.701887,-0.611364,-0.0840357,0.202762,-1.03821,0.848858,2.53854,-0.139384,-0.614109,-0.148571
3349489,1,-1.57102,-0.522827,-0.000663424,-2.09598,-1.57094,1.57159,0.785648,-1.5708,-0.523599,-4.60177e-08,-2.0944,-1.5708,1.5708,0.785399,0.000695179,0.00119458,0.00119088,-0.000809388,-7.34973e-06,9.26617e-05,-0.000439556,0,0,0,0,0,0,0,0.176403,-10.213,0.98334,21.1185,-0.701887,-0.617772,-0.0904444,0.202317,-1.03865,0.848118,2.53932,-0.139424,-0.614178,-0.148667
3349490,1,-1.57102,-0.522831,-0.000667043,-2.09597,-1.57094,1.57159,0.78565,-1.5708,-0.523599,-4.60177e-08,-2.0944,-1.5708,1.5708,0.785399,0.000463453,-0.000317239,-0.000412506,0.00178046,-4.89982e-06,-0.000175584,0.00041904,0,0,0,0,0,0,0,0.176403,-10.1654,1.03491,21.0193,-0.701887,-0.611364,-0.10967,0.201049,-1.0399,0.846261,2.54031,-0.139484,-0.614383,-0.14875
3349491,1,-1.57102,-0.522831,-0.000665373,-2.09598,-1.57094,1.57159,0.785653,-1.5708,-0.523599,-4.60177e-08,-2.0944,-1.5708,1.5708,0.785399,-0.000247844,-0.000211493,0.000281808,-1.94539e-05,-3.26655e-06,0.000120303,0.0012288,0,0,0,0,0,0,0,0.200207,-10.1654,1.01111,21.0709,-0.701887,-0.617772,-0.135305,0.199921,-1.03991,0.844662,2.54009,-0.139484,-0.614553,-0.148814
3349492,1,-1.57102,-0.522831,-0.000663424,-2.09598,-1.57094,1.57159,0.785649,-1.5708,-0.523599,-4.60177e-08,-2.0944,-1.5708,1.5708,0.785399,0.000391583,-0.000140995,0.000837486,-0.000569781,0.000201273,8.02018e-05,-0.000604957,0,0,0,0,0,0,0,0.176403,-10.1654,0.98334,21.0947,-0.707381,-0.617772,-0.0968531,0.19906,-1.03882,0.843436,2.53933,-0.139453,-0.614665,-0.148878
3349493,1,-1.57103,-0.522829,-0.000665373,-2.09598,-1.57094,1.57158,0.785646,-1.5708,-0.523599,-4.60177e-08,-2.0944,-1.5708,1.5708,0.785399,-0.000945371,0.000462815,-9.12901e-05,0.000826572,0.000337632,-0.000183891,-0.00111538,0,0,0,0,0,0,0,0.227978,-10.1892,1.01111,21.0431,-0.712874,-0.611364,-0.077627,0.198306,-1.03832,0.842315,2.5391,-0.139441,-0.61476,-0.14896
3349494,1,-1.57102,-0.522829,-0.000668992,-2.09598,-1.57094,1.57159,0.785646,-1.5708,-0.523599,-4.60177e-08,-2.0944,-1.5708,1.5708,0.785399,1.93669e-05,0.000308543,-0.00126729,0.000551048,-0.000588714,0.000114765,-0.000743587,0,0,0,0,0,0,0,0.200207,-10.1892,1.06269,21.0431,-0.690901,-0.617772,-0.077627,0.198594,-1.03839,0.842727,2.53889,-0.139401,-0.614702,-0.149045
3349495,1,-1.57102,-0.522831,-0.000668992,-2.09598,-1.57094,1.57159,0.785649,-1.5708,-0.523599,-4.60177e-08,-2.0944,-1.5708,1.5708,0.785399,1.29112e-05,-0.000351116,-0.000844857,-0.000839061,0.000217876,0.000313869,0.000453711,0,0,0,0,0,0,0,0.200207,-10.1654,1.06269,21.0947,-0.707381,-0.624181,-0.103262,0.200103,-1.0387,0.845065,2.53875,-0.139331,-0.614464,-0.149092
3349496,1,-1.57102,-0.522829,-0.000667043,-2.09598,-1.57094,1.57159,0.785653,-1.5708,-0.523599,-4.60177e-08,-2.0944,-1.5708,1.5708,0.785399,8.60749e-06,-0.000234078,8.63757e-05,-2.56183e-06,0.00014525,-2.8113e-05,0.00148927,0,0,0,0,0,0,0,0.200207,-10.1654,1.03491,21.0709,-0.707381,-0.617772,-0.135305,0.201797,-1.03885,0.847798,2.53894,-0.139274,-0.614197,-0.149085
3349497,1,-1.57103,-0.52283,-0.000663424,-2.09598,-1.57094,1.57159,0.785652,-1.5708,-0.523599,-4.60177e-08,-2.0944,-1.5708,1.5708,0.785399,-0.000643876,-0.000156052,0.00126401,0.000647906,9.68336e-05,-0.000256101,0.000755487,0,0,0,0,0,0,0,0.227978,-10.1654,0.98334,21.0431,-0.707381,-0.611364,-0.128897,0.202683,-1.03832,0.84925,2.53886,-0.139242,-0.614058,-0.149056
3349498,1,-1.57102,-0.522829,-0.000665373,-2.09598,-1.57094,1.57159,0.78565,-1.5708,-0.523599,-4.60177e-08,-2.0944,-1.5708,1.5708,0.785399,0.00142679,0.000452777,0.000193059,-0.000774489,-0.000138895,0.000303984,-0.000208419,0,0,0,0,0,0,0,0.148632,-10.1892,1.01111,21.0947,-0.701887,-0.624181,-0.10967,0.202281,-1.03788,0.848703,2.53867,-0.139255,-0.614128,-0.149055
3349499,1,-1.57102,-0.522831,-0.000665373,-2.09598,-1.57094,1.57159,0.785646,-1.5708,-0.523599,-4.60177e-08,-2.0944,-1.5708,1.5708,0.785399,-0.000255233,-0.000904574,0.000128706,-0.000516326,0.000314305,-0.00074678,-0.00132574,0,0,0,0,0,0,0,0.200207,-10.1377,1.01111,21.0947,-0.712874,-0.598546,-0.077627,0.201075,-1.03814,0.847045,2.53906,-0.139319,-0.614326,-0.149106
3349500,1,-1.57102,-0.52283,-0.000663424,-2.09598,-1.57094,1.57159,0.78565,-1.5708,-0.523599,-4.60177e-08,-2.0944,-1.5708,1.5708,0.785399,-0.000170155,4.65644e-05,0.000735418,-0.000901029,0.000209536,0.000451583,0.000302968,0,0,0,0,0,0,0,0.200207,-10.1654,0.98334,21.1185,-0.712874,-0.624181,-0.10967,0.199943,-1.0383,0.845486,2.53983,-0.139405,-0.614497,-0.149186
3349501,1,-1.57102,-0.522831,-0.000665373,-2.09598,-1.57094,1.57159,0.785654,-1.5708,-0.523599,-4.60177e-08,-2.0944,-1.5708,1.5708,0.785399,-0.000113437,3.1043e-05,-0.000159335,0.000512938,-0.00026721,0.000301055,0.00138877,0,0,0,0,0,0,0,0.200207,-10.1654,1.01111,21.0709,-0.701887,-0.624181,-0.141714,0.199129,-1.03847,0.844305,2.54066,-0.139495,-0.614616,-0.149264
3349502,1,-1.57102,-0.522831,-0.000667043,-2.09598,-1.57094,1.57159,0.78565,-1.5708,-0.523599,-4.60177e-08,-2.0944,-1.5708,1.5708,0.785399,-7.56246e-05,-0.000628919,-0.000663035,0.000991573,-0.00017814,-3.66556e-05,-0.000260946,0,0,0,0,0,0,0,0.200207,-10.1377,1.03491,21.0431,-0.701887,-0.617772,-0.10967,0.198955,-1.03786,0.844047,2.5406,-0.13954,-0.614639,-0.149352
3349503,1,-1.57102,-0.522829,-0.000667043,-2.09598,-1.57094,1.57159,0.785646,-1.5708,-0.523599,-4.60177e-08,-2.0944,-1.5708,1.5708,0.785399,-5.04164e-05,0.000787147,-0.000442024,0.000661048,-0.00011876,-0.000499155,-0.00136076,0,0,0,0,0,0,0,0.200207,-10.1892,1.03491,21.0431,-0.701887,-0.604955,-0.077627,0.199628,-1.03627,0.845065,2.53941,-0.139514,-0.614534,-0.149479
3349504,1,-1.57103,-0.522833,-0.000667043,-2.09598,-1.57094,1.57158,0.785649,-1.5708,-0.523599,-4.60177e-08,-2.0944,-1.5708,1.5708,0.785399,-0.000683225,-0.000681661,-0.000294682,0.000440699,0.000327728,-9.5411e-05,-0.000195096,0,0,0,0,0,0,0,0.227978,-10.1377,1.03491,21.0431,-0.712874,-0.611364,-0.0968531,0.200833,-1.03487,0.846873,2.53802,-0.13946,-0.61435,-0.149627
3349505,1,-1.57102,-0.522826,-0.000665373,-2.09598,-1.57094,1.57158,0.785647,-1.5708,-0.523599,-4.60177e-08,-2.0944,-1.5708,1.5708,0.785399,0.000194131,0.0013088,0.000360357,-0.000912627,-0.000595317,-6.36073e-05,-0.000604782,0,0,0,0,0,0,0,0.200207,-10.213,1.01111,21.0947,-0.690901,-0.611364,-0.0840357,0.201988,-1.03472,0.848577,2.53743,-0.13944,-0.61418,-0.14975
3349506,1,-1.57102,-0.522829,-0.000668992,-2.09598,-1.57094,1.57159,0.785653,-1.5708,-0.523599,-4.60177e-08,-2.0944,-1.5708,1.5708,0.785399,0.00133585,0.000315719,-0.000966188,-5.16058e-05,0.000213474,-4.24049e-05,0.00149568,0,0,0,0,0,0,0,0.148632,-10.1892,1.06269,21.0709,-0.707381,-0.611364,-0.135305,0.20246,-1.03709,0.849423,2.53848,-0.139499,-0.614128,-0.149821
3349507,1,-1.57102,-0.522829,-0.000667043,-2.09598,-1.57094,1.57159,0.785649,-1.5708,-0.523599,-4.60177e-08,-2.0944,-1.5708,1.5708,0.785399,0.00024095,0.00021048,5.48868e-06,0.00117202,0.000142316,-0.000265629,-0.000427031,0,0,0,0,0,0,0,0.176403,-10.1892,1.03491,21.0193,-0.707381,-0.604955,-0.0968531,0.202331,-1.04016,0.84963,2.5398,-0.139574,-0.614156,-0.149859
3349508,1,-1.57102,-0.522833,-0.000667043,-2.09598,-1.57094,1.57159,0.785646,-1.5708,-0.523599,-4.60177e-08,-2.0944,-1.5708,1.5708,0.785399,-0.000396178,-0.00106611,3.65912e-06,-0.000425078,-0.000108573,6.0273e-05,-0.00123412,0,0,0,0,0,0,0,0.200207,-10.1377,1.03491,21.0709,-0.701887,-0.611364,-0.0712183,0.202076,-1.04101,0.849679,2.53979,-0.139597,-0.614152,-0.149899
3349509,1,-1.57103,-0.522831,-0.000670663,-2.09598,-1.57094,1.57159,0.785645,-1.5708,-0.523599,-4.60177e-08,-2.0944,-1.5708,1.5708,0.785399,-0.000913733,-6.11235e-05,-0.00120399,-0.000840197,-7.23822e-05,0.0005149,-0.00106011,0,0,0,0,0,0,0,0.227978,-10.1654,1.08649,21.0947,-0.701887,-0.624181,-0.0648096,0.20244,-1.04007,0.850557,2.53927,-0.139584,-0.61401,-0.149927
3349510,1,-1.57102,-0.522829,-0.000667043,-2.09598,-1.57094,1.57159,0.785651,-1.5708,-0.523599,-4.60177e-08,-2.0944,-1.5708,1.5708,0.785399,0.000597271,0.000516063,0.000403768,-3.31952e-06,0.000155196,0.000343267,0.00142949,0,0,0,0,0,0,0,0.176403,-10.1892,1.03491,21.0709,-0.707381,-0.624181,-0.122488,0.203321,-1.03971,0.852242,2.53946,-0.13958,-0.613789,-0.149897
3349511,1,-1.57102,-0.522831,-0.000660083,-2.09598,-1.57094,1.57159,0.785652,-1.5708,-0.523599,-4.60177e-08,-2.0944,-1.5708,1.5708,0.785399,-0.000158632,-0.00021277,0.00258923,-0.000559025,0.000306914,-0.000483232,0.00119035,0,0,0,0,0,0,0,0.200207,-10.1654,0.935733,21.0947,-0.712874,-0.604955,-0.128897,0.202865,-1.04054,0.851951,2.54023,-0.13964,-0.613797,-0.1498
3349512,1,-1.57102,-0.522829,-0.000668992,-2.09598,-1.57094,1.57159,0.785649,-1.5708,-0.523599,-4.60177e-08,-2.0944,-1.5708,1.5708,0.785399,0.000451058,0.000414965,-0.00124351,-0.000372683,-0.000202291,-8.4796e-05,-0.000393226,0,0,0,0,0,0,0,0.176403,-10.1892,1.06269,21.0947,-0.701887,-0.611364,-0.0968531,0.20101,-1.04179,0.849514,2.54123,-0.139759,-0.614031,-0.149686
3349513,1,-1.57103,-0.522833,-0.000667043,-2.09598,-1.57094,1.57159,0.785646,-1.5708,-0.523599,-4.60177e-08,-2.0944,-1.5708,1.5708,0.785399,-0.000905721,-0.000929782,-0.000179394,0.00151478,0.00027204,-5.65307e-05,-0.000974227,0,0,0,0,0,0,0,0.227978,-10.1377,1.03491,21.0193,-0.712874,-0.611364,-0.077627,0.19995,-1.04202,0.848259,2.5415,-0.139828,-0.614131,-0.149599
3349514,1,-1.57102,-0.522831,-0.000661754,-2.09598,-1.57094,1.57159,0.785646,-1.5708,-0.523599,-4.60177e-08,-2.0944,-1.5708,1.5708,0.785399,4.58001e-05,2.9759e-05,0.00164364,-0.00131019,0.00018136,0.000437031,-0.000649485,0,0,0,0,0,0,0,0.200207,-10.1654,0.959536,21.1185,-0.712874,-0.624181,-0.077627,0.199609,-1.0405,0.847959,2.54061,-0.139837,-0.614104,-0.149531
3349515,1,-1.57102,-0.522829,-0.000668992,-2.09598,-1.57094,1.57159,0.785646,-1.5708,-0.523599,-4.60177e-08,-2.0944,-1.5708,1.5708,0.785399,0.000587345,0.000576651,-0.00131709,-0.000316651,-8.25438e-05,5.39949e-05,-0.000670349,0,0,0,0,0,0,0,0.176403,-10.1892,1.06269,21.0947,-0.707381,-0.617772,-0.0712183,0.198925,-1.03984,0.847105,2.54042,-0.139894,-0.614144,-0.149439
3349516,1,-1.57102,-0.522833,-0.000668992,-2.09598,-1.57094,1.57159,0.785651,-1.5708,-0.523599,-4.60177e-08,-2.0944,-1.5708,1.5708,0.785399,-0.000165248,-0.000821992,-0.00087806,0.00155214,-0.00046193,3.59966e-05,0.00145197,0,0,0,0,0,0,0,0.200207,-10.1377,1.06269,21.0193,-0.696394,-0.617772,-0.122488,0.198839,-1.03987,0.847294,2.54052,-0.139951,-0.614112,-0.149294
3349517,1,-1.57102,-0.522833,-0.000665373,-2.09598,-1.57094,1.57159,0.78565,-1.5708,-0.523599,-4.60177e-08,-2.0944,-1.5708,1.5708,0.785399,-0.000110166,-0.000547994,0.000621052,-0.000171668,9.89475e-05,0.000261357,0.000493264,0,0,0,0,0,0,0,0.200207,-10.1377,1.01111,21.0709,-0.707381,-0.624181,-0.10967,0.199481,-1.03779,0.848577,2.53913,-0.139934,-0.613966,-0.149113
3349518,1,-1.57103,-0.522828,-0.000667043,-2.09598,-1.57094,1.57158,0.785651,-1.5708,-0.523599,-4.60177e-08,-2.0944,-1.5708,1.5708,0.785399,-0.000723058,0.00139791,-0.000142777,-0.000671257,-0.000137485,-0.00030048,0.000566201,0,0,0,0,0,0,0,0.227978,-10.213,1.03491,21.0947,-0.701887,-0.611364,-0.116079,0.199991,-1.03614,0.84957,2.53803,-0.139934,-0.613863,-0.148926
3349519,1,-1.57102,-0.522831,-0.000663424,-2.09598,-1.57094,1.57159,0.785644,-1.5708,-0.523599,-4.60177e-08,-2.0944,-1.5708,1.5708,0.785399,0.001374,-0.000181685,0.00111124,0.000758921,-9.1657e-05,-0.00020032,-0.00175876,0,0,0,0,0,0,0,0.148632,-10.1654,0.98334,21.0431,-0.701887,-0.611364,-0.0584009,0.199841,-1.03721,0.849578,2.53841,-0.140003,-0.613905,-0.148761
3349520,1,-1.57102,-0.522829,-0.000665373,-2.09598,-1.57094,1.57159,0.785647,-1.5708,-0.523599,-4.60177e-08,-2.0944,-1.5708,1.5708,0.785399,0.000266387,0.000435689,9.12135e-05,-0.000143667,-6.11047e-05,0.000103812,-0.000223073,0,0,0,0,0,0,0,0.176403,-10.1892,1.01111,21.0709,-0.701887,-0.617772,-0.0840357,0.198593,-1.03882,0.848012,2.53893,-0.140093,-0.614122,-0.148619
3349521,1,-1.57103,-0.522827,-0.000659623,-2.09598,-1.57094,1.57159,0.785644,-1.5708,-0.523599,-4.60177e-08,-2.0944,-1.5708,1.5708,0.785399,-0.00158565,0.000290459,0.00126723,-0.00065259,-0.000447637,-0.000168151,-0.00109815,0,0,0,0,0,0,0,0.251781,-10.1892,0.959536,21.0947,-0.690901,-0.611364,-0.0584009,0.197123,-1.04054,0.846022,2.53958,-0.140183,-0.614369,-0.14846
3349522,1,-1.57102,-0.52283,-0.000664663,-2.09598,-1.57094,1.57159,0.785654,-1.5708,-0.523599,-4.60177e-08,-2.0944,-1.5708,1.5708,0.785399,0.000149328,-0.000363173,-0.000361603,-0.00043506,0.000515377,-0.000112101,0.00235357,0,0,0,0,0,0,0,0.200207,-10.1654,1.01111,21.0947,-0.712874,-0.611364,-0.141714,0.196411,-1.04246,0.844899,2.54072,-0.140259,-0.6145,-0.14825
3349523,1,-1.57102,-0.522831,-0.000665136,-2.09598,-1.57094,1.57159,0.785649,-1.5708,-0.523599,-4.60177e-08,-2.0944,-1.5708,1.5708,0.785399,0.000656364,-0.000242115,-0.000241068,0.000916386,0.000140134,0.000399984,-9.24689e-05,0,0,0,0,0,0,0,0.176403,-10.1654,1.01111,21.0431,-0.707381,-0.624181,-0.0968531,0.196269,-1.04301,0.844535,2.54125,-0.140283,-0.614523,-0.148007
3349524,1,-1.57102,-0.522831,-0.000663345,-2.09598,-1.57094,1.57159,0.785646,-1.5708,-0.523599,-4.60177e-08,-2.0944,-1.5708,1.5708,0.785399,0.000437576,-0.00016141,0.000488902,0.000610924,0.000296873,-0.000208062,-0.000773723,0,0,0,0,0,0,0,0.176403,-10.1654,0.98334,21.0431,-0.712874,-0.611364,-0.077627,0.196069,-1.04173,0.844134,2.54043,-0.140246,-0.614533,-0.147785
3349525,1,-1.57102,-0.522833,-0.000665346,-2.09598,-1.57094,1.57159,0.785649,-1.5708,-0.523599,-4.60177e-08,-2.0944,-1.5708,1.5708,0.785399,-0.000265095,-0.000757221,-0.000323679,-0.000242331,-5.53497e-06,9.86511e-05,0.000196262,0,0,0,0,0,0,0,0.200207,-10.1377,1.01111,21.0709,-0.707381,-0.617772,-0.0968531,0.195778,-1.0393,0.843568,2.53885,-0.140186,-0.614542,-0.14759
3349526,1,-1.57102,-0.522829,-0.000663415,-2.09598,-1.57094,1.57158,0.785649,-1.5708,-0.523599,-4.60177e-08,-2.0944,-1.5708,1.5708,0.785399,0.000380082,0.000701612,0.000433828,-0.000718366,-0.000410591,-0.000171592,0.0003682,0,0,0,0,0,0,0,0.176403,-10.1892,0.98334,21.0947,-0.696394,-0.611364,-0.103262,0.1957,-1.03743,0.843285,2.53786,-0.140157,-0.61452,-0.147397
3349527,1,-1.57103,-0.522831,-0.00066537,-2.09598,-1.57094,1.57159,0.785654,-1.5708,-0.523599,-4.60177e-08,-2.0944,-1.5708,1.5708,0.785399,-0.000953038,-8.90705e-05,-0.000360396,0.000727515,0.000336624,-0.000114394,0.00166962,0,0,0,0,0,0,0,0.227978,-10.1654,1.01111,21.0431,-0.712874,-0.611364,-0.141714,0.195912,-1.03724,0.843409,2.53785,-0.140166,-0.61447,-0.147204
3349528,1,-1.57102,-0.522829,-0.000665372,-2.09598,-1.57094,1.57159,0.785649,-1.5708,-0.523599,-4.60177e-08,-2.0944,-1.5708,1.5708,0.785399,1.42555e-05,-5.93804e-05,-0.000240264,-0.000721416,2.09656e-05,0.000398455,-0.000311073,0,0,0,0,0,0,0,0.200207,-10.1654,1.01111,21.0947,-0.707381,-0.624181,-0.103262,0.196693,-1.0376,0.844302,2.53806,-0.140172,-0.614339,-0.147045
3349529,1,-1.57102,-0.52283,-0.000667043,-2.09598,-1.57094,1.57159,0.785651,-1.5708,-0.523599,-4.60177e-08,-2.0944,-1.5708,1.5708,0.785399,0.000566316,-3.95869e-05,-0.000716988,-0.00103776,0.000217428,2.82777e-05,0.000504695,0,0,0,0,0,0,0,0.176403,-10.1654,1.03491,21.1185,-0.712874,-0.617772,-0.122488,0.197753,-1.03831,0.845646,2.53875,-0.140193,-0.614168,-0.146952
3349530,1,-1.57102,-0.522831,-0.000665373,-2.09598,-1.57094,1.57159,0.785646,-1.5708,-0.523599,-4.60177e-08,-2.0944,-1.5708,1.5708,0.785399,0.000377544,-2.63913e-05,7.88201e-05,0.000421787,-0.0004654,-0.000218507,-0.00132505,0,0,0,0,0,0,0,0.176403,-10.1654,1.01111,21.0709,-0.696394,-0.611364,-0.077627,0.198495,-1.03944,0.84666,2.53991,-0.140246,-0.614051,-0.14693
3349531,1,-1.57102,-0.522833,-0.000668992,-2.09598,-1.57094,1.57159,0.785647,-1.5708,-0.523599,-4.60177e-08,-2.0944,-1.5708,1.5708,0.785399,0.000251696,-0.000667208,-0.00115388,0.000930805,-0.000310267,9.16875e-05,-0.000646007,0,0,0,0,0,0,0,0.176403,-10.1377,1.06269,21.0431,-0.696394,-0.617772,-0.0840357,0.199042,-1.03924,0.847478,2.54005,-0.140262,-0.613951,-0.146963
3349532,1,-1.57102,-0.522834,-0.000668992,-2.09598,-1.57094,1.57159,0.785653,-1.5708,-0.523599,-4.60177e-08,-2.0944,-1.5708,1.5708,0.785399,-0.000389015,-0.00155843,-0.000769253,-0.0011427,-0.000410295,6.1125e-05,0.0014682,0,0,0,0,0,0,0,0.200207,-10.0901,1.06269,21.1185,-0.690901,-0.617772,-0.135305,0.200029,-1.03655,0.849007,2.53879,-0.140201,-0.613757,-0.147012
3349533,1,-1.57103,-0.522827,-0.000665373,-2.09597,-1.57094,1.57159,0.785651,-1.5708,-0.523599,-4.60177e-08,-2.0944,-1.5708,1.5708,0.785399,-0.000908957,0.00183791,0.000693591,0.00155825,-0.00027353,4.075e-05,0.000504082,0,0,0,0,0,0,0,0.227978,-10.213,1.01111,21.0193,-0.690901,-0.617772,-0.122488,0.201293,-1.03361,0.850944,2.53746,-0.140111,-0.613522,-0.147056
3349534,1,-1.57102,-0.522833,-0.000667043,-2.09598,-1.57094,1.57159,0.785651,-1.5708,-0.523599,-4.60177e-08,-2.0944,-1.5708,1.5708,0.785399,0.000600454,-0.000537965,-9.44181e-05,-0.000167593,0.000427998,-0.000210192,0.000336055,0,0,0,0,0,0,0,0.176403,-10.1377,1.03491,21.0709,-0.707381,-0.611364,-0.122488,0.201918,-1.03284,0.851923,2.53679,-0.140036,-0.613424,-0.147122
3349535,1,-1.57103,-0.522831,-0.000667043,-2.09598,-1.57094,1.57158,0.785646,-1.5708,-0.523599,-4.60177e-08,-2.0944,-1.5708,1.5708,0.785399,-0.000806123,0.00029097,-6.29454e-05,0.000537885,0.000285332,-0.000377487,-0.00167484,0,0,0,0,0,0,0,0.227978,-10.1654,1.03491,21.0431,-0.707381,-0.604955,-0.0712183,0.201955,-1.03296,0.852061,2.53637,-0.139961,-0.613426,-0.147238
3349536,1,-1.57102,-0.522833,-0.000667043,-2.09598,-1.57094,1.57159,0.78565,-1.5708,-0.523599,-4.60177e-08,-2.0944,-1.5708,1.5708,0.785399,0.000669011,-0.000455634,-4.19636e-05,0.00035859,0.000190221,-1.42991e-05,0.000307597,0,0,0,0,0,0,0,0.176403,-10.1377,1.03491,21.0431,-0.707381,-0.611364,-0.10967,0.201848,-1.03263,0.85201,2.53581,-0.139874,-0.613434,-0.147391
3349537,1,-1.57102,-0.522833,-0.000666862,-2.09598,-1.57094,1.57159,0.785651,-1.5708,-0.523599,-4.60177e-08,-2.0944,-1.5708,1.5708,0.785399,-0.000110805,-0.000303756,-0.00067759,-0.000410554,-7.66362e-05,0.000465185,0.000442424,0,0,0,0,0,0,0,0.200207,-10.1377,1.06269,21.0709,-0.701887,-0.624181,-0.116079,0.201627,-1.03181,0.851876,2.53514,-0.13979,-0.613442,-0.147541
3349538,1,-1.57102,-0.522833,-0.000666333,-2.09598,-1.57094,1.57159,0.785651,-1.5708,-0.523599,-4.60177e-08,-2.0944,-1.5708,1.5708,0.785399,0.000482942,-0.000202504,0.000197887,-0.000830515,0.00015236,7.27645e-05,0.000532308,0,0,0,0,0,0,0,0.176403,-10.1377,1.03491,21.0947,-0.707381,-0.617772,-0.122488,0.201307,-1.0312,0.851736,2.53504,-0.139742,-0.61346,-0.14768
3349539,1,-1.57102,-0.522831,-0.000666806,-2.09598,-1.57094,1.57159,0.785647,-1.5708,-0.523599,-4.60177e-08,-2.0944,-1.5708,1.5708,0.785399,0.000321961,0.000514611,0.000131925,0.00065275,0.000305024,0.000285869,-0.00106928,0,0,0,0,0,0,0,0.176403,-10.1654,1.03491,21.0431,-0.712874,-0.624181,-0.0840357,0.200572,-1.03156,0.851104,2.53565,-0.139742,-0.613554,-0.147825
3349540,1,-1.57102,-0.522831,-0.000665294,-2.09598,-1.57094,1.57159,0.785645,-1.5708,-0.523599,-4.60177e-08,-2.0944,-1.5708,1.5708,0.785399,-0.000342171,0.000343074,0.000644762,-0.00077126,-0.000203552,-0.000284139,-0.00142493,0,0,0,0,0,0,0,0.200207,-10.1654,1.01111,21.0947,-0.701887,-0.611364,-0.0648096,0.199375,-1.03304,0.849837,2.53668,-0.139781,-0.613741,-0.147977
3349541,1,-1.57102,-0.522831,-0.000665346,-2.09598,-1.57094,1.57159,0.785647,-1.5708,-0.523599,-4.60177e-08,-2.0944,-1.5708,1.5708,0.785399,-0.000228114,0.000228716,0.000429841,-0.000514173,-0.000135701,4.79331e-05,-0.000237877,0,0,0,0,0,0,0,0.200207,-10.1654,1.01111,21.0947,-0.701887,-0.617772,-0.0840357,0.198106,-1.03555,0.848408,2.53829,-0.139861,-0.613958,-0.148097
3349544,0.97,-1.57102,-0.522829,-0.000665372,-2.09598,-1.57094,1.57159,0.785647,-1.5708,-0.523599,-4.60177e-08,-2.0944,-1.5708,1.5708,0.785399,0.000303619,0.00062458,-0.000151046,-0.000894763,-0.00028887,0.000383427,-0.000729813,0,0,0,0,0,0,0,0.176403,-10.1892,1.01111,21.1185,-0.696394,-0.624181,-0.0840357,0.194626,-1.04204,0.844277,2.54285,-0.140133,-0.614562,-0.148096
3349545,0.96,-1.57102,-0.522833,-0.000665372,-2.09598,-1.57094,1.57159,0.785645,-1.5708,-0.523599,-4.60177e-08,-2.0944,-1.5708,1.5708,0.785399,0.000852026,-0.000790039,-0.000100697,0.00116673,1.08708e-05,-0.0002191,-0.00119862,0,0,0,0,0,0,0,0.148632,-10.1377,1.01111,21.0431,-0.701887,-0.611364,-0.0648096,0.193094,-1.04301,0.842347,2.54354,-0.140192,-0.6148,-0.148062
3349546,0.96,-1.57102,-0.522833,-0.000667043,-2.09598,-1.57094,1.57159,0.785646,-1.5708,-0.523599,-4.60177e-08,-2.0944,-1.5708,1.5708,0.785399,-0.000638408,-0.000526693,-0.000623943,0.000777819,0.000210698,9.12925e-05,-0.00056172,0,0,0,0,0,0,0,0.200207,-10.1377,1.03491,21.0431,-0.707381,-0.617772,-0.0712183,0.192405,-1.04118,0.841677,2.54247,-0.140143,-0.614869,-0.148014
3349547,0.96,-1.57102,-0.522831,-0.000665373,-2.09598,-1.57094,1.57159,0.785651,-1.5708,-0.523599,-4.60177e-08,-2.0944,-1.5708,1.5708,0.785399,-0.000425606,0.000298485,0.00014085,-0.00068788,-0.000266436,6.08617e-05,0.00152439,0,0,0,0,0,0,0,0.200207,-10.1654,1.01111,21.0947,-0.696394,-0.617772,-0.122488,0.192756,-1.03789,0.842471,2.54051,-0.140024,-0.614759,-0.147912
3349548,0.96,-1.57102,-0.522833,-0.000663424,-2.09598,-1.57094,1.57159,0.78565,-1.5708,-0.523599,-4.60177e-08,-2.0944,-1.5708,1.5708,0.785399,0.000273075,-0.000450624,0.000743514,-0.000458586,2.58266e-05,4.05745e-05,0.000541543,0,0,0,0,0,0,0,0.176403,-10.1377,0.98334,21.0947,-0.701887,-0.617772,-0.10967,0.19325,-1.03584,0.843411,2.53959,-0.139942,-0.614641,-0.147749
3349549,0.96,-1.57102,-0.522829,-0.000667043,-2.09598,-1.57094,1.57159,0.785651,-1.5708,-0.523599,-4.60177e-08,-2.0944,-1.5708,1.5708,0.785399,0.00018205,0.000349198,-0.00071075,0.000251088,0.000424119,2.70496e-05,0.000835747,0,0,0,0,0,0,0,0.176403,-10.1654,1.03491,21.0709,-0.712874,-0.617772,-0.122488,0.193297,-1.03482,0.843697,2.53945,-0.139901,-0.614603,-0.147575
3349550,0.96,-1.57102,-0.522829,-0.000666862,-2.09597,-1.57094,1.57159,0.785645,-1.5708,-0.523599,-4.60177e-08,-2.0944,-1.5708,1.5708,0.785399,0.000121367,0.000789611,-0.00112345,0.00193063,-0.000124155,1.80331e-05,-0.00157907,0,0,0,0,0,0,0,0.176403,-10.1892,1.06269,20.9955,-0.701887,-0.617772,-0.0648096,0.193719,-1.03432,0.844663,2.53911,-0.139831,-0.614518,-0.147434
3349551,0.96,-1.57102,-0.522833,-0.000662714,-2.09598,-1.57094,1.57159,0.785649,-1.5708,-0.523599,-4.60177e-08,-2.0944,-1.5708,1.5708,0.785399,-0.000475901,-0.000680019,0.00110707,-0.00158978,0.000324131,1.20221e-05,0.000371443,0,0,0,0,0,0,0,0.200207,-10.1377,0.98334,21.1185,-0.712874,-0.617772,-0.103262,0.194488,-1.03413,0.8462,2.53853,-0.139744,-0.614388,-0.147328
3349552,0.96,-1.57103,-0.522831,-0.000668755,-2.09598,-1.57094,1.57159,0.785653,-1.5708,-0.523599,-4.60177e-08,-2.0944,-1.5708,1.5708,0.785399,-0.000966881,0.000196268,-0.00111799,5.37737e-05,-0.000597715,-0.000466703,0.00143442,0,0,0,0,0,0,0,0.227978,-10.1654,1.06269,21.0709,-0.690901,-0.604955,-0.135305,0.195293,-1.03405,0.847671,2.53854,-0.139697,-0.614253,-0.147224
3349553,0.96,-1.57102,-0.522831,-0.000666964,-2.09598,-1.57094,1.57159,0.785651,-1.5708,-0.523599,-4.60177e-08,-2.0944,-1.5708,1.5708,0.785399,5.02649e-06,0.000130845,-9.57126e-05,0.000685463,8.4245e-06,-0.000311135,0.000244205,0,0,0,0,0,0,0,0.200207,-10.1654,1.03491,21.0431,-0.701887,-0.604955,-0.116079,0.196569,-1.03405,0.849752,2.53878,-0.139659,-0.614047,-0.147133
3349554,0.96,-1.57103,-0.522831,-0.000667017,-2.09598,-1.57094,1.57159,0.785648,-1.5708,-0.523599,-4.60177e-08,-2.0944,-1.5708,1.5708,0.785399,-0.00120307,8.72303e-05,-6.38084e-05,0.000456975,0.000209067,0.000267294,-0.000786632,0,0,0,0,0,0,0,0.251781,-10.1654,1.03491,21.0431,-0.707381,-0.617772,-0.0904444,0.198009,-1.03375,0.852003,2.53849,-0.139593,-0.613811,-0.147095
3349555,0.96,-1.57103,-0.522833,-0.000663415,-2.09598,-1.57094,1.57159,0.785646,-1.5708,-0.523599,-4.60177e-08,-2.0944,-1.5708,1.5708,0.785399,-0.000245238,-0.00059146,0.00116389,-0.000901776,0.000139378,0.000178196,-0.000999139,0,0,0,0,0,0,0,0.227978,-10.1377,0.98334,21.0947,-0.707381,-0.617772,-0.077627,0.198903,-1.03309,0.853247,2.53802,-0.139534,-0.613652,-0.147111
3349556,0.96,-1.57102,-0.522828,-0.00066704,-2.09598,-1.57094,1.57159,0.785651,-1.5708,-0.523599,-4.60177e-08,-2.0944,-1.5708,1.5708,0.785399,0.000486122,0.00136893,-0.000430501,-4.43718e-05,-0.000313982,-0.00035592,0.00099542,0,0,0,0,0,0,0,0.200207,-10.213,1.03491,21.0709,-0.696394,-0.604955,-0.122488,0.19891,-1.03338,0.853056,2.53834,-0.139538,-0.613643,-0.14714
3349557,0.96,-1.57102,-0.522829,-0.000667042,-2.09598,-1.57094,1.57159,0.785653,-1.5708,-0.523599,-4.60177e-08,-2.0944,-1.5708,1.5708,0.785399,0.000324081,0.000355809,-0.000287001,0.000620033,-5.87111e-06,0.000474797,0.00113833,0,0,0,0,0,0,0,0.200207,-10.1892,1.03491,21.0431,-0.701887,-0.624181,-0.135305,0.198454,-1.03552,0.852276,2.53946,-0.139585,-0.613732,-0.147159
3349558,0.96,-1.57102,-0.522829,-0.000665372,-2.09598,-1.57094,1.57158,0.785649,-1.5708,-0.523599,-4.60177e-08,-2.0944,-1.5708,1.5708,0.785399,0.000772866,0.000237206,0.000365478,-0.000793071,0.000199536,-0.000395546,-0.000427907,0,0,0,0,0,0,0,0.176403,-10.1892,1.01111,21.0947,-0.707381,-0.604955,-0.103262,0.197772,-1.0382,0.85126,2.54061,-0.139634,-0.613865,-0.147198
3349559,0.96,-1.57102,-0.522833,-0.000665373,-2.09598,-1.57094,1.57159,0.785646,-1.5708,-0.523599,-4.60177e-08,-2.0944,-1.5708,1.5708,0.785399,-4.15678e-05,-0.00104829,0.000243652,0.000677712,-7.04262e-05,-2.63383e-05,-0.00123471,0,0,0,0,0,0,0,0.200207,-10.1377,1.01111,21.0431,-0.701887,-0.611364,-0.077627,0.196706,-1.03934,0.849634,2.5411,-0.139668,-0.614031,-0.147287
3349560,0.96,-1.57102,-0.522831,-0.000665373,-2.09598,-1.57094,1.57158,0.785651,-1.5708,-0.523599,-4.60177e-08,-2.0944,-1.5708,1.5708,0.785399,-2.77119e-05,-4.92452e-05,0.000162435,0.000451808,0.0001565,-1.75588e-05,0.000601015,0,0,0,0,0,0,0,0.200207,-10.1654,1.01111,21.0431,-0.707381,-0.611364,-0.116079,0.195698,-1.03786,0.84795,2.54021,-0.139651,-0.614147,-0.147408
3349561,0.96,-1.57102,-0.522829,-0.000665373,-2.09598,-1.57094,1.57158,0.785649,-1.5708,-0.523599,-4.60177e-08,-2.0944,-1.5708,1.5708,0.785399,-1.84746e-05,0.000523982,0.00010829,-0.000348409,0.000104333,-1.17059e-05,-0.0003114,0,0,0,0,0,0,0,0.200207,-10.1892,1.01111,21.0709,-0.707381,-0.611364,-0.0968531,0.195031,-1.03592,0.846691,2.53892,-0.139615,-0.614198,-0.147525
3349562,0.96,-1.57102,-0.522831,-0.000670663,-2.09598,-1.57094,1.57159,0.785652,-1.5708,-0.523599,-4.60177e-08,-2.0944,-1.5708,1.5708,0.785399,-1.23164e-05,-0.000207491,-0.00169104,0.000417342,-0.000133895,0.000229555,0.000979195,0,0,0,0,0,0,0,0.200207,-10.1654,1.08649,21.0431,-0.701887,-0.617772,-0.128897,0.195125,-1.03527,0.846627,2.53829,-0.139588,-0.614141,-0.147629
3349563,0.96,-1.57103,-0.522833,-0.000663424,-2.09598,-1.57094,1.57159,0.785649,-1.5708,-0.523599,-4.60177e-08,-2.0944,-1.5708,1.5708,0.785399,-0.000657825,-0.000787941,0.00128549,0.000278228,-8.92634e-05,0.000390396,-0.000533998,0,0,0,0,0,0,0,0.227978,-10.1377,0.98334,21.0431,-0.701887,-0.624181,-0.0968531,0.19597,-1.0341,0.847688,2.53738,-0.139534,-0.613963,-0.147736
3349564,0.96,-1.57103,-0.522829,-0.000665373,-2.09598,-1.57094,1.57159,0.785646,-1.5708,-0.523599,-4.60177e-08,-2.0944,-1.5708,1.5708,0.785399,-0.00043855,0.000681132,0.000207379,0.000185485,-5.95089e-05,2.29048e-05,-0.00106808,0,0,0,0,0,0,0,0.227978,-10.1892,1.01111,21.0431,-0.701887,-0.617772,-0.077627,0.196574,-1.03226,0.848221,2.53605,-0.139479,-0.61383,-0.147858
3349565,0.96,-1.57102,-0.522833,-0.000665373,-2.09598,-1.57094,1.57159,0.785649,-1.5708,-0.523599,-4.60177e-08,-2.0944,-1.5708,1.5708,0.785399,0.000357247,-0.000752338,0.000138252,0.000123657,0.000367228,1.52699e-05,2.64167e-08,0,0,0,0,0,0,0,0.200207,-10.1377,1.01111,21.0431,-0.712874,-0.617772,-0.0968531,0.196704,-1.03101,0.847936,2.53497,-0.139449,-0.613796,-0.147974
3349566,0.96,-1.57102,-0.522831,-0.000663242,-2.09598,-1.57094,1.57158,0.78565,-1.5708,-0.523599,-4.60177e-08,-2.0944,-1.5708,1.5708,0.785399,0.000794977,0.000148055,9.21682e-05,8.24378e-05,-0.000162082,-0.000227179,0.000474735,0,0,0,0,0,0,0,0.176403,-10.1654,1.01111,21.0431,-0.701887,-0.611364,-0.10967,0.196468,-1.02991,0.847163,2.53402,-0.13944,-0.613835,-0.148056
3349567,0.96,-1.57102,-0.522831,-0.000662714,-2.09598,-1.57094,1.57159,0.785653,-1.5708,-0.523599,-4.60177e-08,-2.0944,-1.5708,1.5708,0.785399,0.000529985,9.87035e-05,0.000711059,-0.000594655,-0.000108055,0.000323265,0.00126593,0,0,0,0,0,0,0,0.176403,-10.1654,0.98334,21.0709,-0.701887,-0.624181,-0.135305,0.195604,-1.02947,0.84557,2.53352,-0.139475,-0.613986,-0.148104
3349568,0.96,-1.57102,-0.522831,-0.000665136,-2.09598,-1.57094,1.57159,0.785646,-1.5708,-0.523599,-4.60177e-08,-2.0944,-1.5708,1.5708,0.785399,-0.000203489,6.58023e-05,-0.000175574,-0.000953249,-7.20365e-05,-2.18488e-05,-0.00129228,0,0,0,0,0,0,0,0.200207,-10.1654,1.01111,21.0947,-0.701887,-0.617772,-0.077627,0.194508,-1.03056,0.8437,2.53411,-0.139561,-0.614194,-0.148144
3349569,0.96,-1.57102,-0.522829,-0.000666964,-2.09598,-1.57094,1.57159,0.785653,-1.5708,-0.523599,-4.60177e-08,-2.0944,-1.5708,1.5708,0.785399,-0.000135659,0.00060068,-0.000673862,0.000570927,0.000155426,0.000222793,0.00127471,0,0,0,0,0,0,0,0.200207,-10.1892,1.03491,21.0431,-0.707381,-0.624181,-0.135305,0.194172,-1.03268,0.842982,2.53537,-0.139646,-0.614304,-0.148196
3349570,0.96,-1.57102,-0.522833,-0.000665346,-2.09598,-1.57094,1.57159,0.785647,-1.5708,-0.523599,-4.60177e-08,-2.0944,-1.5708,1.5708,0.785399,0.000466372,-0.000805972,0.000107571,-0.00138262,-9.98331e-05,0.000385888,-0.00104906,0,0,0,0,0,0,0,0.176403,-10.1377,1.01111,21.1185,-0.701887,-0.63059,-0.0840357,0.194579,-1.03472,0.843412,2.53655,-0.139699,-0.614312,-0.148262
3349571,0.96,-1.57103,-0.522831,-0.000665364,-2.09598,-1.57094,1.57159,0.78565,-1.5708,-0.523599,-4.60177e-08,-2.0944,-1.5708,1.5708,0.785399,-0.000895511,0.000112299,7.1714e-05,0.0013983,0.000136895,-0.000217459,0.000250059,0,0,0,0,0,0,0,0.227978,-10.1654,1.01111,21.0193,-0.707381,-0.617772,-0.10967,0.195119,-1.03543,0.844007,2.53705,-0.13972,-0.614302,-0.148345
3349572,0.96,-1.57103,-0.522833,-0.00066537,-2.09598,-1.57094,1.57159,0.785654,-1.5708,-0.523599,-4.60177e-08,-2.0944,-1.5708,1.5708,0.785399,-0.000597007,-0.000574748,4.78093e-05,-0.000274224,-0.000112187,-0.000144973,0.0013535,0,0,0,0,0,0,0,0.227978,-10.1377,1.01111,21.0709,-0.701887,-0.617772,-0.141714,0.195956,-1.03448,0.844877,2.53639,-0.13969,-0.614253,-0.148438
3349573,0.96,-1.57103,-0.522829,-0.000663241,-2.09598,-1.57094,1.57158,0.785649,-1.5708,-0.523599,-4.60177e-08,-2.0944,-1.5708,1.5708,0.785399,-0.000954817,0.000823261,3.18729e-05,-0.000739628,0.000128659,-0.000571367,-0.00052182,0,0,0,0,0,0,0,0.251781,-10.1892,1.01111,21.0947,-0.707381,-0.604955,-0.103262,0.197227,-1.03368,0.846227,2.53576,-0.139655,-0.614158,-0.148541
3349574,0.96,-1.57102,-0.522829,-0.000664662,-2.09598,-1.57094,1.57159,0.785651,-1.5708,-0.523599,-4.60177e-08,-2.0944,-1.5708,1.5708,0.785399,0.000569881,0.00054884,2.12486e-05,0.000713341,-0.000117678,0.000331166,0.000364197,0,0,0,0,0,0,0,0.200207,-10.1892,1.01111,21.0431,-0.701887,-0.624181,-0.122488,0.198442,-1.03478,0.847454,2.53618,-0.139661,-0.6141,-0.148675
3349575,0.96,-1.57102,-0.522831,-0.000663187,-2.09598,-1.57094,1.57158,0.785647,-1.5708,-0.523599,-4.60177e-08,-2.0944,-1.5708,1.5708,0.785399,0.000936733,-0.000190918,0.00066378,-0.000730865,-7.84518e-05,-0.000253941,-0.00118136,0,0,0,0,0,0,0,0.176403,-10.1654,0.98334,21.0947,-0.701887,-0.611364,-0.0840357,0.198709,-1.03666,0.847347,2.53685,-0.139699,-0.614197,-0.148844
3349576,0.96,-1.57103,-0.522831,-0.000666964,-2.09598,-1.57094,1.57159,0.785651,-1.5708,-0.523599,-4.60177e-08,-2.0944,-1.5708,1.5708,0.785399,-0.000581937,-0.000127279,-0.000763906,0.000719182,0.000151149,6.80652e-05,0.000636583,0,0,0,0,0,0,0,0.227978,-10.1654,1.03491,21.0431,-0.707381,-0.617772,-0.122488,0.198346,-1.03761,0.846342,2.53708,-0.139732,-0.614372,-0.149034
3349577,0.96,-1.57102,-0.522831,-0.000665346,-2.09598,-1.57094,1.57159,0.785648,-1.5708,-0.523599,-4.60177e-08,-2.0944,-1.5708,1.5708,0.785399,0.000261656,-8.48526e-05,4.75412e-05,-0.000170159,0.000100766,-0.000191982,-0.000762406,0,0,0,0,0,0,0,0.200207,-10.1654,1.01111,21.0709,-0.707381,-0.611364,-0.0904444,0.198476,-1.03736,0.84603,2.53667,-0.139725,-0.614447,-0.149225
3349578,0.95,-1.57103,-0.522829,-0.000665364,-2.09598,-1.57094,1.57159,0.785651,-1.5708,-0.523599,-4.60177e-08,-2.0944,-1.5708,1.5708,0.785399,-0.000475177,0.000500244,3.16941e-05,-0.000670251,6.71775e-05,0.00034673,0.000441165,0,0,0,0,0,0,0,0.227978,-10.1892,1.01111,21.0947,-0.707381,-0.624181,-0.116079,0.19894,-1.03727,0.846183,2.53644,-0.139718,-0.614464,-0.149404
3349579,0.95,-1.57102,-0.522833,-0.00066704,-2.09598,-1.57094,1.57159,0.785651,-1.5708,-0.523599,-4.60177e-08,-2.0944,-1.5708,1.5708,0.785399,0.000332829,-0.00087293,-0.000535683,-0.000446834,-0.000158666,-0.000243565,0.00029411,0,0,0,0,0,0,0,0.200207,-10.1377,1.03491,21.0947,-0.701887,-0.611364,-0.116079,0.199473,-1.03769,0.84643,2.53683,-0.13974,-0.614469,-0.149565
3349580,0.95,-1.57102,-0.522835,-0.000670662,-2.09598,-1.57094,1.57158,0.785644,-1.5708,-0.523599,-4.60177e-08,-2.0944,-1.5708,1.5708,0.785399,0.000221886,-0.00113877,-0.00156355,0.000258922,-0.000512678,-0.000162376,-0.00221142,0,0,0,0,0,0,0,0.200207,-10.1139,1.08649,21.0709,-0.690901,-0.611364,-0.0510767,0.200517,-1.03635,0.847498,2.53658,-0.139724,-0.614365,-0.149721
3349581,0.94,-1.57102,-0.522831,-0.000665372,-2.09598,-1.57094,1.57159,0.785647,-1.5708,-0.523599,-4.60177e-08,-2.0944,-1.5708,1.5708,0.785399,0.000704736,0.000447249,0.000720873,0.000172615,0.000675467,-0.00034561,-0.00025358,0,0,0,0,0,0,0,0.176403,-10.1654,1.01111,21.0709,-0.718367,-0.604955,-0.0840357,0.201657,-1.03337,0.848846,2.5354,-0.13966,-0.614214,-0.149859
3349582,0.93,-1.57103,-0.522833,-0.000667043,-2.09598,-1.57094,1.57159,0.785649,-1.5708,-0.523599,-4.60177e-08,-2.0944,-1.5708,1.5708,0.785399,-0.000736602,-0.000351448,-7.62301e-05,0.000115077,4.34104e-05,0.000244311,0.000305665,0,0,0,0,0,0,0,0.227978,-10.1377,1.03491,21.0709,-0.707381,-0.617772,-0.0968531,0.20208,-1.03109,0.849204,2.53434,-0.139612,-0.614162,-0.149929
3349583,0.93,-1.57103,-0.522833,-0.000667043,-2.09598,-1.57094,1.57159,0.785654,-1.5708,-0.523599,-4.60177e-08,-2.0944,-1.5708,1.5708,0.785399,-0.000491068,-0.000234299,-5.08201e-05,7.67178e-05,-0.00017451,-7.44848e-05,0.00186529,0,0,0,0,0,0,0,0.227978,-10.1377,1.03491,21.0709,-0.701887,-0.611364,-0.141714,0.202335,-1.02944,0.849268,2.53352,-0.139587,-0.61413,-0.149916
3349584,0.93,-1.57102,-0.522833,-0.000667043,-2.09598,-1.57094,1.57158,0.78565,-1.5708,-0.523599,-4.60177e-08,-2.0944,-1.5708,1.5708,0.785399,0.000322235,-0.000156199,-3.388e-05,5.11452e-05,-0.00011634,-0.000287015,5.67313e-05,0,0,0,0,0,0,0,0.200207,-10.1377,1.03491,21.0709,-0.701887,-0.604955,-0.10967,0.202755,-1.02791,0.849563,2.53278,-0.139571,-0.614065,-0.149862
3349585,0.93,-1.57102,-0.522833,-0.000665373,-2.09598,-1.57094,1.57159,0.785649,-1.5708,-0.523599,-4.60177e-08,-2.0944,-1.5708,1.5708,0.785399,0.00142125,-0.000104133,0.000534225,3.40968e-05,-7.75601e-05,0.000520733,-0.000436897,0,0,0,0,0,0,0,0.148632,-10.1377,1.01111,21.0709,-0.701887,-0.624181,-0.0968531,0.202409,-1.02683,0.848871,2.53229,-0.139585,-0.614107,-0.149821
3349586,0.93,-1.57102,-0.522829,-0.000665373,-2.09598,-1.57094,1.57159,0.785646,-1.5708,-0.523599,-4.60177e-08,-2.0944,-1.5708,1.5708,0.785399,0.0009475,0.001137,0.00035615,-0.000534081,-0.000255157,0.000347155,-0.0012407,0,0,0,0,0,0,0,0.148632,-10.1892,1.01111,21.0947,-0.696394,-0.624181,-0.0712183,0.200746,-1.02738,0.846507,2.53267,-0.139655,-0.614354,-0.149804
3349587,0.93,-1.57102,-0.522829,-0.000667043,-2.09598,-1.57094,1.57159,0.785647,-1.5708,-0.523599,-4.60177e-08,-2.0944,-1.5708,1.5708,0.785399,-1.79475e-05,0.000758003,-0.000319379,0.000200758,0.000236796,-5.92197e-06,-0.000352416,0,0,0,0,0,0,0,0.176403,-10.1892,1.03491,21.0709,-0.707381,-0.617772,-0.0840357,0.198693,-1.03051,0.843827,2.53436,-0.139765,-0.614681,-0.149781
3349588,0.93,-1.57102,-0.522829,-0.000665373,-2.09598,-1.57094,1.57159,0.785653,-1.5708,-0.523599,-4.60177e-08,-2.0944,-1.5708,1.5708,0.785399,-1.1965e-05,-5.14768e-05,0.000343893,-0.000422973,0.000157864,-0.000241307,0.00166393,0,0,0,0,0,0,0,0.176403,-10.1654,1.01111,21.0947,-0.707381,-0.611364,-0.135305,0.197325,-1.03448,0.842264,2.53647,-0.139862,-0.614909,-0.149719
3349589,0.93,-1.57102,-0.522828,-0.000667043,-2.09598,-1.57094,1.57159,0.785652,-1.5708,-0.523599,-4.60177e-08,-2.0944,-1.5708,1.5708,0.785399,-0.000564789,-3.43179e-05,-0.00032755,0.000924444,-0.000505109,-0.00039823,0.000871926,0,0,0,0,0,0,0,0.200207,-10.1654,1.03491,21.0431,-0.690901,-0.604955,-0.128897,0.196794,-1.03687,0.841902,2.53774,-0.139905,-0.614983,-0.149631
3349590,0.93,-1.57102,-0.52283,-0.000665373,-2.09598,-1.57094,1.57159,0.785649,-1.5708,-0.523599,-4.60177e-08,-2.0944,-1.5708,1.5708,0.785399,-0.000376526,-2.28786e-05,0.000338445,-3.33181e-05,0.000273612,-2.81279e-05,-0.000368152,0,0,0,0,0,0,0,0.200207,-10.1654,1.01111,21.0709,-0.707381,-0.611364,-0.103262,0.19697,-1.03726,0.842502,2.53785,-0.139881,-0.614917,-0.149568
3349591,0.93,-1.57102,-0.522833,-0.000665373,-2.09598,-1.57094,1.57159,0.785646,-1.5708,-0.523599,-4.60177e-08,-2.0944,-1.5708,1.5708,0.785399,-0.000251017,-0.000664866,0.00022563,-0.000579024,-0.000224493,-0.000256111,-0.00119487,0,0,0,0,0,0,0,0.200207,-10.1377,1.01111,21.0947,-0.696394,-0.604955,-0.077627,0.197368,-1.03645,0.843351,2.53748,-0.139825,-0.614784,-0.149556
3349592,0.93,-1.57102,-0.522831,-0.000665373,-2.09598,-1.57094,1.57159,0.785648,-1.5708,-0.523599,-4.60177e-08,-2.0944,-1.5708,1.5708,0.785399,-0.000167345,0.00020637,0.00015042,-0.000942828,5.37887e-05,6.66184e-05,-0.000321862,0,0,0,0,0,0,0,0.200207,-10.1654,1.01111,21.1185,-0.701887,-0.611364,-0.0904444,0.197635,-1.03551,0.843965,2.53757,-0.139783,-0.614647,-0.149571
3349593,0.93,-1.57102,-0.522833,-0.000667043,-2.09597,-1.57094,1.57159,0.78565,-1.5708,-0.523599,-4.60177e-08,-2.0944,-1.5708,1.5708,0.785399,0.000445249,-0.000512034,-0.000456532,0.0016915,-0.000167591,4.44122e-05,0.000497502,0,0,0,0,0,0,0,0.176403,-10.1377,1.03491,21.0193,-0.696394,-0.611364,-0.10967,0.197838,-1.03441,0.844514,2.53761,-0.139728,-0.614503,-0.149574
3349594,0.93,-1.57102,-0.522829,-0.000665373,-2.09598,-1.57094,1.57159,0.785651,-1.5708,-0.523599,-4.60177e-08,-2.0944,-1.5708,1.5708,0.785399,-0.000259979,0.00086507,0.000252457,-7.87607e-05,0.000295173,0.000266967,0.000806386,0,0,0,0,0,0,0,0.200207,-10.1892,1.01111,21.0709,-0.707381,-0.617772,-0.122488,0.197985,-1.03289,0.845042,2.53686,-0.13963,-0.614358,-0.149558
3349595,0.93,-1.57102,-0.522831,-0.000665373,-2.09598,-1.57094,1.57158,0.785649,-1.5708,-0.523597,-2.15678e-06,-2.09439,-1.5708,1.5708,0.785399,0.000383492,1.99013e-05,0.000168305,-0.000609319,0.000400233,-5.93809e-05,-0.000174486,-0.00362688,0.001875,-0.00211076,0.00261762,-0.00132195,0.005,-0.00046918,0.176403,-10.1654,1.01111,21.0947,-0.712874,-0.611364,-0.103262,0.197882,-1.0326,0.845241,2.53658,-0.139551,-0.614263,-0.149538
3349596,0.93,-1.57102,-0.522829,-0.000665373,-2.09598,-1.57094,1.57159,0.785646,-1.57081,-0.523593,-6.3783e-06,-2.09439,-1.5708,1.57081,0.785398,0.00146209,0.000570079,0.000112203,0.000800213,0.000266822,0.000197772,-0.00106576,-0.00725376,0.00375,-0.00422152,0.00523524,-0.0026439,0.01,-0.00093836,0.124828,-10.1892,1.01111,21.0431,-0.712874,-0.617772,-0.077627,0.197116,-1.03368,0.844571,2.53714,-0.139528,-0.614278,-0.149533
3349597,0.93,-1.57102,-0.522831,-0.000667043,-2.09598,-1.57094,1.57159,0.785646,-1.57082,-0.523587,-1.27106e-05,-2.09438,-1.57081,1.57083,0.785396,-0.000788513,-0.000176759,-0.00048201,-0.00067295,-0.00022902,-0.00034287,-0.000947866,-0.0108806,0.005625,-0.00633229,0.00785286,-0.00396586,0.015,-0.00140754,0.200207,-10.1654,1.03491,21.0947,-0.701887,-0.604955,-0.0712183,0.196114,-1.03483,0.84368,2.5377,-0.139526,-0.614323,-0.149535
3349598,0.93,-1.57103,-0.522834,-0.000665446,-2.09598,-1.57094,1.57159,0.785654,-1.57083,-0.52358,-2.11536e-05,-2.09437,-1.57081,1.57085,0.785394,-0.00206725,0.0037024,-0.00251412,0.00146691,0.000254221,0.000246138,0.00225031,-0.0145075,0.0075,-0.00844305,0.0104705,-0.00528781,0.02,-0.00187672,0.124828,-10.0623,0.860354,21.1423,-0.712874,-0.617772,-0.149038,0.196943,-1.03791,0.845541,2.53894,-0.139516,-0.614113,-0.149501
3349599,0.93,-1.57103,-0.522829,-0.000658467,-2.09598,-1.57094,1.57159,0.785652,-1.57085,-0.523571,-3.17074e-05,-2.09436,-1.57082,1.57087,0.785392,-0.00469511,0.00433253,-0.000214393,0.00130534,0.00162754,-0.000785344,0.000754218,-0.0181344,0.009375,-0.0105538,0.0130881,-0.00660976,0.025,-0.0023459,-0.152882,-9.98691,0.376346,21.2693,-0.752241,-0.592137,-0.128897,0.200917,-1.04657,0.85186,2.5421,-0.13951,-0.613504,-0.149422
3349600,0.93,-1.57102,-0.522833,-0.000668711,-2.09598,-1.57094,1.57159,0.785647,-1.57087,-0.523559,-4.4372e-05,-2.09434,-1.57082,1.5709,0.785389,-0.00236901,0.000753137,-0.00190012,0.00203786,-0.00372317,-4.88447e-05,-0.0011587,-0.0217613,0.01125,-0.0126646,0.0157057,-0.00793171,0.03,-0.00281508,-0.632923,-9.733,-0.000546589,21.3684,-0.769636,-0.604955,-0.0840357,0.206852,-1.05777,0.860572,2.54582,-0.139493,-0.612613,-0.149357
3349601,0.93,-1.57102,-0.522827,-0.000678753,-2.09597,-1.57094,1.57159,0.785647,-1.5709,-0.523546,-5.91473e-05,-2.09432,-1.57083,1.57094,0.785386,-0.00373417,0.00144108,-0.00478843,0.0028778,-0.00229222,-3.25631e-05,-0.000772467,-0.0253882,0.013125,-0.0147753,0.0183233,-0.00925366,0.035,-0.00328426,-1.00982,-9.60605,-0.456784,21.4676,-0.787031,-0.604955,-0.0840357,0.2138,-1.06399,0.870525,2.54722,-0.139381,-0.611397,-0.149347
3349602,0.93,-1.57103,-0.522816,-0.000687424,-2.09597,-1.57094,1.57159,0.785649,-1.57093,-0.523531,-7.60334e-05,-2.0943,-1.57084,1.57098,0.785382,-0.00827599,0.00262648,-0.00246883,0.00390696,-0.00210629,-0.000496427,-4.02601e-05,-0.029015,0.015,-0.0168861,0.020941,-0.0105756,0.04,-0.00375344,-1.38671,-9.50687,-0.988401,21.543,-0.780623,-0.592137,-0.0968531,0.22199,-1.06436,0.882317,2.54624,-0.139197,-0.609675,-0.149359
3349603,0.93,-1.57104,-0.5228,-0.00070752,-2.09596,-1.57094,1.57159,0.785653,-1.57096,-0.523514,-9.50303e-05,-2.09428,-1.57086,1.57102,0.785378,-0.00547006,0.00625839,-0.00836864,0.0028342,-0.00165977,-0.000330951,0.00139731,-0.0326419,0.016875,-0.0189969,0.0235586,-0.0118976,0.045,-0.00422262,-1.76757,-9.53067,-1.34546,21.5668,-0.780623,-0.592137,-0.135305,0.231,-1.06486,0.895684,2.54624,-0.139104,-0.607418,-0.149346
3349604,0.93,-1.57105,-0.522788,-0.000721871,-2.09596,-1.57094,1.5716,0.785649,-1.571,-0.523496,-0.000116138,-2.09425,-1.57087,1.57107,0.785373,-0.0041481,0.0070732,-0.00836083,0.00136563,-0.0012982,0.000254084,-0.000492611,-0.0362688,0.01875,-0.0211076,0.0261762,-0.0132195,0.05,-0.0046918,-2.12066,-9.48306,-1.75012,21.6144,-0.780623,-0.604955,-0.0968531,0.238996,-1.07214,0.909146,2.55146,-0.139279,-0.604796,-0.149302
3349605,0.93,-1.57106,-0.522777,-0.000742658,-2.09594,-1.57094,1.5716,0.785644,-1.57104,-0.523473,-0.000141151,-2.09422,-1.57089,1.57113,0.785368,-0.00984843,0.0101707,-0.0108945,0.00440339,-0.00100924,0.00605548,-0.000803125,-0.0429278,0.0225,-0.0250136,0.0308256,-0.0153429,0.06,-0.00536125,-2.44597,-9.40768,-2.05163,21.6144,-0.780623,-0.624181,-0.0840357,0.244504,-1.08816,0.921118,2.56312,-0.139753,-0.60195,-0.149252
3349606,0.93,-1.57107,-0.52277,-0.000756968,-2.09594,-1.57094,1.57161,0.785642,-1.57109,-0.523447,-0.000170071,-2.09418,-1.5709,1.5712,0.785362,-0.00786981,0.010656,-0.0119824,0.00477452,0.000914773,0.00328136,-0.000772776,-0.0495869,0.02625,-0.0289195,0.0354751,-0.0174662,0.07,-0.00603071,-2.77526,-9.25296,-2.38092,21.6898,-0.826399,-0.592137,-0.077627,0.247386,-1.11063,0.931209,2.57913,-0.140412,-0.598838,-0.149196
3349607,0.93,-1.57109,-0.522763,-0.000775059,-2.09593,-1.57094,1.57161,0.785646,-1.57114,-0.523417,-0.000202896,-2.09414,-1.57092,1.57128,0.785355,-0.011968,0.00756881,-0.0113679,0.00418689,0.00113933,0.00505587,0.00090897,-0.056246,0.03,-0.0328254,0.0401246,-0.0195896,0.08,-0.00670017,-3.00139,-9.0784,-2.63482,21.8167,-0.842879,-0.520726,-0.116079,0.246411,-1.13329,0.937493,2.59659,-0.141191,-0.595482,-0.14912
3349608,0.93,-1.57112,-0.522756,-0.000787998,-2.09592,-1.57094,1.57161,0.785648,-1.57121,-0.523383,-0.000239628,-2.0941,-1.57094,1.57137,0.785348,-0.0186809,0.0103994,-0.0140715,0.0042968,0.00239432,0.0054988,0.00131806,-0.062905,0.03375,-0.0367314,0.044774,-0.0217129,0.09,-0.00736962,-3.20372,-8.8483,-3.01568,21.9159,-0.888655,-0.418187,-0.135305,0.241929,-1.15064,0.939992,2.61389,-0.142074,-0.591657,-0.149019
3349609,0.93,-1.57114,-0.522745,-0.000813303,-2.09591,-1.57094,1.57162,0.785648,-1.57128,-0.523346,-0.000280265,-2.09405,-1.57097,1.57147,0.78534,-0.0234995,0.0144964,-0.018649,0.00572429,0.00321224,0.00676805,0.000878704,-0.0695641,0.0375,-0.0406373,0.0494235,-0.0238363,0.1,-0.00803908,-3.53301,-8.57059,-3.42035,22.0905,-0.933516,-0.340367,-0.135305,0.237804,-1.16624,0.944064,2.63283,-0.143066,-0.586696,-0.148914
3349610,0.93,-1.57117,-0.522728,-0.000847547,-2.09589,-1.57094,1.57163,0.78564,-1.57135,-0.523304,-0.000324808,-2.094,-1.57099,1.57158,0.785331,-0.0256015,0.0175259,-0.0250606,0.00896509,-0.00203701,0.00723792,-0.0022625,-0.0762231,0.04125,-0.0445433,0.0540729,-0.0259596,0.11,-0.00870853,-4.06066,-8.26907,-3.82501,22.1897,-0.972883,-0.244237,-0.0584009,0.237285,-1.18564,0.954929,2.65508,-0.144157,-0.579987,-0.148836
3349611,0.93,-1.5712,-0.522692,-0.000885413,-2.09586,-1.57094,1.57164,0.785644,-1.57144,-0.523259,-0.000373258,-2.09394,-1.57102,1.5717,0.785322,-0.0286669,0.0240485,-0.0291613,0.0149966,-0.00161311,0.0091299,-8.41826e-05,-0.0828822,0.045,-0.0484492,0.0587224,-0.028083,0.12,-0.00937799,-4.5407,-8.14212,-4.28125,22.2611,-0.979292,-0.186559,-0.0968531,0.240756,-1.21064,0.973952,2.67971,-0.145307,-0.57127,-0.148781
3349612,0.93,-1.57126,-0.522657,-0.000922074,-2.09584,-1.57094,1.57167,0.785645,-1.57153,-0.523211,-0.000425613,-2.09387,-1.57105,1.57183,0.785312,-0.0380683,0.026977,-0.031144,0.0192183,0.000216763,0.0163549,0.000418596,-0.0895412,0.04875,-0.0523552,0.0633719,-0.0302063,0.13,-0.0100474,-4.86998,-7.93979,-4.78906,22.3365,-1.02415,-0.147191,-0.10967,0.246944,-1.24135,0.999482,2.7051,-0.146536,-0.560547,-0.148708
3349613,0.93,-1.57132,-0.522608,-0.000961488,-2.0958,-1.57094,1.5717,0.785643,-1.57162,-0.523158,-0.000481874,-2.09381,-1.57108,1.57197,0.785301,-0.0450769,0.0332521,-0.0335304,0.0200587,0.000477852,0.0206951,0.000516423,-0.0962003,0.0525,-0.0562611,0.0680213,-0.0323297,0.14,-0.0107169,-5.1953,-7.91599,-5.2691,22.388,-1.04063,-0.0831043,-0.116079,0.254682,-1.27815,1.02924,2.73176,-0.147958,-0.547877,-0.148602
3349614,0.93,-1.57139,-0.522564,-0.001006,-2.09576,-1.57094,1.57175,0.785633,-1.57172,-0.523102,-0.000542041,-2.09373,-1.57112,1.57212,0.78529,-0.0514188,0.0377565,-0.034454,0.0257362,0.00139933,0.0311277,-0.00622397,-0.102859,0.05625,-0.060167,0.0726708,-0.0344531,0.15,-0.0113864,-5.47301,-7.76126,-5.64996,22.4872,-1.07542,-0.0766956,-0.0648096,0.261807,-1.32277,1.05957,2.76164,-0.14974,-0.533541,-0.148472
3349615,0.93,-1.57146,-0.522523,-0.00104655,-2.09572,-1.57094,1.57181,0.785624,-1.57184,-0.52304,-0.000607746,-2.09365,-1.57116,1.57229,0.785278,-0.0577232,0.0395565,-0.0372388,0.0280458,0.00284548,0.0405548,-0.00694593,-0.112158,0.061875,-0.0657047,0.0789231,-0.0370526,0.164712,-0.0120393,-5.67534,-7.53513,-6.07843,22.5348,-1.13127,-0.108739,0.000192821,0.265365,-1.37237,1.08587,2.79376,-0.151936,-0.517968,-0.148326
3349616,0.93,-1.57154,-0.52248,-0.00109339,-2.09569,-1.57094,1.57188,0.785624,-1.57196,-0.522972,-0.000678988,-2.09357,-1.5712,1.57247,0.785265,-0.0623564,0.0383594,-0.0389962,0.0318452,0.003679,0.0475256,-0.00373566,-0.121456,0.0675,-0.0712423,0.0851754,-0.0396522,0.179425,-0.0126923,-5.87767,-7.33279,-6.38391,22.761,-1.18254,-0.147191,-0.0318506,0.263389,-1.41726,1.10492,2.82438,-0.154504,-0.501417,-0.148129
3349617,0.93,-1.57161,-0.522439,-0.00114651,-2.09564,-1.57094,1.57196,0.785615,-1.57209,-0.522899,-0.000755768,-2.09348,-1.57124,1.57266,0.785251,-0.0639449,0.0402526,-0.0461614,0.037168,0.00361963,0.0558728,-0.00318403,-0.130755,0.073125,-0.0767799,0.0914277,-0.0422517,0.194137,-0.0133453,-6.13158,-7.10666,-6.55847,22.8839,-1.21641,-0.134374,-0.0190333,0.255046,-1.44745,1.11555,2.84947,-0.157388,-0.484046,-0.147819
3349618,0.93,-1.57172,-0.522393,-0.00119271,-2.0956,-1.57094,1.57205,0.785607,-1.57223,-0.522821,-0.000838085,-2.09338,-1.57128,1.57287,0.785237,-0.0770307,0.0424695,-0.0495372,0.039636,-0.00101009,0.0665462,-0.00551284,-0.140053,0.07875,-0.0823175,0.09768,-0.0448513,0.208849,-0.0139983,-6.13158,-6.77737,-6.93933,23.0823,-1.27318,-0.0959217,-0.0584009,0.242417,-1.46012,1.1209,2.86796,-0.160522,-0.465757,-0.147354
3349619,0.93,-1.57182,-0.522348,-0.00125059,-2.09553,-1.57094,1.57216,0.785592,-1.57238,-0.522736,-0.000925941,-2.09328,-1.57133,1.57309,0.785223,-0.0866619,0.0451267,-0.0540489,0.0462061,0.0011281,0.0781993,-0.0106174,-0.149352,0.084375,-0.0878552,0.103932,-0.0474508,0.223562,-0.0146513,-6.28234,-6.34891,-7.37176,23.0823,-1.33543,-0.0126087,-0.0126246,0.229886,-1.45755,1.12647,2.88131,-0.163866,-0.446212,-0.146724
3349620,0.93,-1.57193,-0.522284,-0.00132172,-2.09547,-1.57094,1.57228,0.785573,-1.57254,-0.522646,-0.00101933,-2.09317,-1.57138,1.57333,0.785208,-0.0942235,0.0504048,-0.0621565,0.0524698,0.00223882,0.09438,-0.0144042,-0.15865,0.09,-0.0933928,0.110185,-0.0500504,0.238274,-0.0153043,-6.56005,-6.04343,-7.74865,23.1577,-1.38579,0.0139416,0.038645,0.220487,-1.44295,1.13586,2.89056,-0.167432,-0.425225,-0.145948
3349621,0.93,-1.57204,-0.522206,-0.00139616,-2.0954,-1.57094,1.57244,0.785554,-1.57271,-0.522551,-0.00111826,-2.09305,-1.57143,1.57358,0.785192,-0.101976,0.0596943,-0.06451,0.0580937,0.00290431,0.115591,-0.0170147,-0.167949,0.095625,-0.0989304,0.116437,-0.0526499,0.252986,-0.0159573,-6.88933,-5.84109,-8.15332,23.1815,-1.43156,-0.0766956,0.0844213,0.213823,-1.42502,1.14849,2.89896,-0.171403,-0.403136,-0.145001
3349622,0.93,-1.57218,-0.522118,-0.00147466,-2.09533,-1.57095,1.57261,0.785534,-1.57288,-0.522449,-0.00122273,-2.09293,-1.57149,1.57385,0.785175,-0.112931,0.0709105,-0.0685065,0.0623703,-0.00313573,0.132581,-0.0131795,-0.177247,0.10125,-0.104468,0.122689,-0.0552495,0.267699,-0.0166103,-7.13927,-5.71414,-8.58575,23.2053,-1.44804,-0.192968,0.103647,0.207179,-1.41863,1.16038,2.91332,-0.17613,-0.380723,-0.143773
3349623,0.93,-1.57233,-0.522022,-0.00155331,-2.09524,-1.57096,1.5728,0.785518,-1.57307,-0.522342,-0.00133274,-2.0928,-1.57155,1.57413,0.785158,-0.124657,0.0797356,-0.0687775,0.0714701,-0.00799844,0.147199,-0.00891751,-0.186546,0.106875,-0.110006,0.128942,-0.057849,0.282411,-0.0172632,-7.36541,-5.58719,-9.01422,23.1061,-1.45354,-0.23142,0.0844213,0.198714,-1.43402,1.16832,2.93797,-0.181831,-0.358621,-0.142142
3349624,0.93,-1.57248,-0.521934,-0.0016374,-2.09515,-1.57097,1.57301,0.785494,-1.57326,-0.52223,-0.00144828,-2.09266,-1.57161,1.57443,0.78514,-0.13507,0.0794015,-0.0733531,0.079001,-0.0049972,0.167747,-0.0129322,-0.195844,0.1125,-0.115543,0.135194,-0.0604486,0.297123,-0.0179162,-7.61931,-5.30948,-9.39508,23.0823,-1.48741,-0.250646,0.129282,0.187739,-1.46374,1.17039,2.96839,-0.188363,-0.337108,-0.140082
3349625,0.93,-1.57264,-0.521846,-0.00172069,-2.09506,-1.57099,1.57324,0.785471,-1.57347,-0.52211,-0.00157033,-2.09252,-1.57167,1.57474,0.785121,-0.143879,0.0794874,-0.0755348,0.0825312,-0.00849524,0.185231,-0.0182089,-0.206832,0.11999,-0.122052,0.14253,-0.0633133,0.314164,-0.0185597,-7.74627,-5.03177,-9.82751,23.1577,-1.5103,-0.321141,0.110056,0.173584,-1.48809,1.16503,2.996,-0.195425,-0.316261,-0.137638
3349626,0.93,-1.57281,-0.521755,-0.00181002,-2.09496,-1.571,1.57349,0.785447,-1.57369,-0.521983,-0.00169889,-2.09237,-1.57174,1.57508,0.785102,-0.152182,0.0825112,-0.0796144,0.0906275,-0.0104951,0.208264,-0.0180854,-0.217819,0.12748,-0.12856,0.149865,-0.0661779,0.331205,-0.0192033,-7.89702,-4.75406,-10.1568,23.1339,-1.54967,-0.392553,0.103647,0.154922,-1.49385,1.1503,3.01616,-0.202844,-0.296288,-0.134847
3349627,0.93,-1.57298,-0.521662,-0.00190138,-2.09486,-1.57102,1.57375,0.785422,-1.57392,-0.521848,-0.00183396,-2.09221,-1.5718,1.57542,0.785082,-0.157968,0.0869521,-0.0823116,0.0940471,-0.0167927,0.229892,-0.0220211,-0.228806,0.13497,-0.135069,0.157201,-0.0690426,0.348246,-0.0198468,-8.25011,-4.45255,-10.4821,23.2331,-1.60643,-0.333959,0.0780126,0.129659,-1.48032,1.12352,3.02911,-0.210615,-0.277704,-0.131746
3349628,0.93,-1.57318,-0.521563,-0.00199108,-2.09475,-1.57104,1.57403,0.785402,-1.57416,-0.521705,-0.00197554,-2.09205,-1.57188,1.57579,0.785062,-0.172526,0.0909476,-0.086192,0.0995303,-0.0217823,0.247073,-0.0185671,-0.239793,0.14246,-0.141578,0.164536,-0.0719072,0.365287,-0.0204903,-8.27391,-4.14706,-10.8392,23.3561,-1.66319,-0.250646,0.00660151,0.0976684,-1.45277,1.08475,3.03807,-0.218825,-0.260721,-0.128388
3349629,0.93,-1.57339,-0.521453,-0.00208449,-2.09463,-1.57107,1.57433,0.78537,-1.57441,-0.521555,-0.00212363,-2.09188,-1.57195,1.57617,0.785041,-0.184984,0.0990063,-0.0881299,0.107296,-0.0250766,0.260272,-0.0236542,-0.250781,0.14995,-0.148086,0.171872,-0.0747719,0.382327,-0.0211338,-8.34929,-3.79398,-11.2676,23.3084,-1.72545,-0.179235,0.00660151,0.0621429,-1.41718,1.03817,3.04602,-0.227541,-0.244823,-0.124868
3349630,0.93,-1.57359,-0.52133,-0.00219053,-2.0945,-1.5711,1.57466,0.785338,-1.57467,-0.521398,-0.00227822,-2.0917,-1.57203,1.57657,0.785019,-0.190312,0.105968,-0.0907282,0.116696,-0.0282957,0.280121,-0.0283033,-0.261768,0.15744,-0.154595,0.179207,-0.0776366,0.399368,-0.0217773,-8.73015,-3.46469,-11.6485,23.2053,-1.77031,-0.218602,0.0322363,0.0238979,-1.37924,0.984642,3.05419,-0.236861,-0.229704,-0.121323
3349631,0.93,-1.57382,-0.52119,-0.00230283,-2.09436,-1.57114,1.57502,0.785297,-1.57494,-0.521233,-0.00243932,-2.09151,-1.57211,1.57699,0.784996,-0.199796,0.116509,-0.0977402,0.125499,-0.0318659,0.302893,-0.0335644,-0.272755,0.16493,-0.161103,0.186543,-0.0805012,0.416409,-0.0224208,-9.03167,-3.23856,-11.954,23.0585,-1.7877,-0.333959,0.110056,-0.0187852,-1.34458,0.922319,3.06341,-0.246895,-0.215503,-0.11786
3349632,0.93,-1.57405,-0.521043,-0.00241915,-2.09421,-1.57118,1.5754,0.785267,-1.57523,-0.52106,-0.00260694,-2.09132,-1.57219,1.57742,0.784973,-0.208821,0.127725,-0.103349,0.132849,-0.0398472,0.331955,-0.0344019,-0.283743,0.17242,-0.167612,0.193879,-0.0833659,0.43345,-0.0230643,-9.2578,-3.01242,-12.3586,22.8601,-1.79869,-0.431005,0.110056,-0.0652005,-1.32111,0.853413,3.07638,-0.257699,-0.202229,-0.114471
3349633,0.93,-1.57429,-0.520885,-0.00254171,-2.09405,-1.57122,1.57579,0.785233,-1.57552,-0.52088,-0.00278106,-2.09112,-1.57228,1.57787,0.78495,-0.218153,0.13767,-0.110562,0.142323,-0.0418608,0.348827,-0.0355105,-0.29473,0.17991,-0.17412,0.201214,-0.0862306,0.450491,-0.0237079,-9.46013,-2.8577,-12.7871,22.634,-1.78221,-0.475866,0.122873,-0.113564,-1.31512,0.781487,3.09564,-0.26927,-0.189827,-0.111068
3349634,0.93,-1.57455,-0.520724,-0.00267111,-2.09388,-1.57128,1.5762,0.7852,-1.57583,-0.520693,-0.00296168,-2.09091,-1.57237,1.57834,0.784925,-0.232277,0.142199,-0.116386,0.150999,-0.0484935,0.358593,-0.036306,-0.305717,0.1874,-0.180629,0.20855,-0.0890952,0.467531,-0.0243514,-9.68627,-2.60776,-13.0648,22.5864,-1.75932,-0.469457,0.122873,-0.160913,-1.32197,0.710795,3.11873,-0.281432,-0.177825,-0.107584
3349635,0.93,-1.57481,-0.520559,-0.00280202,-2.09371,-1.57133,1.57662,0.785166,-1.57615,-0.520498,-0.00314924,-2.09069,-1.57246,1.57882,0.7849,-0.240137,0.14905,-0.122115,0.158635,-0.052717,0.378619,-0.0330437,-0.317577,0.19489,-0.187559,0.216559,-0.0920749,0.485497,-0.0249921,-9.8886,-2.35385,-13.3941,22.4872,-1.75383,-0.495092,0.155832,-0.204827,-1.33039,0.644179,3.14062,-0.2939,-0.165681,-0.103994
3349636,0.93,-1.57509,-0.520396,-0.00292844,-2.09353,-1.57139,1.57708,0.785126,-1.57647,-0.520296,-0.00334373,-2.09047,-1.57256,1.57933,0.784875,-0.252324,0.152613,-0.122941,0.161224,-0.0549943,0.404601,-0.0354236,-0.329438,0.20238,-0.194489,0.224568,-0.0950546,0.503463,-0.0256329,-10.0671,-2.02457,-13.7512,22.5348,-1.77031,-0.520726,0.194285,-0.247716,-1.33343,0.577767,3.15983,-0.306586,-0.153728,-0.100288
3349637,0.93,-1.57537,-0.520227,-0.00306746,-2.09335,-1.57145,1.57755,0.785095,-1.57682,-0.520086,-0.00354515,-2.09023,-1.57265,1.57985,0.784848,-0.26272,0.155434,-0.126526,0.166719,-0.061363,0.421911,-0.0348293,-0.341298,0.20987,-0.201419,0.232576,-0.0980343,0.521429,-0.0262736,-10.2179,-1.69528,-13.9773,22.5626,-1.80418,-0.488683,0.16865,-0.293503,-1.32623,0.50536,3.1768,-0.319509,-0.142583,-0.0964271
3349638,0.93,-1.57566,-0.520044,-0.00321057,-2.09316,-1.57151,1.57803,0.785068,-1.57717,-0.519869,-0.0037535,-2.08999,-1.57275,1.58039,0.784821,-0.273649,0.162304,-0.130379,0.176945,-0.0601071,0.438612,-0.0320571,-0.353158,0.21736,-0.208348,0.240585,-0.101014,0.539395,-0.0269144,-10.3686,-1.56833,-14.2828,22.6102,-1.86094,-0.431005,0.0780126,-0.3434,-1.30387,0.424812,3.18983,-0.332585,-0.132328,-0.0923825
3349639,0.93,-1.57598,-0.519856,-0.0033531,-2.09295,-1.57157,1.57855,0.785041,-1.57753,-0.519644,-0.00396878,-2.08974,-1.57286,1.58095,0.784794,-0.285276,0.16618,-0.135863,0.188878,-0.0655982,0.451811,-0.0275116,-0.365018,0.22485,-0.215278,0.248594,-0.103994,0.55736,-0.0275552,-10.4956,-1.41757,-14.6121,22.634,-1.89482,-0.40537,0.038645,-0.396186,-1.26291,0.337904,3.19501,-0.345645,-0.122576,-0.0882195
3349640,0.93,-1.57629,-0.51966,-0.00350768,-2.09272,-1.57165,1.57908,0.785004,-1.57791,-0.519411,-0.00419098,-2.08949,-1.57297,1.58152,0.784766,-0.294341,0.178177,-0.141287,0.196819,-0.0704747,0.489965,-0.0303587,-0.376878,0.23234,-0.222208,0.256603,-0.106973,0.575326,-0.0281959,-10.7455,-1.41757,-14.866,22.6856,-1.90581,-0.495092,0.038645,-0.450923,-1.20602,0.24642,3.19142,-0.358609,-0.113144,-0.0840907
3349641,0.93,-1.57662,-0.519449,-0.00366599,-2.09249,-1.57172,1.57965,0.78497,-1.5783,-0.519172,-0.00442012,-2.08922,-1.57308,1.58211,0.784737,-0.306142,0.187052,-0.146939,0.207044,-0.0689903,0.511532,-0.0335305,-0.388738,0.23983,-0.229138,0.264612,-0.109953,0.593292,-0.0288367,-10.8963,-1.52072,-15.0683,22.7094,-1.9232,-0.611364,0.071604,-0.508165,-1.145,0.150382,3.18398,-0.371617,-0.104346,-0.080134
3349642,0.94,-1.57696,-0.519238,-0.00382906,-2.09225,-1.5718,1.58024,0.784938,-1.5787,-0.518924,-0.00465619,-2.08895,-1.57319,1.58273,0.784707,-0.321732,0.196995,-0.153546,0.217132,-0.0791172,0.531976,-0.034399,-0.400598,0.24732,-0.236068,0.272621,-0.112933,0.611258,-0.0294774,-11.051,-1.52072,-15.2944,22.7332,-1.91221,-0.694677,0.0651953,-0.566089,-1.08859,0.052744,3.17654,-0.38474,-0.0960837,-0.0764096
3349643,0.95,-1.57732,-0.519019,-0.00400281,-2.092,-1.57189,1.58083,0.784905,-1.57911,-0.518669,-0.00489919,-2.08867,-1.5733,1.58336,0.784677,-0.335158,0.204488,-0.16141,0.234282,-0.0809741,0.54984,-0.0349748,-0.412459,0.25481,-0.242998,0.28063,-0.115912,0.629224,-0.0301182,-11.1264,-1.52072,-15.5206,22.7094,-1.91221,-0.707494,0.0587866,-0.62019,-1.03545,-0.0401821,3.16694,-0.397748,-0.0877391,-0.0729228
3349644,0.96,-1.57768,-0.518787,-0.00418298,-2.09174,-1.57198,1.58145,0.78487,-1.57954,-0.518407,-0.00514912,-2.08838,-1.57342,1.584,0.784646,-0.343257,0.211122,-0.165948,0.237462,-0.0831232,0.567297,-0.0361674,-0.424319,0.2623,-0.249928,0.288638,-0.118892,0.64719,-0.0307589,-11.4041,-1.5961,-15.6753,22.761,-1.88933,-0.733129,0.071604,-0.66944,-0.981223,-0.126808,3.15274,-0.410503,-0.0791752,-0.0696733
3349645,0.97,-1.57805,-0.518557,-0.00436863,-2.09148,-1.57207,1.5821,0.784832,-1.57997,-0.518137,-0.00540593,-2.08808,-1.57355,1.58467,0.784615,-0.352211,0.220966,-0.171521,0.24612,-0.0888337,0.602707,-0.0379724,-0.43633,0.26979,-0.256813,0.297,-0.12186,0.665307,-0.031405,-11.5787,-1.52072,-15.8499,22.8086,-1.88933,-0.849401,0.110056,-0.718272,-0.928307,-0.212818,3.13794,-0.423218,-0.0711675,-0.0666397
3349646,0.97,-1.57844,-0.518314,-0.00454842,-2.09119,-1.57216,1.58276,0.78479,-1.58042,-0.51786,-0.00566963,-2.08778,-1.57367,1.58535,0.784583,-0.36516,0.22708,-0.179721,0.258215,-0.0884347,0.620646,-0.0396104,-0.448341,0.27728,-0.263698,0.305361,-0.124828,0.683424,-0.0320511,-11.6064,-1.5961,-16.08,22.761,-1.89482,-0.919896,0.155832,-0.769535,-0.879461,-0.301551,3.12532,-0.435958,-0.0643379,-0.063777
3349647,0.97,-1.57885,-0.51806,-0.00474951,-2.09091,-1.57225,1.58342,0.78476,-1.58088,-0.517575,-0.00594021,-2.08747,-1.5738,1.58605,0.78455,-0.378551,0.233855,-0.187006,0.261709,-0.0921304,0.626207,-0.0376556,-0.460351,0.28477,-0.270583,0.313722,-0.127796,0.701541,-0.0326972,-11.6064,-1.64767,-16.1791,22.7848,-1.9232,-0.80454,0.122873,-0.820154,-0.831629,-0.388541,3.11391,-0.448578,-0.0581759,-0.0610006
3349648,0.97,-1.57926,-0.517804,-0.00495966,-2.09061,-1.57235,1.58409,0.784727,-1.58135,-0.517283,-0.00621768,-2.08714,-1.57393,1.58677,0.784517,-0.388643,0.243434,-0.193695,0.275985,-0.0949279,0.635932,-0.0358777,-0.472362,0.29226,-0.277469,0.322083,-0.130764,0.719658,-0.0333433,-11.6302,-1.74686,-16.2069,22.7848,-1.95158,-0.669042,0.0780126,-0.866824,-0.783943,-0.469405,3.10409,-0.461056,-0.0519509,-0.0582049
3349649,0.97,-1.57968,-0.517533,-0.00516614,-2.0903,-1.57246,1.5848,0.784699,-1.58184,-0.516983,-0.00650203,-2.08681,-1.57406,1.58751,0.784483,-0.397771,0.254819,-0.197112,0.289911,-0.0974071,0.654712,-0.0342708,-0.484373,0.29975,-0.284354,0.330444,-0.133732,0.737775,-0.0339894,-11.654,-1.89761,-16.3061,22.7332,-1.97447,-0.688268,0.0194189,-0.911322,-0.738212,-0.546896,3.09432,-0.473414,-0.0457329,-0.0553743
3349650,0.97,-1.58011,-0.517245,-0.0053854,-2.08999,-1.57256,1.58555,0.784666,-1.58234,-0.516676,-0.00679327,-2.08647,-1.5742,1.58827,0.784448,-0.410874,0.265071,-0.20614,0.294031,-0.0992638,0.679801,-0.0304106,-0.496384,0.30724,-0.291239,0.338805,-0.1367,0.755892,-0.0346355,-11.7056,-2.12772,-16.3815,22.7848,-1.99095,-0.836583,0.0130102,-0.956457,-0.699757,-0.62501,3.08546,-0.48577,-0.0398931,-0.0525873
3349651,0.97,-1.58055,-0.516959,-0.00562551,-2.08966,-1.57267,1.58628,0.78463,-1.58284,-0.516361,-0.0070914,-2.08613,-1.57434,1.58904,0.784413,-0.417352,0.274051,-0.216154,0.303413,-0.102039,0.696411,-0.0318557,-0.508395,0.31473,-0.298124,0.347166,-0.139669,0.774009,-0.0352816,-11.7572,-2.30228,-16.3339,22.7332,-1.99644,-0.842992,0.000192821,-1.00156,-0.674889,-0.702215,3.08239,-0.498294,-0.0343995,-0.0499446
3349652,0.97,-1.58101,-0.516661,-0.00586106,-2.08932,-1.57279,1.58704,0.784593,-1.58336,-0.516039,-0.00739641,-2.08577,-1.57448,1.58983,0.784377,-0.427327,0.279536,-0.223544,0.30982,-0.102764,0.703481,-0.0344034,-0.520406,0.32222,-0.30501,0.355528,-0.142637,0.792126,-0.0359277,-11.8048,-2.45303,-16.4092,22.7094,-2.01384,-0.746862,0.0258276,-1.04541,-0.661641,-0.77618,3.08584,-0.51102,-0.0290265,-0.0475331
3349653,0.97,-1.58148,-0.516358,-0.00610075,-2.08898,-1.57291,1.58781,0.784558,-1.5839,-0.515709,-0.0077083,-2.08541,-1.57463,1.59064,0.784341,-0.443001,0.283836,-0.227118,0.320066,-0.115474,0.725396,-0.0356477,-0.532417,0.32971,-0.311895,0.363889,-0.145605,0.810243,-0.0365738,-11.7056,-2.57999,-16.5362,22.7094,-1.99644,-0.746862,0.0322363,-1.0877,-0.649918,-0.847089,3.09139,-0.52381,-0.0235715,-0.0453977
3349654,0.97,-1.58195,-0.516043,-0.00635832,-2.08863,-1.57304,1.58862,0.784524,-1.58444,-0.515372,-0.00802708,-2.08504,-1.57478,1.59147,0.784303,-0.449824,0.290939,-0.23672,0.33156,-0.124655,0.748737,-0.0363562,-0.544428,0.3372,-0.31878,0.37225,-0.148573,0.82836,-0.0372199,-11.8802,-2.73471,-16.5362,22.6856,-1.98546,-0.785314,0.038645,-1.12862,-0.629999,-0.916243,3.09317,-0.536383,-0.0180413,-0.043537
3349655,0.97,-1.58243,-0.515726,-0.00662462,-2.08827,-1.57318,1.58946,0.784481,-1.585,-0.515027,-0.0083525,-2.08465,-1.57493,1.59232,0.784265,-0.460652,0.298004,-0.24507,0.339084,-0.132062,0.769661,-0.038852,-0.556159,0.34469,-0.325418,0.380743,-0.151394,0.846056,-0.0378556,-12.1341,-2.70694,-16.4846,22.6856,-1.94609,-0.92722,0.0972387,-1.16875,-0.600166,-0.9842,3.0889,-0.54855,-0.0126027,-0.0419159
3349656,0.97,-1.58293,-0.515395,-0.00688075,-2.08791,-1.57331,1.59029,0.784449,-1.58556,-0.514675,-0.00868456,-2.08427,-1.57508,1.59318,0.784227,-0.473753,0.306889,-0.248642,0.349801,-0.135422,0.789137,-0.0373455,-0.56789,0.35218,-0.332056,0.389236,-0.154216,0.863753,-0.0384913,-12.2095,-2.81009,-16.6631,22.761,-1.97447,-0.907079,0.071604,-1.20857,-0.564989,-1.05128,3.08053,-0.560331,-0.00744532,-0.0404589
3349657,0.97,-1.58345,-0.51505,-0.00713664,-2.08753,-1.57345,1.59113,0.78441,-1.58614,-0.514316,-0.00902325,-2.08387,-1.57524,1.59406,0.784188,-0.486544,0.316427,-0.252142,0.356646,-0.138105,0.80119,-0.0378315,-0.579621,0.35967,-0.338694,0.397729,-0.157037,0.88145,-0.039127,-12.2848,-2.93704,-16.9647,22.761,-2.00194,-0.733129,0.0844213,-1.24949,-0.530987,-1.11975,3.07134,-0.571888,-0.00288981,-0.0390649
3349658,0.97,-1.58397,-0.514694,-0.00742815,-2.08715,-1.57358,1.592,0.784373,-1.58674,-0.513948,-0.00936858,-2.08346,-1.5754,1.59496,0.784148,-0.492857,0.334123,-0.263325,0.365797,-0.134394,0.840837,-0.0375197,-0.591352,0.36716,-0.345331,0.406222,-0.159859,0.899146,-0.0397627,-12.4872,-3.16318,-16.8893,22.8363,-2.03673,-0.759679,0.0780126,-1.29326,-0.511379,-1.19155,3.06791,-0.583526,0.000669746,-0.0376559
3349659,0.97,-1.58448,-0.514335,-0.00770594,-2.08676,-1.57372,1.59292,0.784336,-1.58734,-0.513574,-0.00972055,-2.08305,-1.57556,1.59588,0.784108,-0.498303,0.341747,-0.272336,0.374219,-0.133591,0.860718,-0.0369967,-0.603083,0.37465,-0.351969,0.414716,-0.16268,0.916843,-0.0403983,-12.7649,-3.33774,-16.9924,22.8839,-2.04771,-0.913488,0.0651953,-1.34139,-0.518482,-1.26698,3.07605,-0.595503,0.00295227,-0.0362046
3349660,0.97,-1.58503,-0.513959,-0.00799231,-2.08637,-1.57387,1.59386,0.784298,-1.58795,-0.513192,-0.0100792,-2.08262,-1.57573,1.59681,0.784067,-0.521917,0.352696,-0.277026,0.380191,-0.13103,0.878417,-0.0372019,-0.614813,0.38214,-0.358607,0.423209,-0.165502,0.93454,-0.041034,-12.7887,-3.49246,-17.1194,23.0347,-2.08708,-1.04899,0.0651953,-1.39199,-0.551095,-1.34292,3.09587,-0.607861,0.00442047,-0.0347153
3349661,0.97,-1.58559,-0.513587,-0.00829249,-2.08596,-1.57402,1.59479,0.784264,-1.58858,-0.512802,-0.0104444,-2.08219,-1.57589,1.59776,0.784025,-0.531033,0.356818,-0.281555,0.395685,-0.1355,0.891903,-0.0349602,-0.626544,0.38963,-0.365245,0.431702,-0.168323,0.952236,-0.0416697,-12.7649,-3.59164,-17.0678,23.1815,-2.10448,-1.01694,0.000192821,-1.44121,-0.597187,-1.41539,3.1218,-0.620425,0.00584163,-0.0332148
3349662,0.97,-1.58616,-0.513199,-0.00859264,-2.08554,-1.57417,1.59575,0.784229,-1.58922,-0.512405,-0.0108163,-2.08175,-1.57607,1.59873,0.783983,-0.54225,0.362825,-0.288496,0.401298,-0.139291,0.899019,-0.0344546,-0.638275,0.39712,-0.371883,0.440195,-0.171145,0.969933,-0.0423054,-12.8165,-3.7186,-16.9924,23.3084,-2.10997,-0.991307,-0.0382593,-1.48889,-0.640543,-1.48511,3.14532,-0.632966,0.00737929,-0.0317717
3349663,0.97,-1.58674,-0.512804,-0.00889851,-2.08512,-1.57433,1.59672,0.784187,-1.58987,-0.512,-0.0111948,-2.0813,-1.57624,1.59972,0.78394,-0.556024,0.372369,-0.293291,0.405959,-0.147415,0.942482,-0.0366375,-0.650006,0.40461,-0.378521,0.448688,-0.173966,0.98763,-0.042941,-12.8918,-3.86935,-17.04,23.3799,-2.10448,-0.952855,-0.0126246,-1.53671,-0.676777,-1.55423,3.16602,-0.645491,0.00869947,-0.0304747
3349664,0.97,-1.58733,-0.512403,-0.00920629,-2.0847,-1.57449,1.59771,0.784142,-1.59053,-0.511588,-0.01158,-2.08085,-1.57642,1.60073,0.783896,-0.5695,0.383034,-0.302439,0.412162,-0.144107,0.959072,-0.0380351,-0.661737,0.4121,-0.385158,0.457181,-0.176788,1.00533,-0.0435767,-12.9434,-4.04788,-17.0678,23.5068,-2.09257,-0.887853,0.0194189,-1.58473,-0.715436,-1.62238,3.1909,-0.658165,0.00945644,-0.0293877
3349665,0.97,-1.58794,-0.511996,-0.00954048,-2.08426,-1.57465,1.59872,0.784098,-1.5912,-0.511169,-0.0119714,-2.08038,-1.5766,1.60175,0.783852,-0.583126,0.387146,-0.310998,0.41975,-0.144702,0.965932,-0.0406057,-0.67288,0.41959,-0.391471,0.465648,-0.179286,1.02224,-0.0441857,-12.8918,-4.09946,-16.9647,23.606,-2.12095,-0.849401,0.09083,-1.62997,-0.75982,-1.68494,3.22234,-0.670994,0.0102331,-0.0285203
3349666,0.97,-1.58856,-0.511577,-0.00988162,-2.08381,-1.5748,1.59974,0.784054,-1.59189,-0.510742,-0.0123692,-2.07991,-1.57678,1.60279,0.783807,-0.594898,0.399364,-0.317427,0.424746,-0.14472,0.982331,-0.0405929,-0.684022,0.42708,-0.397783,0.474115,-0.181784,1.03915,-0.0447946,-12.7411,-4.22244,-16.8139,23.606,-2.16673,-0.785314,0.116465,-1.66982,-0.807602,-1.73813,3.25945,-0.683923,0.0118828,-0.0277972
3349667,0.97,-1.58921,-0.511146,-0.010224,-2.08336,-1.57496,1.6008,0.784014,-1.59258,-0.510307,-0.0127733,-2.07942,-1.57696,1.60385,0.783762,-0.605685,0.408361,-0.329266,0.433247,-0.15183,1.00717,-0.0341596,-0.695165,0.43457,-0.404096,0.482581,-0.184282,1.05606,-0.0454036,-12.4634,-4.3494,-16.6631,23.5544,-2.17222,-0.907079,0.0972387,-1.70457,-0.862405,-1.782,3.3035,-0.696987,0.0144982,-0.0270753
3349668,0.97,-1.58986,-0.510716,-0.0105895,-2.0829,-1.57513,1.60189,0.783971,-1.59329,-0.509865,-0.0131837,-2.07893,-1.57715,1.60492,0.783716,-0.621069,0.414554,-0.341861,0.437198,-0.152448,1.02322,-0.0349404,-0.706307,0.44206,-0.410408,0.491048,-0.18678,1.07297,-0.0460126,-12.3126,-4.32559,-16.4608,23.5544,-2.14384,-0.991307,0.0972387,-1.73207,-0.925007,-1.81306,3.35431,-0.710098,0.0183277,-0.0262415
3349669,0.97,-1.59052,-0.510279,-0.0109705,-2.08243,-1.57529,1.60296,0.783932,-1.59401,-0.509415,-0.0136004,-2.07843,-1.57734,1.60601,0.783669,-0.633755,0.422842,-0.35166,0.450983,-0.157773,1.03874,-0.0350448,-0.71745,0.44955,-0.41672,0.499515,-0.189279,1.08988,-0.0466215,-12.2848,-4.30179,-16.1315,23.4076,-2.13286,-1.01053,0.0844213,-1.74833,-0.988583,-1.82612,3.40753,-0.723009,0.023864,-0.0252608
3349670,0.97,-1.5912,-0.509824,-0.0113339,-2.08195,-1.57547,1.60407,0.783888,-1.59473,-0.508958,-0.0140235,-2.07792,-1.57753,1.60711,0.783622,-0.648661,0.434802,-0.352356,0.456832,-0.166326,1.05111,-0.0367185,-0.728593,0.45704,-0.423033,0.507981,-0.191777,1.1068,-0.0472305,-12.1341,-4.42477,-16.0522,23.3084,-2.13835,-0.997716,0.103647,-1.75487,-1.05044,-1.82457,3.4595,-0.735609,0.0306666,-0.024127
3349671,0.97,-1.5919,-0.509372,-0.0117106,-2.08145,-1.57565,1.60516,0.783847,-1.59547,-0.508494,-0.0144528,-2.07741,-1.57772,1.60824,0.783574,-0.665525,0.441162,-0.353955,0.473063,-0.16727,1.0671,-0.036168,-0.739735,0.46453,-0.429345,0.516448,-0.194275,1.12371,-0.0478395,-11.8802,-4.52792,-16.0284,23.0823,-2.14384,-0.946447,0.0844213,-1.75781,-1.11045,-1.8188,3.50768,-0.747955,0.0376018,-0.0228451
3349672,0.97,-1.5926,-0.508907,-0.0121012,-2.08095,-1.57582,1.60628,0.783801,-1.59623,-0.508022,-0.0148885,-2.07688,-1.57792,1.60938,0.783526,-0.673889,0.447774,-0.366975,0.479966,-0.164001,1.07879,-0.0412239,-0.750878,0.47202,-0.435658,0.524915,-0.196773,1.14062,-0.0484484,-11.7056,-4.5795,-15.826,22.9355,-2.14934,-0.887853,0.0844213,-1.75979,-1.16217,-1.81352,3.54729,-0.759997,0.044256,-0.0214598
3349673,0.97,-1.59332,-0.508434,-0.012514,-2.08044,-1.576,1.60741,0.783757,-1.59699,-0.507542,-0.0153304,-2.07635,-1.57812,1.61054,0.783477,-0.683795,0.452049,-0.382049,0.487883,-0.172115,1.08703,-0.0394401,-0.76202,0.47951,-0.44197,0.533381,-0.199271,1.15753,-0.0490574,-11.6064,-4.6033,-15.6475,22.761,-2.12095,-0.817357,0.0587866,-1.7574,-1.1996,-1.80284,3.57621,-0.771599,0.0513257,-0.0200222
3349674,0.97,-1.59405,-0.507966,-0.0129303,-2.07992,-1.57618,1.60853,0.783722,-1.59776,-0.507055,-0.0157787,-2.07581,-1.57832,1.61171,0.783427,-0.695101,0.458265,-0.389746,0.507026,-0.172528,1.09107,-0.0357588,-0.773163,0.487,-0.448282,0.541848,-0.201769,1.17444,-0.0496664,-11.4517,-4.6033,-15.6237,22.6102,-2.10448,-0.785314,-0.0318506,-1.74674,-1.217,-1.78031,3.59143,-0.782542,0.0596785,-0.0185912
3349675,0.97,-1.5948,-0.507489,-0.0133529,-2.07939,-1.57637,1.6097,0.783678,-1.59854,-0.506561,-0.0162329,-2.07526,-1.57853,1.6129,0.783377,-0.709545,0.462583,-0.394421,0.515546,-0.179889,1.10037,-0.0403593,-0.783511,0.49449,-0.454216,0.550188,-0.203869,1.19032,-0.0502277,-11.4279,-4.52792,-15.3976,22.5626,-2.04771,-0.875035,-0.0584009,-1.72846,-1.20793,-1.74778,3.58737,-0.792641,0.0694571,-0.0172759
3349676,0.97,-1.59556,-0.506997,-0.0137924,-2.07883,-1.57656,1.61087,0.783638,-1.59934,-0.506059,-0.0166931,-2.0747,-1.57873,1.61411,0.783326,-0.727131,0.477536,-0.40566,0.524693,-0.183373,1.13861,-0.0435449,-0.79386,0.50198,-0.46015,0.558529,-0.205969,1.2062,-0.0507891,-11.2771,-4.47635,-15.1952,22.388,-2.03032,-0.965673,-0.0904444,-1.70408,-1.18058,-1.70832,3.56818,-0.801962,0.080205,-0.016196
3349677,0.97,-1.59635,-0.506512,-0.0142252,-2.07828,-1.57675,1.61208,0.783595,-1.60014,-0.505549,-0.0171592,-2.07413,-1.57894,1.61533,0.783275,-0.745828,0.482394,-0.418996,0.535277,-0.1812,1.15318,-0.0420927,-0.804208,0.50947,-0.466084,0.566869,-0.208068,1.22209,-0.0513505,-11.0986,-4.42477,-15.1159,22.2135,-2.04222,-1.05539,-0.0968531,-1.67035,-1.15061,-1.65701,3.54298,-0.810555,0.0918219,-0.0154615
3349678,0.98,-1.59713,-0.506005,-0.0146638,-2.07771,-1.57695,1.61331,0.783558,-1.60096,-0.505032,-0.0176312,-2.07356,-1.57915,1.61657,0.783223,-0.778111,0.489566,-0.423231,0.544394,-0.182919,1.16102,-0.0437823,-0.814557,0.51696,-0.472018,0.575209,-0.210168,1.23797,-0.0519118,-10.9479,-4.52792,-15.1159,22.1619,-2.07609,-1.22294,-0.155447,-1.62012,-1.11999,-1.58456,3.51392,-0.818296,0.105098,-0.0151656
3349679,0.98,-1.59792,-0.505496,-0.015115,-2.07714,-1.57715,1.61454,0.783518,-1.60178,-0.504508,-0.0181091,-2.07297,-1.57936,1.61782,0.78317,-0.783157,0.49589,-0.429387,0.562654,-0.191544,1.17454,-0.0369719,-0.824905,0.52445,-0.477951,0.583549,-0.212267,1.25385,-0.0524732,-10.9756,-4.52792,-14.9889,22.0905,-2.0587,-1.42893,-0.181082,-1.55302,-1.08199,-1.49206,3.47737,-0.825129,0.119992,-0.0153825
3349680,0.98,-1.59872,-0.504973,-0.015566,-2.07655,-1.57735,1.61577,0.783486,-1.60262,-0.503976,-0.018593,-2.07238,-1.57958,1.61909,0.783117,-0.779765,0.500615,-0.436434,0.567837,-0.197973,1.17556,-0.0350213,-0.835253,0.53194,-0.483885,0.59189,-0.214367,1.26973,-0.0530346,-11.1264,-4.5795,-14.9136,22.1381,-2.04222,-1.33921,-0.252493,-1.4823,-1.0321,-1.39721,3.43016,-0.83132,0.134327,-0.0161928
3349681,0.99,-1.59951,-0.50445,-0.0160231,-2.07596,-1.57755,1.617,0.78345,-1.60346,-0.503437,-0.0190829,-2.07178,-1.57979,1.62038,0.783064,-0.788421,0.50362,-0.442307,0.572822,-0.200676,1.20346,-0.0351811,-0.845602,0.53943,-0.489819,0.60023,-0.216466,1.28561,-0.0535959,-11.301,-4.55173,-15.0405,22.2611,-2.06419,-0.984899,-0.278127,-1.42262,-0.970727,-1.31819,3.37546,-0.837347,0.145694,-0.0176698
3349682,1,-1.60032,-0.503922,-0.0164865,-2.07537,-1.57775,1.61824,0.78341,-1.60432,-0.50289,-0.0195786,-2.07117,-1.58001,1.62168,0.783009,-0.796439,0.512371,-0.44558,0.576173,-0.19839,1.2028,-0.036558,-0.85595,0.54692,-0.495753,0.60857,-0.218566,1.30149,-0.0541573,-11.5271,-4.55173,-15.1437,22.3127,-2.11546,-0.778905,-0.26531,-1.37979,-0.904506,-1.26205,3.32115,-0.843655,0.153262,-0.0198648
3349683,1,-1.60115,-0.503381,-0.0169513,-2.07476,-1.57796,1.61955,0.783368,-1.60518,-0.502335,-0.0200803,-2.07056,-1.58023,1.623,0.782955,-0.812329,0.51845,-0.454783,0.583703,-0.199735,1.22437,-0.0390404,-0.866298,0.55441,-0.501687,0.61691,-0.220666,1.31738,-0.0547187,-11.654,-4.5795,-15.2191,22.388,-2.1942,-0.952855,-0.206716,-1.35179,-0.84236,-1.2258,3.27389,-0.850495,0.1579,-0.0227797
3349684,1,-1.60198,-0.50285,-0.0174244,-2.07416,-1.57817,1.62085,0.783327,-1.60606,-0.501773,-0.0205879,-2.06993,-1.58045,1.62433,0.782899,-0.826094,0.522466,-0.454755,0.588021,-0.202057,1.24741,-0.0398496,-0.876647,0.5619,-0.50762,0.625251,-0.222765,1.33326,-0.05528,-11.7056,-4.52792,-15.2944,22.5864,-2.24547,-1.12681,-0.174673,-1.33427,-0.786418,-1.20356,3.23525,-0.857893,0.160817,-0.0263417
3349685,1,-1.60285,-0.502292,-0.0178925,-2.07355,-1.57838,1.62219,0.783293,-1.60695,-0.501204,-0.0211011,-2.0693,-1.58068,1.62568,0.782844,-0.842642,0.530314,-0.45464,0.596772,-0.205497,1.26646,-0.0379594,-0.886064,0.56939,-0.513141,0.633417,-0.224438,1.34795,-0.0557631,-11.5271,-4.55173,-15.4214,22.6618,-2.25096,-1.36484,-0.206716,-1.32706,-0.734471,-1.19605,3.20386,-0.865905,0.162121,-0.0304006
3349686,1,-1.6037,-0.501715,-0.0183768,-2.07292,-1.5786,1.62353,0.783262,-1.60784,-0.500627,-0.0216197,-2.06866,-1.58091,1.62704,0.782787,-0.849206,0.543183,-0.464729,0.605191,-0.209651,1.28602,-0.0357255,-0.895481,0.57688,-0.518662,0.641583,-0.226112,1.36264,-0.0562461,-11.5271,-4.73026,-15.3698,22.7332,-2.1887,-1.31998,-0.278127,-1.33055,-0.691374,-1.20396,3.18039,-0.874659,0.161449,-0.0347813
3349687,1,-1.60457,-0.501142,-0.0188736,-2.0723,-1.57883,1.62485,0.783223,-1.60875,-0.500043,-0.0221439,-2.06801,-1.58113,1.62842,0.782731,-0.846304,0.549778,-0.471465,0.608454,-0.214436,1.29431,-0.0368648,-0.904898,0.58437,-0.524183,0.649749,-0.227785,1.37733,-0.0567292,-11.6818,-4.93259,-15.3698,22.8601,-2.09807,-1.28702,-0.26531,-1.34506,-0.665785,-1.22588,3.16796,-0.884247,0.158415,-0.039386
3349688,1,-1.60544,-0.500548,-0.0193731,-2.07166,-1.57905,1.62621,0.783169,-1.60966,-0.499451,-0.0226736,-2.06735,-1.58136,1.62981,0.782673,-0.851044,0.562821,-0.480658,0.617783,-0.214638,1.30288,-0.0459101,-0.914316,0.59186,-0.529705,0.657915,-0.229458,1.39201,-0.0572122,-11.7294,-5.15872,-15.3182,22.9831,-2.08708,-1.20371,-0.155447,-1.37248,-0.662329,-1.26243,3.169,-0.894681,0.152729,-0.0441947
3349689,1,-1.60632,-0.499956,-0.0198772,-2.07102,-1.57928,1.62755,0.783113,-1.61059,-0.498851,-0.0232088,-2.06668,-1.58159,1.63122,0.782616,-0.857275,0.574126,-0.48172,0.621407,-0.217265,1.31481,-0.0525831,-0.923733,0.59935,-0.535226,0.66608,-0.231132,1.4067,-0.0576952,-11.6818,-5.38882,-15.1952,23.0823,-2.15483,-1.03617,-0.0382593,-1.41302,-0.685466,-1.3134,3.18526,-0.905849,0.144527,-0.0491287
3349690,1,-1.60722,-0.499355,-0.0203824,-2.07039,-1.57949,1.62894,0.783051,-1.61152,-0.498245,-0.0237496,-2.06601,-1.58183,1.63264,0.782558,-0.862504,0.579707,-0.488566,0.62431,-0.214786,1.33242,-0.0546554,-0.93315,0.60684,-0.540747,0.674246,-0.232805,1.42139,-0.0581783,-11.5271,-5.51181,-15.1159,23.3322,-2.24547,-0.933629,0.135691,-1.46636,-0.735913,-1.37888,3.21793,-0.917677,0.134083,-0.0539795
3349691,1,-1.60813,-0.498744,-0.0208954,-2.06973,-1.57971,1.63032,0.783012,-1.61246,-0.49763,-0.0242958,-2.06533,-1.58206,1.63407,0.782499,-0.891872,0.584657,-0.49603,0.632651,-0.218525,1.33342,-0.0506404,-0.942567,0.61433,-0.546268,0.682412,-0.234478,1.43608,-0.0586613,-11.301,-5.53958,-15.0683,23.3799,-2.28483,-0.694677,0.038645,-1.52413,-0.801777,-1.44877,3.26258,-0.92988,0.12309,-0.0584384
3349692,1,-1.60904,-0.498138,-0.0214244,-2.06907,-1.57992,1.63171,0.782961,-1.61341,-0.497008,-0.0248476,-2.06464,-1.5823,1.63552,0.78244,-0.899147,0.588593,-0.499484,0.6513,-0.223335,1.34584,-0.0460695,-0.951985,0.62182,-0.551789,0.690578,-0.236152,1.45077,-0.0591444,-11.2771,-5.53958,-14.8382,23.3322,-2.29033,-0.617772,0.00660151,-1.57339,-0.861777,-1.50752,3.30629,-0.941877,0.114083,-0.0622385
3349693,1,-1.60996,-0.497528,-0.0219521,-2.06841,-1.58015,1.63315,0.78291,-1.61437,-0.496379,-0.0254049,-2.06394,-1.58253,1.63699,0.78238,-0.903496,0.593388,-0.511153,0.657846,-0.227113,1.37438,-0.0466954,-0.961402,0.62931,-0.55731,0.698744,-0.237825,1.46546,-0.0596274,-11.301,-5.41263,-14.6121,23.3561,-2.27934,-0.713903,-0.044668,-1.61305,-0.899137,-1.55435,3.33688,-0.953325,0.107668,-0.0653329
3349694,1,-1.61089,-0.496893,-0.0224783,-2.06772,-1.58037,1.63463,0.782846,-1.61535,-0.495742,-0.0259678,-2.06323,-1.58277,1.63847,0.78232,-0.914535,0.610796,-0.513806,0.6661,-0.228417,1.4262,-0.0516034,-0.970819,0.6368,-0.562831,0.70691,-0.239498,1.48015,-0.0601105,-11.2533,-5.43643,-14.5843,23.2053,-2.29033,-0.946447,0.0194189,-1.64964,-0.921486,-1.59679,3.3574,-0.964413,0.102666,-0.0678109
3349695,1,-1.61186,-0.49626,-0.023001,-2.06704,-1.58058,1.63607,0.782774,-1.61632,-0.495098,-0.0265357,-2.06251,-1.58302,1.63996,0.78226,-0.930668,0.614438,-0.527935,0.670114,-0.224994,1.43041,-0.056462,-0.979214,0.64429,-0.567921,0.714902,-0.240731,1.49354,-0.060467,-10.9241,-5.56339,-14.6359,23.0347,-2.38646,-0.868627,0.122873,-1.68356,-0.947567,-1.63432,3.37869,-0.975444,0.0984799,-0.0697478
3349696,1,-1.61282,-0.495606,-0.0235327,-2.06634,-1.5808,1.63752,0.782714,-1.61731,-0.494446,-0.0271087,-2.06179,-1.58326,1.64147,0.782199,-0.93671,0.625126,-0.533142,0.679806,-0.226805,1.43102,-0.0601295,-0.98761,0.65178,-0.573012,0.722894,-0.241964,1.50693,-0.0608235,-10.9241,-5.66653,-14.6597,22.9077,-2.42674,-0.643407,0.103647,-1.70924,-0.980754,-1.65923,3.40408,-0.986534,0.0959058,-0.0711335
3349697,1,-1.61377,-0.494961,-0.0240792,-2.06563,-1.58102,1.639,0.782646,-1.61831,-0.493787,-0.0276868,-2.06106,-1.5835,1.64299,0.782138,-0.939632,0.630221,-0.536894,0.687939,-0.223709,1.43696,-0.059728,-0.996005,0.65927,-0.578102,0.730886,-0.243196,1.52032,-0.06118,-10.9994,-5.74191,-14.6874,22.7848,-2.39287,-0.617772,0.122873,-1.72859,-1.01637,-1.67486,3.4311,-0.997915,0.0949914,-0.0719025
3349698,1,-1.61474,-0.494306,-0.0246283,-2.06492,-1.58126,1.64052,0.782591,-1.61931,-0.49312,-0.02827,-2.06032,-1.58374,1.64452,0.782076,-0.940997,0.635991,-0.541444,0.6911,-0.224606,1.45293,-0.0555285,-1.0044,0.66676,-0.583193,0.738878,-0.244429,1.53371,-0.0615365,-11.051,-5.69034,-14.6597,22.634,-2.26286,-0.67545,0.0258276,-1.75093,-1.0504,-1.69473,3.45777,-1.00994,0.094628,-0.0720475
3349699,1,-1.61571,-0.493659,-0.0251922,-2.06418,-1.58148,1.64205,0.782528,-1.62033,-0.492446,-0.0288583,-2.05958,-1.58399,1.64607,0.782014,-0.965063,0.633763,-0.54969,0.699679,-0.222733,1.49775,-0.0581055,-1.0128,0.67425,-0.588284,0.74687,-0.245662,1.5471,-0.061893,-10.9994,-5.43643,-14.5367,22.4634,-2.22258,-0.598546,-0.044668,-1.7778,-1.07348,-1.72169,3.48077,-1.02245,0.0944991,-0.0716736
3349700,1,-1.61673,-0.493025,-0.0257648,-2.06346,-1.58171,1.64357,0.78247,-1.62135,-0.491764,-0.0294517,-2.05882,-1.58424,1.64763,0.781952,-0.983505,0.632541,-0.554651,0.711931,-0.223528,1.50881,-0.0592414,-1.02119,0.68174,-0.593374,0.754862,-0.246895,1.56049,-0.0622495,-10.6464,-5.03177,-14.3582,22.3603,-2.18321,-0.617772,-0.135305,-1.79998,-1.06637,-1.74472,3.49017,-1.03464,0.09572,-0.07102
3349701,1,-1.61776,-0.49236,-0.0263364,-2.0627,-1.58195,1.64512,0.782402,-1.62238,-0.491075,-0.0300501,-2.05806,-1.58449,1.64921,0.781889,-0.993715,0.638041,-0.558244,0.725746,-0.228047,1.50968,-0.0593272,-1.02959,0.68923,-0.598465,0.762854,-0.248127,1.57389,-0.062606,-10.1663,-4.80563,-14.1558,22.1897,-2.14384,-0.67545,-0.128897,-1.8112,-1.01539,-1.75664,3.4764,-1.04583,0.099332,-0.0703757
3349702,1,-1.61878,-0.491688,-0.0269209,-2.06194,-1.58218,1.64669,0.782324,-1.62341,-0.490378,-0.0306537,-2.05729,-1.58473,1.65079,0.781826,-0.996441,0.646529,-0.564478,0.734729,-0.229981,1.52941,-0.0672405,-1.03798,0.69672,-0.603555,0.770846,-0.24936,1.58728,-0.0629625,-9.91637,-4.82944,-13.8781,22.0389,-2.14934,-0.862218,-0.0318506,-1.81532,-0.928583,-1.76257,3.44079,-1.05596,0.104792,-0.0699606
3349703,1,-1.61981,-0.49099,-0.0275114,-2.0612,-1.5824,1.64826,0.782256,-1.62446,-0.489674,-0.0312623,-2.05651,-1.58499,1.65239,0.781763,-0.999774,0.662759,-0.575411,0.736113,-0.227931,1.53717,-0.0695717,-1.04638,0.70421,-0.608646,0.778837,-0.250593,1.60067,-0.0633191,-9.76165,-5.00797,-13.5211,22.1381,-2.1942,-0.887853,-0.0190333,-1.81823,-0.83427,-1.76873,3.39778,-1.06546,0.110734,-0.0698183
3349704,1,-1.62085,-0.490277,-0.0281056,-2.06043,-1.58263,1.64984,0.782197,-1.62552,-0.488962,-0.0318761,-2.05572,-1.58524,1.65401,0.781699,-1.01478,0.672601,-0.576721,0.744193,-0.234081,1.54054,-0.0633401,-1.05477,0.7117,-0.613736,0.786829,-0.251826,1.61406,-0.0636756,-9.55931,-5.26187,-13.2949,22.1619,-2.21709,-0.862218,-0.0968531,-1.82076,-0.762137,-1.77486,3.36428,-1.07485,0.116418,-0.0698207
3349705,1,-1.62189,-0.48958,-0.0287062,-2.05967,-1.58287,1.65142,0.78214,-1.62658,-0.488243,-0.0324944,-2.05493,-1.58549,1.65563,0.781635,-1.02288,0.682739,-0.581131,0.748978,-0.240257,1.54389,-0.0593318,-1.06209,0.71919,-0.618388,0.794662,-0.252612,1.62608,-0.0638617,-9.48394,-5.38882,-13.1918,22.4356,-2.25645,-0.842992,-0.161856,-1.82144,-0.722018,-1.7795,3.34616,-1.08435,0.121709,-0.0698698
3349706,1,-1.62294,-0.488862,-0.0293004,-2.0589,-1.58311,1.65306,0.782089,-1.62765,-0.487517,-0.0331175,-2.05412,-1.58574,1.65727,0.781571,-1.0241,0.689501,-0.587909,0.754522,-0.23489,1.56371,-0.0594283,-1.0694,0.72668,-0.62304,0.802494,-0.253399,1.63811,-0.0640479,-9.66246,-5.56339,-13.2195,22.7848,-2.32512,-1.0618,-0.290945,-1.82201,-0.710347,-1.78516,3.34255,-1.0941,0.126183,-0.0700257
3349707,1,-1.624,-0.488152,-0.0299008,-2.05811,-1.58335,1.65469,0.782027,-1.62872,-0.486782,-0.0337452,-2.05331,-1.586,1.65892,0.781507,-1.03503,0.697291,-0.587526,0.758727,-0.23829,1.6186,-0.0585735,-1.07672,0.73417,-0.627691,0.810326,-0.254185,1.65014,-0.064234,-9.68627,-5.66653,-13.2949,23.0585,-2.38646,-1.31357,-0.310171,-1.82802,-0.721281,-1.79897,3.35199,-1.10427,0.128556,-0.0704953
3349708,1,-1.62507,-0.487419,-0.0305118,-2.05734,-1.58359,1.65632,0.781964,-1.62981,-0.486041,-0.0343775,-2.0525,-1.58625,1.66058,0.781443,-1.04311,0.708255,-0.605886,0.761943,-0.23451,1.61515,-0.0633831,-1.08403,0.74166,-0.632343,0.818158,-0.254972,1.66216,-0.0644202,-9.76165,-5.71414,-13.2949,23.3322,-2.38646,-1.12681,-0.303762,-1.83894,-0.752594,-1.81945,3.3749,-1.11492,0.128288,-0.0715106
3349709,1,-1.62612,-0.486678,-0.0311272,-2.05655,-1.58384,1.65797,0.781893,-1.6309,-0.485292,-0.0350145,-2.05167,-1.58651,1.66226,0.781378,-1.06517,0.717139,-0.603628,0.765047,-0.243299,1.61559,-0.0670323,-1.09135,0.74915,-0.636994,0.825991,-0.255758,1.67419,-0.0646063,-9.91637,-5.78952,-13.3465,23.606,-2.31322,-0.972081,-0.168264,-1.84444,-0.805602,-1.83199,3.41361,-1.12601,0.126907,-0.073169
3349710,1,-1.62719,-0.485919,-0.0317469,-2.05576,-1.5841,1.65962,0.781827,-1.632,-0.484535,-0.0356562,-2.05084,-1.58676,1.66394,0.781313,-1.06721,0.733043,-0.609342,0.790145,-0.250268,1.6262,-0.0661321,-1.09867,0.75664,-0.641646,0.833823,-0.256545,1.68621,-0.0647925,-10.0671,-6.1188,-13.3465,23.606,-2.26286,-0.933629,-0.116079,-1.84091,-0.876507,-1.8325,3.46329,-1.13739,0.125422,-0.075412
3349711,1,-1.62828,-0.485148,-0.032364,-2.05493,-1.58436,1.66133,0.781763,-1.6331,-0.483771,-0.0363025,-2.04999,-1.58702,1.66564,0.781248,-1.07078,0.735805,-0.609109,0.801375,-0.251353,1.63581,-0.065055,-1.10598,0.76413,-0.646298,0.841655,-0.257331,1.69824,-0.0649786,-10.2417,-6.39651,-13.2949,23.4314,-2.22258,-1.14603,-0.0712183,-1.83679,-0.951819,-1.83285,3.51038,-1.14871,0.123134,-0.078088
3349712,1,-1.62936,-0.484378,-0.0329772,-2.05409,-1.5846,1.66303,0.781704,-1.63422,-0.482999,-0.0369534,-2.04914,-1.58728,1.66735,0.781183,-1.07337,0.754433,-0.603199,0.814758,-0.250036,1.68332,-0.062469,-1.1133,0.77162,-0.650949,0.849487,-0.258118,1.71027,-0.0651648,-10.1663,-6.44809,-13.4219,23.0069,-2.27934,-1.15885,-0.0840357,-1.84579,-1.02369,-1.85142,3.54805,-1.15994,0.118209,-0.0809942
3349713,1,-1.63047,-0.483611,-0.0335847,-2.05325,-1.58484,1.66472,0.781658,-1.63534,-0.48222,-0.037609,-2.04829,-1.58754,1.66908,0.781118,-1.08145,0.756976,-0.615404,0.829634,-0.249769,1.68762,-0.0563009,-1.12061,0.77911,-0.655601,0.857319,-0.258904,1.72229,-0.065351,-9.96398,-6.47189,-13.5488,22.634,-2.29033,-1.13321,-0.200308,-1.87445,-1.0932,-1.89657,3.57653,-1.17112,0.10949,-0.0839456
3349714,1,-1.6316,-0.48284,-0.0342206,-2.05238,-1.5851,1.66642,0.781587,-1.63647,-0.481433,-0.0382693,-2.04742,-1.5878,1.67081,0.781052,-1.09692,0.75943,-0.621706,0.840549,-0.248812,1.67637,-0.0596744,-1.12793,0.7866,-0.660253,0.865152,-0.259691,1.73432,-0.0655371,-9.76165,-6.29733,-13.5488,22.1897,-2.31322,-0.946447,-0.10967,-1.91069,-1.14684,-1.95148,3.58995,-1.18183,0.0991157,-0.0868836
3349715,1,-1.6327,-0.482069,-0.0348854,-2.05151,-1.58536,1.66812,0.781525,-1.6376,-0.480639,-0.0389337,-2.04655,-1.58806,1.67255,0.780987,-1.09117,0.761541,-0.63503,0.846769,-0.250593,1.68596,-0.0597603,-1.13413,0.79409,-0.664461,0.872811,-0.260035,1.74494,-0.0655449,-9.83702,-6.19418,-13.168,21.9873,-2.27385,-0.868627,-0.0840357,-1.94102,-1.16839,-1.99784,3.58355,-1.19176,0.0897941,-0.0898284
3349716,1,-1.63381,-0.481281,-0.035543,-2.05065,-1.58562,1.66984,0.781455,-1.63874,-0.479838,-0.0396024,-2.04567,-1.58832,1.67431,0.780921,-1.09242,0.766801,-0.643496,0.852371,-0.251896,1.68721,-0.0616868,-1.14034,0.80158,-0.66867,0.88047,-0.260379,1.75556,-0.0655527,-10.0156,-6.17038,-12.8387,21.7414,-2.22899,-0.643407,-0.00621587,-1.96469,-1.15825,-2.03353,3.56129,-1.20109,0.0820857,-0.092729
3349717,1,-1.63494,-0.480484,-0.0362097,-2.04976,-1.58587,1.67159,0.781399,-1.63989,-0.479029,-0.0402753,-2.04478,-1.58858,1.67608,0.780856,-1.10477,0.774558,-0.645681,0.856231,-0.252244,1.69295,-0.058427,-1.14654,0.80907,-0.672879,0.888129,-0.260723,1.76618,-0.0655605,-9.81322,-6.1188,-12.6363,21.6144,-2.23448,-0.520726,-0.0510767,-1.98402,-1.12782,-2.06097,3.53141,-1.21009,0.075979,-0.0954363
3349718,1,-1.63609,-0.479703,-0.0368699,-2.04888,-1.58613,1.67332,0.78134,-1.64104,-0.478212,-0.0409524,-2.04388,-1.58884,1.67785,0.78079,-1.10745,0.780679,-0.644155,0.862237,-0.249505,1.69922,-0.0600543,-1.15275,0.81656,-0.677087,0.895788,-0.261067,1.7768,-0.0655683,-9.55931,-5.94424,-12.6125,21.5668,-2.28483,-0.443822,-0.116079,-2.00247,-1.09011,-2.08563,3.50138,-1.21907,0.0712955,-0.0978028
3349719,1,-1.63724,-0.478909,-0.0375328,-2.04798,-1.58638,1.6751,0.781276,-1.6422,-0.477388,-0.0416337,-2.04298,-1.5891,1.67964,0.780724,-1.11824,0.784361,-0.655824,0.867177,-0.246377,1.70442,-0.063254,-1.15895,0.82405,-0.681296,0.903447,-0.261411,1.78742,-0.0655761,-9.53551,-5.69034,-12.4578,21.6144,-2.36998,-0.488683,-0.135305,-2.02205,-1.04977,-2.11084,3.47363,-1.22817,0.0680428,-0.0998134
3349720,1,-1.63838,-0.478116,-0.0382034,-2.04708,-1.58664,1.67686,0.781216,-1.64336,-0.476557,-0.0423192,-2.04207,-1.58936,1.68144,0.780659,-1.12223,0.790798,-0.659647,0.875878,-0.250792,1.71739,-0.0640674,-1.16516,0.83154,-0.685505,0.911107,-0.261755,1.79804,-0.0655839,-9.38475,-5.48801,-12.2833,21.7176,-2.3416,-0.546361,-0.200308,-2.03908,-1.00502,-2.13155,3.44683,-1.23731,0.0668635,-0.101576
3349721,1,-1.63953,-0.477298,-0.0388757,-2.04619,-1.5869,1.67866,0.781153,-1.64453,-0.475718,-0.0430089,-2.04115,-1.58963,1.68325,0.780593,-1.12227,0.799427,-0.662411,0.876733,-0.251491,1.73164,-0.0658572,-1.17136,0.83903,-0.689713,0.918766,-0.262099,1.80866,-0.0655917,-9.33318,-5.41263,-12.0532,21.8644,-2.31871,-0.611364,-0.232351,-2.05544,-0.959654,-2.15012,3.42249,-1.24661,0.0672176,-0.103224
3349722,1,-1.64067,-0.476472,-0.0395709,-2.04529,-1.58716,1.68046,0.781077,-1.64571,-0.474871,-0.0437028,-2.04022,-1.58989,1.68507,0.780528,-1.12957,0.810745,-0.667338,0.875781,-0.251225,1.73802,-0.0714316,-1.17757,0.84652,-0.693922,0.926425,-0.262443,1.81928,-0.0655995,-9.2578,-5.43643,-11.7001,22.2611,-2.29674,-0.527135,-0.155447,-2.07656,-0.928023,-2.17362,3.40949,-1.25645,0.0678519,-0.104874
3349723,1,-1.64186,-0.475639,-0.0402754,-2.04439,-1.5874,1.68225,0.781014,-1.6469,-0.474017,-0.0444009,-2.03929,-1.59015,1.6869,0.780462,-1.14694,0.821644,-0.676398,0.883261,-0.252429,1.75169,-0.0709069,-1.18377,0.85401,-0.698131,0.934084,-0.262787,1.8299,-0.0656073,-8.95629,-5.56339,-11.343,22.4118,-2.34709,-0.418187,-0.193899,-2.09765,-0.922828,-2.19517,3.41556,-1.26688,0.0690771,-0.106583
3349724,1,-1.64308,-0.47479,-0.0409605,-2.04347,-1.58765,1.68407,0.780938,-1.64809,-0.473155,-0.0451033,-2.03835,-1.59041,1.68874,0.780396,-1.16899,0.830327,-0.677722,0.891395,-0.24929,1.75474,-0.0757644,-1.18998,0.8615,-0.702339,0.941743,-0.263131,1.84052,-0.0656151,-8.37706,-5.66653,-11.2438,22.6102,-2.40935,-0.359594,-0.10967,-2.10688,-0.94266,-2.19951,3.4384,-1.2775,0.0724366,-0.108362
3349725,1,-1.64428,-0.473941,-0.0416726,-2.04254,-1.58791,1.68588,0.780874,-1.64928,-0.472287,-0.0458094,-2.0374,-1.59068,1.69059,0.780331,-1.18436,0.853091,-0.687809,0.899356,-0.251527,1.80572,-0.0697562,-1.19506,0.86899,-0.706103,0.949218,-0.263042,1.84972,-0.0654392,-8.14696,-5.81729,-10.9661,22.7094,-2.40935,-0.437413,-0.135305,-2.09706,-0.988938,-2.1779,3.47574,-1.28806,0.0786691,-0.110178
3349726,1,-1.64546,-0.473076,-0.0423915,-2.0416,-1.58817,1.68773,0.780801,-1.65048,-0.47141,-0.0465192,-2.03644,-1.59094,1.69245,0.780266,-1.1852,0.859912,-0.703979,0.909123,-0.247561,1.81048,-0.0729284,-1.20014,0.87648,-0.709867,0.956693,-0.262954,1.85891,-0.0652633,-8.17473,-6.01962,-10.6606,22.6618,-2.36998,-0.560094,-0.0840357,-2.06735,-1.06844,-2.12844,3.52848,-1.29851,0.0874189,-0.111976
3349727,1,-1.64665,-0.472209,-0.0431139,-2.04066,-1.58843,1.68959,0.780729,-1.65169,-0.470526,-0.0472329,-2.03548,-1.5912,1.69431,0.780201,-1.215,0.857942,-0.705788,0.916697,-0.249008,1.82115,-0.0737947,-1.20523,0.88397,-0.713631,0.964169,-0.262865,1.86811,-0.0650875,-7.92083,-6.04343,-10.5099,22.6102,-2.32512,-0.617772,-0.0712183,-2.01584,-1.16108,-2.04872,3.58667,-1.3086,0.0989528,-0.113729
3349728,1,-1.64788,-0.471358,-0.0438553,-2.03972,-1.58869,1.69143,0.780651,-1.6529,-0.469635,-0.0479503,-2.03451,-1.59147,1.69619,0.780136,-1.21922,0.859616,-0.708595,0.935907,-0.254602,1.82704,-0.0773731,-1.21031,0.89146,-0.717395,0.971644,-0.262776,1.8773,-0.0649116,-7.74627,-5.89267,-10.2798,22.511,-2.27385,-0.67545,0.0194189,-1.94281,-1.22769,-1.94193,3.63077,-1.31786,0.113419,-0.115425
3349729,1,-1.64909,-0.470486,-0.0445916,-2.03875,-1.58895,1.69335,0.780569,-1.65411,-0.468736,-0.0486714,-2.03353,-1.59173,1.69808,0.780071,-1.21099,0.856436,-0.712562,0.943894,-0.261985,1.85024,-0.0744687,-1.21539,0.89895,-0.721159,0.979119,-0.262688,1.88649,-0.0647357,-7.77007,-5.78952,-10.0021,22.2135,-2.17222,-1.18448,0.09083,-1.86177,-1.24111,-1.82771,3.64553,-1.32612,0.128746,-0.11702
3349730,1,-1.6503,-0.469592,-0.0453275,-2.03777,-1.58922,1.69523,0.780504,-1.65533,-0.467829,-0.0493963,-2.03254,-1.59199,1.69997,0.780007,-1.21533,0.879317,-0.715979,0.947656,-0.267119,1.88431,-0.0717742,-1.22047,0.90644,-0.724923,0.986594,-0.262599,1.89569,-0.0645598,-7.69469,-5.81729,-9.90289,21.9635,-2.12095,-1.17807,0.0194189,-1.79108,-1.21209,-1.72922,3.63664,-1.3337,0.14155,-0.118343
3349731,1,-1.65152,-0.468711,-0.0460419,-2.03678,-1.58947,1.69709,0.780439,-1.65656,-0.466915,-0.050125,-2.03155,-1.59225,1.70188,0.779942,-1.20864,0.878864,-0.72542,0.961665,-0.26719,1.88021,-0.0700626,-1.22556,0.91393,-0.728688,0.994069,-0.262511,1.90488,-0.064384,-7.74627,-5.81729,-10.0775,21.543,-2.12645,-0.940038,-0.044668,-1.73866,-1.17134,-1.65472,3.61996,-1.34098,0.149765,-0.119194
3349732,1,-1.65272,-0.467805,-0.0467771,-2.03579,-1.58973,1.69897,0.780383,-1.65779,-0.465994,-0.0508575,-2.03055,-1.59252,1.70379,0.779878,-1.20701,0.884496,-0.723506,0.969124,-0.261339,1.86055,-0.0658847,-1.23064,0.92142,-0.732452,1.00154,-0.262422,1.91408,-0.0642081,-8.25011,-5.86887,-10.1568,21.2931,-2.16032,-0.707494,-0.18749,-1.70542,-1.12142,-1.60472,3.59606,-1.34802,0.153379,-0.119588
3349733,1,-1.65391,-0.466915,-0.0475124,-2.03479,-1.58998,1.70086,0.780325,-1.65902,-0.465065,-0.0515937,-2.02954,-1.59278,1.70572,0.779814,-1.19357,0.88807,-0.726115,0.975195,-0.26131,1.86834,-0.0595417,-1.23572,0.92891,-0.736216,1.00902,-0.262333,1.92327,-0.0640322,-8.6032,-5.81729,-10.3314,21.2177,-2.22258,-0.830175,-0.310171,-1.69584,-1.05571,-1.58564,3.5623,-1.35501,0.152603,-0.119727
3349734,1,-1.65513,-0.466008,-0.0482412,-2.0338,-1.59024,1.70278,0.780272,-1.66027,-0.464129,-0.0523337,-2.02852,-1.59304,1.70765,0.77975,-1.19947,0.889023,-0.732329,0.979337,-0.259438,1.86684,-0.0554397,-1.24081,0.9364,-0.73998,1.01649,-0.262245,1.93247,-0.0638563,-8.73015,-5.69034,-10.3591,21.3169,-2.3361,-0.907079,-0.420034,-1.71181,-0.975306,-1.59943,3.52117,-1.36221,0.147847,-0.119937
3349735,1,-1.65638,-0.465071,-0.048978,-2.0328,-1.59051,1.70471,0.780232,-1.66151,-0.463185,-0.053077,-2.0275,-1.5933,1.70959,0.779687,-1.2331,0.903282,-0.729149,0.979428,-0.258244,1.87499,-0.0495654,-1.24477,0.94389,-0.743299,1.02378,-0.261739,1.94023,-0.0634928,-8.34929,-5.86887,-10.4345,21.5906,-2.34709,-0.842992,-0.607717,-1.73974,-0.888307,-1.62808,3.47926,-1.36959,0.141338,-0.120567
3349736,1,-1.65765,-0.464139,-0.0497264,-2.0318,-1.59077,1.70661,0.780181,-1.66276,-0.462233,-0.0538236,-2.02647,-1.59356,1.71154,0.779623,-1.23997,0.914801,-0.732561,0.984708,-0.255682,1.88477,-0.0499994,-1.24874,0.95138,-0.746619,1.03106,-0.261233,1.948,-0.0631293,-7.9962,-6.095,-10.3076,21.9397,-2.36449,-0.707494,-0.67272,-1.76312,-0.81675,-1.65073,3.44896,-1.37727,0.135325,-0.12194
3349737,1,-1.65891,-0.463189,-0.0504755,-2.03079,-1.59104,1.70855,0.780134,-1.66401,-0.461274,-0.0545735,-2.02543,-1.59382,1.71349,0.779561,-1.23889,0.923095,-0.739134,0.992991,-0.257262,1.88643,-0.0474129,-1.25271,0.95887,-0.749938,1.03834,-0.260727,1.95576,-0.0627658,-7.82164,-6.29733,-10.129,22.2611,-2.27934,-0.643407,-0.685537,-1.77919,-0.773212,-1.6636,3.43542,-1.38542,0.130158,-0.124425
