shamilmamedov/beam_handling/data/param_estimation_ICRA/ocp_Xdown_25cm_0.44s_5.csv
duration, success rate, q[0], q[1], q[2], q[3], q[4], q[5], q[6],q_d[0], q_d[1], q_d[2], q_d[3], q_d[4], q_d[5], q_d[6],dq[0], dq[1], dq[2], dq[3], dq[4], dq[5], dq[6],dq_d[0], dq_d[1], dq_d[2], dq_d[3], dq_d[4], dq_d[5], dq_d[6],tau_J[0], tau_J[1], tau_J[2], tau_J[3], tau_J[4], tau_J[5], tau_J[6],tau_ext_hat_filtered[0], tau_ext_hat_filtered[1], tau_ext_hat_filtered[2], tau_ext_hat_filtered[3], tau_ext_hat_filtered[4], tau_ext_hat_filtered[5], tau_ext_hat_filtered[6]
2958824,0,-1.57101,-0.522771,-0.000718519,-2.09594,-1.57087,1.57158,0.785783,-1.5708,-0.523599,-3.78786e-08,-2.0944,-1.5708,1.5708,0.785399,0.000202026,-0.000247805,0.000884501,0.000453825,4.52636e-05,7.31584e-05,-0.000491745,0,0,0,0,0,0,0,0.176403,-10.2924,1.03491,20.9955,-0.735762,-0.604955,-0.181082,0.18709,-1.16872,0.892039,2.47646,-0.172447,-0.604846,-0.238493
2958825,1,-1.57101,-0.522769,-0.000720239,-2.09594,-1.57087,1.57158,0.785783,-1.5708,-0.523599,-3.78786e-08,-2.0944,-1.5708,1.5708,0.785399,-0.000422128,0.000391608,-5.99463e-05,-0.000811074,3.01757e-05,4.87723e-05,-9.04711e-05,0,0,0,0,0,0,0,0.200207,-10.3162,1.06269,21.0431,-0.735762,-0.604955,-0.18749,0.185741,-1.16892,0.889809,2.47625,-0.172485,-0.605086,-0.238381
2958826,1,-1.57101,-0.522773,-0.000723964,-2.09594,-1.57086,1.57158,0.785783,-1.5708,-0.523599,-3.78786e-08,-2.0944,-1.5708,1.5708,0.785399,0.000275393,-0.000945354,-0.000596776,1.6096e-05,2.01172e-05,0.000269874,-0.00124711,0,0,0,0,0,0,0,0.176403,-10.2646,1.08649,21.0193,-0.735762,-0.611364,-0.155447,0.185114,-1.16879,0.888629,2.47622,-0.172498,-0.605194,-0.238285
2958827,1,-1.57101,-0.522773,-0.000722518,-2.09594,-1.57086,1.57158,0.785783,-1.5708,-0.523599,-3.78786e-08,-2.0944,-1.5708,1.5708,0.785399,0.000183596,-0.000630236,-0.000397851,1.07306e-05,1.34114e-05,-5.74431e-05,-0.000119329,0,0,0,0,0,0,0,0.176403,-10.2646,1.08649,21.0193,-0.735762,-0.604955,-0.174673,0.185305,-1.16709,0.888732,2.47566,-0.172456,-0.605146,-0.238184
2958828,1,-1.57101,-0.522769,-0.000722496,-2.09594,-1.57087,1.57158,0.785789,-1.5708,-0.523599,-3.78786e-08,-2.0944,-1.5708,1.5708,0.785399,0.000122397,0.000786269,0.000291578,7.15376e-06,8.94096e-06,-0.000275654,0.00205668,0,0,0,0,0,0,0,0.176403,-10.3162,1.06269,21.0193,-0.735762,-0.598546,-0.232351,0.185684,-1.16487,0.889211,2.47481,-0.172394,-0.605058,-0.238051
2958829,1,-1.57101,-0.522769,-0.000722586,-2.09594,-1.57086,1.57158,0.785784,-1.5708,-0.523599,-3.78786e-08,-2.0944,-1.5708,1.5708,0.785399,-0.000475214,0.000524179,-0.000362427,-0.000552043,0.000412862,0.000290948,-5.30351e-05,0,0,0,0,0,0,0,0.200207,-10.3162,1.08649,21.0431,-0.746748,-0.611364,-0.193899,0.186015,-1.16483,0.889715,2.475,-0.17237,-0.604999,-0.237893
2958830,1,-1.57101,-0.522773,-0.000722519,-2.09594,-1.57087,1.57158,0.785787,-1.5708,-0.523599,-3.78786e-08,-2.0944,-1.5708,1.5708,0.785399,0.000889617,-0.000856973,0.000315194,0.00130241,0.000275241,0.000193966,0.000914079,0,0,0,0,0,0,0,0.148632,-10.2646,1.06269,20.9717,-0.746748,-0.611364,-0.219534,0.186226,-1.16541,0.890111,2.47538,-0.172361,-0.604962,-0.237762
2958831,1,-1.57101,-0.522771,-0.000720923,-2.09594,-1.57087,1.57158,0.785784,-1.5708,-0.523599,-3.78786e-08,-2.0944,-1.5708,1.5708,0.785399,-0.000613348,7.82985e-05,0.000210129,-0.000802164,0.000183494,0.00012931,-0.00152684,0,0,0,0,0,0,0,0.200207,-10.2924,1.06269,21.0431,-0.746748,-0.611364,-0.161856,0.186059,-1.16442,0.889967,2.47484,-0.172341,-0.604965,-0.237694
2958832,1,-1.57101,-0.522771,-0.000725862,-2.09594,-1.57087,1.57158,0.785785,-1.5708,-0.523599,-3.78786e-08,-2.0944,-1.5708,1.5708,0.785399,-0.00105851,5.2199e-05,-0.000973538,0.000578848,-0.000284572,-0.000151152,-0.000780537,0,0,0,0,0,0,0,0.227978,-10.2924,1.11029,20.9955,-0.735762,-0.604955,-0.168264,0.186366,-1.16324,0.890484,2.47431,-0.17233,-0.604903,-0.237672
2958833,1,-1.57101,-0.522769,-0.000723054,-2.09594,-1.57087,1.57158,0.785785,-1.5708,-0.523599,-3.78786e-08,-2.0944,-1.5708,1.5708,0.785399,-5.60612e-05,0.000591611,0.000464599,0.000385898,-0.000393165,-0.000338127,-0.000757717,0,0,0,0,0,0,0,0.200207,-10.3162,1.06269,20.9955,-0.730269,-0.598546,-0.161856,0.187544,-1.1629,0.892242,2.47411,-0.172326,-0.604731,-0.237651
2958834,1,-1.57101,-0.522766,-0.000724442,-2.09594,-1.57087,1.57158,0.785788,-1.5708,-0.523599,-3.78786e-08,-2.0944,-1.5708,1.5708,0.785399,0.00116905,0.00160083,-0.000803891,0.000257266,0.000348242,1.1941e-05,0.00139373,0,0,0,0,0,0,0,0.148632,-10.3678,1.11029,20.9955,-0.746748,-0.604955,-0.213125,0.188391,-1.16435,0.893636,2.47448,-0.172359,-0.604638,-0.237587
2958835,1,-1.57101,-0.522773,-0.000722581,-2.09594,-1.57087,1.57158,0.785791,-1.5708,-0.523599,-3.78786e-08,-2.0944,-1.5708,1.5708,0.785399,0.000129754,-0.00134563,0.000577696,0.000728322,0.000232161,0.000482679,0.00116651,0,0,0,0,0,0,0,0.176403,-10.2646,1.06269,20.9717,-0.746748,-0.617772,-0.219534,0.188342,-1.16648,0.893907,2.47501,-0.172428,-0.604688,-0.237484
2958836,1,-1.57101,-0.522771,-0.000722614,-2.09594,-1.57086,1.57158,0.785783,-1.5708,-0.523599,-3.78786e-08,-2.0944,-1.5708,1.5708,0.785399,8.65026e-05,-0.000247472,-0.000171681,-7.12637e-05,-0.000252127,-0.000152932,-0.000883839,0,0,0,0,0,0,0,0.176403,-10.2924,1.08649,20.9955,-0.735762,-0.604955,-0.174673,0.187796,-1.16602,0.893448,2.47432,-0.172479,-0.60478,-0.237394
2958837,1,-1.57101,-0.522769,-0.000722068,-2.09594,-1.57086,1.57158,0.785783,-1.5708,-0.523599,-3.78786e-08,-2.0944,-1.5708,1.5708,0.785399,-0.000499144,0.00039183,-0.000114454,-0.000604321,-0.000371535,-0.000101955,-0.000351867,0,0,0,0,0,0,0,0.200207,-10.3162,1.08649,21.0193,-0.730269,-0.604955,-0.181082,0.187422,-1.16459,0.893196,2.47348,-0.172533,-0.604832,-0.237337
2958838,1,-1.57101,-0.522771,-0.000718267,-2.09594,-1.57086,1.57158,0.785784,-1.5708,-0.523599,-3.78786e-08,-2.0944,-1.5708,1.5708,0.785399,0.00022405,-0.000295592,0.00113012,-0.000402881,0.000159211,-6.79699e-05,-0.000946655,0,0,0,0,0,0,0,0.176403,-10.2924,1.03491,21.0193,-0.741255,-0.604955,-0.161856,0.187094,-1.16451,0.892997,2.4737,-0.172629,-0.604891,-0.237291
2958839,1,-1.57101,-0.522771,-0.000722286,-2.09594,-1.57087,1.57158,0.785786,-1.5708,-0.523599,-3.78786e-08,-2.0944,-1.5708,1.5708,0.785399,0.000149366,-0.000197061,0.000103802,-0.000268587,0.000106141,-4.53132e-05,0.00079305,0,0,0,0,0,0,0,0.176403,-10.2924,1.06269,21.0193,-0.741255,-0.604955,-0.200308,0.186214,-1.16473,0.891929,2.47429,-0.172751,-0.605032,-0.237229
2958840,1,-1.57101,-0.522768,-0.000721027,-2.09594,-1.57086,1.57158,0.785784,-1.5708,-0.523599,-3.78786e-08,-2.0944,-1.5708,1.5708,0.785399,-0.000457234,0.00098225,0.000718815,-0.000179058,7.07604e-05,-3.02088e-05,0.000291341,0,0,0,0,0,0,0,0.200207,-10.34,1.03491,21.0193,-0.741255,-0.604955,-0.193899,0.185136,-1.16543,0.89053,2.47511,-0.172883,-0.605205,-0.237139
2958841,1,-1.57101,-0.522769,-0.000722745,-2.09594,-1.57087,1.57158,0.785784,-1.5708,-0.523599,-3.78786e-08,-2.0944,-1.5708,1.5708,0.785399,-0.000304823,9.80213e-05,-0.000727216,0.00043744,-0.000156277,-2.01392e-05,0.000194228,0,0,0,0,0,0,0,0.200207,-10.3162,1.08649,20.9955,-0.735762,-0.604955,-0.193899,0.184606,-1.16722,0.889899,2.47619,-0.173005,-0.605307,-0.237037
2958842,1,-1.57101,-0.522771,-0.000720442,-2.09594,-1.57087,1.57158,0.785789,-1.5708,-0.523599,-3.78786e-08,-2.0944,-1.5708,1.5708,0.785399,0.000353597,-0.000491464,7.20013e-05,0.000291627,-0.000104185,0.000223933,0.000604203,0,0,0,0,0,0,0,0.176403,-10.2924,1.06269,20.9955,-0.735762,-0.611364,-0.206716,0.184775,-1.16827,0.89027,2.47658,-0.173074,-0.605296,-0.236948
2958843,1,-1.57101,-0.522771,-0.000722361,-2.09594,-1.57087,1.57158,0.785793,-1.5708,-0.523599,-3.78786e-08,-2.0944,-1.5708,1.5708,0.785399,0.000235731,-0.000327643,4.80009e-05,-0.000362394,-0.000713716,0.000149289,0.0015896,0,0,0,0,0,0,0,0.176403,-10.2924,1.06269,21.0193,-0.718367,-0.611364,-0.23876,0.185001,-1.16755,0.890719,2.47604,-0.173099,-0.605258,-0.236888
2958844,1,-1.57101,-0.522775,-0.00072087,-2.09593,-1.57087,1.57158,0.785785,-1.5708,-0.523599,-3.78786e-08,-2.0944,-1.5708,1.5708,0.785399,0.000806768,-0.00142485,3.20006e-05,0.00207845,0.000168449,-0.000375192,-0.00178858,0,0,0,0,0,0,0,0.148632,-10.2408,1.06269,20.9201,-0.735762,-0.598546,-0.161856,0.184842,-1.16457,0.89059,2.47424,-0.173068,-0.605255,-0.236889
2958845,1,-1.57101,-0.522771,-0.000722504,-2.09594,-1.57087,1.57158,0.785783,-1.5708,-0.523599,-3.78786e-08,-2.0944,-1.5708,1.5708,0.785399,-0.000111769,0.000256523,2.13337e-05,-0.000934414,0.000112299,-0.000250128,-0.000955025,0,0,0,0,0,0,0,0.176403,-10.2924,1.06269,21.0193,-0.735762,-0.598546,-0.168264,0.184488,-1.1599,0.890174,2.47135,-0.172973,-0.605255,-0.236959
2958846,1,-1.57101,-0.522768,-0.000720918,-2.09594,-1.57087,1.57158,0.785785,-1.5708,-0.523599,-3.78786e-08,-2.0944,-1.5708,1.5708,0.785399,-7.45124e-05,0.00128464,1.42225e-05,-0.000622943,-0.000128584,-0.000166752,0.000550111,0,0,0,0,0,0,0,0.176403,-10.34,1.06269,21.0193,-0.730269,-0.598546,-0.200308,0.18426,-1.15811,0.890018,2.47018,-0.172916,-0.60525,-0.237038
2958847,1,-1.57101,-0.522769,-0.00072373,-2.09594,-1.57087,1.57158,0.785789,-1.5708,-0.523599,-3.78786e-08,-2.0944,-1.5708,1.5708,0.785399,0.000599939,0.000299614,-0.00110414,-0.000415295,0.000321178,-0.000348527,0.0006041,0,0,0,0,0,0,0,0.148632,-10.3162,1.11029,21.0193,-0.741255,-0.592137,-0.206716,0.184402,-1.16079,0.890592,2.47163,-0.172933,-0.605214,-0.237081
2958848,1,-1.57101,-0.522771,-0.000718724,-2.09594,-1.57086,1.57158,0.785788,-1.5708,-0.523599,-3.78786e-08,-2.0944,-1.5708,1.5708,0.785399,-0.000249655,-0.000357069,0.00158395,-0.000833675,0.000214119,5.00761e-06,0.000877451,0,0,0,0,0,0,0,0.176403,-10.2924,1.01111,21.0431,-0.741255,-0.598546,-0.219534,0.184482,-1.1645,0.891178,2.47383,-0.172971,-0.605165,-0.237113
2958849,1,-1.57101,-0.522771,-0.000726336,-2.09594,-1.57086,1.57158,0.785788,-1.5708,-0.523599,-3.78786e-08,-2.0944,-1.5708,1.5708,0.785399,-0.000166436,-0.000238046,-0.00126408,1.02837e-06,-6.07047e-05,0.000478056,-0.000127109,0,0,0,0,0,0,0,0.176403,-10.2924,1.11029,21.0193,-0.735762,-0.611364,-0.200308,0.184303,-1.16682,0.891318,2.47553,-0.173,-0.605111,-0.237172
2958850,1,-1.57101,-0.522771,-0.000721263,-2.09594,-1.57087,1.57158,0.785786,-1.5708,-0.523599,-3.78786e-08,-2.0944,-1.5708,1.5708,0.785399,-0.00066777,-0.000158697,0.000920518,0.000557498,-4.04698e-05,0.000318704,-8.47396e-05,0,0,0,0,0,0,0,0.200207,-10.2924,1.03491,20.9955,-0.735762,-0.611364,-0.200308,0.184446,-1.16737,0.891841,2.47616,-0.172979,-0.604977,-0.237279
2958851,1,-1.57101,-0.522769,-0.000721336,-2.09594,-1.57087,1.57159,0.785784,-1.5708,-0.523599,-3.78786e-08,-2.0944,-1.5708,1.5708,0.785399,0.000111632,0.000451014,0.000613679,-0.000185147,-2.69798e-05,-2.48895e-05,-0.00148065,0,0,0,0,0,0,0,0.176403,-10.3162,1.03491,21.0193,-0.735762,-0.604955,-0.161856,0.184444,-1.16717,0.892033,2.47605,-0.172933,-0.604865,-0.237428
2958852,1,-1.57102,-0.522771,-0.00072136,-2.09594,-1.57087,1.57158,0.785785,-1.5708,-0.523599,-3.78786e-08,-2.0944,-1.5708,1.5708,0.785399,-0.00168882,-0.000256136,0.000409119,0.000433381,-0.000221437,0.000220766,0.000199697,0,0,0,0,0,0,0,0.251781,-10.2924,1.03491,20.9955,-0.730269,-0.611364,-0.193899,0.184171,-1.1671,0.891629,2.47582,-0.172893,-0.604814,-0.237586
2958853,1,-1.57101,-0.522768,-0.000717567,-2.09594,-1.57087,1.57158,0.78578,-1.5708,-0.523599,-3.78786e-08,-2.0944,-1.5708,1.5708,0.785399,0.00063736,0.000942866,0.000829558,0.000845732,5.58258e-05,-9.01816e-05,-0.00129102,0,0,0,0,0,0,0,0.176403,-10.34,1.01111,20.9717,-0.735762,-0.604955,-0.155447,0.183996,-1.16711,0.891148,2.47536,-0.172841,-0.604776,-0.237718
2958854,1,-1.57101,-0.522771,-0.000722149,-2.09594,-1.57087,1.57158,0.78579,-1.5708,-0.523599,-3.78786e-08,-2.0944,-1.5708,1.5708,0.785399,-0.000781519,-0.000485046,-0.0012102,-0.00110661,0.000240668,0.000414597,0.00151291,0,0,0,0,0,0,0,0.227978,-10.2924,1.08649,21.0431,-0.741255,-0.617772,-0.219534,0.18399,-1.16757,0.890826,2.47505,-0.172787,-0.604744,-0.237803
2958855,1,-1.57101,-0.522771,-0.000725714,-2.09594,-1.57087,1.57159,0.785788,-1.5708,-0.523599,-3.78786e-08,-2.0944,-1.5708,1.5708,0.785399,0.00133503,-0.000323364,-0.00136361,-0.000180931,-4.30054e-05,3.90389e-05,5.91694e-05,0,0,0,0,0,0,0,0.148632,-10.2924,1.11029,21.0193,-0.735762,-0.611364,-0.193899,0.184813,-1.168,0.891834,2.47524,-0.172731,-0.604607,-0.23784
2958856,1,-1.57101,-0.522768,-0.000723005,-2.09594,-1.57087,1.57158,0.785789,-1.5708,-0.523599,-3.78786e-08,-2.0944,-1.5708,1.5708,0.785399,0.000890018,0.000898048,0.00020455,0.000436191,0.00017478,2.60259e-05,0.00122624,0,0,0,0,0,0,0,0.148632,-10.34,1.06269,20.9955,-0.741255,-0.611364,-0.225942,0.185734,-1.16834,0.893214,2.47558,-0.17268,-0.604476,-0.237859
2958857,1,-1.57101,-0.522775,-0.000724426,-2.09594,-1.57087,1.57158,0.785782,-1.5708,-0.523599,-3.78786e-08,-2.0944,-1.5708,1.5708,0.785399,-0.00061308,-0.00172135,-0.000977257,0.000847606,-0.000290381,1.73506e-05,-0.00131874,0,0,0,0,0,0,0,0.200207,-10.2408,1.11029,20.9717,-0.730269,-0.611364,-0.168264,0.186199,-1.16777,0.89401,2.4751,-0.172616,-0.604427,-0.237899
2958858,1,-1.57101,-0.522773,-0.000720445,-2.09594,-1.57087,1.57159,0.785785,-1.5708,-0.523599,-3.78786e-08,-2.0944,-1.5708,1.5708,0.785399,0.00135452,-0.000590756,0.000462119,-0.000548553,9.86328e-06,1.15671e-05,0.000307637,0,0,0,0,0,0,0,0.124828,-10.2646,1.06269,21.0193,-0.735762,-0.611364,-0.200308,0.186538,-1.16453,0.894579,2.47325,-0.172509,-0.604382,-0.237972
2958859,1,-1.57101,-0.522773,-0.000725703,-2.09594,-1.57087,1.57158,0.785782,-1.5708,-0.523599,-3.78786e-08,-2.0944,-1.5708,1.5708,0.785399,-0.000303414,-0.000393837,-0.000805545,-0.000365702,-0.000400326,-0.000229648,-0.00196505,0,0,0,0,0,0,0,0.176403,-10.2646,1.11029,21.0193,-0.724776,-0.604955,-0.141714,0.186465,-1.16061,0.894626,2.47142,-0.172418,-0.604396,-0.238053
2958860,1,-1.57101,-0.522769,-0.000722541,-2.09594,-1.57086,1.57158,0.785783,-1.5708,-0.523599,-3.78786e-08,-2.0944,-1.5708,1.5708,0.785399,-0.000202276,0.000943868,1.97822e-05,0.000869823,0.000140017,8.42606e-05,-8.93286e-05,0,0,0,0,0,0,0,0.176403,-10.3162,1.08649,20.9717,-0.735762,-0.611364,-0.174673,0.186448,-1.15861,0.894897,2.4706,-0.172353,-0.604427,-0.238103
2958861,1,-1.57101,-0.522768,-0.000724174,-2.09594,-1.57087,1.57158,0.785784,-1.5708,-0.523599,-3.78786e-08,-2.0944,-1.5708,1.5708,0.785399,-0.000691663,0.00118606,1.31881e-05,2.30697e-05,0.000296795,-0.000418544,0.000652524,0,0,0,0,0,0,0,0.200207,-10.34,1.08649,20.9955,-0.741255,-0.598546,-0.193899,0.186725,-1.15953,0.895678,2.47079,-0.172305,-0.604451,-0.238084
2958862,1,-1.57101,-0.522773,-0.000720918,-2.09594,-1.57087,1.57158,0.78579,-1.5708,-0.523599,-3.78786e-08,-2.0944,-1.5708,1.5708,0.785399,-0.000461108,-0.000972533,0.000565604,1.53798e-05,-0.000209037,-4.16705e-05,0.00114709,0,0,0,0,0,0,0,0.200207,-10.2646,1.06269,20.9955,-0.730269,-0.604955,-0.213125,0.186914,-1.16188,0.896295,2.47154,-0.172281,-0.604505,-0.237996
2958863,1,-1.57101,-0.522771,-0.00072206,-2.09594,-1.57087,1.57158,0.785786,-1.5708,-0.523599,-3.78786e-08,-2.0944,-1.5708,1.5708,0.785399,-0.00095702,1.25858e-06,-0.000179743,-0.000546559,-0.000139358,-2.77803e-05,0.000290011,0,0,0,0,0,0,0,0.227978,-10.2924,1.08649,21.0193,-0.730269,-0.604955,-0.200308,0.187107,-1.163,0.896777,2.47198,-0.172256,-0.604536,-0.237884
2958864,1,-1.57101,-0.522773,-0.000722343,-2.09594,-1.57086,1.57158,0.785785,-1.5708,-0.523599,-3.78786e-08,-2.0944,-1.5708,1.5708,0.785399,1.16009e-05,-0.000648775,0.000436984,0.000192439,-0.000296356,-0.000255879,-0.000993454,0,0,0,0,0,0,0,0.200207,-10.2646,1.06269,20.9955,-0.724776,-0.598546,-0.168264,0.187374,-1.16284,0.897239,2.47207,-0.172214,-0.604535,-0.237791
2958865,1,-1.57101,-0.522771,-0.000726336,-2.09594,-1.57087,1.57158,0.785783,-1.5708,-0.523599,-3.78786e-08,-2.0944,-1.5708,1.5708,0.785399,0.00177097,0.000217097,-0.000822302,-0.000428519,0.000412781,-0.000407945,-0.000424944,0,0,0,0,0,0,0,0.124828,-10.2924,1.11029,21.0193,-0.741255,-0.592137,-0.174673,0.187203,-1.16231,0.897141,2.47205,-0.172167,-0.604581,-0.237721
2958866,1,-1.57101,-0.522771,-0.000722752,-2.09594,-1.57087,1.57158,0.78578,-1.5708,-0.523599,-3.78786e-08,-2.0944,-1.5708,1.5708,0.785399,-0.00058259,0.000144732,8.61093e-06,-0.000842491,-0.000131714,0.000440113,-0.000995373,0,0,0,0,0,0,0,0.200207,-10.2924,1.08649,21.0431,-0.730269,-0.611364,-0.155447,0.186589,-1.1627,0.896636,2.47264,-0.172138,-0.604678,-0.237644
2958867,1,-1.57101,-0.522771,-0.000722114,-2.09594,-1.57087,1.57159,0.785785,-1.5708,-0.523599,-3.78786e-08,-2.0944,-1.5708,1.5708,0.785399,-0.000388393,9.64877e-05,5.74062e-06,0.000551963,0.000115641,-0.000181309,0.000997931,0,0,0,0,0,0,0,0.200207,-10.2924,1.08649,20.9955,-0.735762,-0.598546,-0.200308,0.186212,-1.16404,0.896529,2.47377,-0.172115,-0.604729,-0.237528
2958868,1,-1.57101,-0.522769,-0.000720231,-2.09594,-1.57087,1.57158,0.785789,-1.5708,-0.523599,-3.78786e-08,-2.0944,-1.5708,1.5708,0.785399,0.000947497,0.000621137,0.000560639,-0.000188837,0.000280545,-0.000120873,0.000902646,0,0,0,0,0,0,0,0.148632,-10.3162,1.06269,21.0193,-0.741255,-0.598546,-0.206716,0.185753,-1.16551,0.896242,2.4747,-0.172087,-0.604784,-0.23737
2958869,1,-1.57101,-0.522769,-0.000720342,-2.09594,-1.57087,1.57158,0.785793,-1.5708,-0.523599,-3.78786e-08,-2.0944,-1.5708,1.5708,0.785399,-1.79493e-05,0.000414091,0.00102337,-0.000682703,0.00018703,0.000156777,0.0015512,0,0,0,0,0,0,0,0.176403,-10.3162,1.03491,21.0431,-0.741255,-0.604955,-0.232351,0.184405,-1.16775,0.894666,2.47591,-0.172102,-0.604968,-0.237199
2958870,1,-1.57101,-0.522771,-0.000721028,-2.09594,-1.57087,1.57158,0.785787,-1.5708,-0.523599,-3.78786e-08,-2.0944,-1.5708,1.5708,0.785399,-0.00121839,-0.000280751,0.000682249,0.0012153,-7.8764e-05,0.000104518,-0.000864738,0,0,0,0,0,0,0,0.227978,-10.2924,1.03491,20.9717,-0.735762,-0.604955,-0.181082,0.182724,-1.16976,0.892444,2.47694,-0.172134,-0.605189,-0.23707
2958871,1,-1.57101,-0.522773,-0.000722746,-2.09595,-1.57087,1.57158,0.785788,-1.5708,-0.523599,-3.78786e-08,-2.0944,-1.5708,1.5708,0.785399,-0.000812261,-0.000836781,-0.000751593,-0.00150985,-5.25093e-05,6.96788e-05,-0.000339133,0,0,0,0,0,0,0,0.227978,-10.2646,1.08649,21.0709,-0.735762,-0.604955,-0.18749,0.182146,-1.16967,0.891547,2.47694,-0.172112,-0.605215,-0.237013
2958872,1,-1.57101,-0.522771,-0.000718493,-2.09594,-1.57086,1.57158,0.785783,-1.5708,-0.523599,-3.78786e-08,-2.0944,-1.5708,1.5708,0.785399,0.000664918,9.17597e-05,0.000705364,0.000756672,-3.50062e-05,-0.000428265,-0.000700807,0,0,0,0,0,0,0,0.176403,-10.2924,1.03491,20.9955,-0.735762,-0.592137,-0.174673,0.182539,-1.16819,0.891931,2.47653,-0.172059,-0.605077,-0.237008
2958873,1,-1.57101,-0.522771,-0.000721901,-2.09594,-1.57087,1.57158,0.785785,-1.5708,-0.523599,-3.78786e-08,-2.0944,-1.5708,1.5708,0.785399,0.000443279,6.11732e-05,-0.000736183,-0.000609176,-2.33375e-05,0.000426567,0.000244872,0,0,0,0,0,0,0,0.176403,-10.2924,1.08649,21.0431,-0.735762,-0.611364,-0.193899,0.182756,-1.16686,0.892098,2.47623,-0.172018,-0.604967,-0.237018
2958874,1,-1.57101,-0.522769,-0.000723961,-2.09594,-1.57086,1.57158,0.785785,-1.5708,-0.523599,-3.78786e-08,-2.0944,-1.5708,1.5708,0.785399,-0.000261293,0.000597594,-0.000490789,0.000707506,-1.55583e-05,-0.00019034,0.000400607,0,0,0,0,0,0,0,0.200207,-10.3162,1.08649,20.9955,-0.735762,-0.598546,-0.200308,0.183089,-1.16648,0.89254,2.47621,-0.171983,-0.604852,-0.237022
2958875,1,-1.57101,-0.522773,-0.000718898,-2.09594,-1.57087,1.57158,0.785791,-1.5708,-0.523599,-3.78786e-08,-2.0944,-1.5708,1.5708,0.785399,0.000382617,-0.00080803,0.000879233,-8.5141e-05,-0.000213823,0.000110465,0.00121651,0,0,0,0,0,0,0,0.176403,-10.2646,1.03491,21.0193,-0.730269,-0.604955,-0.225942,0.183577,-1.1662,0.893198,2.47607,-0.171942,-0.604718,-0.237026
2958876,1,-1.57101,-0.522771,-0.000722036,-2.09594,-1.57087,1.57158,0.785784,-1.5708,-0.523599,-3.78786e-08,-2.0944,-1.5708,1.5708,0.785399,-0.000951348,0.000110927,-0.00062027,-5.67607e-05,0.000264353,0.000548362,-0.000850508,0,0,0,0,0,0,0,0.227978,-10.2924,1.08649,21.0193,-0.741255,-0.617772,-0.181082,0.183883,-1.16505,0.893454,2.47553,-0.171894,-0.604608,-0.237056
2958877,1,-1.57101,-0.522771,-0.000718256,-2.09594,-1.57087,1.57158,0.785788,-1.5708,-0.523599,-3.78786e-08,-2.0944,-1.5708,1.5708,0.785399,1.53819e-05,7.39516e-05,0.000792912,0.00107578,-2.72155e-05,0.000128215,-9.22873e-05,0,0,0,0,0,0,0,0.200207,-10.2924,1.03491,20.9717,-0.735762,-0.611364,-0.193899,0.184358,-1.16365,0.893812,2.47481,-0.171833,-0.604487,-0.237128
2958878,1,-1.57101,-0.522773,-0.000725441,-2.09594,-1.57087,1.57158,0.785782,-1.5708,-0.523599,-3.78786e-08,-2.0944,-1.5708,1.5708,0.785399,0.000567067,-0.000600313,-0.00188424,-0.000953247,-0.000221594,0.000322836,-0.00101096,0,0,0,0,0,0,0,0.176403,-10.2646,1.13806,21.0431,-0.730269,-0.617772,-0.168264,0.185052,-1.16226,0.894488,2.47403,-0.171763,-0.604361,-0.237225
2958879,1,-1.57101,-0.522771,-0.000723475,-2.09594,-1.57087,1.57158,0.785786,-1.5708,-0.523599,-3.78786e-08,-2.0944,-1.5708,1.5708,0.785399,0.000378044,0.000249405,-0.000606548,0.00103494,0.000259172,-0.000259494,-0.000199256,0,0,0,0,0,0,0,0.176403,-10.2924,1.11029,20.9717,-0.741255,-0.604955,-0.181082,0.186182,-1.16088,0.896009,2.47341,-0.171684,-0.604192,-0.237318
2958880,1,-1.57101,-0.522771,-0.000720128,-2.09594,-1.57087,1.57158,0.785787,-1.5708,-0.523599,-3.78786e-08,-2.0944,-1.5708,1.5708,0.785399,-0.000954396,0.00016627,0.000709258,-0.000423665,-3.06695e-05,-0.000172996,0.00105396,0,0,0,0,0,0,0,0.227978,-10.2924,1.06269,21.0193,-0.735762,-0.604955,-0.213125,0.18741,-1.1601,0.897761,2.47306,-0.171616,-0.604039,-0.23738
2958881,1,-1.57101,-0.522768,-0.000718177,-2.09594,-1.57087,1.57158,0.785784,-1.5708,-0.523599,-3.78786e-08,-2.0944,-1.5708,1.5708,0.785399,1.33497e-05,0.00122447,0.00112245,0.000274368,0.000183004,-0.000115331,-9.43852e-06,0,0,0,0,0,0,0,0.200207,-10.34,1.03491,20.9955,-0.741255,-0.604955,-0.193899,0.18782,-1.16104,0.89816,2.47348,-0.171614,-0.604051,-0.237409
2958882,1,-1.57101,-0.522775,-0.000723926,-2.09594,-1.57087,1.57158,0.785786,-1.5708,-0.523599,-3.78786e-08,-2.0944,-1.5708,1.5708,0.785399,8.89983e-06,-0.00150374,-0.000458124,0.00138934,-8.14477e-05,-0.000314246,0.000705784,0,0,0,0,0,0,0,0.200207,-10.2408,1.08649,20.9439,-0.735762,-0.598546,-0.213125,0.187507,-1.16202,0.897354,2.47371,-0.171638,-0.604187,-0.237437
2958883,1,-1.57101,-0.522771,-0.000722966,-2.09594,-1.57087,1.57159,0.785783,-1.5708,-0.523599,-3.78786e-08,-2.0944,-1.5708,1.5708,0.785399,0.000562745,0.000203935,0.000251396,-0.0002802,0.000149152,2.78616e-05,-0.000716272,0,0,0,0,0,0,0,0.176403,-10.2924,1.06269,20.9955,-0.741255,-0.604955,-0.181082,0.187113,-1.16056,0.896402,2.47251,-0.171621,-0.604306,-0.237491
2958884,1,-1.57101,-0.522769,-0.000721253,-2.09594,-1.57087,1.57158,0.785789,-1.5708,-0.523599,-3.78786e-08,-2.0944,-1.5708,1.5708,0.785399,0.00102478,0.000692769,0.000817211,-0.000743612,0.000302885,1.85744e-05,0.000471921,0,0,0,0,0,0,0,0.148632,-10.3162,1.03491,21.0193,-0.746748,-0.604955,-0.206716,0.186208,-1.15962,0.894809,2.47184,-0.171649,-0.604493,-0.237566
2958885,1,-1.57101,-0.522768,-0.000723281,-2.09594,-1.57087,1.57158,0.785782,-1.5708,-0.523599,-3.78786e-08,-2.0944,-1.5708,1.5708,0.785399,3.3571e-05,0.00101866,-0.000104806,-0.000495741,-0.000204978,0.000249742,-0.00110954,0,0,0,0,0,0,0,0.176403,-10.34,1.06269,21.0193,-0.735762,-0.611364,-0.168264,0.184638,-1.16205,0.89241,2.47324,-0.171786,-0.604802,-0.237644
2958886,1,-1.57101,-0.522768,-0.000726648,-2.09594,-1.57087,1.57158,0.785785,-1.5708,-0.523599,-3.78786e-08,-2.0944,-1.5708,1.5708,0.785399,0.000671995,0.000679105,-0.00118349,0.00078313,-0.000136652,0.000166495,0.000447102,0,0,0,0,0,0,0,0.148632,-10.34,1.11029,20.9717,-0.735762,-0.611364,-0.200308,0.183622,-1.16637,0.891009,2.47551,-0.171945,-0.605037,-0.237718
2958887,1,-1.57101,-0.522773,-0.000724527,-2.09594,-1.57087,1.57158,0.785786,-1.5708,-0.523599,-3.78786e-08,-2.0944,-1.5708,1.5708,0.785399,0.00100481,-0.0013105,-0.000788997,-3.47256e-05,-0.000294552,0.000348355,0.000535427,0,0,0,0,0,0,0,0.124828,-10.2646,1.11029,20.9955,-0.730269,-0.617772,-0.206716,0.183582,-1.16908,0.891279,2.47667,-0.172034,-0.605098,-0.237784
2958888,1,-1.57101,-0.522769,-0.000722149,-2.09594,-1.57087,1.57158,0.785788,-1.5708,-0.523599,-3.78786e-08,-2.0944,-1.5708,1.5708,0.785399,0.00011306,0.000332759,3.08142e-05,-2.31504e-05,-0.000196368,-0.00047984,0.00106903,0,0,0,0,0,0,0,0.148632,-10.3162,1.08649,20.9955,-0.730269,-0.598546,-0.225942,0.183834,-1.16884,0.892166,2.47635,-0.172058,-0.605071,-0.237852
2958889,1,-1.57101,-0.522771,-0.000721913,-2.09594,-1.57087,1.57158,0.785787,-1.5708,-0.523599,-3.78786e-08,-2.0944,-1.5708,1.5708,0.785399,-0.00113105,-0.000334973,2.05428e-05,0.00119099,7.25387e-05,-8.25344e-05,-0.000711468,0,0,0,0,0,0,0,0.200207,-10.2924,1.08649,20.9439,-0.735762,-0.604955,-0.18749,0.184225,-1.16728,0.893272,2.47526,-0.172041,-0.605,-0.237945
2958890,1,-1.57101,-0.522771,-0.000716545,-2.09594,-1.57087,1.57158,0.785792,-1.5708,-0.523599,-3.78786e-08,-2.0944,-1.5708,1.5708,0.785399,-0.000197223,-0.000223315,0.00177693,-0.000412431,-0.000155091,-0.000292382,0.000949841,0,0,0,0,0,0,0,0.176403,-10.2924,1.01111,20.9955,-0.730269,-0.598546,-0.225942,0.184466,-1.16511,0.893988,2.47362,-0.172,-0.604937,-0.238079
2958891,1,-1.57101,-0.522769,-0.000720138,-2.09594,-1.57087,1.57158,0.785783,-1.5708,-0.523599,-3.78786e-08,-2.0944,-1.5708,1.5708,0.785399,0.000518132,0.000407935,-2.18039e-05,-0.000274954,0.000303507,0.000279797,-0.00126564,0,0,0,0,0,0,0,0.148632,-10.3162,1.06269,20.9955,-0.741255,-0.611364,-0.174673,0.183795,-1.16353,0.893279,2.47241,-0.171992,-0.605005,-0.238249
2958892,1,-1.57101,-0.522771,-0.000720129,-2.09594,-1.57087,1.57158,0.785784,-1.5708,-0.523599,-3.78786e-08,-2.0944,-1.5708,1.5708,0.785399,-0.000861005,-0.000284855,-1.45359e-05,0.000373509,0.000202338,-5.08278e-05,-0.000369045,0,0,0,0,0,0,0,0.200207,-10.2924,1.06269,20.9717,-0.741255,-0.604955,-0.18749,0.182911,-1.16316,0.892326,2.47197,-0.172007,-0.605103,-0.238444
2958893,1,-1.57101,-0.522771,-0.000722257,-2.09594,-1.57087,1.57158,0.785784,-1.5708,-0.523599,-3.78786e-08,-2.0944,-1.5708,1.5708,0.785399,-1.71911e-05,-0.000189903,-9.6906e-06,0.000249006,0.000134892,-3.38852e-05,-0.00119547,0,0,0,0,0,0,0,0.176403,-10.2924,1.06269,20.9717,-0.741255,-0.604955,-0.161856,0.182732,-1.16256,0.892409,2.47131,-0.17199,-0.605085,-0.238639
2958894,1,-1.57102,-0.522766,-0.000724176,-2.09594,-1.57087,1.57158,0.785786,-1.5708,-0.523599,-3.78786e-08,-2.0944,-1.5708,1.5708,0.785399,-0.0017747,0.00163664,-0.00112008,-0.000390808,-0.000316973,-2.25902e-05,0.000627177,0,0,0,0,0,0,0,0.251781,-10.3678,1.11029,20.9955,-0.730269,-0.604955,-0.200308,0.183579,-1.16294,0.893968,2.47103,-0.171963,-0.604923,-0.238793
2958895,1,-1.57101,-0.522771,-0.000722492,-2.09594,-1.57087,1.57158,0.78579,-1.5708,-0.523599,-3.78786e-08,-2.0944,-1.5708,1.5708,0.785399,2.32935e-05,-0.000672147,0.000366901,-0.000260539,-7.86489e-06,-1.50601e-05,0.00113019,0,0,0,0,0,0,0,0.200207,-10.2924,1.06269,20.9955,-0.735762,-0.604955,-0.219534,0.185338,-1.16531,0.896822,2.47181,-0.17196,-0.604653,-0.238885
2958896,1,-1.57101,-0.522771,-0.000720914,-2.09594,-1.57087,1.57158,0.785787,-1.5708,-0.523599,-3.78786e-08,-2.0944,-1.5708,1.5708,0.785399,0.000572341,-0.000448098,0.000244601,-0.000730504,-5.24326e-06,0.000227319,0.000516104,0,0,0,0,0,0,0,0.176403,-10.2924,1.06269,21.0193,-0.735762,-0.611364,-0.213125,0.186523,-1.16704,0.89874,2.47255,-0.171979,-0.604473,-0.238948
2958897,1,-1.57101,-0.522771,-0.000720388,-2.09594,-1.57087,1.57158,0.78579,-1.5708,-0.523599,-3.78786e-08,-2.0944,-1.5708,1.5708,0.785399,-0.000175251,-0.000298732,0.000163067,-0.00104381,-0.000206946,0.000151546,0.000344069,0,0,0,0,0,0,0,0.200207,-10.2924,1.06269,21.0431,-0.730269,-0.611364,-0.213125,0.186536,-1.16742,0.898869,2.47303,-0.172023,-0.604463,-0.239028
2958898,1,-1.57101,-0.522771,-0.000720212,-2.09594,-1.57087,1.57158,0.785787,-1.5708,-0.523599,-3.78786e-08,-2.0944,-1.5708,1.5708,0.785399,0.000439978,-0.000199155,0.000108711,0.000974559,6.54865e-05,-0.000136328,-0.000957415,0,0,0,0,0,0,0,0.176403,-10.2924,1.06269,20.9717,-0.735762,-0.604955,-0.181082,0.186079,-1.16718,0.898241,2.47325,-0.172063,-0.604531,-0.239148
2958899,1,-1.57101,-0.522768,-0.000722285,-2.09594,-1.57087,1.57158,0.785783,-1.5708,-0.523599,-3.78786e-08,-2.0944,-1.5708,1.5708,0.785399,0.000942932,0.000980854,7.24743e-05,-0.00102073,0.000247108,-9.08856e-05,-0.00111299,0,0,0,0,0,0,0,0.148632,-10.34,1.06269,21.0431,-0.741255,-0.604955,-0.168264,0.185242,-1.16723,0.897069,2.47327,-0.172088,-0.604672,-0.239301
2958900,1,-1.57101,-0.522771,-0.000722975,-2.09594,-1.57086,1.57158,0.785783,-1.5708,-0.523599,-3.78786e-08,-2.0944,-1.5708,1.5708,0.785399,0.00118543,-0.000459721,4.83162e-05,-0.000123674,0.000164739,-0.000535308,-0.000267279,0,0,0,0,0,0,0,0.124828,-10.2924,1.06269,21.0193,-0.741255,-0.592137,-0.181082,0.183859,-1.16857,0.895249,2.47387,-0.172141,-0.604906,-0.239447
2958901,1,-1.57101,-0.522769,-0.000719126,-2.09594,-1.57086,1.57158,0.785783,-1.5708,-0.523599,-3.78786e-08,-2.0944,-1.5708,1.5708,0.785399,-0.000416137,0.000250331,0.000681825,-0.00128888,0.000109826,-0.000356872,-0.000178186,0,0,0,0,0,0,0,0.176403,-10.3162,1.03491,21.0709,-0.741255,-0.592137,-0.181082,0.182237,-1.17022,0.893149,2.4749,-0.17222,-0.605154,-0.239548
2958902,1,-1.57101,-0.522773,-0.000724242,-2.09594,-1.57087,1.57158,0.785783,-1.5708,-0.523599,-3.78786e-08,-2.0944,-1.5708,1.5708,0.785399,-0.000277425,-0.00103954,-0.000751876,0.000347176,-0.000130233,-5.55837e-07,-0.00011879,0,0,0,0,0,0,0,0.176403,-10.2646,1.08649,21.0193,-0.735762,-0.598546,-0.181082,0.181241,-1.17085,0.891886,2.47564,-0.172281,-0.605262,-0.239593
2958903,1,-1.57101,-0.522771,-0.000723071,-2.09594,-1.57087,1.57158,0.785785,-1.5708,-0.523599,-3.78786e-08,-2.0944,-1.5708,1.5708,0.785399,0.000464664,-4.34117e-05,5.55612e-05,-0.000325362,-8.68222e-05,-0.000237729,0.000632883,0,0,0,0,0,0,0,0.148632,-10.2924,1.06269,21.0431,-0.735762,-0.592137,-0.200308,0.181156,-1.16974,0.891926,2.47547,-0.172286,-0.605178,-0.239589
2958904,1,-1.57101,-0.522771,-0.000719158,-2.09594,-1.57087,1.57158,0.785785,-1.5708,-0.523599,-3.78786e-08,-2.0944,-1.5708,1.5708,0.785399,-0.000339838,-2.89411e-05,0.000686655,-0.000216908,-0.000261332,0.000316232,0.000421922,0,0,0,0,0,0,0,0.176403,-10.2924,1.03491,21.0431,-0.730269,-0.604955,-0.200308,0.181124,-1.16814,0.892069,2.47495,-0.172275,-0.60505,-0.239546
2958905,1,-1.57101,-0.522769,-0.000722583,-2.09594,-1.57087,1.57158,0.785789,-1.5708,-0.523599,-3.78786e-08,-2.0944,-1.5708,1.5708,0.785399,0.000423055,0.000537518,-0.000191844,0.000412207,2.92292e-05,0.00044818,0.000755999,0,0,0,0,0,0,0,0.148632,-10.3162,1.06269,21.0193,-0.735762,-0.611364,-0.213125,0.180729,-1.16751,0.891702,2.47477,-0.172278,-0.604969,-0.239487
2958906,1,-1.57101,-0.522768,-0.000718995,-2.09594,-1.57086,1.57158,0.785786,-1.5708,-0.523599,-3.78786e-08,-2.0944,-1.5708,1.5708,0.785399,-0.001574,0.000915157,0.000521718,0.000831616,0.000222937,-0.000175931,-0.000920154,0,0,0,0,0,0,0,0.227978,-10.34,1.03491,20.9955,-0.741255,-0.598546,-0.174673,0.180515,-1.16802,0.891573,2.47475,-0.172266,-0.60487,-0.239441
2958907,1,-1.57101,-0.522771,-0.000724199,-2.09594,-1.57087,1.57158,0.785786,-1.5708,-0.523599,-3.78786e-08,-2.0944,-1.5708,1.5708,0.785399,0.000157091,-0.000503519,-0.000858614,0.00111122,-5.48261e-05,0.000120071,-0.000850795,0,0,0,0,0,0,0,0.176403,-10.2924,1.08649,20.9717,-0.735762,-0.604955,-0.168264,0.18101,-1.1685,0.892371,2.47422,-0.172205,-0.604668,-0.239418
2958908,1,-1.57101,-0.522773,-0.000724727,-2.09594,-1.57087,1.57158,0.785784,-1.5708,-0.523599,-3.78786e-08,-2.0944,-1.5708,1.5708,0.785399,-0.000452085,-0.000985293,-0.000572409,-0.000929621,0.00037035,8.00476e-05,-9.24788e-05,0,0,0,0,0,0,0,0.200207,-10.2646,1.08649,21.0431,-0.746748,-0.604955,-0.181082,0.182217,-1.1671,0.894157,2.47285,-0.172096,-0.604341,-0.239398
2958909,1,-1.57101,-0.522775,-0.000717483,-2.09594,-1.57087,1.57158,0.785785,-1.5708,-0.523599,-3.78786e-08,-2.0944,-1.5708,1.5708,0.785399,0.000905036,-0.00121367,0.00138163,-6.29351e-05,-0.000160001,0.000290724,0.000413065,0,0,0,0,0,0,0,0.148632,-10.2408,1.01111,21.0193,-0.735762,-0.611364,-0.193899,0.183016,-1.16379,0.895317,2.47125,-0.172004,-0.604058,-0.239349
2958910,1,-1.57101,-0.522771,-0.000724251,-2.09594,-1.57087,1.57158,0.785785,-1.5708,-0.523599,-3.78786e-08,-2.0944,-1.5708,1.5708,0.785399,-0.000603069,0.00039731,-0.00084215,0.000514855,-0.000106667,0.000193816,0.000512736,0,0,0,0,0,0,0,0.200207,-10.2924,1.08649,20.9955,-0.735762,-0.611364,-0.200308,0.182832,-1.16002,0.894983,2.46977,-0.171962,-0.603938,-0.239268
2958911,1,-1.57101,-0.522771,-0.000723074,-2.09594,-1.57086,1.57158,0.78579,-1.5708,-0.523599,-3.78786e-08,-2.0944,-1.5708,1.5708,0.785399,0.000154766,0.000264873,-4.62144e-06,-0.000770387,0.000132339,-0.000108148,0.0010539,0,0,0,0,0,0,0,0.176403,-10.2924,1.06269,21.0431,-0.741255,-0.604955,-0.219534,0.182748,-1.15811,0.894834,2.46916,-0.171956,-0.603851,-0.23917
2958912,1,-1.57101,-0.522769,-0.000724909,-2.09594,-1.57087,1.57158,0.785785,-1.5708,-0.523599,-3.78786e-08,-2.0944,-1.5708,1.5708,0.785399,-0.00110325,0.000733394,-0.000559893,0.000600033,-0.000115224,0.000402619,-0.00143363,0,0,0,0,0,0,0,0.227978,-10.3162,1.08649,20.9955,-0.735762,-0.617772,-0.161856,0.183294,-1.1589,0.895646,2.4699,-0.171986,-0.603728,-0.239083
2958913,1,-1.57101,-0.522773,-0.000723293,-2.09594,-1.57087,1.57158,0.785783,-1.5708,-0.523599,-3.78786e-08,-2.0944,-1.5708,1.5708,0.785399,-0.000735499,-0.000717497,0.00018355,0.000400022,-7.68163e-05,3.10538e-05,-0.000481035,0,0,0,0,0,0,0,0.227978,-10.2646,1.06269,20.9955,-0.735762,-0.611364,-0.174673,0.184356,-1.16022,0.897086,2.47071,-0.172006,-0.60357,-0.239023
2958914,1,-1.57101,-0.522771,-0.000717562,-2.09594,-1.57087,1.57158,0.785782,-1.5708,-0.523599,-3.78786e-08,-2.0944,-1.5708,1.5708,0.785399,0.000716093,0.000171283,0.00132879,-0.000846943,-5.12109e-05,2.07025e-05,-0.00032069,0,0,0,0,0,0,0,0.176403,-10.2924,1.01111,21.0431,-0.735762,-0.611364,-0.174673,0.184915,-1.16068,0.897585,2.47111,-0.172029,-0.603518,-0.238962
2958915,1,-1.57101,-0.522769,-0.000722147,-2.09594,-1.57087,1.57158,0.785786,-1.5708,-0.523599,-3.78786e-08,-2.0944,-1.5708,1.5708,0.785399,0.000477396,0.000671001,-0.000877376,0.000548995,-3.41406e-05,-0.000460916,0.00121036,0,0,0,0,0,0,0,0.176403,-10.3162,1.08649,20.9955,-0.735762,-0.598546,-0.213125,0.184301,-1.16168,0.896332,2.47195,-0.172104,-0.60368,-0.238868
2958916,1,-1.57101,-0.522769,-0.000722373,-2.09594,-1.57087,1.57158,0.785787,-1.5708,-0.523599,-3.78786e-08,-2.0944,-1.5708,1.5708,0.785399,0.000318264,0.000447334,-2.81055e-05,0.000922809,-0.000226211,0.00016744,0.00104427,0,0,0,0,0,0,0,0.176403,-10.3162,1.06269,20.9717,-0.730269,-0.611364,-0.219534,0.183577,-1.16353,0.895035,2.47289,-0.172181,-0.603889,-0.238751
2958917,1,-1.57101,-0.522773,-0.000723005,-2.09594,-1.57087,1.57158,0.785788,-1.5708,-0.523599,-3.78786e-08,-2.0944,-1.5708,1.5708,0.785399,-0.000344636,-0.000908203,-1.8737e-05,5.8394e-05,0.000256094,0.000111627,-1.58997e-05,0,0,0,0,0,0,0,0.200207,-10.2646,1.06269,20.9955,-0.741255,-0.611364,-0.200308,0.183245,-1.16436,0.894318,2.47297,-0.172205,-0.604037,-0.238656
2958918,1,-1.57101,-0.522769,-0.000719136,-2.09594,-1.57087,1.57158,0.785784,-1.5708,-0.523599,-3.78786e-08,-2.0944,-1.5708,1.5708,0.785399,-0.000229757,0.000600957,0.000637123,0.000595741,-0.000236172,-0.0004003,-0.000485318,0,0,0,0,0,0,0,0.200207,-10.3162,1.03491,20.9717,-0.730269,-0.598546,-0.18749,0.183055,-1.16374,0.893661,2.47235,-0.172195,-0.604151,-0.238617
2958919,1,-1.57101,-0.522771,-0.000722115,-2.09594,-1.57087,1.57158,0.785781,-1.5708,-0.523599,-3.78786e-08,-2.0944,-1.5708,1.5708,0.785399,0.00040364,-0.000156174,-0.000781677,0.000397161,4.60026e-05,-0.000266867,-0.00127298,0,0,0,0,0,0,0,0.176403,-10.2924,1.08649,20.9717,-0.735762,-0.598546,-0.161856,0.182978,-1.16305,0.893095,2.47163,-0.172175,-0.604245,-0.238623
2958920,1,-1.57101,-0.522769,-0.000718283,-2.09594,-1.57087,1.57158,0.785786,-1.5708,-0.523599,-3.78786e-08,-2.0944,-1.5708,1.5708,0.785399,-0.000937332,0.000452696,0.000685308,0.000264774,-0.000172782,0.000296807,0.00105022,0,0,0,0,0,0,0,0.227978,-10.3162,1.03491,20.9717,-0.730269,-0.611364,-0.213125,0.183161,-1.16282,0.8929,2.47107,-0.172147,-0.604296,-0.23864
2958921,1,-1.57101,-0.522771,-0.000722291,-2.09594,-1.57087,1.57158,0.785783,-1.5708,-0.523599,-3.78786e-08,-2.0944,-1.5708,1.5708,0.785399,2.47257e-05,-0.000255015,-0.000192742,-0.00149392,0.000291713,-0.000276847,-0.00048665,0,0,0,0,0,0,0,0.200207,-10.2924,1.06269,21.0431,-0.741255,-0.598546,-0.181082,0.183536,-1.16339,0.892904,2.47123,-0.17214,-0.604316,-0.238641
2958922,1,-1.57101,-0.522771,-0.000721028,-2.09594,-1.57087,1.57158,0.785788,-1.5708,-0.523599,-3.78786e-08,-2.0944,-1.5708,1.5708,0.785399,0.00122291,-0.00017001,0.000521119,0.000117677,-0.000415876,0.000527512,0.00133708,0,0,0,0,0,0,0,0.148632,-10.2924,1.03491,20.9955,-0.724776,-0.617772,-0.225942,0.183503,-1.16452,0.892307,2.47222,-0.172176,-0.604393,-0.238634
2958923,1,-1.57101,-0.522771,-0.000724416,-2.09594,-1.57087,1.57158,0.785788,-1.5708,-0.523599,-3.78786e-08,-2.0944,-1.5708,1.5708,0.785399,0.000815273,-0.00011334,-0.00141583,-0.00047836,0.000333101,0.000114316,-5.80494e-05,0,0,0,0,0,0,0,0.148632,-10.2924,1.11029,21.0193,-0.741255,-0.611364,-0.200308,0.182971,-1.16527,0.891169,2.47316,-0.172214,-0.604534,-0.23864
2958924,1,-1.57101,-0.522773,-0.000720623,-2.09594,-1.57087,1.57158,0.785785,-1.5708,-0.523599,-3.78786e-08,-2.0944,-1.5708,1.5708,0.785399,-0.000106099,-0.000725174,0.000819354,0.000237905,-0.000184834,7.62106e-05,-0.00146285,0,0,0,0,0,0,0,0.176403,-10.2646,1.03491,20.9955,-0.730269,-0.611364,-0.161856,0.182555,-1.16509,0.890367,2.47352,-0.172214,-0.604644,-0.238682
2958925,1,-1.57101,-0.522771,-0.000720941,-2.09594,-1.57087,1.57158,0.785785,-1.5708,-0.523599,-3.78786e-08,-2.0944,-1.5708,1.5708,0.785399,-7.07323e-05,-0.00611604,-0.000103378,0.000715415,8.02279e-05,0.000288166,-0.000975236,0,0,0,0,0,0,0,0.176403,-10.2924,1.06269,20.9717,-0.735762,-0.617772,-0.161856,0.182345,-1.159,0.889697,2.47097,-0.172096,-0.604654,-0.238763
2958926,1,-1.57101,-0.522769,-0.000716777,-2.09594,-1.57087,1.57158,0.785788,-1.5708,-0.523599,-3.78786e-08,-2.0944,-1.5708,1.5708,0.785399,-4.71549e-05,-0.00404407,0.00113751,-0.00063668,0.000256936,-0.000282607,0.000299279,0,0,0,0,0,0,0,0.176403,-10.3162,1.01111,21.0193,-0.741255,-0.604955,-0.18749,0.182103,-1.14297,0.888616,2.46388,-0.171818,-0.604557,-0.238842
2958927,1,-1.57101,-0.522769,-0.000725687,-2.09594,-1.57086,1.57158,0.78579,-1.5708,-0.523599,-3.78786e-08,-2.0944,-1.5708,1.5708,0.785399,-3.14366e-05,-0.00308868,-0.00156171,0.000132358,-3.216e-05,-0.000188405,0.00186103,0,0,0,0,0,0,0,0.176403,-10.3162,1.11029,20.9955,-0.735762,-0.604955,-0.232351,0.182171,-1.12291,0.887881,2.45519,-0.171484,-0.604365,-0.238875
2958928,1,-1.57101,-0.522771,-0.000718916,-2.09594,-1.57087,1.57158,0.785791,-1.5708,-0.523599,-3.78786e-08,-2.0944,-1.5708,1.5708,0.785399,-2.09577e-05,-0.00291041,0.000722097,8.82389e-05,-0.000224891,0.000111756,0.00076597,0,0,0,0,0,0,0,0.176403,-10.2924,1.03491,20.9955,-0.730269,-0.611364,-0.219534,0.182851,-1.10524,0.888213,2.44757,-0.171177,-0.60411,-0.238874
2958929,1,-1.57101,-0.522769,-0.000723712,-2.09594,-1.57087,1.57158,0.78579,-1.5708,-0.523599,-3.78786e-08,-2.0944,-1.5708,1.5708,0.785399,0.000635642,-0.00160432,-0.00128184,-0.000497986,-0.000149927,7.45038e-05,3.59288e-05,0,0,0,0,0,0,0,0.148632,-10.3162,1.11029,21.0193,-0.730269,-0.611364,-0.206716,0.183635,-1.09223,0.888965,2.44192,-0.170936,-0.603894,-0.238892
2958930,1,-1.57101,-0.522771,-0.000722338,-2.09594,-1.57087,1.57158,0.785784,-1.5708,-0.523599,-3.78786e-08,-2.0944,-1.5708,1.5708,0.785399,-0.000225853,-0.001792,0.000259064,0.00143125,0.00030695,-0.00018769,-0.00187492,0,0,0,0,0,0,0,0.176403,-10.2924,1.06269,20.9439,-0.741255,-0.604955,-0.155447,0.184308,-1.08459,0.889863,2.43841,-0.170762,-0.603757,-0.23896
2958931,1,-1.57101,-0.522771,-0.000720862,-2.09594,-1.57087,1.57158,0.785787,-1.5708,-0.523599,-3.78786e-08,-2.0944,-1.5708,1.5708,0.785399,0.000499046,-0.0013189,0.000172709,-0.000252261,-0.000202268,-0.000125126,-0.000537869,0,0,0,0,0,0,0,0.148632,-10.2924,1.06269,20.9955,-0.730269,-0.604955,-0.174673,0.184638,-1.08115,0.890463,2.43631,-0.170634,-0.603717,-0.239056
2958932,1,-1.57101,-0.522773,-0.000720552,-2.09594,-1.57087,1.57158,0.785786,-1.5708,-0.523599,-3.78786e-08,-2.0944,-1.5708,1.5708,0.785399,-0.000873729,-0.00162206,0.000764753,-0.000724986,-0.000134845,-0.000320777,0.000353497,0,0,0,0,0,0,0,0.200207,-10.2646,1.03491,21.0193,-0.730269,-0.598546,-0.193899,0.184353,-1.08132,0.890234,2.43589,-0.170587,-0.603803,-0.239124
2958933,1,-1.57101,-0.522775,-0.000723047,-2.09594,-1.57087,1.57158,0.785783,-1.5708,-0.523599,-3.78786e-08,-2.0944,-1.5708,1.5708,0.785399,-2.56739e-05,-0.00170806,-0.000139778,-0.000483324,-8.98968e-05,-0.000213851,-0.000239053,0,0,0,0,0,0,0,0.176403,-10.2408,1.06269,21.0193,-0.730269,-0.598546,-0.181082,0.183943,-1.08417,0.889815,2.43719,-0.17061,-0.603921,-0.239139
2958934,1,-1.57101,-0.522771,-0.0007249,-2.09594,-1.57086,1.57158,0.78579,-1.5708,-0.523599,-3.78786e-08,-2.0944,-1.5708,1.5708,0.785399,0.000632498,1.53055e-05,-0.000649997,-0.000322216,0.00055042,0.000332151,0.00102743,0,0,0,0,0,0,0,0.148632,-10.2924,1.08649,21.0193,-0.746748,-0.611364,-0.213125,0.183708,-1.08928,0.889775,2.43977,-0.170667,-0.604016,-0.239111
2958935,1,-1.57101,-0.522769,-0.00072858,-2.09594,-1.57087,1.57158,0.785791,-1.5708,-0.523599,-3.78786e-08,-2.0944,-1.5708,1.5708,0.785399,-0.000227949,0.000527707,-0.00163976,0.000342001,-0.000446855,-0.000253284,0.000684951,0,0,0,0,0,0,0,0.176403,-10.3162,1.13806,20.9955,-0.724776,-0.598546,-0.213125,0.184015,-1.09787,0.890869,2.4438,-0.17075,-0.604054,-0.239058
2958936,1,-1.57101,-0.522771,-0.000719231,-2.09594,-1.57087,1.57158,0.785785,-1.5708,-0.523597,-2.53788e-06,-2.09439,-1.5708,1.5708,0.785399,-0.000151966,-0.000234488,0.00131968,-0.000328811,0.000108998,6.85028e-05,-0.000492802,-0.00312521,0.001875,-0.0025,0.00231151,-0.00155837,0.005,-0.000158103,0.176403,-10.2924,1.03491,21.0193,-0.735762,-0.604955,-0.18749,0.184644,-1.10905,0.892638,2.44875,-0.170851,-0.604062,-0.239013
2958937,1,-1.57101,-0.522771,-0.000722607,-2.09594,-1.57086,1.57158,0.785782,-1.57081,-0.523593,-7.53788e-06,-2.09439,-1.5708,1.57081,0.785398,-0.000658122,-0.000178436,0.000230173,-0.000776019,0.000276116,4.56685e-05,-0.000803253,-0.00625042,0.00375,-0.005,0.00462301,-0.00311674,0.01,-0.000316207,0.200207,-10.2924,1.06269,21.0431,-0.741255,-0.604955,-0.174673,0.184597,-1.12057,0.893307,2.45395,-0.170981,-0.604166,-0.238997
2958938,1,-1.57101,-0.522769,-0.000724753,-2.09594,-1.57086,1.57158,0.785781,-1.57082,-0.523587,-1.50379e-05,-2.09438,-1.57081,1.57083,0.785398,0.000767678,0.000421271,-0.000403363,0.000596278,0.000184077,0.000267805,-0.00101022,-0.00937563,0.005625,-0.0075,0.00693452,-0.00467511,0.015,-0.00047431,0.148632,-10.3162,1.08649,20.9955,-0.741255,-0.611364,-0.161856,0.184006,-1.13159,0.893093,2.45903,-0.171125,-0.604339,-0.238996
2958939,1,-1.57102,-0.52277,-0.000724525,-2.09594,-1.57086,1.57158,0.785782,-1.57083,-0.52358,-2.50379e-05,-2.09437,-1.57081,1.57085,0.785397,-0.00208942,0.00164839,-0.00356799,0.00617663,0.000529619,-0.000296181,-0.000198762,-0.0125008,0.0075,-0.01,0.00924603,-0.00623348,0.02,-0.000632413,0.124828,-10.2408,0.959536,21.0193,-0.752241,-0.598546,-0.174673,0.184797,-1.14093,0.895006,2.46192,-0.171145,-0.604293,-0.23898
2958940,1,-1.57102,-0.522773,-0.000715218,-2.09595,-1.57086,1.57158,0.785785,-1.57084,-0.523571,-3.75379e-05,-2.09436,-1.57082,1.57087,0.785396,0.00045437,0.0036306,-0.000644363,0.000562462,0.00184505,-0.000434813,0.000816928,-0.0156261,0.009375,-0.0125,0.0115575,-0.00779185,0.025,-0.000790516,-0.101307,-10.0623,0.451724,21.1939,-0.792525,-0.592137,-0.200308,0.187735,-1.15026,0.900229,2.46276,-0.171038,-0.603931,-0.238921
2958941,1,-1.57101,-0.522775,-0.000723294,-2.09594,-1.57086,1.57158,0.785785,-1.57086,-0.523559,-5.25379e-05,-2.09435,-1.57083,1.5709,0.785395,0.00527051,0.00349562,-0.00488462,0.00261758,0.00248464,-5.25166e-05,0.000544619,-0.0187513,0.01125,-0.015,0.013869,-0.00935022,0.03,-0.00094862,-0.605152,-9.80838,0.0470608,21.2455,-0.826399,-0.598546,-0.200308,0.190194,-1.16387,0.905297,2.46543,-0.171058,-0.603637,-0.238807
2958942,1,-1.57101,-0.522767,-0.000733723,-2.09594,-1.57087,1.57158,0.785786,-1.57088,-0.523546,-7.00379e-05,-2.09433,-1.57084,1.57094,0.785394,0.00134687,0.00616553,-0.00343453,0.00215327,0.00165643,-0.000509729,0.000837797,-0.0218765,0.013125,-0.0175,0.0161806,-0.0109086,0.035,-0.00110672,-0.958241,-9.65762,-0.432981,21.3922,-0.826399,-0.585729,-0.213125,0.190782,-1.18249,0.908448,2.47132,-0.171335,-0.603536,-0.238667
2958943,1,-1.57102,-0.522761,-0.000746699,-2.09594,-1.57087,1.57159,0.785785,-1.57091,-0.523531,-9.00379e-05,-2.09431,-1.57085,1.57098,0.785393,0.0021352,0.00507829,-0.00620657,0.00156647,0.00110429,-0.00010246,-0.000865622,-0.0250017,0.015,-0.02,0.0184921,-0.012467,0.04,-0.00126483,-1.3391,-9.50687,-0.913022,21.416,-0.826399,-0.592137,-0.174673,0.190626,-1.20459,0.911036,2.48015,-0.171856,-0.603323,-0.238532
2958944,1,-1.57102,-0.522745,-0.000765354,-2.09593,-1.57087,1.57159,0.785785,-1.57094,-0.523514,-0.000112538,-2.09429,-1.57087,1.57102,0.785392,0.0011894,0.00789289,-0.0105312,0.00460358,9.19311e-05,-0.000543025,-0.0010518,-0.0281269,0.016875,-0.0225,0.0208036,-0.0140253,0.045,-0.00142293,-1.66442,-9.50687,-1.29388,21.416,-0.809004,-0.57932,-0.161856,0.19118,-1.22783,0.915296,2.49115,-0.17254,-0.602606,-0.238416
2958945,1,-1.57103,-0.52273,-0.000785712,-2.09593,-1.57087,1.57159,0.785781,-1.57097,-0.523496,-0.000137538,-2.09427,-1.57088,1.57107,0.78539,-0.000982077,0.0115649,-0.0110737,0.0013895,0.000705547,-0.000124658,-0.000938559,-0.0312521,0.01875,-0.025,0.0231151,-0.0155837,0.05,-0.00158103,-2.06908,-9.45529,-1.67474,21.5152,-0.826399,-0.585729,-0.155447,0.19349,-1.25404,0.923147,2.50511,-0.17334,-0.601102,-0.238284
2958946,1,-1.57104,-0.522724,-0.000802655,-2.09592,-1.57087,1.5716,0.785785,-1.57101,-0.523473,-0.000167538,-2.09424,-1.5709,1.57113,0.785388,-0.00315101,0.0121532,-0.0113205,-0.00035654,0.000673815,0.00579328,0.000798448,-0.037128,0.0225,-0.03,0.0272517,-0.0182673,0.06,-0.00174171,-2.32299,-9.30453,-2.05163,21.5906,-0.831892,-0.617772,-0.193899,0.196313,-1.28819,0.932747,2.52558,-0.174383,-0.598963,-0.238076
2958947,1,-1.57105,-0.52272,-0.000822919,-2.09591,-1.57087,1.57161,0.785786,-1.57105,-0.523447,-0.000202538,-2.09421,-1.57092,1.5712,0.785386,-0.00329294,0.0112505,-0.0135598,0.00284719,0.00170382,0.00330355,0.00124438,-0.0430039,0.02625,-0.035,0.0313884,-0.020951,0.07,-0.0019024,-2.6245,-9.1022,-2.33331,21.6144,-0.865767,-0.592137,-0.213125,0.197462,-1.32669,0.94081,2.55141,-0.175661,-0.596421,-0.23779
2958948,1,-1.57106,-0.522712,-0.00084234,-2.0959,-1.57086,1.57161,0.785789,-1.5711,-0.523417,-0.000242538,-2.09417,-1.57095,1.57128,0.785384,-0.00522475,0.0089615,-0.0121601,0.00447978,0.00198359,0.00429731,0.00177902,-0.0488798,0.03,-0.04,0.035525,-0.0236346,0.08,-0.00206308,-2.85064,-8.95145,-2.61102,21.666,-0.888655,-0.514318,-0.23876,0.195211,-1.35813,0.944676,2.57595,-0.176975,-0.59353,-0.237499
2958949,1,-1.57109,-0.522704,-0.000861001,-2.09589,-1.57086,1.57161,0.78579,-1.57115,-0.523383,-0.000287538,-2.09413,-1.57097,1.57137,0.785382,-0.0146033,0.00789869,-0.0172349,0.00245821,0.00298391,0.00474619,0.000473936,-0.0547557,0.03375,-0.045,0.0396617,-0.0263183,0.09,-0.00222376,-3.00139,-8.69754,-3.01568,21.7176,-0.933516,-0.418187,-0.219534,0.190885,-1.37462,0.945791,2.59531,-0.178185,-0.58991,-0.237284
2958950,1,-1.57111,-0.522691,-0.000887741,-2.09589,-1.57086,1.57162,0.785787,-1.57121,-0.523346,-0.000337538,-2.09409,-1.571,1.57147,0.78538,-0.014886,0.0126019,-0.022788,0.00535502,0.00388814,0.00615628,7.85985e-05,-0.0606316,0.0375,-0.05,0.0437983,-0.0290019,0.1,-0.00238444,-3.42986,-8.39603,-3.49572,21.8405,-0.984785,-0.346776,-0.213125,0.189223,-1.37893,0.951039,2.61135,-0.179275,-0.584748,-0.237184
2958951,1,-1.57114,-0.522669,-0.00092384,-2.09587,-1.57086,1.57162,0.78578,-1.57128,-0.523304,-0.000392538,-2.09404,-1.57103,1.57158,0.785377,-0.0168148,0.0168837,-0.0262584,0.00941744,0.00445706,0.0117302,-0.00208383,-0.0665075,0.04125,-0.055,0.047935,-0.0316856,0.11,-0.00254512,-3.93767,-8.11832,-4.02734,21.8882,-1.03514,-0.269872,-0.155447,0.191319,-1.38012,0.962864,2.627,-0.180352,-0.577825,-0.237198
2958952,1,-1.57116,-0.522642,-0.000974277,-2.09585,-1.57086,1.57164,0.785785,-1.57135,-0.523259,-0.000452538,-2.09399,-1.57107,1.5717,0.785374,-0.0194207,0.0206516,-0.0360828,0.0117672,0.000391475,0.0122908,0.000272292,-0.0723834,0.045,-0.06,0.0520716,-0.0343692,0.12,-0.0027058,-4.5407,-7.86441,-4.50738,21.9635,-1.0919,-0.218602,-0.200308,0.196272,-1.38452,0.980929,2.64353,-0.181515,-0.569166,-0.237278
2958953,1,-1.5712,-0.522603,-0.00102105,-2.09583,-1.57087,1.57167,0.78578,-1.57143,-0.523211,-0.000517538,-2.09393,-1.5711,1.57183,0.785372,-0.026142,0.0259636,-0.041948,0.0155,0.000515059,0.0135067,-0.00147998,-0.0782594,0.04875,-0.065,0.0562083,-0.0370529,0.13,-0.00286648,-4.96917,-7.71365,-5.09057,21.9635,-1.1093,-0.192968,-0.155447,0.206177,-1.39502,1.00898,2.66193,-0.1828,-0.558237,-0.237353
2958954,1,-1.57126,-0.522561,-0.00107625,-2.0958,-1.57087,1.5717,0.785784,-1.57151,-0.523158,-0.000587538,-2.09387,-1.57114,1.57197,0.785369,-0.0314721,0.0297818,-0.0453204,0.0167973,0.000661085,0.0234697,0.000437497,-0.0841353,0.0525,-0.07,0.0603449,-0.0397365,0.14,-0.00302716,-5.37383,-7.55893,-5.57061,22.0151,-1.12578,-0.160009,-0.193899,0.221279,-1.41361,1.04744,2.68348,-0.184329,-0.544837,-0.237376
2958955,1,-1.57131,-0.522518,-0.00112776,-2.09577,-1.57087,1.57174,0.78578,-1.5716,-0.523102,-0.000662538,-2.09381,-1.57119,1.57212,0.785365,-0.0367002,0.0356087,-0.0471501,0.0216643,-0.0033988,0.0308125,-0.00113249,-0.0900112,0.05625,-0.075,0.0644816,-0.0424201,0.15,-0.00318785,-5.72692,-7.40817,-6.07843,22.0389,-1.15416,-0.127965,-0.155447,0.237368,-1.44098,1.08975,2.70881,-0.186278,-0.52959,-0.237325
2958956,1,-1.57137,-0.522478,-0.00118083,-2.09574,-1.57088,1.5718,0.785773,-1.5717,-0.52304,-0.000745038,-2.09374,-1.57123,1.57229,0.785362,-0.0427499,0.0391184,-0.0457257,0.0270345,-0.000513974,0.0391298,-0.00292513,-0.0984782,0.061875,-0.0825,0.0701127,-0.046137,0.165,-0.0031804,-5.98082,-7.20584,-6.58624,22.1143,-1.21641,-0.166417,-0.0968531,0.248596,-1.47508,1.1267,2.73629,-0.188748,-0.513388,-0.237198
2958957,1,-1.57144,-0.522439,-0.00124166,-2.0957,-1.57089,1.57187,0.785772,-1.57181,-0.522972,-0.000835038,-2.09366,-1.57128,1.57247,0.785359,-0.0476805,0.0395723,-0.0497556,0.0281723,0.00114081,0.0499927,-0.00242481,-0.106945,0.0675,-0.09,0.0757438,-0.0498538,0.18,-0.00317296,-6.20696,-6.92813,-6.9909,22.1897,-1.26768,-0.212194,-0.0840357,0.250848,-1.50969,1.15145,2.76305,-0.191793,-0.496839,-0.236975
2958958,1,-1.57151,-0.522404,-0.00131093,-2.09567,-1.57089,1.57196,0.785769,-1.57192,-0.522899,-0.000932538,-2.09358,-1.57134,1.57266,0.785356,-0.0543841,0.0420532,-0.0545426,0.0273867,-0.00254975,0.057002,-0.00161654,-0.115412,0.073125,-0.0975,0.081375,-0.0535706,0.195,-0.00316552,-6.43309,-6.57504,-7.21704,22.3365,-1.31254,-0.23142,-0.0840357,0.244462,-1.53934,1.16414,2.78891,-0.195466,-0.479972,-0.23658
2958959,1,-1.5716,-0.522362,-0.00137695,-2.09562,-1.5709,1.57205,0.785766,-1.57205,-0.522821,-0.00103754,-2.0935,-1.57139,1.57287,0.785353,-0.0664723,0.0442554,-0.0592645,0.0313805,-0.00489441,0.0696931,-0.00155241,-0.123879,0.07875,-0.105,0.0870061,-0.0572874,0.21,-0.00315808,-6.48467,-6.24576,-7.6217,22.4356,-1.36931,-0.199376,-0.0712183,0.233585,-1.56225,1.1704,2.81517,-0.199742,-0.462395,-0.235935
2958960,1,-1.57169,-0.52231,-0.00145524,-2.09558,-1.5709,1.57215,0.78577,-1.57218,-0.522736,-0.00115004,-2.0934,-1.57145,1.5731,0.78535,-0.0750853,0.0485282,-0.0675682,0.0374337,-0.00609594,0.0820643,0.00133865,-0.132346,0.084375,-0.1125,0.0926372,-0.0610043,0.225,-0.00315063,-6.65923,-5.89267,-8.07794,22.5348,-1.44255,-0.115148,-0.135305,0.223515,-1.57681,1.17734,2.84055,-0.204455,-0.443615,-0.235013
2958961,1,-1.57178,-0.522244,-0.00154734,-2.09552,-1.57091,1.57227,0.785767,-1.57232,-0.522646,-0.00127004,-2.0933,-1.57152,1.57334,0.785346,-0.0806421,0.0543659,-0.0745908,0.0433152,-0.00663477,0.0971484,0.000417715,-0.140814,0.09,-0.12,0.0982684,-0.0647211,0.24,-0.00314319,-7.01232,-5.63876,-8.53418,22.5626,-1.52769,-0.0702869,-0.122488,0.217146,-1.58362,1.1891,2.86346,-0.209504,-0.423453,-0.233847
2958962,1,-1.57188,-0.522172,-0.00164515,-2.09546,-1.57093,1.57243,0.785757,-1.57247,-0.522551,-0.00139754,-2.0932,-1.57159,1.57359,0.785343,-0.0858859,0.0620108,-0.0837427,0.0477526,-0.00883326,0.118748,-0.00185775,-0.149281,0.095625,-0.1275,0.1039,-0.0684379,0.255,-0.00313575,-7.46856,-5.38882,-9.06579,22.6102,-1.56706,-0.1536,-0.0648096,0.213635,-1.58845,1.20502,2.8856,-0.215021,-0.402235,-0.232511
2958963,1,-1.572,-0.522091,-0.00174514,-2.0954,-1.57095,1.57261,0.785749,-1.57263,-0.522449,-0.00153254,-2.09309,-1.57166,1.57386,0.78534,-0.0981603,0.0679304,-0.0933667,0.055152,-0.0108638,0.136668,-0.003646,-0.157748,0.10125,-0.135,0.109531,-0.0721547,0.27,-0.00312831,-7.71849,-5.15872,-9.64898,22.6102,-1.59544,-0.295507,0.000192821,0.213049,-1.59686,1.22559,2.90913,-0.221124,-0.380127,-0.231043
2958964,1,-1.57212,-0.522008,-0.00186236,-2.09532,-1.57097,1.5728,0.785749,-1.5728,-0.522342,-0.00167504,-2.09298,-1.57173,1.57415,0.785337,-0.104971,0.0724892,-0.100643,0.0616383,-0.0122383,0.156429,-0.00100651,-0.166215,0.106875,-0.1425,0.115162,-0.0758716,0.285,-0.00312086,-8.07158,-4.90482,-10.1052,22.5626,-1.62382,-0.359594,-0.0382593,0.216689,-1.60764,1.2524,2.93297,-0.227776,-0.357101,-0.229405
2958965,1,-1.57226,-0.521914,-0.00197901,-2.09525,-1.571,1.57301,0.785737,-1.57297,-0.52223,-0.00182504,-2.09285,-1.57181,1.57445,0.785334,-0.113938,0.076816,-0.104218,0.0645113,-0.019162,0.169021,-0.00233252,-0.174682,0.1125,-0.15,0.120793,-0.0795884,0.3,-0.00311342,-8.37706,-4.73026,-10.6091,22.5864,-1.61741,-0.373326,0.00660151,0.222108,-1.61669,1.28121,2.95566,-0.235009,-0.333705,-0.227529
2958966,1,-1.57241,-0.521826,-0.00209372,-2.09517,-1.57104,1.57324,0.785733,-1.57315,-0.522111,-0.00198503,-2.09273,-1.5719,1.57477,0.785331,-0.126291,0.0796349,-0.108414,0.0667081,-0.0226783,0.184911,0.000106498,-0.184801,0.119423,-0.15999,0.127417,-0.0838764,0.319216,-0.00301908,-8.55162,-4.47635,-11.0931,22.6102,-1.6522,-0.424596,-0.0382593,0.225624,-1.62156,1.30561,2.97815,-0.242947,-0.310628,-0.22537
2958967,1,-1.57256,-0.521737,-0.00220593,-2.09508,-1.57108,1.57349,0.785726,-1.57335,-0.521984,-0.00215501,-2.09259,-1.57199,1.5751,0.785328,-0.131429,0.0824335,-0.11018,0.0734266,-0.0306391,0.207272,0.000816984,-0.194919,0.126345,-0.16998,0.134041,-0.0881644,0.338431,-0.00292475,-8.75396,-4.17484,-11.5969,22.6618,-1.67418,-0.507909,-0.0584009,0.223759,-1.6185,1.3196,2.99995,-0.251604,-0.288512,-0.222928
2958968,1,-1.57272,-0.521638,-0.00233001,-2.09499,-1.57112,1.57376,0.785718,-1.57355,-0.521851,-0.00233498,-2.09245,-1.57208,1.57546,0.785325,-0.136146,0.0875488,-0.115884,0.0804783,-0.0310782,0.219591,-0.00419082,-0.205038,0.133268,-0.17997,0.140664,-0.0924524,0.357647,-0.00283041,-9.03167,-3.9725,-11.9262,22.6618,-1.71355,-0.482274,-0.0712183,0.211735,-1.60363,1.3161,3.01829,-0.260916,-0.268204,-0.220274
2958969,1,-1.57289,-0.521545,-0.00245849,-2.0949,-1.57116,1.57404,0.785711,-1.57377,-0.521711,-0.00252494,-2.09231,-1.57218,1.57584,0.785322,-0.150533,0.0908594,-0.122816,0.0819831,-0.0354995,0.242284,-0.00860154,-0.215157,0.140191,-0.18996,0.147288,-0.0967403,0.376863,-0.00273607,-9.18242,-3.64322,-12.434,22.8086,-1.76481,-0.411779,-0.0648096,0.189586,-1.57751,1.29529,3.03307,-0.270822,-0.249802,-0.217497
2958970,1,-1.57307,-0.52144,-0.00259268,-2.0948,-1.57121,1.57434,0.785695,-1.57399,-0.521564,-0.00272489,-2.09215,-1.57228,1.57623,0.78532,-0.161986,0.0970643,-0.126517,0.0869105,-0.0392426,0.258686,-0.0129189,-0.225276,0.147113,-0.19995,0.153912,-0.101028,0.396079,-0.00264174,-9.40856,-3.33774,-13.0926,22.8086,-1.81608,-0.321141,-0.0318506,0.162056,-1.54428,1.26356,3.04751,-0.281295,-0.232661,-0.214657
2958971,1,-1.57325,-0.521318,-0.00274742,-2.09468,-1.57127,1.57468,0.785687,-1.57423,-0.52141,-0.00293483,-2.09199,-1.57238,1.57665,0.785317,-0.16751,0.109752,-0.137858,0.093343,-0.0429067,0.279315,-0.0141079,-0.235394,0.154036,-0.20994,0.160536,-0.105316,0.415294,-0.0025474,-9.91637,-3.13541,-13.5964,22.8086,-1.84447,-0.321141,-0.0510767,0.131844,-1.51325,1.22487,3.06593,-0.292406,-0.216357,-0.211766
2958972,1,-1.57343,-0.521187,-0.00291196,-2.09456,-1.57134,1.57503,0.785675,-1.57448,-0.521249,-0.00315476,-2.09182,-1.57249,1.57708,0.785315,-0.175638,0.115304,-0.148088,0.10066,-0.0456963,0.302555,-0.0113009,-0.245513,0.160959,-0.21993,0.16716,-0.109604,0.43451,-0.00245306,-10.4202,-2.96085,-14.128,22.7094,-1.87193,-0.40537,-0.0318506,0.100207,-1.49335,1.18227,3.09091,-0.30419,-0.200584,-0.208826
2958973,1,-1.57365,-0.521043,-0.00308107,-2.09443,-1.57141,1.57543,0.785667,-1.57473,-0.521081,-0.00338468,-2.09165,-1.57261,1.57754,0.785312,-0.186917,0.123698,-0.159142,0.112116,-0.0538415,0.331399,-0.0132337,-0.255632,0.167881,-0.22992,0.173784,-0.113892,0.453726,-0.00235873,-10.6979,-2.88547,-14.7112,22.6102,-1.86094,-0.566503,-0.044668,0.0691651,-1.48233,1.13972,3.1192,-0.316414,-0.184907,-0.205867
2958974,1,-1.57388,-0.520901,-0.00325883,-2.09428,-1.57148,1.57584,0.785652,-1.575,-0.520906,-0.00362459,-2.09147,-1.57272,1.57801,0.78531,-0.196548,0.127431,-0.164372,0.121403,-0.0586233,0.36171,-0.0170618,-0.265751,0.174804,-0.23991,0.180407,-0.11818,0.472941,-0.00226439,-10.9241,-2.70694,-15.2706,22.4634,-1.88383,-0.701085,0.00660151,0.0389038,-1.47117,1.09751,3.14423,-0.328733,-0.169321,-0.202927
2958975,1,-1.5741,-0.520749,-0.0034481,-2.09414,-1.57156,1.57626,0.785641,-1.57527,-0.520724,-0.00387449,-2.09128,-1.57285,1.5785,0.785308,-0.203663,0.133164,-0.169646,0.125952,-0.0628432,0.380945,-0.0131152,-0.27587,0.181726,-0.2499,0.187031,-0.122468,0.492157,-0.00217005,-11.2771,-2.53238,-15.6991,22.4356,-1.88933,-0.75327,0.0194189,0.00548397,-1.45297,1.04941,3.16256,-0.341078,-0.154553,-0.200015
2958976,1,-1.57434,-0.520591,-0.0036262,-2.09399,-1.57165,1.57671,0.785629,-1.57556,-0.520535,-0.00413438,-2.09109,-1.57297,1.57902,0.785306,-0.213776,0.142969,-0.16773,0.135829,-0.0710268,0.402706,-0.00921819,-0.286861,0.189216,-0.25989,0.194259,-0.127002,0.512147,-0.00203487,-11.5787,-2.35385,-16.2069,22.388,-1.87834,-0.759679,0.00660151,-0.037353,-1.42858,0.985526,3.17569,-0.353686,-0.141706,-0.197076
2958977,1,-1.57458,-0.520431,-0.00381864,-2.09383,-1.57174,1.57718,0.785616,-1.57586,-0.520338,-0.00440426,-2.09089,-1.5731,1.57955,0.785304,-0.222123,0.143896,-0.173097,0.147266,-0.0777164,0.424593,-0.00662018,-0.297852,0.196706,-0.26988,0.201487,-0.131535,0.532137,-0.0018997,-11.8326,-2.12772,-16.6354,22.3127,-1.85545,-0.759679,0.000192821,-0.0941577,-1.39701,0.898438,3.18245,-0.366608,-0.131554,-0.194069
2958978,1,-1.57483,-0.520269,-0.00402161,-2.09367,-1.57184,1.57767,0.785596,-1.57617,-0.520134,-0.00468413,-2.09068,-1.57324,1.5801,0.785302,-0.226549,0.150283,-0.180574,0.149321,-0.0803832,0.447562,-0.0120791,-0.308843,0.204196,-0.27987,0.208715,-0.136069,0.552127,-0.00176452,-12.1341,-1.87381,-17.0162,22.388,-1.89482,-0.713903,0.0523779,-0.165231,-1.35223,0.787941,3.18035,-0.379675,-0.124057,-0.191003
2958979,1,-1.57509,-0.5201,-0.00422847,-2.09349,-1.57194,1.57819,0.785585,-1.57649,-0.519922,-0.00497399,-2.09046,-1.57338,1.58067,0.785301,-0.243035,0.153263,-0.191411,0.155495,-0.0829552,0.482207,-0.0128421,-0.319834,0.211686,-0.28986,0.215942,-0.140603,0.572117,-0.00162934,-12.3126,-1.67148,-17.3455,22.388,-1.9232,-0.67545,0.0194189,-0.245867,-1.29504,0.661849,3.1728,-0.392793,-0.118435,-0.187867
2958980,1,-1.57538,-0.519923,-0.00444227,-2.09331,-1.57205,1.57873,0.78557,-1.57682,-0.519703,-0.00527384,-2.09024,-1.57353,1.58126,0.785299,-0.25256,0.162278,-0.197287,0.161671,-0.0901107,0.499258,-0.0152443,-0.330825,0.219176,-0.29985,0.22317,-0.145136,0.592107,-0.00149416,-12.3364,-1.46915,-17.6986,22.3365,-1.9406,-0.681859,0.0322363,-0.329275,-1.23023,0.530328,3.16403,-0.405877,-0.113609,-0.184625
2958981,1,-1.57567,-0.519731,-0.00466394,-2.09312,-1.57216,1.57931,0.78557,-1.57716,-0.519477,-0.00558368,-2.09001,-1.57368,1.58188,0.785298,-0.265624,0.170466,-0.207344,0.168166,-0.095582,0.51894,-0.00755302,-0.341816,0.226666,-0.30984,0.230398,-0.14967,0.612097,-0.00135899,-12.3602,-1.34219,-17.9803,22.3365,-1.94609,-0.772496,-0.0712183,-0.411321,-1.16478,0.399337,3.15729,-0.418941,-0.108785,-0.181254
2958982,1,-1.57596,-0.519532,-0.00490958,-2.09291,-1.57227,1.5799,0.78556,-1.57751,-0.519242,-0.00590351,-2.08977,-1.57383,1.58251,0.785297,-0.275174,0.183486,-0.220428,0.177656,-0.103788,0.538162,-0.0101202,-0.352807,0.234156,-0.31983,0.237626,-0.154203,0.632087,-0.00122381,-12.511,-1.31839,-18.0557,22.2611,-1.95708,-0.849401,-0.103262,-0.488453,-1.10794,0.274332,3.15591,-0.432019,-0.103352,-0.177792
2958983,1,-1.57626,-0.519322,-0.0051463,-2.0927,-1.57239,1.58053,0.785544,-1.57788,-0.519001,-0.00623333,-2.08953,-1.57399,1.58316,0.785295,-0.282941,0.190846,-0.223162,0.18878,-0.110559,0.560491,-0.00954187,-0.363798,0.241646,-0.32982,0.244853,-0.158737,0.652077,-0.00108863,-12.6141,-1.29062,-18.3334,22.2889,-1.96806,-0.907079,-0.0584009,-0.560435,-1.06399,0.155931,3.15962,-0.445066,-0.0973877,-0.17437
2958984,1,-1.57658,-0.519108,-0.00540028,-2.09248,-1.57252,1.58117,0.785537,-1.57825,-0.518752,-0.00657314,-2.08927,-1.57415,1.58383,0.785294,-0.302387,0.195759,-0.235629,0.198722,-0.115165,0.585564,-0.00748267,-0.374789,0.249136,-0.33981,0.252081,-0.16327,0.672067,-0.000953452,-12.6141,-1.24301,-18.5119,22.2373,-1.99095,-0.913488,-0.0510767,-0.628865,-1.02598,0.0411811,3.16328,-0.457935,-0.0912763,-0.171145
2958985,1,-1.57691,-0.518877,-0.00566797,-2.09225,-1.57265,1.58182,0.78552,-1.57864,-0.518495,-0.00692294,-2.08901,-1.57432,1.58452,0.785294,-0.307408,0.205052,-0.244542,0.215394,-0.123863,0.604759,-0.00823702,-0.38578,0.256626,-0.3498,0.259309,-0.167804,0.692057,-0.000818274,-12.8165,-1.29062,-18.6349,22.1619,-2.00194,-0.92722,0.0194189,-0.691691,-0.982982,-0.067588,3.16003,-0.470332,-0.0848037,-0.16819
2958986,1,-1.57724,-0.518651,-0.00593503,-2.09201,-1.57278,1.58252,0.785512,-1.57903,-0.518231,-0.00728273,-2.08875,-1.57449,1.58524,0.785293,-0.316213,0.211252,-0.253056,0.223361,-0.129738,0.635376,-0.0109288,-0.396985,0.264116,-0.35979,0.266848,-0.172378,0.712047,-0.000662276,-12.9434,-1.16763,-18.8134,22.1897,-2.01933,-1.04258,0.0130102,-0.750745,-0.930861,-0.17248,3.14643,-0.482163,-0.0783205,-0.165473
2958987,1,-1.5776,-0.518418,-0.0062181,-2.09176,-1.57293,1.58321,0.785506,-1.57944,-0.517959,-0.00765251,-2.08847,-1.57467,1.58597,0.785293,-0.33364,0.218119,-0.261137,0.231232,-0.138718,0.651038,-0.0118162,-0.40819,0.271606,-0.36978,0.274387,-0.176952,0.732037,-0.000506279,-12.9672,-1.13986,-18.9919,22.1381,-2.02482,-1.04899,-0.0254419,-0.808428,-0.870612,-0.276684,3.12449,-0.493579,-0.0722737,-0.162887
2958988,1,-1.57796,-0.518169,-0.00650103,-2.09151,-1.57309,1.58392,0.785502,-1.57986,-0.51768,-0.00803228,-2.08819,-1.57485,1.58672,0.785292,-0.344021,0.226724,-0.264007,0.236038,-0.146897,0.667302,-0.00818941,-0.419395,0.279096,-0.37977,0.281926,-0.181527,0.752027,-0.000350281,-12.991,-1.13986,-19.2181,22.1381,-2.01384,-0.92722,-0.044668,-0.864292,-0.806725,-0.380244,3.09979,-0.504838,-0.0666418,-0.160329
2958989,1,-1.57833,-0.517917,-0.00680155,-2.09124,-1.57325,1.58466,0.785498,-1.58029,-0.517394,-0.00842204,-2.0879,-1.57504,1.58749,0.785292,-0.352012,0.239844,-0.271056,0.244985,-0.152284,0.680719,-0.00599026,-0.4306,0.286586,-0.38976,0.289465,-0.186101,0.772017,-0.000194284,-13.1695,-1.21524,-19.2697,22.1619,-2.01933,-0.836583,-0.0510767,-0.921472,-0.749035,-0.487859,3.07904,-0.516331,-0.0618591,-0.157771
2958990,1,-1.5787,-0.517656,-0.00710984,-2.09097,-1.57341,1.58543,0.785493,-1.58073,-0.5171,-0.00882179,-2.08761,-1.57523,1.58828,0.785292,-0.355619,0.24637,-0.282659,0.25391,-0.158241,0.709556,-0.00456952,-0.441805,0.294076,-0.39975,0.297004,-0.190675,0.792007,-3.8286e-05,-13.3203,-1.29062,-19.4482,22.1143,-1.97447,-0.972081,-0.0510767,-0.983569,-0.704477,-0.603479,3.06546,-0.528252,-0.058316,-0.155251
2958991,1,-1.57909,-0.517372,-0.00742351,-2.09069,-1.57358,1.58622,0.78548,-1.58119,-0.516798,-0.00923153,-2.0873,-1.57542,1.5891,0.785292,-0.36292,0.258988,-0.298896,0.262801,-0.160422,0.734187,-0.0060893,-0.45301,0.301566,-0.40974,0.304543,-0.195249,0.811997,0.000117711,-13.4195,-1.52072,-19.5989,22.1143,-1.98546,-1.1204,0.0194189,-1.04975,-0.673267,-0.723764,3.05839,-0.540441,-0.0557616,-0.15283
2958992,1,-1.57949,-0.517091,-0.00776021,-2.09039,-1.57375,1.587,0.785482,-1.58165,-0.516489,-0.00965126,-2.08699,-1.57562,1.58993,0.785292,-0.371893,0.266552,-0.311148,0.271264,-0.161974,0.750489,-0.00224731,-0.464214,0.309056,-0.41973,0.312082,-0.199823,0.831987,0.000273709,-13.3719,-1.67148,-19.6505,22.1381,-2.00194,-1.04258,-0.0382593,-1.11556,-0.655351,-0.840795,3.05747,-0.552674,-0.0535357,-0.150512
2958993,1,-1.5799,-0.516797,-0.00810374,-2.09009,-1.57393,1.58782,0.785478,-1.58213,-0.516172,-0.010081,-2.08667,-1.57583,1.59078,0.785293,-0.385373,0.272963,-0.322216,0.28062,-0.166971,0.768028,-0.00245328,-0.475419,0.316546,-0.42972,0.319621,-0.204398,0.851977,0.000429707,-13.4195,-1.87381,-19.6505,22.0627,-2.04222,-0.97849,-0.0190333,-1.17648,-0.64572,-0.948445,3.06026,-0.564741,-0.0509413,-0.148263
2958994,1,-1.58033,-0.516497,-0.00844519,-2.08979,-1.57412,1.58867,0.785483,-1.58261,-0.515848,-0.0105207,-2.08634,-1.57604,1.59165,0.785293,-0.393604,0.283134,-0.329623,0.288508,-0.176481,0.792999,0.00106444,-0.486624,0.324036,-0.43971,0.32716,-0.208972,0.871967,0.000585704,-13.4195,-1.97299,-19.7259,22.0627,-2.04771,-0.984899,-0.0968531,-1.23177,-0.638426,-1.04692,3.06383,-0.576533,-0.0478284,-0.146073
2958995,1,-1.58074,-0.516193,-0.00882062,-2.08947,-1.57431,1.58954,0.785475,-1.58311,-0.515517,-0.0109704,-2.08601,-1.57625,1.59254,0.785294,-0.404119,0.289695,-0.344072,0.297784,-0.178477,0.818409,-0.00254664,-0.497829,0.331526,-0.4497,0.3347,-0.213546,0.891957,0.000741702,-13.6218,-2.07614,-19.5751,22.0627,-2.07609,-1.15244,-0.0126246,-1.28319,-0.63276,-1.13923,3.06753,-0.588079,-0.0444707,-0.143971
2958996,1,-1.58118,-0.515884,-0.00919456,-2.08915,-1.57451,1.59042,0.785475,-1.58362,-0.515178,-0.0114301,-2.08566,-1.57647,1.59346,0.785295,-0.413131,0.298843,-0.354618,0.30504,-0.18458,0.837169,-0.0010882,-0.508677,0.339016,-0.45969,0.342339,-0.218025,0.911947,0.000919523,-13.7488,-2.09995,-19.6227,22.0627,-2.11546,-1.1204,-0.0318506,-1.3307,-0.628093,-1.22508,3.07108,-0.599402,-0.0408822,-0.141997
2958997,1,-1.58164,-0.515563,-0.0095745,-2.08881,-1.5747,1.5913,0.785471,-1.58414,-0.514831,-0.0118998,-2.08531,-1.57669,1.59439,0.785296,-0.428009,0.306638,-0.361703,0.310634,-0.185332,0.866629,-0.00175179,-0.519525,0.346506,-0.46968,0.349978,-0.222504,0.931937,0.00109734,-13.6972,-2.15152,-19.6743,22.0151,-2.12645,-0.959264,-0.00621587,-1.37469,-0.625601,-1.3049,3.07585,-0.610646,-0.0372196,-0.14013
2958998,1,-1.58211,-0.515221,-0.00996486,-2.08848,-1.5749,1.59223,0.785469,-1.58467,-0.514477,-0.0123794,-2.08496,-1.57692,1.59534,0.785297,-0.438307,0.315952,-0.372142,0.31212,-0.186291,0.885486,-0.0019376,-0.530373,0.353996,-0.47967,0.357618,-0.226983,0.951927,0.00127517,-13.6734,-2.30228,-19.6981,22.0389,-2.12645,-0.933629,0.0130102,-1.41672,-0.629948,-1.38121,3.08614,-0.622125,-0.0337685,-0.13831
2958999,1,-1.58258,-0.514867,-0.0103757,-2.08814,-1.57511,1.5932,0.785463,-1.58521,-0.514116,-0.0128691,-2.08459,-1.57715,1.59631,0.785299,-0.443903,0.3257,-0.385652,0.321908,-0.192471,0.908802,-0.00326776,-0.541221,0.361486,-0.48966,0.365257,-0.231462,0.971917,0.00145299,-13.8757,-2.4808,-19.6227,22.0389,-2.09807,-1.04899,0.0651953,-1.4576,-0.645425,-1.45466,3.10515,-0.634036,-0.0304583,-0.136474
2959000,1,-1.58305,-0.51452,-0.0107963,-2.08778,-1.57532,1.59418,0.785465,-1.58576,-0.513747,-0.0133687,-2.08422,-1.57738,1.5973,0.7853,-0.4581,0.335292,-0.399086,0.333609,-0.205133,0.937335,-0.00149887,-0.55207,0.368976,-0.49965,0.372896,-0.235942,0.991907,0.00163081,-14.0781,-2.63156,-19.6227,22.1143,-2.07609,-1.19089,0.0459692,-1.49639,-0.670679,-1.52298,3.12967,-0.646148,-0.027008,-0.134555
2959001,1,-1.58355,-0.514152,-0.0112195,-2.08743,-1.57554,1.59517,0.785468,-1.58633,-0.51337,-0.0138784,-2.08384,-1.57762,1.59832,0.785302,-0.464768,0.349122,-0.40641,0.339823,-0.215133,0.95412,-4.02301e-05,-0.562918,0.376466,-0.50964,0.380536,-0.240421,1.0119,0.00180863,-14.1257,-2.83389,-19.7497,22.1897,-2.0706,-1.22934,0.0194189,-1.53272,-0.705354,-1.58518,3.15652,-0.65817,-0.023473,-0.132472
2959002,1,-1.58405,-0.513785,-0.0116459,-2.08706,-1.57577,1.59618,0.785476,-1.5869,-0.512986,-0.014398,-2.08345,-1.57787,1.59935,0.785304,-0.489438,0.353921,-0.409535,0.347222,-0.217169,0.966755,0.00256588,-0.573766,0.383956,-0.51963,0.388175,-0.2449,1.03189,0.00198645,-14.201,-2.96085,-19.8251,22.2373,-2.08708,-1.14603,-0.0510767,-1.56807,-0.750389,-1.64433,3.18616,-0.670117,-0.0201675,-0.130185
2959003,1,-1.58456,-0.513405,-0.0120953,-2.0867,-1.57599,1.59719,0.785477,-1.58748,-0.512595,-0.0149276,-2.08305,-1.57812,1.6004,0.785306,-0.494225,0.358883,-0.425832,0.356364,-0.21406,0.984502,0.00196817,-0.584614,0.391446,-0.52962,0.395815,-0.249379,1.05188,0.00216427,-14.3796,-3.0878,-19.9044,22.3603,-2.10448,-1.02976,-0.0584009,-1.60117,-0.795768,-1.70007,3.21495,-0.68191,-0.016751,-0.127785
2959004,1,-1.58508,-0.513011,-0.0125606,-2.08632,-1.57622,1.59826,0.785478,-1.58808,-0.512196,-0.0154672,-2.08265,-1.57837,1.60147,0.785309,-0.49921,0.3655,-0.429283,0.364428,-0.215777,1.00825,0.00177657,-0.595462,0.398936,-0.53961,0.403454,-0.253858,1.07187,0.00234209,-14.5541,-3.29013,-19.9282,22.511,-2.13835,-1.08103,-0.0712183,-1.63429,-0.830229,-1.755,3.23789,-0.693475,-0.0132924,-0.125446
2959005,1,-1.5856,-0.512619,-0.0130394,-2.08593,-1.57645,1.59934,0.785478,-1.58869,-0.51179,-0.0160168,-2.08224,-1.57863,1.60256,0.785311,-0.508356,0.371735,-0.443278,0.371411,-0.222042,1.02803,-4.40214e-05,-0.60631,0.406426,-0.5496,0.411093,-0.258337,1.09186,0.00251992,-14.7327,-3.46469,-19.8766,22.6102,-2.17222,-1.15244,-0.0382593,-1.67337,-0.851631,-1.81633,3.25429,-0.704918,-0.0105025,-0.1233
2959006,1,-1.58614,-0.512207,-0.0135449,-2.08554,-1.57669,1.60045,0.785474,-1.5893,-0.511376,-0.0165764,-2.08182,-1.57889,1.60367,0.785314,-0.520132,0.383259,-0.459686,0.376764,-0.227234,1.04712,-0.000509839,-0.61629,0.413916,-0.55959,0.418693,-0.262621,1.11106,0.00274184,-14.8596,-3.64322,-19.6981,22.7332,-2.1942,-1.20371,-0.0254419,-1.71586,-0.865842,-1.8792,3.2679,-0.716261,-0.00797006,-0.121373
2959007,1,-1.58672,-0.5118,-0.0140373,-2.08513,-1.57693,1.60158,0.785473,-1.58993,-0.510954,-0.017146,-2.08139,-1.57916,1.6048,0.785317,-0.530122,0.398754,-0.463475,0.382154,-0.230367,1.07389,-0.000581581,-0.626271,0.421406,-0.56958,0.426293,-0.266905,1.13027,0.00296377,-14.7089,-3.69479,-19.6981,22.761,-2.22899,-1.1973,-0.0190333,-1.75808,-0.888829,-1.93726,3.28722,-0.727702,-0.0053722,-0.119602
2959008,1,-1.5873,-0.511379,-0.0145461,-2.08472,-1.57716,1.60271,0.78548,-1.59056,-0.510525,-0.0177256,-2.08096,-1.57943,1.60595,0.78532,-0.543419,0.401095,-0.479208,0.392808,-0.232899,1.09941,0.00225389,-0.636251,0.428896,-0.57957,0.433892,-0.271189,1.14948,0.00318569,-14.5303,-3.77017,-19.6743,22.8086,-2.26835,-1.22934,-0.0904444,-1.80105,-0.927871,-1.99198,3.31543,-0.739429,-0.00314003,-0.117933
2959009,1,-1.58788,-0.51095,-0.0150708,-2.08431,-1.57741,1.60388,0.785473,-1.59121,-0.510089,-0.0183151,-2.08052,-1.57971,1.60712,0.785324,-0.552985,0.408458,-0.495285,0.397675,-0.236322,1.11874,-0.00209414,-0.646231,0.436386,-0.58956,0.441492,-0.275472,1.16869,0.00340762,-14.5819,-3.84555,-19.5236,22.8363,-2.26835,-1.3328,0.00660151,-1.84111,-0.97114,-2.0386,3.34653,-0.751217,-0.000755721,-0.116397
2959010,1,-1.58846,-0.510515,-0.0156138,-2.08389,-1.57766,1.60505,0.785473,-1.59187,-0.509645,-0.0189147,-2.08007,-1.57999,1.60831,0.785327,-0.563155,0.417604,-0.516135,0.401526,-0.244132,1.1378,-0.00163528,-0.656211,0.443876,-0.59955,0.449092,-0.279756,1.18789,0.00362954,-14.5541,-3.89713,-19.4204,22.9355,-2.25096,-1.35843,0.0130102,-1.8716,-1.01302,-2.06728,3.37906,-0.762891,0.00277867,-0.114998
2959011,1,-1.58907,-0.510073,-0.0161758,-2.08347,-1.57793,1.60624,0.785473,-1.59253,-0.509194,-0.0195242,-2.07961,-1.58027,1.60952,0.785331,-0.573661,0.422296,-0.526427,0.408916,-0.254477,1.14815,-0.00109155,-0.666192,0.451366,-0.60954,0.456691,-0.28404,1.2071,0.00385147,-14.4311,-3.89713,-19.2697,22.9077,-2.23448,-1.30076,0.0130102,-1.8896,-1.05475,-2.07379,3.41476,-0.774438,0.00782344,-0.113652
2959012,1,-1.5897,-0.509612,-0.0167376,-2.08303,-1.57819,1.60743,0.785479,-1.59321,-0.508735,-0.0201438,-2.07915,-1.58056,1.61074,0.785335,-0.587656,0.432657,-0.527759,0.418245,-0.255328,1.15601,0.00117014,-0.676172,0.458856,-0.61953,0.464291,-0.288324,1.22631,0.0040734,-14.3042,-4.04788,-19.1665,22.8363,-2.25645,-1.13321,-0.0382593,-1.89967,-1.09289,-2.06645,3.451,-0.785917,0.0137396,-0.112272
2959013,1,-1.59033,-0.509157,-0.0173154,-2.08258,-1.57845,1.60862,0.785477,-1.5939,-0.508269,-0.0207733,-2.07868,-1.58085,1.61199,0.785339,-0.600068,0.442183,-0.545527,0.426415,-0.257075,1.16613,0.00125404,-0.686152,0.466346,-0.62952,0.47189,-0.292607,1.24551,0.00429532,-14.201,-4.12326,-19.0911,22.7094,-2.26835,-1.02335,-0.0510767,-1.90651,-1.12828,-2.05411,3.48618,-0.797468,0.0199721,-0.110838
2959014,1,-1.59097,-0.508688,-0.0179,-2.08213,-1.57873,1.60988,0.785479,-1.59459,-0.507795,-0.0214128,-2.0782,-1.58115,1.61325,0.785344,-0.614656,0.451823,-0.551874,0.43404,-0.260048,1.1928,0.000598091,-0.696132,0.473836,-0.63951,0.47949,-0.296891,1.26472,0.00451725,-14.0781,-4.17484,-19.0673,22.634,-2.23997,-1.24216,-0.044668,-1.90933,-1.16521,-2.03627,3.52113,-0.809105,0.0267835,-0.109393
2959015,1,-1.59162,-0.508226,-0.0184921,-2.08167,-1.57901,1.61116,0.785476,-1.5953,-0.507313,-0.0220623,-2.07771,-1.58145,1.61454,0.785349,-0.623024,0.458003,-0.569772,0.444425,-0.265319,1.21665,-0.000788501,-0.706113,0.481326,-0.6495,0.48709,-0.301175,1.28393,0.00473917,-14.0027,-4.17484,-19.0157,22.4634,-2.25096,-1.4097,-0.0126246,-1.90803,-1.20302,-2.01292,3.55466,-0.820703,0.0341361,-0.108011
2959016,1,-1.5923,-0.507752,-0.0191075,-2.0812,-1.5793,1.61243,0.78548,-1.59601,-0.506825,-0.0227218,-2.07722,-1.58176,1.61584,0.785354,-0.634181,0.460769,-0.586093,0.448636,-0.269311,1.23423,0.000660802,-0.714748,0.488816,-0.65949,0.494575,-0.30523,1.30175,0.00505434,-13.8479,-4.17484,-18.9919,22.3365,-2.26286,-1.46738,-0.044668,-1.90146,-1.23397,-1.98202,3.58307,-0.832005,0.0419969,-0.106737
2959017,1,-1.59299,-0.507266,-0.0197188,-2.08071,-1.57959,1.61374,0.785488,-1.59674,-0.506328,-0.0233913,-2.07671,-1.58206,1.61716,0.785359,-0.651712,0.464429,-0.586608,0.45747,-0.273673,1.25456,0.00213571,-0.723383,0.496306,-0.66948,0.50206,-0.309285,1.31956,0.0053695,-13.6972,-4.14706,-18.9642,22.0905,-2.22899,-1.63492,-0.0904444,-1.88935,-1.24839,-1.94413,3.60292,-0.842881,0.0501405,-0.105579
2959018,1,-1.59366,-0.506776,-0.0203576,-2.08022,-1.57989,1.61506,0.785501,-1.59747,-0.505824,-0.0240707,-2.0762,-1.58238,1.6185,0.785365,-0.662642,0.475756,-0.607169,0.467945,-0.288134,1.27808,0.00525528,-0.732018,0.503796,-0.67947,0.509545,-0.313339,1.33738,0.00568467,-13.8003,-4.19864,-18.8888,21.9397,-2.10448,-1.8281,-0.193899,-1.8735,-1.24485,-1.9035,3.61279,-0.853314,0.0578647,-0.104557
2959019,1,-1.59436,-0.506279,-0.0210125,-2.07972,-1.58019,1.61638,0.785505,-1.59821,-0.505313,-0.0247602,-2.07569,-1.5827,1.61985,0.785371,-0.67263,0.481622,-0.61484,0.479989,-0.292745,1.28707,0.00990721,-0.740653,0.511286,-0.68946,0.51703,-0.317394,1.3552,0.00599984,-13.8995,-4.19864,-18.7896,21.7652,-2.0587,-1.69352,-0.225942,-1.85349,-1.22876,-1.85941,3.61251,-0.863142,0.0647573,-0.103761
2959020,1,-1.59506,-0.505781,-0.0216596,-2.0792,-1.5805,1.61771,0.785512,-1.59896,-0.504794,-0.0254596,-2.07516,-1.58302,1.62123,0.785377,-0.697669,0.489763,-0.616145,0.492129,-0.297556,1.29358,0.00826016,-0.749288,0.518776,-0.69945,0.524516,-0.321449,1.37301,0.006315,-13.8003,-4.17484,-18.6865,21.6422,-2.09807,-1.39689,-0.258901,-1.83044,-1.20131,-1.8141,3.60042,-0.872218,0.0705044,-0.103348
2959021,1,-1.59579,-0.505267,-0.0223142,-2.07867,-1.58079,1.61906,0.785515,-1.59972,-0.504268,-0.0261691,-2.07463,-1.58334,1.62262,0.785384,-0.705149,0.492541,-0.629961,0.510955,-0.294241,1.31332,0.0055954,-0.757923,0.526266,-0.70944,0.532001,-0.325504,1.39083,0.00663017,-13.6496,-4.14706,-18.7142,21.4438,-2.21159,-1.31357,-0.252493,-1.80602,-1.15633,-1.77135,3.57141,-0.880374,0.0751609,-0.10349
2959022,1,-1.59653,-0.504749,-0.0229653,-2.07814,-1.5811,1.62045,0.785524,-1.60048,-0.503734,-0.0268885,-2.07409,-1.58367,1.62402,0.785391,-0.703885,0.500461,-0.62588,0.522758,-0.293441,1.32919,0.00539891,-0.766558,0.533756,-0.71943,0.539486,-0.329559,1.40864,0.00694533,-13.5226,-4.09946,-18.6865,21.3169,-2.27385,-1.37766,-0.290945,-1.78829,-1.08799,-1.74189,3.52079,-0.887715,0.0780818,-0.104318
2959023,1,-1.59727,-0.504228,-0.0236487,-2.07759,-1.58141,1.62185,0.785531,-1.60126,-0.503193,-0.0276179,-2.07354,-1.58401,1.62545,0.785398,-0.709364,0.511461,-0.646892,0.527277,-0.3045,1.34754,0.00571542,-0.775193,0.541246,-0.72942,0.546971,-0.333613,1.42646,0.0072605,-13.4195,-4.12326,-18.5595,21.2455,-2.29674,-1.52598,-0.34313,-1.78757,-1.00616,-1.73816,3.455,-0.894859,0.0781206,-0.105849
2959024,1,-1.59803,-0.503694,-0.0243422,-2.07704,-1.58173,1.62326,0.785543,-1.60204,-0.502644,-0.0283573,-2.07299,-1.58434,1.6269,0.785406,-0.716661,0.515757,-0.658523,0.534978,-0.30512,1.36293,0.00655876,-0.783828,0.548736,-0.73941,0.554456,-0.337668,1.44428,0.00757567,-13.1695,-4.09946,-18.5595,21.1423,-2.27385,-1.59006,-0.413626,-1.8,-0.926395,-1.75241,3.38613,-0.902233,0.0759198,-0.108039
2959025,1,-1.59879,-0.503163,-0.0250431,-2.07648,-1.58206,1.6247,0.785546,-1.60283,-0.502088,-0.0291067,-2.07243,-1.58469,1.62836,0.785413,-0.72679,0.520291,-0.663414,0.544025,-0.310746,1.37919,0.00522163,-0.792462,0.556226,-0.7494,0.561942,-0.341723,1.46209,0.00789083,-13.2449,-4.12326,-18.4841,21.1423,-2.2061,-1.55802,-0.433767,-1.81894,-0.849041,-1.77519,3.3175,-0.909922,0.072388,-0.110924
2959026,1,-1.59954,-0.502605,-0.0257588,-2.07591,-1.58238,1.62613,0.785538,-1.60363,-0.501524,-0.0298661,-2.07186,-1.58503,1.62984,0.785422,-0.734308,0.536458,-0.679479,0.5503,-0.31031,1.40144,-0.000307112,-0.799298,0.563705,-0.75939,0.569297,-0.345517,1.47826,0.0083875,-13.4711,-4.30179,-18.5119,21.2177,-2.15483,-1.52598,-0.329397,-1.8425,-0.777313,-1.80481,3.25168,-0.918009,0.0675846,-0.114552
2959027,1,-1.60031,-0.502034,-0.0264732,-2.07534,-1.58271,1.62757,0.785536,-1.60444,-0.500953,-0.0306355,-2.07128,-1.58538,1.63133,0.785431,-0.745962,0.5442,-0.692237,0.555459,-0.311767,1.40676,0.00295241,-0.806134,0.571184,-0.76938,0.576653,-0.349311,1.49442,0.00888417,-13.5226,-4.47635,-18.6627,21.2693,-2.17222,-1.39048,-0.271719,-1.86559,-0.725854,-1.83343,3.19681,-0.926536,0.0621394,-0.118858
2959028,1,-1.60109,-0.501463,-0.0271811,-2.07475,-1.58304,1.62902,0.785522,-1.60525,-0.500375,-0.0314149,-2.0707,-1.58573,1.63284,0.78544,-0.754355,0.545257,-0.704174,0.562474,-0.309521,1.44994,-0.00402844,-0.81297,0.578662,-0.77937,0.584009,-0.353105,1.51059,0.00938084,-13.5702,-4.70645,-18.9404,21.2693,-2.28483,-1.30076,-0.0968531,-1.88409,-0.693522,-1.85483,3.154,-0.935306,0.0568132,-0.123671
2959029,1,-1.60186,-0.50088,-0.0279062,-2.07418,-1.58336,1.63049,0.78552,-1.60607,-0.499788,-0.0322042,-2.07011,-1.58609,1.63437,0.78545,-0.761516,0.553587,-0.71012,0.564252,-0.313229,1.44313,-0.00351257,-0.819805,0.586141,-0.78936,0.591365,-0.3569,1.52675,0.00987751,-13.8241,-4.88101,-19.0157,21.3446,-2.39836,-1.08103,-0.0648096,-1.90017,-0.668583,-1.87269,3.11927,-0.944212,0.0516442,-0.128713
2959030,1,-1.60267,-0.500289,-0.0286282,-2.07359,-1.5837,1.632,0.785508,-1.6069,-0.499195,-0.0330036,-2.06951,-1.58645,1.63591,0.78546,-0.777428,0.561345,-0.704522,0.566091,-0.317767,1.46038,-0.00519141,-0.826641,0.593619,-0.79935,0.59872,-0.360694,1.54292,0.0103742,-13.7726,-4.98416,-19.1189,21.5668,-2.44322,-1.08744,0.0194189,-1.92052,-0.65222,-1.89806,3.0949,-0.953689,0.0462395,-0.133566
2959031,1,-1.60346,-0.499707,-0.0293734,-2.073,-1.58405,1.63352,0.785507,-1.60773,-0.498594,-0.0338129,-2.0689,-1.58682,1.63747,0.785471,-0.789997,0.565811,-0.713969,0.572103,-0.330151,1.48332,-0.00325852,-0.833477,0.601098,-0.80934,0.606076,-0.364488,1.55909,0.0108708,-13.725,-5.00797,-19.0673,21.7176,-2.39287,-1.20371,0.0194189,-1.94976,-0.646786,-1.93936,3.08251,-0.964119,0.0403741,-0.137854
2959032,1,-1.60427,-0.499098,-0.0301462,-2.0724,-1.58441,1.63507,0.785506,-1.60857,-0.497985,-0.0346323,-2.06829,-1.58718,1.63904,0.785483,-0.797729,0.576087,-0.730355,0.579197,-0.340388,1.50201,-0.0022579,-0.840312,0.608576,-0.81933,0.613432,-0.368282,1.57525,0.0113675,-13.7726,-5.18649,-18.865,21.9159,-2.31871,-1.30716,0.0258276,-1.98395,-0.648863,-1.99045,3.07883,-0.975294,0.0347211,-0.141339
2959033,1,-1.60509,-0.498488,-0.0309239,-2.07181,-1.58476,1.63662,0.785495,-1.60942,-0.497369,-0.0354616,-2.06767,-1.58756,1.64064,0.785494,-0.828107,0.589583,-0.748533,0.583039,-0.338502,1.50736,-0.0049857,-0.847148,0.616055,-0.82932,0.620788,-0.372076,1.59142,0.0118642,-13.4473,-5.33725,-18.6111,22.0905,-2.35899,-1.15244,0.122873,-2.00897,-0.663436,-2.02956,3.08464,-0.986764,0.0312598,-0.143886
2959034,1,-1.60595,-0.49787,-0.0317092,-2.07121,-1.58511,1.63817,0.785485,-1.61027,-0.496746,-0.0363009,-2.06704,-1.58793,1.64224,0.785507,-0.842048,0.595869,-0.755531,0.599666,-0.343125,1.52855,-0.00635798,-0.853984,0.623533,-0.83931,0.628143,-0.37587,1.60758,0.0123609,-12.8641,-5.43643,-18.5595,22.2611,-2.36998,-1.04899,0.207102,-2.01173,-0.693324,-2.0381,3.09919,-0.998096,0.0317963,-0.145437
2959035,1,-1.60679,-0.497235,-0.0325074,-2.07059,-1.58547,1.63976,0.785482,-1.61113,-0.496115,-0.0371502,-2.0664,-1.58831,1.64387,0.78552,-0.8417,0.608625,-0.768868,0.598591,-0.344215,1.54338,-0.00539531,-0.860819,0.631012,-0.8493,0.635499,-0.379664,1.62375,0.0128575,-12.6895,-5.51181,-18.3056,22.3603,-2.42674,-1.01053,0.240061,-1.99627,-0.734668,-2.02185,3.11876,-1.00922,0.0356449,-0.145941
2959036,1,-1.6076,-0.496599,-0.0333282,-2.06998,-1.58584,1.64134,0.785483,-1.612,-0.495476,-0.0380095,-2.06576,-1.58869,1.64551,0.785533,-0.836358,0.614563,-0.793668,0.599883,-0.355139,1.55395,-0.00304022,-0.865636,0.638238,-0.85929,0.642569,-0.38317,1.63805,0.0134816,-12.8918,-5.69034,-18.0279,22.634,-2.42033,-0.862218,0.226328,-1.97348,-0.791362,-1.9938,3.14795,-1.02051,0.0412038,-0.145296
2959037,1,-1.60846,-0.495965,-0.0341492,-2.06936,-1.58619,1.64295,0.7855,-1.61287,-0.494831,-0.0388788,-2.06511,-1.58908,1.64716,0.785547,-0.846964,0.621079,-0.799982,0.605815,-0.353872,1.56694,0.00350238,-0.870452,0.645464,-0.86928,0.649638,-0.386676,1.65235,0.0141056,-12.6895,-5.63876,-18.0279,22.7332,-2.4716,-0.72672,0.0780126,-1.94788,-0.862083,-1.95843,3.18948,-1.03218,0.0479795,-0.143478
2959038,1,-1.60934,-0.495328,-0.0349764,-2.06873,-1.58657,1.64459,0.785515,-1.61375,-0.494178,-0.039758,-2.06446,-1.58947,1.64882,0.785562,-0.85723,0.617602,-0.798635,0.614649,-0.353038,1.58216,0.00741429,-0.875268,0.65269,-0.87927,0.656708,-0.390182,1.66665,0.0147296,-12.4634,-5.61496,-18.0041,22.7094,-2.52287,-0.701085,-0.0584009,-1.9252,-0.92792,-1.92615,3.23394,-1.04422,0.0554196,-0.140677
2959039,1,-1.61019,-0.49468,-0.035843,-2.06809,-1.58693,1.64623,0.785525,-1.61463,-0.493518,-0.0406473,-2.06379,-1.58986,1.65051,0.785577,-0.859579,0.623001,-0.814346,0.618462,-0.359193,1.59827,0.00709936,-0.880084,0.659916,-0.88926,0.663777,-0.393688,1.68096,0.0153536,-12.4634,-5.58719,-17.651,22.7094,-2.52836,-0.830175,-0.116079,-1.91133,-0.968816,-1.90828,3.27074,-1.05659,0.0629051,-0.137294
2959040,1,-1.61108,-0.494029,-0.036698,-2.06745,-1.5873,1.64792,0.785521,-1.61551,-0.492851,-0.0415465,-2.06312,-1.59026,1.6522,0.785593,-0.869022,0.629035,-0.830772,0.626249,-0.359966,1.62325,0.00115381,-0.884901,0.667142,-0.89925,0.670847,-0.397194,1.69526,0.0159777,-12.0825,-5.4642,-17.4209,22.6102,-2.49998,-1.17167,-0.0190333,-1.90342,-0.982958,-1.9005,3.29852,-1.06918,0.0707659,-0.133773
2959041,1,-1.61199,-0.49339,-0.0375619,-2.0668,-1.5877,1.64961,0.785524,-1.6164,-0.492177,-0.0424558,-2.06244,-1.59066,1.65391,0.78561,-0.892388,0.630423,-0.833681,0.632121,-0.372543,1.64445,0.00101796,-0.889717,0.674368,-0.90924,0.677917,-0.400699,1.70956,0.0166017,-11.5549,-5.2341,-17.3217,22.4634,-2.40935,-1.53879,-0.0254419,-1.89354,-0.974483,-1.89171,3.3184,-1.08175,0.0795952,-0.130417
2959042,1,-1.61285,-0.492737,-0.0384575,-2.06614,-1.58808,1.6513,0.785524,-1.61729,-0.491495,-0.043375,-2.06176,-1.59107,1.65563,0.785627,-0.879408,0.640138,-0.84922,0.642115,-0.373716,1.65165,-0.000736962,-0.894533,0.681594,-0.91923,0.684986,-0.404205,1.72386,0.0172257,-11.654,-5.03177,-17.04,22.2373,-2.40385,-1.5452,0.0130102,-1.88074,-0.945189,-1.88162,3.32967,-1.09414,0.0886348,-0.127331
2959043,1,-1.61373,-0.492062,-0.0393501,-2.06546,-1.58847,1.65302,0.785538,-1.61819,-0.490806,-0.0443042,-2.06107,-1.59147,1.65737,0.785645,-0.873599,0.65349,-0.847303,0.652951,-0.380713,1.66751,0.00263468,-0.899349,0.68882,-0.92922,0.692056,-0.407711,1.73817,0.0178497,-11.7572,-5.13492,-16.7385,21.9635,-2.3416,-1.57724,-0.0712183,-1.87768,-0.907968,-1.8867,3.33538,-1.10664,0.0950845,-0.124499
2959044,1,-1.61463,-0.491377,-0.0402551,-2.06477,-1.58886,1.65474,0.785556,-1.6191,-0.49011,-0.0452434,-2.06037,-1.59189,1.65912,0.785663,-0.873661,0.664415,-0.862019,0.66006,-0.390446,1.68548,0.0114374,-0.904165,0.696046,-0.93921,0.699125,-0.411217,1.75247,0.0184738,-11.5549,-5.28568,-16.6354,21.7414,-2.29674,-1.60288,-0.18749,-1.89649,-0.880139,-1.92206,3.341,-1.11956,0.0964174,-0.121896
2959045,1,-1.61554,-0.490672,-0.0411674,-2.06409,-1.58926,1.65647,0.785559,-1.62001,-0.489407,-0.0461926,-2.05966,-1.5923,1.66089,0.785683,-0.88183,0.673537,-0.880098,0.665446,-0.390783,1.69149,0.0118644,-0.908982,0.703272,-0.9492,0.706195,-0.414723,1.76677,0.0190978,-11.3287,-5.53958,-16.6116,21.666,-2.31871,-1.37125,-0.149038,-1.93016,-0.870182,-1.97654,3.35074,-1.13267,0.0933473,-0.119588
2959046,1,-1.61643,-0.489981,-0.0420956,-2.06339,-1.58965,1.65819,0.785571,-1.62092,-0.488697,-0.0471518,-2.05895,-1.59272,1.66267,0.785702,-0.884957,0.678819,-0.905634,0.673343,-0.393934,1.70876,0.0145616,-0.91167,0.710067,-0.95919,0.712843,-0.417899,1.77911,0.0198114,-11.4517,-5.71414,-16.4846,21.6144,-2.38646,-1.21012,-0.168264,-1.95983,-0.875003,-2.02268,3.36471,-1.14541,0.0888242,-0.117726
2959047,1,-1.61733,-0.489277,-0.0430238,-2.0627,-1.59005,1.65996,0.785587,-1.62183,-0.48798,-0.048121,-2.05823,-1.59314,1.66446,0.785723,-0.88944,0.683556,-0.912319,0.691973,-0.397497,1.71932,0.0171731,-0.914359,0.716861,-0.96918,0.71949,-0.421075,1.79144,0.020525,-11.6064,-5.78952,-16.6116,21.5668,-2.43223,-1.14603,-0.200308,-1.97522,-0.879777,-2.04642,3.37446,-1.15727,0.0848924,-0.116431
2959048,1,-1.61824,-0.488558,-0.0439534,-2.06199,-1.59047,1.66178,0.785603,-1.62275,-0.487256,-0.0491002,-2.0575,-1.59356,1.66627,0.785744,-0.894122,0.696817,-0.921143,0.690018,-0.402701,1.74214,0.0135948,-0.917048,0.723656,-0.97917,0.726138,-0.424251,1.80378,0.0212386,-11.7294,-5.91647,-16.7108,21.5906,-2.39287,-1.4097,-0.225942,-1.98086,-0.878463,-2.05552,3.37547,-1.16832,0.08145,-0.11574
2959049,1,-1.61914,-0.487849,-0.0449086,-2.06128,-1.59088,1.66357,0.785627,-1.62367,-0.486526,-0.0500893,-2.05677,-1.59399,1.66808,0.785766,-0.900594,0.707045,-0.933921,0.690608,-0.406851,1.75128,0.0121308,-0.919736,0.73045,-0.98916,0.732785,-0.427427,1.81611,0.0219523,-11.8564,-6.01962,-16.6869,21.666,-2.36449,-1.44816,-0.284536,-1.98316,-0.887883,-2.05936,3.37968,-1.1792,0.077831,-0.115597
2959050,1,-1.62006,-0.487115,-0.0458883,-2.06056,-1.59132,1.66538,0.785646,-1.62459,-0.485789,-0.0510885,-2.05603,-1.59442,1.66991,0.785789,-0.903681,0.715908,-0.942448,0.697312,-0.416029,1.76438,0.0130188,-0.922425,0.737244,-0.99915,0.739432,-0.430603,1.82845,0.0226659,-11.8802,-6.17038,-16.4846,21.6422,-2.30223,-1.44175,-0.258901,-1.98397,-0.920281,-2.06021,3.39691,-1.19028,0.073837,-0.115968
2959051,1,-1.62096,-0.486374,-0.0468552,-2.05984,-1.59176,1.66721,0.785651,-1.62552,-0.485045,-0.0520976,-2.05528,-1.59486,1.67175,0.785812,-0.918422,0.725253,-0.954976,0.703733,-0.421212,1.77503,0.0128693,-0.925114,0.744039,-1.00914,0.74608,-0.433779,1.84078,0.0233795,-11.8802,-6.55124,-16.4608,21.8644,-2.28483,-1.35203,-0.0648096,-1.98249,-0.971563,-2.05728,3.42485,-1.2014,0.0696428,-0.116877
2959052,1,-1.62186,-0.485609,-0.0478472,-2.05911,-1.59218,1.66902,0.785665,-1.62645,-0.484294,-0.0531168,-2.05453,-1.59529,1.6736,0.785836,-0.907765,0.740797,-0.970161,0.719473,-0.419614,1.7823,0.0160799,-0.927802,0.750833,-1.01913,0.752727,-0.436955,1.85312,0.0240931,-12.0825,-6.9559,-16.2307,22.0627,-2.28483,-1.29343,0.0587866,-1.97784,-1.03795,-2.04885,3.45863,-1.2123,0.0655314,-0.118237
2959053,1,-1.62277,-0.484845,-0.0488375,-2.05837,-1.59261,1.67085,0.78567,-1.62738,-0.483536,-0.0541459,-2.05377,-1.59573,1.67547,0.785861,-0.8992,0.746445,-0.977479,0.723826,-0.423083,1.78409,0.0110462,-0.930491,0.757628,-1.02912,0.759375,-0.440131,1.86545,0.0248067,-12.1579,-7.23361,-15.953,22.2611,-2.39287,-1.08103,0.24647,-1.97792,-1.11766,-2.04397,3.49441,-1.22303,0.0607136,-0.119756
2959054,1,-1.62369,-0.484095,-0.0498317,-2.05763,-1.59304,1.67268,0.785697,-1.62831,-0.482772,-0.055185,-2.05301,-1.59618,1.67735,0.785887,-0.911671,0.750769,-0.989144,0.722147,-0.42847,1.79857,0.0142667,-0.93318,0.764422,-1.03911,0.766022,-0.443307,1.87779,0.0255204,-11.8564,-7.25742,-15.9292,22.511,-2.50548,-0.952855,0.252878,-1.9892,-1.20417,-2.05075,3.53183,-1.23374,0.0547183,-0.120983
2959055,1,-1.62462,-0.483342,-0.0508478,-2.05689,-1.59346,1.67454,0.785727,-1.62924,-0.482001,-0.0562341,-2.05223,-1.59662,1.67924,0.785913,-0.912621,0.74564,-0.993378,0.728926,-0.426725,1.80846,0.0192746,-0.935868,0.771217,-1.0491,0.77267,-0.446483,1.89012,0.026234,-11.6818,-7.10666,-15.8499,22.6102,-2.59611,-0.842992,0.181467,-2.00849,-1.28082,-2.06628,3.56826,-1.24449,0.048482,-0.121497
2959056,1,-1.62554,-0.482581,-0.0518759,-2.05615,-1.5939,1.67642,0.785746,-1.63018,-0.481223,-0.0572932,-2.05145,-1.59707,1.68114,0.78594,-0.915351,0.762202,-0.999168,0.727642,-0.427214,1.81837,0.0237751,-0.936418,0.777445,-1.05909,0.778781,-0.449263,1.90047,0.0270145,-11.7572,-7.10666,-15.6237,22.761,-2.63548,-0.694677,0.219919,-2.03602,-1.33936,-2.0926,3.60222,-1.25556,0.042345,-0.121075
2959057,1,-1.62645,-0.481806,-0.052911,-2.05538,-1.59433,1.67829,0.785764,-1.63112,-0.480439,-0.0583623,-2.05067,-1.59752,1.68305,0.785968,-0.913349,0.761306,-1.00976,0.738529,-0.424822,1.83639,0.0183623,-0.936967,0.783673,-1.06908,0.784892,-0.452042,1.91083,0.027795,-11.7572,-7.13046,-15.5483,22.7332,-2.62999,-0.681859,0.213511,-2.07453,-1.38797,-2.13374,3.63745,-1.26741,0.0361131,-0.119685
2959058,1,-1.6274,-0.481018,-0.0539312,-2.05463,-1.59477,1.68021,0.785776,-1.63206,-0.47965,-0.0594413,-2.04988,-1.59798,1.68497,0.785996,-0.918506,0.770097,-1.0117,0.743694,-0.429912,1.85556,0.0172971,-0.937517,0.789902,-1.07907,0.791003,-0.454822,1.92118,0.0285755,-11.5787,-7.20584,-15.6475,22.6856,-2.55675,-0.80454,0.265696,-2.12436,-1.42557,-2.19021,3.6713,-1.28009,0.0298453,-0.1174
2959059,1,-1.62831,-0.48023,-0.0549922,-2.05384,-1.59522,1.68211,0.785795,-1.63299,-0.478853,-0.0605304,-2.04908,-1.59844,1.6869,0.786025,-0.918791,0.774117,-1.03016,0.756386,-0.432822,1.87733,0.0184627,-0.938066,0.79613,-1.08906,0.797115,-0.457602,1.93154,0.0293561,-11.5787,-7.40817,-15.5483,22.3127,-2.50548,-0.766088,0.265696,-2.18261,-1.44713,-2.25822,3.69856,-1.29332,0.0238559,-0.11431
2959060,1,-1.62924,-0.479438,-0.0560487,-2.05305,-1.59566,1.68403,0.785813,-1.63393,-0.478051,-0.0616294,-2.04828,-1.5989,1.68884,0.786056,-0.916732,0.782244,-1.0374,0.767436,-0.435125,1.89119,0.0195909,-0.938615,0.802359,-1.09905,0.803226,-0.460381,1.94189,0.0301366,-11.3763,-7.45975,-15.5483,22.0627,-2.44322,-0.80454,0.252878,-2.2441,-1.45174,-2.3301,3.71544,-1.30668,0.018636,-0.110494
2959061,1,-1.6302,-0.478646,-0.0571175,-2.05224,-1.59611,1.68599,0.785836,-1.63487,-0.477243,-0.0627385,-2.04747,-1.59936,1.6908,0.786087,-0.923464,0.779299,-1.03012,0.783188,-0.437814,1.90518,0.0174222,-0.939165,0.808587,-1.10904,0.809337,-0.463161,1.95224,0.0309171,-10.9479,-7.38437,-15.2944,21.6144,-2.3361,-0.965673,0.181467,-2.31098,-1.43147,-2.41029,3.71451,-1.31983,0.0136818,-0.106061
2959062,1,-1.63114,-0.477866,-0.0582122,-2.05141,-1.59657,1.68793,0.785864,-1.63581,-0.476428,-0.0638575,-2.04665,-1.59983,1.69276,0.786118,-0.92851,0.788478,-1.04242,0.792479,-0.445313,1.9171,0.0226802,-0.939714,0.814816,-1.11903,0.815448,-0.465941,1.9626,0.0316976,-10.6225,-7.20584,-15.0405,21.2455,-2.21159,-1.14603,0.0587866,-2.38585,-1.37842,-2.50534,3.6897,-1.33253,0.00833672,-0.101166
2959063,1,-1.63209,-0.477077,-0.059336,-2.05059,-1.59701,1.6899,0.785895,-1.63675,-0.475607,-0.0649865,-2.04583,-1.60029,1.69473,0.786151,-0.928227,0.786187,-1.06869,0.803151,-0.442068,1.9264,0.0263007,-0.940263,0.821044,-1.12902,0.821559,-0.468721,1.97295,0.0324781,-10.3924,-6.97971,-14.5843,20.9717,-2.2061,-1.21653,-0.0648096,-2.45714,-1.29357,-2.59903,3.64178,-1.34421,0.00381998,-0.0960466
2959064,1,-1.63303,-0.476293,-0.0604508,-2.04976,-1.59747,1.69186,0.785928,-1.63769,-0.474779,-0.0661255,-2.045,-1.60077,1.69671,0.786184,-0.931441,0.796219,-1.08097,0.806559,-0.443532,1.93681,0.0278403,-0.940813,0.827272,-1.13901,0.827671,-0.4715,1.9833,0.0332586,-10.0671,-6.82895,-14.2074,20.7972,-2.21159,-1.39048,-0.161856,-2.51016,-1.18433,-2.66876,3.57684,-1.35442,0.00172938,-0.0910411
2959065,1,-1.63399,-0.475479,-0.0615893,-2.04894,-1.59792,1.69389,0.785968,-1.63863,-0.473946,-0.0672745,-2.04417,-1.60124,1.69871,0.786218,-0.940105,0.800357,-1.09685,0.81274,-0.445667,1.95893,0.0299307,-0.941362,0.833501,-1.149,0.833782,-0.47428,1.99366,0.0340392,-9.78942,-6.85275,-13.9019,20.698,-2.2061,-1.8281,-0.284536,-2.53967,-1.06533,-2.7063,3.50495,-1.36313,0.00213104,-0.0865016
2959066,1,-1.63495,-0.474642,-0.062735,-2.04809,-1.59838,1.69588,0.786009,-1.63957,-0.473107,-0.0684331,-2.04333,-1.60172,1.70071,0.786253,-0.945727,0.81917,-1.09581,0.815181,-0.443806,1.96012,0.0341279,-0.94008,0.839064,-1.15855,0.839267,-0.476555,2.00188,0.0348761,-9.53551,-7.05508,-13.4457,20.698,-2.27385,-1.59006,-0.34313,-2.54892,-0.958638,-2.71658,3.43872,-1.37076,0.00365784,-0.0827388
2959067,1,-1.63588,-0.473807,-0.0638868,-2.04724,-1.59883,1.69783,0.786047,-1.64051,-0.472262,-0.0696012,-2.04249,-1.6022,1.70272,0.786289,-0.938912,0.828981,-1.11084,0.817787,-0.455778,1.95228,0.0347016,-0.938797,0.844627,-1.16809,0.844751,-0.47883,2.0101,0.035713,-9.51171,-7.3566,-13.1918,20.7972,-2.31871,-1.23575,-0.329397,-2.54725,-0.88852,-2.7125,3.39092,-1.37802,0.00432363,-0.0799922
2959068,1,-1.63683,-0.472957,-0.0650501,-2.0464,-1.59929,1.69984,0.7861,-1.64145,-0.471412,-0.0707788,-2.04164,-1.60268,1.70474,0.786325,-0.933963,0.840529,-1.13194,0.824226,-0.456727,1.95709,0.0393469,-0.937515,0.850191,-1.17764,0.850236,-0.481105,2.01833,0.0365499,-9.53551,-7.68588,-13.1442,20.8963,-2.40385,-1.05539,-0.420034,-2.53913,-0.864945,-2.69812,3.36686,-1.3853,0.00362054,-0.0784139
2959069,1,-1.63777,-0.472111,-0.0661993,-2.04555,-1.59976,1.70188,0.78615,-1.64239,-0.470556,-0.071966,-2.04078,-1.60316,1.70677,0.786363,-0.949509,0.844929,-1.12116,0.826558,-0.458531,1.9797,0.0398066,-0.936232,0.855754,-1.18719,0.855721,-0.48338,2.02655,0.0373868,-9.53551,-8.01517,-13.2671,21.1939,-2.46062,-1.20371,-0.433767,-2.52629,-0.879386,-2.67563,3.3624,-1.39272,0.00186161,-0.0781032
2959070,1,-1.63872,-0.471266,-0.067382,-2.04471,-1.60022,1.7039,0.786199,-1.64332,-0.469695,-0.0731627,-2.03992,-1.60365,1.7088,0.786401,-0.947358,0.854946,-1.14011,0.844778,-0.461613,1.98987,0.0431711,-0.934949,0.861317,-1.19674,0.861206,-0.485655,2.03477,0.0382238,-9.55931,-8.09055,-13.1164,21.5668,-2.489,-1.30716,-0.381582,-2.51322,-0.915411,-2.65378,3.36769,-1.4004,-0.00113055,-0.0791412
2959071,1,-1.63967,-0.470408,-0.0685548,-2.04386,-1.60069,1.70591,0.78625,-1.64425,-0.468828,-0.074369,-2.03905,-1.60413,1.71084,0.78644,-0.944731,0.852755,-1.12664,0.847881,-0.464117,1.98581,0.0470369,-0.933667,0.866881,-1.20628,0.866691,-0.487931,2.04299,0.0390607,-9.46013,-8.16592,-13.1442,21.8405,-2.47709,-1.10026,-0.355947,-2.50647,-0.952596,-2.64325,3.37018,-1.40842,-0.00586691,-0.0815311
2959072,1,-1.64061,-0.469557,-0.069741,-2.04298,-1.60118,1.70791,0.786292,-1.64519,-0.467956,-0.0755849,-2.03818,-1.60462,1.71289,0.78648,-0.950082,0.856086,-1.13373,0.849725,-0.470318,1.98994,0.0449568,-0.932384,0.872444,-1.21583,0.872175,-0.490206,2.05122,0.0398976,-9.234,-8.29288,-13.2671,21.9397,-2.36449,-0.946447,-0.200308,-2.51469,-0.974949,-2.65729,3.36451,-1.41707,-0.0131414,-0.0851117
2959073,1,-1.64153,-0.468685,-0.0709547,-2.04212,-1.60166,1.70992,0.786321,-1.64612,-0.467078,-0.0768102,-2.0373,-1.60512,1.71495,0.78652,-0.933813,0.855093,-1.15481,0.85433,-0.473826,1.98738,0.0402984,-0.931102,0.878007,-1.22538,0.87766,-0.492481,2.05944,0.0407345,-9.53551,-8.49521,-13.0926,21.9635,-2.26835,-0.617772,0.0587866,-2.53575,-0.975436,-2.69232,3.35209,-1.4263,-0.0221237,-0.0895722
2959074,1,-1.64243,-0.467819,-0.0721598,-2.04125,-1.60214,1.71199,0.786346,-1.64705,-0.466194,-0.0780452,-2.03642,-1.60561,1.71702,0.786562,-0.909541,0.863836,-1.15168,0.855178,-0.477389,2.00596,0.0369954,-0.929819,0.883571,-1.23493,0.883145,-0.494756,2.06766,0.0415715,-10.0156,-8.64597,-12.8903,21.8882,-2.24547,-0.701085,0.330698,-2.57156,-0.958427,-2.74753,3.33715,-1.43597,-0.032521,-0.0944205
2959075,1,-1.64336,-0.466955,-0.0733781,-2.04035,-1.60261,1.71403,0.786379,-1.64798,-0.465305,-0.0792896,-2.03553,-1.60611,1.7191,0.786604,-0.91043,0.85803,-1.17694,0.864771,-0.47764,2.01794,0.0356367,-0.928537,0.889134,-1.24447,0.88863,-0.497031,2.07588,0.0424084,-9.8648,-8.54678,-12.9656,21.6144,-2.31322,-0.80454,0.453379,-2.62836,-0.927864,-2.82877,3.32139,-1.44595,-0.0447713,-0.0989715
2959076,1,-1.6443,-0.466082,-0.074623,-2.03945,-1.60309,1.71607,0.78642,-1.6489,-0.464411,-0.0805427,-2.03464,-1.60661,1.72118,0.786648,-0.91727,0.857026,-1.19035,0.86905,-0.47146,2.01336,0.0386471,-0.925822,0.893966,-1.25309,0.893407,-0.498625,2.08189,0.0432975,-9.61089,-8.41983,-12.7871,21.2931,-2.43773,-0.636998,0.453379,-2.68924,-0.870693,-2.91222,3.29744,-1.45546,-0.0560435,-0.102514
2959077,1,-1.64524,-0.465199,-0.0758666,-2.03854,-1.60357,1.7181,0.786447,-1.64983,-0.463512,-0.0818044,-2.03374,-1.60711,1.72327,0.786692,-0.934398,0.866698,-1.20734,0.87949,-0.478435,2.06095,0.0332541,-0.923107,0.898799,-1.26171,0.898185,-0.500218,2.0879,0.0441866,-9.58709,-8.57059,-12.4578,20.9439,-2.51097,-0.411779,0.504648,-2.73082,-0.7827,-2.96681,3.26147,-1.46388,-0.0630161,-0.104495
2959078,1,-1.64616,-0.464301,-0.0771338,-2.03765,-1.60406,1.72016,0.786486,-1.65075,-0.462608,-0.0830748,-2.03284,-1.60761,1.72536,0.786737,-0.935672,0.878908,-1.22628,0.883491,-0.4824,2.0616,0.0347171,-0.920392,0.903632,-1.27032,0.902963,-0.501812,2.09391,0.0450757,-9.38475,-8.69754,-12.1285,20.8448,-2.49449,-0.276281,0.401194,-2.74188,-0.685694,-2.97734,3.22106,-1.47119,-0.064428,-0.104588
2959079,1,-1.64712,-0.4634,-0.0784094,-2.03674,-1.60455,1.72226,0.786514,-1.65166,-0.4617,-0.0843537,-2.03193,-1.60811,1.72746,0.786783,-0.943263,0.88,-1.25232,0.889961,-0.476668,2.064,0.0324063,-0.917677,0.908464,-1.27894,0.907741,-0.503406,2.09992,0.0459648,-8.88091,-8.8483,-11.7001,20.7456,-2.42033,-0.353185,0.375559,-2.71627,-0.597447,-2.93412,3.18344,-1.47765,-0.0591347,-0.102727
2959080,1,-1.64803,-0.46251,-0.0796987,-2.03585,-1.60504,1.72434,0.786565,-1.65258,-0.460787,-0.0856413,-2.03102,-1.60862,1.72957,0.78683,-0.940205,0.892426,-1.25662,0.885399,-0.481558,2.07035,0.0436495,-0.914962,0.913297,-1.28756,0.912519,-0.504999,2.10593,0.0468539,-8.70238,-8.92368,-11.2676,20.8725,-2.38096,-0.424596,0.135691,-2.65658,-0.525341,-2.84015,3.15375,-1.48368,-0.0470742,-0.0990998
