shamilmamedov/beam_handling/data/param_estimation_ICRA/ocp_Xdown_15cm_0.35s_1.csv
duration, success rate, q[0], q[1], q[2], q[3], q[4], q[5], q[6],q_d[0], q_d[1], q_d[2], q_d[3], q_d[4], q_d[5], q_d[6],dq[0], dq[1], dq[2], dq[3], dq[4], dq[5], dq[6],dq_d[0], dq_d[1], dq_d[2], dq_d[3], dq_d[4], dq_d[5], dq_d[6],tau_J[0], tau_J[1], tau_J[2], tau_J[3], tau_J[4], tau_J[5], tau_J[6],tau_ext_hat_filtered[0], tau_ext_hat_filtered[1], tau_ext_hat_filtered[2], tau_ext_hat_filtered[3], tau_ext_hat_filtered[4], tau_ext_hat_filtered[5], tau_ext_hat_filtered[6]
2069250,0,-1.5708,-0.52273,-0.000488612,-2.09563,-1.57065,1.57141,0.785903,-1.5708,-0.523599,-1.43655e-07,-2.09439,-1.5708,1.5708,0.7854,-0.000274625,-0.000554858,0.000145263,0.00156291,0.00012351,-0.000133714,0.000349133,0,0,0,0,0,0,0,-0.0259286,-10.2924,0.860354,20.571,-0.826399,-0.482274,-0.322988,-0.0190598,-1.18938,0.682912,2.08894,-0.252769,-0.485109,-0.371077
2069251,1,-1.5708,-0.522728,-0.000488612,-2.09564,-1.57065,1.57142,0.7859,-1.5708,-0.523599,-1.43655e-07,-2.09439,-1.5708,1.5708,0.7854,-0.000183083,0.000186907,9.6842e-05,-0.000721298,-0.000358469,-8.91428e-05,-4.60373e-06,0,0,0,0,0,0,0,-0.0259286,-10.3162,0.860354,20.6464,-0.814497,-0.482274,-0.31658,-0.0193259,-1.18654,0.682554,2.08749,-0.252726,-0.485107,-0.37084
2069252,1,-1.5708,-0.522724,-0.000486663,-2.09564,-1.57065,1.57142,0.785903,-1.5708,-0.523599,-1.43655e-07,-2.09439,-1.5708,1.5708,0.7854,-0.000678867,0.00133103,0.000714175,-0.000480865,-0.00023898,0.00017793,0.000471649,0,0,0,0,0,0,0,-0.00212494,-10.3678,0.832583,20.6464,-0.814497,-0.488683,-0.329397,-0.019455,-1.18641,0.682425,2.08762,-0.252766,-0.485108,-0.370599
2069253,1,-1.5708,-0.522728,-0.000486663,-2.09564,-1.57065,1.57141,0.785906,-1.5708,-0.523599,-1.43655e-07,-2.09439,-1.5708,1.5708,0.7854,0.000104234,-0.000319072,0.000476117,0.000236235,7.80393e-05,-0.000356098,0.000823059,0,0,0,0,0,0,0,-0.0259286,-10.3162,0.832583,20.6226,-0.820906,-0.475866,-0.34313,-0.0197605,-1.18915,0.682039,2.08941,-0.252889,-0.485162,-0.370366
2069254,1,-1.5708,-0.522728,-0.000488612,-2.09563,-1.57065,1.57142,0.785901,-1.5708,-0.523599,-1.43655e-07,-2.09439,-1.5708,1.5708,0.7854,6.94891e-05,-0.000212715,-0.000332203,0.00136392,-0.000185333,0.000474678,4.00796e-05,0,0,0,0,0,0,0,-0.0259286,-10.3162,0.860354,20.571,-0.814497,-0.495092,-0.329397,-0.0201516,-1.19089,0.681504,2.09045,-0.252985,-0.485214,-0.370173
2069255,1,-1.5708,-0.522726,-0.000490282,-2.09564,-1.57065,1.57141,0.785903,-1.5708,-0.523599,-1.43655e-07,-2.09439,-1.5708,1.5708,0.7854,4.63261e-05,0.000415002,-0.00077828,-0.000297149,0.000317254,-0.000158266,-0.000210639,0,0,0,0,0,0,0,-0.0259286,-10.34,0.884158,20.6226,-0.826399,-0.482274,-0.322988,-0.0200817,-1.19096,0.681717,2.09029,-0.253018,-0.485174,-0.370041
2069256,1,-1.5708,-0.522722,-0.000490282,-2.09564,-1.57065,1.57141,0.785901,-1.5708,-0.523599,-1.43655e-07,-2.09439,-1.5708,1.5708,0.7854,3.08841e-05,0.000926282,-0.000518854,-0.000198099,8.05234e-06,0.000131849,9.69328e-05,0,0,0,0,0,0,0,-0.0259286,-10.3678,0.884158,20.6226,-0.820906,-0.488683,-0.329397,-0.0193779,-1.1922,0.683033,2.09077,-0.253053,-0.485047,-0.369959
2069257,1,-1.5708,-0.522725,-0.000488612,-2.09564,-1.57065,1.57142,0.7859,-1.5708,-0.523599,-1.43655e-07,-2.09439,-1.5708,1.5708,0.7854,2.05894e-05,-3.20926e-05,0.00021091,-0.000132066,5.36823e-06,0.000562616,6.46219e-05,0,0,0,0,0,0,0,-0.0259286,-10.34,0.860354,20.6226,-0.820906,-0.5015,-0.329397,-0.018621,-1.19498,0.684547,2.09223,-0.253128,-0.484931,-0.36991
2069258,1,-1.57081,-0.522728,-0.000486663,-2.09564,-1.57065,1.57142,0.785902,-1.5708,-0.523599,-1.43655e-07,-2.09439,-1.5708,1.5708,0.7854,-0.000543086,-0.000578207,0.00079022,0.000468768,-0.00023378,0.000137719,-0.000194278,0,0,0,0,0,0,0,-0.00212494,-10.3162,0.832583,20.5988,-0.814497,-0.495092,-0.322988,-0.0183981,-1.19671,0.685191,2.0932,-0.253208,-0.484902,-0.369897
2069259,1,-1.57081,-0.522726,-0.000490282,-2.09564,-1.57065,1.57142,0.785902,-1.5708,-0.523599,-1.43655e-07,-2.09439,-1.5708,1.5708,0.7854,-0.000362057,0.000171341,-0.000679612,0.000312512,-0.000155853,-0.000145546,-0.000604236,0,0,0,0,0,0,0,-0.00212494,-10.34,0.884158,20.5988,-0.814497,-0.488683,-0.310171,-0.0183399,-1.19639,0.685417,2.093,-0.253255,-0.484902,-0.369914
2069260,1,-1.5708,-0.522731,-0.000488612,-2.09564,-1.57065,1.57142,0.785902,-1.5708,-0.523599,-1.43655e-07,-2.09439,-1.5708,1.5708,0.7854,0.000315441,-0.00164901,0.000103737,0.000208341,-0.000103902,-0.00033439,0.00058052,0,0,0,0,0,0,0,-0.0259286,-10.2646,0.860354,20.5988,-0.814497,-0.482274,-0.336721,-0.0179781,-1.19427,0.686018,2.09182,-0.253254,-0.484858,-0.369945
2069261,1,-1.5708,-0.522728,-0.000488612,-2.09563,-1.57065,1.57142,0.7859,-1.5708,-0.523599,-1.43655e-07,-2.09439,-1.5708,1.5708,0.7854,0.000210294,0.000107085,0.00628665,0.000788508,-6.92682e-05,-0.000222926,0.000115746,0,0,0,0,0,0,0,-0.0259286,-10.3162,0.860354,20.571,-0.814497,-0.482274,-0.329397,-0.0195007,-1.19035,0.683575,2.08966,-0.25327,-0.485096,-0.36998
2069262,1,-1.5708,-0.522726,-0.000490282,-2.09564,-1.57065,1.57142,0.785905,-1.5708,-0.523599,-1.43655e-07,-2.09439,-1.5708,1.5708,0.7854,-0.000416616,0.000628202,0.00415241,-0.00123757,0.00019118,8.87413e-05,0.00058579,0,0,0,0,0,0,0,-0.00212494,-10.34,0.884158,20.6464,-0.820906,-0.488683,-0.34313,-0.0250221,-1.18764,0.674715,2.08807,-0.253427,-0.485968,-0.370017
2069263,1,-1.5708,-0.522728,-0.000491953,-2.09564,-1.57065,1.57141,0.785901,-1.5708,-0.523599,-1.43655e-07,-2.09439,-1.5708,1.5708,0.7854,0.00083588,-0.00013801,0.00260005,0.00028858,0.000127453,-0.000415557,-0.00106754,0,0,0,0,0,0,0,-0.0497324,-10.3162,0.907962,20.5988,-0.820906,-0.475866,-0.303762,-0.0324492,-1.18793,0.662874,2.08817,-0.2537,-0.487162,-0.370063
2069264,1,-1.5708,-0.522728,-0.000490282,-2.09564,-1.57065,1.57142,0.785903,-1.5708,-0.523599,-1.43655e-07,-2.09439,-1.5708,1.5708,0.7854,0.000557253,-9.2007e-05,0.00258163,-0.000364425,8.4969e-05,0.00019768,0.000983731,0,0,0,0,0,0,0,-0.0497324,-10.3162,0.884158,20.6226,-0.820906,-0.488683,-0.349539,-0.0392514,-1.18905,0.652264,2.08878,-0.253965,-0.488253,-0.370126
2069265,1,-1.5708,-0.522726,-0.000486663,-2.09564,-1.57065,1.57141,0.785901,-1.5708,-0.523599,-1.43655e-07,-2.09439,-1.5708,1.5708,0.7854,-0.000742122,0.000495474,0.00314609,0.000313862,0.000260096,0.000131787,0.000181103,0,0,0,0,0,0,0,-0.00212494,-10.34,0.832583,20.5988,-0.826399,-0.488683,-0.336721,-0.0448143,-1.19019,0.643813,2.0893,-0.254185,-0.489138,-0.370198
2069266,1,-1.5708,-0.522728,-0.000486663,-2.09564,-1.57065,1.57141,0.785905,-1.5708,-0.523599,-1.43655e-07,-2.09439,-1.5708,1.5708,0.7854,6.20641e-05,-0.000226496,0.00226133,-0.000904383,-0.000267412,-0.00038686,0.000358094,0,0,0,0,0,0,0,-0.0259286,-10.3162,0.832583,20.6464,-0.814497,-0.475866,-0.34313,-0.0488806,-1.19176,0.637744,2.09004,-0.254375,-0.489788,-0.370287
2069267,1,-1.5708,-0.522728,-0.000488612,-2.09564,-1.57065,1.57142,0.7859,-1.5708,-0.523599,-1.43655e-07,-2.09439,-1.5708,1.5708,0.7854,-0.000515436,-0.000150997,0.000980895,0.000510702,-0.000178275,0.000216811,-0.000507256,0,0,0,0,0,0,0,-0.00212494,-10.3162,0.860354,20.5988,-0.814497,-0.488683,-0.322988,-0.0510003,-1.19298,0.634707,2.09069,-0.254508,-0.490125,-0.370409
2069268,1,-1.5708,-0.52273,-0.000488612,-2.09564,-1.57065,1.57142,0.7859,-1.5708,-0.523599,-1.43655e-07,-2.09439,-1.5708,1.5708,0.7854,0.00141961,-0.000657477,0.000746145,-0.000773156,-0.00011885,0.0003819,-0.000100812,0,0,0,0,0,0,0,-0.0775034,-10.2924,0.860354,20.6464,-0.814497,-0.495092,-0.329397,-0.0511844,-1.19304,0.634792,2.09083,-0.254555,-0.49014,-0.370565
2069269,1,-1.5708,-0.522726,-0.000486663,-2.09564,-1.57065,1.57142,0.7859,-1.5708,-0.523599,-1.43655e-07,-2.09439,-1.5708,1.5708,0.7854,-0.000260017,0.000675306,0.00121621,0.000598187,0.000158126,0.0002546,-6.72078e-05,0,0,0,0,0,0,0,-0.0259286,-10.34,0.832583,20.5988,-0.820906,-0.495092,-0.329397,-0.050297,-1.1927,0.636754,2.09074,-0.254543,-0.489981,-0.370739
2069270,1,-1.5708,-0.522728,-0.000488612,-2.09563,-1.57065,1.57141,0.785897,-1.5708,-0.523599,-1.43655e-07,-2.09439,-1.5708,1.5708,0.7854,-0.000173344,-0.000106608,0.00021306,0.00104841,-0.000335392,0.000169733,-0.000994241,0,0,0,0,0,0,0,-0.0259286,-10.3162,0.860354,20.571,-0.809004,-0.495092,-0.303762,-0.0484981,-1.19254,0.640189,2.09033,-0.254476,-0.489696,-0.370915
2069271,1,-1.5708,-0.522726,-0.000486663,-2.09564,-1.57065,1.57141,0.785898,-1.5708,-0.523599,-1.43655e-07,-2.09439,-1.5708,1.5708,0.7854,0.000441249,0.00048574,0.000830557,-0.000507489,0.000217215,-0.000361562,-0.000188109,0,0,0,0,0,0,0,-0.0497324,-10.34,0.832583,20.6226,-0.820906,-0.482274,-0.31658,-0.0458278,-1.1925,0.644941,2.08963,-0.254359,-0.489295,-0.371078
2069272,1,-1.5708,-0.522728,-0.000490282,-2.09564,-1.57065,1.57141,0.785902,-1.5708,-0.523599,-1.43655e-07,-2.09439,-1.5708,1.5708,0.7854,0.000294166,-0.000232985,-0.000623544,-0.000338326,0.00034826,-3.68267e-06,-0.000125406,0,0,0,0,0,0,0,-0.0497324,-10.3162,0.884158,20.6226,-0.826399,-0.488683,-0.31658,-0.0427549,-1.19313,0.650391,2.08951,-0.254247,-0.48884,-0.3712
2069273,1,-1.5708,-0.522726,-0.000486663,-2.09564,-1.57065,1.57141,0.7859,-1.5708,-0.523599,-1.43655e-07,-2.09439,-1.5708,1.5708,0.7854,-0.000360701,0.000401488,0.000812613,-0.000225551,-0.000412086,-0.000239814,0.000153755,0,0,0,0,0,0,0,-0.0259286,-10.34,0.832583,20.6226,-0.809004,-0.482274,-0.322988,-0.0393691,-1.19427,0.65637,2.09001,-0.25415,-0.488337,-0.371271
2069274,1,-1.5708,-0.522728,-0.000488612,-2.09564,-1.57065,1.57142,0.785902,-1.5708,-0.523599,-1.43655e-07,-2.09439,-1.5708,1.5708,0.7854,-0.000240468,-0.000289153,-9.14595e-05,0.000406445,-0.000274724,7.74829e-05,0.000848488,0,0,0,0,0,0,0,-0.0259286,-10.3162,0.860354,20.5988,-0.809004,-0.488683,-0.34313,-0.0358972,-1.19514,0.662396,2.0904,-0.25405,-0.487816,-0.3713
2069275,1,-1.5708,-0.522731,-0.000490282,-2.09564,-1.57065,1.57142,0.785896,-1.5708,-0.523599,-1.43655e-07,-2.09439,-1.5708,1.5708,0.7854,-0.000717124,-0.00139919,-0.000605476,-0.000285849,2.0301e-05,-0.000185704,-0.00136712,0,0,0,0,0,0,0,-0.00212494,-10.2646,0.884158,20.6226,-0.814497,-0.482274,-0.290945,-0.032149,-1.19418,0.668681,2.08987,-0.253902,-0.487228,-0.37131
2069276,1,-1.5708,-0.522728,-0.000486663,-2.09563,-1.57065,1.57142,0.785904,-1.5708,-0.523599,-1.43655e-07,-2.09439,-1.5708,1.5708,0.7854,0.000635541,0.00027363,0.000812007,0.000366246,0.000250893,0.000113556,0.000784007,0,0,0,0,0,0,0,-0.0497324,-10.3162,0.832583,20.5988,-0.820906,-0.488683,-0.336721,-0.0284653,-1.19138,0.674761,2.0885,-0.253713,-0.486623,-0.371312
2069277,1,-1.5708,-0.522726,-0.000486663,-2.09564,-1.57065,1.57142,0.785904,-1.5708,-0.523599,-1.43655e-07,-2.09439,-1.5708,1.5708,0.7854,-0.000133118,0.00018242,0.000548262,-0.000312648,-0.000273548,-0.000161655,0.000251404,0,0,0,0,0,0,0,-0.0259286,-10.3162,0.832583,20.6226,-0.809004,-0.482274,-0.329397,-0.026005,-1.18936,0.678987,2.08746,-0.253562,-0.48621,-0.371292
2069278,1,-1.5708,-0.522724,-0.000484993,-2.09564,-1.57065,1.57142,0.785904,-1.5708,-0.523599,-1.43655e-07,-2.09439,-1.5708,1.5708,0.7854,-0.000645557,0.00132804,0.000927513,-0.00132206,0.000258444,-0.00010777,0.000167603,0,0,0,0,0,0,0,-0.00212494,-10.3678,0.80878,20.6702,-0.820906,-0.482274,-0.329397,-0.0246286,-1.19039,0.681531,2.08807,-0.253502,-0.485994,-0.371249
2069279,1,-1.5708,-0.522729,-0.000491953,-2.09564,-1.57065,1.57142,0.785904,-1.5708,-0.523599,-1.43655e-07,-2.09439,-1.5708,1.5708,0.7854,0.000683253,-0.000877879,-0.00169781,-0.000324559,-6.50626e-05,-7.18465e-05,-0.000125624,0,0,0,0,0,0,0,-0.0497324,-10.2924,0.907962,20.6464,-0.814497,-0.482274,-0.322988,-0.0232501,-1.19358,0.684029,2.09015,-0.253492,-0.485793,-0.371206
2069280,1,-1.5708,-0.522726,-0.000490282,-2.09564,-1.57065,1.57141,0.785905,-1.5708,-0.523599,-1.43655e-07,-2.09439,-1.5708,1.5708,0.7854,-0.00010131,0.000528372,-0.000572142,-0.000773184,0.000193984,-0.000285257,0.00015361,0,0,0,0,0,0,0,-0.0259286,-10.34,0.884158,20.6702,-0.820906,-0.475866,-0.329397,-0.0212043,-1.19621,0.687602,2.09217,-0.253453,-0.485466,-0.371177
2069281,1,-1.5708,-0.522727,-0.000486663,-2.09564,-1.57065,1.57142,0.785905,-1.5708,-0.523599,-1.43655e-07,-2.09439,-1.5708,1.5708,0.7854,-6.75402e-05,-0.000761376,0.000827188,4.13557e-05,0.000332773,0.000284547,0.000373674,0,0,0,0,0,0,0,-0.0259286,-10.2924,0.832583,20.6464,-0.826399,-0.488683,-0.336721,-0.0191926,-1.19751,0.691116,2.09355,-0.253391,-0.485114,-0.371162
2069282,1,-1.5708,-0.522727,-0.000488612,-2.09564,-1.57065,1.57141,0.785905,-1.5708,-0.523599,-1.43655e-07,-2.09439,-1.5708,1.5708,0.7854,0.000511785,4.92278e-05,-9.65119e-05,2.75705e-05,0.000221849,0.000189698,-2.21515e-05,0,0,0,0,0,0,0,-0.0497324,-10.3162,0.860354,20.6464,-0.826399,-0.488683,-0.329397,-0.0181917,-1.19732,0.693004,2.09402,-0.253332,-0.484891,-0.37117
2069283,1,-1.57081,-0.522728,-0.000488612,-2.09564,-1.57065,1.57142,0.785905,-1.5708,-0.523599,-1.43655e-07,-2.09439,-1.5708,1.5708,0.7854,-0.000772434,3.28185e-05,-6.3109e-05,-0.000538432,-0.00029291,0.000363824,0.0002565,0,0,0,0,0,0,0,-0.00212494,-10.3162,0.860354,20.6702,-0.814497,-0.495092,-0.336721,-0.0177228,-1.19647,0.694038,2.09402,-0.253285,-0.484744,-0.371202
2069284,1,-1.5708,-0.522726,-0.000488612,-2.09564,-1.57065,1.57141,0.7859,-1.5708,-0.523599,-1.43655e-07,-2.09439,-1.5708,1.5708,0.7854,4.18561e-05,0.000578691,-4.11484e-05,0.00131148,-0.000195274,-0.000706886,-0.000574985,0,0,0,0,0,0,0,-0.0259286,-10.34,0.860354,20.5988,-0.814497,-0.469457,-0.31658,-0.0170865,-1.19601,0.695255,2.09398,-0.253245,-0.484587,-0.371256
2069285,1,-1.5708,-0.522728,-0.000488612,-2.09564,-1.57065,1.57142,0.785903,-1.5708,-0.523599,-1.43655e-07,-2.09439,-1.5708,1.5708,0.7854,0.00123433,-0.000171018,-2.67391e-05,-0.000239303,-0.000130182,3.46035e-06,-0.000145965,0,0,0,0,0,0,0,-0.0775034,-10.3162,0.860354,20.6464,-0.814497,-0.482274,-0.322988,-0.0167424,-1.19553,0.696055,2.09354,-0.253202,-0.484479,-0.37133
2069286,1,-1.5708,-0.522726,-0.000486663,-2.09564,-1.57065,1.57141,0.785899,-1.5708,-0.523599,-1.43655e-07,-2.09439,-1.5708,1.5708,0.7854,0.000173273,0.0004428,0.000632308,-0.000716347,0.000354021,0.000239666,-0.000572028,0,0,0,0,0,0,0,-0.0497324,-10.34,0.832583,20.6702,-0.826399,-0.488683,-0.310171,-0.0173184,-1.19542,0.695616,2.09339,-0.253195,-0.484502,-0.371405
2069287,1,-1.5708,-0.522726,-0.000488612,-2.09564,-1.57065,1.57142,0.7859,-1.5708,-0.523599,-1.43655e-07,-2.09439,-1.5708,1.5708,0.7854,-0.000441297,0.0002952,-0.000227686,0.000636059,-0.000204795,0.000397136,0.000330725,0,0,0,0,0,0,0,-0.0259286,-10.34,0.860354,20.6226,-0.814497,-0.495092,-0.329397,-0.0182599,-1.19614,0.694666,2.09393,-0.253224,-0.484579,-0.371462
2069288,1,-1.5708,-0.522724,-0.000488612,-2.09564,-1.57065,1.57142,0.785905,-1.5708,-0.523599,-1.43655e-07,-2.09439,-1.5708,1.5708,0.7854,-0.000294198,0.000846414,-0.000151498,0.000424039,0.000100829,-0.00020996,0.00072911,0,0,0,0,0,0,0,-0.0259286,-10.3678,0.860354,20.6226,-0.820906,-0.482274,-0.34313,-0.0186302,-1.19723,0.69451,2.09446,-0.253238,-0.484578,-0.371495
2069289,1,-1.5708,-0.522728,-0.000488612,-2.09564,-1.57065,1.57141,0.785903,-1.5708,-0.523599,-1.43655e-07,-2.09439,-1.5708,1.5708,0.7854,-0.000196132,-0.00064215,-0.000100779,0.000839505,-0.00017014,-0.000139974,-0.000497271,0,0,0,0,0,0,0,-0.0259286,-10.3162,0.860354,20.5988,-0.814497,-0.482274,-0.31658,-0.0184057,-1.19764,0.695173,2.09433,-0.253213,-0.484487,-0.371521
2069290,1,-1.5708,-0.52273,-0.000488612,-2.09564,-1.57065,1.57142,0.785903,-1.5708,-0.523599,-1.43655e-07,-2.09439,-1.5708,1.5708,0.7854,-0.000130755,-0.000984912,-6.70217e-05,-0.000553954,-0.000113427,0.000144043,0.000889189,0,0,0,0,0,0,0,-0.0259286,-10.2924,0.860354,20.6464,-0.814497,-0.488683,-0.349539,-0.0179944,-1.19584,0.696024,2.0932,-0.253152,-0.484345,-0.371559
2069291,1,-1.5708,-0.522728,-0.000484993,-2.09563,-1.57065,1.57142,0.785897,-1.5708,-0.523599,-1.43655e-07,-2.09439,-1.5708,1.5708,0.7854,-0.000643982,-9.9796e-05,0.00116187,0.00139394,0.000365192,-0.00014133,-0.00133999,0,0,0,0,0,0,0,-0.00212494,-10.3162,0.80878,20.571,-0.826399,-0.482274,-0.297354,-0.0178311,-1.19212,0.696355,2.09131,-0.253073,-0.484221,-0.371614
2069292,1,-1.5708,-0.522726,-0.000484993,-2.09564,-1.57065,1.57142,0.785905,-1.5708,-0.523599,-1.43655e-07,-2.09439,-1.5708,1.5708,0.7854,0.000684303,0.000490281,0.000774671,0.000279676,0.000446912,0.000143139,0.000802096,0,0,0,0,0,0,0,-0.0497324,-10.34,0.80878,20.5988,-0.831892,-0.488683,-0.34313,-0.0185168,-1.18866,0.695277,2.08931,-0.253019,-0.484238,-0.371678
2069293,1,-1.5708,-0.52273,-0.000488612,-2.09564,-1.57065,1.57142,0.785901,-1.5708,-0.523599,-1.43655e-07,-2.09439,-1.5708,1.5708,0.7854,-0.00010061,-0.00078677,-0.000689909,-0.000370361,9.44906e-05,9.54259e-05,2.61045e-05,0,0,0,0,0,0,0,-0.0259286,-10.2924,0.860354,20.6226,-0.826399,-0.488683,-0.329397,-0.0196726,-1.1865,0.6935,2.08794,-0.253017,-0.484347,-0.371736
2069294,1,-1.5708,-0.52273,-0.000490282,-2.09563,-1.57065,1.57142,0.785899,-1.5708,-0.523599,-1.43655e-07,-2.09439,-1.5708,1.5708,0.7854,0.000489739,-0.000524513,-0.0010167,0.00151633,-0.000377816,6.36173e-05,-0.000219956,0,0,0,0,0,0,0,-0.0497324,-10.2924,0.884158,20.5472,-0.814497,-0.488683,-0.322988,-0.0200678,-1.18411,0.692944,2.08661,-0.253017,-0.484341,-0.371793
2069295,1,-1.5708,-0.522728,-0.000491953,-2.09564,-1.57065,1.57142,0.785899,-1.5708,-0.523599,-1.43655e-07,-2.09439,-1.5708,1.5708,0.7854,-0.00023032,0.000207137,-0.00123457,-0.000752351,-1.45182e-05,4.24115e-05,-0.000146637,0,0,0,0,0,0,0,-0.0259286,-10.3162,0.907962,20.6226,-0.820906,-0.488683,-0.322988,-0.0193114,-1.18144,0.694235,2.08507,-0.252992,-0.484164,-0.371857
2069296,1,-1.5708,-0.522724,-0.000488612,-2.09564,-1.57065,1.57141,0.785899,-1.5708,-0.523599,-1.43655e-07,-2.09439,-1.5708,1.5708,0.7854,-0.000153546,0.00134452,0.000290605,5.52447e-05,-0.000450488,0.000265633,-9.77582e-05,0,0,0,0,0,0,0,-0.0259286,-10.3678,0.860354,20.5988,-0.809004,-0.495092,-0.322988,-0.0180909,-1.18153,0.696359,2.085,-0.253017,-0.483959,-0.371909
2069297,1,-1.5708,-0.522728,-0.000490282,-2.09564,-1.57065,1.57142,0.785905,-1.5708,-0.523599,-1.43655e-07,-2.09439,-1.5708,1.5708,0.7854,-0.000102364,-0.000310081,-0.000363053,-0.000519982,-9.6875e-05,0.000177089,0.000680813,0,0,0,0,0,0,0,-0.0259286,-10.3162,0.884158,20.6226,-0.814497,-0.495092,-0.34313,-0.0172472,-1.18452,0.697982,2.08654,-0.253113,-0.483862,-0.371942
2069298,1,-1.5708,-0.522724,-0.000490282,-2.09563,-1.57065,1.57141,0.785901,-1.5708,-0.523599,-1.43655e-07,-2.09439,-1.5708,1.5708,0.7854,-6.82428e-05,0.000999705,-0.000242019,0.000859771,-0.000268034,-0.000594018,-0.00100419,0,0,0,0,0,0,0,-0.0259286,-10.3678,0.884158,20.571,-0.809004,-0.475866,-0.303762,-0.0167917,-1.18796,0.699037,2.08822,-0.253217,-0.483847,-0.371971
2069299,1,-1.5708,-0.522731,-0.000486663,-2.09564,-1.57065,1.57142,0.785902,-1.5708,-0.523599,-1.43655e-07,-2.09439,-1.5708,1.5708,0.7854,-4.54952e-05,-0.00174638,0.00104509,-7.64332e-05,-0.000178689,-0.000158653,-0.000432099,0,0,0,0,0,0,0,-0.0259286,-10.2646,0.832583,20.5988,-0.809004,-0.482274,-0.310171,-0.0168078,-1.18968,0.69932,2.08883,-0.253277,-0.483893,-0.372005
2069300,1,-1.5708,-0.522728,-0.000490282,-2.09563,-1.57065,1.57142,0.785907,-1.5708,-0.523599,-1.43655e-07,-2.09439,-1.5708,1.5708,0.7854,0.000526482,4.21714e-05,-0.000509689,0.00115547,0.000321683,0.00013159,0.00117,0,0,0,0,0,0,0,-0.0497324,-10.3162,0.884158,20.5472,-0.820906,-0.488683,-0.349539,-0.0175457,-1.18832,0.698433,2.08774,-0.253275,-0.48401,-0.372028
2069301,1,-1.5708,-0.52273,-0.000490282,-2.09564,-1.57065,1.57141,0.785901,-1.5708,-0.523599,-1.43655e-07,-2.09439,-1.5708,1.5708,0.7854,-0.000762636,-0.000528698,-0.000339785,-0.000436112,-0.000226354,-0.000149632,3.40122e-05,0,0,0,0,0,0,0,-0.00212494,-10.2924,0.884158,20.5988,-0.809004,-0.482274,-0.329397,-0.0181947,-1.18556,0.697693,2.08584,-0.253222,-0.484092,-0.372034
2069302,1,-1.5708,-0.522726,-0.000490282,-2.09564,-1.57065,1.57142,0.785906,-1.5708,-0.523599,-1.43655e-07,-2.09439,-1.5708,1.5708,0.7854,4.83879e-05,0.000761159,-0.000226518,-0.000847553,0.000289907,0.000137604,0.00100602,0,0,0,0,0,0,0,-0.0259286,-10.34,0.884158,20.6226,-0.820906,-0.488683,-0.355947,-0.0182238,-1.18441,0.697938,2.08498,-0.253178,-0.48409,-0.372037
2069303,1,-1.5708,-0.522728,-0.000488612,-2.09563,-1.57065,1.57142,0.785901,-1.5708,-0.523599,-1.43655e-07,-2.09439,-1.5708,1.5708,0.7854,3.22586e-05,-4.93728e-05,0.000405804,0.00064139,-4.40877e-05,-0.000145623,-0.000312665,0,0,0,0,0,0,0,-0.0259286,-10.3162,0.860354,20.571,-0.814497,-0.482274,-0.329397,-0.0182911,-1.18541,0.698184,2.08541,-0.253174,-0.484114,-0.372062
2069304,1,-1.57081,-0.522728,-0.000488612,-2.09563,-1.57065,1.57142,0.785905,-1.5708,-0.523599,-1.43655e-07,-2.09439,-1.5708,1.5708,0.7854,-0.00118492,-3.29152e-05,0.000270539,0.000427593,-2.93918e-05,0.000377636,0.000300183,0,0,0,0,0,0,0,0.0256461,-10.3162,0.860354,20.571,-0.814497,-0.495092,-0.34313,-0.01862,-1.18652,0.697965,2.08558,-0.253163,-0.484184,-0.372129
2069305,1,-1.5708,-0.522728,-0.000488612,-2.09564,-1.57065,1.57141,0.785902,-1.5708,-0.523599,-1.43655e-07,-2.09439,-1.5708,1.5708,0.7854,0.000416479,-2.19435e-05,0.000180361,-0.000921364,-1.95945e-05,-0.000460319,-3.72369e-05,0,0,0,0,0,0,0,-0.0259286,-10.3162,0.860354,20.6226,-0.814497,-0.475866,-0.336721,-0.0189279,-1.18713,0.69762,2.0854,-0.253137,-0.484252,-0.372239
2069306,1,-1.5708,-0.522728,-0.000486663,-2.09564,-1.57065,1.57141,0.785902,-1.5708,-0.523599,-1.43655e-07,-2.09439,-1.5708,1.5708,0.7854,0.000277653,-1.4629e-05,0.000769856,-5.74304e-05,-1.3063e-05,0.000167838,0.000212534,0,0,0,0,0,0,0,-0.0259286,-10.3162,0.832583,20.5988,-0.814497,-0.488683,-0.34313,-0.0196561,-1.18812,0.69661,2.08567,-0.253141,-0.484391,-0.372382
2069307,1,-1.5708,-0.522728,-0.000488612,-2.09564,-1.57065,1.57141,0.785898,-1.5708,-0.523599,-1.43655e-07,-2.09439,-1.5708,1.5708,0.7854,-0.00037171,-9.75265e-06,-0.000136375,-0.000595099,0.00022865,0.000111892,-0.000841655,0,0,0,0,0,0,0,-0.00212494,-10.3162,0.860354,20.6226,-0.820906,-0.488683,-0.31658,-0.0207696,-1.18933,0.694997,2.08623,-0.253163,-0.484589,-0.372558
2069308,1,-1.5708,-0.522726,-0.000490282,-2.09564,-1.57065,1.57141,0.785902,-1.5708,-0.523599,-1.43655e-07,-2.09439,-1.5708,1.5708,0.7854,0.000309005,0.00055031,-0.000647728,-0.000396733,-8.49254e-05,-0.000400123,-0.000561103,0,0,0,0,0,0,0,-0.0259286,-10.34,0.884158,20.6226,-0.814497,-0.475866,-0.31658,-0.0213658,-1.191,0.694127,2.08709,-0.253179,-0.484714,-0.372752
2069309,1,-1.5708,-0.522728,-0.000488612,-2.09564,-1.57065,1.57142,0.785906,-1.5708,-0.523599,-1.43655e-07,-2.09439,-1.5708,1.5708,0.7854,-0.000350808,-0.000189938,0.000124994,-0.000264488,-5.6617e-05,0.000207969,0.000609275,0,0,0,0,0,0,0,-0.00212494,-10.3162,0.860354,20.6226,-0.814497,-0.488683,-0.34313,-0.021301,-1.19309,0.694251,2.08818,-0.253184,-0.48474,-0.372936
2069310,1,-1.57081,-0.522726,-0.000490282,-2.09564,-1.57065,1.57141,0.7859,-1.5708,-0.523599,-1.43655e-07,-2.09439,-1.5708,1.5708,0.7854,-0.000233872,0.000430186,-0.000473482,-0.000733138,-3.77446e-05,-0.000573431,-0.000339802,0,0,0,0,0,0,0,-0.00212494,-10.34,0.884158,20.6464,-0.814497,-0.469457,-0.322988,-0.0208608,-1.19502,0.694875,2.08921,-0.253177,-0.484703,-0.373098
2069311,1,-1.5708,-0.522728,-0.000488612,-2.09564,-1.57065,1.57141,0.785903,-1.5708,-0.523599,-1.43655e-07,-2.09439,-1.5708,1.5708,0.7854,0.000400897,-0.000270021,0.000241158,-0.000488758,-2.51631e-05,9.24307e-05,-0.000226534,0,0,0,0,0,0,0,-0.0259286,-10.3162,0.860354,20.6464,-0.814497,-0.482274,-0.322988,-0.0203425,-1.19676,0.695562,2.09028,-0.253169,-0.484642,-0.373242
2069312,1,-1.5708,-0.522726,-0.000488612,-2.09564,-1.57065,1.57142,0.785901,-1.5708,-0.523599,-1.43655e-07,-2.09439,-1.5708,1.5708,0.7854,0.000267265,0.000376798,0.000160772,-0.000325839,0.000220584,0.000536338,8.6336e-05,0,0,0,0,0,0,0,-0.0259286,-10.34,0.860354,20.6464,-0.820906,-0.495092,-0.329397,-0.0203239,-1.19813,0.695509,2.09122,-0.253164,-0.484639,-0.373371
2069313,1,-1.5708,-0.52273,-0.000490282,-2.09564,-1.57065,1.57142,0.785901,-1.5708,-0.523599,-1.43655e-07,-2.09439,-1.5708,1.5708,0.7854,-0.000378635,-0.000862425,-0.00044963,0.000339586,-0.000293754,-0.000117159,0.000328825,0,0,0,0,0,0,0,-0.00212494,-10.2924,0.884158,20.6226,-0.809004,-0.482274,-0.336721,-0.0205194,-1.19832,0.695108,2.09144,-0.253134,-0.484652,-0.373483
2069314,1,-1.5708,-0.522726,-0.000488612,-2.09564,-1.57065,1.57142,0.785903,-1.5708,-0.523599,-1.43655e-07,-2.09439,-1.5708,1.5708,0.7854,0.0008612,0.000538674,0.000257059,-0.000887233,0.000448424,0.000159253,-5.20509e-05,0,0,0,0,0,0,0,-0.0497324,-10.34,0.860354,20.6702,-0.826399,-0.488683,-0.329397,-0.0205841,-1.19742,0.694888,2.09104,-0.253075,-0.484635,-0.373583
2069315,1,-1.5708,-0.522728,-0.000490282,-2.09564,-1.57065,1.57142,0.785902,-1.5708,-0.523599,-1.43655e-07,-2.09439,-1.5708,1.5708,0.7854,-0.00053949,-0.000197696,-0.000385439,0.00107895,9.54989e-05,0.000343528,-0.000746777,0,0,0,0,0,0,0,-0.00212494,-10.3162,0.884158,20.5988,-0.820906,-0.495092,-0.310171,-0.0207306,-1.19654,0.694592,2.0906,-0.253014,-0.484636,-0.373678
2069316,1,-1.5708,-0.522728,-0.000488612,-2.09564,-1.57065,1.57142,0.785905,-1.5708,-0.523599,-1.43655e-07,-2.09439,-1.5708,1.5708,0.7854,-0.00035966,-0.000131797,0.000299852,0.000719298,-0.000377144,-8.34055e-06,0.000485493,0,0,0,0,0,0,0,-0.00212494,-10.3162,0.860354,20.5988,-0.809004,-0.488683,-0.336721,-0.0206362,-1.19494,0.694601,2.08938,-0.252922,-0.484609,-0.373765
2069317,1,-1.5708,-0.522724,-0.000488612,-2.09564,-1.57065,1.57142,0.785902,-1.5708,-0.523599,-1.43655e-07,-2.09439,-1.5708,1.5708,0.7854,0.00087385,0.00111856,0.000199902,-0.000634092,-4.79785e-05,0.000231799,-0.000659682,0,0,0,0,0,0,0,-0.0497324,-10.3678,0.860354,20.6464,-0.814497,-0.495092,-0.310171,-0.0206185,-1.19357,0.694472,2.08804,-0.252835,-0.484619,-0.373831
2069318,1,-1.5708,-0.522724,-0.000486663,-2.09564,-1.57065,1.57142,0.785902,-1.5708,-0.523599,-1.43655e-07,-2.09439,-1.5708,1.5708,0.7854,0.000582567,0.000745707,0.000782882,-0.000422728,0.000205373,-8.28266e-05,0.000543556,0,0,0,0,0,0,0,-0.0497324,-10.3678,0.832583,20.6464,-0.820906,-0.488683,-0.336721,-0.0214991,-1.19501,0.693163,2.0884,-0.252838,-0.484811,-0.373865
2069319,1,-1.5708,-0.522728,-0.000488612,-2.09564,-1.57065,1.57141,0.785902,-1.5708,-0.523599,-1.43655e-07,-2.09439,-1.5708,1.5708,0.7854,-0.000168434,-0.000709288,-0.000127693,0.000831805,0.000340366,-5.52177e-05,-0.000383615,0,0,0,0,0,0,0,-0.0259286,-10.3162,0.860354,20.5988,-0.826399,-0.488683,-0.31658,-0.0228379,-1.19713,0.691243,2.08927,-0.252875,-0.485088,-0.373877
2069320,1,-1.5708,-0.522728,-0.000486663,-2.09564,-1.57065,1.57141,0.785905,-1.5708,-0.523599,-1.43655e-07,-2.09439,-1.5708,1.5708,0.7854,-0.000669101,-0.000472858,0.000564485,-0.000559087,2.34602e-05,-3.68118e-05,0.000490242,0,0,0,0,0,0,0,-0.00212494,-10.3162,0.832583,20.6464,-0.820906,-0.488683,-0.336721,-0.0236426,-1.19676,0.689976,2.08896,-0.252866,-0.485261,-0.373879
2069321,1,-1.5708,-0.522728,-0.000486663,-2.09564,-1.57065,1.57142,0.785903,-1.5708,-0.523599,-1.43655e-07,-2.09439,-1.5708,1.5708,0.7854,-0.000446068,-0.000315239,0.000376324,-0.000929537,1.56401e-05,0.000212818,0.000801546,0,0,0,0,0,0,0,-0.00212494,-10.3162,0.832583,20.6702,-0.820906,-0.495092,-0.349539,-0.0238331,-1.19502,0.689428,2.08839,-0.252851,-0.485329,-0.373873
2069322,1,-1.5708,-0.52273,-0.000488612,-2.09564,-1.57065,1.57142,0.785903,-1.5708,-0.523599,-1.43655e-07,-2.09439,-1.5708,1.5708,0.7854,0.000259434,-0.000766971,-0.000398731,-6.28791e-05,0.000213877,-9.54804e-05,-0.00044898,0,0,0,0,0,0,0,-0.0259286,-10.2924,0.860354,20.6464,-0.826399,-0.488683,-0.322988,-0.0236771,-1.19313,0.689303,2.08821,-0.252861,-0.48535,-0.373875
2069323,1,-1.57081,-0.522724,-0.000490282,-2.09564,-1.57065,1.57141,0.785904,-1.5708,-0.523599,-1.43655e-07,-2.09439,-1.5708,1.5708,0.7854,-0.000383856,0.00060231,-0.000822633,-4.19194e-05,-0.000298225,0.000173705,-6.19612e-05,0,0,0,0,0,0,0,-0.00212494,-10.34,0.884158,20.6464,-0.814497,-0.495092,-0.329397,-0.0229402,-1.19131,0.690084,2.08807,-0.252864,-0.485296,-0.373901
2069324,1,-1.57081,-0.522731,-0.000486663,-2.09564,-1.57065,1.57142,0.785901,-1.5708,-0.523599,-1.43655e-07,-2.09439,-1.5708,1.5708,0.7854,-0.000255904,-0.0013617,0.000658004,0.00108568,3.85425e-05,-0.000121555,-0.000278666,0,0,0,0,0,0,0,-0.00212494,-10.2646,0.832583,20.5988,-0.820906,-0.488683,-0.322988,-0.0217736,-1.18921,0.691489,2.08743,-0.252841,-0.485191,-0.373949
2069325,1,-1.57081,-0.522724,-0.000490282,-2.09564,-1.57065,1.57141,0.7859,-1.5708,-0.523599,-1.43655e-07,-2.09439,-1.5708,1.5708,0.7854,-0.000820217,0.000855439,-0.000767757,0.000723785,0.000432596,0.00039368,5.15813e-05,0,0,0,0,0,0,0,0.0256461,-10.34,0.884158,20.5988,-0.831892,-0.5015,-0.329397,-0.0205246,-1.1862,0.692877,2.08584,-0.252786,-0.485086,-0.374006
2069326,1,-1.5708,-0.522729,-0.000488612,-2.09564,-1.57065,1.57142,0.785902,-1.5708,-0.523599,-1.43655e-07,-2.09439,-1.5708,1.5708,0.7854,0.00121643,-0.000543331,4.49742e-05,-0.000631101,8.49469e-05,-0.000212264,-0.000202971,0,0,0,0,0,0,0,-0.0497324,-10.2924,0.860354,20.6464,-0.826399,-0.488683,-0.322988,-0.019383,-1.18403,0.694106,2.08451,-0.252754,-0.485028,-0.374059
2069327,1,-1.5708,-0.522728,-0.000488612,-2.09564,-1.57065,1.57142,0.785903,-1.5708,-0.523599,-1.43655e-07,-2.09439,-1.5708,1.5708,0.7854,0.000254139,0.000194591,2.99828e-05,-0.000977546,-0.000384178,9.58499e-05,-0.000135314,0,0,0,0,0,0,0,-0.0259286,-10.3162,0.860354,20.6702,-0.814497,-0.495092,-0.322988,-0.0189752,-1.18369,0.694407,2.08459,-0.252816,-0.485112,-0.3741
2069328,1,-1.5708,-0.522729,-0.000490282,-2.09564,-1.57065,1.57142,0.785904,-1.5708,-0.523599,-1.43655e-07,-2.09439,-1.5708,1.5708,0.7854,0.000169426,-0.000427084,-0.000536823,0.000461927,-1.87599e-05,-0.000173459,-9.02095e-05,0,0,0,0,0,0,0,-0.0259286,-10.2924,0.884158,20.6226,-0.820906,-0.488683,-0.322988,-0.0190569,-1.18415,0.694093,2.08551,-0.252939,-0.485285,-0.374124
2069329,1,-1.5708,-0.522728,-0.000488612,-2.09564,-1.57065,1.57141,0.785902,-1.5708,-0.523599,-1.43655e-07,-2.09439,-1.5708,1.5708,0.7854,0.000112951,0.000272089,0.00019893,-0.000805673,0.000190944,-0.000352998,-0.000772216,0,0,0,0,0,0,0,-0.0259286,-10.3162,0.860354,20.6702,-0.826399,-0.482274,-0.303762,-0.0190257,-1.18471,0.693991,2.08652,-0.253065,-0.48544,-0.374131
2069330,1,-1.5708,-0.522724,-0.000488612,-2.09564,-1.57065,1.57141,0.785904,-1.5708,-0.523599,-1.43655e-07,-2.09439,-1.5708,1.5708,0.7854,7.53005e-05,0.00138782,0.00013262,0.000576509,-0.000313514,-0.000235332,0.000197266,0,0,0,0,0,0,0,-0.0259286,-10.3678,0.860354,20.6226,-0.814497,-0.482274,-0.322988,-0.0191349,-1.1866,0.693732,2.08807,-0.253214,-0.485624,-0.374109
2069331,1,-1.5708,-0.522728,-0.000488612,-2.09564,-1.57065,1.57142,0.785906,-1.5708,-0.523599,-1.43655e-07,-2.09439,-1.5708,1.5708,0.7854,5.02003e-05,-0.000281214,8.84132e-05,0.000941151,-0.000209009,8.04708e-05,0.000877496,0,0,0,0,0,0,0,-0.0259286,-10.3162,0.860354,20.5988,-0.814497,-0.488683,-0.34313,-0.0194656,-1.18941,0.693183,2.08961,-0.253365,-0.485838,-0.374049
2069332,1,-1.5708,-0.522726,-0.000490282,-2.09564,-1.57065,1.57142,0.7859,-1.5708,-0.523599,-1.43655e-07,-2.09439,-1.5708,1.5708,0.7854,3.34669e-05,0.000369336,-0.00049787,0.000627434,0.00030147,5.36472e-05,-0.000398347,0,0,0,0,0,0,0,-0.0259286,-10.34,0.884158,20.5988,-0.826399,-0.488683,-0.31658,-0.019675,-1.19082,0.692824,2.08994,-0.253457,-0.486001,-0.373974
2069333,1,-1.5708,-0.522726,-0.000486663,-2.09564,-1.57065,1.57142,0.785904,-1.5708,-0.523599,-1.43655e-07,-2.09439,-1.5708,1.5708,0.7854,2.23113e-05,0.000246224,0.000874513,-0.000138523,-0.000239829,-0.000201594,0.000480421,0,0,0,0,0,0,0,-0.0259286,-10.34,0.832583,20.6226,-0.814497,-0.482274,-0.336721,-0.0198401,-1.19135,0.692546,2.08976,-0.253519,-0.486125,-0.3739
2069334,1,-1.5708,-0.522726,-0.000484993,-2.09564,-1.57065,1.57142,0.785903,-1.5708,-0.523599,-1.43655e-07,-2.09439,-1.5708,1.5708,0.7854,1.48742e-05,0.000164149,0.00113982,-0.00064916,-0.000159886,0.000340322,-0.000425705,0,0,0,0,0,0,0,-0.0259286,-10.34,0.80878,20.6464,-0.814497,-0.495092,-0.31658,-0.0206506,-1.19235,0.691268,2.09015,-0.25362,-0.486331,-0.37383
2069335,1,-1.5708,-0.52273,-0.000488612,-2.09564,-1.57065,1.57141,0.785903,-1.5708,-0.523599,-1.43655e-07,-2.09439,-1.5708,1.5708,0.7854,-0.000546896,-0.00100419,-0.000446546,0.000124038,-0.000106591,0.000226881,0.0009369,0,0,0,0,0,0,0,-0.00212494,-10.2924,0.860354,20.6226,-0.814497,-0.495092,-0.349539,-0.0217253,-1.19281,0.68949,2.0907,-0.253729,-0.486555,-0.373767
2069336,1,-1.5708,-0.522726,-0.000488612,-2.09564,-1.57065,1.57141,0.785901,-1.5708,-0.523599,-1.43655e-07,-2.09439,-1.5708,1.5708,0.7854,0.00139864,0.000444163,-0.000297697,8.26923e-05,0.000166298,-8.61048e-05,-0.00107082,0,0,0,0,0,0,0,-0.0775034,-10.34,0.860354,20.6226,-0.820906,-0.488683,-0.303762,-0.02227,-1.1919,0.688515,2.09069,-0.253786,-0.486676,-0.373722
2069337,1,-1.5708,-0.522724,-0.000488612,-2.09564,-1.57065,1.57141,0.785905,-1.5708,-0.523599,-1.43655e-07,-2.09439,-1.5708,1.5708,0.7854,-0.000273999,0.000945723,-0.000198465,0.00061194,-0.000126493,-0.000294762,0.000506822,0,0,0,0,0,0,0,-0.0259286,-10.3678,0.860354,20.5988,-0.814497,-0.482274,-0.336721,-0.0225355,-1.1916,0.688144,2.0907,-0.253814,-0.486756,-0.373691
2069338,1,-1.5708,-0.522728,-0.000488612,-2.09564,-1.57065,1.57142,0.785901,-1.5708,-0.523599,-1.43655e-07,-2.09439,-1.5708,1.5708,0.7854,-0.00138909,-0.000575944,-0.00013231,-0.000148852,-8.43289e-05,0.00027821,-0.000170745,0,0,0,0,0,0,0,0.0256461,-10.3162,0.860354,20.6226,-0.814497,-0.495092,-0.322988,-0.0222151,-1.19226,0.688655,2.09092,-0.253821,-0.486754,-0.373662
2069339,1,-1.5708,-0.522724,-0.000486663,-2.09564,-1.57065,1.57142,0.785903,-1.5708,-0.523599,-1.43655e-07,-2.09439,-1.5708,1.5708,0.7854,0.000280365,0.000172849,0.000561407,-9.92346e-05,-5.62193e-05,0.000185473,0.000123529,0,0,0,0,0,0,0,-0.0259286,-10.34,0.832583,20.6226,-0.814497,-0.495092,-0.329397,-0.0213568,-1.19236,0.689782,2.09094,-0.253798,-0.486665,-0.373634
2069340,1,-1.5708,-0.522725,-0.000490282,-2.09564,-1.57065,1.57142,0.785905,-1.5708,-0.523599,-1.43655e-07,-2.09439,-1.5708,1.5708,0.7854,-0.000369902,0.000115233,-0.000832154,0.000490656,-0.00024093,0.000123649,0.00035362,0,0,0,0,0,0,0,-0.00212494,-10.34,0.884158,20.5988,-0.809004,-0.495092,-0.336721,-0.0206138,-1.19214,0.690675,2.09085,-0.253764,-0.486598,-0.373612
2069341,1,-1.5708,-0.522728,-0.000486663,-2.09564,-1.57065,1.57141,0.785902,-1.5708,-0.523599,-1.43655e-07,-2.09439,-1.5708,1.5708,0.7854,0.00151664,-0.00047999,0.000651656,0.000327104,4.28305e-05,8.24325e-05,-0.000747597,0,0,0,0,0,0,0,-0.0775034,-10.3162,0.832583,20.5988,-0.814497,-0.495092,-0.310171,-0.0202979,-1.19151,0.691012,2.09035,-0.253709,-0.486605,-0.373601
2069342,1,-1.5708,-0.522728,-0.000488612,-2.09564,-1.57065,1.57141,0.785906,-1.5708,-0.523599,-1.43655e-07,-2.09439,-1.5708,1.5708,0.7854,0.00101109,-0.000319993,-0.000215176,0.000218069,-0.000174897,-0.000419763,0.000722305,0,0,0,0,0,0,0,-0.0775034,-10.3162,0.860354,20.5988,-0.809004,-0.482274,-0.34313,-0.0210088,-1.18986,0.689986,2.08923,-0.253643,-0.48676,-0.373602
2069343,1,-1.5708,-0.522728,-0.000486663,-2.09563,-1.57065,1.57142,0.785905,-1.5708,-0.523599,-1.43655e-07,-2.09439,-1.5708,1.5708,0.7854,2.44467e-05,-0.000213329,0.000506163,0.000794993,0.000324212,-0.000279842,-2.70897e-05,0,0,0,0,0,0,0,-0.0497324,-10.3162,0.832583,20.571,-0.820906,-0.482274,-0.329397,-0.0223717,-1.18757,0.688124,2.08769,-0.253566,-0.486998,-0.373607
2069344,1,-1.5708,-0.522726,-0.000491953,-2.09563,-1.57065,1.57141,0.785905,-1.5708,-0.523599,-1.43655e-07,-2.09439,-1.5708,1.5708,0.7854,1.62978e-05,0.000414593,-0.0014258,0.00108681,0.000216141,5.07977e-05,-1.80598e-05,0,0,0,0,0,0,0,-0.0497324,-10.34,0.907962,20.5472,-0.820906,-0.488683,-0.329397,-0.0231489,-1.1854,0.687204,2.08588,-0.253452,-0.487129,-0.373621
2069345,1,-1.5708,-0.52273,-0.000488612,-2.09563,-1.57065,1.57142,0.785901,-1.5708,-0.523599,-1.43655e-07,-2.09439,-1.5708,1.5708,0.7854,1.08652e-05,-0.000837229,0.000163093,-0.000481888,-9.32649e-05,0.000271224,-0.000249399,0,0,0,0,0,0,0,-0.0497324,-10.2924,0.860354,20.5988,-0.814497,-0.495092,-0.322988,-0.022979,-1.18367,0.687809,2.08414,-0.25331,-0.487099,-0.373649
2069346,1,-1.5708,-0.52273,-0.000488612,-2.09564,-1.57065,1.57141,0.785897,-1.5708,-0.523599,-1.43655e-07,-2.09439,-1.5708,1.5708,0.7854,-0.000549568,-0.000558153,0.000108729,-0.00199169,-0.000469078,0.000180816,-0.000878343,0,0,0,0,0,0,0,-0.0259286,-10.2924,0.860354,20.6702,-0.803511,-0.495092,-0.303762,-0.0225527,-1.1825,0.688858,2.08342,-0.25321,-0.487016,-0.373677
2069347,1,-1.5708,-0.52273,-0.000488612,-2.09564,-1.57065,1.57142,0.785903,-1.5708,-0.523599,-1.43655e-07,-2.09439,-1.5708,1.5708,0.7854,0.000190433,-0.000372102,7.24859e-05,0.00034264,-0.000109268,-0.000116815,0.000363874,0,0,0,0,0,0,0,-0.0497324,-10.2924,0.860354,20.5988,-0.809004,-0.488683,-0.329397,-0.0223528,-1.18204,0.689578,2.08387,-0.253165,-0.486966,-0.373688
2069348,1,-1.5708,-0.52273,-0.000490282,-2.09564,-1.57065,1.57141,0.785896,-1.5708,-0.523599,-1.43655e-07,-2.09439,-1.5708,1.5708,0.7854,0.000126955,-0.000248068,-0.000508488,-0.000328385,0.000367964,-7.78766e-05,-0.00141893,0,0,0,0,0,0,0,-0.0497324,-10.2924,0.884158,20.6226,-0.820906,-0.488683,-0.284536,-0.0223033,-1.18176,0.690155,2.08438,-0.253114,-0.486941,-0.373671
2069349,1,-1.5708,-0.522728,-0.000488612,-2.09564,-1.57065,1.57142,0.785899,-1.5708,-0.523599,-1.43655e-07,-2.09439,-1.5708,1.5708,0.7854,-0.000472175,0.000391433,0.00021782,-0.000775736,0.000245309,-5.19177e-05,-0.000708594,0,0,0,0,0,0,0,-0.0259286,-10.3162,0.860354,20.6464,-0.820906,-0.488683,-0.290945,-0.0222606,-1.1822,0.690828,2.08509,-0.253055,-0.486923,-0.373613
2069350,1,-1.5708,-0.522728,-0.000488612,-2.09564,-1.57065,1.57142,0.7859,-1.5708,-0.523599,-1.43655e-07,-2.09439,-1.5708,1.5708,0.7854,-0.000314783,0.000260956,0.000145213,3.96549e-05,0.00016354,-0.000271971,0.00047704,0,0,0,0,0,0,0,-0.0259286,-10.3162,0.860354,20.6226,-0.820906,-0.482274,-0.31658,-0.0222472,-1.18416,0.691478,2.08652,-0.253025,-0.486926,-0.373482
2069351,1,-1.5708,-0.52273,-0.000491953,-2.09563,-1.57065,1.57142,0.785901,-1.5708,-0.523599,-1.43655e-07,-2.09439,-1.5708,1.5708,0.7854,-0.000766668,-0.000382842,-0.00101682,0.00123286,-0.000128333,5.60451e-05,8.06674e-05,0,0,0,0,0,0,0,-0.00212494,-10.2924,0.907962,20.571,-0.814497,-0.488683,-0.310171,-0.0219234,-1.18582,0.692538,2.08737,-0.252973,-0.486881,-0.373273
2069352,1,-1.5708,-0.522726,-0.000488612,-2.09564,-1.57065,1.57142,0.785903,-1.5708,-0.523599,-1.43655e-07,-2.09439,-1.5708,1.5708,0.7854,-0.000511112,0.000858396,0.000435747,-0.00094133,0.000151804,3.73634e-05,0.000291137,0,0,0,0,0,0,0,-0.00212494,-10.34,0.860354,20.6464,-0.820906,-0.488683,-0.31658,-0.0210816,-1.18671,0.694303,2.08743,-0.252887,-0.486754,-0.373008
2069353,1,-1.57081,-0.522728,-0.000488612,-2.09564,-1.57065,1.57142,0.785902,-1.5708,-0.523599,-1.43655e-07,-2.09439,-1.5708,1.5708,0.7854,-0.000340741,1.54522e-05,0.000290498,-0.000627553,-0.000339607,2.49089e-05,-0.000280626,0,0,0,0,0,0,0,-0.00212494,-10.3162,0.860354,20.6464,-0.809004,-0.488683,-0.303762,-0.0205188,-1.18876,0.69558,2.0883,-0.252855,-0.486687,-0.372701
2069354,1,-1.5708,-0.52273,-0.000486663,-2.09564,-1.57065,1.57142,0.785905,-1.5708,-0.523599,-1.43655e-07,-2.09439,-1.5708,1.5708,0.7854,0.000886463,-0.00054651,0.000843279,-0.000418369,0.000214405,-0.000220753,0.000762351,0,0,0,0,0,0,0,-0.0497324,-10.2924,0.832583,20.6464,-0.820906,-0.482274,-0.329397,-0.0209911,-1.19099,0.695242,2.08968,-0.252883,-0.486782,-0.37237
2069355,1,-1.5708,-0.522726,-0.000486663,-2.09564,-1.57065,1.57142,0.785902,-1.5708,-0.523599,-1.43655e-07,-2.09439,-1.5708,1.5708,0.7854,0.000590975,0.000749284,0.000562186,0.0002779,-9.44223e-05,-0.000147169,-0.000203842,0,0,0,0,0,0,0,-0.0497324,-10.34,0.832583,20.6226,-0.814497,-0.482274,-0.310171,-0.022681,-1.19221,0.693071,2.09058,-0.252932,-0.487048,-0.372033
2069356,1,-1.5708,-0.522726,-0.000488612,-2.09564,-1.57065,1.57141,0.785898,-1.5708,-0.523599,-1.43655e-07,-2.09439,-1.5708,1.5708,0.7854,-0.000162828,0.000499522,-0.000274823,0.000185266,0.000174411,0.000139247,-0.000610613,0,0,0,0,0,0,0,-0.0259286,-10.34,0.860354,20.6226,-0.820906,-0.488683,-0.297354,-0.0247069,-1.19362,0.690408,2.09127,-0.252978,-0.487361,-0.371704
2069358,0.98,-1.5708,-0.522726,-0.000488612,-2.09564,-1.57065,1.57141,0.785901,-1.5708,-0.523599,-1.43655e-07,-2.09439,-1.5708,1.5708,0.7854,0.000113236,0.00022201,-0.000524286,-0.000443537,7.75159e-05,-0.000333711,4.50951e-05,0,0,0,0,0,0,0,-0.0259286,-10.34,0.860354,20.6702,-0.820906,-0.475866,-0.310171,-0.0269115,-1.19882,0.687467,2.09446,-0.2531,-0.487694,-0.371031
2069359,0.98,-1.5708,-0.522728,-0.000488612,-2.09564,-1.57065,1.57142,0.785904,-1.5708,-0.523599,-1.43655e-07,-2.09439,-1.5708,1.5708,0.7854,-0.000481321,-0.000408805,-0.000349524,0.00026112,5.16772e-05,1.4885e-05,0.00074214,0,0,0,0,0,0,0,-0.00212494,-10.3162,0.860354,20.6464,-0.820906,-0.482274,-0.329397,-0.0269104,-1.2007,0.687435,2.09612,-0.253148,-0.487663,-0.370679
2069360,0.98,-1.5708,-0.52273,-0.000486663,-2.09564,-1.57065,1.57142,0.785899,-1.5708,-0.523599,-1.43655e-07,-2.09439,-1.5708,1.5708,0.7854,0.000792743,-0.000829349,0.000416598,0.00017408,-0.000202907,9.92334e-06,-0.00116675,0,0,0,0,0,0,0,-0.0497324,-10.2924,0.832583,20.6464,-0.814497,-0.482274,-0.284536,-0.0265137,-1.19974,0.687886,2.09612,-0.253128,-0.487526,-0.37034
2069361,0.98,-1.5708,-0.522728,-0.000488612,-2.09564,-1.57065,1.57142,0.785902,-1.5708,-0.523599,-1.43655e-07,-2.09439,-1.5708,1.5708,0.7854,0.000528495,3.91273e-06,-0.000371882,0.000116054,0.000102087,0.000243974,0.000171601,0,0,0,0,0,0,0,-0.0497324,-10.3162,0.860354,20.6464,-0.820906,-0.488683,-0.310171,-0.0265653,-1.19665,0.687648,2.09488,-0.253075,-0.48742,-0.370018
2069362,0.98,-1.5708,-0.522726,-0.000488612,-2.09564,-1.57065,1.57141,0.785899,-1.5708,-0.523599,-1.43655e-07,-2.09439,-1.5708,1.5708,0.7854,-0.000204482,0.00055942,-0.000247921,-0.000479443,0.000474959,0.00016265,-0.000122958,0,0,0,0,0,0,0,-0.0259286,-10.34,0.860354,20.6702,-0.831892,-0.488683,-0.303762,-0.0267323,-1.19421,0.68732,2.09394,-0.253038,-0.48733,-0.369687
2069363,0.98,-1.5708,-0.522728,-0.000486663,-2.09564,-1.57065,1.57142,0.785903,-1.5708,-0.523597,-2.64366e-06,-2.09439,-1.5708,1.5708,0.7854,0.000420491,-0.000183865,0.000484333,0.00135081,0.000113189,0.000108433,0.000630105,-0.00327632,0.00177864,-0.0025,0.00165757,-0.00155807,0.005,0.000207453,-0.0497324,-10.3162,0.832583,20.5988,-0.826399,-0.488683,-0.322988,-0.0268,-1.19298,0.687171,2.09349,-0.253025,-0.487236,-0.369339
2069364,0.98,-1.5708,-0.522728,-0.000490282,-2.09564,-1.57065,1.57142,0.785898,-1.57081,-0.523593,-7.64366e-06,-2.09439,-1.5708,1.57081,0.7854,0.000280327,-0.000122577,-0.000883537,0.000343726,-0.000127991,7.22887e-05,-0.000292007,-0.00655263,0.00355727,-0.005,0.00331513,-0.00311614,0.01,0.000414907,-0.0497324,-10.3162,0.884158,20.6226,-0.820906,-0.488683,-0.303762,-0.0269474,-1.19119,0.686919,2.09238,-0.253007,-0.487155,-0.36899
2069365,0.98,-1.5708,-0.522726,-0.000488612,-2.09564,-1.57065,1.57142,0.785901,-1.57082,-0.523588,-1.51437e-05,-2.09438,-1.57081,1.57083,0.785401,0.000186885,-8.17178e-05,-3.22128e-05,0.000785963,-8.53275e-05,0.000285551,4.26875e-05,-0.00982895,0.00533591,-0.0075,0.0049727,-0.00467421,0.015,0.00062236,-0.0497324,-10.3162,0.860354,20.5988,-0.820906,-0.495092,-0.310171,-0.0268832,-1.18869,0.687069,2.09071,-0.252981,-0.48704,-0.368652
2069366,0.98,-1.57081,-0.522728,-0.000490537,-2.09564,-1.57065,1.57142,0.785902,-1.57083,-0.523581,-2.51437e-05,-2.09438,-1.57081,1.57085,0.785402,-0.00221985,-0.00181772,-0.00270307,-0.00114646,0.000553467,-4.69913e-05,0.0010118,-0.0131053,0.00711455,-0.01,0.00663027,-0.00623228,0.02,0.000829814,-0.0775034,-10.2408,0.70563,20.6702,-0.837385,-0.488683,-0.336721,-0.0254624,-1.18543,0.689258,2.08903,-0.252937,-0.486716,-0.368323
2069367,0.98,-1.5708,-0.522734,-0.000490297,-2.09564,-1.57065,1.57141,0.785896,-1.57085,-0.523572,-3.76437e-05,-2.09437,-1.57082,1.57087,0.785403,-0.00148632,-0.00407455,-0.00483702,-0.00141392,0.00182704,-0.000506045,-0.00102089,-0.0163816,0.00889318,-0.0125,0.00828783,-0.00779035,0.025,0.00103727,-0.355213,-9.98691,0.277163,20.698,-0.876753,-0.475866,-0.290945,-0.0205772,-1.17883,0.696525,2.08693,-0.252813,-0.485819,-0.368018
2069368,0.98,-1.5708,-0.522728,-0.000501669,-2.09564,-1.57065,1.57141,0.785899,-1.57087,-0.523561,-5.26437e-05,-2.09436,-1.57083,1.5709,0.785404,-0.000480434,-0.000356337,-0.00777395,-0.000942614,0.00226919,-0.000812082,0.000506204,-0.0196579,0.0106718,-0.015,0.0099454,-0.00934842,0.03,0.00124472,-0.807484,-9.80838,-0.1275,20.698,-0.905134,-0.463048,-0.322988,-0.0115532,-1.16948,0.710148,2.08477,-0.252625,-0.484207,-0.367747
2069369,0.98,-1.5708,-0.522723,-0.000515509,-2.09564,-1.57065,1.57141,0.785897,-1.57089,-0.523549,-7.01437e-05,-2.09435,-1.57084,1.57094,0.785405,-0.00048944,-0.0010956,-0.00797309,0.00264657,0.0019536,-6.66698e-05,-0.00132404,-0.0229342,0.0124505,-0.0175,0.011603,-0.0109065,0.035,0.00145217,-1.26372,-9.60605,-0.635312,20.698,-0.917036,-0.475866,-0.278127,4.65567e-05,-1.16083,0.728192,2.08294,-0.252453,-0.482077,-0.367496
2069370,0.98,-1.57081,-0.522713,-0.000539362,-2.09564,-1.57066,1.57142,0.785903,-1.57091,-0.523534,-9.01437e-05,-2.09433,-1.57085,1.57098,0.785407,-0.00210638,0.000896419,-0.0116732,0.00148048,0.00106504,-4.44465e-05,0.000541458,-0.0262105,0.0142291,-0.02,0.0132605,-0.0124646,0.04,0.00165963,-1.66442,-9.50687,-1.01617,20.7218,-0.910628,-0.475866,-0.31658,0.0128773,-1.15345,0.748861,2.08077,-0.252336,-0.479516,-0.367247
2069371,0.98,-1.57082,-0.522696,-0.000560425,-2.09563,-1.57066,1.57142,0.785904,-1.57094,-0.523518,-0.000112644,-2.09432,-1.57087,1.57102,0.785409,-0.00299866,0.00405856,-0.00957877,0.0023981,0.000506577,-0.000504349,0.000598331,-0.0294868,0.0160077,-0.0225,0.0149181,-0.0140226,0.045,0.00186708,-2.09288,-9.48306,-1.47241,20.6702,-0.905134,-0.463048,-0.322988,0.02571,-1.15024,0.770541,2.08004,-0.252383,-0.476593,-0.366969
2069372,0.98,-1.57083,-0.522691,-0.000587428,-2.09563,-1.57066,1.57143,0.785895,-1.57098,-0.523501,-0.000137644,-2.0943,-1.57088,1.57107,0.785411,-0.00185493,0.00314542,-0.0137148,0.00230906,0.000541169,0.00601671,-0.00244942,-0.0327632,0.0177864,-0.025,0.0165757,-0.0155807,0.05,0.00207453,-2.47374,-9.32834,-1.8255,20.6464,-0.910628,-0.507909,-0.246084,0.0359934,-1.15365,0.789918,2.08249,-0.252698,-0.473589,-0.36666
2069373,0.98,-1.57084,-0.522681,-0.000606579,-2.09563,-1.57066,1.57144,0.785902,-1.57102,-0.52348,-0.000167644,-2.09428,-1.5709,1.57113,0.785413,-0.00579068,0.00641985,-0.0150816,0.00165451,-0.00452305,0.00609751,0.000503284,-0.0384892,0.0208342,-0.03,0.0194205,-0.0182686,0.06,0.0023951,-2.77526,-9.20535,-2.25396,20.6464,-0.905134,-0.553685,-0.303762,0.0427708,-1.16254,0.806172,2.08806,-0.253231,-0.470551,-0.366315
2069374,0.98,-1.57086,-0.522673,-0.000629705,-2.09562,-1.57066,1.57145,0.785902,-1.57106,-0.523456,-0.000202644,-2.09426,-1.57092,1.5712,0.785416,-0.00895486,0.00816023,-0.0185349,0.00301684,-0.00255769,0.00854103,0.000572882,-0.0442153,0.023882,-0.035,0.0222653,-0.0209564,0.07,0.00271567,-3.07677,-9.05063,-2.58325,20.698,-0.928023,-0.539952,-0.310171,0.0476636,-1.17761,0.821854,2.09733,-0.253904,-0.467199,-0.365889
2069375,0.98,-1.57087,-0.522671,-0.000655176,-2.09562,-1.57066,1.57145,0.785905,-1.57111,-0.523429,-0.000242644,-2.09424,-1.57095,1.57128,0.785419,-0.0124403,0.00411264,-0.0189496,0.00232882,-0.000336137,0.00787038,0.00136527,-0.0499414,0.0269298,-0.04,0.0251101,-0.0236443,0.08,0.00303624,-3.33068,-8.80069,-2.86493,20.698,-0.972883,-0.456639,-0.336721,0.0517393,-1.19459,0.838168,2.10845,-0.25463,-0.46329,-0.365398
2069376,0.98,-1.5709,-0.522662,-0.000685498,-2.09562,-1.57066,1.57146,0.785905,-1.57116,-0.523399,-0.000287644,-2.09421,-1.57097,1.57137,0.785422,-0.0199667,0.0049615,-0.0211352,0.00196571,0.00145539,0.00672619,0.000638909,-0.0556675,0.0299776,-0.045,0.0279549,-0.0263321,0.09,0.0033568,-3.50524,-8.57059,-3.19421,20.821,-1.02415,-0.346776,-0.329397,0.0556247,-1.20502,0.855313,2.1183,-0.255351,-0.458534,-0.364911
2069377,0.98,-1.57093,-0.522652,-0.000715003,-2.09561,-1.57066,1.57146,0.785903,-1.57123,-0.523366,-0.000337644,-2.09418,-1.571,1.57147,0.785426,-0.0253973,0.00526759,-0.0210073,0.00053701,-0.00139876,0.00700549,-4.87783e-05,-0.0613936,0.0330254,-0.05,0.0307997,-0.02902,0.1,0.00367737,-3.81072,-8.32065,-3.72583,20.8725,-1.0919,-0.257054,-0.31658,0.0602506,-1.20759,0.873909,2.12719,-0.256136,-0.452607,-0.36447
2069378,0.98,-1.57096,-0.522629,-0.000760929,-2.0956,-1.57066,1.57148,0.785908,-1.57129,-0.52333,-0.000392644,-2.09414,-1.57103,1.57158,0.78543,-0.0232664,0.0104232,-0.0295816,0.00206774,-0.00392609,0.0122183,0.00142554,-0.0671197,0.0360732,-0.055,0.0336445,-0.0317078,0.11,0.00399794,-4.36614,-8.14212,-4.1781,20.9439,-1.14866,-0.172826,-0.355947,0.0652499,-1.20795,0.893814,2.13779,-0.257143,-0.445441,-0.364079
2069379,0.98,-1.571,-0.522604,-0.000808706,-2.0956,-1.57067,1.5715,0.785903,-1.57137,-0.523291,-0.000452644,-2.09411,-1.57107,1.5717,0.785434,-0.0310474,0.013664,-0.0348019,0.00313785,-0.00717422,0.0181286,-0.0005077,-0.0728458,0.039121,-0.06,0.0364894,-0.0343957,0.12,0.0043185,-4.79461,-7.93979,-4.68591,21.0193,-1.17705,-0.140783,-0.31658,0.0709651,-1.21319,0.916833,2.15244,-0.258477,-0.436888,-0.363737
2069380,0.98,-1.57105,-0.522574,-0.000859318,-2.09558,-1.57068,1.57153,0.785902,-1.57144,-0.523249,-0.000517644,-2.09407,-1.5711,1.57183,0.785439,-0.0383893,0.020312,-0.0409358,0.00480161,-0.0106428,0.0275094,-0.000575826,-0.0785718,0.0421688,-0.065,0.0393342,-0.0370835,0.13,0.00463907,-5.07232,-7.78903,-5.24133,21.0709,-1.17155,-0.121556,-0.310171,0.0798788,-1.22894,0.947056,2.17279,-0.260173,-0.426495,-0.363445
2069381,0.98,-1.57111,-0.522543,-0.00091849,-2.09556,-1.5707,1.57157,0.785899,-1.57153,-0.523203,-0.000587644,-2.09403,-1.57114,1.57197,0.785444,-0.0414608,0.0275387,-0.0454622,0.00764717,-0.0137461,0.0346951,-0.00157068,-0.0842979,0.0452167,-0.07,0.042179,-0.0397714,0.14,0.00495964,-5.4254,-7.6105,-5.67376,21.0431,-1.14866,-0.115148,-0.278127,0.0923615,-1.26067,0.984984,2.20048,-0.2623,-0.414194,-0.363171
2069382,0.98,-1.57116,-0.522511,-0.000979587,-2.09555,-1.57071,1.57163,0.785895,-1.57162,-0.523155,-0.000662644,-2.09398,-1.57119,1.57212,0.785449,-0.0462294,0.026993,-0.0460721,0.0122336,-0.0110417,0.0431821,-0.00250518,-0.090024,0.0482645,-0.075,0.0450238,-0.0424592,0.15,0.0052802,-5.8023,-7.43594,-6.07843,21.0431,-1.13127,-0.186559,-0.23876,0.104387,-1.30613,1.02446,2.23337,-0.264876,-0.400528,-0.362882
2069383,0.98,-1.57123,-0.522484,-0.0010328,-2.09553,-1.57073,1.57171,0.785888,-1.57172,-0.523103,-0.000745144,-2.09393,-1.57123,1.57229,0.785455,-0.05243,0.0278123,-0.0485963,0.0133226,-0.013808,0.0560478,-0.00380635,-0.0975663,0.0521734,-0.0825,0.04868,-0.046191,0.164879,0.0056568,-5.92925,-7.18204,-6.53467,21.1423,-1.1093,-0.321141,-0.181082,0.111203,-1.35221,1.05759,2.26515,-0.267761,-0.386132,-0.36255
2069384,0.98,-1.57131,-0.522461,-0.001092,-2.09552,-1.57074,1.5718,0.785882,-1.57182,-0.523047,-0.000835144,-2.09388,-1.57128,1.57247,0.785461,-0.060023,0.0274582,-0.052194,0.0130401,-0.0141932,0.0662399,-0.00470771,-0.105109,0.0560822,-0.09,0.0523363,-0.0499227,0.179759,0.0060334,-6.08001,-6.87656,-6.91552,21.2931,-1.13127,-0.353185,-0.122488,0.111513,-1.38872,1.08156,2.29261,-0.270781,-0.371338,-0.362091
2069385,0.98,-1.57139,-0.52243,-0.00115701,-2.0955,-1.57075,1.57188,0.785887,-1.57193,-0.522987,-0.000932644,-2.09382,-1.57134,1.57266,0.785467,-0.0655541,0.0292158,-0.0565022,0.0154167,-0.0138747,0.0703932,-0.00144305,-0.112651,0.0599911,-0.0975,0.0559925,-0.0536545,0.194638,0.00641,-6.20696,-6.65042,-7.21704,21.3446,-1.17155,-0.289098,-0.168264,0.106763,-1.41216,1.0978,2.31595,-0.273821,-0.356207,-0.361369
2069386,0.98,-1.57148,-0.522396,-0.00122505,-2.09547,-1.57077,1.57198,0.785886,-1.57205,-0.522923,-0.00103764,-2.09376,-1.57139,1.57287,0.785474,-0.0748466,0.0329656,-0.0609519,0.0160103,-0.0176321,0.0786198,-0.00119939,-0.120193,0.0639,-0.105,0.0596487,-0.0573862,0.209518,0.0067866,-6.23076,-6.39651,-7.5979,21.4438,-1.23289,-0.218602,-0.161856,0.0991418,-1.42398,1.10892,2.33661,-0.276849,-0.340671,-0.360269
2069387,0.98,-1.57158,-0.522362,-0.00130179,-2.09545,-1.57078,1.5721,0.785887,-1.57218,-0.522855,-0.00115014,-2.0937,-1.57145,1.57309,0.785481,-0.0852026,0.0316722,-0.0680963,0.0159083,-0.0152991,0.0899822,-0.000324877,-0.127735,0.0678089,-0.1125,0.0633049,-0.061118,0.224397,0.00716319,-6.38152,-6.095,-8.07794,21.5668,-1.31254,-0.160009,-0.174673,0.0922225,-1.42665,1.11939,2.35656,-0.279867,-0.324378,-0.358759
2069388,0.98,-1.57167,-0.522311,-0.00139328,-2.09542,-1.57079,1.57224,0.785887,-1.57232,-0.522784,-0.00127014,-2.09363,-1.57152,1.57333,0.785489,-0.0880533,0.0378315,-0.0787607,0.0168328,-0.017946,0.104114,-0.000216585,-0.135278,0.0717178,-0.12,0.0669611,-0.0648497,0.239277,0.00753979,-6.73461,-5.96805,-8.4826,21.6422,-1.40318,-0.127965,-0.174673,0.0894979,-1.42216,1.13412,2.37769,-0.282932,-0.30691,-0.35688
2069389,0.98,-1.57178,-0.52226,-0.0014909,-2.09539,-1.57082,1.5724,0.785884,-1.57246,-0.522708,-0.00139764,-2.09356,-1.57159,1.57359,0.785497,-0.0933346,0.0449728,-0.0847993,0.0214174,-0.0210349,0.122603,-0.00136509,-0.14282,0.0756267,-0.1275,0.0706174,-0.0685815,0.254156,0.00791639,-7.11547,-5.81729,-8.96661,21.6898,-1.47093,-0.172826,-0.141714,0.0905618,-1.4185,1.15329,2.40296,-0.286245,-0.288474,-0.354681
2069390,0.98,-1.5719,-0.522205,-0.0015859,-2.09535,-1.57085,1.57258,0.785887,-1.57261,-0.522628,-0.00153264,-2.09349,-1.57166,1.57386,0.785505,-0.10301,0.0470318,-0.0895335,0.02725,-0.0240339,0.141751,0.000310641,-0.150362,0.0795356,-0.135,0.0742736,-0.0723132,0.269036,0.00829299,-7.24242,-5.66653,-9.57361,21.6422,-1.52128,-0.244237,-0.174673,0.0924326,-1.41992,1.17271,2.43183,-0.289977,-0.269662,-0.352214
2069391,0.98,-1.57203,-0.522143,-0.00169545,-2.09531,-1.57089,1.57278,0.785887,-1.57277,-0.522545,-0.00167514,-2.09341,-1.57174,1.57414,0.785514,-0.110652,0.04958,-0.0978156,0.0325656,-0.0270754,0.160878,-3.02648e-05,-0.157904,0.0834445,-0.1425,0.0779298,-0.076045,0.283915,0.00866959,-7.46856,-5.56339,-10.0021,21.666,-1.54417,-0.321141,-0.168264,0.093903,-1.41967,1.18976,2.45905,-0.294107,-0.25072,-0.349545
2069392,0.98,-1.57217,-0.522084,-0.00181706,-2.09526,-1.57094,1.573,0.785885,-1.57293,-0.522458,-0.00182514,-2.09333,-1.57182,1.57444,0.785523,-0.116589,0.0503234,-0.105483,0.0327499,-0.0354259,0.17976,-0.000494894,-0.165447,0.0873534,-0.15,0.081586,-0.0797767,0.298794,0.00904619,-7.77007,-5.41263,-10.3591,21.7176,-1.53319,-0.398961,-0.155447,0.0951837,-1.41105,1.20427,2.4815,-0.298607,-0.23171,-0.346738
2069393,0.98,-1.57231,-0.522026,-0.00193435,-2.09522,-1.57099,1.57324,0.785885,-1.57311,-0.522366,-0.00198513,-2.09324,-1.5719,1.57476,0.785532,-0.126604,0.0488933,-0.108842,0.034909,-0.0416175,0.198906,-0.00032993,-0.174037,0.0917964,-0.15999,0.0857532,-0.0842096,0.31596,0.00944466,-7.9724,-5.18649,-10.8114,21.8167,-1.51579,-0.5015,-0.155447,0.095266,-1.38956,1.21436,2.49892,-0.303514,-0.212925,-0.343837
2069394,0.98,-1.57246,-0.521964,-0.00205104,-2.09517,-1.57106,1.5735,0.785879,-1.57329,-0.52227,-0.00215511,-2.09315,-1.57199,1.57509,0.785542,-0.133685,0.0544581,-0.113024,0.0392184,-0.0520205,0.223927,-0.00215273,-0.182627,0.0962395,-0.16998,0.0899203,-0.0886425,0.333126,0.00984314,-8.12316,-4.98416,-11.1923,21.8167,-1.46544,-0.539952,-0.103262,0.0915245,-1.35366,1.21557,2.51145,-0.308831,-0.195006,-0.340861
2069395,0.98,-1.57261,-0.521898,-0.00217374,-2.09513,-1.57112,1.57377,0.785879,-1.57348,-0.522169,-0.00233508,-2.09306,-1.57208,1.57544,0.785552,-0.143145,0.0571862,-0.120157,0.0414096,-0.0571724,0.235158,-0.00167251,-0.191218,0.100682,-0.17997,0.0940874,-0.0930753,0.350292,0.0102416,-8.27391,-4.82944,-11.5215,21.9873,-1.48741,-0.456639,-0.0968531,0.0826068,-1.30865,1.20578,2.52106,-0.314518,-0.178452,-0.337789
2069396,0.98,-1.57278,-0.521829,-0.00229853,-2.09507,-1.57118,1.57406,0.785877,-1.57368,-0.522064,-0.00252504,-2.09296,-1.57218,1.57581,0.785563,-0.152304,0.0635415,-0.123254,0.0488153,-0.0644965,0.253957,-0.00158973,-0.199808,0.105126,-0.18996,0.0982545,-0.0975082,0.367458,0.0106401,-8.40087,-4.73026,-11.954,22.0627,-1.52769,-0.392553,-0.0840357,0.0693612,-1.26037,1.18619,2.52973,-0.320484,-0.163229,-0.334569
2069397,0.98,-1.57295,-0.521753,-0.00243334,-2.09501,-1.57125,1.57437,0.785877,-1.57389,-0.521954,-0.00272499,-2.09286,-1.57228,1.57619,0.785574,-0.164861,0.0649152,-0.130952,0.0512712,-0.065152,0.270164,-0.00105982,-0.208399,0.109569,-0.19995,0.102422,-0.101941,0.384623,0.0110386,-8.627,-4.62711,-12.561,22.1143,-1.58995,-0.379735,-0.0840357,0.0533966,-1.21058,1.15875,2.53754,-0.326621,-0.148989,-0.331166
2069398,0.98,-1.57313,-0.521667,-0.00258773,-2.09494,-1.57132,1.5747,0.785879,-1.57411,-0.52184,-0.00293493,-2.09275,-1.57239,1.57659,0.785585,-0.164285,0.0700762,-0.135199,0.0591411,-0.0701376,0.292401,5.53131e-06,-0.216989,0.114012,-0.20994,0.106589,-0.106374,0.401789,0.0114371,-9.08324,-4.5795,-13.1164,22.0627,-1.6577,-0.398961,-0.103262,0.0342407,-1.15834,1.12287,2.5438,-0.332924,-0.135599,-0.327584
2069399,0.98,-1.5733,-0.521573,-0.00275077,-2.09487,-1.5714,1.57506,0.785881,-1.57433,-0.521722,-0.00315486,-2.09264,-1.5725,1.57701,0.785597,-0.166697,0.0777419,-0.142869,0.0629416,-0.0749042,0.319045,0.000478405,-0.22558,0.118455,-0.21993,0.110756,-0.110807,0.418955,0.0118355,-9.58709,-4.5795,-13.6242,22.0905,-1.70256,-0.482274,-0.116079,0.00672264,-1.1069,1.07234,2.5494,-0.339585,-0.123732,-0.323849
2069400,0.98,-1.5735,-0.521474,-0.00291714,-2.0948,-1.57149,1.57544,0.785885,-1.57457,-0.521599,-0.00338478,-2.09253,-1.57261,1.57745,0.78561,-0.175097,0.0875433,-0.149008,0.0654904,-0.0752452,0.338313,0.000556296,-0.23417,0.122898,-0.22992,0.114923,-0.11524,0.436121,0.012234,-9.94017,-4.6033,-14.2312,22.1143,-1.71355,-0.611364,-0.122488,-0.0321987,-1.06758,1.0042,2.55974,-0.346942,-0.113886,-0.31999
2069401,0.98,-1.57371,-0.521375,-0.00310012,-2.09472,-1.57158,1.57584,0.785885,-1.57481,-0.521471,-0.00362469,-2.09241,-1.57273,1.5779,0.785622,-0.187097,0.092837,-0.161942,0.0719456,-0.079732,0.356713,0.000133505,-0.242761,0.127341,-0.23991,0.11909,-0.119673,0.453287,0.0126325,-10.1901,-4.55173,-14.7112,22.0905,-1.73094,-0.740453,-0.116079,-0.0775372,-1.04802,0.926147,2.57912,-0.355113,-0.105326,-0.316044
2069402,0.98,-1.57392,-0.521271,-0.0032852,-2.09463,-1.57167,1.57625,0.785882,-1.57506,-0.52134,-0.00387459,-2.09228,-1.57286,1.57837,0.785635,-0.187962,0.0964302,-0.170589,0.0759571,-0.0838325,0.372351,-0.00109779,-0.251351,0.131784,-0.2499,0.123257,-0.124105,0.470453,0.013031,-10.6464,-4.47635,-15.1675,22.0905,-1.72545,-0.785314,-0.0840357,-0.123458,-1.04304,0.846913,2.60502,-0.363884,-0.0971278,-0.312069
2069403,0.98,-1.57413,-0.521158,-0.00347979,-2.09454,-1.57177,1.57669,0.785886,-1.57532,-0.521203,-0.00413448,-2.09216,-1.57299,1.57886,0.785649,-0.195842,0.100639,-0.175709,0.0815901,-0.0922194,0.394345,0.000692293,-0.260345,0.136498,-0.25989,0.127696,-0.128867,0.488346,0.0134316,-10.9479,-4.47635,-15.5206,22.1143,-1.70256,-0.868627,-0.122488,-0.171185,-1.04304,0.765052,2.63289,-0.373088,-0.0894863,-0.308102
2069404,0.98,-1.57435,-0.521051,-0.00366003,-2.09444,-1.57188,1.57716,0.785885,-1.57559,-0.521062,-0.00440436,-2.09202,-1.57312,1.57937,0.785662,-0.204387,0.100978,-0.176067,0.0889896,-0.0980535,0.414931,-1.31894e-05,-0.269339,0.141213,-0.26988,0.132134,-0.133629,0.50624,0.0138322,-11.2533,-4.3494,-16.0284,22.0151,-1.69157,-0.919896,-0.10967,-0.225658,-1.03816,0.672732,2.65761,-0.382593,-0.0832278,-0.304168
2069405,0.98,-1.57458,-0.520934,-0.00386607,-2.09435,-1.57199,1.57763,0.785883,-1.57587,-0.520916,-0.00468423,-2.09189,-1.57326,1.57989,0.785677,-0.212311,0.10639,-0.184065,0.0892686,-0.102414,0.431151,-0.00072087,-0.278332,0.145928,-0.27987,0.136573,-0.138391,0.524134,0.0142328,-11.5271,-4.30179,-16.3339,22.1143,-1.68608,-0.862218,-0.0904444,-0.289291,-1.02222,0.565586,2.67654,-0.392282,-0.078777,-0.300297
2069406,0.98,-1.57481,-0.520814,-0.00408053,-2.09424,-1.5721,1.57812,0.785885,-1.57616,-0.520765,-0.00497409,-2.09175,-1.5734,1.58043,0.785691,-0.220253,0.108677,-0.193301,0.0969271,-0.103604,0.447397,0.000231497,-0.287326,0.150642,-0.28986,0.141011,-0.143153,0.542028,0.0146334,-11.6818,-4.19864,-16.6354,22.0389,-1.72545,-0.798131,-0.10967,-0.359765,-0.996539,0.447313,2.69144,-0.402084,-0.0757402,-0.296493
2069407,0.98,-1.57506,-0.520688,-0.00429891,-2.09413,-1.57221,1.57864,0.785891,-1.57645,-0.52061,-0.00527394,-2.0916,-1.57355,1.58099,0.785706,-0.23222,0.115295,-0.201169,0.10227,-0.104789,0.467636,0.00110377,-0.296319,0.155357,-0.29985,0.14545,-0.147915,0.559922,0.015034,-11.7572,-4.14706,-16.8893,21.9873,-1.76481,-0.791722,-0.135305,-0.432447,-0.963117,0.325186,2.70293,-0.411845,-0.0732747,-0.292756
2069408,0.98,-1.57532,-0.520549,-0.00453492,-2.09401,-1.57232,1.5792,0.785896,-1.57676,-0.52045,-0.00558378,-2.09145,-1.5737,1.58157,0.785722,-0.241801,0.122056,-0.209191,0.10542,-0.11034,0.492893,0.00195655,-0.305313,0.160072,-0.30984,0.149888,-0.152677,0.577815,0.0154346,-11.781,-4.17484,-17.0162,21.9635,-1.80968,-0.933629,-0.168264,-0.504366,-0.927658,0.203631,2.71316,-0.421544,-0.0708775,-0.289097
2069409,0.98,-1.57559,-0.520398,-0.0047755,-2.09389,-1.57244,1.57977,0.785898,-1.57707,-0.520285,-0.00590361,-2.0913,-1.57386,1.58217,0.785738,-0.250378,0.131071,-0.219046,0.111004,-0.11388,0.513315,0.000829647,-0.314307,0.164786,-0.31983,0.154327,-0.157439,0.595709,0.0158352,-11.8048,-4.25021,-17.1194,21.9397,-1.84447,-1.00412,-0.155447,-0.574516,-0.899995,0.0844116,2.72687,-0.431332,-0.0685142,-0.285545
2069410,0.98,-1.57586,-0.520254,-0.00502585,-2.09375,-1.57256,1.58036,0.785903,-1.5774,-0.520116,-0.00623343,-2.09114,-1.57402,1.58278,0.785754,-0.256979,0.135367,-0.226187,0.11866,-0.118254,0.535504,0.00173989,-0.3233,0.169501,-0.32982,0.158765,-0.162201,0.613603,0.0162358,-11.8326,-4.22244,-17.2186,21.8882,-1.87193,-1.00412,-0.18749,-0.64344,-0.883484,-0.0328919,2.74476,-0.441297,-0.0664309,-0.282155
2069411,0.98,-1.57614,-0.5201,-0.00528,-2.09361,-1.57269,1.58096,0.785908,-1.57773,-0.519941,-0.00657324,-2.09097,-1.57419,1.58341,0.78577,-0.271985,0.138811,-0.236197,0.127002,-0.121265,0.55579,0.00651251,-0.332294,0.174216,-0.33981,0.163204,-0.166963,0.631497,0.0166364,-11.8048,-4.22244,-17.3693,21.7414,-1.88933,-0.997716,-0.206716,-0.710622,-0.870758,-0.147916,2.76175,-0.451333,-0.0646396,-0.278998
2069412,0.98,-1.57643,-0.519946,-0.00554683,-2.09347,-1.57283,1.58158,0.785904,-1.57807,-0.519763,-0.00692304,-2.09081,-1.57436,1.58406,0.785788,-0.278776,0.146452,-0.247583,0.128867,-0.124299,0.578604,0.00282951,-0.341287,0.17893,-0.3498,0.167642,-0.171725,0.649391,0.0170371,-11.9079,-4.19864,-17.4963,21.7652,-1.88933,-1.02976,-0.155447,-0.773064,-0.856734,-0.256796,2.77532,-0.461354,-0.062733,-0.276131
2069413,0.98,-1.57672,-0.519788,-0.0058328,-2.09333,-1.57297,1.58224,0.785907,-1.57842,-0.519579,-0.00728283,-2.09064,-1.57454,1.58473,0.785805,-0.287089,0.150128,-0.257742,0.134696,-0.132471,0.596853,0.00217637,-0.350129,0.183705,-0.35979,0.172163,-0.176586,0.667099,0.0174296,-12.0349,-4.17484,-17.524,21.7414,-1.86094,-1.10026,-0.155447,-0.829647,-0.844117,-0.357575,2.78811,-0.471451,-0.060572,-0.27355
2069414,0.98,-1.57703,-0.519621,-0.00611995,-2.09318,-1.57312,1.5829,0.78591,-1.57878,-0.51939,-0.00765261,-2.09046,-1.57472,1.58541,0.785823,-0.293335,0.152672,-0.27512,0.141749,-0.141777,0.613563,0.00115981,-0.358972,0.188479,-0.36978,0.176684,-0.181447,0.684808,0.017822,-12.0587,-4.14706,-17.6232,21.7414,-1.83806,-1.13321,-0.141714,-0.879728,-0.829617,-0.448574,2.79898,-0.481502,-0.0579806,-0.271208
2069415,0.98,-1.57734,-0.519456,-0.0064162,-2.09303,-1.57328,1.58356,0.785911,-1.57915,-0.519197,-0.00803238,-2.09028,-1.5749,1.58611,0.785841,-0.303387,0.157896,-0.279231,0.145223,-0.145458,0.626075,0.00069899,-0.367814,0.193253,-0.37977,0.181205,-0.186309,0.702516,0.0182145,-12.1103,-4.12326,-17.774,21.8167,-1.80418,-1.03617,-0.135305,-0.922771,-0.807751,-0.528719,2.80525,-0.491311,-0.0547692,-0.269043
2069416,0.98,-1.57766,-0.519281,-0.00672532,-2.09286,-1.57344,1.58425,0.785914,-1.57952,-0.518999,-0.00842214,-2.09009,-1.5751,1.58684,0.78586,-0.312293,0.162578,-0.284859,0.153937,-0.151,0.640034,0.00133434,-0.376656,0.198027,-0.38976,0.185726,-0.19117,0.720225,0.018607,-12.2095,-4.14706,-17.8018,21.7414,-1.81608,-0.952855,-0.155447,-0.962801,-0.778895,-0.604745,2.80719,-0.500949,-0.0514663,-0.266992
2069417,0.98,-1.57799,-0.519102,-0.00704316,-2.0927,-1.5736,1.58498,0.785915,-1.57991,-0.518796,-0.00882189,-2.0899,-1.57529,1.58757,0.785879,-0.319877,0.171773,-0.297438,0.161547,-0.154868,0.668146,0.00023534,-0.385498,0.202802,-0.39975,0.190247,-0.196031,0.737933,0.0189995,-12.388,-4.17484,-17.8771,21.789,-1.83806,-1.05539,-0.135305,-1.00365,-0.746651,-0.682725,2.80537,-0.51045,-0.0485981,-0.265017
2069418,0.98,-1.57833,-0.518914,-0.00737355,-2.09252,-1.57376,1.58572,0.785918,-1.5803,-0.518589,-0.00923163,-2.08971,-1.57549,1.58833,0.785898,-0.32682,0.176877,-0.303404,0.166124,-0.157232,0.691289,-1.16401e-05,-0.39434,0.207576,-0.40974,0.194767,-0.200892,0.755642,0.019392,-12.4356,-4.22244,-17.9525,21.7414,-1.89482,-1.23575,-0.128897,-1.04692,-0.71698,-0.764174,2.80195,-0.519824,-0.0464441,-0.263104
2069419,0.98,-1.57868,-0.518715,-0.00772147,-2.09234,-1.57394,1.58646,0.785922,-1.58071,-0.518376,-0.00965136,-2.08951,-1.5757,1.5891,0.785918,-0.332476,0.183558,-0.317012,0.173519,-0.158694,0.704757,0.00405611,-0.403182,0.21235,-0.41973,0.199288,-0.205754,0.77335,0.0197845,-12.4634,-4.27402,-17.9287,21.666,-1.94609,-1.21653,-0.116079,-1.09378,-0.692917,-0.849894,2.79908,-0.529192,-0.0452298,-0.261237
2069420,0.98,-1.57905,-0.518515,-0.00806216,-2.09215,-1.57411,1.5872,0.785931,-1.58112,-0.518159,-0.0100811,-2.0893,-1.57591,1.58989,0.785938,-0.343235,0.19018,-0.323717,0.178073,-0.160324,0.712136,0.00457476,-0.412024,0.217125,-0.42972,0.203809,-0.210615,0.791059,0.020177,-12.388,-4.37717,-18.0279,21.6144,-1.98546,-1.08744,-0.155447,-1.14274,-0.674785,-0.937332,2.79758,-0.538686,-0.044712,-0.259382
2069421,0.98,-1.57941,-0.518307,-0.00842408,-2.09196,-1.5743,1.58798,0.785933,-1.58154,-0.517937,-0.0105208,-2.0891,-1.57612,1.5907,0.785959,-0.350942,0.19454,-0.335752,0.183248,-0.171244,0.733245,0.00736714,-0.420866,0.221899,-0.43971,0.20833,-0.215476,0.808767,0.0205695,-12.3364,-4.47635,-17.9525,21.6422,-2.01933,-1.00412,-0.135305,-1.19129,-0.662277,-1.02315,2.79802,-0.548405,-0.0444631,-0.257513
2069422,0.98,-1.57978,-0.518093,-0.00879372,-2.09176,-1.5745,1.58879,0.785932,-1.58197,-0.517711,-0.0109705,-2.08888,-1.57635,1.59153,0.785979,-0.358311,0.198666,-0.3476,0.187632,-0.176595,0.758748,0.00340345,-0.429708,0.226673,-0.4497,0.212851,-0.220337,0.826475,0.020962,-12.4118,-4.6033,-17.9009,21.6422,-2.00194,-1.01053,-0.077627,-1.23795,-0.652261,-1.10527,2.79969,-0.558325,-0.0442058,-0.255642
2069423,0.98,-1.58016,-0.517876,-0.0091879,-2.09156,-1.5747,1.58961,0.785928,-1.58241,-0.517479,-0.0114302,-2.08866,-1.57657,1.59237,0.786001,-0.362899,0.203711,-0.359302,0.19158,-0.187031,0.780904,-0.00132885,-0.437907,0.231335,-0.45969,0.217306,-0.225152,0.843502,0.0213431,-12.4634,-4.67868,-17.7264,21.6144,-1.95708,-1.10026,0.0322363,-1.28264,-0.642385,-1.18307,2.80206,-0.568402,-0.0438636,-0.253756
2069424,0.98,-1.58056,-0.517661,-0.00958986,-2.09136,-1.5749,1.59044,0.785935,-1.58285,-0.517243,-0.0118999,-2.08844,-1.5768,1.59323,0.786023,-0.379787,0.205696,-0.370341,0.193095,-0.19238,0.793959,0.00353153,-0.446106,0.235996,-0.46968,0.221761,-0.229968,0.860528,0.0217242,-12.3364,-4.70645,-17.6986,21.6422,-1.95708,-1.04258,0.0459692,-1.3239,-0.631496,-1.25443,2.80563,-0.578588,-0.0431115,-0.251739
2069425,0.98,-1.58097,-0.517438,-0.00999073,-2.09115,-1.5751,1.59127,0.78594,-1.58331,-0.517003,-0.0123795,-2.08822,-1.57703,1.59411,0.786045,-0.389005,0.212645,-0.376353,0.19911,-0.191801,0.806929,0.0015763,-0.454305,0.240658,-0.47967,0.226216,-0.234783,0.877554,0.0221053,-12.2333,-4.80563,-17.651,21.6144,-1.95158,-0.894261,0.0844213,-1.35904,-0.618838,-1.31647,2.81076,-0.588839,-0.041423,-0.249417
2069426,0.98,-1.58137,-0.517206,-0.0104071,-2.09093,-1.57531,1.59215,0.785949,-1.58377,-0.516757,-0.0128692,-2.08799,-1.57727,1.595,0.786067,-0.396547,0.217946,-0.384489,0.205847,-0.201872,0.825096,0.00248488,-0.462504,0.24532,-0.48966,0.230672,-0.239598,0.894581,0.0224863,-12.3126,-4.90482,-17.6748,21.6144,-1.9232,-0.933629,0.0587866,-1.39028,-0.605871,-1.37319,2.81682,-0.599182,-0.0390207,-0.246651
2069427,0.98,-1.58179,-0.516959,-0.0108459,-2.09071,-1.57553,1.59307,0.78595,-1.58424,-0.516507,-0.0133688,-2.08775,-1.57752,1.59592,0.78609,-0.40265,0.223966,-0.4008,0.209993,-0.207389,0.851817,-0.000590933,-0.470702,0.249981,-0.49965,0.235127,-0.244413,0.911607,0.0228674,-12.3602,-5.10715,-17.4447,21.666,-1.9406,-1.10666,0.129282,-1.42029,-0.594541,-1.42787,2.82298,-0.609521,-0.0362676,-0.243375
2069428,0.98,-1.58221,-0.516717,-0.0112884,-2.09048,-1.57576,1.59397,0.785958,-1.58472,-0.516253,-0.0138785,-2.08751,-1.57777,1.59684,0.786113,-0.408027,0.230558,-0.414449,0.213768,-0.21701,0.87192,-0.00157944,-0.478901,0.254643,-0.50964,0.239582,-0.249229,0.928633,0.0232485,-12.3602,-5.26187,-17.3971,21.666,-1.95708,-1.15885,0.16865,-1.44791,-0.588027,-1.47719,2.83063,-0.619693,-0.0331156,-0.239564
2069429,0.98,-1.58265,-0.516462,-0.0117395,-2.09025,-1.57598,1.5949,0.785971,-1.58521,-0.515993,-0.0143981,-2.08727,-1.57802,1.59779,0.786137,-0.418264,0.235974,-0.423438,0.220308,-0.216793,0.880274,0.00108425,-0.4871,0.259305,-0.51963,0.244037,-0.254044,0.94566,0.0236296,-12.3364,-5.4642,-17.3971,21.666,-2.03032,-1.09385,0.116465,-1.47225,-0.588515,-1.51902,2.84085,-0.629673,-0.0295929,-0.235181
2069430,0.98,-1.5831,-0.51621,-0.0122009,-2.09002,-1.57621,1.59585,0.785987,-1.5857,-0.515729,-0.0149277,-2.08702,-1.57828,1.59875,0.786161,-0.426012,0.245274,-0.440043,0.221495,-0.223524,0.917358,0.0067944,-0.495299,0.263966,-0.52962,0.248492,-0.258859,0.962686,0.0240107,-12.3602,-5.53958,-17.3971,21.6898,-2.0587,-1.0618,0.0844213,-1.49278,-0.598535,-1.55266,2.85487,-0.63957,-0.0258149,-0.230221
2069431,0.98,-1.58354,-0.515952,-0.012687,-2.08979,-1.57643,1.59679,0.786003,-1.5862,-0.515461,-0.0154673,-2.08677,-1.57854,1.59973,0.786185,-0.429988,0.247752,-0.454861,0.222945,-0.223388,0.930551,0.0104222,-0.503497,0.268628,-0.53961,0.252947,-0.263674,0.979712,0.0243917,-12.5625,-5.61496,-17.3971,21.6898,-2.10448,-0.997716,0.0651953,-1.50862,-0.621613,-1.57629,2.87571,-0.649563,-0.0218271,-0.224773
2069432,0.98,-1.58399,-0.515689,-0.0131761,-2.08955,-1.57668,1.59778,0.786013,-1.58672,-0.515187,-0.0160169,-2.08651,-1.57881,1.60073,0.78621,-0.437198,0.252167,-0.472084,0.225981,-0.229782,0.947132,0.0112332,-0.511696,0.27329,-0.5496,0.257402,-0.26849,0.996739,0.0247728,-12.7411,-5.66653,-17.3217,21.7414,-2.09257,-0.984899,0.0972387,-1.51878,-0.653921,-1.58784,2.9031,-0.659745,-0.0172813,-0.218996
2069433,0.98,-1.58446,-0.515423,-0.0136859,-2.0893,-1.57693,1.59876,0.786025,-1.58724,-0.51491,-0.0165765,-2.08625,-1.57909,1.60174,0.786235,-0.452175,0.261453,-0.481698,0.231918,-0.228923,0.96119,0.0121917,-0.518868,0.277698,-0.55959,0.261678,-0.273162,1.01281,0.0251453,-12.7649,-5.69034,-17.2424,21.7414,-2.10448,-1.00412,0.122873,-1.5216,-0.691719,-1.58533,2.93482,-0.67012,-0.0115908,-0.213019
2069434,0.98,-1.58494,-0.515143,-0.014203,-2.08905,-1.57717,1.59978,0.786041,-1.58776,-0.514628,-0.0171461,-2.08598,-1.57936,1.60277,0.786261,-0.463677,0.268412,-0.487188,0.240126,-0.231908,0.978551,0.013749,-0.52604,0.282106,-0.56958,0.265953,-0.277834,1.02888,0.0255178,-12.7133,-5.74191,-17.2186,21.8167,-2.13835,-0.984899,0.129282,-1.51837,-0.736235,-1.5721,2.96901,-0.680732,-0.00481308,-0.206901
2069435,0.98,-1.58544,-0.514858,-0.0147194,-2.08879,-1.57742,1.60083,0.786061,-1.58829,-0.514341,-0.0177257,-2.08571,-1.57965,1.60382,0.786287,-0.468383,0.27635,-0.497699,0.244718,-0.240238,0.995051,0.0155711,-0.533212,0.286514,-0.57957,0.270228,-0.282507,1.04495,0.0258902,-12.6657,-5.81729,-17.1948,21.7414,-2.14384,-1.01694,0.116465,-1.51478,-0.787322,-1.55735,3.00348,-0.691662,0.0022213,-0.200659
2069436,0.98,-1.58593,-0.514565,-0.0152564,-2.08853,-1.57767,1.60189,0.786079,-1.58884,-0.51405,-0.0183152,-2.08544,-1.57993,1.60488,0.786313,-0.475517,0.279984,-0.506412,0.249107,-0.242838,1.01498,0.0169351,-0.540384,0.290922,-0.58956,0.274503,-0.287179,1.06102,0.0262627,-12.5903,-5.99185,-17.1194,21.7414,-2.13835,-1.15244,0.0972387,-1.51622,-0.84273,-1.54857,3.03717,-0.702974,0.00869576,-0.194314
2069437,0.98,-1.58643,-0.514277,-0.0158073,-2.08827,-1.57795,1.60297,0.786101,-1.58938,-0.513755,-0.0189148,-2.08516,-1.58023,1.60595,0.78634,-0.483251,0.283289,-0.523646,0.252946,-0.253805,1.03211,0.0175852,-0.547556,0.29533,-0.59955,0.278778,-0.291852,1.07708,0.0266352,-12.6657,-6.095,-17.0162,21.7414,-2.12095,-1.2678,0.09083,-1.52263,-0.896417,-1.54531,3.06848,-0.714558,0.0145456,-0.187919
2069438,0.98,-1.58694,-0.513983,-0.0163731,-2.08802,-1.57821,1.60405,0.786119,-1.58994,-0.513455,-0.0195243,-2.08487,-1.58052,1.60705,0.786367,-0.490612,0.284585,-0.529304,0.252691,-0.261116,1.04624,0.0171173,-0.554728,0.299738,-0.60954,0.283053,-0.296524,1.09315,0.0270076,-12.7133,-6.24576,-16.9409,21.8644,-2.13286,-1.24857,0.110056,-1.53145,-0.94155,-1.54393,3.09606,-0.726219,0.019981,-0.181538
2069439,0.98,-1.58745,-0.513684,-0.0169491,-2.08774,-1.57849,1.60514,0.78615,-1.5905,-0.513151,-0.0201439,-2.08459,-1.58082,1.60816,0.786394,-0.498657,0.284626,-0.540944,0.261646,-0.266844,1.05909,0.0250334,-0.5619,0.304146,-0.61953,0.287328,-0.301196,1.10922,0.0273801,-12.6379,-6.24576,-16.8893,21.8882,-2.13835,-1.15885,0.0322363,-1.54299,-0.970568,-1.54546,3.1174,-0.737838,0.024809,-0.175234
2069440,0.98,-1.58799,-0.513375,-0.0175287,-2.08747,-1.57876,1.60624,0.786169,-1.59107,-0.512842,-0.0207734,-2.0843,-1.58113,1.60928,0.786422,-0.509106,0.291035,-0.555342,0.266566,-0.275246,1.07117,0.0265501,-0.569072,0.308554,-0.62952,0.291603,-0.305869,1.12529,0.0277526,-12.4634,-6.37271,-16.8139,21.9873,-2.15483,-1.10666,0.071604,-1.55536,-0.978489,-1.54753,3.1288,-0.74921,0.0292943,-0.169083
2069441,0.98,-1.58852,-0.513065,-0.0181122,-2.0872,-1.57905,1.60735,0.786193,-1.59164,-0.51253,-0.0214129,-2.084,-1.58144,1.61042,0.78645,-0.509699,0.29669,-0.561029,0.266688,-0.28144,1.07667,0.0245273,-0.576244,0.312963,-0.63951,0.295878,-0.310541,1.14136,0.028125,-12.388,-6.52347,-16.8139,22.0905,-2.20061,-1.08103,0.071604,-1.56741,-0.973411,-1.54821,3.13376,-0.760394,0.0336668,-0.163133
2069442,0.98,-1.58906,-0.512756,-0.0187174,-2.08692,-1.57934,1.60848,0.786215,-1.59223,-0.512212,-0.0220624,-2.0837,-1.58176,1.61158,0.786478,-0.515238,0.297623,-0.572166,0.271571,-0.28591,1.08256,0.0232102,-0.583416,0.317371,-0.6495,0.300154,-0.315214,1.15743,0.0284975,-12.4634,-6.57504,-16.7901,22.1381,-2.23448,-1.05539,0.0651953,-1.58338,-0.963965,-1.55355,3.13789,-0.771731,0.0374713,-0.157385
2069443,0.98,-1.58961,-0.512434,-0.0193317,-2.08663,-1.57963,1.60961,0.786244,-1.59282,-0.511891,-0.0227219,-2.0834,-1.58207,1.61275,0.786507,-0.524909,0.30317,-0.583803,0.2758,-0.285578,1.09814,0.0229814,-0.58935,0.321417,-0.65949,0.304154,-0.31967,1.17234,0.028862,-12.4872,-6.80118,-16.7623,22.1619,-2.23997,-1.13321,0.038645,-1.6035,-0.94988,-1.56433,3.14139,-0.783323,0.040841,-0.151847
2069444,0.98,-1.59016,-0.51211,-0.0199625,-2.08635,-1.57993,1.61079,0.786273,-1.59341,-0.511565,-0.0233914,-2.08309,-1.5824,1.61394,0.786536,-0.534399,0.310053,-0.599448,0.279121,-0.292065,1.11453,0.0244205,-0.595283,0.325464,-0.66948,0.308155,-0.324127,1.18725,0.0292266,-12.4356,-6.87656,-16.6631,22.3127,-2.1942,-1.22294,-0.0318506,-1.6224,-0.93509,-1.57303,3.14564,-0.795116,0.0444844,-0.146534
2069445,0.98,-1.59074,-0.511773,-0.0205943,-2.08605,-1.58023,1.61198,0.786304,-1.59401,-0.511236,-0.0240708,-2.08278,-1.58273,1.61514,0.786566,-0.544563,0.316835,-0.610263,0.282257,-0.303381,1.12914,0.0289211,-0.601217,0.329511,-0.67947,0.312155,-0.328584,1.20215,0.0295911,-12.3126,-7.03128,-16.6354,22.3127,-2.16673,-1.26139,-0.0712183,-1.63554,-0.928139,-1.57292,3.15451,-0.80705,0.0487853,-0.141484
2069446,0.98,-1.59132,-0.511442,-0.0212441,-2.08575,-1.58054,1.61316,0.786326,-1.59462,-0.510902,-0.0247603,-2.08246,-1.58306,1.61636,0.786596,-0.55779,0.320842,-0.616524,0.28391,-0.30764,1.14755,0.0252945,-0.607151,0.333557,-0.68946,0.316156,-0.333041,1.21706,0.0299556,-12.1103,-7.13046,-16.56,22.4356,-2.1887,-1.37125,-0.0510767,-1.64258,-0.932801,-1.56422,3.17012,-0.819062,0.0534699,-0.136782
2069447,0.98,-1.5919,-0.511102,-0.0219084,-2.08545,-1.58085,1.61441,0.78636,-1.59523,-0.510565,-0.0254597,-2.08214,-1.5834,1.61759,0.786626,-0.565248,0.323416,-0.625881,0.288068,-0.307018,1.17098,0.0244232,-0.613084,0.337604,-0.69945,0.320156,-0.337498,1.23197,0.0303201,-12.0071,-7.25742,-16.4092,22.4634,-2.16673,-1.69993,-0.077627,-1.64667,-0.945546,-1.55277,3.1913,-0.831125,0.0577669,-0.132534
2069448,0.98,-1.59251,-0.510763,-0.0225752,-2.08515,-1.58116,1.61564,0.78639,-1.59585,-0.510223,-0.0261692,-2.08181,-1.58374,1.61884,0.786657,-0.570462,0.333393,-0.64382,0.290302,-0.306028,1.18379,0.0277657,-0.619018,0.341651,-0.70944,0.324157,-0.341955,1.24688,0.0306847,-11.781,-7.3566,-16.2069,22.5348,-2.16673,-1.70633,-0.0840357,-1.64929,-0.965184,-1.54054,3.21745,-0.843237,0.0610751,-0.128803
2069449,0.98,-1.59311,-0.510411,-0.0232473,-2.08485,-1.58148,1.61682,0.786429,-1.59648,-0.509877,-0.0268886,-2.08149,-1.58409,1.6201,0.786688,-0.588354,0.33781,-0.649885,0.295511,-0.314896,1.18143,0.0321779,-0.624952,0.345697,-0.71943,0.328157,-0.346412,1.26179,0.0310492,-11.6064,-7.51132,-16.1038,22.5864,-2.17772,-1.27421,-0.141714,-1.64718,-0.99556,-1.52254,3.24982,-0.85535,0.063515,-0.125588
2069450,0.98,-1.59371,-0.510058,-0.0239221,-2.08453,-1.5818,1.61805,0.786464,-1.59711,-0.509528,-0.027618,-2.08115,-1.58444,1.62138,0.786719,-0.592455,0.342155,-0.658184,0.305638,-0.314751,1.18528,0.0293018,-0.630885,0.349744,-0.72942,0.332158,-0.350869,1.27669,0.0314137,-11.5271,-7.5867,-16.0522,22.511,-2.23448,-0.952855,-0.161856,-1.63871,-1.03165,-1.49783,3.28409,-0.867308,0.065447,-0.122896
2069451,0.98,-1.59431,-0.509703,-0.0246253,-2.08422,-1.58213,1.61931,0.786491,-1.59775,-0.509174,-0.0283574,-2.08082,-1.58479,1.62267,0.786751,-0.601124,0.347068,-0.669229,0.306228,-0.316598,1.21041,0.0276946,-0.636819,0.353791,-0.73941,0.336158,-0.355326,1.2916,0.0317783,-11.4795,-7.71365,-15.9292,22.5864,-2.24547,-1.06821,-0.077627,-1.62744,-1.06588,-1.47213,3.31515,-0.879063,0.0669262,-0.12078
2069452,0.98,-1.59494,-0.509344,-0.0253439,-2.0839,-1.58245,1.6206,0.786521,-1.59839,-0.508816,-0.0291068,-2.08048,-1.58515,1.62398,0.786783,-0.609014,0.349337,-0.678619,0.321943,-0.315919,1.22694,0.0288302,-0.642752,0.357837,-0.7494,0.340159,-0.359783,1.30651,0.0321428,-11.3763,-7.81284,-15.8499,22.4634,-2.31322,-1.1973,-0.0382593,-1.61622,-1.09338,-1.44915,3.33976,-0.890598,0.0680871,-0.119264
2069453,0.98,-1.59559,-0.508983,-0.026059,-2.08358,-1.58278,1.62191,0.786561,-1.59904,-0.508454,-0.0298662,-2.08013,-1.58552,1.6253,0.786816,-0.621739,0.354132,-0.687396,0.318791,-0.321076,1.24109,0.0274862,-0.647383,0.361441,-0.75939,0.343806,-0.363958,1.32009,0.0324993,-11.1264,-7.88821,-15.8776,22.511,-2.35258,-1.32639,-0.0648096,-1.605,-1.10954,-1.42896,3.35512,-0.901881,0.0692303,-0.118245
2069454,0.98,-1.59623,-0.508621,-0.0267902,-2.08325,-1.58312,1.62319,0.786605,-1.59969,-0.508089,-0.0306356,-2.07979,-1.58588,1.62663,0.786849,-0.634858,0.356789,-0.700223,0.323274,-0.326596,1.24471,0.0331845,-0.652014,0.365045,-0.76938,0.347453,-0.368133,1.33366,0.0328558,-11.0748,-7.91599,-15.8776,22.388,-2.37547,-1.28061,-0.149038,-1.59027,-1.11723,-1.40689,3.36518,-0.913076,0.0708922,-0.117537
2069455,0.98,-1.59685,-0.508246,-0.0275272,-2.08291,-1.58348,1.62451,0.786643,-1.60034,-0.507721,-0.031415,-2.07944,-1.58626,1.62798,0.786882,-0.632192,0.36063,-0.70892,0.329534,-0.338159,1.25342,0.0383698,-0.656644,0.368649,-0.77937,0.351101,-0.372307,1.34724,0.0332123,-11.2256,-8.06674,-15.953,22.2889,-2.30223,-1.30716,-0.155447,-1.57081,-1.1187,-1.38101,3.3727,-0.92435,0.0731871,-0.117047
2069456,0.98,-1.59748,-0.507867,-0.0282587,-2.08257,-1.58383,1.62582,0.786675,-1.60101,-0.507348,-0.0322043,-2.07908,-1.58663,1.62934,0.786915,-0.624822,0.365594,-0.719866,0.333453,-0.345731,1.2734,0.0404289,-0.661275,0.372252,-0.78936,0.354748,-0.376482,1.36081,0.0335688,-11.5033,-8.26907,-15.9768,22.2135,-2.25096,-1.39689,-0.103262,-1.55544,-1.1146,-1.36215,3.37683,-0.935867,0.0746952,-0.116818
2069457,0.99,-1.59812,-0.507486,-0.0290091,-2.08223,-1.5842,1.62715,0.786702,-1.60167,-0.506973,-0.0330037,-2.07872,-1.58701,1.63071,0.786949,-0.627231,0.36829,-0.728633,0.334931,-0.34946,1.28519,0.0395622,-0.665905,0.375856,-0.79935,0.358395,-0.380657,1.37439,0.0339252,-11.6302,-8.44363,-16.0522,22.2135,-2.24547,-1.28702,0.0322363,-1.5538,-1.10917,-1.36199,3.37958,-0.947793,0.0738201,-0.116875
2069458,1,-1.59876,-0.507108,-0.0297408,-2.08189,-1.58455,1.6285,0.786727,-1.60234,-0.506593,-0.033813,-2.07836,-1.5874,1.6321,0.786984,-0.633934,0.373162,-0.733928,0.338299,-0.349719,1.30327,0.034943,-0.670536,0.37946,-0.80934,0.362042,-0.384832,1.38796,0.0342817,-11.7294,-8.47141,-16.2585,22.1381,-2.30772,-1.13962,0.155832,-1.56778,-1.10566,-1.38291,3.38351,-0.960135,0.0702191,-0.117101
2069459,1,-1.5994,-0.50673,-0.0305103,-2.08154,-1.58491,1.62982,0.78677,-1.60302,-0.50621,-0.0346324,-2.07799,-1.58779,1.6335,0.787018,-0.630975,0.374155,-0.747861,0.338972,-0.357183,1.31132,0.0317706,-0.675167,0.383064,-0.81933,0.36569,-0.389007,1.40154,0.0346382,-11.7572,-8.49521,-16.3061,22.0905,-2.3361,-0.940038,0.149424,-1.59546,-1.10478,-1.42232,3.38971,-0.972816,0.0643824,-0.117227
2069460,1,-1.60005,-0.506343,-0.0312831,-2.08118,-1.58529,1.6312,0.786811,-1.6037,-0.505823,-0.0354617,-2.07763,-1.58818,1.63492,0.787053,-0.641319,0.374699,-0.75062,0.347982,-0.362777,1.32934,0.0339473,-0.679797,0.386667,-0.82932,0.369337,-0.393182,1.41512,0.0349947,-11.8326,-8.54678,-16.433,21.9635,-2.3416,-0.894261,0.135691,-1.63416,-1.1005,-1.47669,3.39482,-0.985652,0.0571789,-0.116966
2069461,1,-1.60071,-0.505965,-0.0320725,-2.08082,-1.58567,1.63259,0.786853,-1.60438,-0.505433,-0.036301,-2.07725,-1.58858,1.63634,0.787089,-0.637599,0.377405,-0.761492,0.357009,-0.361529,1.37563,0.0326029,-0.684428,0.390271,-0.83931,0.372984,-0.397357,1.42869,0.0353512,-11.8802,-8.52298,-16.3061,21.8882,-2.36449,-1.01694,0.0780126,-1.68372,-1.08355,-1.54656,3.39145,-0.998409,0.0489411,-0.116193
2069462,1,-1.60137,-0.505577,-0.0328686,-2.08045,-1.58604,1.63401,0.786893,-1.60507,-0.505039,-0.0371503,-2.07688,-1.58898,1.63779,0.787124,-0.646872,0.380389,-0.76257,0.359133,-0.370255,1.39034,0.0346833,-0.689058,0.393875,-0.8493,0.376632,-0.401532,1.44227,0.0357077,-11.8048,-8.54678,-16.2585,21.8644,-2.39836,-1.15244,0.0523779,-1.74637,-1.05293,-1.63537,3.37699,-1.01105,0.0393181,-0.11493
2069463,1,-1.60205,-0.505172,-0.0336655,-2.08008,-1.58643,1.63544,0.78693,-1.60576,-0.504642,-0.0380094,-2.0765,-1.58939,1.63924,0.78716,-0.656346,0.386878,-0.789748,0.362862,-0.365956,1.39446,0.0349135,-0.692514,0.396975,-0.859101,0.379862,-0.405347,1.45428,0.0360576,-11.7056,-8.62216,-16.2585,21.7652,-2.46611,-1.22934,0.0651953,-1.81393,-1.01695,-1.73122,3.35673,-1.02363,0.0295574,-0.113241
2069464,1,-1.60272,-0.504772,-0.0344885,-2.0797,-1.58681,1.63684,0.786969,-1.60646,-0.504242,-0.0388783,-2.07611,-1.58979,1.64071,0.787197,-0.654422,0.389795,-0.795782,0.369733,-0.370009,1.40083,0.0369991,-0.695969,0.400074,-0.868902,0.383093,-0.409163,1.4663,0.0364075,-11.5271,-8.72531,-16.1791,21.7176,-2.46611,-1.01053,0.0258276,-1.87322,-0.982962,-1.81439,3.33534,-1.03611,0.0217005,-0.11122
2069465,1,-1.6034,-0.504362,-0.0353397,-2.07933,-1.58721,1.6383,0.786994,-1.60716,-0.503839,-0.039757,-2.07573,-1.59021,1.64219,0.787234,-0.666353,0.392134,-0.809004,0.373869,-0.373428,1.41251,0.028243,-0.699424,0.403173,-0.878703,0.386323,-0.412978,1.47831,0.0367574,-11.4795,-8.87607,-15.9768,21.7414,-2.44871,-0.933629,0.135691,-1.92174,-0.950264,-1.88131,3.31227,-1.04857,0.0160947,-0.108972
2069466,1,-1.6041,-0.503966,-0.0361822,-2.07894,-1.58761,1.63977,0.787035,-1.60786,-0.503433,-0.0406455,-2.07534,-1.59062,1.64368,0.787271,-0.672335,0.40232,-0.815753,0.378565,-0.383025,1.43048,0.032787,-0.702879,0.406273,-0.888504,0.389554,-0.416794,1.49033,0.0371074,-11.3525,-8.92368,-15.7507,21.7176,-2.36449,-0.836583,0.0844213,-1.9606,-0.921338,-1.93475,3.2887,-1.06108,0.012485,-0.106537
2069467,1,-1.6048,-0.503562,-0.0370524,-2.07854,-1.58801,1.64123,0.787075,-1.60857,-0.503023,-0.0415438,-2.07494,-1.59104,1.64518,0.787308,-0.670552,0.40191,-0.830422,0.382684,-0.39301,1.44217,0.035888,-0.706334,0.409372,-0.898305,0.392784,-0.420609,1.50234,0.0374573,-11.051,-8.92368,-15.473,21.666,-2.34709,-0.75327,0.0322363,-1.99209,-0.901711,-1.97788,3.26748,-1.07367,0.0105032,-0.103891
2069468,1,-1.60553,-0.503164,-0.0379257,-2.07816,-1.58842,1.64273,0.78711,-1.60928,-0.502611,-0.0424519,-2.07455,-1.59147,1.64669,0.787346,-0.688927,0.395774,-0.848089,0.385937,-0.393173,1.4474,0.0366803,-0.709789,0.412472,-0.908106,0.396015,-0.424425,1.51436,0.0378072,-10.3924,-8.82449,-15.1159,21.7414,-2.38096,-0.72672,0.0194189,-2.01347,-0.879602,-2.00676,3.24431,-1.08598,0.0108224,-0.101099
2069469,1,-1.60626,-0.502763,-0.0388435,-2.07776,-1.58882,1.64423,0.787162,-1.60999,-0.502195,-0.0433698,-2.07415,-1.5919,1.64822,0.787384,-0.708425,0.398558,-0.871457,0.388772,-0.404286,1.46177,0.0417682,-0.713244,0.415571,-0.917907,0.399245,-0.42824,1.52638,0.0381571,-9.8886,-8.87607,-14.5367,21.789,-2.37547,-0.836583,-0.116079,-2.00913,-0.838501,-2.00061,3.21349,-1.09736,0.0160272,-0.0983001
2069470,1,-1.60698,-0.502356,-0.0397621,-2.07736,-1.58924,1.64577,0.787197,-1.61071,-0.501777,-0.0442975,-2.07375,-1.59233,1.64976,0.787423,-0.714051,0.401896,-0.888258,0.390597,-0.402955,1.47882,0.0392971,-0.7167,0.418671,-0.927708,0.402476,-0.432056,1.53839,0.038507,-9.51171,-8.89987,-14.0527,21.7414,-2.38096,-1.00412,-0.0904444,-1.96802,-0.780961,-1.9445,3.17762,-1.10756,0.0275304,-0.0956396
2069471,1,-1.60772,-0.501935,-0.0406779,-2.07696,-1.58965,1.64729,0.78723,-1.61143,-0.501355,-0.045235,-2.07334,-1.59277,1.65131,0.787461,-0.718709,0.407293,-0.902672,0.390989,-0.407366,1.48984,0.0416916,-0.720155,0.42177,-0.937509,0.405706,-0.435871,1.55041,0.0388569,-9.234,-9.00302,-13.6758,21.8644,-2.35899,-0.97849,-0.044668,-1.89587,-0.720961,-1.84601,3.14417,-1.11695,0.0438973,-0.0932847
2069472,1,-1.60845,-0.501508,-0.0416063,-2.07655,-1.59007,1.64879,0.78727,-1.61215,-0.50093,-0.0461823,-2.07293,-1.59321,1.65287,0.787501,-0.725713,0.410933,-0.91195,0.395093,-0.413391,1.48412,0.0398505,-0.72361,0.42487,-0.94731,0.408937,-0.439687,1.56242,0.0392068,-9.10704,-9.22916,-13.4734,21.9397,-2.41484,-0.823766,-0.0318506,-1.80463,-0.668874,-1.72196,3.11813,-1.12604,0.0628661,-0.0913115
2069473,1,-1.60917,-0.501082,-0.0425554,-2.07614,-1.5905,1.65031,0.787305,-1.61288,-0.500503,-0.0471385,-2.07252,-1.59365,1.65444,0.78754,-0.724777,0.414517,-0.91796,0.398115,-0.418512,1.49279,0.0379108,-0.726028,0.427417,-0.956171,0.4117,-0.443036,1.57272,0.0395574,-9.10704,-9.40768,-13.3703,21.9159,-2.44322,-0.720311,0.00660151,-1.70651,-0.627106,-1.59037,3.09952,-1.1352,0.0824557,-0.0896757
2069474,1,-1.6099,-0.500657,-0.0434868,-2.07573,-1.59092,1.65185,0.78735,-1.61361,-0.500073,-0.0481036,-2.07211,-1.59409,1.65603,0.78758,-0.716674,0.420985,-0.922797,0.399743,-0.421935,1.50343,0.0389576,-0.728447,0.429963,-0.965033,0.414462,-0.446384,1.58302,0.039908,-9.33318,-9.58224,-13.4973,22.0389,-2.47709,-0.740453,-0.0190333,-1.61778,-0.598093,-1.47402,3.08842,-1.1449,0.100257,-0.0882935
2069475,1,-1.61062,-0.500214,-0.0444269,-2.07532,-1.59137,1.65346,0.787388,-1.61434,-0.49964,-0.0490774,-2.07169,-1.59454,1.65762,0.78762,-0.714441,0.430018,-0.915059,0.398855,-0.432931,1.54058,0.0383123,-0.730866,0.43251,-0.973895,0.417225,-0.449733,1.59332,0.0402585,-9.58709,-9.80838,-13.8265,22.1381,-2.42674,-1.19089,-0.0126246,-1.5578,-0.592008,-1.39945,3.08945,-1.15579,0.113229,-0.0870677
2069476,1,-1.61134,-0.499769,-0.0453746,-2.07491,-1.59182,1.65507,0.78744,-1.61507,-0.499205,-0.0500602,-2.07127,-1.595,1.65922,0.787661,-0.708487,0.429571,-0.928,0.401208,-0.435907,1.55364,0.0413349,-0.733284,0.435057,-0.982756,0.419988,-0.453082,1.60362,0.0406091,-9.99175,-10.0107,-14.0051,22.2373,-2.37547,-1.40329,-0.0968531,-1.53794,-0.6133,-1.3822,3.10499,-1.16817,0.119305,-0.0859441
2069477,1,-1.61205,-0.49934,-0.0463433,-2.07449,-1.59227,1.65662,0.787488,-1.61581,-0.498768,-0.0510518,-2.07085,-1.59545,1.66084,0.787702,-0.702239,0.427698,-0.941167,0.404766,-0.438508,1.55403,0.0410676,-0.735703,0.437604,-0.991618,0.422751,-0.456431,1.61392,0.0409596,-10.2417,-10.1377,-14.0527,22.2135,-2.31322,-1.22934,-0.122488,-1.55245,-0.647037,-1.41282,3.12802,-1.1816,0.11915,-0.0849714
2069478,1,-1.61278,-0.498896,-0.0473072,-2.07408,-1.59274,1.65824,0.787536,-1.61654,-0.498327,-0.0520523,-2.07042,-1.59591,1.66246,0.787743,-0.708308,0.433564,-0.940775,0.406492,-0.450744,1.5703,0.0400157,-0.738121,0.440151,-1.00048,0.425513,-0.459779,1.62422,0.0413102,-10.4678,-10.3678,-14.255,22.2611,-2.22258,-1.29343,-0.122488,-1.59084,-0.678974,-1.47566,3.15128,-1.1955,0.114319,-0.084246
2069479,1,-1.61349,-0.498455,-0.0482693,-2.07367,-1.59319,1.65988,0.78758,-1.61728,-0.497885,-0.0530616,-2.06999,-1.59638,1.6641,0.787785,-0.707405,0.437195,-0.94974,0.407592,-0.452402,1.61382,0.0439283,-0.74054,0.442698,-1.00934,0.428276,-0.463128,1.63451,0.0416607,-10.7971,-10.5185,-14.2074,22.3365,-2.2061,-1.38407,-0.122488,-1.64891,-0.711646,-1.56497,3.17553,-1.20949,0.105214,-0.0838369
2069480,1,-1.6142,-0.498009,-0.0492513,-2.07324,-1.59365,1.66152,0.787619,-1.61803,-0.497439,-0.0540798,-2.06956,-1.59684,1.66574,0.787827,-0.706278,0.439761,-0.951807,0.411434,-0.45527,1.62427,0.0443467,-0.742959,0.445244,-1.0182,0.431039,-0.466477,1.64481,0.0420113,-11.0232,-10.6455,-14.0289,22.4118,-2.28483,-1.64133,-0.0510767,-1.72561,-0.748924,-1.67881,3.20218,-1.22334,0.0917869,-0.0837904
2069481,1,-1.61493,-0.497567,-0.0502295,-2.07283,-1.5941,1.66316,0.787682,-1.61877,-0.496992,-0.0551069,-2.06913,-1.59731,1.6674,0.787869,-0.712501,0.438549,-0.980787,0.413689,-0.451458,1.62029,0.0526584,-0.745377,0.447791,-1.02706,0.433802,-0.469826,1.65511,0.0423619,-10.8725,-10.6455,-13.9535,22.511,-2.39836,-1.4802,-0.18749,-1.81082,-0.784872,-1.80156,3.22822,-1.23664,0.0758163,-0.0840947
2069482,1,-1.61567,-0.497123,-0.0512226,-2.0724,-1.59456,1.66478,0.787738,-1.61952,-0.496541,-0.0561428,-2.06869,-1.59779,1.66906,0.787912,-0.735633,0.443282,-0.987852,0.416292,-0.452059,1.62308,0.054975,-0.747796,0.450338,-1.03593,0.436565,-0.473174,1.66541,0.0427124,-10.571,-10.7209,-13.9257,22.5348,-2.42674,-1.29343,-0.232351,-1.88183,-0.812665,-1.90055,3.25102,-1.24896,0.0611285,-0.0847039
2069483,1,-1.61639,-0.496665,-0.0522353,-2.07197,-1.59503,1.66643,0.787799,-1.62027,-0.496089,-0.0571862,-2.06825,-1.59826,1.67073,0.787955,-0.73125,0.445852,-0.987487,0.429835,-0.462456,1.62161,0.061547,-0.749335,0.452302,-1.04338,0.438812,-0.475892,1.67387,0.0430711,-10.6464,-10.82,-13.8265,22.5348,-2.44322,-1.06821,-0.284536,-1.93058,-0.829884,-1.96623,3.26763,-1.26029,0.0492755,-0.0856613
2069484,1,-1.61711,-0.496202,-0.0532525,-2.07155,-1.59549,1.66812,0.787846,-1.62102,-0.495635,-0.058237,-2.06781,-1.59874,1.67242,0.787999,-0.718566,0.456491,-0.99956,0.430512,-0.461366,1.63573,0.0577378,-0.750874,0.454266,-1.05083,0.441059,-0.47861,1.68233,0.0434299,-10.8725,-11.0739,-13.5211,22.634,-2.43223,-1.03617,-0.225942,-1.97258,-0.841934,-2.02085,3.27719,-1.27119,0.0383551,-0.0870793
2069485,1,-1.61784,-0.495748,-0.0542653,-2.07111,-1.59595,1.66978,0.787888,-1.62177,-0.495179,-0.0592953,-2.06737,-1.59922,1.67411,0.788042,-0.720331,0.452414,-0.993474,0.429333,-0.463559,1.64498,0.0524504,-0.752414,0.45623,-1.05829,0.443306,-0.481329,1.69079,0.0437886,-10.8209,-11.1255,-13.6242,22.6618,-2.489,-0.991307,-0.0968531,-2.02499,-0.858547,-2.08706,3.28568,-1.28233,0.0262407,-0.0890117
2069486,1,-1.61858,-0.495285,-0.0552949,-2.07068,-1.59642,1.67147,0.787937,-1.62253,-0.49472,-0.0603611,-2.06692,-1.59971,1.67581,0.788086,-0.722518,0.448862,-1.00742,0.436364,-0.46748,1.65141,0.0521071,-0.753953,0.458193,-1.06574,0.445553,-0.484047,1.69925,0.0441473,-10.6464,-11.1771,-13.4219,22.634,-2.48259,-0.959264,-0.0510767,-2.09225,-0.871245,-2.17168,3.2923,-1.29392,0.0127193,-0.0913863
2069487,1,-1.61933,-0.494825,-0.056326,-2.07024,-1.59688,1.67316,0.787981,-1.62328,-0.49426,-0.0614343,-2.06647,-1.60019,1.67751,0.788131,-0.731265,0.451193,-1.01345,0.439101,-0.466053,1.65834,0.0447856,-0.755492,0.460157,-1.0732,0.4478,-0.486765,1.70771,0.044506,-10.3448,-11.2763,-13.2671,22.5864,-2.46062,-0.959264,0.0587866,-2.16557,-0.865467,-2.26356,3.29057,-1.3056,-0.000547261,-0.0939964
2069488,1,-1.62006,-0.49436,-0.0573807,-2.06979,-1.59736,1.67488,0.788023,-1.62404,-0.493798,-0.0625149,-2.06602,-1.60068,1.67923,0.788176,-0.738174,0.452733,-1.01884,0.440085,-0.4734,1.67552,0.0407606,-0.757031,0.462121,-1.08065,0.450047,-0.489483,1.71617,0.0448648,-9.99175,-11.4032,-12.8903,22.5626,-2.3361,-1.02976,0.135691,-2.23611,-0.843745,-2.35116,3.28192,-1.31722,-0.0122453,-0.0965377
2069489,1,-1.6208,-0.493896,-0.0584341,-2.06935,-1.59783,1.6766,0.788066,-1.6248,-0.493334,-0.063603,-2.06557,-1.60117,1.68096,0.788221,-0.735775,0.455979,-1.03026,0.442393,-0.476355,1.68082,0.0408845,-0.758571,0.464085,-1.08811,0.452294,-0.492201,1.72463,0.0452235,-9.78942,-11.4548,-12.5094,22.4634,-2.25645,-0.881444,0.129282,-2.3016,-0.815695,-2.43162,3.27175,-1.32875,-0.0223054,-0.0986768
2069490,1,-1.62153,-0.493447,-0.0595137,-2.06891,-1.5983,1.6783,0.788101,-1.62556,-0.492868,-0.0646986,-2.06512,-1.60167,1.68269,0.788267,-0.745317,0.452103,-1.04864,0.436601,-0.473481,1.68468,0.0422827,-0.76011,0.466049,-1.09556,0.454541,-0.494919,1.73309,0.0455822,-9.63866,-11.3517,-12.0809,22.511,-2.3416,-0.733129,0.207102,-2.35662,-0.786087,-2.49654,3.26417,-1.33998,-0.0300706,-0.100155
2069491,1,-1.62228,-0.492991,-0.0606004,-2.06847,-1.59877,1.68003,0.788144,-1.62632,-0.4924,-0.0658016,-2.06466,-1.60217,1.68443,0.788313,-0.748407,0.447984,-1.05799,0.437592,-0.4767,1.68777,0.0435815,-0.761649,0.468013,-1.10302,0.456788,-0.497637,1.74155,0.045941,-9.28557,-11.2525,-11.7516,22.634,-2.39836,-0.527135,0.149424,-2.39248,-0.75007,-2.53348,3.2597,-1.35059,-0.034126,-0.100834
2069492,1,-1.62305,-0.492543,-0.0616832,-2.06802,-1.59923,1.68175,0.788171,-1.62708,-0.49193,-0.0669121,-2.0642,-1.60267,1.68618,0.788359,-0.75288,0.446543,-1.06353,0.44021,-0.471387,1.69274,0.0389412,-0.763189,0.469976,-1.11047,0.459035,-0.500355,1.75001,0.0462997,-8.82933,-11.1493,-11.4224,22.5626,-2.53935,-0.398961,0.240061,-2.40934,-0.699331,-2.5436,3.2544,-1.36053,-0.0342404,-0.100671
2069493,1,-1.62381,-0.492069,-0.0628029,-2.06756,-1.5997,1.68351,0.788211,-1.62785,-0.491459,-0.0680284,-2.06374,-1.60317,1.68794,0.788406,-0.758664,0.45099,-1.07925,0.447522,-0.472811,1.70812,0.0357525,-0.764032,0.471357,-1.11629,0.460706,-0.502219,1.75651,0.0466605,-8.32549,-11.2525,-10.9145,22.388,-2.54484,-0.456639,0.200693,-2.41118,-0.63406,-2.53332,3.24501,-1.36995,-0.0308534,-0.0996871
2069494,1,-1.62459,-0.491586,-0.0639136,-2.06711,-1.60018,1.68528,0.788256,-1.62861,-0.490986,-0.0691505,-2.06328,-1.60367,1.6897,0.788453,-0.76135,0.454731,-1.08946,0.448629,-0.46818,1.72074,0.0411876,-0.764875,0.472738,-1.12211,0.462377,-0.504082,1.76301,0.0470213,-7.89702,-11.427,-10.4067,22.2611,-2.52836,-0.539952,0.071604,-2.39816,-0.564284,-2.50271,3.23294,-1.37909,-0.0241083,-0.0979087
2069495,1,-1.62537,-0.491114,-0.0650492,-2.06665,-1.60067,1.68702,0.788295,-1.62938,-0.490512,-0.0702784,-2.06281,-1.60418,1.69147,0.7885,-0.760681,0.458094,-1.10589,0.45052,-0.473811,1.73602,0.0421098,-0.765718,0.474119,-1.12793,0.464048,-0.505946,1.76951,0.0473821,-7.46856,-11.6056,-9.92669,22.1897,-2.44322,-0.592137,0.0130102,-2.37149,-0.501623,-2.45281,3.22273,-1.38825,-0.0145607,-0.0954519
2069496,1,-1.62616,-0.490637,-0.066205,-2.0662,-1.60118,1.6888,0.788351,-1.63014,-0.490036,-0.0714122,-2.06235,-1.60469,1.69325,0.788548,-0.770533,0.461383,-1.12331,0.453407,-0.483792,1.74231,0.0483234,-0.766562,0.4755,-1.13375,0.465719,-0.507809,1.77601,0.0477429,-7.13927,-11.7563,-9.49823,22.2135,-2.31322,-0.720311,-0.193899,-2.32926,-0.451849,-2.38049,3.21707,-1.39742,-0.00240551,-0.0925685
2069497,1,-1.62695,-0.490163,-0.0673526,-2.06574,-1.60167,1.69056,0.78839,-1.63091,-0.489559,-0.0725517,-2.06188,-1.6052,1.69503,0.788596,-0.776904,0.466342,-1.12883,0.456053,-0.484096,1.77752,0.0455001,-0.767405,0.476882,-1.13957,0.46739,-0.509673,1.78251,0.0481037,-6.76238,-11.9586,-8.96661,22.2135,-2.24547,-0.842992,-0.213125,-2.26901,-0.417064,-2.28299,3.21628,-1.40633,0.012081,-0.0896188
2069498,1,-1.62774,-0.489683,-0.0684984,-2.06527,-1.60216,1.69238,0.788431,-1.63168,-0.489081,-0.0736971,-2.06141,-1.60571,1.69682,0.788644,-0.785721,0.469218,-1.12925,0.459047,-0.48767,1.78293,0.0462009,-0.768248,0.478263,-1.14539,0.469061,-0.511536,1.78901,0.0484645,-6.33391,-12.1372,-8.81189,22.1897,-2.21159,-1.16526,-0.181082,-2.19766,-0.39863,-2.17208,3.22031,-1.41492,0.0271275,-0.0870246
2069499,1,-1.62852,-0.489208,-0.069643,-2.06482,-1.60266,1.69419,0.788486,-1.63245,-0.488601,-0.0748483,-2.06094,-1.60622,1.69861,0.788693,-0.789551,0.47019,-1.1605,0.457646,-0.495847,1.78569,0.0513548,-0.769092,0.479644,-1.15121,0.470732,-0.5134,1.79551,0.0488254,-6.20696,-12.2879,-8.60956,22.1897,-2.16673,-1.38407,-0.258901,-2.11626,-0.393964,-2.05007,3.2286,-1.42299,0.0420741,-0.0850802
2069500,1,-1.6293,-0.488736,-0.0707885,-2.06434,-1.60316,1.69592,0.78854,-1.63322,-0.48812,-0.0760054,-2.06047,-1.60674,1.70041,0.788742,-0.795874,0.470873,-1.14928,0.462409,-0.495319,1.76674,0.0484224,-0.769935,0.481025,-1.15703,0.472403,-0.515264,1.80202,0.0491862,-6.20696,-12.4149,-8.58575,22.0389,-2.16673,-0.842992,-0.284536,-2.02049,-0.396292,-1.91112,3.23915,-1.43027,0.0572589,-0.0839087
2069501,1,-1.63006,-0.488246,-0.0719531,-2.06388,-1.60367,1.6977,0.788589,-1.63399,-0.487638,-0.0771682,-2.05999,-1.60725,1.70222,0.788792,-0.786093,0.475639,-1.15329,0.472311,-0.50041,1.74945,0.0494513,-0.770778,0.482406,-1.16285,0.474074,-0.517127,1.80852,0.049547,-6.48467,-12.641,-8.53418,22.0627,-2.16673,-0.533544,-0.26531,-1.92266,-0.39919,-1.77411,3.24669,-1.43699,0.0709562,-0.0835895
2069502,1,-1.63082,-0.48776,-0.0731029,-2.0634,-1.60418,1.69951,0.788644,-1.63476,-0.487154,-0.0783369,-2.05952,-1.60777,1.70404,0.788842,-0.776443,0.485123,-1.15456,0.474877,-0.50278,1.75707,0.0507835,-0.771622,0.483787,-1.16867,0.475745,-0.518991,1.81502,0.0499078,-6.93694,-12.7918,-8.53418,22.0151,-2.1887,-0.539952,-0.258901,-1.84194,-0.407361,-1.66539,3.24987,-1.44361,0.0809528,-0.0841498
2069503,1,-1.63158,-0.487275,-0.0742869,-2.06291,-1.60468,1.70135,0.788679,-1.63553,-0.48667,-0.0795096,-2.05904,-1.60829,1.70586,0.788892,-0.774011,0.488689,-1.15982,0.478159,-0.509203,1.77928,0.0435378,-0.771958,0.484594,-1.17269,0.476802,-0.519969,1.81944,0.0502548,-7.13927,-12.9425,-8.35565,21.8882,-2.23997,-1.02335,-0.0318506,-1.78893,-0.432823,-1.59676,3.25401,-1.45041,0.0862575,-0.0855248
2069504,1,-1.63239,-0.486767,-0.0754593,-2.06243,-1.6052,1.70317,0.788746,-1.63631,-0.486184,-0.0806863,-2.05856,-1.60881,1.70768,0.788943,-0.783699,0.493501,-1.16539,0.48008,-0.507875,1.78768,0.0503101,-0.772295,0.485402,-1.1767,0.477859,-0.520948,1.82386,0.0506017,-6.88933,-13.2242,-8.20489,21.789,-2.31322,-1.1204,-0.10967,-1.76129,-0.47833,-1.56306,3.26223,-1.45737,0.0873407,-0.0875164
2069505,1,-1.6332,-0.486275,-0.0766365,-2.06195,-1.6057,1.70496,0.788804,-1.63708,-0.485698,-0.081867,-2.05809,-1.60934,1.70951,0.788994,-0.791995,0.492567,-1.16351,0.480453,-0.50766,1.78857,0.0521173,-0.772632,0.486209,-1.18072,0.478916,-0.521926,1.82828,0.0509487,-6.50847,-13.3988,-8.18109,21.7652,-2.35899,-1.01053,-0.10967,-1.74879,-0.536993,-1.55025,3.27352,-1.46442,0.0855321,-0.089819
