shamilmamedov/beam_handling/data/param_estimation_ICRA/ocp_Xup_15cm_0.35s_4.csv
duration, success rate, q[0], q[1], q[2], q[3], q[4], q[5], q[6],q_d[0], q_d[1], q_d[2], q_d[3], q_d[4], q_d[5], q_d[6],dq[0], dq[1], dq[2], dq[3], dq[4], dq[5], dq[6],dq_d[0], dq_d[1], dq_d[2], dq_d[3], dq_d[4], dq_d[5], dq_d[6],tau_J[0], tau_J[1], tau_J[2], tau_J[3], tau_J[4], tau_J[5], tau_J[6],tau_ext_hat_filtered[0], tau_ext_hat_filtered[1], tau_ext_hat_filtered[2], tau_ext_hat_filtered[3], tau_ext_hat_filtered[4], tau_ext_hat_filtered[5], tau_ext_hat_filtered[6]
4276434,0,-1.5705,-0.522737,-0.00011552,-2.09577,1.57051,1.57167,0.785059,-1.5708,-0.523599,8.32241e-08,-2.09439,1.5708,1.5708,0.785397,0.000659195,0.000733204,-0.00075029,0.000226281,0.00032558,-0.000215227,0.000554394,0,0,0,0,0,0,0,-0.430592,-10.3678,-0.357602,20.8448,0.819719,-0.656224,0.116465,-0.40788,-1.21545,0.0146083,2.30028,0.262654,-0.660276,0.171399
4276435,1,-1.5705,-0.522737,-0.000111901,-2.09577,1.57051,1.57167,0.785061,-1.5708,-0.523599,8.32241e-08,-2.09439,1.5708,1.5708,0.785397,-0.000210151,0.000488802,0.000706232,0.000707666,1.36025e-05,-0.000143485,0.000844314,0,0,0,0,0,0,0,-0.402821,-10.3678,-0.409177,20.821,0.825212,-0.656224,0.103647,-0.407753,-1.21595,0.0148057,2.30062,0.26268,-0.660298,0.171459
4276436,1,-1.5705,-0.522737,-0.000111901,-2.09577,1.57051,1.57167,0.785058,-1.5708,-0.523599,8.32241e-08,-2.09439,1.5708,1.5708,0.785397,0.000509513,0.000325868,0.000470822,-0.000734648,9.06835e-06,0.000141702,-0.00038656,0,0,0,0,0,0,0,-0.430592,-10.3678,-0.409177,20.8725,0.825212,-0.662633,0.129282,-0.408138,-1.2173,0.0141913,2.30106,0.262714,-0.660256,0.171512
4276437,1,-1.5705,-0.522739,-0.00011385,-2.09577,1.57051,1.57167,0.785057,-1.5708,-0.523599,8.32241e-08,-2.09439,1.5708,1.5708,0.785397,0.000339676,-0.000432368,-0.000335733,0.00127347,0.000446855,-0.000142891,-0.000495065,0,0,0,0,0,0,0,-0.430592,-10.34,-0.381406,20.7972,0.81331,-0.656224,0.135691,-0.408929,-1.21813,0.0129564,2.3012,0.26274,-0.660143,0.171539
4276438,1,-1.5705,-0.522739,-0.00011385,-2.09577,1.57051,1.57167,0.78506,-1.5708,-0.523599,8.32241e-08,-2.09439,1.5708,1.5708,0.785397,-0.000979976,-0.000288246,-0.000223822,-0.000914256,-0.000142906,-9.52605e-05,0.000619392,0,0,0,0,0,0,0,-0.379017,-10.34,-0.381406,20.8725,0.825212,-0.656224,0.110056,-0.409221,-1.21728,0.0125107,2.30048,0.262699,-0.660079,0.171548
4276439,1,-1.5705,-0.522737,-0.000111901,-2.09577,1.57051,1.57167,0.785055,-1.5708,-0.523599,8.32241e-08,-2.09439,1.5708,1.5708,0.785397,0.000553109,-0.000192164,0.000500399,0.000596922,-0.000502172,0.000173852,-0.00128249,0,0,0,0,0,0,0,-0.430592,-10.34,-0.409177,20.821,0.836199,-0.662633,0.155832,-0.408987,-1.21556,0.0128002,2.29953,0.262619,-0.660076,0.171551
4276440,1,-1.5705,-0.522739,-0.00011385,-2.09576,1.57051,1.57167,0.785059,-1.5708,-0.523599,8.32241e-08,-2.09439,1.5708,1.5708,0.785397,-0.000280875,-0.00124173,-0.000316014,0.00216119,-0.000131331,0.00035326,0.000603067,0,0,0,0,0,0,0,-0.402821,-10.2924,-0.381406,20.7456,0.830705,-0.669042,0.116465,-0.408881,-1.21208,0.0128792,2.29745,0.262497,-0.660036,0.171561
4276441,1,-1.5705,-0.522736,-0.00011552,-2.09577,1.57051,1.57167,0.78506,-1.5708,-0.523599,8.32241e-08,-2.09439,1.5708,1.5708,0.785397,-0.00018725,0.000935416,-0.000767488,-0.000879259,0.000115897,-1.85212e-06,0.000639403,0,0,0,0,0,0,0,-0.402821,-10.3678,-0.357602,20.8448,0.825212,-0.662633,0.110056,-0.40845,-1.20742,0.0135037,2.29438,0.262328,-0.66004,0.171589
4276442,1,-1.5705,-0.522737,-0.000113389,-2.09577,1.57051,1.57167,0.785054,-1.5708,-0.523599,8.32241e-08,-2.09439,1.5708,1.5708,0.785397,-0.000124833,0.000623611,-0.000511659,-0.000586173,0.000280715,-1.23474e-06,-0.00150651,0,0,0,0,0,0,0,-0.402821,-10.3678,-0.357602,20.8448,0.819719,-0.662633,0.162241,-0.40731,-1.2063,0.0152372,2.29341,0.262218,-0.660195,0.171615
4276443,1,-1.5705,-0.522739,-0.00011481,-2.09577,1.57051,1.57167,0.785061,-1.5708,-0.523599,8.32241e-08,-2.09439,1.5708,1.5708,0.785397,-0.000640034,-0.000233874,-0.000341106,-0.000390782,0.000187143,-0.000475541,0.00140316,0,0,0,0,0,0,0,-0.379017,-10.34,-0.357602,20.8448,0.819719,-0.649816,0.0972387,-0.405871,-1.20855,0.0174245,2.29465,0.262184,-0.66043,0.171635
4276444,1,-1.5705,-0.522738,-0.000115283,-2.09577,1.57051,1.57167,0.785061,-1.5708,-0.523599,8.32241e-08,-2.09439,1.5708,1.5708,0.785397,0.000779737,-0.000712728,-0.000227404,-0.000910135,-0.000485589,0.000395049,0.000935438,0,0,0,0,0,0,0,-0.430592,-10.3162,-0.357602,20.8725,0.836199,-0.669042,0.0972387,-0.404683,-1.21045,0.0192459,2.29613,0.262167,-0.660616,0.171665
4276445,1,-1.5705,-0.52274,-0.000115441,-2.09577,1.57051,1.57167,0.785056,-1.5708,-0.523599,8.32241e-08,-2.09439,1.5708,1.5708,0.785397,-0.00012979,-0.000475152,-0.000151603,0.000599669,-0.000527177,2.60074e-05,-0.0010718,0,0,0,0,0,0,0,-0.402821,-10.3162,-0.357602,20.821,0.841692,-0.662633,0.143015,-0.404153,-1.21052,0.0201526,2.29691,0.262147,-0.660679,0.171681
4276446,1,-1.5705,-0.522735,-0.000117443,-2.09577,1.57051,1.57167,0.78506,-1.5708,-0.523599,8.32241e-08,-2.09439,1.5708,1.5708,0.785397,-8.65264e-05,0.000889658,-0.000750682,-0.000157033,0.000462351,1.73382e-05,0.000506173,0,0,0,0,0,0,0,-0.402821,-10.3678,-0.329831,20.8448,0.819719,-0.662633,0.110056,-0.403847,-1.21003,0.0208093,2.29713,0.262126,-0.660709,0.171663
4276447,1,-1.5705,-0.522736,-0.000110222,-2.09577,1.57051,1.57167,0.785057,-1.5708,-0.523599,8.32241e-08,-2.09439,1.5708,1.5708,0.785397,-5.76843e-05,0.000593105,0.0019124,0.000452124,0.000104783,-0.0002258,-0.000611987,0,0,0,0,0,0,0,-0.402821,-10.3678,-0.432981,20.821,0.825212,-0.656224,0.135691,-0.403948,-1.21112,0.020838,2.29778,0.262152,-0.660705,0.171623
4276448,1,-1.5705,-0.522735,-0.000115517,-2.09577,1.57051,1.57167,0.785055,-1.5708,-0.523599,8.32241e-08,-2.09439,1.5708,1.5708,0.785397,-3.84562e-05,0.000952216,-0.000488307,-0.00146182,0.000273306,0.000324184,-0.00115398,0,0,0,0,0,0,0,-0.402821,-10.3916,-0.357602,20.8963,0.819719,-0.669042,0.155832,-0.404937,-1.21441,0.0194159,2.2995,0.262263,-0.660595,0.171573
4276449,1,-1.5705,-0.522735,-0.000115519,-2.09577,1.57051,1.57167,0.785061,-1.5708,-0.523599,8.32241e-08,-2.09439,1.5708,1.5708,0.785397,0.000623976,7.79984e-05,-0.000325538,0.000231878,-0.000224697,-2.1236e-05,0.00116346,0,0,0,0,0,0,0,-0.430592,-10.3678,-0.357602,20.8448,0.830705,-0.662633,0.103647,-0.405932,-1.2189,0.0180141,2.30208,0.262402,-0.660497,0.171534
4276450,1,-1.5705,-0.522738,-0.000113849,-2.09577,1.57051,1.57167,0.785058,-1.5708,-0.523599,8.32241e-08,-2.09439,1.5708,1.5708,0.785397,0.000972796,-0.000597615,0.000339787,0.000711397,5.36526e-05,-0.000251516,-0.000173794,0,0,0,0,0,0,0,-0.454395,-10.34,-0.381406,20.821,0.825212,-0.656224,0.129282,-0.40688,-1.22144,0.0168875,2.30359,0.262482,-0.660392,0.171528
4276451,1,-1.5705,-0.522737,-0.00010977,-2.09578,1.57051,1.57167,0.785059,-1.5708,-0.523599,8.32241e-08,-2.09439,1.5708,1.5708,0.785397,9.17189e-05,-0.00039841,0.000876138,-0.0024026,0.000476578,0.000544399,0.000121496,0,0,0,0,0,0,0,-0.430592,-10.34,-0.409177,20.9439,0.81331,-0.67545,0.122873,-0.408469,-1.22125,0.0149103,2.30387,0.262534,-0.660167,0.171538
4276452,1,-1.5705,-0.522734,-0.00011481,-2.09577,1.57051,1.57167,0.785061,-1.5708,-0.523599,8.32241e-08,-2.09439,1.5708,1.5708,0.785397,0.000617958,0.000384007,-0.000622334,6.87045e-05,-0.000326541,-0.000349144,0.000793074,0,0,0,0,0,0,0,-0.454395,-10.3678,-0.357602,20.8725,0.830705,-0.656224,0.103647,-0.410194,-1.22112,0.0127582,2.3048,0.262607,-0.659934,0.171546
4276453,1,-1.5705,-0.522736,-0.000113613,-2.09577,1.57051,1.57167,0.785057,-1.5708,-0.523599,8.32241e-08,-2.09439,1.5708,1.5708,0.785397,-0.00135127,0.000256005,0.000141923,0.000695417,-1.42438e-05,4.59631e-06,-0.000658079,0,0,0,0,0,0,0,-0.379017,-10.3678,-0.381406,20.8448,0.825212,-0.662633,0.135691,-0.41105,-1.22148,0.0119565,2.30584,0.262634,-0.659857,0.171544
4276454,1,-1.5705,-0.522739,-0.000115441,-2.09577,1.57051,1.57167,0.78506,-1.5708,-0.523599,8.32241e-08,-2.09439,1.5708,1.5708,0.785397,-0.000900844,-0.000478944,-0.000462197,0.00102042,0.000193955,3.06421e-06,0.000510717,0,0,0,0,0,0,0,-0.379017,-10.34,-0.357602,20.821,0.819719,-0.662633,0.110056,-0.410577,-1.22054,0.01309,2.30546,0.262548,-0.659981,0.171526
4276455,1,-1.5705,-0.522735,-0.000113823,-2.09577,1.57051,1.57167,0.785061,-1.5708,-0.523599,8.32241e-08,-2.09439,1.5708,1.5708,0.785397,-4.37507e-05,0.000330318,0.000248681,-0.000526144,-7.41474e-05,2.04281e-06,0.000577837,0,0,0,0,0,0,0,-0.402821,-10.3678,-0.381406,20.8725,0.825212,-0.662633,0.103647,-0.409403,-1.2184,0.0151748,2.30416,0.262399,-0.660198,0.171494
4276456,1,-1.5705,-0.522736,-0.00011746,-2.09577,1.57051,1.57167,0.785056,-1.5708,-0.523599,8.32241e-08,-2.09439,1.5708,1.5708,0.785397,0.000620447,0.000220212,-0.00104064,-0.000350762,-4.94316e-05,-0.000235997,-0.0013102,0,0,0,0,0,0,0,-0.430592,-10.3678,-0.329831,20.8725,0.825212,-0.656224,0.149424,-0.408401,-1.21728,0.0170518,2.3036,0.262273,-0.660393,0.171437
4276457,1,-1.5705,-0.522735,-0.000113847,-2.09577,1.57051,1.57167,0.785059,-1.5708,-0.523599,8.32241e-08,-2.09439,1.5708,1.5708,0.785397,-0.000235983,0.00070362,0.000512667,0.000415772,-3.29544e-05,0.000317387,0.00010988,0,0,0,0,0,0,0,-0.402821,-10.3916,-0.381406,20.8448,0.825212,-0.669042,0.122873,-0.407762,-1.21782,0.0184861,2.30405,0.262188,-0.660543,0.171356
4276458,1,-1.5705,-0.522735,-0.000115519,-2.09577,1.57051,1.57167,0.785062,-1.5708,-0.523599,8.32241e-08,-2.09439,1.5708,1.5708,0.785397,0.000492292,-8.7732e-05,-0.000215034,0.000277182,-2.19696e-05,0.000211591,0.00126005,0,0,0,0,0,0,0,-0.430592,-10.3678,-0.357602,20.8448,0.825212,-0.669042,0.09083,-0.407597,-1.21877,0.0192302,2.30455,0.262118,-0.660627,0.17128
4276459,1,-1.5705,-0.522736,-0.0001119,-2.09577,1.57051,1.57167,0.785056,-1.5708,-0.523599,8.32241e-08,-2.09439,1.5708,1.5708,0.785397,-0.000321419,-0.000708102,0.00106307,-0.000464826,-1.46464e-05,-0.000333657,-0.00133011,0,0,0,0,0,0,0,-0.402821,-10.34,-0.409177,20.8725,0.825212,-0.656224,0.149424,-0.408076,-1.21861,0.0189537,2.30456,0.26206,-0.660605,0.171208
4276460,1,-1.5705,-0.522738,-0.000113849,-2.09577,1.57051,1.57167,0.785054,-1.5708,-0.523599,8.32241e-08,-2.09439,1.5708,1.5708,0.785397,-0.000771091,-0.000472068,5.90993e-05,-0.000309884,-0.000416665,-0.000222438,-0.00159881,0,0,0,0,0,0,0,-0.379017,-10.34,-0.381406,20.8725,0.836199,-0.656224,0.16865,-0.408865,-1.21695,0.018056,2.30419,0.262016,-0.66051,0.171126
4276461,1,-1.5705,-0.522739,-0.000111901,-2.09577,1.57051,1.57167,0.785061,-1.5708,-0.523599,8.32241e-08,-2.09439,1.5708,1.5708,0.785397,4.2751e-05,-0.000314712,0.000689013,0.000999836,0.000332575,8.90668e-05,0.00134162,0,0,0,0,0,0,0,-0.402821,-10.34,-0.409177,20.821,0.819719,-0.662633,0.103647,-0.409527,-1.21427,0.0171695,2.30339,0.261968,-0.660412,0.171071
4276462,1,-1.5705,-0.522739,-0.00011552,-2.09577,1.57051,1.57167,0.785055,-1.5708,-0.523599,8.32241e-08,-2.09439,1.5708,1.5708,0.785397,2.85007e-05,-0.000209808,-0.000747084,0.000109746,0.000221716,-0.000652699,-0.00103837,0,0,0,0,0,0,0,-0.402821,-10.34,-0.357602,20.8448,0.819719,-0.643407,0.155832,-0.409962,-1.21107,0.0165841,2.30201,0.261893,-0.660327,0.171073
4276463,1,-1.57051,-0.522737,-0.00011385,-2.09577,1.57051,1.57167,0.785059,-1.5708,-0.523599,8.32241e-08,-2.09439,1.5708,1.5708,0.785397,-0.00109462,0.000509742,5.87562e-05,7.31638e-05,-0.00025909,-0.000197774,0.000528459,0,0,0,0,0,0,0,-0.355213,-10.3678,-0.381406,20.8448,0.830705,-0.649816,0.122873,-0.409751,-1.20885,0.016943,2.30095,0.261802,-0.660324,0.171119
4276464,1,-1.5705,-0.522737,-0.00011552,-2.09577,1.57051,1.57167,0.785061,-1.5708,-0.523599,8.32241e-08,-2.09439,1.5708,1.5708,0.785397,0.000383875,0.000339828,-0.000517641,4.87759e-05,3.07238e-05,0.00010551,0.00130174,0,0,0,0,0,0,0,-0.402821,-10.3678,-0.357602,20.8448,0.825212,-0.656224,0.0972387,-0.408854,-1.20881,0.0182288,2.30099,0.261725,-0.660414,0.171198
4276465,1,-1.5705,-0.522737,-0.00011385,-2.09577,1.57051,1.57167,0.785058,-1.5708,-0.523599,8.32241e-08,-2.09439,1.5708,1.5708,0.785397,0.000255917,0.000226552,0.000211718,-0.000617097,-0.000182968,7.03399e-05,-0.000318967,0,0,0,0,0,0,0,-0.402821,-10.3678,-0.381406,20.8725,0.830705,-0.656224,0.129282,-0.408055,-1.21046,0.0193221,2.30201,0.26169,-0.660473,0.17129
4276466,1,-1.5705,-0.522735,-0.00011552,-2.09577,1.57051,1.57167,0.785059,-1.5708,-0.523599,8.32241e-08,-2.09439,1.5708,1.5708,0.785397,0.00137704,0.000151035,-0.000415667,-0.000411398,-0.000121979,0.000284252,2.47145e-05,0,0,0,0,0,0,0,-0.454395,-10.3678,-0.357602,20.8725,0.830705,-0.662633,0.122873,-0.407933,-1.21298,0.0194659,2.30374,0.261711,-0.660413,0.171359
4276467,1,-1.5705,-0.522735,-0.00011385,-2.09577,1.57051,1.57167,0.785062,-1.5708,-0.523599,8.32241e-08,-2.09439,1.5708,1.5708,0.785397,0.000361213,0.000657502,0.000279701,0.00148897,-8.13191e-05,0.000189501,0.00120327,0,0,0,0,0,0,0,-0.430592,-10.3916,-0.381406,20.7972,0.830705,-0.662633,0.09083,-0.408495,-1.21543,0.0187213,2.3053,0.261755,-0.660245,0.171405
4276468,1,-1.5705,-0.522737,-0.00011385,-2.09577,1.57051,1.57167,0.785057,-1.5708,-0.523599,8.32241e-08,-2.09439,1.5708,1.5708,0.785397,-0.000408805,-0.000118477,0.000186467,-0.000770589,-5.42127e-05,-0.000111025,-0.000859332,0,0,0,0,0,0,0,-0.402821,-10.3678,-0.381406,20.8725,0.830705,-0.656224,0.135691,-0.409253,-1.21722,0.0177174,2.30613,0.261793,-0.660051,0.171422
4276469,1,-1.5705,-0.522738,-0.000111901,-2.09577,1.57051,1.57167,0.785055,-1.5708,-0.523599,8.32241e-08,-2.09439,1.5708,1.5708,0.785397,-0.000272537,-0.00128541,0.000773925,0.00124951,0.000167309,0.000400701,-0.00131887,0,0,0,0,0,0,0,-0.402821,-10.3162,-0.409177,20.7972,0.825212,-0.669042,0.155832,-0.409879,-1.21701,0.0167899,2.30591,0.261817,-0.659861,0.171399
4276470,1,-1.5705,-0.522736,-0.00011552,-2.09577,1.57051,1.57167,0.785061,-1.5708,-0.523599,8.32241e-08,-2.09439,1.5708,1.5708,0.785397,-0.000181691,0.000349485,-0.000690476,-0.000280616,0.00031499,2.97754e-05,0.00105353,0,0,0,0,0,0,0,-0.402821,-10.3678,-0.357602,20.8448,0.819719,-0.662633,0.103647,-0.41018,-1.21445,0.0162653,2.30452,0.261808,-0.659703,0.171364
4276471,1,-1.5705,-0.522737,-0.00011385,-2.09577,1.57051,1.57167,0.785056,-1.5708,-0.523599,8.32241e-08,-2.09439,1.5708,1.5708,0.785397,0.000528486,0.00023299,9.64949e-05,-0.000187077,0.000209993,1.98502e-05,-0.000755708,0,0,0,0,0,0,0,-0.430592,-10.3678,-0.381406,20.8448,0.819719,-0.662633,0.143015,-0.410052,-1.2127,0.0164372,2.30356,0.261797,-0.659636,0.171342
4276472,1,-1.5705,-0.522737,-0.000111901,-2.09577,1.57051,1.57167,0.785056,-1.5708,-0.523599,8.32241e-08,-2.09439,1.5708,1.5708,0.785397,-0.000854102,0.000155327,0.000713944,0.000432094,0.000139995,1.32335e-05,-0.000741164,0,0,0,0,0,0,0,-0.379017,-10.3678,-0.409177,20.821,0.819719,-0.662633,0.149424,-0.409938,-1.21283,0.0165923,2.30363,0.261813,-0.659605,0.171331
4276473,1,-1.5705,-0.522739,-0.00011552,-2.09577,1.57051,1.57167,0.785059,-1.5708,-0.523599,8.32241e-08,-2.09439,1.5708,1.5708,0.785397,-0.000569401,-0.000546063,-0.000730463,0.000844874,-0.00011012,-0.000228537,0.000726594,0,0,0,0,0,0,0,-0.379017,-10.34,-0.357602,20.7972,0.825212,-0.656224,0.116465,-0.409622,-1.21264,0.0169347,2.30331,0.261796,-0.659616,0.171347
4276474,1,-1.5705,-0.522739,-0.000111901,-2.09577,1.57051,1.57167,0.785055,-1.5708,-0.523599,8.32241e-08,-2.09439,1.5708,1.5708,0.785397,-0.000379601,-0.000920854,0.00071945,-0.000550374,-0.000276864,-0.000152358,-0.000973666,0,0,0,0,0,0,0,-0.379017,-10.3162,-0.409177,20.8448,0.830705,-0.656224,0.155832,-0.408842,-1.21081,0.0178639,2.30212,0.26172,-0.659679,0.171403
4276475,1,-1.5705,-0.522736,-0.00011552,-2.09577,1.57051,1.57167,0.785061,-1.5708,-0.523599,8.32241e-08,-2.09439,1.5708,1.5708,0.785397,0.000953359,0.000592523,-0.000726792,-0.000366916,0.000222325,0.000373146,0.00152103,0,0,0,0,0,0,0,-0.430592,-10.3678,-0.357602,20.8448,0.819719,-0.669042,0.0972387,-0.408252,-1.20902,0.0184771,2.30127,0.261657,-0.659707,0.17149
4276476,1,-1.5705,-0.522737,-0.00011385,-2.09577,1.57051,1.57167,0.785062,-1.5708,-0.523599,8.32241e-08,-2.09439,1.5708,1.5708,0.785397,0.000635572,0.000395016,7.22837e-05,-0.000244611,0.000385576,-0.000225954,0.00125138,0,0,0,0,0,0,0,-0.430592,-10.3678,-0.381406,20.8448,0.81331,-0.656224,0.09083,-0.408137,-1.20963,0.0185011,2.30183,0.261646,-0.659692,0.171593
4276477,1,-1.5705,-0.522737,-0.00011385,-2.09577,1.57051,1.57167,0.785054,-1.5708,-0.523599,8.32241e-08,-2.09439,1.5708,1.5708,0.785397,0.000423715,-0.00038627,4.81892e-05,-0.000812688,1.96915e-05,-0.000150636,-0.00204796,0,0,0,0,0,0,0,-0.430592,-10.34,-0.381406,20.8725,0.819719,-0.656224,0.16865,-0.408468,-1.21184,0.0179866,2.30329,0.261665,-0.659633,0.171674
4276478,1,-1.5705,-0.52274,-0.000111901,-2.09577,1.57051,1.57167,0.785059,-1.5708,-0.523599,8.32241e-08,-2.09439,1.5708,1.5708,0.785397,-0.000367137,-0.000814325,0.00068174,0.000664634,-0.000190323,-0.000100424,0.000330112,0,0,0,0,0,0,0,-0.402821,-10.3162,-0.409177,20.821,0.825212,-0.656224,0.122873,-0.409136,-1.21286,0.0169527,2.30425,0.261666,-0.659511,0.171719
4276479,1,-1.5705,-0.522737,-0.000117469,-2.09577,1.57051,1.57167,0.785058,-1.5708,-0.523599,8.32241e-08,-2.09439,1.5708,1.5708,0.785397,-0.000244758,1.39283e-05,-0.00140155,-0.000763337,-0.000330332,0.000407769,-1.72845e-05,0,0,0,0,0,0,0,-0.402821,-10.34,-0.329831,20.8725,0.830705,-0.669042,0.129282,-0.409335,-1.21221,0.016582,2.30427,0.261608,-0.659444,0.171763
4276480,1,-1.5705,-0.522736,-0.00011385,-2.09577,1.57051,1.57167,0.785057,-1.5708,-0.523599,8.32241e-08,-2.09439,1.5708,1.5708,0.785397,-0.000163172,0.000658899,0.000272062,-0.0010657,-1.67711e-05,3.44868e-05,-0.000248882,0,0,0,0,0,0,0,-0.402821,-10.3678,-0.381406,20.8963,0.825212,-0.662633,0.135691,-0.408592,-1.21276,0.0176457,2.30504,0.261537,-0.659538,0.171816
4276481,1,-1.5705,-0.522742,-0.00011385,-2.09577,1.57051,1.57167,0.78506,-1.5708,-0.523599,8.32241e-08,-2.09439,1.5708,1.5708,0.785397,0.000540833,-0.00132397,0.000181374,0.000495957,-0.000214631,2.29912e-05,0.000783514,0,0,0,0,0,0,0,-0.430592,-10.2924,-0.381406,20.8448,0.830705,-0.662633,0.110056,-0.407939,-1.21417,0.0186034,2.30641,0.261495,-0.659637,0.171876
4276482,1,-1.5705,-0.522739,-0.000117469,-2.09577,1.57051,1.57167,0.785059,-1.5708,-0.523599,8.32241e-08,-2.09439,1.5708,1.5708,0.785397,0.000360555,0.000230976,-0.00108551,0.000330638,6.0363e-05,1.53275e-05,4.76251e-05,0,0,0,0,0,0,0,-0.430592,-10.34,-0.329831,20.8448,0.825212,-0.662633,0.122873,-0.407776,-1.21357,0.0189567,2.30652,0.261427,-0.659654,0.171945
4276483,1,-1.5705,-0.522737,-0.00011385,-2.09577,1.57051,1.57167,0.785056,-1.5708,-0.523599,8.32241e-08,-2.09439,1.5708,1.5708,0.785397,0.00024037,0.000803598,0.000482753,0.000220425,0.000243693,1.02183e-05,-0.000714235,0,0,0,0,0,0,0,-0.430592,-10.3678,-0.381406,20.8448,0.819719,-0.662633,0.143015,-0.407661,-1.21284,0.0194294,2.30617,0.261343,-0.659682,0.172004
4276484,1,-1.5705,-0.522739,-0.00011023,-2.09577,1.57051,1.57167,0.785061,-1.5708,-0.523599,8.32241e-08,-2.09439,1.5708,1.5708,0.785397,-0.000489367,-0.000670694,0.00152826,-0.00105948,-4.09888e-05,0.00048153,0.00121926,0,0,0,0,0,0,0,-0.402821,-10.3162,-0.432981,20.8963,0.825212,-0.67545,0.0972387,-0.408157,-1.21361,0.0189414,2.3066,0.261323,-0.659654,0.17205
4276485,1,-1.5705,-0.522734,-0.00011385,-2.09577,1.57051,1.57167,0.785059,-1.5708,-0.523599,8.32241e-08,-2.09439,1.5708,1.5708,0.785397,-0.000326245,0.000759297,-0.000187585,0.000500109,-0.000230776,-0.000391057,-0.000136593,0,0,0,0,0,0,0,-0.402821,-10.3678,-0.381406,20.8448,0.830705,-0.656224,0.122873,-0.409212,-1.21479,0.0174199,2.30754,0.261357,-0.659562,0.172087
4276486,1,-1.57051,-0.522736,-0.00011385,-2.09577,1.57051,1.57167,0.785055,-1.5708,-0.523599,8.32241e-08,-2.09439,1.5708,1.5708,0.785397,-0.00133112,-0.000143416,-0.000125057,0.000333406,4.95996e-05,-2.33456e-05,-0.00131177,0,0,0,0,0,0,0,-0.355213,-10.34,-0.381406,20.8448,0.825212,-0.662633,0.155832,-0.409551,-1.2159,0.0168612,2.30831,0.261363,-0.65959,0.172099
4276487,1,-1.5705,-0.522732,-0.00011385,-2.09577,1.57051,1.57167,0.785061,-1.5708,-0.523599,8.32241e-08,-2.09439,1.5708,1.5708,0.785397,0.00022621,0.00111082,-8.33712e-05,0.000779083,3.30664e-05,-1.55637e-05,0.00129563,0,0,0,0,0,0,0,-0.402821,-10.3916,-0.381406,20.821,0.825212,-0.662633,0.0972387,-0.408934,-1.21702,0.0176759,2.30868,0.261324,-0.659764,0.172097
4276488,1,-1.5705,-0.522738,-0.000111901,-2.09577,1.57051,1.57167,0.78506,-1.5708,-0.523599,8.32241e-08,-2.09439,1.5708,1.5708,0.785397,0.000150807,-0.000465882,0.000594033,-3.74236e-05,-0.000181406,-0.000247735,0.000389035,0,0,0,0,0,0,0,-0.402821,-10.34,-0.409177,20.8448,0.830705,-0.656224,0.110056,-0.408478,-1.2181,0.0182229,2.30883,0.261284,-0.659907,0.172098
4276489,1,-1.5705,-0.522738,-0.000117469,-2.09577,1.57051,1.57167,0.785059,-1.5708,-0.523599,8.32241e-08,-2.09439,1.5708,1.5708,0.785397,-0.000456274,-0.0008674,-0.00146002,0.000531863,-0.000324388,7.22024e-05,-0.000215361,0,0,0,0,0,0,0,-0.379017,-10.3162,-0.329831,20.821,0.836199,-0.662633,0.122873,-0.40813,-1.2175,0.0186167,2.30825,0.261228,-0.66,0.172085
4276490,1,-1.5705,-0.522736,-0.00011385,-2.09577,1.57051,1.57167,0.785063,-1.5708,-0.523599,8.32241e-08,-2.09439,1.5708,1.5708,0.785397,-0.000304183,0.000628159,0.000233081,-0.000851851,0.000190642,-0.000426583,0.00128058,0,0,0,0,0,0,0,-0.379017,-10.3678,-0.381406,20.8725,0.825212,-0.649816,0.0844213,-0.407101,-1.21568,0.0200201,2.30733,0.261153,-0.660157,0.172036
4276491,1,-1.5705,-0.522737,-0.00011385,-2.09577,1.57051,1.57167,0.785054,-1.5708,-0.523599,8.32241e-08,-2.09439,1.5708,1.5708,0.785397,0.000354023,0.000418773,0.000155387,-0.0005679,-0.000279806,0.000665047,-0.0020285,0,0,0,0,0,0,0,-0.402821,-10.3678,-0.381406,20.8725,0.836199,-0.67545,0.162241,-0.40614,-1.21586,0.0212377,2.30779,0.261153,-0.660303,0.171941
4276492,1,-1.5705,-0.522737,-0.00011385,-2.09577,1.57051,1.57167,0.785056,-1.5708,-0.523599,8.32241e-08,-2.09439,1.5708,1.5708,0.785397,0.000236016,0.000279182,0.000103591,0.000271014,-0.000186537,-3.13531e-05,-0.000877613,0,0,0,0,0,0,0,-0.402821,-10.3678,-0.381406,20.8448,0.836199,-0.662633,0.149424,-0.405942,-1.21787,0.0212329,2.30933,0.261245,-0.660343,0.17181
4276493,1,-1.5705,-0.522742,-0.00011023,-2.09577,1.57051,1.57167,0.785064,-1.5708,-0.523599,8.32241e-08,-2.09439,1.5708,1.5708,0.785397,0.000806958,-0.00157712,0.00127549,-0.000468938,0.000282543,-2.09021e-05,0.00205978,0,0,0,0,0,0,0,-0.430592,-10.2924,-0.432981,20.8725,0.825212,-0.662633,0.0780126,-0.406695,-1.21843,0.019775,2.31014,0.261366,-0.660222,0.171697
4276494,1,-1.57051,-0.522735,-0.000111901,-2.09577,1.57051,1.57167,0.785056,-1.5708,-0.523599,8.32241e-08,-2.09439,1.5708,1.5708,0.785397,-0.00122527,0.000711827,0.000293513,0.0008938,0.000391812,-1.39347e-05,-0.00103431,0,0,0,0,0,0,0,-0.355213,-10.3678,-0.409177,20.821,0.819719,-0.662633,0.143015,-0.408088,-1.21661,0.0172405,2.30971,0.261483,-0.65998,0.171617
4276495,1,-1.5705,-0.522735,-0.00011552,-2.09577,1.57051,1.57167,0.785059,-1.5708,-0.523599,8.32241e-08,-2.09439,1.5708,1.5708,0.785397,-0.000260032,0.00103136,-0.00101075,-0.00116737,-0.000145693,0.000228069,5.64451e-05,0,0,0,0,0,0,0,-0.379017,-10.3916,-0.357602,20.8963,0.830705,-0.669042,0.122873,-0.408526,-1.21609,0.0159853,2.30972,0.261588,-0.659901,0.171536
4276496,1,-1.5705,-0.522733,-0.00010977,-2.09577,1.57051,1.57167,0.78506,-1.5708,-0.523599,8.32241e-08,-2.09439,1.5708,1.5708,0.785397,0.00103307,0.00124439,0.000532592,0.000428179,0.000309773,0.000152046,0.000512348,0,0,0,0,0,0,0,-0.430592,-10.4154,-0.409177,20.8448,0.819719,-0.669042,0.110056,-0.408018,-1.21925,0.016148,2.3115,0.261708,-0.660013,0.171451
4276497,1,-1.5705,-0.522742,-0.000111191,-2.09577,1.57051,1.57167,0.785056,-1.5708,-0.523599,8.32241e-08,-2.09439,1.5708,1.5708,0.785397,0.000688714,-0.00204727,0.000355061,0.000842264,-0.000200386,-0.000135995,-0.0011165,0,0,0,0,0,0,0,-0.430592,-10.2924,-0.409177,20.821,0.830705,-0.662633,0.149424,-0.408203,-1.22166,0.0153789,2.31272,0.261814,-0.660026,0.171374
4276498,1,-1.5705,-0.522738,-0.000115283,-2.09577,1.57051,1.57167,0.78506,-1.5708,-0.523599,8.32241e-08,-2.09439,1.5708,1.5708,0.785397,0.000459143,-0.000808035,-0.000969718,-0.000644916,6.98598e-05,0.000146696,0.000713731,0,0,0,0,0,0,0,-0.430592,-10.3162,-0.357602,20.8725,0.825212,-0.669042,0.110056,-0.408866,-1.21907,0.0140299,2.31142,0.261835,-0.659922,0.171311
4276499,1,-1.5705,-0.522738,-0.000115441,-2.09577,1.57051,1.57167,0.785058,-1.5708,-0.523599,8.32241e-08,-2.09439,1.5708,1.5708,0.785397,-0.000343519,1.81221e-05,-0.000646479,0.00021967,4.65732e-05,9.77971e-05,-0.000236256,0,0,0,0,0,0,0,-0.402821,-10.34,-0.357602,20.8448,0.825212,-0.669042,0.129282,-0.408693,-1.21452,0.0140809,2.30941,0.261788,-0.659936,0.171262
4276500,1,-1.5705,-0.522739,-0.000117443,-2.09577,1.57051,1.57167,0.785056,-1.5708,-0.523599,8.32241e-08,-2.09439,1.5708,1.5708,0.785397,-0.000229013,1.20814e-05,-0.0010806,0.000703258,-0.000172402,-0.00040952,-0.000903489,0,0,0,0,0,0,0,-0.402821,-10.34,-0.329831,20.821,0.830705,-0.656224,0.149424,-0.407385,-1.21124,0.0159448,2.30792,0.261708,-0.660155,0.171223
4276501,1,-1.5705,-0.522742,-0.000113841,-2.09577,1.57051,1.57167,0.785056,-1.5708,-0.523599,8.32241e-08,-2.09439,1.5708,1.5708,0.785397,-0.000152675,-0.00110557,0.000486026,-8.7973e-05,-0.000318385,-3.56543e-05,-0.000602326,0,0,0,0,0,0,0,-0.402821,-10.2924,-0.381406,20.8448,0.836199,-0.662633,0.149424,-0.405759,-1.20825,0.018342,2.30637,0.261613,-0.660437,0.171204
4276502,1,-1.5705,-0.522737,-0.000113847,-2.09577,1.57051,1.57167,0.785061,-1.5708,-0.523599,8.32241e-08,-2.09439,1.5708,1.5708,0.785397,-0.000101783,0.00102619,0.000324017,-5.86487e-05,0.000194644,0.000213589,0.00153123,0,0,0,0,0,0,0,-0.402821,-10.3678,-0.381406,20.8448,0.825212,-0.669042,0.0972387,-0.404846,-1.20588,0.0196317,2.30523,0.261571,-0.660623,0.17123
4276503,1,-1.5705,-0.522741,-0.000113849,-2.09577,1.57051,1.57167,0.785055,-1.5708,-0.523599,8.32241e-08,-2.09439,1.5708,1.5708,0.785397,-0.000624668,-0.000522298,0.000216012,-3.90991e-05,0.000570572,-0.000332325,-0.00114932,0,0,0,0,0,0,0,-0.379017,-10.3162,-0.381406,20.8448,0.81331,-0.656224,0.155832,-0.404599,-1.2055,0.0198365,2.3052,0.261605,-0.660731,0.171295
4276504,1,-1.5705,-0.522741,-0.000113849,-2.09577,1.57051,1.57167,0.785057,-1.5708,-0.523599,8.32241e-08,-2.09439,1.5708,1.5708,0.785397,-0.000416445,-0.000348199,0.000144008,0.000530746,-6.04279e-05,-0.00022155,-2.02277e-05,0,0,0,0,0,0,0,-0.379017,-10.3162,-0.381406,20.821,0.825212,-0.656224,0.135691,-0.404443,-1.20536,0.0198324,2.30527,0.261648,-0.660817,0.171379
4276505,1,-1.5705,-0.522734,-0.000111901,-2.09577,1.57051,1.57167,0.785059,-1.5708,-0.523599,8.32241e-08,-2.09439,1.5708,1.5708,0.785397,0.000279182,0.00208792,0.000745619,-0.000202981,-4.02852e-05,8.9659e-05,0.000698592,0,0,0,0,0,0,0,-0.402821,-10.4154,-0.409177,20.8448,0.825212,-0.662633,0.116465,-0.404547,-1.20619,0.0193739,2.30568,0.2617,-0.66086,0.171487
4276506,1,-1.5705,-0.522739,-0.000117469,-2.09577,1.57051,1.57167,0.78506,-1.5708,-0.523599,8.32241e-08,-2.09439,1.5708,1.5708,0.785397,0.00139255,-0.000928105,-0.00135896,0.000421491,-0.000433758,5.97726e-05,0.000703087,0,0,0,0,0,0,0,-0.454395,-10.3162,-0.329831,20.821,0.836199,-0.662633,0.110056,-0.405062,-1.20922,0.0184056,2.30706,0.261778,-0.660855,0.171617
4276507,1,-1.5705,-0.522738,-0.00011385,-2.09577,1.57051,1.57167,0.785058,-1.5708,-0.523599,8.32241e-08,-2.09439,1.5708,1.5708,0.785397,0.000371553,-6.19247e-05,0.000300452,0.000280994,-8.57214e-05,3.98484e-05,-0.000243352,0,0,0,0,0,0,0,-0.430592,-10.34,-0.381406,20.821,0.830705,-0.662633,0.129282,-0.405667,-1.21097,0.0175877,2.30776,0.261819,-0.660814,0.171742
4276508,1,-1.5705,-0.522739,-0.000111901,-2.09577,1.57051,1.57167,0.78506,-1.5708,-0.523599,8.32241e-08,-2.09439,1.5708,1.5708,0.785397,-0.000401912,-4.12831e-05,0.000849915,-0.000369483,0.000349753,-0.000210793,0.000549842,0,0,0,0,0,0,0,-0.402821,-10.34,-0.409177,20.8448,0.819719,-0.656224,0.110056,-0.406457,-1.21097,0.0165704,2.30766,0.261847,-0.660719,0.171841
4276509,1,-1.5705,-0.522737,-0.00011552,-2.09577,1.57051,1.57167,0.785054,-1.5708,-0.523599,8.32241e-08,-2.09439,1.5708,1.5708,0.785397,0.000381673,0.000622092,-0.000639816,0.00031049,-0.000377183,-0.000377888,-0.00180358,0,0,0,0,0,0,0,-0.430592,-10.3678,-0.357602,20.821,0.836199,-0.649816,0.16865,-0.407292,-1.21149,0.0154152,2.30793,0.261905,-0.660617,0.171909
4276510,1,-1.5705,-0.522735,-0.00011552,-2.09577,1.57051,1.57167,0.785058,-1.5708,-0.523599,8.32241e-08,-2.09439,1.5708,1.5708,0.785397,0.000254448,0.00097154,-0.000426544,-0.000999432,0.000155446,-1.45663e-05,0.000255677,0,0,0,0,0,0,0,-0.430592,-10.3916,-0.357602,20.8725,0.825212,-0.656224,0.129282,-0.407629,-1.21386,0.0151087,2.30915,0.261981,-0.660599,0.17196
4276511,1,-1.5705,-0.522741,-0.000111901,-2.09577,1.57051,1.57167,0.785059,-1.5708,-0.523599,8.32241e-08,-2.09439,1.5708,1.5708,0.785397,-0.00103679,-0.00111554,0.000922063,0.000540138,0.000307081,0.000465007,0.00040781,0,0,0,0,0,0,0,-0.379017,-10.3162,-0.409177,20.821,0.819719,-0.669042,0.122873,-0.407571,-1.21666,0.0154338,2.31068,0.26206,-0.660631,0.172027
4276512,1,-1.5705,-0.522739,-0.00011552,-2.09577,1.57051,1.57167,0.785059,-1.5708,-0.523599,8.32241e-08,-2.09439,1.5708,1.5708,0.785397,0.00051523,-0.000186884,-0.000591717,0.000360092,0.000204721,0.000310005,0.000509232,0,0,0,0,0,0,0,-0.430592,-10.34,-0.357602,20.821,0.819719,-0.669042,0.116465,-0.407427,-1.21664,0.0158121,2.31071,0.262089,-0.660636,0.172122
4276513,0.99,-1.5705,-0.522732,-0.00011552,-2.09577,1.57051,1.57167,0.785054,-1.5708,-0.523599,8.32241e-08,-2.09439,1.5708,1.5708,0.785397,0.000343487,0.00163865,-0.000394478,0.000240061,0.000136481,0.00020667,-0.00135593,0,0,0,0,0,0,0,-0.430592,-10.4154,-0.357602,20.821,0.819719,-0.669042,0.162241,-0.407186,-1.21597,0.0164427,2.31007,0.262073,-0.66066,0.17222
4276514,0.98,-1.5705,-0.522736,-0.000117469,-2.09577,1.57051,1.57167,0.785061,-1.5708,-0.523599,8.32241e-08,-2.09439,1.5708,1.5708,0.785397,-0.000977435,-2.11918e-05,-0.000912599,-0.00104639,-0.000112464,-9.95791e-05,0.00150354,0,0,0,0,0,0,0,-0.379017,-10.3678,-0.329831,20.8725,0.825212,-0.662633,0.0972387,-0.40644,-1.21794,0.0179706,2.31069,0.26206,-0.660806,0.172316
4276515,0.98,-1.5705,-0.522737,-0.00011385,-2.09577,1.57051,1.57167,0.785062,-1.5708,-0.523599,8.32241e-08,-2.09439,1.5708,1.5708,0.785397,-9.48112e-05,-0.000663742,0.000598026,-4.79761e-05,-7.49757e-05,0.000170973,0.00123972,0,0,0,0,0,0,0,-0.402821,-10.34,-0.381406,20.8448,0.825212,-0.669042,0.09083,-0.405268,-1.22016,0.0201094,2.31178,0.262036,-0.66103,0.172416
4276516,0.98,-1.5705,-0.522736,-0.00011552,-2.09577,1.57051,1.57167,0.785055,-1.5708,-0.523599,8.32241e-08,-2.09439,1.5708,1.5708,0.785397,-6.32075e-05,0.000207119,-0.000158128,0.000524828,-4.99838e-05,-0.000123377,-0.00158102,0,0,0,0,0,0,0,-0.402821,-10.3678,-0.357602,20.821,0.825212,-0.662633,0.155832,-0.404556,-1.22026,0.0214974,2.3119,0.261988,-0.661169,0.172492
4276517,0.98,-1.5705,-0.522739,-0.00011385,-2.09576,1.57051,1.57167,0.785059,-1.5708,-0.523599,8.32241e-08,-2.09439,1.5708,1.5708,0.785397,0.000607476,-0.000511534,0.000451393,0.00155631,-3.33225e-05,-8.22513e-05,0.000404051,0,0,0,0,0,0,0,-0.430592,-10.34,-0.381406,20.7694,0.825212,-0.662633,0.116465,-0.404688,-1.21834,0.0216537,2.3105,0.261908,-0.661172,0.172526
4276518,0.98,-1.5705,-0.522737,-0.00011385,-2.09577,1.57051,1.57167,0.785058,-1.5708,-0.523599,8.32241e-08,-2.09439,1.5708,1.5708,0.785397,-0.00024463,0.000308591,0.000300929,-0.000725697,-2.2215e-05,-5.48342e-05,-0.000205351,0,0,0,0,0,0,0,-0.402821,-10.3678,-0.381406,20.8448,0.825212,-0.662633,0.129282,-0.405495,-1.21554,0.0208337,2.30828,0.261819,-0.661073,0.172542
4276519,0.98,-1.5705,-0.522739,-0.000111901,-2.09577,1.57051,1.57167,0.785057,-1.5708,-0.523599,8.32241e-08,-2.09439,1.5708,1.5708,0.785397,-0.000163087,-0.000443887,0.000850233,7.30139e-05,-1.481e-05,-0.000273915,-0.00037426,0,0,0,0,0,0,0,-0.402821,-10.34,-0.409177,20.821,0.825212,-0.656224,0.135691,-0.406656,-1.21353,0.0193853,2.30671,0.261773,-0.660927,0.172549
4276520,0.98,-1.5705,-0.522737,-0.00011552,-2.09577,1.57051,1.57167,0.785061,-1.5708,-0.523599,8.32241e-08,-2.09439,1.5708,1.5708,0.785397,0.000540889,0.00035369,-0.000639604,0.000605488,-9.87334e-06,5.47489e-05,0.00117465,0,0,0,0,0,0,0,-0.430592,-10.3678,-0.357602,20.7972,0.825212,-0.662633,0.0972387,-0.407786,-1.21228,0.0179275,2.30566,0.261748,-0.660789,0.172552
4276521,0.98,-1.5705,-0.522737,-0.00011552,-2.09577,1.57051,1.57167,0.785057,-1.5708,-0.523599,8.32241e-08,-2.09439,1.5708,1.5708,0.785397,-0.000289021,0.000235793,-0.000426402,0.000403659,-0.000616934,0.000273858,-0.000641055,0,0,0,0,0,0,0,-0.402821,-10.3678,-0.357602,20.7972,0.841692,-0.669042,0.135691,-0.408321,-1.21155,0.0174496,2.30461,0.261698,-0.660745,0.172551
4276522,0.98,-1.5705,-0.522737,-0.000111901,-2.09577,1.57051,1.57167,0.785056,-1.5708,-0.523599,8.32241e-08,-2.09439,1.5708,1.5708,0.785397,0.000456933,0.000157195,0.000922158,-0.00205094,0.000402513,-0.000529505,-0.000935997,0,0,0,0,0,0,0,-0.430592,-10.3678,-0.409177,20.8963,0.819719,-0.649816,0.149424,-0.408533,-1.21239,0.0174703,2.30456,0.261685,-0.660762,0.172528
4276523,0.98,-1.5705,-0.522735,-0.00011385,-2.09577,1.57051,1.57167,0.785059,-1.5708,-0.523599,8.32241e-08,-2.09439,1.5708,1.5708,0.785397,-0.000344992,0.000104797,-3.48422e-05,-0.000810484,6.48914e-05,0.000121715,0.000596705,0,0,0,0,0,0,0,-0.402821,-10.3678,-0.381406,20.8725,0.825212,-0.662633,0.116465,-0.409105,-1.21512,0.0168531,2.30623,0.261772,-0.66073,0.172498
4276524,0.98,-1.5705,-0.522736,-0.000117469,-2.09577,1.57051,1.57167,0.785059,-1.5708,-0.523599,8.32241e-08,-2.09439,1.5708,1.5708,0.785397,0.000419619,-0.000579749,-0.00122965,-0.000540323,0.000246711,0.000318502,0.000397804,0,0,0,0,0,0,0,-0.430592,-10.34,-0.329831,20.8725,0.819719,-0.669042,0.116465,-0.409305,-1.21795,0.016807,2.30836,0.261868,-0.660743,0.172483
4276525,0.98,-1.5705,-0.522736,-0.00011552,-2.09577,1.57051,1.57167,0.785056,-1.5708,-0.523599,8.32241e-08,-2.09439,1.5708,1.5708,0.785397,-0.00092668,0.000263114,-0.000170155,-0.000360215,0.000164474,-0.000262383,-0.000955501,0,0,0,0,0,0,0,-0.379017,-10.3678,-0.357602,20.8725,0.819719,-0.656224,0.149424,-0.4085,-1.21951,0.0183677,2.30976,0.26189,-0.66089,0.172477
4276526,0.98,-1.5705,-0.522737,-0.000111901,-2.09577,1.57051,1.57167,0.785061,-1.5708,-0.523599,8.32241e-08,-2.09439,1.5708,1.5708,0.785397,-6.09745e-05,0.00017541,0.00109299,0.000409471,-0.000297252,-0.000174922,0.00105842,0,0,0,0,0,0,0,-0.402821,-10.3678,-0.409177,20.8448,0.830705,-0.656224,0.103647,-0.407613,-1.22048,0.0199825,2.31054,0.261876,-0.661042,0.172478
4276527,0.98,-1.5705,-0.522737,-0.000111901,-2.09577,1.57051,1.57167,0.785059,-1.5708,-0.523599,8.32241e-08,-2.09439,1.5708,1.5708,0.785397,-0.000597462,0.00011694,0.000728659,0.00027298,0.000208733,-0.000116615,0.000230896,0,0,0,0,0,0,0,-0.379017,-10.3678,-0.409177,20.8448,0.819719,-0.656224,0.116465,-0.407618,-1.22097,0.0200425,2.31066,0.261863,-0.661049,0.172492
4276528,0.98,-1.5705,-0.522739,-0.00011385,-2.09577,1.57051,1.57167,0.785057,-1.5708,-0.523599,8.32241e-08,-2.09439,1.5708,1.5708,0.785397,0.000808118,-0.000571654,-0.000163841,0.000181987,-6.42949e-05,0.000159616,-0.000558146,0,0,0,0,0,0,0,-0.430592,-10.34,-0.381406,20.8448,0.825212,-0.662633,0.135691,-0.408246,-1.22032,0.0190597,2.30995,0.261836,-0.660938,0.1725
4276529,0.98,-1.5705,-0.522737,-0.00011385,-2.09577,1.57051,1.57167,0.785061,-1.5708,-0.523599,8.32241e-08,-2.09439,1.5708,1.5708,0.785397,0.00109556,0.000268511,-0.000109227,0.000678137,-4.28633e-05,0.000343769,0.000814697,0,0,0,0,0,0,0,-0.454395,-10.3678,-0.381406,20.821,0.825212,-0.669042,0.103647,-0.409121,-1.21857,0.0178278,2.30855,0.261778,-0.660767,0.172491
4276530,0.98,-1.5705,-0.522739,-0.00011552,-2.09577,1.57051,1.57167,0.785055,-1.5708,-0.523599,8.32241e-08,-2.09439,1.5708,1.5708,0.785397,-0.000476054,-0.000470606,-0.00062963,-0.000104721,0.000174875,0.000466539,-0.00138965,0,0,0,0,0,0,0,-0.402821,-10.34,-0.357602,20.8448,0.819719,-0.67545,0.155832,-0.40979,-1.21652,0.0170682,2.30691,0.26169,-0.660631,0.172467
4276531,0.98,-1.57051,-0.522737,-0.00011385,-2.09577,1.57051,1.57167,0.785055,-1.5708,-0.523599,8.32241e-08,-2.09439,1.5708,1.5708,0.785397,-0.00143099,-0.000313738,0.000137058,0.000486998,-0.000290318,-0.000163692,-0.000926432,0,0,0,0,0,0,0,-0.355213,-10.34,-0.381406,20.821,0.830705,-0.662633,0.155832,-0.40942,-1.21425,0.0177983,2.30524,0.261567,-0.660663,0.172435
4276532,0.98,-1.5705,-0.522736,-0.00011385,-2.09577,1.57051,1.57167,0.785061,-1.5708,-0.523599,8.32241e-08,-2.09439,1.5708,1.5708,0.785397,-0.000397184,0.000440456,9.13723e-05,0.000324665,-0.000193545,-0.000583846,0.00131516,0,0,0,0,0,0,0,-0.379017,-10.3678,-0.381406,20.821,0.830705,-0.649816,0.103647,-0.408266,-1.2122,0.0194761,2.3037,0.261431,-0.660825,0.172429
4276533,0.98,-1.5705,-0.522735,-0.00011552,-2.09577,1.57051,1.57167,0.785056,-1.5708,-0.523599,8.32241e-08,-2.09439,1.5708,1.5708,0.785397,0.000941637,0.000850449,-0.000495897,0.000216444,-0.00012903,8.54872e-05,-0.000818649,0,0,0,0,0,0,0,-0.430592,-10.3916,-0.357602,20.821,0.830705,-0.662633,0.149424,-0.407302,-1.212,0.0208013,2.30299,0.261335,-0.66098,0.172465
4276534,0.98,-1.5705,-0.522737,-0.000111901,-2.09577,1.57051,1.57167,0.785057,-1.5708,-0.523599,8.32241e-08,-2.09439,1.5708,1.5708,0.785397,-2.18561e-05,1.0154e-05,0.000875828,-0.00161894,-0.000289471,5.69915e-05,-3.71395e-05,0,0,0,0,0,0,0,-0.402821,-10.3678,-0.409177,20.8963,0.836199,-0.662633,0.135691,-0.407108,-1.21422,0.0210199,2.3038,0.261333,-0.661037,0.172523
4276535,0.98,-1.5705,-0.522739,-0.00011385,-2.09577,1.57051,1.57167,0.78506,-1.5708,-0.523599,8.32241e-08,-2.09439,1.5708,1.5708,0.785397,-1.45707e-05,-0.000642845,-6.57287e-05,-0.00107929,1.04701e-05,3.79943e-05,0.000924676,0,0,0,0,0,0,0,-0.402821,-10.34,-0.381406,20.8963,0.830705,-0.662633,0.110056,-0.407556,-1.21725,0.0201983,2.30582,0.261428,-0.66099,0.172601
4276536,0.98,-1.57051,-0.522741,-0.00011023,-2.09577,1.57051,1.57167,0.78506,-1.5708,-0.523599,8.32241e-08,-2.09439,1.5708,1.5708,0.785397,-0.00112334,-0.000985375,0.00116261,0.000486896,0.000210431,2.53295e-05,0.000616451,0,0,0,0,0,0,0,-0.355213,-10.3162,-0.432981,20.8448,0.825212,-0.662633,0.110056,-0.408079,-1.21826,0.0190778,2.30727,0.261536,-0.660898,0.172696
4276537,0.98,-1.5705,-0.522739,-0.00011552,-2.09577,1.57051,1.57167,0.785057,-1.5708,-0.523599,8.32241e-08,-2.09439,1.5708,1.5708,0.785397,-0.00019208,-0.000100105,-0.000988167,0.000324597,0.000343738,-0.000220473,-0.000538469,0,0,0,0,0,0,0,-0.379017,-10.34,-0.357602,20.8448,0.819719,-0.656224,0.135691,-0.408116,-1.21646,0.0185092,2.30698,0.26158,-0.660839,0.172781
4276538,0.98,-1.5705,-0.522739,-0.00011385,-2.09577,1.57051,1.57167,0.785061,-1.5708,-0.523599,8.32241e-08,-2.09439,1.5708,1.5708,0.785397,-0.000128053,-6.67365e-05,-0.000101966,0.00077321,2.57079e-05,0.000327736,0.000827816,0,0,0,0,0,0,0,-0.379017,-10.34,-0.381406,20.821,0.825212,-0.669042,0.103647,-0.407383,-1.2138,0.019072,2.3057,0.261555,-0.660881,0.172838
4276539,0.98,-1.5705,-0.522735,-0.000111901,-2.09577,1.57051,1.57167,0.78506,-1.5708,-0.523599,8.32241e-08,-2.09439,1.5708,1.5708,0.785397,0.000471443,0.00116193,0.000581637,0.000515473,0.000220589,-1.88682e-05,0.000314518,0,0,0,0,0,0,0,-0.402821,-10.3916,-0.409177,20.821,0.819719,-0.662633,0.110056,-0.406657,-1.2124,0.0196299,2.30457,0.26152,-0.660936,0.172867
4276540,0.98,-1.5705,-0.522737,-0.000111901,-2.09577,1.57051,1.57167,0.785055,-1.5708,-0.523599,8.32241e-08,-2.09439,1.5708,1.5708,0.785397,0.000963909,0.000217811,0.000387758,-0.000213163,-5.63911e-05,-0.000487297,-0.00148574,0,0,0,0,0,0,0,-0.430592,-10.3678,-0.409177,20.8448,0.825212,-0.649816,0.155832,-0.406946,-1.21328,0.0186411,2.30441,0.261543,-0.660865,0.172856
4276541,0.98,-1.5705,-0.522739,-0.00011385,-2.09577,1.57051,1.57167,0.785061,-1.5708,-0.523599,8.32241e-08,-2.09439,1.5708,1.5708,0.785397,0.000642606,-0.000504406,-0.000391109,0.000414703,-0.000444495,-0.000324864,0.00117964,0,0,0,0,0,0,0,-0.430592,-10.34,-0.381406,20.821,0.836199,-0.649816,0.0972387,-0.407964,-1.21467,0.0166294,2.30466,0.261592,-0.660681,0.172816
4276542,0.98,-1.5705,-0.522739,-0.000111901,-2.09577,1.57051,1.57167,0.785057,-1.5708,-0.523599,8.32241e-08,-2.09439,1.5708,1.5708,0.785397,0.000428404,-0.000336271,0.000388875,-0.000929957,0.000110571,0.000258142,-0.000637724,0,0,0,0,0,0,0,-0.430592,-10.34,-0.409177,20.8725,0.825212,-0.662633,0.135691,-0.408979,-1.21478,0.0147188,2.30461,0.261625,-0.660471,0.172766
4276543,0.98,-1.5705,-0.522741,-0.000111901,-2.09577,1.57051,1.57167,0.785054,-1.5708,-0.523599,8.32241e-08,-2.09439,1.5708,1.5708,0.785397,0.000285603,-0.000780993,0.00025925,2.96426e-05,7.3714e-05,-6.52645e-05,-0.00140849,0,0,0,0,0,0,0,-0.430592,-10.3162,-0.409177,20.8448,0.825212,-0.656224,0.162241,-0.409904,-1.21391,0.0129615,2.30449,0.261663,-0.66025,0.172706
4276544,0.98,-1.5705,-0.522737,-0.00011385,-2.09577,1.57051,1.57167,0.785061,-1.5708,-0.523599,8.32241e-08,-2.09439,1.5708,1.5708,0.785397,0.000190402,0.000685764,-0.000476781,0.000576574,0.000252593,-4.35097e-05,0.0014685,0,0,0,0,0,0,0,-0.430592,-10.3678,-0.381406,20.821,0.819719,-0.656224,0.0972387,-0.410547,-1.21273,0.0116723,2.30421,0.261689,-0.660068,0.172656
4276545,0.98,-1.5705,-0.522739,-0.00011385,-2.09577,1.57051,1.57167,0.78506,-1.5708,-0.523599,8.32241e-08,-2.09439,1.5708,1.5708,0.785397,-0.000522679,-0.000192438,-0.000317854,0.00159081,-0.000238506,0.000208352,0.000504283,0,0,0,0,0,0,0,-0.402821,-10.34,-0.381406,20.7694,0.830705,-0.662633,0.110056,-0.41037,-1.21168,0.0117109,2.3034,0.261652,-0.660022,0.172638
4276546,0.98,-1.5705,-0.522737,-0.00011552,-2.09577,1.57051,1.57167,0.785055,-1.57079,-0.523597,2.58322e-06,-2.09439,1.5708,1.5708,0.785397,0.000301161,-0.000128292,-0.000768714,-0.000145887,4.44468e-05,-9.84573e-05,-0.00135923,0.00327601,0.00177767,0.0025,0.00165673,0.00155778,0.005,-0.000206637,-0.430592,-10.34,-0.357602,20.821,0.825212,-0.656224,0.155832,-0.409371,-1.21032,0.0130835,2.30193,0.261555,-0.660106,0.172623
4276547,0.98,-1.5705,-0.522736,-0.00011385,-2.09577,1.57051,1.57167,0.785056,-1.57079,-0.523593,7.58322e-06,-2.09439,1.5708,1.57081,0.785396,0.000200774,0.000564086,4.43356e-05,-9.7258e-05,0.000233082,-0.000302997,-0.000668796,0.00655202,0.00355534,0.005,0.00331346,0.00311555,0.01,-0.000413274,-0.430592,-10.3678,-0.381406,20.821,0.819719,-0.649816,0.149424,-0.40823,-1.20967,0.0147977,2.30095,0.26147,-0.660219,0.172597
4276548,0.98,-1.5705,-0.522737,-0.00011385,-2.09577,1.57051,1.57167,0.78506,-1.57078,-0.523588,1.50832e-05,-2.09438,1.57081,1.57083,0.785395,-0.00107258,-0.000273557,2.95571e-05,-0.000621651,-0.000454964,3.53609e-05,0.0010122,0.00982804,0.00533301,0.0075,0.00497018,0.00467333,0.015,-0.000619911,-0.379017,-10.34,-0.381406,20.8448,0.836199,-0.656224,0.110056,-0.407307,-1.21069,0.0162106,2.30122,0.261444,-0.660311,0.172592
4276549,0.98,-1.5705,-0.522737,-0.000111646,-2.09577,1.57051,1.57167,0.785055,-1.57076,-0.523581,2.50832e-05,-2.09438,1.57081,1.57085,0.785395,0.00494428,-0.00194561,0.00274968,0.000142378,0.000103592,0.000498292,-0.00102062,0.013104,0.00711068,0.01,0.00662691,0.00623111,0.02,-0.000826548,-0.355213,-10.2646,-0.230649,20.821,0.825212,-0.669042,0.155832,-0.408338,-1.21051,0.0147594,2.30132,0.261489,-0.660094,0.172629
4276550,0.98,-1.5705,-0.522741,-0.000106415,-2.09577,1.57051,1.57167,0.785058,-1.57075,-0.523572,3.75832e-05,-2.09437,1.57082,1.57087,0.785394,0.003522,-0.000294662,0.00287076,0.000651731,6.90612e-05,-0.000142523,0.000302929,0.0163801,0.00888834,0.0125,0.00828364,0.00778889,0.025,-0.00103318,-0.0775034,-10.0385,0.15021,20.7972,0.825212,-0.656224,0.129282,-0.414029,-1.20698,0.00664665,2.2999,0.261648,-0.65915,0.172704
4276551,0.98,-1.57051,-0.522745,-8.79406e-05,-2.09576,1.57051,1.57167,0.785059,-1.57073,-0.523561,5.25832e-05,-2.09436,1.57083,1.5709,0.785392,0.000234254,-0.00364113,0.00923507,0.000434487,0.00048685,-0.00104445,0.000439312,0.0196561,0.010666,0.015,0.00994037,0.00934666,0.03,-0.00123982,0.454113,-9.733,0.554873,20.7972,0.81331,-0.63059,0.122873,-0.424343,-1.19964,-0.00862035,2.29661,0.261934,-0.657445,0.172825
4276552,0.98,-1.57051,-0.522739,-6.33933e-05,-2.09576,1.57051,1.57167,0.785054,-1.5707,-0.523549,7.00832e-05,-2.09435,1.57084,1.57094,0.785391,-0.00340512,-0.000291126,0.0128259,-0.000267154,0.000934918,0.000490494,-0.00140255,0.0229321,0.0124437,0.0175,0.0115971,0.0109044,0.035,-0.00144646,0.934154,-9.53067,1.03491,20.821,0.796831,-0.662633,0.16865,-0.437799,-1.18898,-0.0302832,2.29219,0.262393,-0.655089,0.172982
4276553,0.98,-1.57051,-0.522734,-3.55185e-05,-2.09576,1.57051,1.57167,0.785058,-1.57068,-0.523535,9.00832e-05,-2.09434,1.57085,1.57098,0.785389,-0.00664445,-0.000160653,0.0165527,0.00102832,0.00106409,8.96369e-05,0.000523031,0.0262081,0.0142214,0.02,0.0132538,0.0124622,0.04,-0.0016531,1.4618,-9.35611,1.49115,20.7694,0.784929,-0.656224,0.129282,-0.452179,-1.17916,-0.0563378,2.28884,0.263078,-0.652306,0.173166
4276554,0.98,-1.57051,-0.522724,-5.42081e-06,-2.09575,1.57052,1.57168,0.785058,-1.57065,-0.523519,0.000112583,-2.09432,1.57087,1.57102,0.785387,-0.0059369,0.00165023,0.0200207,0.00179917,0.000709392,0.000534476,0.000348687,0.0294841,0.015999,0.0225,0.0149106,0.01402,0.045,-0.00185973,1.99342,-9.25296,1.92359,20.7218,0.784929,-0.669042,0.129282,-0.465553,-1.17255,-0.0844951,2.28735,0.263947,-0.649248,0.173391
4276555,0.98,-1.5705,-0.522719,2.46793e-05,-2.09576,1.57051,1.57168,0.785059,-1.57062,-0.523501,0.000137583,-2.0943,1.57088,1.57107,0.785385,-0.00441661,0.00177223,0.0235353,-0.0011206,-0.000815592,0.00536716,0.000707176,0.0327601,0.0177767,0.025,0.0165673,0.0155778,0.05,-0.00206637,2.37031,-9.1022,2.32825,20.821,0.819719,-0.681859,0.116465,-0.477894,-1.16968,-0.11483,2.28842,0.26502,-0.645793,0.17365
4276556,0.98,-1.57049,-0.522708,5.41305e-05,-2.09576,1.57051,1.5717,0.785062,-1.57058,-0.52348,0.000167583,-2.09428,1.5709,1.57113,0.785383,-0.000939076,0.00618966,0.0262155,-0.000747068,-0.00156098,0.0105557,0.00142089,0.0384857,0.0208229,0.03,0.0194106,0.018265,0.06,-0.00238563,2.77497,-9.00302,2.73291,20.821,0.847185,-0.733129,0.09083,-0.489501,-1.17416,-0.147707,2.29474,0.266439,-0.641868,0.173904
4276557,0.98,-1.57048,-0.522703,8.84736e-05,-2.09575,1.57051,1.5717,0.785063,-1.57053,-0.523456,0.000202583,-2.09426,1.57092,1.5712,0.78538,0.00340722,0.00381365,0.0275194,5.87669e-05,-0.00104065,0.00771234,0.00118462,0.0442112,0.023869,0.035,0.0222539,0.0209523,0.07,-0.0027049,3.10029,-8.80069,3.03443,20.7972,0.847185,-0.733129,0.0844213,-0.500366,-1.18608,-0.182641,2.30631,0.268232,-0.637416,0.174114
4276558,0.98,-1.57046,-0.522693,0.000122785,-2.09575,1.57051,1.57171,0.785056,-1.57048,-0.523429,0.000242583,-2.09424,1.57095,1.57128,0.785377,0.00751886,0.00398058,0.0299957,0.00220182,0.00457089,0.00856616,-0.00138039,0.0499368,0.0269152,0.04,0.0250972,0.0236396,0.08,-0.00302416,3.25502,-8.67374,3.26453,20.8448,0.836199,-0.688268,0.143015,-0.510382,-1.1971,-0.218783,2.31833,0.270224,-0.632262,0.174245
4276559,0.98,-1.57044,-0.522684,0.000155488,-2.09574,1.57051,1.57172,0.78505,-1.57043,-0.523399,0.000287583,-2.09421,1.57097,1.57137,0.785374,0.0127382,0.00537137,0.0309866,0.00535798,0.00304517,0.00842697,-0.00305649,0.0556623,0.0299614,0.045,0.0279405,0.0263269,0.09,-0.00334342,3.42958,-8.47141,3.64539,20.821,0.847185,-0.611364,0.200693,-0.519261,-1.20052,-0.255175,2.32643,0.272231,-0.626306,0.174296
4276560,0.98,-1.57042,-0.52267,0.000194874,-2.09573,1.57051,1.57172,0.785055,-1.57037,-0.523366,0.000337583,-2.09418,1.571,1.57147,0.78537,0.0175754,0.00850511,0.0359685,0.00850293,0.00189291,0.00644014,0.000844553,0.0613879,0.0330075,0.05,0.0307839,0.0290141,0.1,-0.00366269,3.80647,-8.2175,4.12543,20.7694,0.859087,-0.482274,0.122873,-0.527563,-1.19722,-0.292262,2.32984,0.274244,-0.619417,0.17435
4276561,0.98,-1.5704,-0.522654,0.000245659,-2.09572,1.57052,1.57173,0.785051,-1.5703,-0.52333,0.000392583,-2.09414,1.57103,1.57158,0.785366,0.0194611,0.0104385,0.0425976,0.00868654,0.00274426,0.00951642,-0.000657668,0.0671134,0.0360537,0.055,0.0336272,0.0317014,0.11,-0.00398195,4.28651,-7.93979,4.62928,20.7972,0.825212,-0.353185,0.155832,-0.53695,-1.19133,-0.332684,2.3305,0.276436,-0.611259,0.174493
4276562,0.98,-1.57036,-0.52263,0.000298466,-2.09572,1.57052,1.57175,0.78505,-1.57023,-0.523291,0.000452583,-2.09411,1.57107,1.5717,0.785362,0.0234327,0.0133116,0.044109,0.00876056,0.00731027,0.014584,-0.000438445,0.072839,0.0390999,0.06,0.0364705,0.0343887,0.12,-0.00430122,4.66737,-7.71365,5.28784,20.9717,0.807817,-0.276281,0.155832,-0.546906,-1.18728,-0.376119,2.33172,0.278949,-0.601725,0.174721
4276563,0.98,-1.57032,-0.522609,0.000356134,-2.0957,1.57054,1.57177,0.785053,-1.57015,-0.523249,0.000517583,-2.09407,1.5711,1.57183,0.785357,0.0303994,0.0148015,0.0512391,0.0126777,0.012513,0.0188885,0.000691048,0.0785646,0.042146,0.065,0.0393138,0.0370759,0.13,-0.00462048,5.02046,-7.45975,5.84723,20.9955,0.740068,-0.225011,0.129282,-0.55616,-1.18611,-0.420498,2.33475,0.281737,-0.59074,0.175012
4276564,0.98,-1.57027,-0.522579,0.000422289,-2.09569,1.57055,1.5718,0.785061,-1.57006,-0.523204,0.000587583,-2.09403,1.57114,1.57197,0.785352,0.0366481,0.0208067,0.0532045,0.0122795,0.011013,0.0268693,0.00188485,0.0842901,0.0451922,0.07,0.0421571,0.0397632,0.14,-0.00493974,5.32197,-7.28122,6.2757,21.0193,0.688799,-0.166417,0.09083,-0.56518,-1.18879,-0.465877,2.34015,0.284736,-0.578033,0.175356
4276565,0.98,-1.57021,-0.522547,0.000485803,-2.09567,1.57056,1.57185,0.785058,-1.56997,-0.523155,0.000662583,-2.09398,1.57119,1.57212,0.785347,0.0434977,0.0225866,0.0571946,0.0107223,0.0117446,0.0346084,6.97733e-05,0.0900157,0.0482384,0.075,0.0450005,0.0424505,0.15,-0.00525901,5.5243,-7.13046,6.70813,21.0947,0.711687,-0.160009,0.122873,-0.573182,-1.20019,-0.510407,2.35156,0.287949,-0.563672,0.175698
4276566,0.98,-1.57014,-0.522519,0.000552148,-2.09566,1.57056,1.57191,0.785059,-1.56988,-0.523103,0.000745083,-2.09393,1.57123,1.57229,0.785342,0.0540299,0.0222587,0.0618383,0.0129449,0.0102435,0.0416036,0.000283874,0.0975572,0.0521452,0.0825,0.0486547,0.0461813,0.164879,-0.00563399,5.62349,-6.90433,7.08899,21.1701,0.796831,-0.205785,0.116465,-0.580103,-1.21825,-0.553256,2.36949,0.291301,-0.547612,0.175984
4276567,0.98,-1.57007,-0.522486,0.000618049,-2.09565,1.57057,1.57198,0.78505,-1.56977,-0.523047,0.000835083,-2.09388,1.57128,1.57247,0.785335,0.0585025,0.0269334,0.0594615,0.00990717,0.0100132,0.0519113,-0.00198089,0.105099,0.056052,0.09,0.0523089,0.049912,0.179759,-0.00600898,5.84962,-6.75357,7.44208,21.3169,0.86458,-0.250646,0.175059,-0.585001,-1.23789,-0.592066,2.39223,0.294686,-0.530038,0.176198
4276568,0.98,-1.56999,-0.522451,0.000693731,-2.09562,1.57058,1.57207,0.785035,-1.56966,-0.522987,0.000932583,-2.09382,1.57134,1.57266,0.785329,0.0659375,0.0265681,0.06429,0.0123214,0.00592636,0.0627776,-0.00586432,0.11264,0.0599588,0.0975,0.0559631,0.0536428,0.194638,-0.00638397,5.9012,-6.57504,7.64441,21.2693,0.915849,-0.276281,0.297739,-0.584015,-1.25881,-0.620386,2.42009,0.298107,-0.511794,0.176363
4276569,0.98,-1.56989,-0.522414,0.000763931,-2.0956,1.5706,1.57217,0.785029,-1.56954,-0.522923,0.00103758,-2.09376,1.57139,1.57287,0.785322,0.0767513,0.0326166,0.0684264,0.0138354,0.0087356,0.0791638,-0.00462162,0.120182,0.0638656,0.105,0.0596173,0.0573736,0.209518,-0.00675895,5.84962,-6.39651,8.07288,21.3446,0.937822,-0.301915,0.316965,-0.577507,-1.27982,-0.638467,2.45183,0.301734,-0.493215,0.1766
4276570,0.98,-1.5698,-0.522375,0.000853717,-2.09557,1.57062,1.57228,0.785022,-1.56941,-0.522856,0.00115008,-2.0937,1.57145,1.57309,0.785315,0.0816688,0.0354532,0.0792341,0.0195432,0.0123193,0.0898526,-0.00525122,0.127723,0.0677724,0.1125,0.0632715,0.0611044,0.224397,-0.00713394,6.05195,-6.14658,8.45374,21.3684,0.915849,-0.244237,0.375559,-0.570116,-1.30068,-0.653184,2.48532,0.305803,-0.474032,0.177114
4276571,0.98,-1.5697,-0.522329,0.000950021,-2.09553,1.57065,1.5724,0.785015,-1.56928,-0.522784,0.00127008,-2.09363,1.57152,1.57333,0.785308,0.0856822,0.0381706,0.0855416,0.0281672,0.0149027,0.10148,-0.00445025,0.135265,0.0716792,0.12,0.0669257,0.0648351,0.239276,-0.00750893,6.38124,-5.91647,8.90998,21.3446,0.898454,-0.166417,0.401194,-0.564728,-1.31696,-0.669195,2.51556,0.310314,-0.454057,0.178099
4276572,0.98,-1.5696,-0.522276,0.00104607,-2.0955,1.57067,1.57254,0.78502,-1.56913,-0.522708,0.00139758,-2.09356,1.57159,1.57359,0.7853,0.0918651,0.0415292,0.0865551,0.0262591,0.0196688,0.114899,0.000152741,0.142807,0.075586,0.1275,0.0705799,0.0685659,0.254156,-0.00788392,6.73433,-5.74191,9.51697,21.3922,0.926836,-0.186559,0.316965,-0.559154,-1.32414,-0.683148,2.53917,0.315049,-0.433658,0.179687
4276573,0.98,-1.56948,-0.522219,0.00115253,-2.09546,1.57072,1.57271,0.785022,-1.56898,-0.522629,0.00153258,-2.09349,1.57166,1.57386,0.785292,0.0987598,0.0451422,0.0904001,0.0291942,0.025606,0.133705,0.00223806,0.150348,0.0794929,0.135,0.0742341,0.0722967,0.269035,-0.0082589,6.98823,-5.61496,10.0248,21.3922,0.892961,-0.23142,0.259287,-0.548783,-1.32597,-0.687461,2.55977,0.319896,-0.413564,0.18188
4276574,0.98,-1.56936,-0.522155,0.0012668,-2.09541,1.57077,1.5729,0.785021,-1.56882,-0.522546,0.00167508,-2.09341,1.57174,1.57414,0.785283,0.106382,0.0488567,0.0965525,0.0361838,0.0367253,0.151483,0.0017294,0.15789,0.0833997,0.1425,0.0778883,0.0760275,0.283914,-0.00863389,7.28975,-5.53958,10.5286,21.4438,0.807817,-0.282689,0.252878,-0.532213,-1.3244,-0.679591,2.57876,0.32478,-0.39406,0.184544
4276575,0.98,-1.56921,-0.522092,0.00138692,-2.09537,1.57082,1.57311,0.785023,-1.56866,-0.522458,0.00182508,-2.09333,1.57182,1.57444,0.785274,0.119928,0.0535232,0.105433,0.0388997,0.0434016,0.173499,0.00186501,0.165431,0.0873065,0.15,0.0815426,0.0797582,0.298794,-0.00900888,7.38893,-5.41263,10.9849,21.4914,0.751055,-0.392553,0.233652,-0.513116,-1.31846,-0.664788,2.59448,0.329649,-0.374741,0.187496
4276576,0.98,-1.56907,-0.522029,0.00150955,-2.09532,1.57088,1.57334,0.785028,-1.56848,-0.522366,0.00198507,-2.09324,1.5719,1.57476,0.785265,0.127415,0.0588206,0.109563,0.0445647,0.0472106,0.19001,0.00317612,0.174021,0.0917472,0.15999,0.0857073,0.0841899,0.31596,-0.00940557,7.59126,-5.2341,11.4173,21.5152,0.729082,-0.533544,0.181467,-0.495607,-1.31045,-0.648885,2.60786,0.334511,-0.355228,0.190577
4276577,0.98,-1.56892,-0.521961,0.00164165,-2.09527,1.57094,1.57359,0.785024,-1.5683,-0.52227,0.00215505,-2.09315,1.57199,1.57509,0.785255,0.133077,0.060281,0.115118,0.0433134,0.0486684,0.208591,0.000693259,0.182611,0.0961879,0.16998,0.089872,0.0886217,0.333125,-0.00980226,7.79359,-5.08334,11.7188,21.6422,0.751055,-0.553685,0.219919,-0.478442,-1.30231,-0.629994,2.62102,0.339257,-0.335973,0.19364
4276578,0.98,-1.56876,-0.521895,0.00176551,-2.09521,1.571,1.57384,0.785025,-1.56811,-0.52217,0.00233502,-2.09306,1.57208,1.57544,0.785245,0.137415,0.0614573,0.121023,0.0484512,0.0587718,0.219139,0.000936891,0.1912,0.100629,0.17997,0.0940367,0.0930534,0.350291,-0.010199,7.97212,-4.93259,12.0481,21.6422,0.784929,-0.495092,0.207102,-0.458033,-1.29054,-0.603241,2.63417,0.343686,-0.317661,0.196565
4276579,0.98,-1.56859,-0.521815,0.00189706,-2.09515,1.57107,1.57412,0.785016,-1.56791,-0.522065,0.00252498,-2.09296,1.57218,1.57581,0.785234,0.155395,0.0680642,0.126806,0.0484819,0.0563669,0.237765,-0.00154555,0.19979,0.105069,0.18996,0.0982014,0.0974851,0.367457,-0.0105956,8.01973,-4.88101,12.4805,21.666,0.841692,-0.443822,0.265696,-0.435186,-1.27357,-0.569749,2.64755,0.347794,-0.30024,0.1993
4276580,0.98,-1.56841,-0.52174,0.00204259,-2.09508,1.57114,1.57442,0.785006,-1.5677,-0.521955,0.00272493,-2.09286,1.57228,1.57619,0.785223,0.161389,0.0733781,0.136916,0.0573145,0.0616817,0.252553,-0.00391258,0.20838,0.10951,0.19995,0.102366,0.101917,0.384623,-0.0109923,8.24983,-4.73026,12.9368,21.5906,0.830705,-0.40537,0.343516,-0.414602,-1.25643,-0.535985,2.663,0.351866,-0.28308,0.201873
4276581,0.98,-1.56824,-0.521653,0.00219971,-2.095,1.57123,1.57475,0.785006,-1.56749,-0.521841,0.00293487,-2.09275,1.57239,1.57659,0.785212,0.164904,0.0760491,0.144808,0.0627714,0.0713769,0.27335,-0.00138768,0.216969,0.113951,0.20994,0.106531,0.106349,0.401788,-0.011389,8.7021,-4.65488,13.393,21.543,0.779436,-0.450231,0.310557,-0.397157,-1.23871,-0.503813,2.6782,0.355978,-0.265961,0.204384
4276582,0.98,-1.56805,-0.52156,0.00235485,-2.09492,1.57132,1.57509,0.785007,-1.56726,-0.521723,0.0031548,-2.09264,1.5725,1.57701,0.7852,0.171596,0.0846013,0.143111,0.0669468,0.0784966,0.298169,0.000736391,0.225559,0.118391,0.21993,0.110696,0.11078,0.418954,-0.0117857,9.00361,-4.6033,14.0238,21.4914,0.745561,-0.546361,0.265696,-0.376356,-1.21938,-0.464226,2.69114,0.359881,-0.249737,0.206938
4276583,0.98,-1.56785,-0.521467,0.00252462,-2.09484,1.57142,1.57546,0.785003,-1.56703,-0.5216,0.00338472,-2.09253,1.57261,1.57745,0.785188,0.179467,0.0893738,0.151301,0.0708279,0.0844618,0.319676,0.000965645,0.234149,0.122832,0.22992,0.11486,0.115212,0.43612,-0.0121824,9.43208,-4.50412,14.5554,21.543,0.683306,-0.624181,0.252878,-0.345793,-1.20456,-0.407565,2.70477,0.363422,-0.235423,0.209551
4276584,0.98,-1.56764,-0.521366,0.00270289,-2.09477,1.57152,1.57584,0.785009,-1.56678,-0.521473,0.00362463,-2.09241,1.57273,1.5779,0.785175,0.18822,0.0909604,0.161236,0.0728673,0.0896091,0.344135,0.00423806,0.242738,0.127273,0.23991,0.119025,0.119644,0.453286,-0.0125791,9.78517,-4.42477,15.0632,21.6422,0.610063,-0.669042,0.155832,-0.30699,-1.19449,-0.336502,2.7203,0.366667,-0.222836,0.212176
4276585,0.98,-1.56743,-0.521262,0.00289344,-2.09467,1.57163,1.57624,0.785016,-1.56653,-0.521341,0.00387453,-2.09229,1.57286,1.57837,0.785162,0.195734,0.0951769,0.172572,0.0799664,0.0914955,0.358479,0.00547023,0.251328,0.131713,0.2499,0.12319,0.124075,0.470451,-0.0129758,10.0906,-4.3494,15.5195,21.6422,0.581682,-0.733129,0.0844213,-0.26573,-1.18226,-0.260677,2.7354,0.369691,-0.211047,0.214733
4276586,0.98,-1.56721,-0.521152,0.00308031,-2.09458,1.57175,1.57667,0.785004,-1.56627,-0.521204,0.00413442,-2.09216,1.57299,1.57886,0.785149,0.202916,0.0991321,0.178875,0.088283,0.0958024,0.377137,-0.000184833,0.260321,0.136425,0.25989,0.127626,0.128836,0.488345,-0.0133746,10.4437,-4.30179,15.9479,21.6422,0.599077,-0.830175,0.187876,-0.22471,-1.16211,-0.184779,2.74629,0.37234,-0.199542,0.217085
4276587,0.98,-1.56697,-0.521037,0.00328078,-2.09447,1.57187,1.57711,0.784997,-1.566,-0.521063,0.0044043,-2.09203,1.57312,1.57937,0.785135,0.213004,0.102614,0.185511,0.0956172,0.103713,0.396282,-0.00229336,0.269314,0.141138,0.26988,0.132061,0.133597,0.506239,-0.0137733,10.6183,-4.27402,16.2772,21.5906,0.632951,-0.842992,0.24647,-0.182776,-1.13037,-0.107011,2.74938,0.374323,-0.188459,0.219113
4276588,0.98,-1.56673,-0.520917,0.0034856,-2.09436,1.572,1.57758,0.784988,-1.56572,-0.520917,0.00468417,-2.09189,1.57326,1.57989,0.785121,0.221587,0.108259,0.190346,0.102961,0.110155,0.418335,-0.00342778,0.278306,0.14585,0.27987,0.136497,0.138358,0.524133,-0.0141721,10.7453,-4.25021,16.6065,21.4676,0.643938,-0.830175,0.297739,-0.137761,-1.08683,-0.0237051,2.74373,0.375477,-0.178206,0.220842
4276589,0.98,-1.56648,-0.520796,0.00369353,-2.09424,1.57213,1.57805,0.784975,-1.56544,-0.520767,0.00497403,-2.09175,1.5734,1.58043,0.785106,0.230885,0.114437,0.197506,0.10712,0.120543,0.433631,-0.0051674,0.287299,0.150562,0.28986,0.140933,0.143118,0.542026,-0.0145708,10.8722,-4.17484,16.912,21.3922,0.649431,-0.759679,0.375559,-0.0882439,-1.03717,0.0675441,2.73227,0.375887,-0.169084,0.222406
4276590,0.98,-1.56623,-0.520671,0.00391874,-2.09413,1.57227,1.57856,0.784974,-1.56514,-0.520612,0.00527388,-2.0916,1.57355,1.58099,0.785091,0.238422,0.117658,0.206372,0.109707,0.129613,0.456461,-0.00225814,0.296292,0.155274,0.29985,0.145369,0.147879,0.55992,-0.0149696,11.0745,-4.04788,17.0389,21.4676,0.62105,-0.733129,0.343516,-0.0345515,-0.98782,0.16614,2.71969,0.375812,-0.161007,0.223973
4276591,0.98,-1.56597,-0.520539,0.00414116,-2.094,1.57241,1.57911,0.784972,-1.56484,-0.520452,0.00558372,-2.09145,1.5737,1.58157,0.785076,0.243537,0.122225,0.213505,0.112112,0.13458,0.477302,0.000427353,0.305285,0.159986,0.30984,0.149805,0.15264,0.577814,-0.0153684,11.1499,-3.99631,17.2889,21.3922,0.627458,-0.823766,0.291331,0.023219,-0.941402,0.271267,2.70949,0.375504,-0.153836,0.2257
4276592,0.98,-1.5657,-0.520397,0.00439138,-2.09387,1.57257,1.57966,0.784968,-1.56452,-0.520287,0.00590355,-2.0913,1.57386,1.58217,0.78506,0.252907,0.128655,0.224134,0.125681,0.141247,0.505744,0.00194641,0.314277,0.164698,0.31983,0.154241,0.157401,0.595708,-0.0157671,11.1499,-3.94473,17.4436,21.3169,0.570696,-0.868627,0.24647,0.0852341,-0.89728,0.382446,2.70099,0.375038,-0.147552,0.227651
4276593,0.98,-1.56543,-0.520245,0.00464467,-2.09373,1.57273,1.58023,0.784966,-1.5642,-0.520118,0.00623337,-2.09114,1.57402,1.58278,0.785044,0.259327,0.139027,0.231917,0.129607,0.150484,0.524236,0.00394247,0.32327,0.169411,0.32982,0.158677,0.162162,0.613601,-0.0161659,11.2491,-3.99631,17.5944,21.2693,0.496538,-0.855809,0.175059,0.150076,-0.857654,0.497383,2.69243,0.374419,-0.142075,0.229778
4276594,0.98,-1.56514,-0.520092,0.00489951,-2.09359,1.57289,1.58084,0.784963,-1.56387,-0.519943,0.00657318,-2.09098,1.57419,1.58341,0.785027,0.268161,0.143467,0.239582,0.136881,0.15123,0.55119,5.21112e-05,0.332263,0.174123,0.33981,0.163113,0.166922,0.631495,-0.0165646,11.2253,-4.04788,17.7967,21.1701,0.502947,-0.907079,0.116465,0.217107,-0.828133,0.615347,2.68576,0.373675,-0.137466,0.231944
4276595,0.98,-1.56485,-0.519935,0.00517417,-2.09344,1.57306,1.58146,0.784956,-1.56352,-0.519765,0.00692298,-2.09081,1.57436,1.58406,0.78501,0.275394,0.148473,0.24644,0.141622,0.156474,0.57608,-0.00438574,0.341256,0.178835,0.3498,0.167548,0.171683,0.649389,-0.0169634,11.3007,-4.04788,17.9236,21.0947,0.496538,-0.965673,0.0972387,0.286876,-0.807356,0.737538,2.68123,0.372742,-0.133874,0.233969
4276596,0.98,-1.56456,-0.519782,0.00545255,-2.0933,1.57324,1.58212,0.784943,-1.56317,-0.519581,0.00728277,-2.09064,1.57454,1.58473,0.784993,0.279496,0.151086,0.264779,0.140998,0.159581,0.598446,-0.00456466,0.350097,0.183607,0.35979,0.172066,0.176543,0.667097,-0.017354,11.4752,-3.99631,17.9752,21.1939,0.496538,-1.05539,0.122873,0.357537,-0.790725,0.860833,2.67867,0.371703,-0.131042,0.235672
4276597,0.98,-1.56425,-0.519619,0.00574431,-2.09314,1.57342,1.58278,0.784939,-1.56281,-0.519393,0.00765255,-2.09046,1.57472,1.58541,0.784975,0.294525,0.156266,0.274833,0.148319,0.167724,0.619652,-0.00541032,0.358938,0.188378,0.36978,0.176585,0.181403,0.684806,-0.0177447,11.4276,-3.94473,18.1022,21.1185,0.491045,-1.10666,0.0459692,0.423113,-0.775654,0.975665,2.67903,0.370825,-0.128099,0.236946
4276598,0.98,-1.56393,-0.519452,0.006047,-2.09297,1.5736,1.58345,0.784921,-1.56245,-0.519199,0.00803232,-2.09028,1.5749,1.58611,0.784957,0.301247,0.161001,0.281675,0.15165,0.169041,0.631624,-0.0105558,0.367779,0.19315,0.37977,0.181103,0.186263,0.702514,-0.0181353,11.503,-3.92093,18.2529,21.1423,0.469072,-1.02976,0.0844213,0.480255,-0.759883,1.07777,2.68108,0.370124,-0.12456,0.237749
4276599,0.98,-1.56361,-0.519286,0.00635873,-2.0928,1.57379,1.58415,0.784902,-1.56207,-0.519002,0.00842208,-2.09009,1.57509,1.58684,0.784939,0.304839,0.16376,0.292678,0.155359,0.178695,0.648686,-0.0122162,0.376621,0.197922,0.38976,0.185621,0.191123,0.720223,-0.018526,11.63,-3.86935,18.3045,21.0947,0.474565,-0.92722,0.071604,0.53224,-0.741785,1.17263,2.6837,0.369389,-0.120829,0.238055
4276600,0.98,-1.56329,-0.519106,0.00668226,-2.09263,1.57398,1.58487,0.784877,-1.56169,-0.518799,0.00882183,-2.0899,1.57529,1.58757,0.78492,0.312245,0.166774,0.302487,0.160592,0.18433,0.677216,-0.0194189,0.385462,0.202693,0.39975,0.190139,0.195983,0.737931,-0.0189166,11.7053,-3.86935,18.3799,21.0947,0.536821,-0.972081,0.09083,0.58299,-0.717974,1.26559,2.68532,0.368446,-0.117335,0.237868
4276601,0.98,-1.56295,-0.518925,0.00700983,-2.09244,1.57418,1.58563,0.784847,-1.56129,-0.518591,0.00923157,-2.08971,1.57549,1.58833,0.7849,0.31574,0.174563,0.307985,0.16673,0.188005,0.699984,-0.0248351,0.394303,0.207465,0.40974,0.194657,0.200843,0.755639,-0.0193073,11.8561,-3.86935,18.4315,20.9955,0.587175,-1.09385,0.116465,0.636157,-0.688367,1.36168,2.68485,0.367213,-0.114562,0.23724
4276602,0.98,-1.5626,-0.518727,0.00734698,-2.09225,1.57439,1.58638,0.784816,-1.56089,-0.518379,0.0096513,-2.08951,1.5757,1.5891,0.784881,0.324072,0.180059,0.321507,0.172217,0.20121,0.732743,-0.0290209,0.403145,0.212237,0.41973,0.199175,0.205703,0.773348,-0.0196979,11.7807,-3.94473,18.4791,20.9955,0.524919,-1.09385,0.149424,0.69437,-0.658516,1.46455,2.68349,0.365776,-0.113007,0.236248
4276603,0.98,-1.56223,-0.518525,0.00770929,-2.09207,1.57461,1.58716,0.78479,-1.56048,-0.518162,0.010081,-2.08931,1.57591,1.58989,0.784861,0.336322,0.187686,0.329284,0.175749,0.210537,0.739911,-0.0291067,0.411986,0.217008,0.42972,0.203693,0.210563,0.791056,-0.0200886,11.7053,-4.04788,18.4553,21.0193,0.45717,-1.01694,0.0972387,0.754525,-0.633805,1.56969,2.68331,0.364367,-0.112306,0.234998
4276604,0.98,-1.56187,-0.51832,0.0080645,-2.09187,1.57483,1.58797,0.784761,-1.56005,-0.51794,0.0105207,-2.0891,1.57612,1.5907,0.78484,0.342128,0.191145,0.337206,0.181666,0.214564,0.758039,-0.0259895,0.420827,0.22178,0.43971,0.208211,0.215423,0.808765,-0.0204792,11.7291,-4.19864,18.5068,21.0193,0.417803,-1.01694,0.0844213,0.813129,-0.615608,1.67279,2.68529,0.363042,-0.111799,0.233591
4276605,0.98,-1.56152,-0.518113,0.00844868,-2.09167,1.57505,1.58878,0.784727,-1.55963,-0.517714,0.0109704,-2.08889,1.57634,1.59153,0.784819,0.349139,0.197712,0.350196,0.184144,0.216377,0.781856,-0.0306573,0.429668,0.226552,0.4497,0.212729,0.220283,0.826473,-0.0208698,11.9553,-4.25021,18.3799,20.9955,0.469072,-1.04899,0.129282,0.870023,-0.602403,1.77368,2.68917,0.361718,-0.111314,0.232067
4276606,0.98,-1.56114,-0.517903,0.0088337,-2.09147,1.57528,1.58963,0.784692,-1.55919,-0.517483,0.0114301,-2.08867,1.57657,1.59237,0.784798,0.357735,0.198407,0.356897,0.190442,0.219132,0.803833,-0.0344352,0.437866,0.231211,0.45969,0.217182,0.225097,0.843499,-0.0212491,12.0584,-4.25021,18.3799,21.0431,0.446184,-1.10666,0.187876,0.925231,-0.590632,1.87178,2.69375,0.360377,-0.110833,0.230454
4276607,0.98,-1.56074,-0.517687,0.00922881,-2.09125,1.57552,1.59049,0.784658,-1.55874,-0.517247,0.0118998,-2.08845,1.5768,1.59323,0.784776,0.37504,0.204338,0.370782,0.196825,0.219053,0.810801,-0.0319796,0.446064,0.23587,0.46968,0.221634,0.229911,0.860526,-0.0216284,11.9553,-4.3494,18.4037,21.0193,0.423296,-1.03617,0.233652,0.975621,-0.573839,1.96247,2.69556,0.359012,-0.109784,0.228853
4276608,0.98,-1.56033,-0.517465,0.0096423,-2.09104,1.57577,1.59134,0.784624,-1.55829,-0.517006,0.0123795,-2.08822,1.57703,1.59411,0.784754,0.387035,0.210232,0.383714,0.202502,0.223087,0.826393,-0.0303323,0.454262,0.240529,0.47967,0.226086,0.234726,0.877552,-0.0220077,11.8799,-4.40097,18.4037,21.0947,0.383928,-0.933629,0.284922,1.01394,-0.550931,2.03534,2.69336,0.357773,-0.106957,0.227421
4276609,0.98,-1.55992,-0.517245,0.0100594,-2.09082,1.576,1.59225,0.784583,-1.55782,-0.516761,0.0128691,-2.08799,1.57727,1.595,0.784732,0.396113,0.214151,0.390658,0.205799,0.226337,0.849624,-0.0309158,0.46246,0.245188,0.48966,0.230539,0.23954,0.894578,-0.0223869,11.983,-4.40097,18.4315,21.0709,0.435198,-1.07462,0.388376,1.03864,-0.525807,2.08803,2.68918,0.356727,-0.10208,0.226304
4276610,0.98,-1.55952,-0.517009,0.0104929,-2.09059,1.57624,1.59317,0.784559,-1.55735,-0.516511,0.0133688,-2.08776,1.57752,1.59592,0.784709,0.398246,0.220208,0.403621,0.217855,0.230355,0.868999,-0.0303978,0.470658,0.249847,0.49965,0.234991,0.244354,0.911604,-0.0227662,12.233,-4.52792,18.4037,20.9955,0.485552,-1.23575,0.343516,1.05651,-0.498626,2.12999,2.68253,0.355627,-0.0961821,0.225655
4276611,0.98,-1.55908,-0.516767,0.010951,-2.09036,1.57649,1.59409,0.784539,-1.55687,-0.516257,0.0138784,-2.08752,1.57777,1.59684,0.784686,0.411483,0.224424,0.417745,0.222438,0.233987,0.886892,-0.0281488,0.478856,0.254506,0.50964,0.239443,0.249168,0.928631,-0.0231455,12.1576,-4.65488,18.3283,21.0193,0.485552,-1.23575,0.240061,1.07107,-0.467306,2.16529,2.67087,0.354362,-0.0899028,0.225629
4276612,0.98,-1.55863,-0.516523,0.0114112,-2.09012,1.57676,1.59503,0.784511,-1.55639,-0.515998,0.0143981,-2.08727,1.57802,1.59779,0.784663,0.418715,0.23125,0.43278,0.226518,0.240293,0.899072,-0.0290139,0.487054,0.259165,0.51963,0.243896,0.253982,0.945657,-0.0235247,12.0307,-4.80563,18.2014,21.0193,0.446184,-1.15885,0.194285,1.07951,-0.434018,2.18896,2.65576,0.353201,-0.0830093,0.226228
4276613,0.99,-1.55819,-0.516269,0.0118787,-2.08989,1.57702,1.59597,0.784485,-1.55589,-0.515734,0.0149277,-2.08702,1.57828,1.59875,0.784639,0.429019,0.238798,0.436835,0.22941,0.24237,0.91605,-0.0299769,0.495252,0.263824,0.52962,0.248348,0.258796,0.962683,-0.023904,11.9553,-4.95639,18.1776,21.0431,0.446184,-1.18448,0.155832,1.08231,-0.406997,2.20175,2.64305,0.352367,-0.0757089,0.227265
4276614,1,-1.55774,-0.516025,0.0123709,-2.08964,1.57729,1.59693,0.784465,-1.55539,-0.515465,0.0154673,-2.08677,1.57854,1.59973,0.784614,0.429343,0.241476,0.468489,0.235314,0.24774,0.924457,-0.0289982,0.50345,0.268483,0.53961,0.2528,0.26361,0.979709,-0.0242833,12.0068,-4.95639,18.0506,21.0193,0.446184,-1.17167,0.071604,1.08014,-0.38984,2.20416,2.63554,0.351958,-0.0680825,0.228512
4276615,1,-1.55727,-0.515767,0.0128617,-2.08939,1.57756,1.5979,0.784437,-1.55488,-0.515192,0.0160169,-2.08651,1.57881,1.60073,0.78459,0.44845,0.248579,0.474859,0.239808,0.253967,0.937713,-0.0326398,0.511648,0.273142,0.5496,0.257253,0.268424,0.996736,-0.0246625,12.0068,-5.03177,17.999,20.9955,0.412309,-1.13321,0.09083,1.06747,-0.378706,2.18719,2.63164,0.352132,-0.0591709,0.229757
4276616,1,-1.5568,-0.515496,0.0133755,-2.08913,1.57783,1.59889,0.784405,-1.55436,-0.514915,0.0165765,-2.08625,1.57908,1.60174,0.784565,0.454635,0.253711,0.484263,0.243914,0.261624,0.950454,-0.0321082,0.51882,0.277548,0.55959,0.261525,0.273096,1.0128,-0.0250332,11.8799,-5.10715,17.8483,20.9439,0.406816,-1.04258,0.162241,1.04444,-0.372767,2.15257,2.63074,0.352745,-0.0489264,0.23079
4276617,1,-1.5563,-0.515232,0.0138784,-2.08888,1.57811,1.59989,0.784382,-1.55383,-0.514633,0.0171461,-2.08599,1.57936,1.60277,0.784539,0.463983,0.259024,0.493754,0.244542,0.26891,0.959308,-0.0332218,0.525991,0.281953,0.56958,0.265797,0.277767,1.02887,-0.025404,11.7053,-5.10715,17.8998,20.9717,0.36104,-0.952855,0.155832,1.01831,-0.373987,2.11263,2.63432,0.353456,-0.0383234,0.231496
4276618,1,-1.55581,-0.514959,0.014415,-2.08862,1.57839,1.60091,0.784359,-1.5533,-0.514346,0.0177256,-2.08572,1.57964,1.60382,0.784513,0.47707,0.259453,0.506258,0.249515,0.274231,0.978763,-0.0303016,0.533162,0.286359,0.57957,0.27007,0.282438,1.04494,-0.0257747,11.6776,-5.10715,17.8205,20.9717,0.34456,-0.946447,0.175059,0.992,-0.378796,2.07231,2.64163,0.354067,-0.0275963,0.231899
4276619,1,-1.55531,-0.514679,0.0149647,-2.08836,1.57866,1.60196,0.784336,-1.55276,-0.514055,0.0183152,-2.08544,1.57993,1.60488,0.784487,0.477995,0.273248,0.515099,0.251796,0.279498,0.997564,-0.027196,0.540333,0.290764,0.58956,0.274342,0.28711,1.06101,-0.0261454,11.7291,-5.18649,17.6697,21.0431,0.366533,-0.997716,0.16865,0.967175,-0.387294,2.03436,2.65257,0.354487,-0.01695,0.232063
4276620,1,-1.5548,-0.5144,0.0154998,-2.08809,1.57895,1.60301,0.784311,-1.55221,-0.51376,0.0189147,-2.08516,1.58022,1.60595,0.784461,0.489043,0.272571,0.521353,0.253937,0.285827,1.03256,-0.030088,0.547505,0.29517,0.59955,0.278614,0.291781,1.07708,-0.0265161,11.6538,-5.26187,17.6459,21.0947,0.372942,-1.0618,0.181467,0.949918,-0.406081,2.00748,2.66992,0.35462,-0.00749409,0.23203
4276621,1,-1.55428,-0.514113,0.0160598,-2.08783,1.57924,1.60409,0.784293,-1.55166,-0.513461,0.0195243,-2.08488,1.58052,1.60705,0.784434,0.501947,0.278243,0.533479,0.260062,0.290726,1.04403,-0.0252549,0.554676,0.299576,0.60954,0.282887,0.296452,1.09315,-0.0268869,11.503,-5.33725,17.5428,21.2177,0.372942,-1.08103,0.129282,0.941751,-0.430253,1.99434,2.69117,0.354365,0.00038545,0.231851
4276622,1,-1.55375,-0.513824,0.0166175,-2.08755,1.57955,1.60518,0.784264,-1.5511,-0.513157,0.0201438,-2.08459,1.58082,1.60816,0.784407,0.505799,0.281345,0.537063,0.261745,0.290337,1.05985,-0.0254956,0.561847,0.303981,0.61953,0.287159,0.301124,1.10922,-0.0272576,11.4276,-5.36105,17.4436,21.3169,0.332659,-1.03617,0.175059,0.940478,-0.451774,1.99235,2.71201,0.353672,0.00702814,0.231573
4276623,1,-1.55322,-0.513521,0.0171833,-2.08728,1.57983,1.60628,0.784233,-1.55053,-0.512848,0.0207733,-2.0843,1.58113,1.60928,0.784379,0.510852,0.289891,0.548671,0.264151,0.286146,1.07542,-0.0261606,0.569019,0.308387,0.62952,0.291431,0.305795,1.12529,-0.0276283,11.4276,-5.51181,17.4912,21.3922,0.423296,-1.07462,0.240061,0.948105,-0.473493,2.0042,2.73427,0.352586,0.012117,0.231211
4276624,1,-1.55269,-0.513217,0.0177695,-2.08699,1.58014,1.6074,0.784208,-1.54995,-0.512536,0.0214128,-2.08401,1.58144,1.61042,0.784351,0.520337,0.292318,0.558276,0.274697,0.289334,1.08297,-0.0245185,0.57619,0.312792,0.63951,0.295704,0.310467,1.14136,-0.027999,11.4752,-5.63876,17.519,21.3684,0.440691,-1.08744,0.252878,0.963694,-0.49689,2.02803,2.75804,0.35121,0.0157956,0.23084
4276625,1,-1.55214,-0.512911,0.0183597,-2.0867,1.58045,1.60852,0.784179,-1.54937,-0.512218,0.0220623,-2.08371,1.58175,1.61158,0.784323,0.518927,0.296789,0.563346,0.278044,0.295081,1.08623,-0.0243668,0.583361,0.317198,0.6495,0.299976,0.315138,1.15743,-0.0283697,11.63,-5.74191,17.519,21.3922,0.400408,-0.991307,0.291331,0.985736,-0.515093,2.06172,2.77801,0.349449,0.0184851,0.230594
4276626,1,-1.5516,-0.512602,0.0189636,-2.08641,1.58075,1.60966,0.784161,-1.54878,-0.511897,0.0227218,-2.0834,1.58207,1.61275,0.784294,0.527342,0.299299,0.5765,0.283217,0.298884,1.09289,-0.020812,0.589294,0.321242,0.65949,0.303974,0.319594,1.17234,-0.0287326,11.7291,-5.84109,17.6975,21.4438,0.372942,-0.991307,0.240061,1.01519,-0.523078,2.10643,2.79152,0.347203,0.0203048,0.230579
4276627,1,-1.55104,-0.512295,0.0195744,-2.08612,1.58107,1.61084,0.78414,-1.54818,-0.511572,0.0233913,-2.08309,1.5824,1.61394,0.784265,0.537685,0.303862,0.589023,0.287248,0.305586,1.10982,-0.0181292,0.595227,0.325286,0.66948,0.307972,0.32405,1.18724,-0.0290954,11.8045,-5.89267,17.7213,21.5906,0.339067,-1.11399,0.181467,1.04698,-0.520573,2.15426,2.79927,0.34468,0.0221335,0.23085
4276628,1,-1.55047,-0.511977,0.0201966,-2.08583,1.58138,1.61202,0.784129,-1.54758,-0.511242,0.0240708,-2.08278,1.58272,1.61514,0.784235,0.550252,0.306856,0.598421,0.296678,0.306803,1.12945,-0.0129924,0.60116,0.32933,0.67947,0.311969,0.328506,1.20215,-0.0294583,11.9315,-5.91647,17.7451,21.6898,0.316179,-1.23575,0.0322363,1.07436,-0.507013,2.19552,2.8007,0.342068,0.0248405,0.231367
4276629,1,-1.54989,-0.511646,0.020837,-2.08553,1.58171,1.61324,0.784111,-1.54697,-0.510909,0.0247602,-2.08247,1.58306,1.61636,0.784206,0.560385,0.311507,0.606177,0.29633,0.314331,1.15305,-0.0173742,0.607093,0.333375,0.68946,0.315967,0.332962,1.21706,-0.0298212,11.8283,-6.04343,17.7451,21.789,0.327165,-1.48752,-0.0318506,1.09626,-0.483689,2.22912,2.79638,0.339374,0.0282249,0.231945
4276630,1,-1.5493,-0.511317,0.0214702,-2.08522,1.58202,1.61449,0.784104,-1.54636,-0.510572,0.0254597,-2.08215,1.58339,1.61759,0.784175,0.568333,0.315518,0.611984,0.297562,0.312856,1.16991,-0.0132902,0.613026,0.337419,0.69945,0.319965,0.337418,1.23197,-0.030184,11.6776,-6.19418,17.7451,21.8167,0.417803,-1.85465,-0.168264,1.11624,-0.457655,2.26045,2.79199,0.336632,0.0312576,0.23228
4276631,1,-1.54873,-0.510982,0.0221202,-2.08491,1.58235,1.6157,0.784098,-1.54574,-0.51023,0.0261691,-2.08182,1.58374,1.61884,0.784145,0.568382,0.323302,0.62748,0.301288,0.319608,1.18102,-0.0121663,0.618959,0.341463,0.70944,0.323963,0.341874,1.24687,-0.0305469,11.63,-6.32114,17.7451,21.8644,0.451677,-1.82169,-0.258901,1.13801,-0.437981,2.2942,2.79381,0.333976,0.0327735,0.232041
4276632,1,-1.54814,-0.510648,0.0227859,-2.08459,1.58268,1.6169,0.784072,-1.54512,-0.509885,0.0268886,-2.08149,1.58408,1.6201,0.784114,0.568927,0.329672,0.64932,0.306517,0.327491,1.18059,-0.0123515,0.624892,0.345507,0.71943,0.327961,0.34633,1.26178,-0.0309097,11.6538,-6.44809,17.7213,21.789,0.502947,-1.50034,-0.193899,1.15954,-0.430482,2.32536,2.80407,0.331697,0.032575,0.230925
4276633,1,-1.54756,-0.510304,0.0234447,-2.08427,1.58301,1.61812,0.784061,-1.54449,-0.509535,0.027618,-2.08116,1.58443,1.62138,0.784083,0.569717,0.330398,0.652818,0.309987,0.329587,1.18555,-0.00913445,0.630825,0.349551,0.72942,0.331959,0.350786,1.27669,-0.0312726,11.8561,-6.52347,17.7729,21.7414,0.565202,-1.28702,-0.206716,1.17908,-0.432267,2.35032,2.82035,0.329918,0.0309665,0.228737
4276634,1,-1.54698,-0.509952,0.0241429,-2.08395,1.58335,1.61939,0.784035,-1.54385,-0.509182,0.0283574,-2.08083,1.58479,1.62267,0.784051,0.573296,0.331781,0.661991,0.315043,0.333562,1.2032,-0.0123766,0.636758,0.353596,0.73941,0.335956,0.355242,1.2916,-0.0316354,12.0307,-6.65042,17.6182,21.7176,0.553301,-1.31998,-0.0648096,1.2023,-0.432115,2.37837,2.83668,0.328389,0.0276568,0.225459
4276635,1,-1.54637,-0.509606,0.0248292,-2.08362,1.58371,1.62066,0.784017,-1.54321,-0.508824,0.0291068,-2.08049,1.58515,1.62397,0.784019,0.575575,0.33768,0.667428,0.31851,0.351251,1.21239,-0.0165618,0.642691,0.35764,0.7494,0.339954,0.359698,1.30651,-0.0319983,11.983,-6.702,17.5706,21.666,0.321672,-1.28702,0.00660151,1.23513,-0.42452,2.41926,2.84963,0.326898,0.0223694,0.221223
4276636,1,-1.54574,-0.50925,0.0255309,-2.08331,1.58408,1.62195,0.784001,-1.54256,-0.508463,0.0298662,-2.08014,1.58551,1.62529,0.783987,0.595107,0.346208,0.674013,0.315123,0.359845,1.22921,-0.0179108,0.647321,0.361241,0.75939,0.343599,0.363872,1.32008,-0.0323532,11.6022,-6.82895,17.6459,21.7652,0.157793,-1.40329,0.038645,1.27686,-0.419636,2.47297,2.86445,0.325487,0.0155611,0.2163
4276637,1,-1.5451,-0.508906,0.0262464,-2.08298,1.58444,1.62325,0.784,-1.54191,-0.508098,0.0306356,-2.0798,1.58588,1.62663,0.783954,0.607366,0.356072,0.684508,0.317385,0.354424,1.24141,-0.0134627,0.651952,0.364843,0.76938,0.347244,0.368046,1.33366,-0.0327081,11.3999,-6.75357,17.6697,21.789,0.129411,-1.42893,-0.077627,1.31973,-0.435087,2.52968,2.89127,0.324374,0.00836801,0.211025
4276638,1,-1.54448,-0.508543,0.0269773,-2.08264,1.58479,1.62455,0.783984,-1.54125,-0.507729,0.0314149,-2.07945,1.58625,1.62798,0.783921,0.610184,0.35939,0.705726,0.323467,0.346384,1.26074,-0.0144984,0.656582,0.368444,0.77937,0.350889,0.37222,1.34723,-0.033063,11.503,-6.80118,17.4912,21.789,0.191667,-1.37766,-0.0904444,1.35458,-0.475391,2.576,2.93209,0.323671,0.00193836,0.20567
4276639,1,-1.54386,-0.508174,0.0277192,-2.08231,1.58515,1.62589,0.78397,-1.54059,-0.507357,0.0322043,-2.07909,1.58663,1.62934,0.783887,0.609982,0.363139,0.712943,0.328769,0.348916,1.28109,-0.014957,0.661212,0.372046,0.78936,0.354533,0.376394,1.36081,-0.0334179,11.5784,-6.92813,17.4674,21.7414,0.36104,-1.39048,-0.10967,1.38016,-0.527993,2.60851,2.97897,0.323116,-0.0036417,0.200334
4276640,1,-1.5432,-0.507805,0.0284531,-2.08196,1.58552,1.62722,0.783954,-1.53992,-0.506982,0.0330036,-2.07873,1.58701,1.63071,0.783854,0.617838,0.367962,0.718017,0.329618,0.353708,1.29318,-0.0118309,0.665842,0.375647,0.79935,0.358178,0.380568,1.37438,-0.0337729,11.3999,-7.13046,17.4158,21.666,0.435198,-1.23575,-0.0968531,1.40385,-0.582281,2.63777,3.02583,0.322283,-0.00938928,0.194982
4276641,1,-1.54256,-0.50743,0.02922,-2.08161,1.58589,1.62857,0.783916,-1.53925,-0.506602,0.033813,-2.07837,1.58739,1.6321,0.78382,0.626895,0.367592,0.727969,0.338902,0.359546,1.31224,-0.0203311,0.670472,0.379249,0.80934,0.361823,0.384742,1.38796,-0.0341278,11.2769,-7.33279,17.2135,21.5152,0.366533,-1.13962,0.0844213,1.43018,-0.630379,2.67166,3.06835,0.320997,-0.0157307,0.189577
4276642,1,-1.5419,-0.507054,0.029987,-2.08126,1.58628,1.62995,0.783884,-1.53858,-0.50622,0.0346323,-2.07801,1.58778,1.6335,0.783785,0.639004,0.367569,0.736294,0.34618,0.366508,1.32671,-0.0239426,0.675102,0.38285,0.81933,0.365468,0.388916,1.40154,-0.0344827,11.0468,-7.38437,17.1143,21.4676,0.293291,-1.10666,0.207102,1.45613,-0.657213,2.70721,3.09727,0.319246,-0.0218423,0.18422
4276643,1,-1.54125,-0.506682,0.0307483,-2.0809,1.58668,1.63135,0.783854,-1.5379,-0.505833,0.0354616,-2.07764,1.58818,1.63492,0.78375,0.641237,0.366903,0.745779,0.345389,0.382507,1.35096,-0.023369,0.679732,0.386451,0.82932,0.369112,0.39309,1.41511,-0.0348376,10.9992,-7.40817,17.1619,21.416,0.214556,-1.13321,0.24647,1.47977,-0.653303,2.74216,3.10762,0.316975,-0.027111,0.179172
4276644,1,-1.54061,-0.506311,0.0315326,-2.08055,1.58708,1.63274,0.783837,-1.53721,-0.505443,0.0363009,-2.07726,1.58857,1.63634,0.783715,0.636687,0.366186,0.753924,0.35061,0.390213,1.36282,-0.0229895,0.684362,0.390053,0.83931,0.372757,0.397265,1.42869,-0.0351925,11.1737,-7.30899,17.0865,21.3922,0.134905,-1.15244,0.155832,1.50579,-0.619628,2.78248,3.10175,0.314014,-0.0320609,0.174721
4276645,1,-1.53995,-0.505933,0.0323217,-2.08018,1.58748,1.63416,0.783812,-1.53653,-0.505049,0.0371502,-2.07689,1.58898,1.63779,0.783679,0.643002,0.37085,0.768252,0.354888,0.393562,1.36811,-0.0240048,0.688992,0.393654,0.8493,0.376402,0.401439,1.44226,-0.0355474,11.1737,-7.38437,17.0112,21.3169,0.0671556,-1.13321,0.09083,1.53733,-0.56156,2.83139,3.08283,0.310231,-0.0370381,0.17105
4276646,1,-1.53926,-0.505545,0.0331341,-2.07981,1.58789,1.63556,0.783796,-1.53583,-0.504653,0.0380093,-2.07651,1.58938,1.63924,0.783644,0.668142,0.380097,0.777775,0.365087,0.395945,1.3779,-0.0232375,0.692447,0.396752,0.859101,0.37963,0.405253,1.45428,-0.0358959,10.9238,-7.43594,16.9596,21.2455,0.0561693,-1.05539,-0.0254419,1.56542,-0.491778,2.87616,3.05543,0.305851,-0.0407351,0.168162
4276647,1,-1.53858,-0.505151,0.0339657,-2.07942,1.58829,1.63699,0.783769,-1.53514,-0.504253,0.0388782,-2.07612,1.58979,1.64071,0.783607,0.676427,0.383183,0.790812,0.367153,0.399447,1.38914,-0.0253591,0.695901,0.399849,0.868902,0.382858,0.409068,1.46629,-0.0362443,10.8206,-7.45975,16.9358,21.1423,0.0845506,-0.965673,-0.077627,1.5781,-0.423402,2.90084,3.02447,0.301207,-0.041526,0.165875
4276648,1,-1.5379,-0.504756,0.0347924,-2.07903,1.58869,1.63846,0.78373,-1.53444,-0.50385,0.0397569,-2.07574,1.5902,1.64219,0.783571,0.678689,0.387146,0.800015,0.370224,0.405183,1.40844,-0.0273359,0.699356,0.402947,0.878703,0.386087,0.412883,1.47831,-0.0365928,10.8444,-7.55893,16.8088,21.0947,0.174272,-1.04258,0.00660151,1.57544,-0.361951,2.90542,2.99374,0.296387,-0.0395046,0.163877
4276649,1,-1.53722,-0.504355,0.0356422,-2.07865,1.58911,1.63992,0.78368,-1.53373,-0.503444,0.0406454,-2.07535,1.59062,1.64368,0.783534,0.681473,0.389422,0.812117,0.376857,0.411908,1.42747,-0.0357384,0.702811,0.406044,0.888505,0.389315,0.416698,1.49033,-0.0369413,10.7214,-7.66208,16.6303,21.0193,0.242937,-1.12681,0.162241,1.56594,-0.306718,2.90084,2.9641,0.291312,-0.0359884,0.161908
4276650,1,-1.53651,-0.503963,0.0365066,-2.07826,1.58955,1.64139,0.783648,-1.53303,-0.503035,0.0415438,-2.07496,1.59104,1.64518,0.783497,0.682118,0.390944,0.839403,0.379186,0.415395,1.43008,-0.0354634,0.706266,0.409141,0.898306,0.392543,0.420513,1.50234,-0.0372897,10.3922,-7.73746,16.4558,21.0431,0.168779,-0.984899,0.155832,1.55093,-0.252754,2.88707,2.93343,0.286191,-0.0312239,0.159961
4276651,1,-1.5358,-0.503562,0.0373831,-2.07786,1.58998,1.64285,0.783615,-1.53232,-0.502622,0.0424519,-2.07456,1.59146,1.64669,0.783459,0.689874,0.395012,0.853053,0.384625,0.419904,1.4667,-0.0343364,0.70972,0.412239,0.908107,0.395771,0.424328,1.51436,-0.0376382,10.1383,-7.78903,16.1503,21.0709,0.0442674,-0.778905,0.122873,1.52476,-0.197225,2.85406,2.90119,0.281518,-0.0245314,0.158206
4276652,1,-1.53509,-0.503167,0.0382598,-2.07746,1.59042,1.64436,0.783575,-1.53161,-0.502207,0.0433698,-2.07416,1.59189,1.64822,0.783421,0.698034,0.395892,0.861061,0.387454,0.42524,1.47835,-0.0396203,0.713175,0.415336,0.917908,0.398999,0.428143,1.52637,-0.0379867,9.91212,-7.76126,15.9757,21.1423,0.0158861,-0.810948,0.116465,1.48793,-0.140287,2.80338,2.86781,0.277332,-0.0161691,0.156751
4276653,1,-1.53439,-0.502773,0.0391407,-2.07707,1.59086,1.6459,0.783543,-1.53089,-0.501789,0.0442975,-2.07376,1.59232,1.64976,0.783383,0.698228,0.398035,0.870843,0.390527,0.427102,1.49108,-0.0354877,0.71663,0.418433,0.927709,0.402228,0.431957,1.53839,-0.0383351,9.88832,-7.78903,15.8488,21.2693,0.0103929,-0.946447,0.0194189,1.44731,-0.0810095,2.74722,2.83336,0.273172,-0.00700594,0.155597
4276654,1,-1.53369,-0.502365,0.040056,-2.07666,1.59129,1.64741,0.783515,-1.53017,-0.501367,0.045235,-2.07335,1.59276,1.65131,0.783344,0.701237,0.401424,0.887261,0.394775,0.435094,1.50101,-0.0322664,0.720084,0.421531,0.93751,0.405456,0.435772,1.5504,-0.0386836,9.93989,-7.91599,15.7218,21.2455,0.0158861,-0.959264,-0.0904444,1.40748,-0.0197998,2.69287,2.79869,0.268698,0.00245371,0.154662
4276655,1,-1.53297,-0.501953,0.0409739,-2.07626,1.59175,1.64896,0.78347,-1.52945,-0.500943,0.0461823,-2.07295,1.5932,1.65287,0.783305,0.710565,0.407555,0.892876,0.397683,0.435608,1.50093,-0.0362124,0.723539,0.424628,0.947311,0.408684,0.439587,1.56242,-0.039032,9.78517,-8.03897,15.8726,21.3684,-0.0234816,-0.991307,-0.0318506,1.36833,0.0384207,2.64035,2.7663,0.263854,0.0121834,0.153761
4276656,1,-1.53224,-0.501531,0.0418942,-2.07584,1.5922,1.65051,0.783426,-1.52872,-0.500515,0.0471385,-2.07253,1.59364,1.65444,0.783265,0.711286,0.413338,0.902328,0.402137,0.442047,1.54644,-0.0386119,0.725957,0.427173,0.956173,0.411445,0.442935,1.57272,-0.0393813,9.68599,-8.2175,15.821,21.3922,-0.0344679,-1.02335,0.0194189,1.33229,0.0855134,2.59391,2.7398,0.258618,0.0214871,0.152674
4276657,1,-1.53153,-0.501107,0.0428257,-2.07544,1.59266,1.65208,0.783385,-1.52799,-0.500086,0.0481035,-2.07212,1.59409,1.65603,0.783226,0.711225,0.416269,0.901358,0.403442,0.450441,1.55718,-0.0390509,0.728375,0.429718,0.965035,0.414206,0.446284,1.58302,-0.0397306,9.73756,-8.36826,15.7972,21.4914,-0.0234816,-1.20371,0.038645,1.30876,0.116797,2.56759,2.72119,0.252754,0.0284589,0.151287
4276658,1,-1.5308,-0.500683,0.0437588,-2.07503,1.59311,1.6537,0.783356,-1.52726,-0.499653,0.0490774,-2.0717,1.59454,1.65762,0.783186,0.708312,0.419022,0.910296,0.401507,0.446383,1.57344,-0.0357025,0.730794,0.432263,0.973897,0.416966,0.449632,1.59331,-0.0400798,9.86055,-8.52298,15.7218,21.5668,0.095537,-1.64774,-0.0382593,1.30631,0.132505,2.57395,2.71177,0.246027,0.0315839,0.149629
4276659,1,-1.53009,-0.500247,0.0447116,-2.07463,1.59357,1.65528,0.783332,-1.52653,-0.499219,0.0500602,-2.07128,1.59499,1.65922,0.783145,0.709386,0.424011,0.918798,0.408942,0.455493,1.58276,-0.0360679,0.733212,0.434808,0.982759,0.419727,0.45298,1.60361,-0.0404291,9.93989,-8.67374,15.5671,21.7176,0.10103,-1.72556,-0.174673,1.32503,0.134663,2.61244,2.71154,0.238556,0.0305983,0.147762
4276660,1,-1.52935,-0.49981,0.0456639,-2.07421,1.59404,1.65686,0.783303,-1.52579,-0.498781,0.0510518,-2.07086,1.59545,1.66084,0.783104,0.718462,0.42916,0.925703,0.410634,0.463615,1.57137,-0.0293881,0.73563,0.437353,0.991621,0.422488,0.456328,1.61391,-0.0407784,9.78517,-8.87607,15.5195,21.7414,0.112016,-1.46097,-0.252493,1.35737,0.125891,2.6718,2.71794,0.230623,0.0262513,0.145638
4276661,1,-1.5286,-0.499371,0.046599,-2.0738,1.5945,1.65846,0.783281,-1.52505,-0.498341,0.0520523,-2.07044,1.59591,1.66246,0.783063,0.7218,0.432695,0.931314,0.410318,0.463125,1.57597,-0.0286592,0.738048,0.439898,1.00048,0.425249,0.459676,1.62421,-0.0411276,9.68599,-9.20535,15.5671,21.8405,0.197161,-1.36484,-0.34313,1.39524,0.106556,2.74083,2.73075,0.222535,0.019675,0.143076
4276662,1,-1.5279,-0.498927,0.0475791,-2.07338,1.59497,1.66006,0.783245,-1.52431,-0.497899,0.0530616,-2.07001,1.59637,1.6641,0.783022,0.714146,0.438309,0.943699,0.41253,0.473935,1.58332,-0.0335481,0.740466,0.442443,1.00934,0.428009,0.463025,1.63451,-0.0414769,9.93989,-9.45529,15.3171,21.8167,0.186174,-1.35203,-0.290945,1.43672,0.0750616,2.81602,2.75192,0.214598,0.0113532,0.139841
4276663,1,-1.52718,-0.498484,0.0485385,-2.07295,1.59545,1.66171,0.78321,-1.52357,-0.497454,0.0540798,-2.06958,1.59684,1.66574,0.78298,0.717403,0.443287,0.950753,0.417002,0.47183,1.59226,-0.0320804,0.742885,0.444988,1.01821,0.43077,0.466373,1.64481,-0.0418262,10.0629,-9.68539,15.2656,21.7652,0.10103,-1.5452,-0.23876,1.4831,0.0309209,2.89747,2.78099,0.207031,0.00136641,0.135773
4276664,1,-1.52643,-0.498044,0.0495054,-2.07253,1.59593,1.66332,0.783183,-1.52282,-0.497006,0.0551069,-2.06914,1.59731,1.6674,0.782938,0.736845,0.442501,0.948999,0.415539,0.474508,1.59751,-0.0302076,0.745303,0.447533,1.02707,0.433531,0.469721,1.65511,-0.0421754,9.81294,-9.733,15.3171,21.8167,-0.0344679,-1.39689,-0.200308,1.53211,-0.0207888,2.98245,2.81477,0.199903,-0.00974332,0.130886
4276665,1,-1.5257,-0.497601,0.0504958,-2.07211,1.59642,1.66495,0.783158,-1.52208,-0.496556,0.0561428,-2.06871,1.59778,1.66906,0.782895,0.736962,0.44243,0.955508,0.413413,0.483298,1.60376,-0.0317747,0.747721,0.450078,1.03593,0.436292,0.473069,1.66541,-0.0425247,9.73756,-9.78458,15.3171,21.9159,-0.164473,-1.12681,-0.206716,1.58064,-0.0708676,3.06842,2.85021,0.193044,-0.0213567,0.125329
4276666,1,-1.52498,-0.497155,0.0514925,-2.07168,1.59689,1.66659,0.783129,-1.52133,-0.496104,0.0571862,-2.06827,1.59826,1.67073,0.782852,0.727359,0.446688,0.972382,0.415829,0.491152,1.60844,-0.0331473,0.74926,0.452041,1.04339,0.438537,0.475787,1.67387,-0.0428823,9.91212,-9.88773,15.1386,21.9635,-0.153486,-0.830175,-0.206716,1.62902,-0.115644,3.15472,2.88666,0.186172,-0.0331853,0.119282
4276667,1,-1.52426,-0.496697,0.0525151,-2.07126,1.59736,1.66826,0.783089,-1.52058,-0.49565,0.058237,-2.06783,1.59873,1.67242,0.782809,0.72201,0.447767,0.984559,0.414976,0.487835,1.62843,-0.0333595,0.750799,0.454003,1.05084,0.440782,0.478505,1.68233,-0.04324,10.0391,-9.98691,14.9879,22.1381,-0.0179884,-0.97849,-0.103262,1.67875,-0.157252,3.23996,2.92469,0.179136,-0.0449268,0.112907
4276668,1,-1.52351,-0.496245,0.0535229,-2.07082,1.59784,1.66995,0.783056,-1.51982,-0.495194,0.0592953,-2.06738,1.59922,1.67411,0.782766,0.721747,0.448948,1.00944,0.422486,0.481392,1.63706,-0.0354652,0.752338,0.455966,1.05829,0.443028,0.481222,1.69079,-0.0435976,9.9637,-10.1377,14.9363,22.0905,0.0387743,-0.991307,-0.0648096,1.72601,-0.193267,3.31579,2.96203,0.172124,-0.0555354,0.106404
4276669,1,-1.52275,-0.495787,0.0545509,-2.0704,1.59833,1.67163,0.783018,-1.51907,-0.494736,0.0603611,-2.06694,1.5997,1.67581,0.782722,0.731621,0.448778,1.00661,0.42055,0.477001,1.65158,-0.0375978,0.753877,0.457928,1.06575,0.445273,0.48394,1.69925,-0.0439552,9.66218,-10.2408,14.8331,22.2373,-0.0234816,-1.06821,-0.00621587,1.76484,-0.217434,3.37371,2.9945,0.165429,-0.0639038,0.100029
4276670,1,-1.52202,-0.495325,0.055603,-2.06997,1.59884,1.67335,0.782976,-1.51832,-0.494276,0.0614343,-2.06649,1.60019,1.67751,0.782677,0.732249,0.447973,1.0143,0.424812,0.49006,1.66153,-0.0401077,0.755416,0.45989,1.0732,0.447518,0.486658,1.70771,-0.0443129,9.45985,-10.3162,14.5554,22.2889,-0.130598,-1.1204,0.071604,1.79804,-0.226174,3.42072,3.02006,0.158909,-0.0704596,0.0939976
4276671,1,-1.52127,-0.494868,0.0566321,-2.06953,1.59934,1.67507,0.782938,-1.51756,-0.493815,0.0625149,-2.06604,1.60068,1.67923,0.782633,0.730266,0.45117,1.02274,0.428214,0.488451,1.67126,-0.0388445,0.756955,0.461853,1.08066,0.449763,0.489376,1.71617,-0.0446705,9.30909,-10.4154,14.3293,22.2889,-0.0802443,-1.16526,0.0587866,1.83146,-0.219305,3.46747,3.03778,0.152177,-0.0762408,0.0884903
4276672,1,-1.52056,-0.49441,0.0576843,-2.06909,1.59983,1.67675,0.782901,-1.5168,-0.493351,0.0636031,-2.06559,1.60117,1.68096,0.782588,0.730572,0.452087,1.023,0.434158,0.495846,1.67363,-0.0422451,0.758494,0.463815,1.08811,0.452009,0.492093,1.72463,-0.0450281,9.40828,-10.4908,13.9246,22.1897,-0.0628493,-0.907079,0.038645,1.86931,-0.199764,3.52068,3.04732,0.14491,-0.0821047,0.0836734
4276673,1,-1.51982,-0.493943,0.0587563,-2.06865,1.60034,1.67844,0.782859,-1.51604,-0.492885,0.0646986,-2.06514,1.60166,1.68269,0.782542,0.736381,0.457371,1.03406,0.435734,0.496017,1.67103,-0.0412013,0.760033,0.465777,1.09557,0.454254,0.494811,1.73309,-0.0453858,9.40828,-10.5939,13.4684,22.2135,-0.10771,-0.585729,0.0459692,1.91237,-0.173047,3.58227,3.05035,0.137007,-0.088229,0.0796174
4276674,1,-1.51905,-0.493492,0.0598171,-2.06819,1.60084,1.68015,0.782821,-1.51528,-0.492417,0.0658016,-2.06468,1.60216,1.68443,0.782496,0.749068,0.456819,1.04418,0.441971,0.500453,1.68404,-0.0387872,0.761572,0.46774,1.10302,0.456499,0.497529,1.74155,-0.0457434,8.95601,-10.5185,13.1907,22.0151,-0.0912306,-0.527135,0.00660151,1.95203,-0.142982,3.63986,3.04876,0.128795,-0.0930899,0.0763018
4276675,1,-1.51828,-0.493029,0.0609087,-2.06774,1.60136,1.68191,0.782773,-1.51451,-0.491948,0.0669121,-2.06422,1.60266,1.68618,0.78245,0.752607,0.45823,1.05183,0.446006,0.510409,1.69618,-0.0400491,0.763111,0.469702,1.11048,0.458745,0.500246,1.75001,-0.046101,8.42439,-10.5185,12.782,21.8167,-0.10771,-0.598546,0.0459692,1.97998,-0.106365,3.68113,3.04085,0.120529,-0.0951065,0.0736452
4276676,1,-1.5175,-0.492577,0.0620089,-2.06728,1.60188,1.68368,0.782731,-1.51375,-0.491476,0.0680284,-2.06376,1.60316,1.68794,0.782404,0.752005,0.453261,1.06455,0.450848,0.509561,1.71516,-0.0424602,0.763954,0.471082,1.1163,0.460414,0.50211,1.75651,-0.046461,7.94435,-10.4908,12.2028,21.6144,-0.0967238,-0.759679,0.00660151,1.99623,-0.0553231,3.70563,3.02272,0.112185,-0.0941644,0.0715405
4276677,1,-1.51673,-0.492102,0.0631332,-2.06683,1.60238,1.68541,0.782688,-1.51299,-0.491004,0.0691505,-2.0633,1.60367,1.6897,0.782357,0.758796,0.45489,1.08386,0.460421,0.514454,1.72071,-0.0445864,0.764797,0.472462,1.12212,0.462084,0.503973,1.76301,-0.046821,7.46431,-10.5701,11.7188,21.4914,-0.0344679,-0.772496,-0.0318506,1.99861,0.0183791,3.70946,2.98993,0.103874,-0.0901775,0.0699169
4276678,1,-1.51594,-0.49162,0.0642826,-2.06637,1.60289,1.68717,0.782659,-1.51222,-0.49053,0.0702785,-2.06283,1.60417,1.69147,0.78231,0.764522,0.4583,1.09726,0.45945,0.508505,1.72857,-0.0379618,0.76564,0.473842,1.12794,0.463754,0.505837,1.76951,-0.047181,7.11122,-10.7209,11.2665,21.416,-0.0289747,-0.662633,-0.168264,1.97963,0.111194,3.68158,2.94401,0.0960076,-0.0825164,0.0686838
4276679,1,-1.51516,-0.491153,0.0654284,-2.06591,1.6034,1.68894,0.782632,-1.51145,-0.490055,0.0714122,-2.06237,1.60468,1.69325,0.782262,0.763387,0.459284,1.10836,0.455967,0.495522,1.74005,-0.0326981,0.766483,0.475222,1.13376,0.465424,0.5077,1.77601,-0.0475409,6.93666,-10.82,10.7825,21.4676,-0.0802443,-0.617772,-0.322988,1.93881,0.206174,3.6211,2.8962,0.0890582,-0.071621,0.0676351
4276680,1,-1.51439,-0.490671,0.0665822,-2.06545,1.60393,1.69071,0.782593,-1.51069,-0.489578,0.0725518,-2.0619,1.60519,1.69503,0.782214,0.776099,0.4689,1.12074,0.454327,0.509407,1.74815,-0.0335583,0.767326,0.476602,1.13958,0.467093,0.509563,1.78251,-0.0479009,6.7859,-11.0739,10.4294,21.4914,-0.147993,-0.681859,-0.355947,1.88046,0.283826,3.53433,2.85955,0.0832882,-0.0584749,0.0664179
4276681,1,-1.5136,-0.490199,0.0677083,-2.06498,1.60445,1.69256,0.782543,-1.50992,-0.4891,0.0736972,-2.06143,1.6057,1.69682,0.782166,0.776349,0.471199,1.14044,0.460465,0.508712,1.77324,-0.037339,0.76817,0.477982,1.1454,0.468763,0.511427,1.78901,-0.0482609,6.48042,-11.2247,10.2509,21.4438,-0.153486,-1.30716,-0.297354,1.80445,0.332083,3.42103,2.83974,0.0787229,-0.0432918,0.0646405
4276682,1,-1.51283,-0.489716,0.0688449,-2.06451,1.60498,1.69436,0.782512,-1.50915,-0.488621,0.0748484,-2.06096,1.60621,1.69861,0.782118,0.789636,0.471983,1.13278,0.466208,0.509598,1.78106,-0.0356913,0.769013,0.479361,1.15122,0.470433,0.51329,1.79551,-0.0486209,6.38124,-11.4786,10.1517,21.3922,-0.25511,-1.6807,-0.349539,1.71468,0.358099,3.28798,2.83005,0.0748848,-0.0271159,0.0620823
4276683,1,-1.51206,-0.489246,0.0699882,-2.06404,1.6055,1.69612,0.782472,-1.50838,-0.48814,0.0760055,-2.06049,1.60673,1.70041,0.782069,0.783822,0.470858,1.13684,0.466081,0.516041,1.76704,-0.0362853,0.769856,0.480741,1.15704,0.472103,0.515153,1.80201,-0.0489808,6.45662,-11.5302,10.124,21.3922,-0.283491,-1.27421,-0.355947,1.6243,0.376847,3.15692,2.82108,0.0707938,-0.0125485,0.0586997
4276684,1,-1.5113,-0.48878,0.0710993,-2.06356,1.606,1.69789,0.782425,-1.50761,-0.487658,0.0771683,-2.06002,1.60725,1.70222,0.782019,0.774799,0.469585,1.12447,0.467075,0.518602,1.75082,-0.0348421,0.770699,0.482121,1.16286,0.473772,0.517017,1.80851,-0.0493408,6.73433,-11.554,10.4294,21.4438,-0.130598,-0.90067,-0.284536,1.5513,0.396474,3.05523,2.80945,0.0654044,-0.00249683,0.0544963
4276685,1,-1.51058,-0.488295,0.0722571,-2.06308,1.6065,1.69966,0.78239,-1.50684,-0.487175,0.078337,-2.05954,1.60776,1.70404,0.78197,0.763105,0.471988,1.1298,0.468174,0.511084,1.75748,-0.035272,0.771542,0.483501,1.16868,0.475442,0.51888,1.81501,-0.0497008,7.4405,-11.7047,10.4532,21.3922,0.0900438,-0.766088,-0.290945,1.51233,0.417583,3.00593,2.79572,0.0581258,0.000973547,0.0495393
4276686,1,-1.50985,-0.487818,0.073415,-2.0626,1.60702,1.70149,0.782341,-1.50607,-0.48669,0.0795097,-2.05906,1.60828,1.70586,0.78192,0.754297,0.48327,1.12999,0.470234,0.510115,1.76864,-0.0405681,0.771879,0.484308,1.1727,0.476498,0.519859,1.81943,-0.0500472,8.01973,-11.8595,10.481,21.3922,0.112016,-1.01694,-0.161856,1.514,0.427486,3.01562,2.78585,0.0493346,-0.0025318,0.0439835
4276687,1,-1.50907,-0.487326,0.0745421,-2.06212,1.60755,1.70329,0.7823,-1.50529,-0.486205,0.0806864,-2.05859,1.60881,1.70768,0.781869,0.762942,0.488451,1.1315,0.471314,0.504733,1.82002,-0.0407137,0.772216,0.485115,1.17671,0.477555,0.520837,1.82386,-0.0503936,7.86897,-12.034,10.7072,21.4438,0.0222948,-1.11399,-0.122488,1.55345,0.40784,3.07701,2.78802,0.0400097,-0.0124014,0.0380278
4276688,1,-1.5083,-0.486814,0.075695,-2.06164,1.60808,1.70511,0.782259,-1.50452,-0.485719,0.0818671,-2.05811,1.60933,1.70951,0.781818,0.770909,0.492313,1.1347,0.478132,0.51947,1.80544,-0.0404604,0.772553,0.485922,1.18073,0.478611,0.521815,1.82828,-0.05074,7.61903,-12.3395,10.9095,21.5152,-0.164473,-1.08744,-0.0968531,1.61879,0.357223,3.17255,2.80193,0.0308947,-0.0269105,0.0319381
4276689,1,-1.50755,-0.486318,0.0768673,-2.06118,1.60861,1.70695,0.782232,-1.50375,-0.485233,0.0830519,-2.05763,1.60985,1.71134,0.781767,0.758052,0.493881,1.14656,0.471392,0.527107,1.80759,-0.0345525,0.772889,0.486728,1.18474,0.479667,0.522793,1.8327,-0.0510864,7.81739,-12.5894,10.5564,21.7652,-0.187361,-1.01694,-0.225942,1.69583,0.285931,3.28203,2.82333,0.0221972,-0.0435588,0.0259851
4276690,1,-1.50683,-0.485824,0.0780499,-2.06071,1.60913,1.70876,0.78219,-1.50297,-0.484745,0.0842406,-2.05715,1.61037,1.71318,0.781716,0.745814,0.491601,1.15719,0.471971,0.527887,1.80787,-0.0355144,0.773226,0.487535,1.18876,0.480723,0.523772,1.83712,-0.0514328,8.0713,-12.7442,10.1755,21.9873,-0.125105,-0.972081,-0.225942,1.77905,0.202999,3.39551,2.8514,0.0138382,-0.0610149,0.0202977
4276691,1,-1.50605,-0.485327,0.0792253,-2.06024,1.60965,1.71061,0.78215,-1.5022,-0.484257,0.0854334,-2.05667,1.6109,1.71502,0.781664,0.74897,0.491615,1.15509,0.47467,0.523527,1.81461,-0.0354706,0.773563,0.488342,1.19277,0.481779,0.52475,1.84155,-0.0517792,7.66664,-12.7918,9.84626,22.1143,-0.0179884,-0.959264,-0.252493,1.86817,0.120728,3.51143,2.8819,0.00561927,-0.0789506,0.0148603
4276692,1,-1.50525,-0.484834,0.0804001,-2.05976,1.61019,1.71245,0.782099,-1.50143,-0.483768,0.0866302,-2.05618,1.61142,1.71687,0.781612,0.76275,0.493769,1.16157,0.475381,0.526776,1.80546,-0.0386204,0.7739,0.489149,1.19679,0.482836,0.525728,1.84597,-0.0521256,6.88508,-12.9187,9.41779,22.3127,-0.147993,-0.746862,-0.18749,1.95758,0.0479119,3.62374,2.9098,-0.00248387,-0.0963288,0.00961437
4276693,1,-1.50446,-0.484339,0.0815956,-2.05929,1.61073,1.71426,0.782048,-1.50065,-0.483278,0.087831,-2.0557,1.61195,1.71872,0.78156,0.773456,0.493778,1.16631,0.472914,0.535557,1.80791,-0.0458681,0.774237,0.489955,1.20081,0.483892,0.526707,1.85039,-0.052472,6.1551,-13.0219,8.96155,22.4872,-0.311873,-0.482274,-0.10967,2.03433,-0.015102,3.71684,2.93545,-0.0101634,-0.111073,0.00452576
4276694,1,-1.50367,-0.483847,0.0827824,-2.0588,1.61126,1.71611,0.781985,-1.49988,-0.482787,0.0890358,-2.05521,1.61248,1.72057,0.781507,0.778449,0.496352,1.16998,0.474477,0.53084,1.80383,-0.0533372,0.774574,0.490762,1.20482,0.484948,0.527685,1.85481,-0.0528184,5.59968,-13.0457,8.50531,22.4872,-0.25511,-0.379735,0.0322363,2.09014,-0.0705763,3.78119,2.96106,-0.017322,-0.121791,-0.000351963
4276695,1,-1.50292,-0.483349,0.0839888,-2.05832,1.61178,1.71794,0.781926,-1.4991,-0.482295,0.0902447,-2.05473,1.61301,1.72243,0.781454,0.77169,0.495003,1.17892,0.48913,0.528342,1.81561,-0.0553915,0.774911,0.491569,1.20884,0.486004,0.528663,1.85924,-0.0531648,5.5243,-13.0457,8.12445,22.3603,-0.136091,-0.366002,0.0844213,2.12674,-0.114212,3.82048,2.98199,-0.0243124,-0.128589,-0.00481502
