shamilmamedov/beam_handling/log/vibration_suppression_ICRA/aOCP_T2_0.46s.csv
duration, success rate, q[0], q[1], q[2], q[3], q[4], q[5], q[6],q_d[0], q_d[1], q_d[2], q_d[3], q_d[4], q_d[5], q_d[6],dq[0], dq[1], dq[2], dq[3], dq[4], dq[5], dq[6],dq_d[0], dq_d[1], dq_d[2], dq_d[3], dq_d[4], dq_d[5], dq_d[6],tau_J[0], tau_J[1], tau_J[2], tau_J[3], tau_J[4], tau_J[5], tau_J[6],tau_ext_hat_filtered[0], tau_ext_hat_filtered[1], tau_ext_hat_filtered[2], tau_ext_hat_filtered[3], tau_ext_hat_filtered[4], tau_ext_hat_filtered[5], tau_ext_hat_filtered[6]
2225911,0,-1.57033,-0.522838,0.000339986,-2.09689,-0.00054062,1.57126,0.786018,-1.5708,-0.523599,3.85839e-08,-2.0944,1.07794e-07,1.5708,0.785398,0.000244369,-0.00034765,0.000648941,0.000136329,-0.000191236,-0.000359125,0.00103941,0,0,0,0,0,0,0,-0.529774,-10.1654,-0.837644,21.9635,1.32784,1.35336,-0.446585,-0.519662,-1.03441,-0.33032,3.43752,0.612263,-0.320606,-0.431382
2225912,1,-1.57033,-0.522836,0.000338333,-2.09689,-0.000541942,1.57126,0.786018,-1.5708,-0.523599,3.85839e-08,-2.0944,1.07794e-07,1.5708,0.785398,0.000812527,0.000325045,-0.000124184,9.0886e-05,-0.0005683,-0.000239416,0.000692939,0,0,0,0,0,0,0,-0.557545,-10.1892,-0.81384,21.9635,1.33974,1.35336,-0.446585,-0.520721,-1.03576,-0.331787,3.43783,0.612164,-0.32064,-0.431216
2225913,1,-1.57033,-0.522838,0.00033639,-2.09689,-0.00054062,1.57126,0.786019,-1.5708,-0.523599,3.85839e-08,-2.0944,1.07794e-07,1.5708,0.785398,-0.000107929,-0.000340115,-0.000732404,-0.000496221,6.19427e-05,-0.000159611,0.000699318,0,0,0,0,0,0,0,-0.529774,-10.1654,-0.786069,21.9873,1.32784,1.35336,-0.452993,-0.521622,-1.0363,-0.33293,3.43796,0.612073,-0.320669,-0.431062
2225914,1,-1.57033,-0.522838,0.00033834,-2.09689,-0.00054001,1.57126,0.786017,-1.5708,-0.523599,3.85839e-08,-2.0944,1.07794e-07,1.5708,0.785398,0.000577661,-0.000226743,0.000161345,0.000225998,0.000244746,0.000130952,-0.000245865,0,0,0,0,0,0,0,-0.557545,-10.1654,-0.81384,21.9635,1.32234,1.34695,-0.433767,-0.521985,-1.03612,-0.333185,3.43793,0.612023,-0.320683,-0.430958
2225915,1,-1.57034,-0.522839,0.000336392,-2.09689,-0.00054001,1.57126,0.786018,-1.5708,-0.523599,3.85839e-08,-2.0944,1.07794e-07,1.5708,0.785398,-0.000264507,-0.000800776,-0.000542051,0.000150665,0.000163164,-0.000150058,0.000310808,0,0,0,0,0,0,0,-0.529774,-10.1377,-0.786069,21.9635,1.32234,1.35336,-0.446585,-0.522124,-1.03454,-0.333043,3.4372,0.611986,-0.320737,-0.430918
2225916,1,-1.57034,-0.522838,0.000338341,-2.09689,-0.000541332,1.57126,0.786015,-1.5708,-0.523599,3.85839e-08,-2.0944,1.07794e-07,1.5708,0.785398,-0.00073315,0.000115763,0.000288247,0.000100443,-0.000332034,-0.000100039,-0.000776139,0,0,0,0,0,0,0,-0.50597,-10.1654,-0.81384,21.9635,1.33425,1.35336,-0.420034,-0.521911,-1.03203,-0.332405,3.43594,0.611964,-0.320826,-0.430935
2225917,1,-1.57034,-0.522838,0.000340012,-2.0969,-0.00054001,1.57126,0.786012,-1.5708,-0.523599,3.85839e-08,-2.0944,1.07794e-07,1.5708,0.785398,-0.000488766,7.71754e-05,0.000748976,-0.00113946,0.000219454,0.000170667,-0.00170422,0,0,0,0,0,0,0,-0.50597,-10.1654,-0.837644,22.0151,1.32234,1.34695,-0.387991,-0.521566,-1.03055,-0.331725,3.43534,0.61197,-0.320846,-0.430987
2225918,1,-1.57033,-0.522838,0.000338341,-2.09689,-0.00054001,1.57126,0.786015,-1.5708,-0.523599,3.85839e-08,-2.0944,1.07794e-07,1.5708,0.785398,0.000230968,5.14503e-05,-5.74943e-05,0.0010036,0.000146302,0.000351137,5.06477e-05,0,0,0,0,0,0,0,-0.529774,-10.1654,-0.81384,21.9397,1.32234,1.34054,-0.420034,-0.521594,-1.03042,-0.331712,3.4355,0.611979,-0.320799,-0.431031
2225919,1,-1.57034,-0.522839,0.000336393,-2.09689,-0.000541332,1.57126,0.786012,-1.5708,-0.523599,3.85839e-08,-2.0944,1.07794e-07,1.5708,0.785398,-0.00105245,-0.000615314,-0.000687943,0.000112252,-0.000343274,-0.000477986,-0.000915671,0,0,0,0,0,0,0,-0.478199,-10.1377,-0.786069,21.9635,1.33425,1.35977,-0.394399,-0.521405,-1.02981,-0.331395,3.43514,0.611981,-0.320813,-0.431027
2225920,1,-1.57034,-0.522841,0.000338341,-2.09689,-0.00054062,1.57126,0.78602,-1.5708,-0.523599,3.85839e-08,-2.0944,1.07794e-07,1.5708,0.785398,0.000504794,-0.000967021,0.000190985,-0.000481977,8.50929e-06,-8.12982e-05,0.000847615,0,0,0,0,0,0,0,-0.529774,-10.1139,-0.81384,21.9873,1.32784,1.35336,-0.433767,-0.520695,-1.0278,-0.330333,3.43406,0.611989,-0.32088,-0.430957
2225921,1,-1.57033,-0.522836,0.000336393,-2.09689,-0.00054062,1.57126,0.786019,-1.5708,-0.523599,3.85839e-08,-2.0944,1.07794e-07,1.5708,0.785398,0.000336529,0.00111856,-0.000522291,-0.000321318,5.67286e-06,0.000420519,0.000802436,0,0,0,0,0,0,0,-0.529774,-10.1892,-0.786069,21.9873,1.32784,1.34054,-0.440176,-0.520218,-1.02625,-0.329573,3.43351,0.611996,-0.320884,-0.43082
2225922,1,-1.57033,-0.522836,0.000340012,-2.09689,-0.00054001,1.57126,0.786021,-1.5708,-0.523599,3.85839e-08,-2.0944,1.07794e-07,1.5708,0.785398,0.000224353,0.000745705,0.000858232,0.000899412,0.000207232,-0.000431731,0.00172175,0,0,0,0,0,0,0,-0.529774,-10.1892,-0.837644,21.9397,1.32234,1.35977,-0.472219,-0.520368,-1.02728,-0.329665,3.43408,0.61199,-0.320817,-0.430643
2225923,1,-1.57033,-0.522834,0.000338341,-2.0969,-0.000541942,1.57126,0.786016,-1.5708,-0.523599,3.85839e-08,-2.0944,1.07794e-07,1.5708,0.785398,0.000799183,0.00105395,1.53428e-05,-0.00116363,-0.000506105,0.000186897,-0.000547586,0,0,0,0,0,0,0,-0.557545,-10.213,-0.81384,22.0151,1.33974,1.34695,-0.426443,-0.521229,-1.03074,-0.330785,3.43561,0.611964,-0.320694,-0.430479
2225924,1,-1.57034,-0.522836,0.000340012,-2.0969,-0.000539399,1.57126,0.786021,-1.5708,-0.523599,3.85839e-08,-2.0944,1.07794e-07,1.5708,0.785398,-0.000116826,0.00014582,0.00056704,-0.000775753,0.000510307,0.000124598,0.00133036,0,0,0,0,0,0,0,-0.529774,-10.1892,-0.837644,22.0151,1.31685,1.34695,-0.472219,-0.52255,-1.03564,-0.33257,3.43817,0.611945,-0.32047,-0.43037
2225925,1,-1.57034,-0.522836,0.000334722,-2.09689,-0.000539399,1.57126,0.78602,-1.5708,-0.523599,3.85839e-08,-2.0944,1.07794e-07,1.5708,0.785398,-0.000634696,9.72136e-05,-0.00138521,0.000132445,0.000340205,0.000320424,0.000412191,0,0,0,0,0,0,0,-0.50597,-10.1892,-0.762265,21.9873,1.31685,1.34054,-0.459402,-0.523203,-1.03997,-0.333394,3.44073,0.611967,-0.320231,-0.43034
2225926,1,-1.57034,-0.522839,0.000338341,-2.09689,-0.000541332,1.57126,0.786017,-1.5708,-0.523599,3.85839e-08,-2.0944,1.07794e-07,1.5708,0.785398,-0.00042313,-0.00114162,0.000282952,0.00120192,-0.000417457,-2.37426e-05,-0.000674642,0,0,0,0,0,0,0,-0.50597,-10.1377,-0.81384,21.9397,1.33425,1.34695,-0.433767,-0.522597,-1.04102,-0.332403,3.44134,0.612007,-0.320174,-0.430411
2225927,1,-1.57034,-0.522836,0.000336211,-2.09689,-0.00054001,1.57126,0.786017,-1.5708,-0.523599,3.85839e-08,-2.0944,1.07794e-07,1.5708,0.785398,0.000274725,0.000445348,0.000188635,-0.000312344,0.000162505,-0.000253187,-0.000449761,0,0,0,0,0,0,0,-0.529774,-10.1892,-0.81384,21.9873,1.32234,1.35336,-0.433767,-0.521817,-1.039,-0.331203,3.44007,0.612009,-0.320299,-0.430573
2225928,1,-1.57034,-0.522838,0.000337631,-2.09689,-0.00054062,1.57126,0.786017,-1.5708,-0.523599,3.85839e-08,-2.0944,1.07794e-07,1.5708,0.785398,-0.000373662,-0.000259913,0.000125756,0.000348583,-9.51139e-05,6.85674e-05,-0.000299841,0,0,0,0,0,0,0,-0.50597,-10.1654,-0.81384,21.9635,1.32784,1.34695,-0.433767,-0.521594,-1.03675,-0.33086,3.43869,0.611977,-0.32044,-0.430782
2225929,1,-1.57033,-0.522836,0.000334485,-2.09689,-0.00054062,1.57126,0.786012,-1.5708,-0.523599,3.85839e-08,-2.0944,1.07794e-07,1.5708,0.785398,0.000957318,0.000383536,-0.00112259,0.000789201,-6.34093e-05,-0.000191647,-0.00189531,0,0,0,0,0,0,0,-0.557545,-10.1892,-0.762265,21.9397,1.32784,1.35336,-0.387991,-0.521445,-1.03509,-0.330557,3.43751,0.61194,-0.320571,-0.431009
2225930,1,-1.57034,-0.522838,0.000334643,-2.09689,-0.00054062,1.57126,0.786017,-1.5708,-0.523599,3.85839e-08,-2.0944,1.07794e-07,1.5708,0.785398,-1.1402e-05,-0.000301121,-0.000748392,0.00108295,-4.22728e-05,-0.000127765,0.000431878,0,0,0,0,0,0,0,-0.529774,-10.1654,-0.762265,21.9159,1.32784,1.35336,-0.433767,-0.520984,-1.03323,-0.329585,3.43585,0.611905,-0.320751,-0.431218
2225931,1,-1.57034,-0.522839,0.000336366,-2.0969,-0.00054001,1.57126,0.786015,-1.5708,-0.523599,3.85839e-08,-2.0944,1.07794e-07,1.5708,0.785398,-0.000564413,-0.000850361,5.78838e-05,-0.00159809,0.000175269,0.000152182,-0.0014075,0,0,0,0,0,0,0,-0.50597,-10.1377,-0.786069,22.0151,1.32234,1.34695,-0.387991,-0.520242,-1.03099,-0.328099,3.43413,0.611887,-0.32091,-0.43137
2225932,1,-1.57033,-0.522836,0.000338333,-2.09689,-0.00054062,1.57126,0.786018,-1.5708,-0.523599,3.85839e-08,-2.0944,1.07794e-07,1.5708,0.785398,0.000180536,0.000639518,0.000688203,-0.000415777,-8.66048e-05,0.000101455,0.000757086,0,0,0,0,0,0,0,-0.529774,-10.1892,-0.81384,21.9873,1.32784,1.34695,-0.433767,-0.519844,-1.02969,-0.327203,3.43366,0.611891,-0.320911,-0.431441
2225933,1,-1.57034,-0.522838,0.00033639,-2.09689,-0.00054001,1.57126,0.786019,-1.5708,-0.523599,3.85839e-08,-2.0944,1.07794e-07,1.5708,0.785398,-0.000436454,-0.000130466,-0.000190812,0.000836439,0.000145714,-0.000169722,0.000979442,0,0,0,0,0,0,0,-0.50597,-10.1654,-0.786069,21.9397,1.32234,1.35336,-0.446585,-0.520049,-1.02992,-0.327262,3.43414,0.611883,-0.320826,-0.431425
2225934,1,-1.57034,-0.522838,0.000334721,-2.09689,-0.000539399,1.57126,0.786021,-1.5708,-0.523599,3.85839e-08,-2.0944,1.07794e-07,1.5708,0.785398,0.000915456,-8.69776e-05,-0.00068402,8.14324e-07,0.000300593,0.00036157,0.00136504,0,0,0,0,0,0,0,-0.557545,-10.1654,-0.762265,21.9635,1.31685,1.34054,-0.465811,-0.520313,-1.03008,-0.327328,3.43418,0.611851,-0.320804,-0.431358
2225935,1,-1.57034,-0.522839,0.000338341,-2.09689,-0.00054001,1.57126,0.78602,-1.5708,-0.523599,3.85839e-08,-2.0944,1.07794e-07,1.5708,0.785398,-3.93097e-05,-0.000707599,0.000750413,0.00111417,-3.05506e-06,3.68749e-06,0.000672666,0,0,0,0,0,0,0,-0.529774,-10.1377,-0.81384,21.9159,1.32234,1.34695,-0.459402,-0.520749,-1.02898,-0.327497,3.43328,0.611778,-0.320876,-0.431298
2225936,1,-1.57033,-0.522838,0.000336392,-2.09689,-0.000541332,1.57126,0.78602,-1.5708,-0.523599,3.85839e-08,-2.0944,1.07794e-07,1.5708,0.785398,0.000623407,0.000177881,-0.000149339,-0.000370846,-0.000442846,-0.00047226,0.000685803,0,0,0,0,0,0,0,-0.557545,-10.1654,-0.786069,21.9635,1.33425,1.35977,-0.465811,-0.521705,-1.02706,-0.328357,3.43185,0.611658,-0.320997,-0.431291
2225937,1,-1.57033,-0.522834,0.000337881,-2.09689,-0.000539399,1.57126,0.786015,-1.5708,-0.523599,3.85839e-08,-2.0944,1.07794e-07,1.5708,0.785398,0.000415605,0.000675399,0.00110687,-0.000247231,0.000349029,0.000159878,-0.00123822,0,0,0,0,0,0,0,-0.557545,-10.1892,-0.837644,21.9635,1.31685,1.34695,-0.420034,-0.523191,-1.02661,-0.329951,3.43133,0.611529,-0.32103,-0.43136
2225938,1,-1.57034,-0.522837,0.000335682,-2.09689,-0.000539399,1.57126,0.786014,-1.5708,-0.523599,3.85839e-08,-2.0944,1.07794e-07,1.5708,0.785398,-0.00157897,-0.000106546,-0.000468515,-0.00016482,0.000232686,0.000106585,-0.0013002,0,0,0,0,0,0,0,-0.478199,-10.1654,-0.786069,21.9635,1.31685,1.34695,-0.407217,-0.524525,-1.0282,-0.331374,3.43202,0.611439,-0.320945,-0.431502
2225939,1,-1.57034,-0.522841,0.000336156,-2.09689,-0.000539399,1.57126,0.786015,-1.5708,-0.523599,3.85839e-08,-2.0944,1.07794e-07,1.5708,0.785398,-0.000403033,-0.00127746,-0.000312343,-0.00010988,0.000155124,7.1057e-05,-0.000629439,0,0,0,0,0,0,0,-0.50597,-10.1139,-0.786069,21.9635,1.31685,1.34695,-0.413626,-0.52454,-1.02906,-0.331014,3.43246,0.611408,-0.320863,-0.431678
2225940,1,-1.57033,-0.522837,0.000338263,-2.09689,-0.00054001,1.57126,0.786013,-1.5708,-0.523599,3.85839e-08,-2.0944,1.07794e-07,1.5708,0.785398,0.000937737,0.000354788,0.000441385,-0.000630065,-0.000100034,-0.000189988,-0.000894344,0,0,0,0,0,0,0,-0.557545,-10.1654,-0.81384,21.9873,1.32234,1.35336,-0.400808,-0.52405,-1.02843,-0.329936,3.43235,0.611379,-0.320807,-0.431827
2225941,1,-1.57034,-0.522836,0.000338315,-2.09689,-0.000541332,1.57126,0.786018,-1.5708,-0.523599,3.85839e-08,-2.0944,1.07794e-07,1.5708,0.785398,-2.44557e-05,0.000793338,0.000294257,-0.000420044,-0.000507499,0.000348059,0.000861833,0,0,0,0,0,0,0,-0.529774,-10.1892,-0.81384,21.9873,1.33425,1.34054,-0.440176,-0.52436,-1.02911,-0.329966,3.43305,0.611308,-0.32069,-0.431902
2225942,1,-1.57034,-0.522836,0.000338333,-2.09689,-0.00054062,1.57126,0.786018,-1.5708,-0.523599,3.85839e-08,-2.0944,1.07794e-07,1.5708,0.785398,-1.63038e-05,0.000528892,0.000196171,0.000833595,-0.000100974,-5.3193e-06,0.000811914,0,0,0,0,0,0,0,-0.529774,-10.1892,-0.81384,21.9397,1.32784,1.34695,-0.446585,-0.525052,-1.03177,-0.330559,3.43449,0.611221,-0.32055,-0.431901
2225943,1,-1.57034,-0.522836,0.000338339,-2.09689,-0.00054062,1.57126,0.786019,-1.5708,-0.523599,3.85839e-08,-2.0944,1.07794e-07,1.5708,0.785398,-0.000567681,0.000352594,0.000130781,-1.08209e-06,-6.73159e-05,-0.000240905,-0.000204709,0,0,0,0,0,0,0,-0.50597,-10.1892,-0.81384,21.9635,1.32784,1.35336,-0.426443,-0.525465,-1.03456,-0.330826,3.43552,0.611139,-0.320482,-0.431862
2225944,1,-1.57034,-0.522838,0.00033834,-2.09689,-0.00054062,1.57126,0.78602,-1.5708,-0.523599,3.85839e-08,-2.0944,1.07794e-07,1.5708,0.785398,-0.000378454,-0.000321749,8.71872e-05,0.0011129,-4.48772e-05,-0.000160603,0.000846871,0,0,0,0,0,0,0,-0.50597,-10.1654,-0.81384,21.9159,1.32784,1.35336,-0.452993,-0.525423,-1.03608,-0.330548,3.43561,0.611072,-0.320508,-0.431823
2225945,1,-1.57033,-0.522836,0.000340012,-2.0969,-0.00054001,1.57126,0.786018,-1.5708,-0.523599,3.85839e-08,-2.0944,1.07794e-07,1.5708,0.785398,0.000304509,0.000342313,0.000614937,-0.00157811,0.000173532,0.00013029,8.98631e-05,0,0,0,0,0,0,0,-0.529774,-10.1892,-0.837644,22.0151,1.32234,1.34695,-0.440176,-0.525343,-1.03658,-0.330331,3.43528,0.611014,-0.320552,-0.431796
2225946,1,-1.57034,-0.522836,0.000340012,-2.09689,-0.00054062,1.57126,0.786019,-1.5708,-0.523599,3.85839e-08,-2.0944,1.07794e-07,1.5708,0.785398,-0.000353806,0.000228208,0.000409958,-0.000402463,-8.77623e-05,8.686e-05,0.000534627,0,0,0,0,0,0,0,-0.50597,-10.1892,-0.837644,21.9873,1.32784,1.34695,-0.452993,-0.525659,-1.03786,-0.330805,3.43589,0.610972,-0.32048,-0.431793
2225947,1,-1.57033,-0.522838,0.000340012,-2.09689,-0.00054062,1.57126,0.78602,-1.5708,-0.523599,3.85839e-08,-2.0944,1.07794e-07,1.5708,0.785398,0.000320941,-0.000404673,0.000273305,-0.000268308,-5.85082e-05,5.79067e-05,0.000593777,0,0,0,0,0,0,0,-0.529774,-10.1654,-0.837644,21.9873,1.32784,1.34695,-0.459402,-0.526158,-1.03942,-0.331665,3.43699,0.610942,-0.32035,-0.43183
2225948,1,-1.57034,-0.522835,0.000338341,-2.09689,-0.00054062,1.57126,0.786019,-1.5708,-0.523599,3.85839e-08,-2.0944,1.07794e-07,1.5708,0.785398,-0.000342851,-0.000269782,0.00590396,-0.000178872,-3.90055e-05,-0.000198754,0.000158492,0,0,0,0,0,0,0,-0.50597,-10.1654,-0.81384,21.9873,1.32784,1.35336,-0.452993,-0.528151,-1.03955,-0.335056,3.43745,0.610836,-0.320281,-0.43191
2225949,1,-1.57033,-0.522837,0.000336393,-2.09689,-0.000541332,1.57126,0.786016,-1.5708,-0.523599,3.85839e-08,-2.0944,1.07794e-07,1.5708,0.785398,0.000328245,-0.000179855,0.00380957,-0.000119248,-0.000263363,-0.000132503,-0.000877683,0,0,0,0,0,0,0,-0.529774,-10.1654,-0.786069,21.9873,1.33425,1.35336,-0.426443,-0.533321,-1.03847,-0.343697,3.43739,0.610581,-0.320269,-0.432033
2225950,1,-1.57033,-0.522833,0.000338341,-2.09689,-0.00054062,1.57126,0.786013,-1.5708,-0.523599,3.85839e-08,-2.0944,1.07794e-07,1.5708,0.785398,0.000868444,0.000436909,0.00358174,-7.94988e-05,6.17839e-05,0.000149024,-0.00153456,0,0,0,0,0,0,0,-0.557545,-10.1892,-0.81384,21.9873,1.32784,1.34695,-0.400808,-0.540452,-1.03741,-0.355461,3.43728,0.610245,-0.320275,-0.432191
2225951,1,-1.57033,-0.522837,0.000341682,-2.0969,-0.00054001,1.57126,0.786016,-1.5708,-0.523599,3.85839e-08,-2.0944,1.07794e-07,1.5708,0.785398,0.000578962,-0.000265539,0.00379576,-0.000702613,0.00024464,9.93491e-05,-7.36026e-05,0,0,0,0,0,0,0,-0.557545,-10.1654,-0.861447,22.0151,1.32234,1.34695,-0.426443,-0.547822,-1.03704,-0.367395,3.43752,0.609917,-0.32026,-0.432349
2225952,1,-1.57033,-0.522836,0.000338341,-2.09689,-0.00054001,1.57126,0.786014,-1.5708,-0.523599,3.85839e-08,-2.0944,1.07794e-07,1.5708,0.785398,-0.000263639,0.000379786,0.00163761,0.00129483,0.000163093,-0.000171126,-0.000761145,0,0,0,0,0,0,0,-0.529774,-10.1892,-0.81384,21.9397,1.32234,1.35336,-0.407217,-0.554054,-1.03676,-0.377394,3.43763,0.609647,-0.320267,-0.432471
2225953,1,-1.57033,-0.522834,0.000338341,-2.09689,-0.000541332,1.57126,0.786018,-1.5708,-0.523599,3.85839e-08,-2.0944,1.07794e-07,1.5708,0.785398,-0.000175759,0.000810002,0.00125729,0.000306407,-0.000332081,-0.000351443,0.000950632,0,0,0,0,0,0,0,-0.529774,-10.213,-0.81384,21.9635,1.33425,1.35977,-0.446585,-0.557507,-1.03664,-0.383007,3.43723,0.609491,-0.320344,-0.432547
2225954,1,-1.57034,-0.522839,0.000338341,-2.09689,-0.00054001,1.57126,0.786019,-1.5708,-0.523599,3.85839e-08,-2.0944,1.07794e-07,1.5708,0.785398,-0.000117173,-0.00122324,0.000962354,-0.00035254,0.000219422,3.06355e-06,-0.000112231,0,0,0,0,0,0,0,-0.529774,-10.1377,-0.81384,21.9873,1.32234,1.35336,-0.426443,-0.558111,-1.03649,-0.384132,3.43662,0.609461,-0.320431,-0.432582
2225955,1,-1.57034,-0.522834,0.000340012,-2.09689,-0.00054062,1.57126,0.786023,-1.5708,-0.523599,3.85839e-08,-2.0944,1.07794e-07,1.5708,0.785398,-7.81153e-05,0.000947747,0.0012915,0.000321785,-5.7169e-05,-0.000235317,0.000908524,0,0,0,0,0,0,0,-0.529774,-10.213,-0.837644,21.9635,1.32784,1.35977,-0.452993,-0.556954,-1.03579,-0.382437,3.43596,0.609518,-0.32048,-0.432593
2225956,1,-1.57034,-0.522835,0.000336393,-2.09689,-0.00054062,1.57126,0.78602,-1.5708,-0.523599,3.85839e-08,-2.0944,1.07794e-07,1.5708,0.785398,-5.20768e-05,-0.000481793,-0.000275584,0.000214523,-3.81126e-05,0.00031784,0.000605683,0,0,0,0,0,0,0,-0.529774,-10.1654,-0.786069,21.9635,1.32784,1.34695,-0.452993,-0.554562,-1.03532,-0.378738,3.4354,0.609635,-0.320498,-0.432601
2225957,1,-1.57034,-0.522839,0.000338341,-2.09689,-0.00054062,1.57126,0.78602,-1.5708,-0.523599,3.85839e-08,-2.0944,1.07794e-07,1.5708,0.785398,-0.00124114,-0.000970809,0.000518272,0.000143016,-2.54084e-05,-2.54655e-05,0.000641147,0,0,0,0,0,0,0,-0.478199,-10.1377,-0.81384,21.9635,1.32784,1.35336,-0.459402,-0.550813,-1.03405,-0.372938,3.43439,0.609809,-0.320534,-0.432639
2225958,1,-1.57033,-0.522836,0.000338341,-2.09689,-0.00054001,1.57126,0.786015,-1.5708,-0.523599,3.85839e-08,-2.0944,1.07794e-07,1.5708,0.785398,0.000378996,0.00055922,0.0003848,0.000652156,0.000186512,0.000220382,-0.00126799,0,0,0,0,0,0,0,-0.529774,-10.1892,-0.81384,21.9397,1.32234,1.34695,-0.413626,-0.546343,-1.03168,-0.366089,3.43283,0.61001,-0.3206,-0.432728
2225959,1,-1.57034,-0.522837,0.000336393,-2.09689,-0.00054062,1.57126,0.786016,-1.5708,-0.523599,3.85839e-08,-2.0944,1.07794e-07,1.5708,0.785398,-0.000304148,-0.000183999,-0.000363617,-0.000678853,-7.91095e-05,-9.04376e-05,-0.000370608,0,0,0,0,0,0,0,-0.50597,-10.1654,-0.786069,21.9873,1.32784,1.35336,-0.426443,-0.541976,-1.03037,-0.359364,3.43177,0.610215,-0.32062,-0.432857
2225960,1,-1.57034,-0.522836,0.000338341,-2.09689,-0.00054001,1.57126,0.786015,-1.5708,-0.523599,3.85839e-08,-2.0944,1.07794e-07,1.5708,0.785398,-0.000202765,0.000434146,0.000429301,-0.000452569,0.000150711,0.000177067,-0.00072179,0,0,0,0,0,0,0,-0.50597,-10.1892,-0.81384,21.9873,1.32234,1.34695,-0.413626,-0.537774,-1.03087,-0.352864,3.4319,0.610433,-0.320526,-0.432991
2225961,1,-1.57034,-0.522837,0.000336393,-2.09689,-0.000541332,1.57126,0.786012,-1.5708,-0.523599,3.85839e-08,-2.0944,1.07794e-07,1.5708,0.785398,0.000421635,-0.000267381,-0.00034684,0.000255099,-0.000340336,-0.000594032,-0.00143063,0,0,0,0,0,0,0,-0.529774,-10.1654,-0.786069,21.9635,1.33425,1.36618,-0.387991,-0.533971,-1.03227,-0.346971,3.43271,0.610641,-0.320366,-0.433096
2225962,1,-1.57034,-0.522841,0.000338341,-2.09689,-0.00054062,1.57126,0.786015,-1.5708,-0.523599,3.85839e-08,-2.0944,1.07794e-07,1.5708,0.785398,-0.000275722,-0.00138468,0.000430817,0.000726878,1.04686e-05,0.000316055,0.000233042,0,0,0,0,0,0,0,-0.50597,-10.1139,-0.81384,21.9397,1.32784,1.34695,-0.420034,-0.530784,-1.03196,-0.341989,3.43254,0.610796,-0.320289,-0.433139
2225963,1,-1.57034,-0.522839,0.000338341,-2.09689,-0.00054001,1.57126,0.786015,-1.5708,-0.523599,3.85839e-08,-2.0944,1.07794e-07,1.5708,0.785398,-0.000183815,-0.000366308,0.000296534,0.000484585,0.00021043,-2.66553e-05,-8.19977e-05,0,0,0,0,0,0,0,-0.50597,-10.1377,-0.81384,21.9397,1.32234,1.35336,-0.413626,-0.528177,-1.02881,-0.337949,3.43073,0.610893,-0.320351,-0.433099
2225964,1,-1.57034,-0.522838,0.000338341,-2.09689,-0.000541332,1.57126,0.786018,-1.5708,-0.523599,3.85839e-08,-2.0944,1.07794e-07,1.5708,0.785398,-0.000122543,0.000405409,0.000204681,0.000323057,-0.000300523,0.000456948,0.000928679,0,0,0,0,0,0,0,-0.50597,-10.1654,-0.81384,21.9397,1.33425,1.34054,-0.440176,-0.52605,-1.02559,-0.334747,3.42868,0.610961,-0.320444,-0.432976
2225965,1,-1.57033,-0.522838,0.000338341,-2.09689,-0.000541332,1.57126,0.786019,-1.5708,-0.523599,3.85839e-08,-2.0944,1.07794e-07,1.5708,0.785398,0.000475117,0.000270272,0.000141698,0.000215371,-0.000200349,-0.000170086,0.00109384,0,0,0,0,0,0,0,-0.529774,-10.1654,-0.81384,21.9397,1.33425,1.35336,-0.452993,-0.524362,-1.02456,-0.332255,3.42762,0.611027,-0.320474,-0.432796
2225966,1,-1.57033,-0.522843,0.000338341,-2.0969,-0.000541332,1.57126,0.786023,-1.5708,-0.523599,3.85839e-08,-2.0944,1.07794e-07,1.5708,0.785398,0.000966358,-0.00158306,9.83985e-05,-0.00161966,-0.000133566,0.000123968,0.000966584,0,0,0,0,0,0,0,-0.557545,-10.0901,-0.81384,22.0151,1.33425,1.34695,-0.459402,-0.523353,-1.02451,-0.330727,3.42746,0.611088,-0.320413,-0.432603
2225967,1,-1.57033,-0.522839,0.000334722,-2.09689,-0.00054062,1.57126,0.786019,-1.5708,-0.523599,3.85839e-08,-2.0944,1.07794e-07,1.5708,0.785398,0.000644239,5.82531e-05,-0.00113788,0.000683467,0.000148315,-0.000154713,0.000169671,0,0,0,0,0,0,0,-0.557545,-10.1377,-0.762265,21.9397,1.32784,1.35336,-0.446585,-0.52273,-1.02381,-0.329611,3.42757,0.611157,-0.320296,-0.432451
2225968,1,-1.57033,-0.522836,0.000336393,-2.09689,-0.000541332,1.57126,0.786019,-1.5708,-0.523599,3.85839e-08,-2.0944,1.07794e-07,1.5708,0.785398,0.000429493,0.00124526,-0.000199561,0.000455644,-0.000138482,0.000371576,0.000350473,0,0,0,0,0,0,0,-0.557545,-10.1892,-0.786069,21.9397,1.33425,1.34054,-0.452993,-0.521875,-1.02391,-0.327946,3.42783,0.611255,-0.320195,-0.432372
2225969,1,-1.57034,-0.522838,0.000338341,-2.09689,-0.000541332,1.57126,0.78602,-1.5708,-0.523599,3.85839e-08,-2.0944,1.07794e-07,1.5708,0.785398,-0.000920097,0.000273362,0.000518233,-0.000253049,-9.23215e-05,-0.000227001,0.000471008,0,0,0,0,0,0,0,-0.50597,-10.1654,-0.81384,21.9635,1.33425,1.35336,-0.459402,-0.520884,-1.02632,-0.326046,3.42874,0.611384,-0.320091,-0.432369
2225970,1,-1.57034,-0.522841,0.000336393,-2.09689,-0.00054001,1.57126,0.786017,-1.5708,-0.523599,3.85839e-08,-2.0944,1.07794e-07,1.5708,0.785398,-0.000613398,-0.00102418,-0.000302881,-0.000168699,0.000379262,0.000560743,-0.000635431,0,0,0,0,0,0,0,-0.50597,-10.1139,-0.786069,21.9635,1.32234,1.33413,-0.433767,-0.519777,-1.02879,-0.324132,3.42975,0.611542,-0.319985,-0.432445
2225971,1,-1.57033,-0.522836,0.000338341,-2.0969,-0.00054062,1.57126,0.786019,-1.5708,-0.523599,3.85839e-08,-2.0944,1.07794e-07,1.5708,0.785398,0.00014788,0.00108045,0.000448627,-0.00131889,4.93907e-05,-0.000338248,0.000288456,0,0,0,0,0,0,0,-0.529774,-10.1892,-0.81384,22.0151,1.32784,1.35336,-0.452993,-0.518662,-1.03056,-0.322309,3.43083,0.611719,-0.319862,-0.432592
2225972,1,-1.57033,-0.522836,0.000338341,-2.0969,-0.00054062,1.57126,0.786016,-1.5708,-0.523599,3.85839e-08,-2.0944,1.07794e-07,1.5708,0.785398,9.85865e-05,0.000720299,0.000299784,-0.000879261,3.29271e-05,0.000249219,-0.00079104,0,0,0,0,0,0,0,-0.529774,-10.1892,-0.81384,22.0151,1.32784,1.34054,-0.426443,-0.518155,-1.03426,-0.321379,3.43332,0.611894,-0.319625,-0.432781
2225973,1,-1.57034,-0.522836,0.000336393,-2.09689,-0.000541332,1.57126,0.786012,-1.5708,-0.523599,3.85839e-08,-2.0944,1.07794e-07,1.5708,0.785398,-0.000491088,0.000480199,-0.000449233,0.00117706,-0.000215408,-7.12129e-05,-0.00171415,0,0,0,0,0,0,0,-0.50597,-10.1892,-0.786069,21.9397,1.33425,1.34695,-0.394399,-0.517951,-1.03906,-0.320885,3.43622,0.612054,-0.319391,-0.432994
2225974,1,-1.57033,-0.522839,0.000338341,-2.0969,-0.00054062,1.57126,0.786014,-1.5708,-0.523599,3.85839e-08,-2.0944,1.07794e-07,1.5708,0.785398,0.000879034,-0.000886293,0.000350519,-0.000978529,9.37539e-05,-0.000284834,-0.000668052,0,0,0,0,0,0,0,-0.557545,-10.1377,-0.81384,22.0151,1.32784,1.35336,-0.407217,-0.517746,-1.04173,-0.32035,3.43769,0.612177,-0.319314,-0.433194
2225975,1,-1.57033,-0.522834,0.000336393,-2.09689,-0.00054001,1.57126,0.786013,-1.5708,-0.523599,3.85839e-08,-2.0944,1.07794e-07,1.5708,0.785398,0.000586023,0.00117238,-0.000415639,-2.73859e-06,0.000265953,-0.000189889,-0.000682727,0,0,0,0,0,0,0,-0.557545,-10.213,-0.786069,21.9873,1.32234,1.35336,-0.400808,-0.518031,-1.04275,-0.32041,3.43843,0.612257,-0.3193,-0.433325
2225976,1,-1.57034,-0.522839,0.000341682,-2.09689,-0.00054062,1.57126,0.786017,-1.5708,-0.523599,3.85839e-08,-2.0944,1.07794e-07,1.5708,0.785398,0.000390682,-0.000981654,0.00148637,0.0011118,-2.61484e-05,-0.000363952,0.000765552,0,0,0,0,0,0,0,-0.557545,-10.1377,-0.861447,21.9397,1.32784,1.35977,-0.433767,-0.519069,-1.04293,-0.321475,3.43863,0.61228,-0.319339,-0.433355
2225977,1,-1.57034,-0.522839,0.000336393,-2.09689,-0.00054001,1.57126,0.786019,-1.5708,-0.523599,3.85839e-08,-2.0944,1.07794e-07,1.5708,0.785398,-0.000389159,-0.000654436,-0.000772161,-0.000372425,0.000186018,0.000469442,0.000239101,0,0,0,0,0,0,0,-0.529774,-10.1377,-0.786069,21.9873,1.32234,1.34054,-0.426443,-0.520393,-1.04062,-0.322986,3.43732,0.612248,-0.319507,-0.433293
2225978,1,-1.57033,-0.522841,0.000336393,-2.0969,-0.000541332,1.57126,0.786021,-1.5708,-0.523599,3.85839e-08,-2.0944,1.07794e-07,1.5708,0.785398,0.000390174,-0.000993103,-0.000514649,-0.00201152,-0.000316797,0.000312961,0.0013801,0,0,0,0,0,0,0,-0.557545,-10.1139,-0.786069,22.0627,1.33425,1.34054,-0.459402,-0.520956,-1.03682,-0.323367,3.43578,0.612244,-0.319655,-0.433177
2225979,1,-1.57033,-0.522838,0.000338341,-2.0969,-0.00054001,1.57126,0.78602,-1.5708,-0.523599,3.85839e-08,-2.0944,1.07794e-07,1.5708,0.785398,0.000260116,0.000544357,0.000306608,-0.00022739,0.000229611,-2.8718e-05,0.000920069,0,0,0,0,0,0,0,-0.557545,-10.1654,-0.81384,22.0151,1.32234,1.34695,-0.459402,-0.520986,-1.03425,-0.322867,3.43562,0.61229,-0.319657,-0.433043
2225980,1,-1.57033,-0.522836,0.000338341,-2.09689,-0.00054062,1.57126,0.786021,-1.5708,-0.523599,3.85839e-08,-2.0944,1.07794e-07,1.5708,0.785398,-0.000476203,0.000919717,0.000204475,0.00105483,-5.03763e-05,-0.000493863,0.000850738,0,0,0,0,0,0,0,-0.529774,-10.1892,-0.81384,21.9635,1.32784,1.35977,-0.465811,-0.521201,-1.03382,-0.322612,3.43632,0.61233,-0.31963,-0.432936
2225981,1,-1.57033,-0.522839,0.000338341,-2.0969,-0.00054062,1.57126,0.786017,-1.5708,-0.523599,3.85839e-08,-2.0944,1.07794e-07,1.5708,0.785398,0.000332145,-0.000593281,0.000136369,-0.000503204,-3.35842e-05,0.000145476,-0.000619636,0,0,0,0,0,0,0,-0.557545,-10.1377,-0.81384,22.0151,1.32784,1.34695,-0.433767,-0.521518,-1.03426,-0.322531,3.43685,0.612347,-0.319669,-0.432898
2225982,1,-1.57033,-0.522836,0.000338341,-2.09689,-0.00054001,1.57126,0.786021,-1.5708,-0.523599,3.85839e-08,-2.0944,1.07794e-07,1.5708,0.785398,-0.000428184,0.000810905,9.09524e-05,0.000870956,0.000181061,-0.000140375,-0.000175732,0,0,0,0,0,0,0,-0.529774,-10.1892,-0.81384,21.9635,1.32234,1.35336,-0.440176,-0.521864,-1.03436,-0.322499,3.43701,0.612349,-0.31975,-0.432941
2225983,1,-1.57033,-0.522839,0.000340012,-2.09689,-0.00054062,1.57126,0.786018,-1.5708,-0.523599,3.85839e-08,-2.0944,1.07794e-07,1.5708,0.785398,0.000364158,-0.000665823,0.000617476,2.38256e-05,-8.27432e-05,0.000143776,-0.000354513,0,0,0,0,0,0,0,-0.557545,-10.1377,-0.837644,21.9873,1.32784,1.34695,-0.433767,-0.522363,-1.034,-0.322712,3.4368,0.612333,-0.319866,-0.433043
2225984,1,-1.57033,-0.522839,0.000337881,-2.09689,-0.00054062,1.57126,0.786015,-1.5708,-0.523599,3.85839e-08,-2.0944,1.07794e-07,1.5708,0.785398,0.000242772,-0.000443882,0.000411673,0.000572696,-5.51621e-05,-0.000141509,-0.000982327,0,0,0,0,0,0,0,-0.557545,-10.1377,-0.837644,21.9635,1.32784,1.35336,-0.413626,-0.523338,-1.03232,-0.323644,3.43591,0.612277,-0.320028,-0.433175
2225985,1,-1.57034,-0.522838,0.000337631,-2.0969,-0.00054062,1.57126,0.786013,-1.5708,-0.523599,3.85839e-08,-2.0944,1.07794e-07,1.5708,0.785398,-0.00104458,0.000353693,-0.000282347,-0.00138144,-3.67747e-05,0.000380379,-0.0011296,0,0,0,0,0,0,0,-0.50597,-10.1654,-0.81384,22.0389,1.32784,1.34054,-0.400808,-0.524222,-1.03039,-0.3245,3.43521,0.612232,-0.320147,-0.433311
2225986,1,-1.57033,-0.522838,0.000338105,-2.09689,-0.000539399,1.57126,0.786017,-1.5708,-0.523599,3.85839e-08,-2.0944,1.07794e-07,1.5708,0.785398,0.000510041,0.000235795,-0.000188219,0.000285465,0.000382385,1.62269e-05,0.000467635,0,0,0,0,0,0,0,-0.557545,-10.1654,-0.81384,21.9873,1.31685,1.34695,-0.433767,-0.52434,-1.03026,-0.324304,3.43578,0.612251,-0.320142,-0.433411
2225987,1,-1.57033,-0.522838,0.000339933,-2.0969,-0.00054001,1.57126,0.786014,-1.5708,-0.523599,3.85839e-08,-2.0944,1.07794e-07,1.5708,0.785398,-0.000309587,0.000157197,0.000431342,-0.00101612,5.14725e-05,0.000248177,-0.000671588,0,0,0,0,0,0,0,-0.529774,-10.1654,-0.837644,22.0389,1.32234,1.34054,-0.407217,-0.524308,-1.03145,-0.323903,3.43717,0.612284,-0.32007,-0.433447
2225988,1,-1.57033,-0.522838,0.000338315,-2.09689,-0.000541332,1.57126,0.786017,-1.5708,-0.523599,3.85839e-08,-2.0944,1.07794e-07,1.5708,0.785398,0.000443223,0.000104798,-0.000269243,0.00108583,-0.000406494,-7.19077e-05,0.000535619,0,0,0,0,0,0,0,-0.557545,-10.1654,-0.81384,21.9635,1.33425,1.34695,-0.433767,-0.52454,-1.03264,-0.323908,3.43852,0.612287,-0.320024,-0.433421
2225989,1,-1.57033,-0.522836,0.000337873,-2.09689,-0.00054001,1.57126,0.786018,-1.5708,-0.523599,3.85839e-08,-2.0944,1.07794e-07,1.5708,0.785398,-0.000354132,0.000626677,0.000377322,0.0012807,0.000169813,-0.000285297,0.000831797,0,0,0,0,0,0,0,-0.529774,-10.1892,-0.837644,21.9397,1.32234,1.35336,-0.446585,-0.524855,-1.03303,-0.324056,3.4389,0.612248,-0.320105,-0.433342
2225990,1,-1.57034,-0.522838,0.000335679,-2.09689,-0.00054001,1.57126,0.786021,-1.5708,-0.523599,3.85839e-08,-2.0944,1.07794e-07,1.5708,0.785398,-0.0007929,-0.000139027,-0.000954874,-0.000259826,0.000113209,4.71607e-05,0.00150397,0,0,0,0,0,0,0,-0.50597,-10.1654,-0.786069,21.9873,1.32234,1.34695,-0.472219,-0.524724,-1.03284,-0.32362,3.43847,0.612204,-0.320281,-0.433239
2225991,1,-1.57033,-0.522836,0.000339774,-2.09689,-0.00054062,1.57126,0.786022,-1.5708,-0.523599,3.85839e-08,-2.0944,1.07794e-07,1.5708,0.785398,2.82119e-05,0.000464127,0.000569846,0.000383595,-0.000127978,3.14405e-05,0.000290568,0,0,0,0,0,0,0,-0.529774,-10.1892,-0.837644,21.9635,1.32784,1.34695,-0.452993,-0.524041,-1.03278,-0.322482,3.43821,0.612188,-0.320425,-0.433162
2225992,1,-1.57034,-0.522838,0.000338262,-2.09689,-0.000539399,1.57126,0.78602,-1.5708,-0.523599,3.85839e-08,-2.0944,1.07794e-07,1.5708,0.785398,-0.000538004,-0.000247394,-0.000176912,0.00025573,0.000321582,2.09603e-05,0.000193712,0,0,0,0,0,0,0,-0.50597,-10.1654,-0.81384,21.9635,1.31685,1.34695,-0.452993,-0.523514,-1.03271,-0.321681,3.43808,0.612165,-0.320538,-0.433148
2225993,1,-1.57033,-0.522839,0.000336366,-2.09689,-0.000541942,1.57126,0.786018,-1.5708,-0.523599,3.85839e-08,-2.0944,1.07794e-07,1.5708,0.785398,0.000847757,-0.000814543,-0.000767554,0.000727298,-0.000633322,1.39735e-05,-0.000345577,0,0,0,0,0,0,0,-0.557545,-10.1377,-0.786069,21.9397,1.33974,1.34695,-0.440176,-0.5232,-1.03134,-0.321215,3.43729,0.612118,-0.320689,-0.433212
2225994,1,-1.57033,-0.522839,0.000338333,-2.09689,-0.00054062,1.57126,0.786018,-1.5708,-0.523599,3.85839e-08,-2.0944,1.07794e-07,1.5708,0.785398,0.00167879,-0.000543029,0.000137913,-0.000628758,1.85946e-05,-0.000228043,6.97457e-06,0,0,0,0,0,0,0,-0.605152,-10.1377,-0.81384,21.9873,1.32784,1.35336,-0.446585,-0.52345,-1.02835,-0.321383,3.43586,0.612035,-0.320864,-0.433341
2225995,1,-1.57033,-0.522841,0.000338338,-2.0969,-0.000543205,1.57126,0.786021,-1.5708,-0.523599,3.85839e-08,-2.0944,1.07794e-07,1.5708,0.785398,5.57273e-06,-0.000918831,9.19427e-05,-0.0016256,0.000215847,8.53301e-05,-0.000232709,0,0,0,0,0,0,0,-0.557545,-10.1139,-0.81384,22.0389,1.32234,1.34695,-0.440176,-0.524703,-1.02537,-0.322826,3.43512,0.611935,-0.320928,-0.433511
2225996,1,-1.57033,-0.522838,0.00033834,-2.09689,-0.000541685,1.57126,0.786018,-1.5708,-0.523599,3.85839e-08,-2.0944,1.07794e-07,1.5708,0.785398,-0.000645899,0.000593872,6.12958e-05,0.000679506,-5.95526e-05,-0.000180472,-0.000392498,0,0,0,0,0,0,0,-0.529774,-10.1654,-0.81384,21.9635,1.32784,1.35336,-0.433767,-0.526003,-1.02369,-0.32435,3.43551,0.611875,-0.320864,-0.433711
2225997,1,-1.57034,-0.522838,0.000338341,-2.09689,-0.000540365,1.57126,0.786017,-1.5708,-0.523599,3.85839e-08,-2.0944,1.07794e-07,1.5708,0.785398,-0.000987411,0.000395915,4.08644e-05,0.000453004,0.000163749,-0.000120315,-0.00148237,0,0,0,0,0,0,0,-0.50597,-10.1654,-0.81384,21.9635,1.32234,1.35336,-0.400808,-0.526475,-1.02357,-0.32481,3.4362,0.611866,-0.320803,-0.433926
2225998,1,-1.57034,-0.522839,0.000336392,-2.0969,-0.000540738,1.57126,0.786015,-1.5708,-0.523599,3.85839e-08,-2.0944,1.07794e-07,1.5708,0.785398,-0.000658274,-0.000385671,-0.000622371,-0.000904423,-9.42846e-05,0.000394508,-0.000750887,0,0,0,0,0,0,0,-0.50597,-10.1377,-0.786069,22.0151,1.32784,1.34054,-0.407217,-0.526028,-1.02442,-0.324058,3.43696,0.611901,-0.320756,-0.434124
2225999,1,-1.57033,-0.522838,0.000338341,-2.09689,-0.000540659,1.57126,0.786017,-1.5708,-0.523599,3.85839e-08,-2.0944,1.07794e-07,1.5708,0.785398,0.000117963,0.0003925,0.000234701,0.000603477,-6.28564e-05,2.56464e-05,-0.000500591,0,0,0,0,0,0,0,-0.529774,-10.1654,-0.81384,21.9635,1.32784,1.34695,-0.407217,-0.525205,-1.02545,-0.322799,3.43784,0.611956,-0.320696,-0.43426
2226000,1,-1.57034,-0.522836,0.000338341,-2.0969,-0.000541345,1.57126,0.786017,-1.5708,-0.523599,3.85839e-08,-2.0944,1.07794e-07,1.5708,0.785398,-0.00047817,0.000818479,0.000156467,-0.000804108,-0.000279263,1.70976e-05,0.00014099,0,0,0,0,0,0,0,-0.50597,-10.1892,-0.81384,22.0151,1.33425,1.34695,-0.420034,-0.524766,-1.02728,-0.322125,3.43907,0.611994,-0.32062,-0.434299
2226001,1,-1.57034,-0.522839,0.000338341,-2.09689,-0.000539404,1.57126,0.786017,-1.5708,-0.523599,3.85839e-08,-2.0944,1.07794e-07,1.5708,0.785398,-0.00031878,-0.000660773,0.000104312,0.000670354,0.000458084,-0.000225961,0.00060262,0,0,0,0,0,0,0,-0.50597,-10.1377,-0.81384,21.9635,1.31685,1.35336,-0.433767,-0.524679,-1.02951,-0.322051,3.44044,0.612015,-0.320545,-0.434242
2226002,1,-1.57034,-0.522839,0.000336393,-2.09689,-0.000541334,1.57126,0.786019,-1.5708,-0.523599,3.85839e-08,-2.0944,1.07794e-07,1.5708,0.785398,-0.00021252,-0.000440516,-0.000580073,0.000446903,-0.00033887,0.000324078,0.00111382,0,0,0,0,0,0,0,-0.50597,-10.1377,-0.786069,21.9635,1.33425,1.34054,-0.452993,-0.524503,-1.02964,-0.321918,3.44061,0.612014,-0.320574,-0.434119
2226003,1,-1.57034,-0.522839,0.000334722,-2.09689,-0.0005394,1.57126,0.78602,-1.5708,-0.523599,3.85839e-08,-2.0944,1.07794e-07,1.5708,0.785398,0.000415132,-0.000293677,-0.000943527,0.000297935,0.000418346,0.000216052,0.00121727,0,0,0,0,0,0,0,-0.529774,-10.1377,-0.762265,21.9635,1.31685,1.34054,-0.465811,-0.523997,-1.02762,-0.321251,3.4395,0.611997,-0.320719,-0.433975
2226004,1,-1.57034,-0.522841,0.000334262,-2.09689,-0.000541943,1.57126,0.786019,-1.5708,-0.523599,3.85839e-08,-2.0944,1.07794e-07,1.5708,0.785398,-0.000280057,-0.000752597,-7.2206e-05,-0.0010078,-0.000568813,-9.33245e-05,0.000336793,0,0,0,0,0,0,0,-0.50597,-10.1139,-0.786069,22.0151,1.33974,1.34695,-0.452993,-0.523328,-1.02517,-0.320266,3.43837,0.611985,-0.320858,-0.433859
2226005,1,-1.57034,-0.522836,0.000335682,-2.09689,-0.000539399,1.57126,0.786021,-1.5708,-0.523599,3.85839e-08,-2.0944,1.07794e-07,1.5708,0.785398,0.000370107,0.00126151,-4.81373e-05,0.000534558,0.000468502,-6.22163e-05,-1.28301e-05,0,0,0,0,0,0,0,-0.529774,-10.1892,-0.786069,21.9635,1.31685,1.34695,-0.446585,-0.522967,-1.02394,-0.31973,3.43815,0.611978,-0.320916,-0.433805
2226006,1,-1.57033,-0.522839,0.000338105,-2.09689,-0.000539399,1.57126,0.786014,-1.5708,-0.523599,3.85839e-08,-2.0944,1.07794e-07,1.5708,0.785398,0.000246738,-0.000365421,0.000617522,0.000356372,0.000312335,0.00043324,-0.00194133,0,0,0,0,0,0,0,-0.529774,-10.1377,-0.81384,21.9635,1.31685,1.33413,-0.394399,-0.523346,-1.02435,-0.320289,3.43855,0.611946,-0.32095,-0.433817
2226007,1,-1.57034,-0.522839,0.000338263,-2.09689,-0.00054001,1.57126,0.786016,-1.5708,-0.523599,3.85839e-08,-2.0944,1.07794e-07,1.5708,0.785398,0.000164492,-0.000243614,0.000411682,0.000794393,4.77255e-06,0.000288827,-0.000344786,0,0,0,0,0,0,0,-0.529774,-10.1377,-0.81384,21.9397,1.32234,1.33413,-0.420034,-0.524513,-1.02424,-0.322022,3.43834,0.611859,-0.321069,-0.433867
2226008,1,-1.57034,-0.522836,0.000338315,-2.0969,-0.000541942,1.57126,0.786014,-1.5708,-0.523599,3.85839e-08,-2.0944,1.07794e-07,1.5708,0.785398,0.000109661,0.00104402,0.000274454,-0.00123364,-0.000641078,-0.000282167,-0.000704576,0,0,0,0,0,0,0,-0.529774,-10.1892,-0.81384,22.0151,1.33974,1.34695,-0.407217,-0.525974,-1.02421,-0.32423,3.43822,0.611751,-0.321196,-0.433899
2226009,1,-1.57034,-0.522841,0.000338333,-2.0969,-0.00054062,1.57126,0.786017,-1.5708,-0.523599,3.85839e-08,-2.0944,1.07794e-07,1.5708,0.785398,-0.00113332,-0.00106723,0.00018297,-0.000822428,1.34239e-05,-0.00042547,0.000513627,0,0,0,0,0,0,0,-0.478199,-10.1139,-0.81384,22.0151,1.32784,1.35336,-0.433767,-0.526993,-1.02573,-0.325896,3.43944,0.611689,-0.321191,-0.433879
2226010,1,-1.57034,-0.522838,0.000338339,-2.09689,-0.00054062,1.57126,0.786018,-1.5708,-0.523599,3.85839e-08,-2.0944,1.07794e-07,1.5708,0.785398,0.00045088,0.000494941,0.00012198,0.00065814,8.94929e-06,-4.62877e-05,0.000817136,0,0,0,0,0,0,0,-0.529774,-10.1654,-0.81384,21.9635,1.32784,1.34695,-0.446585,-0.527364,-1.02688,-0.326741,3.44083,0.61167,-0.321155,-0.43381
2226011,1,-1.57034,-0.522836,0.00033834,-2.0969,-0.00054001,1.57126,0.786016,-1.5708,-0.523599,3.85839e-08,-2.0944,1.07794e-07,1.5708,0.785398,-0.000256225,0.000886773,8.13199e-05,-0.000767666,0.000209417,0.0002065,-0.000201228,0,0,0,0,0,0,0,-0.50597,-10.1892,-0.81384,22.0151,1.32234,1.34054,-0.426443,-0.527522,-1.02812,-0.327301,3.44202,0.611659,-0.321152,-0.433712
2226012,1,-1.57034,-0.522839,0.000338341,-2.09689,-0.00054001,1.57126,0.786019,-1.5708,-0.523599,3.85839e-08,-2.0944,1.07794e-07,1.5708,0.785398,-0.000170817,-0.000615244,5.42133e-05,0.000694649,0.000139611,-9.9692e-05,0.000849192,0,0,0,0,0,0,0,-0.50597,-10.1377,-0.81384,21.9635,1.32234,1.34695,-0.452993,-0.527535,-1.0299,-0.327671,3.44323,0.611655,-0.321161,-0.433613
2226013,1,-1.57034,-0.522836,0.000336392,-2.09689,-0.00054062,1.57126,0.786018,-1.5708,-0.523599,3.85839e-08,-2.0944,1.07794e-07,1.5708,0.785398,0.000442934,0.000796263,-0.000613472,-9.37128e-05,-0.000110376,-0.00030382,9.14103e-05,0,0,0,0,0,0,0,-0.529774,-10.1892,-0.786069,21.9873,1.32784,1.35336,-0.440176,-0.527251,-1.03076,-0.327608,3.4438,0.611647,-0.32123,-0.433532
2226014,1,-1.57034,-0.522838,0.000338341,-2.09689,-0.00054001,1.57126,0.786018,-1.5708,-0.523599,3.85839e-08,-2.0944,1.07794e-07,1.5708,0.785398,-0.000911136,-2.59698e-05,0.000240633,0.000494337,0.000129866,3.48121e-05,6.09402e-05,0,0,0,0,0,0,0,-0.478199,-10.1654,-0.81384,21.9635,1.32234,1.34695,-0.440176,-0.526641,-1.03128,-0.327064,3.44398,0.611639,-0.321331,-0.433482
2226015,1,-1.57033,-0.522836,0.000336393,-2.09689,-0.000541942,1.57126,0.78602,-1.5708,-0.523599,3.85839e-08,-2.0944,1.07794e-07,1.5708,0.785398,0.00124862,0.000539499,-0.000489192,-0.000876868,-0.000557682,2.32081e-05,0.000752704,0,0,0,0,0,0,0,-0.557545,-10.1892,-0.786069,22.0151,1.33974,1.34695,-0.459402,-0.525964,-1.03215,-0.32644,3.44435,0.611636,-0.321402,-0.433469
2226016,1,-1.57034,-0.522838,0.000334722,-2.09689,-0.000541332,1.57126,0.786017,-1.5708,-0.523599,3.85839e-08,-2.0944,1.07794e-07,1.5708,0.785398,-0.000374016,-0.000197146,-0.00088294,0.000621847,-0.000168338,-0.000221887,-0.000447633,0,0,0,0,0,0,0,-0.50597,-10.1654,-0.762265,21.9635,1.33425,1.35336,-0.433767,-0.525302,-1.03305,-0.325732,3.44489,0.611642,-0.321437,-0.433496
2226017,1,-1.57033,-0.522839,0.000338341,-2.09689,-0.00054062,1.57126,0.786019,-1.5708,-0.523599,3.85839e-08,-2.0944,1.07794e-07,1.5708,0.785398,0.000957082,-0.000781045,0.000617799,-0.000142247,0.000125134,-0.000147925,0.000413655,0,0,0,0,0,0,0,-0.557545,-10.1377,-0.81384,21.9873,1.32784,1.35336,-0.452993,-0.52476,-1.03253,-0.32508,3.44473,0.611645,-0.321507,-0.433571
2226018,1,-1.57033,-0.522834,0.000340012,-2.09689,-0.000541942,1.57126,0.786013,-1.5708,-0.523599,3.85839e-08,-2.0944,1.07794e-07,1.5708,0.785398,-1.15592e-05,0.00124254,0.000968678,-9.48314e-05,-0.000357387,-0.000335975,-0.00165701,0,0,0,0,0,0,0,-0.529774,-10.213,-0.837644,21.9873,1.33974,1.35977,-0.400808,-0.525181,-1.03132,-0.325829,3.44426,0.611619,-0.32158,-0.433679
2226019,1,-1.57034,-0.522836,0.000336393,-2.09689,-0.00054001,1.57126,0.786017,-1.5708,-0.523599,3.85839e-08,-2.0944,1.07794e-07,1.5708,0.785398,-0.000564518,0.000271549,-0.00056064,0.000493591,0.000406002,0.000488093,0.00011603,0,0,0,0,0,0,0,-0.50597,-10.1892,-0.786069,21.9635,1.32234,1.34054,-0.433767,-0.526029,-1.03171,-0.327257,3.44447,0.61161,-0.321587,-0.433797
2226020,1,-1.57034,-0.522834,0.000338341,-2.0969,-0.000543205,1.57126,0.786013,-1.5708,-0.523599,3.85839e-08,-2.0944,1.07794e-07,1.5708,0.785398,-0.000376345,0.000737845,0.000275854,-0.00143418,0.000270668,8.80366e-05,-0.00114335,0,0,0,0,0,0,0,-0.50597,-10.213,-0.81384,22.0389,1.32234,1.34695,-0.400808,-0.526108,-1.03363,-0.327619,3.44538,0.611669,-0.321521,-0.433899
2226021,1,-1.57034,-0.522838,0.000336393,-2.0969,-0.000542397,1.57126,0.786014,-1.5708,-0.523599,3.85839e-08,-2.0944,1.07794e-07,1.5708,0.785398,-0.00090051,-0.000621728,-0.000465712,-0.000399306,-0.000260364,-0.000178668,-0.000524874,0,0,0,0,0,0,0,-0.478199,-10.1654,-0.786069,22.0151,1.33425,1.35336,-0.407217,-0.525418,-1.03599,-0.326932,3.44693,0.611789,-0.321368,-0.43396
2226022,1,-1.57033,-0.522839,0.000336393,-2.09689,-0.000540365,1.57126,0.786015,-1.5708,-0.523599,3.85839e-08,-2.0944,1.07794e-07,1.5708,0.785398,0.00181251,-0.0010641,-0.000310474,0.000940222,0.000267233,0.000118247,0.000124802,0,0,0,0,0,0,0,-0.581349,-10.1377,-0.786069,21.9635,1.32234,1.34695,-0.420034,-0.524609,-1.03596,-0.326018,3.44743,0.611891,-0.321285,-0.433955
2226023,1,-1.57033,-0.522838,0.000340012,-2.09689,-0.00054145,1.57126,0.786018,-1.57079,-0.523597,2.53858e-06,-2.0944,1.697e-06,1.5708,0.785403,0.000651529,-5.97854e-05,0.000999443,0.00174044,-0.000262654,-0.000158528,-0.000154158,0.00179098,0.001875,0.0025,-0.003125,0.0015892,0.005,0.00439407,-0.557545,-10.1654,-0.837644,21.9159,1.33425,1.35336,-0.413626,-0.524881,-1.03222,-0.326452,3.44547,0.611879,-0.321436,-0.43387
2226024,1,-1.57033,-0.522836,0.000336211,-2.09689,-0.000540049,1.57126,0.786019,-1.57079,-0.523593,7.53858e-06,-2.0944,4.8754e-06,1.57081,0.785411,0.000434352,0.000516955,0.000109483,-0.000510144,0.000265707,0.000131674,0.000880572,0.00358196,0.00375,0.005,-0.00625,0.00317841,0.01,0.00878814,-0.557545,-10.1892,-0.81384,21.9873,1.32234,1.34695,-0.440176,-0.526317,-1.02804,-0.328456,3.44273,0.611786,-0.321682,-0.43371
2226025,1,-1.57034,-0.522836,0.000340972,-2.09689,-0.000540633,1.57126,0.78602,-1.57079,-0.523587,1.50386e-05,-2.09441,9.64301e-06,1.57083,0.785425,-0.000360046,0.000344637,0.00118661,0.000216716,-2.63126e-05,0.000325142,0.00129913,0.00537294,0.005625,0.0075,-0.009375,0.00476761,0.015,0.0131822,-0.529774,-10.1892,-0.861447,21.9635,1.32784,1.34054,-0.459402,-0.527959,-1.02638,-0.330797,3.44131,0.611711,-0.321815,-0.433502
2226026,1,-1.57033,-0.522839,0.0003379,-2.09689,-0.000537429,1.57126,0.78602,-1.57078,-0.52358,2.50386e-05,-2.09443,1.59998e-05,1.57085,0.785442,0.00181317,0.0011634,-0.000785193,-0.00384408,0.00922242,-0.000257957,-8.33524e-05,0.00716393,0.0075,0.01,-0.0125,0.00635681,0.02,0.0175763,-0.478199,-9.9631,-0.659116,21.8644,1.32784,1.35336,-0.433767,-0.529625,-1.02855,-0.333105,3.44257,0.611663,-0.321673,-0.433294
2226027,1,-1.57034,-0.522841,0.000339806,-2.09689,-0.000540836,1.57126,0.786019,-1.57077,-0.523571,3.75386e-05,-2.09444,2.39458e-05,1.57087,0.785464,-0.00234743,0.00291516,0.00160527,-0.0026306,0.00542631,-0.000884048,-0.00175099,0.00895491,0.009375,0.0125,-0.015625,0.00794601,0.025,0.0219704,-0.176685,-9.50687,-0.329831,21.4438,1.36812,1.37258,-0.387991,-0.531059,-1.03701,-0.335009,3.44819,0.611656,-0.321073,-0.43313
2226028,1,-1.57035,-0.522844,0.000354864,-2.09689,-0.00054048,1.57126,0.786017,-1.57076,-0.523559,5.25386e-05,-2.09446,3.34811e-05,1.5709,0.78549,-0.00491358,0.00172254,0.00383222,-0.000771449,0.00419503,-0.00177616,-0.00333747,0.0107459,0.01125,0.015,-0.01875,0.00953522,0.03,0.0263644,0.251781,-8.89987,-0.000546589,20.9439,1.36812,1.40463,-0.329397,-0.531444,-1.05018,-0.336064,3.4565,0.611744,-0.320166,-0.432989
2226029,1,-1.57035,-0.522829,0.000365856,-2.09689,-0.000536454,1.57126,0.786009,-1.57075,-0.523546,7.00386e-05,-2.09448,4.46055e-05,1.57094,0.785521,-0.00306217,0.00511744,0.00231963,-0.000571009,0.00346717,-0.00118411,-0.00558191,0.0125369,0.013125,0.0175,-0.021875,0.0111244,0.035,0.0307585,0.553295,-8.44363,0.479495,20.4718,1.36171,1.40463,-0.23876,-0.530236,-1.06429,-0.335957,3.46403,0.611953,-0.319221,-0.432779
2226030,1,-1.57035,-0.522813,0.00038431,-2.0969,-0.000534128,1.57126,0.786012,-1.57073,-0.523531,9.00386e-05,-2.09451,5.73191e-05,1.57098,0.785556,-0.0023391,0.00548516,0.00652819,-0.00132697,0.00304319,-0.00173884,-0.00273793,0.0143279,0.015,0.02,-0.025,0.0127136,0.04,0.0351526,0.88258,-8.01517,0.884158,20.0235,1.35072,1.43026,-0.26531,-0.528274,-1.07973,-0.335721,3.47027,0.612251,-0.318172,-0.432339
2226031,1,-1.57035,-0.522789,0.000410266,-2.0969,-0.000531217,1.57126,0.786009,-1.57072,-0.523514,0.000112539,-2.09454,7.16219e-05,1.57102,0.785596,-0.0034279,0.00746852,0.00959297,0.00239247,0.00312014,-0.00163394,-0.00280863,0.0161188,0.016875,0.0225,-0.028125,0.0143028,0.045,0.0395466,1.28724,-7.66208,1.16187,19.5038,1.32784,1.44308,-0.23876,-0.52741,-1.09551,-0.338263,3.47399,0.612495,-0.317,-0.431498
2226032,1,-1.57035,-0.522769,0.000437884,-2.09691,-0.000534858,1.57127,0.786017,-1.5707,-0.523496,0.000137539,-2.09457,8.75139e-05,1.57107,0.78564,-0.00464958,0.0114889,0.0151189,0.00224625,0.0010082,0.00451493,-0.000414358,0.0179098,0.01875,0.025,-0.03125,0.015892,0.05,0.0439407,1.58876,-7.28122,1.43958,19.1071,1.36171,1.41745,-0.278127,-0.528481,-1.11051,-0.34555,3.47302,0.612557,-0.315851,-0.430165
2226033,1,-1.57035,-0.522747,0.000471345,-2.09693,-0.000540514,1.57128,0.786025,-1.57068,-0.523473,0.000167539,-2.0946,0.000106061,1.57113,0.785691,-0.00104102,0.015829,0.0209633,-0.00478168,-0.00108969,0.00387257,0.000910556,0.0206058,0.0223096,0.03,-0.0373101,0.0185466,0.0599933,0.051022,1.84266,-6.9559,1.64191,18.881,1.41298,1.40463,-0.310171,-0.532898,-1.13113,-0.36032,3.47086,0.612415,-0.314369,-0.428307
2226034,1,-1.57035,-0.522732,0.000500911,-2.09694,-0.000543611,1.57129,0.78603,-1.57065,-0.523447,0.000202539,-2.09465,0.000127262,1.5712,0.785749,-0.000573932,0.0139051,0.0213733,-0.00624814,0.0019922,0.00216056,0.000844396,0.0233017,0.0258692,0.035,-0.0433701,0.0212012,0.0699866,0.0581032,2.04103,-6.55124,1.87201,18.635,1.46974,1.42385,-0.31658,-0.541547,-1.16115,-0.383924,3.47202,0.612135,-0.31194,-0.425979
2226035,1,-1.57034,-0.522715,0.000537068,-2.09696,-0.000545695,1.57129,0.786039,-1.57063,-0.523418,0.000242539,-2.0947,0.000151118,1.57128,0.785814,0.00399466,0.0136922,0.0273418,-0.00814171,0.000747241,0.00393796,-0.000386505,0.0259977,0.0294288,0.04,-0.0494302,0.0238558,0.0799799,0.0651845,2.19575,-6.19418,1.99897,18.4327,1.49812,1.48794,-0.290945,-0.553528,-1.1923,-0.414709,3.47375,0.611765,-0.30861,-0.423311
2226036,1,-1.57033,-0.522699,0.000565661,-2.09697,-0.000549102,1.5713,0.786048,-1.5706,-0.523385,0.000287539,-2.09475,0.000177628,1.57137,0.785886,0.00876442,0.0175749,0.0292516,-0.0127818,-0.000403748,0.00438923,0.00312644,0.0286936,0.0329884,0.045,-0.0554903,0.0265104,0.0899732,0.0722657,2.27113,-5.74191,2.35205,18.1113,1.532,1.58499,-0.258901,-0.569364,-1.21947,-0.452991,3.47375,0.611349,-0.304536,-0.420402
2226037,1,-1.57032,-0.522677,0.000605545,-2.097,-0.000546398,1.57131,0.786058,-1.57057,-0.523348,0.000337539,-2.09481,0.000206793,1.57147,0.785966,0.00933684,0.0202495,0.0343121,-0.0186325,0.00451197,0.00457434,0.00450625,0.0313896,0.036548,0.05,-0.0615504,0.029165,0.0999665,0.079347,2.59645,-5.13492,2.70514,17.7622,1.53749,1.68844,-0.18749,-0.588993,-1.2482,-0.498285,3.47557,0.611056,-0.299322,-0.417287
2226038,1,-1.57032,-0.522659,0.000652147,-2.09702,-0.000541487,1.57132,0.786067,-1.57053,-0.523308,0.000392539,-2.09488,0.000238612,1.57158,0.786052,0.00713085,0.0184283,0.0392775,-0.0203424,0.00845904,0.0097551,0.00430461,0.0340855,0.0401076,0.055,-0.0676104,0.0318195,0.10996,0.0864282,3.05268,-4.3494,3.13758,17.1433,1.532,1.79098,-0.077627,-0.610013,-1.27871,-0.547332,3.47978,0.611065,-0.292738,-0.413958
2226039,1,-1.57031,-0.522625,0.000696525,-2.09705,-0.000532381,1.57134,0.786089,-1.5705,-0.523265,0.000452539,-2.09496,0.000273087,1.5717,0.786146,0.00719928,0.0230483,0.0399247,-0.0201849,0.0126647,0.0142972,0.0117738,0.0367815,0.0436672,0.06,-0.0736705,0.0344741,0.119953,0.0935094,3.45338,-3.66702,3.72077,16.445,1.49172,1.87521,-0.0382593,-0.628419,-1.30405,-0.594721,3.48122,0.611465,-0.285103,-0.410339
2226040,1,-1.5703,-0.522587,0.000749899,-2.09709,-0.000517631,1.57137,0.786107,-1.57046,-0.523217,0.000517539,-2.09504,0.000310215,1.57183,0.786246,0.00927461,0.0280612,0.0414677,-0.0256779,0.016434,0.0183684,0.0141982,0.0394774,0.0472268,0.065,-0.0797306,0.0371287,0.129946,0.100591,3.78267,-3.03622,4.27619,15.8261,1.43038,1.9393,0.0844213,-0.640091,-1.32538,-0.634142,3.47823,0.61234,-0.276443,-0.406282
2226041,1,-1.57028,-0.522537,0.00081361,-2.09714,-0.000504729,1.57141,0.786131,-1.57042,-0.523167,0.000587539,-2.09512,0.000349999,1.57197,0.786354,0.00946392,0.0355165,0.0469639,-0.0327187,0.0133982,0.0230145,0.0158802,0.0421734,0.0507864,0.07,-0.0857906,0.0397833,0.13994,0.107672,4.15956,-2.55618,4.65705,15.3263,1.39559,1.96493,0.213511,-0.643842,-1.35323,-0.663447,3.47597,0.613744,-0.266107,-0.40158
2226042,1,-1.57027,-0.522495,0.000873525,-2.09719,-0.000498436,1.57147,0.786167,-1.57037,-0.523112,0.000662539,-2.09521,0.000392436,1.57212,0.786469,0.00962667,0.0389849,0.0491155,-0.0399137,0.00769508,0.0379196,0.0186272,0.0448693,0.054346,0.075,-0.0918507,0.0424379,0.149933,0.114753,4.54042,-2.00076,5.11328,14.9057,1.45235,1.92648,0.297739,-0.639894,-1.39547,-0.683034,3.47934,0.615688,-0.253549,-0.395973
2226043,1,-1.57024,-0.522455,0.000939045,-2.09725,-0.000490914,1.57155,0.786201,-1.57032,-0.523053,0.000744651,-2.09531,0.000438404,1.57228,0.786592,0.0143848,0.0389518,0.0529907,-0.0439857,0.00729409,0.0510712,0.0246167,0.0476383,0.0589445,0.0821121,-0.0998628,0.0459676,0.162682,0.123654,4.74275,-1.46915,5.46637,14.5804,1.53749,1.82943,0.414011,-0.628611,-1.44682,-0.693319,3.48576,0.618061,-0.239077,-0.389209
2226044,1,-1.57022,-0.522413,0.00101627,-2.09731,-0.000488178,1.57163,0.786249,-1.57027,-0.52299,0.000833875,-2.09542,0.000487901,1.57246,0.786725,0.0172859,0.0393261,0.060089,-0.0515412,0.00156775,0.0642966,0.0314005,0.0504072,0.0635429,0.0892241,-0.107875,0.0494973,0.175431,0.132555,4.94508,-0.965302,5.6449,14.3344,1.6501,1.76535,0.472605,-0.612872,-1.49366,-0.698133,3.48836,0.620622,-0.223484,-0.381073
2226045,1,-1.57019,-0.522372,0.00108803,-2.09738,-0.000477941,1.57172,0.786312,-1.57022,-0.522922,0.000930211,-2.09554,0.000540928,1.57265,0.786866,0.0197944,0.0398207,0.0633415,-0.0592508,0.00385674,0.0754596,0.0396786,0.0531762,0.0681414,0.0963362,-0.115887,0.053027,0.18818,0.141457,4.99269,-0.48526,5.89881,14.1837,1.71877,1.77816,0.440561,-0.595543,-1.52723,-0.701544,3.48372,0.623304,-0.207309,-0.371396
2226046,1,-1.57015,-0.522331,0.00116082,-2.09746,-0.000464798,1.57182,0.786374,-1.57016,-0.522849,0.00103366,-2.09566,0.000597485,1.57285,0.787017,0.0259309,0.0429856,0.0667685,-0.0687235,0.010953,0.0872607,0.0475686,0.0559452,0.0727399,0.103448,-0.123899,0.0565566,0.200929,0.150358,4.96888,0.0225525,6.22809,14.0845,1.76912,1.81661,0.459788,-0.577253,-1.54705,-0.703986,3.47297,0.62626,-0.190685,-0.36014
2226047,1,-1.5701,-0.522284,0.0012424,-2.09754,-0.000446989,1.57193,0.786461,-1.5701,-0.522772,0.00114422,-2.09579,0.000657571,1.57306,0.787176,0.0313477,0.0447712,0.0727079,-0.0717581,0.013051,0.0941005,0.057261,0.0587141,0.0773383,0.11056,-0.131911,0.0600863,0.213678,0.159259,5.02046,0.554169,6.55341,13.8108,1.78011,1.93289,0.394785,-0.559594,-1.55519,-0.706695,3.45741,0.629562,-0.173691,-0.347409
2226048,1,-1.57007,-0.522235,0.00133821,-2.09763,-0.000420293,1.57206,0.786548,-1.57004,-0.52269,0.00126189,-2.09593,0.000721187,1.57329,0.787344,0.031456,0.0457666,0.0786193,-0.0749861,0.0209747,0.107215,0.0712301,0.0614831,0.0819368,0.117672,-0.139923,0.063616,0.226427,0.16816,5.2704,1.10959,6.80731,13.4378,1.74074,1.96493,0.394785,-0.544113,-1.54857,-0.711214,3.43407,0.633163,-0.156726,-0.333419
2226049,1,-1.57002,-0.52217,0.00142568,-2.09773,-0.000390524,1.57221,0.78665,-1.56998,-0.522603,0.00138668,-2.09608,0.000788333,1.57353,0.787521,0.039113,0.0498501,0.08059,-0.0843952,0.0216225,0.119487,0.0824841,0.0642521,0.0865353,0.124785,-0.147935,0.0671457,0.239176,0.177061,5.32197,1.51425,7.31513,13.0887,1.71236,1.9393,0.36915,-0.530079,-1.52571,-0.71598,3.4013,0.637089,-0.139976,-0.318461
2226050,1,-1.56997,-0.522108,0.0015263,-2.09784,-0.000352364,1.57238,0.786767,-1.56991,-0.522512,0.00151857,-2.09624,0.000859008,1.57378,0.787707,0.0408359,0.0536327,0.0865319,-0.0923152,0.0279147,0.134029,0.0943853,0.067021,0.0911337,0.131897,-0.155948,0.0706754,0.251925,0.185962,5.5243,2.0181,7.77137,12.7674,1.6501,1.88162,0.330698,-0.516495,-1.49338,-0.718794,3.36344,0.641424,-0.123055,-0.302823
2226051,1,-1.56992,-0.522042,0.00163373,-2.09796,-0.000307635,1.57257,0.786887,-1.56984,-0.522416,0.00165758,-2.0964,0.000933214,1.57404,0.787902,0.0403829,0.0576012,0.0921914,-0.0986462,0.0376192,0.155026,0.102287,0.06979,0.0957322,0.139009,-0.16396,0.0742051,0.264674,0.194863,5.69886,2.47433,8.17603,12.4698,1.57137,1.81021,0.362742,-0.502175,-1.45752,-0.717803,3.32369,0.646141,-0.105815,-0.286779
2226052,1,-1.56986,-0.521973,0.00174585,-2.09809,-0.00026749,1.57277,0.787023,-1.56977,-0.522316,0.0018037,-2.09657,0.00101095,1.57432,0.788106,0.043219,0.0577973,0.0978887,-0.110188,0.0417683,0.170327,0.113983,0.0725589,0.100331,0.146121,-0.171972,0.0777348,0.277423,0.203764,5.84962,2.9028,8.52912,12.3191,1.57686,1.73971,0.375559,-0.485721,-1.41805,-0.711227,3.28205,0.651096,-0.0884769,-0.270578
2226053,1,-1.56981,-0.52191,0.00186165,-2.09822,-0.000220641,1.57299,0.78717,-1.56969,-0.522211,0.00195821,-2.09675,0.00109278,1.57461,0.788319,0.0469254,0.0600195,0.100108,-0.118894,0.0388045,0.186231,0.126537,0.0752136,0.105393,0.154504,-0.181091,0.0818289,0.291633,0.213609,5.95277,3.38284,8.8346,12.1961,1.62264,1.66189,0.414011,-0.466311,-1.37255,-0.697509,3.23883,0.65615,-0.0711689,-0.254374
2226054,1,-1.56975,-0.521834,0.00198527,-2.09837,-0.000171796,1.57323,0.787326,-1.56962,-0.5221,0.00212109,-2.09694,0.0011787,1.57492,0.788543,0.0530695,0.0621258,0.106457,-0.125179,0.0409356,0.20089,0.132321,0.0778682,0.110456,0.162887,-0.190211,0.085923,0.305842,0.223453,6.02815,3.71213,9.06073,12.0969,1.68398,1.64907,0.504648,-0.444278,-1.31881,-0.676353,3.1935,0.661189,-0.0541549,-0.23822
2226055,1,-1.56968,-0.52176,0.00210723,-2.09852,-0.00012181,1.57347,0.787495,-1.56954,-0.521985,0.00229236,-2.09714,0.00126872,1.57524,0.788776,0.0581889,0.0653444,0.115002,-0.13295,0.0427043,0.213651,0.140925,0.0805229,0.115518,0.17127,-0.199331,0.0900171,0.320051,0.233297,6.07972,4.09299,9.29084,11.9699,1.74623,1.72048,0.601694,-0.422907,-1.25572,-0.652109,3.1448,0.666027,-0.0378091,-0.22207
2226056,1,-1.56961,-0.521687,0.00223541,-2.09867,-6.2577e-05,1.57373,0.787676,-1.56945,-0.521864,0.00247202,-2.09735,0.00136283,1.57557,0.789019,0.0626118,0.0677301,0.120114,-0.141843,0.0495092,0.226282,0.156191,0.0831775,0.120581,0.179653,-0.20845,0.0941111,0.334261,0.243141,6.00434,4.46988,9.51697,11.847,1.78652,1.84225,0.653879,-0.4053,-1.18428,-0.62931,3.09328,0.670581,-0.0221813,-0.205786
2226057,1,-1.56954,-0.521608,0.00236787,-2.09884,9.58953e-07,1.574,0.787874,-1.56937,-0.521738,0.00266005,-2.09757,0.00146103,1.57592,0.789272,0.0641903,0.072309,0.126625,-0.15051,0.0555463,0.242006,0.167032,0.0858322,0.125643,0.188036,-0.21757,0.0982052,0.34847,0.252986,6.07972,4.85074,9.77088,11.6724,1.80849,1.93289,0.706064,-0.39082,-1.10749,-0.607138,3.04089,0.67501,-0.00701132,-0.189211
2226058,1,-1.56947,-0.521521,0.00251288,-2.09902,7.40841e-05,1.57429,0.788083,-1.56928,-0.521608,0.00285647,-2.0978,0.00156333,1.57628,0.789535,0.0664775,0.0759593,0.132135,-0.160598,0.0608002,0.254861,0.178018,0.0884868,0.130706,0.196419,-0.22669,0.102299,0.362679,0.26283,6.23048,5.20383,9.99701,11.5256,1.80849,1.98416,0.69874,-0.37717,-1.02944,-0.582436,2.99,0.679582,0.00812426,-0.172206
2226059,1,-1.56939,-0.521426,0.00265224,-2.0992,0.000151423,1.5746,0.788298,-1.56919,-0.521472,0.00306128,-2.09803,0.00166973,1.57666,0.789808,0.0688374,0.0828927,0.13328,-0.167298,0.069893,0.273723,0.188212,0.0911415,0.135768,0.204803,-0.235809,0.106393,0.376889,0.272674,6.38124,5.53311,10.3541,11.351,1.79201,1.9393,0.744517,-0.361257,-0.954421,-0.550659,2.94238,0.684554,0.0236015,-0.154703
2226060,1,-1.56932,-0.521331,0.00280473,-2.0994,0.000241034,1.57493,0.788534,-1.56909,-0.521331,0.00327446,-2.09828,0.00178021,1.57705,0.79009,0.0749959,0.0880077,0.139189,-0.17441,0.0736171,0.296616,0.208366,0.0937961,0.140831,0.213186,-0.244929,0.110488,0.391098,0.282518,6.50819,5.8624,10.6318,11.1249,1.72975,1.89443,0.685923,-0.341021,-0.885093,-0.508424,2.89764,0.690017,0.0393926,-0.136703
2226061,1,-1.56923,-0.521228,0.00296401,-2.0996,0.000334405,1.57529,0.78877,-1.569,-0.521185,0.00349603,-2.09853,0.0018948,1.57746,0.790383,0.077551,0.0930349,0.146419,-0.184236,0.0754424,0.310123,0.215926,0.0964507,0.145893,0.221569,-0.254049,0.114582,0.405307,0.292363,6.60737,6.14011,10.9095,10.9543,1.68398,1.81021,0.692331,-0.318077,-0.821579,-0.458113,2.85493,0.69584,0.0553337,-0.118245
2226062,1,-1.56915,-0.521114,0.00312471,-2.09982,0.000427749,1.57565,0.789035,-1.5689,-0.521034,0.00372598,-2.09879,0.00201347,1.57788,0.790685,0.076602,0.10128,0.14977,-0.192626,0.0840563,0.330503,0.231246,0.0991054,0.150956,0.229952,-0.263168,0.118676,0.419517,0.302207,6.7859,6.34244,11.2903,10.8274,1.68398,1.70767,0.595286,-0.292684,-0.765605,-0.400839,2.81559,0.701922,0.071481,-0.0994348
2226063,1,-1.56907,-0.521003,0.00330081,-2.10004,0.000527238,1.57603,0.789298,-1.5688,-0.520878,0.00396506,-2.09907,0.00213648,1.57831,0.790997,0.0773154,0.102372,0.15716,-0.198947,0.0904839,0.34213,0.243122,0.101558,0.156105,0.23908,-0.272803,0.123006,0.434354,0.312425,6.93666,6.59238,11.4927,10.6806,1.70137,1.67471,0.544016,-0.262356,-0.716003,-0.333835,2.77893,0.708186,0.087646,-0.0804695
2226064,1,-1.56899,-0.520886,0.00348317,-2.10027,0.000632616,1.57643,0.78957,-1.56869,-0.520717,0.00421327,-2.09935,0.00226381,1.57876,0.79132,0.0778351,0.106229,0.163759,-0.210387,0.0952562,0.361808,0.25606,0.10401,0.161254,0.248207,-0.282437,0.127337,0.449192,0.322642,7.06361,6.7471,11.6196,10.5814,1.71877,1.68844,0.569651,-0.226805,-0.664953,-0.25739,2.74148,0.714458,0.103394,-0.0616071
2226065,1,-1.56889,-0.52077,0.00366269,-2.10051,0.000743296,1.57684,0.789861,-1.56859,-0.52055,0.0044706,-2.09964,0.00239548,1.57922,0.791653,0.0809717,0.107035,0.169682,-0.224641,0.0980541,0.374629,0.263561,0.106463,0.166403,0.257335,-0.292071,0.131667,0.46403,0.33286,7.06361,6.97324,11.822,10.506,1.76363,1.68844,0.550425,-0.187415,-0.60797,-0.173987,2.70345,0.72069,0.118722,-0.04307
2226066,1,-1.5688,-0.520656,0.00385943,-2.10077,0.000864332,1.57726,0.790156,-1.56848,-0.520379,0.00473707,-2.09994,0.00253148,1.5797,0.791996,0.0862928,0.110412,0.181257,-0.234184,0.106194,0.387316,0.276585,0.108915,0.171552,0.266462,-0.301706,0.135997,0.478867,0.343078,7.06361,7.22714,11.9727,10.4544,1.76912,1.72048,0.582468,-0.147789,-0.544151,-0.0889791,2.66691,0.726808,0.133901,-0.0249736
2226067,1,-1.56871,-0.520531,0.00406024,-2.10103,0.000991167,1.5777,0.790467,-1.56837,-0.520202,0.00501266,-2.10025,0.00267181,1.5802,0.792349,0.0865924,0.113883,0.185191,-0.239504,0.112752,0.402234,0.285061,0.111367,0.176701,0.27559,-0.31134,0.140328,0.493705,0.353296,7.21437,7.42947,12.0997,10.3553,1.76912,1.75894,0.628245,-0.111281,-0.471393,-0.00717226,2.63002,0.73265,0.148793,-0.00737101
2226068,1,-1.56863,-0.520393,0.00426527,-2.10129,0.00111855,1.57816,0.790785,-1.56825,-0.52002,0.00529737,-2.10057,0.00281646,1.58071,0.792713,0.085368,0.11846,0.191275,-0.244166,0.116121,0.415829,0.29345,0.11382,0.18185,0.284717,-0.320974,0.144658,0.508543,0.363513,7.4405,7.55246,12.3298,10.1331,1.80849,1.84866,0.647471,-0.0751928,-0.387456,0.0752547,2.58823,0.738278,0.162906,0.00972512
2226069,1,-1.56854,-0.520257,0.00448504,-2.10157,0.0012488,1.57865,0.791116,-1.56814,-0.519833,0.00559122,-2.10091,0.00296545,1.58123,0.793086,0.0871223,0.121558,0.199385,-0.255734,0.123548,0.436614,0.304342,0.116272,0.186999,0.293845,-0.330608,0.148989,0.52338,0.373731,7.69441,7.67941,12.5559,9.98233,1.83687,1.8038,0.666697,-0.0362508,-0.292698,0.162549,2.53977,0.743864,0.176081,0.0263698
2226070,1,-1.56845,-0.520114,0.00471241,-2.10187,0.00138275,1.57914,0.791465,-1.56802,-0.519641,0.00589419,-2.10125,0.00311877,1.58177,0.79347,0.0859006,0.127814,0.210365,-0.267115,0.130506,0.45168,0.317713,0.118725,0.192148,0.302973,-0.340243,0.153319,0.538218,0.383949,7.92054,7.75479,12.8336,9.93473,1.83687,1.74612,0.679514,0.00452864,-0.192808,0.252328,2.4884,0.749504,0.188771,0.0426582
2226071,1,-1.56836,-0.519958,0.00495094,-2.10216,0.00153023,1.57966,0.791817,-1.5679,-0.519444,0.00620629,-2.1016,0.00327642,1.58232,0.793865,0.0865422,0.13806,0.217533,-0.275172,0.137001,0.472153,0.326648,0.121177,0.197297,0.3121,-0.349877,0.15765,0.553055,0.394167,8.12288,7.73099,13.036,9.85935,1.803,1.6683,0.666697,0.0459921,-0.0987977,0.341961,2.44011,0.755303,0.201509,0.0586833
2226072,1,-1.56828,-0.519805,0.0051942,-2.10248,0.00167589,1.5802,0.792187,-1.56777,-0.519241,0.00652752,-2.10195,0.0034384,1.58289,0.794269,0.0890146,0.141928,0.224654,-0.28375,0.139864,0.493218,0.339666,0.12363,0.202446,0.321228,-0.359511,0.16198,0.567893,0.404384,8.34901,7.85794,13.2899,9.80777,1.8149,1.5978,0.628245,0.0886088,-0.0177959,0.431869,2.39711,0.761327,0.214269,0.0745003
2226073,1,-1.56818,-0.519634,0.00545174,-2.1028,0.00182527,1.58075,0.792563,-1.56765,-0.519034,0.00685826,-2.10232,0.00360475,1.58347,0.794684,0.0896755,0.151708,0.237218,-0.294963,0.143037,0.50633,0.354192,0.125885,0.207477,0.330747,-0.369284,0.166346,0.582788,0.414573,8.52357,7.83414,13.4406,9.78397,1.803,1.58499,0.615427,0.13162,0.0492003,0.520854,2.35953,0.767514,0.226856,0.0901135
2226074,1,-1.5681,-0.519474,0.00571692,-2.10312,0.00197754,1.58133,0.792958,-1.56752,-0.518821,0.00719853,-2.1027,0.00377546,1.58407,0.795108,0.0912488,0.155318,0.246085,-0.303789,0.148478,0.523202,0.36032,0.12814,0.212508,0.340265,-0.379056,0.170712,0.597682,0.424761,8.75367,7.95712,13.516,9.68479,1.82588,1.51449,0.601694,0.17307,0.101941,0.605571,2.32841,0.773742,0.239295,0.105488
2226075,1,-1.568,-0.519305,0.00598204,-2.10347,0.00213846,1.58191,0.793369,-1.56739,-0.518604,0.00754831,-2.10309,0.00395054,1.58468,0.795543,0.095248,0.16145,0.247414,-0.31649,0.15315,0.538058,0.376421,0.130396,0.217539,0.349784,-0.388828,0.175078,0.612577,0.43495,8.7259,8.06027,13.6945,9.68479,1.84877,1.50808,0.52479,0.214274,0.143598,0.688091,2.30314,0.780006,0.251536,0.120546
2226076,1,-1.5679,-0.519127,0.00627596,-2.10381,0.00230612,1.58251,0.793787,-1.56725,-0.518381,0.00790762,-2.10349,0.00412998,1.58531,0.795988,0.0962515,0.165709,0.263628,-0.323888,0.153085,0.552827,0.393621,0.132651,0.22257,0.359303,-0.3986,0.179444,0.627471,0.445138,8.80128,8.06027,13.7699,9.58561,1.83687,1.50808,0.44697,0.256638,0.179007,0.770792,2.28202,0.786324,0.263412,0.135181
2226077,1,-1.5678,-0.518941,0.00657447,-2.10417,0.002476,1.58312,0.79421,-1.56712,-0.518154,0.00827644,-2.1039,0.00431379,1.58595,0.796444,0.0974062,0.172904,0.276136,-0.33525,0.15711,0.582838,0.397481,0.134906,0.227601,0.368822,-0.408373,0.18381,0.642366,0.455326,8.95601,8.0087,13.8215,9.51023,1.84236,1.56576,0.453379,0.296579,0.211439,0.847786,2.26304,0.792545,0.274592,0.149266
2226078,1,-1.5677,-0.518747,0.00688036,-2.10453,0.00263838,1.58374,0.794657,-1.56698,-0.517921,0.00865478,-2.10432,0.00450197,1.58661,0.796909,0.0995686,0.178609,0.288343,-0.340681,0.162897,0.590366,0.424011,0.137162,0.232632,0.378341,-0.418145,0.188176,0.65726,0.465515,9.05519,7.93332,13.873,9.41105,1.89913,1.62344,0.407602,0.330699,0.242354,0.913517,2.24423,0.798488,0.284794,0.16266
2226079,1,-1.5676,-0.518545,0.00720084,-2.1049,0.00280533,1.58439,0.795104,-1.56684,-0.517683,0.00904264,-2.10475,0.00469451,1.58728,0.797385,0.0966918,0.187895,0.295016,-0.34799,0.161884,0.60363,0.433206,0.139417,0.237663,0.387859,-0.427917,0.192542,0.672155,0.475703,9.13057,7.78256,13.873,9.31186,1.96687,1.5978,0.472605,0.361171,0.271221,0.971061,2.22436,0.804187,0.294115,0.175242
2226080,1,-1.5675,-0.518339,0.00752647,-2.10528,0.00298431,1.58506,0.795573,-1.5667,-0.517441,0.00944002,-2.10518,0.00489142,1.58797,0.797871,0.0957973,0.1903,0.307878,-0.357237,0.172353,0.621805,0.441494,0.141672,0.242694,0.397378,-0.437689,0.196908,0.687049,0.485891,9.23372,7.65561,13.8215,9.23648,1.97237,1.48794,0.491831,0.39267,0.298449,1.02696,2.20243,0.80989,0.302756,0.186963
2226081,1,-1.56739,-0.518129,0.00786714,-2.10567,0.00316049,1.58574,0.796049,-1.56656,-0.517193,0.00984691,-2.10563,0.00509269,1.58867,0.798367,0.100704,0.196816,0.321292,-0.3652,0.17592,0.636038,0.448665,0.143928,0.247726,0.406897,-0.447462,0.201274,0.701944,0.49608,9.25752,7.60403,13.8969,9.21268,1.98976,1.43026,0.49824,0.424421,0.327692,1.07994,2.17702,0.815652,0.310741,0.197899
2226082,1,-1.56729,-0.517912,0.00822108,-2.10607,0.00335978,1.58643,0.79654,-1.56641,-0.51694,0.0102633,-2.10609,0.00529833,1.58939,0.798873,0.102017,0.202359,0.329242,-0.372586,0.185652,0.656333,0.453101,0.146183,0.252757,0.416416,-0.457234,0.20564,0.716839,0.506268,9.3567,7.52866,13.8969,9.1373,1.93849,1.43667,0.52479,0.453165,0.360916,1.12576,2.1471,0.821384,0.317921,0.208191
2226083,1,-1.56719,-0.517684,0.00858083,-2.10647,0.00355276,1.58714,0.797051,-1.56626,-0.516683,0.0106894,-2.10655,0.00550825,1.59012,0.799389,0.102571,0.208003,0.339963,-0.380765,0.186593,0.67022,0.467997,0.148253,0.257548,0.426053,-0.466884,0.209918,0.731417,0.516176,9.45985,7.3779,13.8215,8.99051,1.933,1.44308,0.518381,0.480086,0.397516,1.16668,2.11251,0.827151,0.324139,0.217956
2226084,1,-1.56707,-0.517455,0.0089478,-2.10688,0.00375354,1.58788,0.797575,-1.56611,-0.51642,0.0111251,-2.10703,0.00572244,1.59086,0.799915,0.107664,0.214371,0.345992,-0.386562,0.18784,0.690554,0.488745,0.150324,0.262339,0.435691,-0.476535,0.214195,0.745996,0.526085,9.43208,7.27475,13.7977,8.83976,1.91103,1.42385,0.491831,0.507636,0.437124,1.20666,2.07299,0.833018,0.329292,0.227284
2226085,1,-1.56695,-0.517218,0.00932143,-2.10731,0.00395642,1.58862,0.798103,-1.56596,-0.516153,0.0115704,-2.10752,0.00594092,1.59162,0.800451,0.11423,0.221666,0.357932,-0.393391,0.193401,0.706155,0.499483,0.152394,0.267131,0.445329,-0.486186,0.218473,0.760574,0.535993,9.3567,7.19937,13.8215,8.689,1.88814,1.41745,0.556833,0.535173,0.478304,1.24547,2.02839,0.838865,0.333312,0.236245
2226086,1,-1.56682,-0.516978,0.00971878,-2.10773,0.00416312,1.58939,0.798648,-1.56581,-0.515881,0.0120254,-2.10801,0.00616367,1.5924,0.800997,0.119262,0.226631,0.369935,-0.402704,0.198579,0.723405,0.517825,0.154464,0.271922,0.454966,-0.495836,0.222751,0.775153,0.545901,9.25752,7.15176,13.7977,8.54221,1.83687,1.3854,0.563242,0.558768,0.519238,1.27797,1.97961,0.844427,0.336334,0.244909
2226087,1,-1.5667,-0.516737,0.0101317,-2.10817,0.00437957,1.59018,0.799191,-1.56565,-0.515605,0.01249,-2.10852,0.0063907,1.59319,0.801553,0.119524,0.230415,0.384998,-0.410561,0.20555,0.738895,0.525151,0.156534,0.276714,0.464604,-0.505487,0.227029,0.789732,0.55581,9.23372,7.10019,13.7699,8.46683,1.8149,1.41745,0.563242,0.575218,0.561044,1.29929,1.92735,0.849471,0.338573,0.253377
2226088,1,-1.56658,-0.516487,0.0105558,-2.10862,0.00459993,1.59096,0.799765,-1.56549,-0.515323,0.0129642,-2.10903,0.006622,1.59399,0.802119,0.12069,0.236533,0.39348,-0.420567,0.208916,0.75567,0.539598,0.158605,0.281505,0.474242,-0.515138,0.231307,0.80431,0.565718,9.23372,7.02481,13.5953,8.39145,1.85426,1.44308,0.44697,0.585597,0.605254,1.31049,1.87195,0.853966,0.340211,0.261723
2226089,1,-1.56645,-0.516231,0.0109876,-2.10908,0.00482824,1.59178,0.800337,-1.56533,-0.515037,0.0134481,-2.10956,0.00685759,1.59481,0.802694,0.122107,0.244387,0.409204,-0.43296,0.21314,0.770441,0.546543,0.160675,0.286296,0.483879,-0.524788,0.235585,0.818889,0.575626,9.25752,6.97324,13.6191,8.39145,1.85426,1.35977,0.434153,0.59239,0.646734,1.31492,1.81726,0.858055,0.341734,0.269941
2226090,1,-1.56633,-0.515967,0.0114451,-2.10956,0.00505591,1.59262,0.800926,-1.56517,-0.514746,0.0139416,-2.11009,0.00709745,1.59565,0.80328,0.122429,0.25076,0.420388,-0.445387,0.215532,0.789438,0.554045,0.162745,0.291088,0.493517,-0.534439,0.239862,0.833468,0.585535,9.28132,6.89786,13.4684,8.46683,1.87074,1.24349,0.381968,0.596269,0.677345,1.31323,1.76903,0.861927,0.343754,0.27794
2226091,1,-1.56619,-0.515692,0.0119024,-2.11004,0.00528322,1.59346,0.801501,-1.565,-0.51445,0.0144448,-2.11064,0.00734159,1.59649,0.803875,0.133628,0.257932,0.43327,-0.454485,0.21833,0.805633,0.567719,0.164816,0.295879,0.503155,-0.54409,0.24414,0.848046,0.595443,9.15437,6.71933,13.4168,8.49063,1.86525,1.18582,0.49824,0.595794,0.694076,1.30368,1.72949,0.865623,0.34638,0.285599
2226092,1,-1.56604,-0.515415,0.0123662,-2.11054,0.0055174,1.59433,0.802108,-1.56484,-0.514149,0.0149576,-2.11119,0.00759001,1.59736,0.804481,0.135319,0.262977,0.444499,-0.466812,0.222989,0.821166,0.579077,0.166886,0.30067,0.512792,-0.55374,0.248418,0.862625,0.605351,9.05519,6.54477,13.3652,8.64139,1.90462,1.173,0.44697,0.588604,0.698789,1.28388,1.69764,0.86905,0.349321,0.292863
2226093,1,-1.56591,-0.515131,0.0128413,-2.11104,0.00576117,1.5952,0.802738,-1.56467,-0.513844,0.0154799,-2.11175,0.00784254,1.59823,0.805096,0.135025,0.26934,0.453631,-0.47652,0.235997,0.837434,0.585492,0.168783,0.305152,0.522337,-0.563089,0.25253,0.876644,0.614826,9.07899,6.36624,13.3652,8.6652,1.92201,1.16018,0.381968,0.577029,0.694449,1.25751,1.67206,0.872287,0.352309,0.299745
2226094,1,-1.56577,-0.514848,0.0133352,-2.11156,0.00601442,1.59608,0.803358,-1.5645,-0.513534,0.0160118,-2.11233,0.00809918,1.59912,0.80572,0.137163,0.280365,0.464708,-0.487074,0.237801,0.844075,0.596009,0.17068,0.309634,0.531881,-0.572439,0.256643,0.890664,0.624302,9.15437,6.26706,13.2899,8.83976,1.933,1.25631,0.349924,0.566233,0.679299,1.2319,1.65322,0.875584,0.355327,0.306231
2226095,1,-1.56563,-0.514556,0.0138294,-2.11209,0.00627106,1.59696,0.803989,-1.56432,-0.51322,0.0165532,-2.11291,0.00835994,1.60003,0.806354,0.137573,0.285609,0.469085,-0.501505,0.245034,0.872072,0.598848,0.172576,0.314115,0.541425,-0.581788,0.260755,0.904683,0.633777,9.15437,6.23929,13.3652,8.93894,1.91103,1.39822,0.401194,0.560286,0.64837,1.21304,1.64357,0.879238,0.358567,0.312246
2226096,1,-1.56548,-0.514258,0.0143346,-2.11262,0.0065328,1.59787,0.804625,-1.56415,-0.512902,0.0171042,-2.1135,0.0086248,1.60095,0.806997,0.143794,0.290795,0.48402,-0.523356,0.247408,0.877539,0.613361,0.174473,0.318597,0.55097,-0.591137,0.264867,0.918703,0.643252,9.15437,6.16391,13.3652,9.06192,1.84236,1.47512,0.44697,0.560271,0.600354,1.20269,1.6468,0.883469,0.362578,0.317744
2226097,0.99,-1.56533,-0.513957,0.0148435,-2.11317,0.00680202,1.59879,0.805278,-1.56397,-0.512579,0.0176647,-2.1141,0.00889378,1.60188,0.80765,0.145505,0.29473,0.488263,-0.527572,0.258409,0.896451,0.62014,0.17637,0.323078,0.560514,-0.600486,0.268979,0.932722,0.652727,9.15437,5.96158,13.4922,9.21268,1.76363,1.53372,0.491831,0.563945,0.540735,1.19795,1.66264,0.88815,0.367794,0.32278
2226098,0.98,-1.56518,-0.51365,0.0153649,-2.11374,0.00707801,1.59973,0.805951,-1.56379,-0.512251,0.0182347,-2.11471,0.00916688,1.60283,0.808312,0.144488,0.293124,0.506223,-0.540245,0.259662,0.905914,0.63057,0.178267,0.32756,0.570058,-0.609835,0.273091,0.946741,0.662202,9.25752,5.78702,13.4406,9.38724,1.75813,1.48153,0.459788,0.570255,0.485475,1.19726,1.68134,0.892889,0.37368,0.327468
2226099,0.98,-1.56503,-0.51334,0.0158846,-2.11432,0.00734557,1.60068,0.806608,-1.56361,-0.511919,0.0188143,-2.11533,0.00944408,1.60379,0.808984,0.14478,0.298747,0.513679,-0.552951,0.260429,0.91265,0.637656,0.180164,0.332042,0.579603,-0.619184,0.277204,0.960761,0.671677,9.3567,5.60849,13.5953,9.53403,1.75813,1.50167,0.472605,0.578808,0.446669,1.19928,1.69616,0.897393,0.379895,0.33194
2226100,0.98,-1.56488,-0.513024,0.0164236,-2.11491,0.00761574,1.60166,0.807294,-1.56343,-0.511582,0.0194035,-2.11596,0.00972539,1.60476,0.809665,0.146646,0.303214,0.520475,-0.563991,0.259148,0.931803,0.649689,0.18206,0.336523,0.589147,-0.628533,0.281316,0.97478,0.681153,9.30909,5.40616,13.5953,9.68479,1.7975,1.46231,0.407602,0.591492,0.421414,1.20657,1.70883,0.901694,0.386653,0.336282
2226101,0.98,-1.56472,-0.512698,0.0169574,-2.11552,0.007892,1.60264,0.807978,-1.56325,-0.511241,0.0200022,-2.11659,0.0100108,1.60575,0.810355,0.149926,0.308924,0.523656,-0.578439,0.264849,0.952069,0.660928,0.183957,0.341005,0.598691,-0.637882,0.285428,0.9888,0.690628,9.3329,5.22763,13.6191,9.85935,1.803,1.36618,0.434153,0.612171,0.402705,1.22558,1.72175,0.905981,0.393887,0.340481
2226102,0.98,-1.56456,-0.512371,0.0175058,-2.11614,0.00817673,1.60364,0.808669,-1.56306,-0.510896,0.0206104,-2.11724,0.0103004,1.60675,0.811055,0.153106,0.313033,0.531402,-0.594009,0.271834,0.96538,0.668791,0.185854,0.345486,0.608236,-0.647231,0.28954,1.00282,0.700103,9.30909,5.07687,13.7223,10.0061,1.85426,1.2499,0.356333,0.642157,0.384462,1.25915,1.73805,0.910383,0.4016,0.344488
2226103,0.98,-1.56439,-0.512032,0.0180659,-2.11677,0.00847742,1.60463,0.809371,-1.56287,-0.510546,0.0212279,-2.1179,0.0105938,1.60777,0.811765,0.151932,0.319637,0.545655,-0.599748,0.275555,0.974117,0.676025,0.187589,0.34962,0.617524,-0.656153,0.293436,1.01612,0.709051,9.3329,4.90231,13.7223,9.95853,1.83138,1.21786,0.316965,0.678705,0.36383,1.30328,1.75888,0.914837,0.40966,0.348265
2226104,0.98,-1.56423,-0.511698,0.0186425,-2.1174,0.00876535,1.60564,0.810075,-1.56269,-0.510193,0.0218548,-2.11856,0.0108911,1.6088,0.812483,0.158668,0.3239,0.551006,-0.608205,0.282082,0.983593,0.680948,0.189324,0.353754,0.626813,-0.665075,0.297331,1.02942,0.717999,9.3567,4.90231,13.7223,9.88315,1.83138,1.23068,0.330698,0.717545,0.343251,1.35152,1.78036,0.919128,0.417416,0.351751
2226105,0.98,-1.56407,-0.511357,0.0192288,-2.11804,0.0090645,1.60665,0.810803,-1.56249,-0.509835,0.0224909,-2.11924,0.0111924,1.60984,0.813209,0.157709,0.329138,0.563328,-0.614065,0.286927,0.989517,0.692109,0.191059,0.357888,0.636101,-0.673997,0.301227,1.04273,0.726948,9.40828,4.82297,13.8453,9.83554,1.8149,1.40463,0.265696,0.756423,0.326932,1.40087,1.79775,0.923086,0.424241,0.354858
2226106,0.98,-1.5639,-0.511006,0.0198135,-2.11869,0.00936622,1.60767,0.811531,-1.5623,-0.509473,0.0231362,-2.11992,0.0114975,1.6109,0.813945,0.157138,0.332767,0.568874,-0.616648,0.29655,0.993811,0.699034,0.192794,0.362022,0.64539,-0.682918,0.305123,1.05603,0.735896,9.48365,4.72379,13.9246,9.66098,1.77461,1.47512,0.252878,0.796191,0.319912,1.45237,1.80631,0.92663,0.429752,0.357509
2226107,0.98,-1.56373,-0.510653,0.0204149,-2.11934,0.00967227,1.60871,0.812276,-1.56211,-0.509107,0.0237909,-2.12061,0.0118065,1.61197,0.81469,0.163218,0.338802,0.580959,-0.632354,0.298542,1.0105,0.722409,0.194529,0.366156,0.654679,-0.69184,0.309018,1.06933,0.744844,9.48365,4.52145,13.8969,9.63321,1.75264,1.50167,0.240061,0.837368,0.323006,1.50659,1.80509,0.929741,0.434097,0.359624
2226108,0.98,-1.56355,-0.510303,0.0210259,-2.12001,0.00997857,1.60978,0.813018,-1.56191,-0.508736,0.0244549,-2.12131,0.0121194,1.61305,0.815444,0.16459,0.337637,0.583871,-0.637769,0.295631,1.03431,0.730942,0.196264,0.37029,0.663967,-0.700762,0.312914,1.08263,0.753792,9.43208,4.4183,13.8969,9.68479,1.71877,1.30117,0.162241,0.878987,0.335433,1.56251,1.79603,0.932476,0.437618,0.361152
2226109,0.98,-1.56338,-0.509945,0.0216382,-2.12068,0.0102821,1.61087,0.813749,-1.56171,-0.508362,0.0251281,-2.12202,0.0124362,1.61415,0.816207,0.169845,0.344504,0.595252,-0.648061,0.297352,1.04659,0.741307,0.197999,0.374424,0.673256,-0.709684,0.316809,1.09593,0.76274,9.38447,4.24374,13.873,9.78397,1.70687,1.10159,0.187876,0.921169,0.359875,1.62062,1.7781,0.934889,0.440172,0.362054
2226110,0.98,-1.5632,-0.509582,0.0222613,-2.12137,0.0105944,1.61196,0.814508,-1.56151,-0.507983,0.0258107,-2.12274,0.0127569,1.61526,0.816978,0.172032,0.352414,0.603419,-0.658678,0.301384,1.04734,0.748322,0.199734,0.378558,0.682544,-0.718606,0.320705,1.10923,0.771689,9.3567,4.09299,13.8453,9.90696,1.72975,1.08877,0.187876,0.962556,0.388924,1.67896,1.75554,0.936957,0.442034,0.362324
2226111,0.98,-1.56303,-0.509218,0.0228829,-2.12207,0.0109034,1.61305,0.815275,-1.56131,-0.507601,0.0265025,-2.12347,0.0130815,1.61638,0.817759,0.172139,0.354952,0.610985,-0.666674,0.309192,1.05706,0.752246,0.201469,0.382692,0.691833,-0.727528,0.3246,1.12254,0.780637,9.38447,4.04141,13.9484,10.0339,1.84877,0.99264,0.24647,1.00287,0.412969,1.73679,1.73456,0.938693,0.443651,0.361999
2226112,0.98,-1.56285,-0.508856,0.0235276,-2.12276,0.0112073,1.61419,0.816046,-1.56111,-0.507214,0.0272036,-2.12421,0.01341,1.61751,0.818549,0.176993,0.363217,0.615136,-0.677393,0.308391,1.08173,0.757486,0.203204,0.386826,0.701122,-0.73645,0.328496,1.13584,0.789585,9.40828,3.93826,13.9722,10.1093,1.9504,0.748195,0.233652,1.04468,0.430879,1.7978,1.71585,0.940278,0.44475,0.361151
2226113,0.98,-1.56267,-0.508479,0.024196,-2.12347,0.0115359,1.61531,0.81683,-1.5609,-0.506823,0.0279137,-2.12495,0.0137422,1.61866,0.819347,0.178227,0.37021,0.627626,-0.689945,0.31364,1.1165,0.765137,0.204789,0.390598,0.710033,-0.74486,0.332138,1.14832,0.797948,9.40828,3.7637,13.9246,10.2799,1.89363,0.799464,0.226328,1.08825,0.438467,1.86247,1.70116,0.942048,0.444762,0.359903
2226114,0.98,-1.56248,-0.508098,0.0248659,-2.12418,0.0118644,1.61641,0.817623,-1.5607,-0.506429,0.0286326,-2.1257,0.0140779,1.61982,0.820153,0.180315,0.373509,0.646633,-0.711207,0.317707,1.11269,0.765742,0.206374,0.39437,0.718945,-0.753271,0.335779,1.16079,0.806311,9.28132,3.66055,13.8215,10.2799,1.83138,1.08877,0.278513,1.12833,0.429902,1.92227,1.69649,0.944194,0.443826,0.358405
2226115,0.98,-1.56228,-0.507714,0.0255385,-2.1249,0.0121965,1.61754,0.818406,-1.56049,-0.506031,0.0293605,-2.12647,0.0144174,1.621,0.820968,0.184586,0.376909,0.656059,-0.711918,0.314627,1.11082,0.770077,0.20796,0.398143,0.727857,-0.761682,0.339421,1.17327,0.814674,9.00361,3.5336,13.8215,10.2561,1.79201,1.36618,0.343516,1.15859,0.408484,1.96726,1.70396,0.946561,0.442647,0.356814
2226116,0.98,-1.56209,-0.507331,0.0262213,-2.12564,0.0125319,1.61869,0.819201,-1.56028,-0.505629,0.0300973,-2.12724,0.0147604,1.62218,0.821791,0.187825,0.376665,0.676169,-0.717388,0.317815,1.12282,0.7779,0.209545,0.401915,0.736769,-0.770093,0.343062,1.18575,0.823037,8.87666,3.5098,13.7223,10.3315,1.74074,1.33413,0.388376,1.17548,0.39043,1.99269,1.71322,0.94869,0.441059,0.355287
2226117,0.98,-1.5619,-0.506936,0.0269214,-2.1264,0.0128699,1.61987,0.820001,-1.56007,-0.505223,0.0308429,-2.12801,0.0151071,1.62338,0.822622,0.187396,0.377423,0.687288,-0.730828,0.326478,1.13568,0.78054,0.211131,0.405687,0.745681,-0.778504,0.346704,1.19823,0.831401,8.92823,3.33524,13.5438,10.629,1.64461,1.2499,0.42042,1.17749,0.390655,1.99685,1.71429,0.95019,0.438771,0.353977
2226118,0.98,-1.56171,-0.506556,0.0276319,-2.12717,0.013223,1.62104,0.820851,-1.55986,-0.504814,0.0315975,-2.1288,0.0154575,1.62459,0.823462,0.187359,0.37838,0.688515,-0.739365,0.334542,1.13886,0.802181,0.212716,0.409459,0.754593,-0.786914,0.350345,1.2107,0.839764,8.92823,3.25589,13.516,10.8512,1.60524,1.3854,0.162241,1.17135,0.411859,1.98988,1.70685,0.951104,0.436226,0.352974
2226119,0.98,-1.56151,-0.506156,0.0283438,-2.12795,0.0135705,1.62223,0.821684,-1.55964,-0.5044,0.032361,-2.1296,0.0158115,1.62581,0.82431,0.187736,0.382749,0.693226,-0.755572,0.34143,1.15775,0.813833,0.214301,0.413232,0.763504,-0.795325,0.353987,1.22318,0.848127,8.90443,3.1329,13.4168,11.2519,1.56587,1.22427,0.155832,1.16926,0.447988,1.99002,1.6952,0.951714,0.434009,0.352188
2226120,0.98,-1.56132,-0.505759,0.029072,-2.12874,0.0139145,1.62343,0.822538,-1.55943,-0.503983,0.0331334,-2.1304,0.0161691,1.62705,0.825166,0.192393,0.383716,0.70237,-0.7674,0.341526,1.16854,0.827308,0.215887,0.417004,0.772416,-0.803736,0.357628,1.23566,0.85649,8.90443,3.00595,13.3414,11.5732,1.65651,1.20504,0.00660151,1.17607,0.49025,2.00457,1.68521,0.952149,0.432588,0.351366
2226121,0.98,-1.56112,-0.50534,0.0298055,-2.12955,0.0142635,1.62464,0.823384,-1.55921,-0.503563,0.0339148,-2.13121,0.0165304,1.6283,0.826031,0.194608,0.392234,0.713416,-0.772474,0.341544,1.18822,0.82695,0.217472,0.420776,0.781328,-0.812147,0.36127,1.24814,0.864853,8.90443,2.67667,13.3652,11.7716,1.76363,1.06314,0.103647,1.1883,0.533046,2.02836,1.67913,0.9523,0.431792,0.350246
2226122,0.98,-1.56091,-0.504926,0.0305378,-2.13035,0.0146096,1.62586,0.824225,-1.55899,-0.503138,0.034705,-2.13203,0.0168953,1.62956,0.826904,0.19699,0.398563,0.724589,-0.782393,0.337758,1.20083,0.848454,0.219057,0.424549,0.79024,-0.820557,0.364911,1.26062,0.873216,8.85286,2.47433,13.3137,11.9223,1.85976,1.09518,0.259287,1.20153,0.570203,2.0545,1.6771,0.952142,0.431042,0.348648
2226123,0.98,-1.56071,-0.504519,0.0312799,-2.13116,0.0149632,1.62707,0.825088,-1.55877,-0.50271,0.0355037,-2.13286,0.0172635,1.63083,0.827785,0.197311,0.403259,0.730025,-0.784576,0.342069,1.19827,0.853818,0.220507,0.427962,0.798689,-0.828404,0.368265,1.27219,0.880957,8.85286,2.39896,13.3652,11.8708,1.87624,1.44949,0.388376,1.21531,0.598144,2.08183,1.67892,0.95188,0.429982,0.346582
2226124,0.98,-1.5605,-0.504108,0.0320187,-2.13198,0.01532,1.62829,0.825955,-1.55855,-0.502279,0.0363108,-2.1337,0.0176352,1.63211,0.828674,0.19928,0.401548,0.73904,-0.7925,0.345906,1.2096,0.848331,0.221956,0.431376,0.807139,-0.836251,0.371619,1.28377,0.888698,8.92823,2.39896,13.393,11.7478,1.88814,1.5978,0.531199,1.23169,0.624902,2.11336,1.67976,0.951728,0.428386,0.344298
2226125,0.98,-1.56029,-0.5037,0.0327806,-2.13279,0.0157039,1.62954,0.826844,-1.55832,-0.501844,0.0371264,-2.13454,0.0180101,1.63341,0.829571,0.202186,0.400698,0.743632,-0.801771,0.357948,1.21173,0.865943,0.223405,0.434789,0.815588,-0.844098,0.374973,1.29535,0.896439,9.03138,2.42276,13.4922,11.5732,1.78011,1.70126,0.472605,1.25152,0.663391,2.15073,1.67419,0.951797,0.426417,0.342173
2226126,0.98,-1.5601,-0.503288,0.0335695,-2.13362,0.0160934,1.63079,0.827736,-1.5581,-0.501406,0.0379505,-2.13539,0.0183885,1.63472,0.830475,0.199408,0.400272,0.750246,-0.804818,0.364309,1.2276,0.870108,0.224854,0.438203,0.824038,-0.851945,0.378327,1.30693,0.90418,9.28132,2.45053,13.3414,11.351,1.60524,1.75894,0.472605,1.27642,0.722472,2.19638,1.65844,0.952106,0.424402,0.340519
2226127,0.98,-1.55989,-0.502858,0.0343615,-2.13444,0.0164804,1.63208,0.82863,-1.55787,-0.500964,0.038783,-2.13625,0.0187701,1.63604,0.831387,0.203687,0.407115,0.764266,-0.80803,0.372575,1.24238,0.885314,0.226304,0.441616,0.832487,-0.859792,0.381681,1.3185,0.911921,9.25752,2.29581,13.1907,11.0257,1.44686,1.5978,0.485422,1.30605,0.802806,2.24911,1.62947,0.952417,0.422306,0.339491
2226128,0.98,-1.55966,-0.502429,0.0351643,-2.13527,0.0168731,1.6334,0.829546,-1.55764,-0.500519,0.0396239,-2.13712,0.0191552,1.63737,0.832306,0.212834,0.413608,0.775719,-0.816988,0.378997,1.26235,0.894121,0.227753,0.44503,0.840937,-0.867639,0.385035,1.33008,0.919663,8.97981,2.09348,12.9606,10.8274,1.37911,1.41104,0.272104,1.33305,0.893278,2.2977,1.59015,0.95216,0.420291,0.339166
2226129,0.98,-1.55942,-0.501985,0.0359632,-2.13612,0.0172496,1.63472,0.830468,-1.55742,-0.500071,0.0404733,-2.138,0.0195436,1.63871,0.833234,0.21699,0.416787,0.791083,-0.822594,0.383851,1.27982,0.900748,0.229202,0.448443,0.849386,-0.875486,0.388389,1.34166,0.927404,8.65052,1.76419,12.782,10.752,1.41847,1.19223,0.149424,1.34897,0.982275,2.32984,1.54601,0.950754,0.418574,0.33949
2226130,0.98,-1.55919,-0.501533,0.036796,-2.13695,0.017626,1.63605,0.831378,-1.55718,-0.499619,0.0413311,-2.13888,0.0199353,1.64006,0.834169,0.217263,0.434709,0.80126,-0.826369,0.376316,1.29538,0.905808,0.230652,0.451857,0.857836,-0.883333,0.391744,1.35324,0.935145,8.42439,1.36349,12.4528,10.6528,1.56038,1.173,0.0322363,1.35202,1.05798,2.34245,1.50188,0.948036,0.417021,0.340174
2226131,0.98,-1.55897,-0.501088,0.0376514,-2.13782,0.0180165,1.63735,0.832304,-1.55695,-0.499163,0.0421974,-2.13977,0.0203304,1.64143,0.835112,0.222233,0.439876,0.818787,-0.833636,0.381374,1.32516,0.905117,0.232101,0.455271,0.866285,-0.89118,0.395098,1.36482,0.942886,8.34901,1.13339,12.1235,10.8036,1.6675,1.34054,-0.00621587,1.34375,1.10554,2.33719,1.4632,0.94426,0.415363,0.340802
2226132,0.98,-1.55873,-0.500636,0.0384895,-2.13868,0.0184102,1.63871,0.833222,-1.55672,-0.498705,0.0430721,-2.14067,0.0207289,1.6428,0.836062,0.224057,0.438981,0.833883,-0.855664,0.383299,1.33342,0.904962,0.23355,0.458684,0.874735,-0.899027,0.398452,1.37639,0.950627,8.24983,0.958832,11.8458,11.0535,1.71877,1.34054,0.110056,1.32248,1.12474,2.31144,1.43373,0.939798,0.413762,0.340986
2226133,0.98,-1.55849,-0.500186,0.0393503,-2.13956,0.0188188,1.64009,0.834146,-1.55648,-0.498243,0.0439548,-2.14158,0.0211303,1.64419,0.83702,0.233065,0.443279,0.84253,-0.857855,0.387674,1.33097,0.925656,0.234879,0.461742,0.882667,-0.906269,0.40148,1.38703,0.957721,7.99592,0.728729,11.695,11.2519,1.68398,1.35977,0.194285,1.2874,1.12666,2.26441,1.41477,0.935015,0.412934,0.340498
2226134,0.98,-1.55825,-0.499738,0.0402069,-2.14047,0.0192423,1.64145,0.835078,-1.55625,-0.497778,0.0448454,-2.14249,0.0215348,1.64559,0.837985,0.233272,0.445254,0.868036,-0.87122,0.399164,1.3412,0.925118,0.236207,0.4648,0.8906,-0.913511,0.404508,1.39766,0.964815,7.86897,0.681122,11.695,11.6486,1.56038,1.51449,0.297739,1.23778,1.12075,2.19554,1.4037,0.930016,0.413168,0.339374
2226135,0.98,-1.55803,-0.49927,0.0410936,-2.14137,0.019658,1.64284,0.836002,-1.55601,-0.49731,0.0457439,-2.14341,0.0219424,1.64699,0.838957,0.232999,0.450412,0.876875,-0.880066,0.406962,1.35347,0.925793,0.237536,0.467858,0.898533,-0.920754,0.407536,1.40829,0.971908,7.97212,0.502594,11.7188,11.8232,1.43587,1.64266,0.42042,1.17358,1.11087,2.10439,1.39887,0.924802,0.414478,0.337851
2226136,0.98,-1.55782,-0.498804,0.0419897,-2.14229,0.0200681,1.64424,0.836961,-1.55577,-0.496839,0.0466504,-2.14434,0.0223529,1.64841,0.839936,0.22341,0.458495,0.880954,-0.888769,0.407817,1.35633,0.929497,0.238864,0.470916,0.906466,-0.927996,0.410565,1.41892,0.979002,8.29744,0.276459,11.6712,12.0215,1.42397,1.73971,0.44697,1.10678,1.09292,2.00755,1.40205,0.919709,0.417129,0.336219
2226137,0.98,-1.55759,-0.498328,0.0428657,-2.14323,0.0204868,1.64564,0.837932,-1.55553,-0.496365,0.0475648,-2.14527,0.0227665,1.64984,0.840922,0.221602,0.46535,0.883517,-0.902018,0.41417,1.36776,0.93802,0.240193,0.473974,0.914399,-0.935238,0.413593,1.42955,0.986096,8.40059,-0.0290222,11.7466,12.2715,1.41298,1.71408,0.459788,1.05553,1.05846,1.93058,1.41672,0.915207,0.421619,0.334758
2226138,0.98,-1.55736,-0.497851,0.0437565,-2.14416,0.0209117,1.64706,0.838892,-1.55529,-0.495888,0.0484871,-2.14622,0.0231832,1.65128,0.841915,0.226265,0.472097,0.887339,-0.910838,0.413235,1.37781,0.949639,0.241522,0.477033,0.922331,-0.94248,0.416621,1.44018,0.99319,8.34901,-0.358307,11.7704,12.3944,1.43038,1.66189,0.459788,1.02801,1.00237,1.88551,1.44561,0.911437,0.428312,0.333687
2226139,0.98,-1.55712,-0.497365,0.0446658,-2.14511,0.021346,1.64847,0.839877,-1.55505,-0.495408,0.0494174,-2.14717,0.0236028,1.65273,0.842915,0.228547,0.475914,0.894691,-0.920186,0.414745,1.38908,0.953222,0.24285,0.480091,0.930264,-0.949723,0.419649,1.45081,1.00028,8.24983,-0.659821,11.6434,12.5928,1.39009,1.62344,0.401194,1.02137,0.928125,1.86952,1.48659,0.908185,0.436923,0.333152
2226140,0.98,-1.55687,-0.49689,0.0455631,-2.14604,0.0217718,1.64993,0.84084,-1.5548,-0.494925,0.0503556,-2.14812,0.0240255,1.6542,0.843923,0.233086,0.474058,0.896558,-0.928633,0.417572,1.40502,0.975254,0.244179,0.483149,0.938197,-0.956965,0.422678,1.46144,1.00738,8.14668,-0.76297,11.5443,12.5928,1.43587,1.34054,0.479014,1.03049,0.848751,1.8764,1.53255,0.905141,0.446586,0.333164
2226141,0.98,-1.55665,-0.496413,0.0464728,-2.147,0.0222014,1.6514,0.841855,-1.55456,-0.494439,0.0513017,-2.14909,0.0244512,1.65567,0.844937,0.235133,0.474885,0.893171,-0.931063,0.41817,1.42135,0.982771,0.245507,0.486207,0.94613,-0.964207,0.425706,1.47208,1.01447,8.12288,-0.937531,11.4927,12.7674,1.50911,1.15377,0.297739,1.05469,0.782312,1.9065,1.57279,0.902113,0.455887,0.333622
2226142,0.98,-1.55642,-0.495936,0.0473967,-2.14796,0.0226317,1.65287,0.842867,-1.55431,-0.49395,0.0522558,-2.15006,0.0248799,1.65715,0.845959,0.231675,0.47594,0.903318,-0.932426,0.421103,1.43714,0.985687,0.246836,0.489265,0.954062,-0.97145,0.428734,1.48271,1.02157,8.14668,-0.913727,11.3142,12.7158,1.53749,0.882777,0.330698,1.09502,0.741973,1.96169,1.5971,0.899054,0.463145,0.334386
2226143,0.98,-1.55617,-0.495459,0.0483302,-2.14892,0.0230666,1.65435,0.8439,-1.55406,-0.493458,0.0532172,-2.15104,0.0253113,1.65864,0.846987,0.233631,0.485903,0.91403,-0.942286,0.424801,1.44245,1.00225,0.248062,0.491971,0.961445,-0.978056,0.431398,1.49236,1.02799,8.0713,-0.937531,11.2665,12.7158,1.65651,0.831508,0.116465,1.14649,0.724137,2.0336,1.60547,0.895957,0.46761,0.335299
2226144,0.98,-1.55592,-0.494975,0.0492845,-2.14989,0.0235094,1.65579,0.844957,-1.55381,-0.492963,0.0541861,-2.15202,0.0257454,1.66014,0.848021,0.241766,0.487568,0.920585,-0.946875,0.422436,1.4685,1.01108,0.249288,0.494677,0.968828,-0.984662,0.434063,1.50202,1.03442,7.76979,-0.989105,11.1634,12.7436,1.662,1.20504,-0.0968531,1.19992,0.715304,2.10833,1.60572,0.892864,0.469376,0.336165
2226145,0.98,-1.55568,-0.494475,0.0502296,-2.15085,0.0239485,1.65727,0.846003,-1.55356,-0.492466,0.0551623,-2.15301,0.0261821,1.66166,0.849062,0.239136,0.488686,0.935584,-0.955271,0.426797,1.46965,1.02012,0.250514,0.497384,0.976211,-0.991267,0.436727,1.51167,1.04085,7.79359,-1.16763,11.0602,12.569,1.62813,1.28836,-0.077627,1.24774,0.71326,2.17532,1.60053,0.889849,0.4685,0.336623
2226146,0.98,-1.55544,-0.493985,0.0512041,-2.15183,0.0243978,1.6588,0.847051,-1.55331,-0.491966,0.0561459,-2.15401,0.0266215,1.66318,0.850109,0.238519,0.488117,0.949872,-0.964821,0.430297,1.48363,1.02542,0.25174,0.50009,0.983594,-0.997873,0.439392,1.52133,1.04727,7.79359,-1.26682,10.8579,12.692,1.56587,1.12814,-0.0968531,1.2853,0.722825,2.22734,1.59015,0.886961,0.465617,0.336241
2226147,0.98,-1.55519,-0.493485,0.0521711,-2.15284,0.024841,1.66032,0.848104,-1.55306,-0.491463,0.0571368,-2.15501,0.0270636,1.66471,0.851163,0.243034,0.491635,0.939767,-0.972762,0.441889,1.50097,1.02196,0.252966,0.502796,0.990977,-1.00448,0.442056,1.53098,1.0537,7.71821,-1.46915,10.6556,12.9895,1.46425,0.986232,0.0322363,1.31601,0.743923,2.2692,1.57625,0.884349,0.461521,0.334726
2226148,0.98,-1.55492,-0.49298,0.0531529,-2.15385,0.0252797,1.66186,0.849164,-1.5528,-0.490957,0.0581352,-2.15603,0.0275083,1.66625,0.852223,0.253659,0.498045,0.944286,-0.985446,0.439493,1.50971,1.02362,0.254192,0.505503,0.99836,-1.01109,0.444721,1.54064,1.06013,7.4167,-1.64767,10.481,13.3387,1.45784,0.927638,0.0523779,1.34796,0.767824,2.31414,1.56329,0.88219,0.456766,0.332023
2226149,0.98,-1.55467,-0.492479,0.054144,-2.15486,0.0257368,1.66336,0.850265,-1.55255,-0.490449,0.0591409,-2.15704,0.0279557,1.6678,0.85329,0.252301,0.498406,0.954381,-0.99074,0.442982,1.49867,1.04244,0.255418,0.508209,1.00574,-1.01769,0.447385,1.55029,1.06656,7.28975,-1.79843,10.4056,13.6124,1.41847,1.33413,-0.116079,1.38114,0.785883,2.36286,1.5569,0.880341,0.451974,0.328345
2226150,0.98,-1.55442,-0.49196,0.055126,-2.15589,0.0261799,1.66488,0.851358,-1.55229,-0.489938,0.0601541,-2.15807,0.0284057,1.66936,0.854363,0.248735,0.503251,0.96845,-1.00464,0.443294,1.50642,1.05621,0.256644,0.510915,1.01313,-1.0243,0.45005,1.55995,1.07298,7.36512,-2.15152,10.3541,13.9338,1.46425,1.43667,-0.149038,1.4113,0.796864,2.40784,1.55968,0.8785,0.447727,0.323906
2226151,0.98,-1.55418,-0.491446,0.056129,-2.15693,0.026631,1.66643,0.852429,-1.55203,-0.489425,0.0611746,-2.1591,0.0288584,1.67093,0.855442,0.247795,0.508469,0.980561,-1.01371,0.444503,1.50704,1.05919,0.25787,0.513622,1.02051,-1.0309,0.452714,1.56961,1.07941,7.49208,-2.55618,10.3025,14.2075,1.48073,1.48153,-0.103262,1.43626,0.796537,2.444,1.57534,0.876583,0.44484,0.318741
2226152,0.98,-1.55392,-0.490925,0.0571289,-2.15797,0.0270919,1.66799,0.853506,-1.55177,-0.488908,0.0622025,-2.16014,0.0293138,1.67251,0.856528,0.247326,0.50738,1.0066,-1.01613,0.448728,1.52165,1.05504,0.259096,0.516328,1.02789,-1.03751,0.455379,1.57926,1.08584,7.54365,-2.78232,10.1517,14.2353,1.42397,1.36618,0.0459692,1.45011,0.786937,2.46186,1.60192,0.874398,0.443461,0.312886
2226153,0.98,-1.55365,-0.490412,0.0581382,-2.15899,0.0275633,1.66955,0.854555,-1.55151,-0.48839,0.0632372,-2.16118,0.0297715,1.6741,0.85762,0.258914,0.506164,1.01063,-1.02141,0.454551,1.52504,1.05108,0.260241,0.518686,1.03469,-1.04345,0.457681,1.58792,1.09158,7.31355,-2.83389,10.124,14.1837,1.27748,1.5209,0.42042,1.44501,0.783816,2.45081,1.62843,0.871513,0.442658,0.306518
2226154,0.98,-1.55337,-0.489897,0.0591623,-2.16002,0.0280384,1.67111,0.855652,-1.55125,-0.487869,0.0642786,-2.16223,0.0302315,1.67569,0.858717,0.265084,0.507884,1.01346,-1.01735,0.457269,1.52596,1.05742,0.261386,0.521044,1.04148,-1.0494,0.459983,1.59659,1.09732,7.08741,-2.98465,10.1517,13.9099,1.27199,1.75894,0.427744,1.42217,0.800484,2.41511,1.64444,0.867618,0.441492,0.30005
2226155,0.98,-1.55312,-0.489373,0.060198,-2.16106,0.0285022,1.67267,0.856752,-1.55099,-0.487345,0.0653269,-2.16328,0.0306938,1.6773,0.85982,0.261185,0.507812,1.03334,-1.01683,0.459735,1.53864,1.06579,0.262531,0.523402,1.04828,-1.05534,0.462285,1.60525,1.10306,7.1866,-3.1116,9.92163,13.537,1.28298,1.8688,0.49824,1.38779,0.843119,2.36497,1.64212,0.862531,0.439316,0.294075
2226156,0.98,-1.55287,-0.488844,0.0612586,-2.16208,0.0289629,1.67428,0.857843,-1.55073,-0.486819,0.066382,-2.16435,0.0311583,1.67891,0.860929,0.261303,0.514183,1.03688,-1.01866,0.462346,1.54809,1.06592,0.263676,0.52576,1.05508,-1.06128,0.464586,1.61391,1.10881,7.38893,-3.33774,9.51697,13.1641,1.40749,1.72048,0.44697,1.34663,0.908994,2.30626,1.61947,0.856286,0.436117,0.289092
2226157,0.98,-1.5526,-0.488309,0.062321,-2.16313,0.0294375,1.67587,0.858956,-1.55046,-0.486291,0.0674439,-2.16541,0.0316252,1.68053,0.862043,0.266671,0.517701,1.04874,-1.02073,0.463664,1.56459,1.07003,0.264821,0.528118,1.06187,-1.06722,0.466888,1.62258,1.11455,7.1866,-3.64322,9.23926,12.9895,1.43587,1.64907,0.356333,1.30357,0.986267,2.245,1.5812,0.84922,0.432478,0.285354
2226158,0.98,-1.5523,-0.487758,0.0633967,-2.16418,0.02992,1.6775,0.860045,-1.5502,-0.485761,0.0685125,-2.16649,0.0320944,1.68217,0.863164,0.277855,0.525106,1.06487,-1.02124,0.47003,1.58367,1.09989,0.265966,0.530476,1.06867,-1.07317,0.46919,1.63124,1.12029,6.65895,-4.04788,8.73145,12.9895,1.31685,1.50167,0.304148,1.25533,1.06453,2.17644,1.53169,0.841518,0.428666,0.282886
2226159,0.98,-1.55199,-0.487219,0.064483,-2.16525,0.0304093,1.67914,0.861166,-1.54993,-0.485228,0.069588,-2.16756,0.0325659,1.68381,0.86429,0.284487,0.527642,1.07176,-1.04272,0.476145,1.59639,1.10981,0.267111,0.532834,1.07546,-1.07911,0.471492,1.63991,1.12603,6.05195,-4.32559,8.45374,13.3387,1.25459,1.37899,0.143015,1.19501,1.1326,2.09096,1.4797,0.833301,0.425298,0.281499
2226160,0.98,-1.5517,-0.486662,0.0655661,-2.16632,0.0308896,1.68077,0.862311,-1.54966,-0.484693,0.0706703,-2.16865,0.0330397,1.68545,0.865421,0.28499,0.534853,1.07216,-1.04823,0.486993,1.61333,1.11862,0.268257,0.535192,1.08226,-1.08505,0.473794,1.64857,1.13177,5.84962,-4.75406,8.2276,13.4378,1.22621,1.33413,-0.0968531,1.12751,1.177,1.9956,1.43836,0.824985,0.423438,0.280827
2226161,0.98,-1.55144,-0.486115,0.0666708,-2.1674,0.0313765,1.68243,0.863422,-1.54939,-0.484155,0.0717593,-2.16974,0.0335158,1.68711,0.866559,0.277033,0.552411,1.08457,-1.06195,0.487789,1.62053,1.122,0.269402,0.53755,1.08906,-1.09099,0.476096,1.65723,1.13751,5.97657,-5.00797,7.9975,13.6878,1.20973,1.32131,-0.122488,1.06512,1.18045,1.90683,1.4186,0.817068,0.423706,0.280339
2226162,0.98,-1.55117,-0.485567,0.0677751,-2.1685,0.0318711,1.68405,0.864546,-1.54912,-0.483615,0.0728552,-2.17084,0.0339942,1.68878,0.867702,0.277282,0.550482,1.08576,-1.06978,0.479589,1.64558,1.11075,0.270547,0.539908,1.09585,-1.09694,0.478398,1.6659,1.14326,6.05195,-5.13492,7.9975,13.9338,1.17586,1.52731,-0.0712183,1.01615,1.133,1.83488,1.42547,0.809923,0.426097,0.279474
2226163,0.98,-1.55088,-0.485024,0.0688619,-2.16959,0.032353,1.68569,0.865679,-1.54885,-0.483073,0.0739572,-2.17194,0.0344745,1.69045,0.86885,0.276353,0.543498,1.08617,-1.10031,0.478836,1.64187,1.10418,0.271623,0.541922,1.10203,-1.1022,0.48034,1.67356,1.1483,6.02815,-5.15872,8.04908,14.2075,1.13008,1.71408,0.0258276,0.985188,1.05073,1.78618,1.45647,0.803801,0.430471,0.277848
2226164,0.98,-1.5506,-0.484494,0.0699474,-2.1707,0.0328544,1.68736,0.866802,-1.54858,-0.482529,0.0750654,-2.17305,0.0349568,1.69213,0.870004,0.278331,0.541733,1.08164,-1.10066,0.490929,1.63955,1.10996,0.272699,0.543936,1.1082,-1.10746,0.482283,1.68122,1.15335,5.95277,-5.00797,8.35456,14.3344,1.09621,1.85507,0.194285,0.975776,0.958654,1.767,1.50569,0.798656,0.437051,0.275337
2226165,0.98,-1.55033,-0.483944,0.0710377,-2.17183,0.0333483,1.68903,0.867941,-1.5483,-0.481983,0.0761798,-2.17416,0.035441,1.69382,0.871162,0.272091,0.541952,1.06568,-1.1063,0.489902,1.65131,1.11131,0.273776,0.54595,1.11437,-1.11272,0.484225,1.68888,1.1584,6.32966,-4.95639,8.58069,14.4336,1.10719,1.69485,0.323374,0.995584,0.875244,1.78985,1.56042,0.794198,0.445145,0.272042
2226166,0.98,-1.55008,-0.48339,0.0721676,-2.17293,0.0338468,1.69074,0.869072,-1.54803,-0.481435,0.0773003,-2.17528,0.0359272,1.69552,0.872326,0.261178,0.543302,1.07939,-1.1053,0.495797,1.65923,1.11328,0.274852,0.547964,1.12055,-1.11797,0.486167,1.69654,1.16345,6.86128,-5.03177,8.48151,14.4059,1.06783,1.43667,0.427744,1.05103,0.811022,1.86396,1.607,0.790184,0.453324,0.268293
2226167,0.98,-1.54982,-0.48283,0.0732909,-2.17405,0.0343332,1.69249,0.870235,-1.54775,-0.480886,0.078427,-2.1764,0.0364153,1.69722,0.873494,0.259669,0.551985,1.09174,-1.10243,0.489854,1.68458,1.12135,0.275928,0.549978,1.12672,-1.12323,0.48811,1.7042,1.16849,7.01204,-5.30948,8.55689,14.4336,1.16396,0.876368,0.349924,1.13224,0.766664,1.97337,1.63826,0.786177,0.460277,0.264611
2226168,0.98,-1.54952,-0.482273,0.0743923,-2.17518,0.0348097,1.6942,0.871435,-1.54747,-0.480334,0.0795599,-2.17753,0.0369054,1.69893,0.874668,0.269765,0.548718,1.09183,-1.1088,0.486913,1.69323,1.13695,0.277004,0.551992,1.13289,-1.12849,0.490052,1.71187,1.17354,6.7859,-5.48801,8.6045,14.5566,1.24361,0.663966,0.0258276,1.22183,0.740149,2.0929,1.65154,0.781691,0.464735,0.261451
2226169,0.98,-1.54924,-0.481729,0.0755311,-2.17629,0.0353102,1.69588,0.872608,-1.5472,-0.47978,0.080699,-2.17866,0.0373974,1.70065,0.875846,0.272324,0.546414,1.10377,-1.11206,0.491513,1.6782,1.1378,0.278081,0.554006,1.13907,-1.13375,0.491995,1.71953,1.17859,6.58357,-5.63876,8.40216,14.7074,1.27199,0.954188,-0.219534,1.30714,0.735461,2.20611,1.64772,0.776503,0.466072,0.258877
2226170,0.98,-1.54896,-0.481173,0.0766814,-2.17741,0.0357929,1.69758,0.873802,-1.54692,-0.479223,0.0818442,-2.1798,0.0378913,1.70238,0.87703,0.275536,0.550891,1.12155,-1.10497,0.48551,1.67618,1.14451,0.279157,0.55602,1.14524,-1.13901,0.493937,1.72719,1.18364,6.48042,-5.78952,8.25141,14.5804,1.43038,0.960597,-0.426443,1.3765,0.756691,2.29734,1.62724,0.77045,0.464112,0.256521
