shamilmamedov/beam_handling/log/vibration_suppression_ICRA/jsZVIS_T3_0.99s.csv
duration, success rate, q[0], q[1], q[2], q[3], q[4], q[5], q[6],q_d[0], q_d[1], q_d[2], q_d[3], q_d[4], q_d[5], q_d[6],dq[0], dq[1], dq[2], dq[3], dq[4], dq[5], dq[6],dq_d[0], dq_d[1], dq_d[2], dq_d[3], dq_d[4], dq_d[5], dq_d[6],tau_J[0], tau_J[1], tau_J[2], tau_J[3], tau_J[4], tau_J[5], tau_J[6],tau_ext_hat_filtered[0], tau_ext_hat_filtered[1], tau_ext_hat_filtered[2], tau_ext_hat_filtered[3], tau_ext_hat_filtered[4], tau_ext_hat_filtered[5], tau_ext_hat_filtered[6]
2326445,0,-1.57086,-0.523165,-2.28787e-05,-2.09595,1.56981,1.57022,0.785731,-1.5708,-0.523599,7.90712e-08,-2.09439,1.5708,1.5708,0.785398,-0.000652223,0.0011329,-0.000325025,-0.00137905,-0.000515888,0.000238695,0.0012956,0,0,0,0,0,0,0,0.101024,-9.91153,-0.432981,20.9439,1.32784,0.438746,-0.278127,0.0772559,-0.735027,-0.0410327,2.36361,0.748443,0.444161,-0.196456
2326446,1,-1.57086,-0.523172,-2.14583e-05,-2.09595,1.56981,1.57022,0.785729,-1.5708,-0.523599,7.90712e-08,-2.09439,1.5708,1.5708,0.785398,-0.000434815,-0.00165759,-0.000216683,-0.000362555,-0.000343925,-7.82292e-05,0.000151654,0,0,0,0,0,0,0,0.101024,-9.80838,-0.432981,20.9201,1.32784,0.445155,-0.258901,0.0783141,-0.738009,-0.0398366,2.36494,0.748443,0.443951,-0.196366
2326447,1,-1.57086,-0.523168,-2.14449e-05,-2.09595,1.56981,1.57022,0.78573,-1.5708,-0.523599,7.90712e-08,-2.09439,1.5708,1.5708,0.785398,-0.000289877,-0.000455444,0.000412357,0.000871921,-2.58329e-05,-5.21528e-05,0.000338462,0,0,0,0,0,0,0,0.101024,-9.83615,-0.456784,20.8725,1.32234,0.445155,-0.26531,0.0794949,-0.737831,-0.0385126,2.36514,0.748424,0.443772,-0.196342
2326448,1,-1.57086,-0.523166,-2.15372e-05,-2.09595,1.56981,1.57022,0.785729,-1.5708,-0.523599,7.90712e-08,-2.09439,1.5708,1.5708,0.785398,0.000456363,0.000253183,-0.000281908,2.44685e-05,0.000389679,-3.47685e-05,-1.17179e-05,0,0,0,0,0,0,0,0.0732535,-9.85995,-0.432981,20.8963,1.31136,0.445155,-0.258901,0.0802147,-0.735199,-0.0378689,2.36393,0.748393,0.443698,-0.19639
2326449,1,-1.57086,-0.52317,-2.31416e-05,-2.09595,1.56981,1.57022,0.785726,-1.5708,-0.523599,7.90712e-08,-2.09439,1.5708,1.5708,0.785398,-0.000345372,-0.000388024,-0.000187938,1.63123e-05,5.63355e-05,0.000451539,-0.000991156,0,0,0,0,0,0,0,0.101024,-9.83615,-0.432981,20.8963,1.31685,0.432338,-0.232351,0.080687,-0.73312,-0.0375326,2.36286,0.748389,0.443659,-0.196509
2326450,1,-1.57086,-0.52317,-2.2006e-05,-2.09596,1.56981,1.57022,0.785725,-1.5708,-0.523599,7.90712e-08,-2.09439,1.5708,1.5708,0.785398,-0.000230248,-0.000258682,0.00043152,-0.00175236,3.7557e-05,6.3667e-05,-0.00113549,0,0,0,0,0,0,0,0.101024,-9.83615,-0.456784,20.9717,1.31685,0.438746,-0.219534,0.0811561,-0.732065,-0.0372315,2.36269,0.748431,0.443612,-0.196678
2326451,1,-1.57086,-0.523169,-2.00538e-05,-2.09595,1.56981,1.57022,0.785725,-1.5708,-0.523599,7.90712e-08,-2.09439,1.5708,1.5708,0.785398,0.000496115,0.000384357,0.00028768,0.00115181,-0.000381863,-0.000194914,-0.000756992,0,0,0,0,0,0,0,0.0732535,-9.85995,-0.456784,20.8725,1.32784,0.445155,-0.219534,0.0812195,-0.732054,-0.0376169,2.36338,0.748526,0.44361,-0.19685
2326452,1,-1.57086,-0.523165,-2.46927e-05,-2.09595,1.56981,1.57022,0.785725,-1.5708,-0.523599,7.90712e-08,-2.09439,1.5708,1.5708,0.785398,-0.00031887,0.000905852,-0.00157145,0.00021106,0.000152326,0.000107416,-0.000267303,0,0,0,0,0,0,0,0.101024,-9.88773,-0.381406,20.8963,1.31685,0.438746,-0.225942,0.0813258,-0.733064,-0.0378626,2.36416,0.748614,0.443574,-0.196973
2326453,1,-1.57086,-0.523172,-2.29871e-05,-2.09595,1.56981,1.57022,0.785725,-1.5708,-0.523599,7.90712e-08,-2.09439,1.5708,1.5708,0.785398,0.000437034,-0.00125214,0.000158792,0.000140707,-0.000305351,-0.000403107,-0.000178202,0,0,0,0,0,0,0,0.0732535,-9.80838,-0.432981,20.8963,1.32784,0.451564,-0.225942,0.0820876,-0.733875,-0.0369659,2.36443,0.748655,0.443433,-0.197024
2326454,1,-1.57086,-0.52317,-2.14944e-05,-2.09595,1.56981,1.57022,0.785727,-1.5708,-0.523599,7.90712e-08,-2.09439,1.5708,1.5708,0.785398,-0.000358258,-0.000185145,0.000105861,-0.000463008,0.000203334,-3.13792e-05,0.000355917,0,0,0,0,0,0,0,0.101024,-9.83615,-0.432981,20.9201,1.31685,0.445155,-0.23876,0.0827207,-0.732922,-0.0362151,2.36402,0.748686,0.443338,-0.196999
2326455,1,-1.57086,-0.523169,-1.73776e-05,-2.09595,1.56981,1.57022,0.785728,-1.5708,-0.523599,7.90712e-08,-2.09439,1.5708,1.5708,0.785398,0.000967587,0.000433382,0.001277,0.000804952,-0.000271345,-0.000258278,0.000508545,0,0,0,0,0,0,0,0.0494498,-9.85995,-0.484555,20.8725,1.32784,0.451564,-0.246084,0.0823456,-0.731489,-0.037028,2.3635,0.748764,0.443407,-0.196909
2326456,1,-1.57086,-0.523168,-2.0831e-05,-2.09595,1.56981,1.57022,0.785727,-1.5708,-0.523599,7.90712e-08,-2.09439,1.5708,1.5708,0.785398,-0.000561368,-0.000267891,-0.000355093,0.000536635,0.000226004,0.000302532,0.00128847,0,0,0,0,0,0,0,0.101024,-9.83615,-0.432981,20.8725,1.31685,0.438746,-0.271719,0.0812058,-0.730564,-0.0390169,2.36297,0.748879,0.443587,-0.196779
2326457,1,-1.57086,-0.523166,-1.91053e-05,-2.09595,1.5698,1.57022,0.785726,-1.5708,-0.523599,7.90712e-08,-2.09439,1.5708,1.5708,0.785398,-0.000374245,0.00102783,0.000320084,0.000357757,-0.00049359,0.000439047,-9.04585e-05,0,0,0,0,0,0,0,0.101024,-9.88773,-0.456784,20.8725,1.33425,0.432338,-0.246084,0.0805077,-0.730229,-0.0403842,2.36242,0.748988,0.443694,-0.196651
2326458,1,-1.57086,-0.523169,-1.7138e-05,-2.09595,1.56981,1.57022,0.785732,-1.5708,-0.523599,7.90712e-08,-2.09439,1.5708,1.5708,0.785398,0.000400117,3.56075e-05,0.000863003,-0.000318308,0.000111749,-0.00018202,0.00160121,0,0,0,0,0,0,0,0.0732535,-9.85995,-0.484555,20.8963,1.32234,0.445155,-0.290945,0.0801406,-0.731431,-0.0413423,2.36265,0.749129,0.443729,-0.196561
2326459,1,-1.57086,-0.523169,-1.90807e-05,-2.09595,1.56981,1.57022,0.785728,-1.5708,-0.523599,7.90712e-08,-2.09439,1.5708,1.5708,0.785398,0.000823557,2.37383e-05,-7.42786e-05,-0.000769017,7.44995e-05,0.000353371,-0.000356682,0,0,0,0,0,0,0,0.0494498,-9.85995,-0.456784,20.9201,1.32234,0.432338,-0.252493,0.0792623,-0.733519,-0.0430716,2.36369,0.749336,0.443826,-0.196535
2326460,1,-1.57086,-0.523171,-1.71298e-05,-2.09595,1.56981,1.57022,0.78573,-1.5708,-0.523599,7.90712e-08,-2.09439,1.5708,1.5708,0.785398,-7.77415e-06,-0.000540986,0.000600095,-0.000512678,0.000253117,0.000235581,0.000474289,0,0,0,0,0,0,0,0.0732535,-9.83615,-0.484555,20.9201,1.31685,0.432338,-0.271719,0.0781705,-0.735158,-0.0450566,2.36498,0.749571,0.44395,-0.196594
2326461,1,-1.57086,-0.523169,-1.9078e-05,-2.09595,1.56981,1.57022,0.785728,-1.5708,-0.523599,7.90712e-08,-2.09439,1.5708,1.5708,0.785398,-0.000654797,-0.000360658,-0.000249551,0.000215027,0.000168745,-0.000317664,-0.000395884,0,0,0,0,0,0,0,0.101024,-9.83615,-0.456784,20.8963,1.31685,0.445155,-0.252493,0.0775504,-0.73539,-0.0463532,2.36573,0.749774,0.444003,-0.196733
2326462,1,-1.57086,-0.523166,-1.90778e-05,-2.09595,1.56981,1.57022,0.785732,-1.5708,-0.523599,7.90712e-08,-2.09439,1.5708,1.5708,0.785398,-0.000436531,0.000316374,-0.000166367,-0.000413461,0.000519397,-0.000449135,0.000922872,0,0,0,0,0,0,0,0.101024,-9.85995,-0.456784,20.9201,1.30586,0.451564,-0.284536,0.077889,-0.734809,-0.0462773,2.36594,0.749912,0.443906,-0.19694
2326463,1,-1.57086,-0.523168,-2.24186e-05,-2.09595,1.56981,1.57022,0.785728,-1.5708,-0.523599,7.90712e-08,-2.09439,1.5708,1.5708,0.785398,0.000915405,0.000210916,-0.00122454,0.000837983,-0.000264087,-6.20643e-05,-0.000571547,0,0,0,0,0,0,0,0.0494498,-9.85995,-0.409177,20.8725,1.32234,0.445155,-0.252493,0.0789838,-0.734693,-0.0449878,2.36609,0.74999,0.443687,-0.197206
2326464,1,-1.57086,-0.523169,-2.28786e-05,-2.09595,1.56981,1.57022,0.785728,-1.5708,-0.523599,7.90712e-08,-2.09439,1.5708,1.5708,0.785398,5.34581e-05,0.00014061,-0.000259545,1.84359e-06,-0.000176058,-4.13762e-05,-0.000381031,0,0,0,0,0,0,0,0.0732535,-9.85995,-0.432981,20.8963,1.32234,0.445155,-0.252493,0.0802799,-0.734803,-0.043183,2.366,0.750015,0.443437,-0.197525
2326465,1,-1.57086,-0.523172,-2.31287e-05,-2.09595,1.56981,1.57022,0.785722,-1.5708,-0.523599,7.90712e-08,-2.09439,1.5708,1.5708,0.785398,-0.000613975,-0.00111269,-0.000729842,1.22906e-06,8.60787e-05,-0.000264943,-0.0021868,0,0,0,0,0,0,0,0.101024,-9.80838,-0.409177,20.8963,1.31685,0.451564,-0.200308,0.0816903,-0.733993,-0.041106,2.36538,0.750002,0.443191,-0.197876
2326466,1,-1.57086,-0.523169,-2.14449e-05,-2.09595,1.5698,1.57022,0.785727,-1.5708,-0.523599,7.90712e-08,-2.09439,1.5708,1.5708,0.785398,0.000797109,0.000464636,0.000627063,0.000557631,-0.000586874,0.000298089,-3.37135e-05,0,0,0,0,0,0,0,0.0494498,-9.85995,-0.456784,20.8725,1.33425,0.438746,-0.23876,0.0828339,-0.732017,-0.0394324,2.36425,0.749981,0.443012,-0.19821
2326467,1,-1.57086,-0.523167,-2.51565e-05,-2.09595,1.56981,1.57022,0.785722,-1.5708,-0.523599,7.90712e-08,-2.09439,1.5708,1.5708,0.785398,-2.54059e-05,0.000959371,-0.0013452,0.00735979,4.956e-05,0.000198726,-0.00168399,0,0,0,0,0,0,0,0.0732535,-9.88773,-0.381406,20.8448,1.32234,0.438746,-0.193899,0.0833932,-0.728649,-0.0384996,2.36104,0.7499,0.442926,-0.198465
2326468,1,-1.57086,-0.523169,-1.73918e-05,-2.09595,1.56981,1.57022,0.785728,-1.5708,-0.523599,7.90712e-08,-2.09439,1.5708,1.5708,0.785398,0.00109669,-1.00333e-05,0.00151605,0.00367149,0.000439941,-0.000104875,0.000810121,0,0,0,0,0,0,0,0.0256461,-9.85995,-0.484555,20.9201,1.31136,0.445155,-0.246084,0.0832877,-0.722347,-0.0383211,2.35378,0.749685,0.442941,-0.198598
2326469,1,-1.57086,-0.523169,-1.91653e-05,-2.09595,1.56981,1.57022,0.785728,-1.5708,-0.523599,7.90712e-08,-2.09439,1.5708,1.5708,0.785398,0.000174312,-6.68887e-06,0.000361089,0.00340062,8.98435e-05,-6.99166e-05,0.00077744,0,0,0,0,0,0,0,0.0494498,-9.85995,-0.456784,20.8963,1.31685,0.445155,-0.252493,0.0819049,-0.714042,-0.0399481,2.3446,0.749447,0.443154,-0.198612
2326470,1,-1.57086,-0.523169,-1.7158e-05,-2.09595,1.56981,1.57022,0.785727,-1.5708,-0.523599,7.90712e-08,-2.09439,1.5708,1.5708,0.785398,-0.000440604,-0.000561271,0.00089034,0.0025642,5.98957e-05,0.000190748,9.66681e-06,0,0,0,0,0,0,0,0.0732535,-9.83615,-0.484555,20.8963,1.31685,0.438746,-0.23876,0.0798513,-0.705862,-0.0426413,2.33628,0.749268,0.443466,-0.198546
2326471,1,-1.57086,-0.523166,-1.90874e-05,-2.09595,1.56981,1.57022,0.785731,-1.5708,-0.523599,7.90712e-08,-2.09439,1.5708,1.5708,0.785398,-0.00094335,0.000832245,-5.6054e-05,0.00313873,0.000243381,0.000127165,0.00146451,0,0,0,0,0,0,0,0.101024,-9.88773,-0.456784,20.8448,1.31136,0.438746,-0.278127,0.0784454,-0.699131,-0.0445135,2.32966,0.749129,0.443666,-0.19845
2326472,1,-1.57086,-0.523167,-2.07513e-05,-2.09595,1.56981,1.57022,0.785729,-1.5708,-0.523599,7.90712e-08,-2.09439,1.5708,1.5708,0.785398,-0.0006289,0.00055483,-0.000594181,0.00105318,-4.11965e-05,-0.000152582,0.000264261,0,0,0,0,0,0,0,0.101024,-9.88773,-0.432981,20.8963,1.31685,0.445155,-0.258901,0.0783371,-0.69595,-0.0445721,2.3258,0.749034,0.443636,-0.198362
2326473,1,-1.57086,-0.523165,-2.24196e-05,-2.09595,1.56981,1.57022,0.785728,-1.5708,-0.523599,7.90712e-08,-2.09439,1.5708,1.5708,0.785398,0.000230347,0.000926699,-0.000952933,0.00203389,-0.000230915,0.000135638,-0.000298544,0,0,0,0,0,0,0,0.0732535,-9.91153,-0.409177,20.8448,1.32234,0.438746,-0.246084,0.0794236,-0.696947,-0.0428314,2.32505,0.748992,0.443392,-0.19832
2326474,1,-1.57086,-0.523167,-2.45494e-05,-2.09595,1.56981,1.57022,0.785725,-1.5708,-0.523599,7.90712e-08,-2.09439,1.5708,1.5708,0.785398,0.000153565,6.09872e-05,-0.000635289,0.000800323,-0.000153943,9.0425e-05,-0.000945015,0,0,0,0,0,0,0,0.0732535,-9.88773,-0.409177,20.8725,1.32234,0.438746,-0.225942,0.0809363,-0.700453,-0.0403317,2.32642,0.749002,0.443067,-0.198334
2326475,1,-1.57086,-0.523171,-1.9788e-05,-2.09595,1.56981,1.57022,0.785725,-1.5708,-0.523599,7.90712e-08,-2.09439,1.5708,1.5708,0.785398,0.000102377,-0.00116577,0.000690098,0.000604055,0.000304272,-0.000414435,-0.00063001,0,0,0,0,0,0,0,0.0732535,-9.83615,-0.456784,20.8725,1.31136,0.451564,-0.225942,0.0819466,-0.703711,-0.0385354,2.32854,0.749063,0.442836,-0.198374
2326476,1,-1.57086,-0.523169,-1.93144e-05,-2.09595,1.56981,1.57022,0.785722,-1.5708,-0.523599,7.90712e-08,-2.09439,1.5708,1.5708,0.785398,0.000625063,-0.000220367,0.000460065,-0.00065804,-6.02384e-07,0.000435787,-0.00136944,0,0,0,0,0,0,0,0.0494498,-9.85995,-0.456784,20.9201,1.31685,0.432338,-0.200308,0.0817247,-0.705773,-0.0386534,2.33108,0.749199,0.442821,-0.198403
2326477,1,-1.57086,-0.523169,-2.24974e-05,-2.09595,1.56981,1.57022,0.785726,-1.5708,-0.523599,7.90712e-08,-2.09439,1.5708,1.5708,0.785398,-0.000140103,-0.000146911,-0.000806914,0.000157778,0.000203049,-0.000184193,0.000273833,0,0,0,0,0,0,0,0.0732535,-9.85995,-0.409177,20.8963,1.31136,0.445155,-0.232351,0.0809069,-0.708346,-0.0396773,2.33463,0.749396,0.442898,-0.198385
2326478,1,-1.57086,-0.523171,-1.9104e-05,-2.09595,1.56981,1.57022,0.78572,-1.5708,-0.523599,7.90712e-08,-2.09439,1.5708,1.5708,0.785398,-0.000743016,-0.000654753,0.000575682,0.000691742,-6.80846e-05,-0.000360154,-0.00171632,0,0,0,0,0,0,0,0.101024,-9.83615,-0.456784,20.8725,1.31685,0.451564,-0.181082,0.0805296,-0.711223,-0.0400395,2.33842,0.749575,0.442905,-0.198291
2326479,1,-1.57086,-0.523167,-2.07569e-05,-2.09595,1.56981,1.57022,0.785728,-1.5708,-0.523599,7.90712e-08,-2.09439,1.5708,1.5708,0.785398,0.00015427,0.00012031,-0.000173024,-7.33417e-05,-0.00024884,0.000471974,0.00126329,0,0,0,0,0,0,0,0.0732535,-9.85995,-0.432981,20.8963,1.32234,0.432338,-0.246084,0.0804326,-0.713576,-0.0400599,2.34168,0.749714,0.442876,-0.198104
2326480,1,-1.57086,-0.523168,-2.0751e-05,-2.09595,1.56981,1.57022,0.785727,-1.5708,-0.523599,7.90712e-08,-2.09439,1.5708,1.5708,0.785398,0.000102847,-0.000476605,-0.00011535,0.000524649,3.7557e-05,-0.000160069,0.000570924,0,0,0,0,0,0,0,0.0732535,-9.83615,-0.432981,20.8725,1.31685,0.445155,-0.23876,0.080295,-0.716,-0.0401505,2.34473,0.749836,0.442851,-0.197824
2326481,1,-1.57086,-0.523168,-1.90786e-05,-2.09595,1.56981,1.57022,0.785731,-1.5708,-0.523599,7.90712e-08,-2.09439,1.5708,1.5708,0.785398,-0.00058105,0.000239075,0.000479912,-0.00130812,0.000228489,-0.000344071,0.00183868,0,0,0,0,0,0,0,0.101024,-9.85995,-0.456784,20.9439,1.31136,0.451564,-0.278127,0.0801187,-0.719024,-0.040306,2.34805,0.749963,0.442826,-0.197488
2326482,1,-1.57086,-0.523169,-2.24189e-05,-2.09595,1.56981,1.57022,0.785723,-1.5708,-0.523599,7.90712e-08,-2.09439,1.5708,1.5708,0.785398,0.000262248,0.000159383,-0.000793682,0.000807766,-5.11248e-05,7.97805e-06,-0.000469636,0,0,0,0,0,0,0,0.0732535,-9.85995,-0.409177,20.8725,1.31685,0.445155,-0.232351,0.0800596,-0.723104,-0.0403302,2.35188,0.750098,0.442781,-0.197159
2326483,1,-1.57086,-0.523167,-2.07482e-05,-2.09595,1.56981,1.57022,0.785729,-1.5708,-0.523599,7.90712e-08,-2.09439,1.5708,1.5708,0.785398,0.00128846,0.000106256,2.76904e-05,0.00054557,-3.40832e-05,5.3187e-06,0.00114497,0,0,0,0,0,0,0,0.0256461,-9.85995,-0.432981,20.8725,1.31685,0.445155,-0.271719,0.0799539,-0.727142,-0.0402878,2.35519,0.750198,0.442749,-0.196876
2326484,1,-1.57086,-0.523172,-2.07481e-05,-2.09595,1.56981,1.57022,0.785725,-1.5708,-0.523599,7.90712e-08,-2.09439,1.5708,1.5708,0.785398,-0.000254653,-0.00113559,1.84602e-05,0.000369007,-2.27221e-05,3.5458e-06,-0.000932107,0,0,0,0,0,0,0,0.0732535,-9.80838,-0.432981,20.8725,1.31685,0.445155,-0.225942,0.079398,-0.72924,-0.0407378,2.35699,0.750247,0.442808,-0.196653
2326485,1,-1.57086,-0.523169,-2.07481e-05,-2.09595,1.56981,1.57022,0.785724,-1.5708,-0.523599,7.90712e-08,-2.09439,1.5708,1.5708,0.785398,-0.000169769,0.000449367,1.23068e-05,0.000249975,-0.000218599,0.000239723,-0.000858763,0,0,0,0,0,0,0,0.0732535,-9.85995,-0.432981,20.8725,1.32234,0.438746,-0.219534,0.0788091,-0.729621,-0.0412255,2.35773,0.750263,0.442894,-0.196489
2326486,1,-1.57086,-0.52317,-2.07481e-05,-2.09595,1.56981,1.57022,0.785728,-1.5708,-0.523599,7.90712e-08,-2.09439,1.5708,1.5708,0.785398,0.000443633,-0.000906848,8.20455e-06,0.000169628,-0.000145732,0.000159815,0.000410835,0,0,0,0,0,0,0,0.0494498,-9.80838,-0.432981,20.8725,1.32234,0.438746,-0.246084,0.0784105,-0.72965,-0.0414431,2.35818,0.750272,0.44295,-0.196359
2326487,1,-1.57086,-0.523168,-1.90777e-05,-2.09595,1.56981,1.57022,0.785725,-1.5708,-0.523599,7.90712e-08,-2.09439,1.5708,1.5708,0.785398,0.000295755,0.00060186,0.000562282,-0.000441493,-9.71549e-05,-0.000130815,-0.000472095,0,0,0,0,0,0,0,0.0494498,-9.85995,-0.456784,20.8963,1.32234,0.445155,-0.225942,0.0777055,-0.730061,-0.042078,2.35885,0.75031,0.443037,-0.196233
2326488,1,-1.57086,-0.523169,-2.24185e-05,-2.09595,1.56981,1.57022,0.785722,-1.5708,-0.523599,7.90712e-08,-2.09439,1.5708,1.5708,0.785398,0.00019717,0.00040124,-0.000738769,-0.000849466,0.000138681,-8.72103e-05,-0.00126417,0,0,0,0,0,0,0,0.0494498,-9.85995,-0.409177,20.9201,1.31685,0.445155,-0.200308,0.076845,-0.732379,-0.0428785,2.36066,0.750407,0.443116,-0.196106
2326489,1,-1.57086,-0.523169,-2.12082e-05,-2.09595,1.56981,1.57022,0.785725,-1.5708,-0.523599,7.90712e-08,-2.09439,1.5708,1.5708,0.785398,-0.000425365,0.000267494,0.000621111,0.00054857,-0.000110997,-0.000295499,0.000106659,0,0,0,0,0,0,0,0.0732535,-9.85995,-0.456784,20.8725,1.32234,0.451564,-0.225942,0.0763242,-0.736361,-0.0431127,2.36332,0.750532,0.443118,-0.195959
2326490,1,-1.57086,-0.523169,-1.97878e-05,-2.09595,1.56981,1.57022,0.78572,-1.5708,-0.523599,7.90712e-08,-2.09439,1.5708,1.5708,0.785398,0.000273235,0.000178329,0.000414074,0.000366655,-7.39979e-05,4.03595e-05,-0.000640971,0,0,0,0,0,0,0,0.0494498,-9.85995,-0.456784,20.8725,1.32234,0.445155,-0.206716,0.0757859,-0.739747,-0.0433912,2.36532,0.750641,0.443125,-0.195758
2326491,1,-1.57086,-0.523165,-2.09848e-05,-2.09595,1.56981,1.57022,0.785726,-1.5708,-0.523599,7.90712e-08,-2.09439,1.5708,1.5708,0.785398,0.000182157,0.0007685,-0.000280763,0.000245144,0.000154119,0.000501624,0.00103075,0,0,0,0,0,0,0,0.0494498,-9.88773,-0.432981,20.8725,1.31685,0.432338,-0.246084,0.0750568,-0.742467,-0.0439421,2.36656,0.750736,0.443163,-0.195494
2326492,1,-1.57086,-0.523166,-1.91566e-05,-2.09595,1.56981,1.57022,0.785726,-1.5708,-0.523599,7.90712e-08,-2.09439,1.5708,1.5708,0.785398,-0.000435374,0.000512333,0.000369637,-0.000392853,0.000102746,-0.000140302,0.00139924,0,0,0,0,0,0,0,0.0732535,-9.88773,-0.456784,20.8963,1.31685,0.445155,-0.26531,0.0745642,-0.745686,-0.0441028,2.36792,0.750828,0.443153,-0.195185
2326493,1,-1.57086,-0.523169,-2.24448e-05,-2.09595,1.56981,1.57022,0.785727,-1.5708,-0.523599,7.90712e-08,-2.09439,1.5708,1.5708,0.785398,0.000266563,-0.000308058,-0.000867199,0.000944921,0.000475398,0.000381183,0.00045811,0,0,0,0,0,0,0,0.0494498,-9.85995,-0.409177,20.8448,1.30586,0.432338,-0.252493,0.074514,-0.748398,-0.0435758,2.36895,0.75089,0.443073,-0.194874
2326494,1,-1.57086,-0.523167,-2.07569e-05,-2.09595,1.56981,1.57022,0.785729,-1.5708,-0.523599,7.90712e-08,-2.09439,1.5708,1.5708,0.785398,-0.00102872,-0.000205372,-2.13209e-05,-0.00057618,0.000113482,-0.000220596,0.000542766,0,0,0,0,0,0,0,0.101024,-9.85995,-0.432981,20.8963,1.31136,0.445155,-0.258901,0.0750628,-0.749041,-0.0421121,2.36887,0.750881,0.44292,-0.194609
2326495,1,-1.57086,-0.52317,-2.0751e-05,-2.09595,1.56981,1.57022,0.78573,-1.5708,-0.523599,7.90712e-08,-2.09439,1.5708,1.5708,0.785398,-3.61977e-05,-0.000693727,-1.4214e-05,-0.00149752,7.56544e-05,-0.000384423,0.000599203,0,0,0,0,0,0,0,0.0732535,-9.83615,-0.432981,20.9439,1.31136,0.451564,-0.26531,0.0759293,-0.748534,-0.0402426,2.36865,0.750844,0.442736,-0.194418
2326496,0.99,-1.57086,-0.523165,-1.71298e-05,-2.09595,1.56981,1.57022,0.785724,-1.5708,-0.523599,7.90712e-08,-2.09439,1.5708,1.5708,0.785398,-2.41318e-05,0.00130075,0.00119695,0.000672257,-0.000356465,0.000455795,-0.000312608,0,0,0,0,0,0,0,0.0732535,-9.91153,-0.484555,20.8725,1.32234,0.432338,-0.246084,0.0761709,-0.748709,-0.0394554,2.3692,0.750844,0.442644,-0.194313
2326497,0.99,-1.57086,-0.523167,-2.07484e-05,-2.09595,1.56981,1.57021,0.785723,-1.5708,-0.523599,7.90712e-08,-2.09439,1.5708,1.5708,0.785398,-0.000665702,-0.000339257,-0.000408459,-0.000108515,-0.000441094,-0.000170855,-0.00142911,0,0,0,0,0,0,0,0.101024,-9.85995,-0.432981,20.8963,1.32784,0.445155,-0.213125,0.0757708,-0.749804,-0.0397757,2.36989,0.750862,0.442637,-0.194287
2326498,0.99,-1.57086,-0.523168,-1.90778e-05,-2.09595,1.56981,1.57022,0.785726,-1.5708,-0.523599,7.90712e-08,-2.09439,1.5708,1.5708,0.785398,0.000205813,-0.000782983,0.000284506,0.000484563,0.000112839,-0.000588621,-0.000240662,0,0,0,0,0,0,0,0.0732535,-9.83615,-0.456784,20.8725,1.31685,0.457972,-0.232351,0.075475,-0.749535,-0.0400268,2.36958,0.750839,0.442637,-0.194307
2326499,0.99,-1.57086,-0.523168,-1.92594e-05,-2.09595,1.56981,1.57022,0.785722,-1.5708,-0.523599,7.90712e-08,-2.09439,1.5708,1.5708,0.785398,-0.000512405,-0.000521989,0.000839284,0.000323113,7.52257e-05,8.23039e-05,-0.0015846,0,0,0,0,0,0,0,0.101024,-9.83615,-0.484555,20.8725,1.31685,0.445155,-0.193899,0.0750593,-0.746605,-0.040548,2.3678,0.750777,0.442706,-0.194324
2326500,0.99,-1.57086,-0.52317,-2.14583e-05,-2.09595,1.56981,1.57021,0.785725,-1.5708,-0.523599,7.90712e-08,-2.09439,1.5708,1.5708,0.785398,-0.000341604,-0.000347993,-0.000646903,-0.00145497,5.01505e-05,-0.000419849,0.000130398,0,0,0,0,0,0,0,0.101024,-9.83615,-0.432981,20.9439,1.31685,0.457972,-0.225942,0.0746489,-0.743114,-0.0412294,2.36592,0.750724,0.442812,-0.194302
2326501,0.99,-1.57086,-0.523168,-1.93144e-05,-2.09595,1.56981,1.57022,0.785727,-1.5708,-0.523599,7.90712e-08,-2.09439,1.5708,1.5708,0.785398,0.00097869,-0.000231995,0.000125543,0.000143681,3.34337e-05,0.000432178,0.00056165,0,0,0,0,0,0,0,0.0494498,-9.83615,-0.456784,20.8963,1.31685,0.438746,-0.23876,0.0745808,-0.74086,-0.0414606,2.36509,0.750698,0.442887,-0.194217
2326502,0.99,-1.57086,-0.523166,-1.91566e-05,-2.09595,1.56981,1.57022,0.785727,-1.5708,-0.523599,7.90712e-08,-2.09439,1.5708,1.5708,0.785398,0.00065246,0.00105176,8.36956e-05,9.5817e-05,-0.000181161,5.07596e-05,0.000374433,0,0,0,0,0,0,0,0.0494498,-9.88773,-0.456784,20.8963,1.32234,0.445155,-0.23876,0.0741927,-0.74027,-0.0421057,2.36504,0.7507,0.443006,-0.194068
2326503,0.99,-1.57086,-0.523169,-2.07744e-05,-2.09595,1.56981,1.57022,0.785728,-1.5708,-0.523599,7.90712e-08,-2.09439,1.5708,1.5708,0.785398,-0.000121839,5.15611e-05,-0.000501015,-0.00104972,0.000286127,3.38397e-05,0.00052089,0,0,0,0,0,0,0,0.0732535,-9.85995,-0.432981,20.9439,1.31136,0.445155,-0.246084,0.0736446,-0.741838,-0.042947,2.36592,0.750733,0.443126,-0.193889
2326504,0.99,-1.57086,-0.523172,-1.90864e-05,-2.09595,1.56981,1.57022,0.78573,-1.5708,-0.523599,7.90712e-08,-2.09439,1.5708,1.5708,0.785398,-8.12257e-05,-0.00117205,0.000222802,-0.000142987,-0.00021615,0.000259919,0.0012967,0,0,0,0,0,0,0,0.0732535,-9.80838,-0.456784,20.9201,1.32234,0.438746,-0.271719,0.0735581,-0.743448,-0.0431259,2.36706,0.75076,0.443178,-0.193708
2326505,0.99,-1.57086,-0.523169,-2.0751e-05,-2.09595,1.56981,1.57022,0.785729,-1.5708,-0.523599,7.90712e-08,-2.09439,1.5708,1.5708,0.785398,0.000502661,0.000425058,-0.000408277,-9.5312e-05,-0.0001441,-6.40798e-05,0.000389746,0,0,0,0,0,0,0,0.0494498,-9.85995,-0.432981,20.9201,1.32234,0.445155,-0.258901,0.0736676,-0.743219,-0.0430232,2.36743,0.750752,0.443217,-0.193554
2326506,0.99,-1.57086,-0.523167,-2.28796e-05,-2.09595,1.56981,1.57022,0.785728,-1.5708,-0.523599,7.90712e-08,-2.09439,1.5708,1.5708,0.785398,-0.000871318,0.000283372,-0.000272185,0.00105009,-9.60666e-05,0.000194639,0.000971907,0,0,0,0,0,0,0,0.101024,-9.85995,-0.432981,20.8725,1.32234,0.438746,-0.278127,0.0740193,-0.742661,-0.0425254,2.36728,0.750715,0.443206,-0.193463
2326507,0.99,-1.57086,-0.523168,-2.3129e-05,-2.09595,1.56981,1.57022,0.785726,-1.5708,-0.523599,7.90712e-08,-2.09439,1.5708,1.5708,0.785398,0.000625547,0.000188915,-0.000738269,-0.000970367,0.000546307,-0.0001076,-0.000810124,0,0,0,0,0,0,0,0.0494498,-9.85995,-0.409177,20.9439,1.30586,0.445155,-0.23876,0.0748625,-0.742799,-0.041245,2.36718,0.750665,0.443097,-0.193459
2326508,0.99,-1.57086,-0.523169,-1.93145e-05,-2.09595,1.56981,1.57022,0.785729,-1.5708,-0.523599,7.90712e-08,-2.09439,1.5708,1.5708,0.785398,-0.000789395,0.000125943,0.000621445,0.000466718,-4.26963e-05,-7.1733e-05,0.000443262,0,0,0,0,0,0,0,0.101024,-9.85995,-0.456784,20.8963,1.31685,0.445155,-0.26531,0.0757019,-0.743479,-0.039944,2.36747,0.750633,0.442978,-0.193544
2326509,0.99,-1.57086,-0.523171,-2.0827e-05,-2.09595,1.56981,1.57022,0.785725,-1.5708,-0.523599,7.90712e-08,-2.09439,1.5708,1.5708,0.785398,-0.000526263,-0.00047285,-0.000142515,-0.000245663,-2.84642e-05,0.000189537,-0.00116255,0,0,0,0,0,0,0,0.101024,-9.83615,-0.432981,20.9201,1.31685,0.438746,-0.225942,0.0762916,-0.743696,-0.0391179,2.36766,0.75061,0.442898,-0.193695
2326510,0.99,-1.57086,-0.523171,-2.07744e-05,-2.09595,1.56981,1.57022,0.785725,-1.5708,-0.523599,7.90712e-08,-2.09439,1.5708,1.5708,0.785398,-0.000907654,-0.000315233,-9.50102e-05,-0.000163772,-1.89761e-05,0.000363717,-0.000775036,0,0,0,0,0,0,0,0.124828,-9.83615,-0.432981,20.9201,1.31685,0.432338,-0.225942,0.0770585,-0.742731,-0.0381806,2.36738,0.750567,0.442805,-0.193886
2326511,0.99,-1.57086,-0.523169,-1.90864e-05,-2.09595,1.56981,1.57022,0.785727,-1.5708,-0.523599,7.90712e-08,-2.09439,1.5708,1.5708,0.785398,0.000601323,0.000346656,0.000493472,-0.000109179,0.0001908,-0.000469599,-4.19729e-05,0,0,0,0,0,0,0,0.0732535,-9.85995,-0.456784,20.9201,1.31136,0.451564,-0.23876,0.0777085,-0.741616,-0.0375054,2.36719,0.750529,0.442731,-0.194077
2326512,0.99,-1.57086,-0.52317,-2.65008e-05,-2.09595,1.56981,1.57022,0.785727,-1.5708,-0.523599,7.90712e-08,-2.09439,1.5708,1.5708,0.785398,0.000400882,-0.000975322,-0.00143426,0.00104084,0.0001272,0.000161652,-2.7982e-05,0,0,0,0,0,0,0,0.0732535,-9.80838,-0.381406,20.8725,1.31136,0.438746,-0.23876,0.0779134,-0.740096,-0.0374061,2.36668,0.750477,0.442725,-0.194235
2326513,0.99,-1.57086,-0.523163,-1.784e-05,-2.09595,1.56981,1.57022,0.785728,-1.5708,-0.523599,7.90712e-08,-2.09439,1.5708,1.5708,0.785398,0.000267255,0.00176264,0.00145668,-0.000976542,-0.000525552,0.000107768,0.000252613,0,0,0,0,0,0,0,0.0732535,-9.91153,-0.484555,20.9439,1.32784,0.438746,-0.246084,0.077772,-0.738923,-0.0377024,2.36619,0.750418,0.442762,-0.194353
2326514,0.99,-1.57086,-0.523168,-2.31157e-05,-2.09595,1.56981,1.57022,0.785726,-1.5708,-0.523599,7.90712e-08,-2.09439,1.5708,1.5708,0.785398,-0.00102826,-3.13343e-05,-0.000235305,0.00101941,0.000259984,7.18453e-05,-0.000340218,0,0,0,0,0,0,0,0.124828,-9.85995,-0.432981,20.8725,1.31136,0.438746,-0.232351,0.0772613,-0.740212,-0.0386715,2.36692,0.750416,0.442816,-0.194444
2326515,0.99,-1.57086,-0.523165,-2.15373e-05,-2.09595,1.56981,1.57022,0.78573,-1.5708,-0.523599,7.90712e-08,-2.09439,1.5708,1.5708,0.785398,0.000520922,0.00118554,-0.00015687,0.000122795,-0.000233579,-0.000189462,0.00123125,0,0,0,0,0,0,0,0.0732535,-9.91153,-0.432981,20.8963,1.32234,0.445155,-0.271719,0.0769759,-0.742694,-0.0394255,2.36803,0.750423,0.442816,-0.194512
2326516,0.99,-1.57086,-0.523167,-2.26816e-05,-2.09595,1.56981,1.57022,0.785728,-1.5708,-0.523599,7.90712e-08,-2.09439,1.5708,1.5708,0.785398,0.000347281,0.000233546,-0.000661392,8.18637e-05,0.000691991,0.000111051,-0.000128602,0,0,0,0,0,0,0,0.0732535,-9.88773,-0.409177,20.8963,1.29946,0.438746,-0.246084,0.0770729,-0.745379,-0.0395172,2.36907,0.750409,0.442754,-0.194572
2326517,0.99,-1.57086,-0.523171,-1.91653e-05,-2.09595,1.56981,1.57022,0.785728,-1.5708,-0.523599,7.90712e-08,-2.09439,1.5708,1.5708,0.785398,0.000231521,-0.00105073,0.000672696,0.000611388,2.05182e-05,7.40339e-05,-8.57349e-05,0,0,0,0,0,0,0,0.0732535,-9.83615,-0.456784,20.8725,1.31136,0.438746,-0.246084,0.0770273,-0.746589,-0.0397146,2.36943,0.75037,0.442732,-0.194647
2326518,0.99,-1.57086,-0.523171,-2.29078e-05,-2.09595,1.56981,1.57022,0.785728,-1.5708,-0.523599,7.90712e-08,-2.09439,1.5708,1.5708,0.785398,0.000154347,-0.000700486,-0.000108348,-0.00014922,0.000217129,4.9356e-05,-5.71566e-05,0,0,0,0,0,0,0,0.0732535,-9.83615,-0.432981,20.8963,1.30586,0.438746,-0.246084,0.0766019,-0.744293,-0.0404725,2.36817,0.75028,0.442808,-0.19474
2326519,0.99,-1.57086,-0.523169,-2.1468e-05,-2.09595,1.56981,1.57022,0.785725,-1.5708,-0.523599,7.90712e-08,-2.09439,1.5708,1.5708,0.785398,0.000102898,8.98214e-05,-7.22321e-05,0.000457332,-0.000465599,-0.000204455,-0.00078409,0,0,0,0,0,0,0,0.0732535,-9.85995,-0.432981,20.8725,1.32234,0.445155,-0.225942,0.0761061,-0.740521,-0.0413267,2.3663,0.750159,0.442905,-0.194845
2326520,0.99,-1.57086,-0.523167,-1.93176e-05,-2.09595,1.56981,1.57022,0.785724,-1.5708,-0.523599,7.90712e-08,-2.09439,1.5708,1.5708,0.785398,6.85988e-05,5.98809e-05,0.000508657,-0.000251923,-0.000310399,-0.000373662,-0.000997444,0,0,0,0,0,0,0,0.0732535,-9.85995,-0.456784,20.8963,1.32234,0.451564,-0.213125,0.0756716,-0.737796,-0.0420771,2.36498,0.750046,0.442975,-0.194947
2326521,0.99,-1.57086,-0.523166,-2.08281e-05,-2.09595,1.56981,1.57022,0.785729,-1.5708,-0.523599,7.90712e-08,-2.09439,1.5708,1.5708,0.785398,4.57325e-05,3.99206e-05,-0.000217707,-0.000724761,-3.48223e-06,0.000462969,0.00103046,0,0,0,0,0,0,0,0.0732535,-9.85995,-0.432981,20.9201,1.31685,0.432338,-0.258901,0.0752113,-0.736854,-0.042885,2.36473,0.749977,0.44303,-0.195021
2326522,0.99,-1.57086,-0.523166,-2.07748e-05,-2.09595,1.56981,1.57021,0.785725,-1.5708,-0.523599,7.90712e-08,-2.09439,1.5708,1.5708,0.785398,0.00114411,2.66137e-05,-0.000145138,7.36382e-05,-0.000409223,-0.00064079,-0.000533731,0,0,0,0,0,0,0,0.0256461,-9.85995,-0.432981,20.8963,1.32784,0.457972,-0.225942,0.074778,-0.737197,-0.0435621,2.36534,0.749947,0.443069,-0.195052
2326523,0.99,-1.57086,-0.52317,-1.90865e-05,-2.09595,1.56981,1.57022,0.785728,-1.5708,-0.523599,7.90712e-08,-2.09439,1.5708,1.5708,0.785398,0.00020593,-0.000539069,0.000460053,4.90922e-05,0.000337537,0.000284883,0.000627523,0,0,0,0,0,0,0,0.0494498,-9.83615,-0.456784,20.8963,1.31136,0.438746,-0.252493,0.0740606,-0.737331,-0.0444884,2.36579,0.74993,0.443153,-0.195053
2326524,0.99,-1.57086,-0.52317,-1.90806e-05,-2.09595,1.56981,1.57022,0.785727,-1.5708,-0.523599,7.90712e-08,-2.09439,1.5708,1.5708,0.785398,-0.000419526,-0.00035938,0.000306702,-0.0010809,0.000225024,0.000189922,0.00113043,0,0,0,0,0,0,0,0.0732535,-9.83615,-0.456784,20.9439,1.31136,0.438746,-0.271719,0.0732078,-0.736691,-0.0455816,2.36592,0.749924,0.443266,-0.195036
2326525,0.99,-1.57086,-0.523169,-2.28796e-05,-2.09595,1.56981,1.57022,0.785726,-1.5708,-0.523599,7.90712e-08,-2.09439,1.5708,1.5708,0.785398,-0.00148611,0.000317226,-0.000352344,0.000393027,0.000353467,-0.000585462,-0.000467086,0,0,0,0,0,0,0,0.124828,-9.85995,-0.432981,20.8963,1.30586,0.457972,-0.23876,0.0731524,-0.736324,-0.0455965,2.36632,0.749912,0.443258,-0.19503
2326526,0.99,-1.57086,-0.523171,-2.3129e-05,-2.09595,1.56981,1.57022,0.785726,-1.5708,-0.523599,7.90712e-08,-2.09439,1.5708,1.5708,0.785398,0.000215686,-0.000345328,-0.000791708,0.00146844,-0.000578158,0.000321769,0.000671954,0,0,0,0,0,0,0,0.0732535,-9.83615,-0.409177,20.8448,1.32784,0.438746,-0.26531,0.0743052,-0.735808,-0.0438446,2.36617,0.74983,0.443074,-0.195056
2326527,0.99,-1.57086,-0.523171,-1.93145e-05,-2.09595,1.56981,1.57022,0.785724,-1.5708,-0.523599,7.90712e-08,-2.09439,1.5708,1.5708,0.785398,0.000700603,-0.000230219,0.000585819,-0.000784275,0.000224913,-2.28464e-05,-0.00101009,0,0,0,0,0,0,0,0.0494498,-9.83615,-0.456784,20.9201,1.31136,0.445155,-0.225942,0.0754943,-0.734325,-0.0419366,2.36508,0.749701,0.442902,-0.195115
2326528,0.99,-1.57086,-0.523167,-2.0827e-05,-2.09595,1.56981,1.57022,0.785725,-1.5708,-0.523599,7.90712e-08,-2.09439,1.5708,1.5708,0.785398,-8.97435e-05,0.00105295,-0.000166266,-0.00052285,-0.000256959,0.000222128,-0.000673395,0,0,0,0,0,0,0,0.0732535,-9.88773,-0.432981,20.9201,1.32234,0.438746,-0.225942,0.0757799,-0.734166,-0.0413174,2.36491,0.74964,0.442858,-0.195202
2326529,0.99,-1.57086,-0.523167,-2.07744e-05,-2.09595,1.56981,1.57022,0.785722,-1.5708,-0.523599,7.90712e-08,-2.09439,1.5708,1.5708,0.785398,0.000496983,0.000701964,-0.000110844,-0.00553614,0.000235595,-8.92736e-05,-0.00139837,0,0,0,0,0,0,0,0.0494498,-9.88773,-0.432981,20.8725,1.31136,0.445155,-0.200308,0.0756824,-0.738968,-0.0412862,2.3684,0.749739,0.442827,-0.195298
2326530,0.99,-1.57086,-0.523169,-2.45578e-05,-2.09595,1.56981,1.57022,0.785725,-1.5708,-0.523599,7.90712e-08,-2.09439,1.5708,1.5708,0.785398,-0.00022549,-0.00073845,-0.000630708,-0.00421586,-0.000453288,0.000415202,1.71918e-05,0,0,0,0,0,0,0,0.0732535,-9.83615,-0.409177,20.8725,1.32784,0.432338,-0.225942,0.0757747,-0.748468,-0.0409755,2.37628,0.750007,0.44273,-0.195367
2326531,0.99,-1.57086,-0.52317,-2.14612e-05,-2.09595,1.56981,1.57022,0.785723,-1.5708,-0.523599,7.90712e-08,-2.09439,1.5708,1.5708,0.785398,-0.00135675,-0.0004923,0.00013634,-0.0032044,-9.87416e-05,3.94425e-05,-0.000700616,0,0,0,0,0,0,0,0.124828,-9.83615,-0.432981,20.8725,1.32234,0.438746,-0.206716,0.0764455,-0.757984,-0.0398667,2.3854,0.750321,0.442553,-0.195368
2326532,0.99,-1.57086,-0.523165,-2.09858e-05,-2.09595,1.56981,1.57022,0.785728,-1.5708,-0.523599,7.90712e-08,-2.09439,1.5708,1.5708,0.785398,0.000301924,0.000878226,9.08933e-05,-0.00354526,0.000341073,-0.000211064,0.00122834,0,0,0,0,0,0,0,0.0732535,-9.88773,-0.432981,20.9201,1.31136,0.445155,-0.252493,0.0774042,-0.766046,-0.0384472,2.39357,0.750611,0.442339,-0.195282
2326533,0.99,-1.57086,-0.52317,-2.08273e-05,-2.09595,1.56981,1.57022,0.785728,-1.5708,-0.523599,7.90712e-08,-2.09439,1.5708,1.5708,0.785398,0.000201283,-0.000620942,6.05955e-05,-0.00258503,2.39317e-05,-0.000140709,0.000581537,0,0,0,0,0,0,0,0.0732535,-9.83615,-0.432981,20.9201,1.31685,0.445155,-0.246084,0.0778177,-0.773366,-0.0378403,2.40063,0.750886,0.442205,-0.195124
2326534,0.99,-1.57086,-0.523167,-2.07745e-05,-2.09595,1.56981,1.57022,0.78573,-1.5708,-0.523599,7.90712e-08,-2.09439,1.5708,1.5708,0.785398,0.000134189,0.000792465,4.0397e-05,-0.00133269,-0.000187496,-9.38062e-05,0.00109977,0,0,0,0,0,0,0,0.0732535,-9.88773,-0.432981,20.8963,1.32234,0.445155,-0.26531,0.0776257,-0.778524,-0.0380448,2.40547,0.751094,0.442174,-0.194929
2326535,0.99,-1.57086,-0.523167,-2.07569e-05,-2.09595,1.56981,1.57022,0.78573,-1.5708,-0.523599,7.90712e-08,-2.09439,1.5708,1.5708,0.785398,-0.000560155,-0.000121304,2.69313e-05,-0.00101307,0.000485354,-0.000299896,0.000733179,0,0,0,0,0,0,0,0.101024,-9.85995,-0.432981,20.8963,1.30586,0.451564,-0.26531,0.0773385,-0.781068,-0.0383492,2.40754,0.751193,0.442178,-0.194742
2326536,0.99,-1.57086,-0.523168,-1.90806e-05,-2.09595,1.56981,1.57022,0.78573,-1.5708,-0.523599,7.90712e-08,-2.09439,1.5708,1.5708,0.785398,-0.000373437,-8.08694e-05,0.000574766,-0.000768834,0.000323569,3.7428e-05,0.000488786,0,0,0,0,0,0,0,0.101024,-9.85995,-0.456784,20.8963,1.30586,0.445155,-0.26531,0.07717,-0.780879,-0.038537,2.40699,0.751186,0.442197,-0.194603
2326537,0.99,-1.57086,-0.523168,-1.90786e-05,-2.09595,1.56981,1.57022,0.785725,-1.5708,-0.523599,7.90712e-08,-2.09439,1.5708,1.5708,0.785398,0.000957468,-0.000610725,0.000383177,-0.000582648,1.22625e-05,0.000262311,-0.0011322,0,0,0,0,0,0,0,0.0494498,-9.83615,-0.456784,20.8963,1.31136,0.438746,-0.225942,0.0766366,-0.777695,-0.0393346,2.40415,0.751096,0.442316,-0.194539
2326538,0.99,-1.57086,-0.523166,-1.9078e-05,-2.09595,1.56981,1.57022,0.785731,-1.5708,-0.523599,7.90712e-08,-2.09439,1.5708,1.5708,0.785398,-0.000568114,0.000149662,0.000255452,-0.000997814,0.000211625,-6.2485e-05,0.00117798,0,0,0,0,0,0,0,0.101024,-9.85995,-0.456784,20.9201,1.30586,0.445155,-0.278127,0.0756584,-0.772744,-0.040812,2.40003,0.750953,0.442528,-0.194542
2326539,0.99,-1.57086,-0.523168,-2.43675e-05,-2.09595,1.56981,1.57022,0.785728,-1.5708,-0.523599,7.90712e-08,-2.09439,1.5708,1.5708,0.785398,-0.000378743,9.97747e-05,-0.00159294,-0.00126145,-6.23669e-05,-0.000279016,-0.000401477,0,0,0,0,0,0,0,0.101024,-9.85995,-0.381406,20.9439,1.31136,0.451564,-0.246084,0.0754917,-0.7682,-0.0410879,2.3961,0.750759,0.442621,-0.194599
2326540,0.99,-1.57086,-0.523169,-2.24186e-05,-2.09595,1.56981,1.57022,0.785724,-1.5708,-0.523599,7.90712e-08,-2.09439,1.5708,1.5708,0.785398,0.000397119,6.65164e-05,-0.000412344,-0.000313724,-0.000245028,5.13485e-05,-0.00148835,0,0,0,0,0,0,0,0.0732535,-9.85995,-0.409177,20.9201,1.31685,0.445155,-0.213125,0.0766246,-0.76467,-0.0393436,2.39274,0.750509,0.442519,-0.19471
2326541,0.99,-1.57086,-0.523169,-2.07481e-05,-2.09595,1.56981,1.57022,0.785725,-1.5708,-0.523599,7.90712e-08,-2.09439,1.5708,1.5708,0.785398,0.000264746,4.43443e-05,0.000281916,-0.000231327,0.000243549,0.000271591,-0.000517518,0,0,0,0,0,0,0,0.0732535,-9.85995,-0.432981,20.9201,1.30586,0.438746,-0.225942,0.0777261,-0.761181,-0.0375586,2.38931,0.750238,0.44243,-0.194846
2326542,0.99,-1.57085,-0.523165,-1.90777e-05,-2.09595,1.5698,1.57022,0.785722,-1.5708,-0.523599,7.90712e-08,-2.09439,1.5708,1.5708,0.785398,0.00129012,0.000679177,0.000744756,0.000385961,-0.000888795,-5.62981e-05,-0.00129445,0,0,0,0,0,0,0,0.0256461,-9.88773,-0.456784,20.8963,1.33425,0.445155,-0.200308,0.0775394,-0.757738,-0.0376746,2.3857,0.749997,0.44253,-0.194952
2326543,0.99,-1.57086,-0.52317,-2.07481e-05,-2.09595,1.56981,1.57022,0.785728,-1.5708,-0.523599,7.90712e-08,-2.09439,1.5708,1.5708,0.785398,-0.000253543,-0.000753641,-6.0308e-05,-0.00031198,0.00025518,0.000199827,0.00106981,0,0,0,0,0,0,0,0.0732535,-9.83615,-0.432981,20.9201,1.31136,0.438746,-0.252493,0.0763043,-0.75418,-0.0393232,2.38199,0.749792,0.442776,-0.194991
2326544,0.99,-1.57086,-0.523167,-2.07481e-05,-2.09595,1.56981,1.57022,0.785728,-1.5708,-0.523599,7.90712e-08,-2.09439,1.5708,1.5708,0.785398,-0.000818643,0.000703998,-4.02053e-05,-0.000217343,-0.000440231,-0.000104141,0.000475851,0,0,0,0,0,0,0,0.101024,-9.88773,-0.432981,20.9201,1.32784,0.445155,-0.246084,0.0754511,-0.750446,-0.040432,2.37844,0.749594,0.442957,-0.194957
2326545,0.99,-1.57086,-0.523167,-2.45491e-05,-2.09595,1.56981,1.57022,0.785731,-1.5708,-0.523599,7.90712e-08,-2.09439,1.5708,1.5708,0.785398,-0.00110257,0.000469332,-0.000583615,-0.000151912,0.000316864,-6.94273e-05,0.00150403,0,0,0,0,0,0,0,0.124828,-9.88773,-0.409177,20.9201,1.31136,0.445155,-0.278127,0.0759036,-0.748044,-0.0397019,2.37582,0.749406,0.442923,-0.194884
2326546,0.99,-1.57086,-0.523165,-1.97878e-05,-2.09595,1.56981,1.57022,0.785729,-1.5708,-0.523599,7.90712e-08,-2.09439,1.5708,1.5708,0.785398,-0.000178237,0.000312888,0.000724547,-0.000106538,-0.000195658,0.000191074,0.000290609,0,0,0,0,0,0,0,0.101024,-9.88773,-0.456784,20.9201,1.32234,0.438746,-0.258901,0.0770678,-0.747122,-0.0380364,2.37412,0.749248,0.442767,-0.19482
2326547,0.99,-1.57086,-0.52317,-1.94961e-05,-2.09595,1.56981,1.57022,0.785731,-1.5708,-0.523599,7.90712e-08,-2.09439,1.5708,1.5708,0.785398,-0.000118825,-0.000997834,0.00113265,0.00103865,0.000276462,-0.000347335,0.000905816,0,0,0,0,0,0,0,0.101024,-9.83615,-0.484555,20.8725,1.31136,0.451564,-0.278127,0.0775132,-0.745133,-0.0376009,2.37196,0.749121,0.442739,-0.194801
2326548,0.99,-1.57086,-0.52317,-2.15372e-05,-2.09595,1.56981,1.57022,0.785726,-1.5708,-0.523599,7.90712e-08,-2.09439,1.5708,1.5708,0.785398,0.00168402,-0.00131484,-0.000451329,0.000132662,-0.000426043,5.80215e-06,-0.00109154,0,0,0,0,0,0,0,0.0256461,-9.80838,-0.432981,20.8963,1.32784,0.445155,-0.232351,0.0767408,-0.73971,-0.039002,2.36813,0.748991,0.442946,-0.194847
2326549,0.99,-1.57086,-0.523172,-2.26816e-05,-2.09595,1.56981,1.57022,0.785723,-1.5708,-0.523599,7.90712e-08,-2.09439,1.5708,1.5708,0.785398,-0.000640557,-0.000876558,-0.000857698,-0.000470591,0.000122872,0.000241227,-0.00167713,0,0,0,0,0,0,0,0.101024,-9.80838,-0.409177,20.9201,1.31685,0.438746,-0.206716,0.0759592,-0.732026,-0.0402437,2.36353,0.748843,0.443192,-0.194962
2326550,0.99,-1.57086,-0.523169,-1.91653e-05,-2.09595,1.56981,1.57022,0.785728,-1.5708,-0.523599,7.90712e-08,-2.09439,1.5708,1.5708,0.785398,0.000222576,0.000622054,0.000541825,0.000798231,0.000285365,0.000160818,0.000577333,0,0,0,0,0,0,0,0.0732535,-9.85995,-0.456784,20.8725,1.31136,0.438746,-0.252493,0.0759837,-0.725556,-0.0402232,2.35985,0.748714,0.443305,-0.195102
2326551,0.99,-1.57086,-0.523169,-2.12374e-05,-2.09595,1.56981,1.57021,0.785724,-1.5708,-0.523599,7.90712e-08,-2.09439,1.5708,1.5708,0.785398,-0.00050123,0.000414703,0.000361217,0.000530905,-1.3207e-05,-0.000130147,-0.00107317,0,0,0,0,0,0,0,0.101024,-9.85995,-0.456784,20.8725,1.31685,0.445155,-0.213125,0.076137,-0.722156,-0.0401285,2.35752,0.748639,0.44335,-0.195219
2326552,0.99,-1.57086,-0.523171,-2.31384e-05,-2.09595,1.56981,1.57022,0.785726,-1.5708,-0.523599,7.90712e-08,-2.09439,1.5708,1.5708,0.785398,0.000315461,-0.000280343,-0.000872813,-0.000760624,-0.000212255,0.000387953,-3.37196e-06,0,0,0,0,0,0,0,0.0732535,-9.83615,-0.409177,20.9201,1.32234,0.432338,-0.232351,0.0763666,-0.721205,-0.0399956,2.35642,0.74861,0.443345,-0.195296
2326553,0.99,-1.57086,-0.523167,-1.73688e-05,-2.09595,1.56981,1.57022,0.785726,-1.5708,-0.523599,7.90712e-08,-2.09439,1.5708,1.5708,0.785398,-0.000439307,0.00101953,0.00118136,-0.000507785,0.000706207,2.12766e-05,-2.24797e-06,0,0,0,0,0,0,0,0.101024,-9.88773,-0.484555,20.9201,1.29946,0.438746,-0.232351,0.076789,-0.722367,-0.0396184,2.35686,0.748633,0.443279,-0.195326
2326554,0.99,-1.57086,-0.523167,-2.24985e-05,-2.09595,1.56981,1.57022,0.785725,-1.5708,-0.523599,7.90712e-08,-2.09439,1.5708,1.5708,0.785398,-0.000292871,0.000679687,-0.000975663,0.001981,-0.000376906,-0.000223175,-0.000476217,0,0,0,0,0,0,0,0.101024,-9.88773,-0.409177,20.821,1.32234,0.445155,-0.219534,0.0772212,-0.725265,-0.0393112,2.35809,0.74868,0.443177,-0.195304
2326555,0.99,-1.57086,-0.523167,-2.07748e-05,-2.09595,1.56981,1.57022,0.785728,-1.5708,-0.523599,7.90712e-08,-2.09439,1.5708,1.5708,0.785398,0.000454366,0.000453125,-9.36298e-05,0.000763459,0.00015563,-0.000386142,0.000665866,0,0,0,0,0,0,0,0.0732535,-9.88773,-0.432981,20.8448,1.31136,0.451564,-0.246084,0.0779413,-0.727865,-0.0385357,2.35844,0.748664,0.443022,-0.195228
2326556,0.99,-1.57085,-0.523169,-2.0757e-05,-2.09595,1.56981,1.57022,0.785731,-1.5708,-0.523599,7.90712e-08,-2.09439,1.5708,1.5708,0.785398,0.00141653,-0.000347531,-6.24199e-05,-0.000697749,-9.96969e-05,-2.0069e-05,0.00163071,0,0,0,0,0,0,0,0.0256461,-9.85995,-0.432981,20.8963,1.31685,0.445155,-0.278127,0.078289,-0.729388,-0.038149,2.35812,0.748619,0.442938,-0.195107
2326557,0.99,-1.57086,-0.523167,-1.92623e-05,-2.09595,1.56981,1.57022,0.785729,-1.5708,-0.5236,1.33889e-06,-2.09439,1.5708,1.5708,0.785401,0.000387545,0.000417927,0.00116481,-0.000465389,-0.000473366,0.00022398,0.00037506,-0.00188973,-0.000944863,0.00125982,0.00017684,-0.000951825,-0.000814748,0.00251963,0.0494498,-9.88773,-0.484555,20.8963,1.32784,0.438746,-0.258901,0.0774247,-0.73077,-0.0394759,2.3584,0.74864,0.443046,-0.194986
2326558,0.99,-1.57086,-0.523171,-2.52602e-05,-2.09595,1.56981,1.57022,0.78573,-1.5708,-0.523602,3.85852e-06,-2.09439,1.57079,1.57079,0.785406,-0.000948063,-0.000927808,-0.000986696,0.000896,-0.000112127,-0.000325398,0.000724758,-0.00377945,-0.00188973,0.00251963,0.000353679,-0.00190365,-0.0016295,0.00503927,0.101024,-9.83615,-0.409177,20.8448,1.32234,0.451564,-0.271719,0.0763607,-0.731416,-0.0411272,2.35864,0.748682,0.443195,-0.194911
2326559,0.99,-1.57086,-0.523169,-2.00249e-05,-2.09595,1.56981,1.57022,0.785724,-1.57081,-0.523605,7.63798e-06,-2.09439,1.57079,1.57079,0.785413,-0.000632042,-6.17268e-05,0.000455827,-0.00116603,0.000128699,2.04268e-05,-0.00168697,-0.00566918,-0.00283459,0.00377945,0.000530519,-0.00285548,-0.00244424,0.0075589,0.101024,-9.85995,-0.456784,20.9201,1.31685,0.445155,-0.213125,0.0764408,-0.730495,-0.0411452,2.35813,0.74868,0.443196,-0.19491
2326560,0.99,-1.57086,-0.523168,-2.06037e-05,-2.09595,1.56981,1.57022,0.785724,-1.57082,-0.523608,1.26772e-05,-2.09439,1.57079,1.57079,0.785423,0.000785065,-0.00162436,0.00229659,-0.000777447,8.57997e-05,1.36179e-05,-0.00112464,-0.0075589,-0.00377945,0.00503927,0.000707358,-0.0038073,-0.00325899,0.0100785,0.0494498,-9.93533,-0.409177,20.9201,1.31685,0.445155,-0.213125,0.0762739,-0.728645,-0.0416936,2.35762,0.748721,0.443262,-0.19497
2326561,0.99,-1.57086,-0.523165,-1.75525e-05,-2.09595,1.56981,1.57022,0.785727,-1.57082,-0.523613,1.89763e-05,-2.09439,1.57078,1.57078,0.785436,0.00108019,-0.00060605,0.00493168,-0.000822971,0.00070146,0.000246438,-0.000749763,-0.00944863,-0.00472432,0.00629909,0.000884198,-0.00475913,-0.00407374,0.0125982,0.0256461,-10.1139,-0.409177,21.0709,1.29946,0.438746,-0.213125,0.0730349,-0.725842,-0.0471142,2.35722,0.748906,0.443812,-0.195031
2326562,0.99,-1.57086,-0.523166,-1.42233e-05,-2.09596,1.56981,1.57022,0.785724,-1.57084,-0.523619,2.65352e-05,-2.09439,1.57078,1.57078,0.785451,0.000163314,0.000924618,0.00622849,-8.46682e-05,0.000230281,0.00111373,-0.001924,-0.0113384,-0.00566918,0.0075589,0.00106104,-0.00571095,-0.00488849,0.0151178,0.0494498,-10.34,-0.381406,21.1939,1.30586,0.413112,-0.174673,0.0657417,-0.724085,-0.0589788,2.35739,0.749271,0.444944,-0.195035
2326563,0.99,-1.57087,-0.523169,-7.74273e-06,-2.09595,1.56981,1.57022,0.785722,-1.57085,-0.523625,3.5354e-05,-2.09439,1.57077,1.57077,0.785469,-0.00306158,-0.0027933,0.00734168,-0.00136232,0.00039088,0.000505126,-0.00199474,-0.0132281,-0.00661404,0.00881872,0.00123788,-0.00666278,-0.00570323,0.0176374,0.0494498,-10.5185,-0.357602,21.2693,1.29946,0.41952,-0.155447,0.0560332,-0.723737,-0.0750239,2.35828,0.749749,0.44639,-0.194939
2326564,0.99,-1.57087,-0.523171,-5.87271e-06,-2.09595,1.56981,1.57022,0.785727,-1.57086,-0.523633,4.54325e-05,-2.09439,1.57076,1.57077,0.785489,-0.00109884,-0.00168001,0.00319589,-0.00344206,0.000667487,9.93917e-05,9.43266e-05,-0.0151178,-0.0075589,0.0100785,0.00141472,-0.0076146,-0.00651798,0.0201571,-0.00212494,-10.7209,-0.254453,21.3922,1.28847,0.425929,-0.193899,0.0470358,-0.722574,-0.090311,2.35966,0.75019,0.447711,-0.194694
2326565,0.99,-1.57087,-0.52318,4.01516e-06,-2.09596,1.56981,1.57022,0.785729,-1.57088,-0.523641,5.67709e-05,-2.09439,1.57075,1.57076,0.785512,-0.00532392,-0.0033938,0.00522796,-0.00435749,0.000444992,0.00030362,-0.000174475,-0.0170075,-0.00850377,0.0113384,0.00159156,-0.00856643,-0.00733273,0.0226767,0.0494498,-10.82,-0.230649,21.4914,1.28847,0.41952,-0.18749,0.0412741,-0.721921,-0.100485,2.36291,0.750505,0.448521,-0.194278
2326566,0.99,-1.57088,-0.523198,1.11003e-05,-2.09596,1.56981,1.57022,0.785731,-1.5709,-0.523651,6.9369e-05,-2.09438,1.57074,1.57075,0.785537,-0.00516989,-0.0109193,0.00553291,-0.00447528,0.000500112,0.000677131,0.000121043,-0.0188973,-0.00944863,0.0125982,0.0017684,-0.00951825,-0.00814748,0.0251963,0.101024,-10.7962,-0.155271,21.5668,1.28298,0.406703,-0.193899,0.0390062,-0.716632,-0.10513,2.36575,0.750592,0.448847,-0.193702
2326567,0.99,-1.57088,-0.523202,2.16169e-05,-2.09595,1.56981,1.57022,0.785729,-1.57092,-0.523662,8.42455e-05,-2.09438,1.57073,1.57074,0.785567,-0.00573632,-0.00911285,0.0107357,-0.002282,0.000333408,0.000926139,-0.000631382,-0.0226767,-0.0111287,0.0148765,0.00208149,-0.0110247,-0.00943696,0.0302356,0.0494498,-10.9232,-0.155271,21.543,1.28298,0.393885,-0.174673,0.0375712,-0.698442,-0.108432,2.36358,0.750388,0.449178,-0.19298
2326568,0.99,-1.57089,-0.523209,2.85365e-05,-2.09595,1.5698,1.57022,0.785732,-1.57095,-0.523675,0.0001014,-2.09438,1.57072,1.57073,0.785602,-0.00686785,-0.00857702,0.00897418,-0.00196961,-0.000625439,0.000617426,-0.00065828,-0.0264562,-0.0128088,0.0171548,0.00239458,-0.0125311,-0.0107264,0.0352749,0.0256461,-11.0224,-0.0521213,21.5668,1.30586,0.393885,-0.168264,0.0346857,-0.671857,-0.113828,2.35722,0.74999,0.449768,-0.192127
2326569,0.99,-1.5709,-0.523211,4.1778e-05,-2.09596,1.5698,1.57022,0.785734,-1.57098,-0.523689,0.000120833,-2.09438,1.57071,1.57072,0.785643,-0.0052109,-0.00633556,0.0102144,-0.00123167,-0.00082386,0.000886335,-0.00115093,-0.0302356,-0.0144889,0.0194331,0.00270767,-0.0140375,-0.0120159,0.0403142,0.0256461,-11.2009,-0.0521213,21.5668,1.31685,0.381068,-0.149038,0.0307004,-0.64735,-0.120356,2.35074,0.749517,0.450403,-0.191155
2326570,0.99,-1.57091,-0.523218,5.30435e-05,-2.09596,1.5698,1.57022,0.785738,-1.57101,-0.523705,0.000142545,-2.09437,1.57069,1.57071,0.785688,-0.00963699,-0.00885246,0.0104459,-0.00131688,-0.00034579,0.00109952,0.00399967,-0.0340151,-0.016169,0.0217114,0.00302077,-0.015544,-0.0133054,0.0453534,-0.00212494,-11.3517,-0.0283176,21.5906,1.31136,0.367335,-0.149038,0.0266667,-0.629347,-0.126057,2.34615,0.74902,0.45085,-0.190066
2326571,0.99,-1.57092,-0.523225,7.16274e-05,-2.09596,1.5698,1.57022,0.785742,-1.57105,-0.523723,0.000166535,-2.09437,1.57067,1.57069,0.785738,-0.00764648,-0.00912274,0.0153835,-9.91443e-05,0.000617184,0.00168245,0.00635758,-0.0377945,-0.0178491,0.0239897,0.00333386,-0.0170504,-0.0145949,0.0503927,-0.125111,-11.5778,-0.0798923,21.6898,1.28847,0.3417,-0.10967,0.0222187,-0.615571,-0.131679,2.34244,0.748521,0.451175,-0.188851
2326572,0.99,-1.57094,-0.523237,8.68082e-05,-2.09596,1.5698,1.57022,0.785745,-1.57109,-0.523743,0.000192803,-2.09437,1.57066,1.57068,0.785794,-0.0110603,-0.00868659,0.0152617,-0.00135596,0.00146262,0.000646913,0.00746048,-0.041574,-0.0195292,0.026268,0.00364695,-0.0185568,-0.0158844,0.055432,-0.176685,-11.8317,-0.103696,21.8882,1.26009,0.354518,-0.0510767,0.0158434,-0.605324,-0.139614,2.33946,0.748084,0.451585,-0.187491
2326573,0.99,-1.57096,-0.523253,0.000109385,-2.09596,1.5698,1.57022,0.785757,-1.57114,-0.523764,0.000221349,-2.09436,1.57063,1.57066,0.785854,-0.0125346,-0.010418,0.016312,0.000506029,0.00117853,0.00185543,0.00588563,-0.0453534,-0.0212093,0.0285464,0.00396004,-0.0200633,-0.0171738,0.0604712,-0.279835,-12.0102,-0.179074,21.9873,1.25459,0.316066,-0.0510767,0.00846587,-0.599781,-0.14837,2.33793,0.747671,0.451896,-0.18593
2326574,0.99,-1.57099,-0.523272,0.00013006,-2.09597,1.56979,1.57022,0.785764,-1.57119,-0.523787,0.000252174,-2.09436,1.57061,1.57064,0.78592,-0.0155218,-0.0152224,0.0152059,-0.00432706,0.00119259,0.00171167,0.00692004,-0.0491329,-0.0228893,0.0308247,0.00427314,-0.0215697,-0.0184633,0.0655105,-0.303639,-12.1848,-0.179074,22.2135,1.24361,0.303248,0.0130102,0.00260839,-0.59541,-0.153991,2.3371,0.74712,0.451744,-0.184089
2326575,0.99,-1.57102,-0.52329,0.000151866,-2.09597,1.56979,1.57022,0.785779,-1.57124,-0.523811,0.000285277,-2.09435,1.57059,1.57062,0.78599,-0.0164015,-0.0157628,0.0175485,-0.00584941,0.000184706,0.000666396,0.0142351,-0.0529123,-0.0245694,0.033103,0.00458623,-0.0230761,-0.0197528,0.0705498,-0.379017,-12.3395,-0.179074,22.3603,1.26009,0.316066,0.0322363,-0.000949899,-0.589736,-0.155173,2.33775,0.746388,0.451017,-0.181905
2326576,0.99,-1.57104,-0.523313,0.000179798,-2.09596,1.56979,1.57022,0.785788,-1.5713,-0.523838,0.000320658,-2.09435,1.57057,1.5706,0.786066,-0.0189746,-0.0203963,0.0174462,-0.000170839,-8.0313e-05,0.00115634,0.0134785,-0.0566918,-0.0262495,0.0353813,0.00489932,-0.0245825,-0.0210423,0.075589,-0.50597,-12.4625,-0.230649,22.3603,1.26558,0.29684,0.09083,-0.00297649,-0.580352,-0.152954,2.33856,0.745415,0.449822,-0.179301
2326577,0.99,-1.57108,-0.523334,0.000204947,-2.09596,1.56978,1.57021,0.785808,-1.57136,-0.523866,0.000359087,-2.09434,1.57054,1.57058,0.786149,-0.0256337,-0.0229611,0.0223642,0.00171392,-0.00154551,0.000296176,0.0146963,-0.062361,-0.0284897,0.0384287,0.00531621,-0.0264014,-0.0225992,0.0831479,-0.581349,-12.6172,-0.230649,22.4356,1.30586,0.309657,0.103647,-0.00393524,-0.560122,-0.148276,2.33357,0.74401,0.448274,-0.176175
2326578,0.99,-1.57112,-0.523353,0.000232686,-2.09596,1.56977,1.57021,0.78583,-1.57143,-0.523897,0.000400563,-2.09434,1.57051,1.57055,0.78624,-0.0273331,-0.0242094,0.025372,0.00262747,-0.000589532,0.00043481,0.0188076,-0.0680301,-0.03073,0.0414761,0.0057331,-0.0282203,-0.0241562,0.0907069,-0.656727,-12.7918,-0.202878,22.5348,1.29396,0.303248,0.16865,-0.00481306,-0.527727,-0.143178,2.321,0.742212,0.446523,-0.172453
2326579,0.99,-1.57116,-0.52337,0.000269455,-2.09596,1.56976,1.5702,0.785866,-1.5715,-0.52393,0.000445086,-2.09433,1.57048,1.57053,0.786338,-0.0316434,-0.0218979,0.0303054,0.00556961,0.00021733,0.000289873,0.0250766,-0.0736993,-0.0329702,0.0445235,0.00614998,-0.0300392,-0.0257131,0.0982658,-0.732105,-12.9703,-0.282224,22.5348,1.27748,0.303248,0.135691,-0.00783088,-0.491471,-0.14111,2.30471,0.740286,0.444797,-0.168094
2326580,0.99,-1.57121,-0.523393,0.000297724,-2.09596,1.56976,1.5702,0.785905,-1.57158,-0.523965,0.000492657,-2.09433,1.57045,1.5705,0.786444,-0.0400528,-0.0241463,0.0269986,0.00469068,-0.00371365,-0.00427564,0.0320817,-0.0793685,-0.0352104,0.0475708,0.00656687,-0.0318581,-0.0272701,0.105825,-0.708302,-13.1211,-0.202878,22.6618,1.25459,0.29684,0.162241,-0.0115127,-0.459976,-0.139706,2.28886,0.738343,0.442809,-0.163092
2326581,0.99,-1.57126,-0.523413,0.000341807,-2.09595,1.56975,1.57019,0.785952,-1.57167,-0.524003,0.000543275,-2.09432,1.57042,1.57047,0.786557,-0.0425903,-0.0229744,0.0321332,0.00648137,-0.00202024,-0.00205582,0.037516,-0.0850377,-0.0374506,0.0506182,0.00698376,-0.033677,-0.028827,0.113384,-0.859058,-13.3988,-0.306028,22.6856,1.23171,0.264796,0.187876,-0.0123305,-0.437401,-0.133533,2.27612,0.736343,0.440037,-0.157494
2326582,0.99,-1.57132,-0.523441,0.000383275,-2.09596,1.56974,1.57019,0.786008,-1.57176,-0.524042,0.000596941,-2.09431,1.57038,1.57044,0.786678,-0.0463049,-0.0245825,0.037703,0.00324135,-0.00563778,-0.00477807,0.0471205,-0.0907069,-0.0396909,0.0536656,0.00740065,-0.0354959,-0.030384,0.120942,-0.934437,-13.5773,-0.357602,22.9077,1.20973,0.219935,0.200693,-0.0125284,-0.426501,-0.125932,2.26896,0.734426,0.436782,-0.151358
2326583,0.99,-1.57138,-0.523473,0.000431008,-2.09596,1.56972,1.57018,0.786067,-1.57185,-0.524084,0.000653654,-2.0943,1.57034,1.57041,0.786807,-0.0519587,-0.0265226,0.0391781,0.00263582,-0.00926564,-0.00825612,0.0498943,-0.096376,-0.0419311,0.056713,0.00781753,-0.0373148,-0.0319409,0.128501,-1.03362,-13.7281,-0.432981,23.0585,1.20973,0.213527,0.310557,-0.0155326,-0.427997,-0.122117,2.26935,0.732757,0.433535,-0.144722
2326584,0.99,-1.57145,-0.523507,0.000471364,-2.09596,1.56971,1.57017,0.786143,-1.57195,-0.524128,0.000713414,-2.0943,1.5703,1.57037,0.786943,-0.0603143,-0.027761,0.0404594,0.00406568,-0.012528,-0.00635876,0.0550348,-0.102045,-0.0441713,0.0597604,0.00823442,-0.0391337,-0.0334978,0.13606,-1.08519,-13.8788,-0.381406,23.1339,1.23171,0.213527,0.356333,-0.0192549,-0.438892,-0.118968,2.27638,0.731201,0.429969,-0.137582
2326585,0.99,-1.57153,-0.523544,0.000529019,-2.09595,1.56969,1.57016,0.786225,-1.57206,-0.524175,0.000776222,-2.09429,1.57026,1.57034,0.787086,-0.0665288,-0.0297098,0.0489304,0.00619326,-0.0138033,-0.0102855,0.0681709,-0.107714,-0.0464115,0.0628078,0.00865131,-0.0409526,-0.0350548,0.143619,-1.13677,-13.982,-0.508359,23.1577,1.22072,0.232753,0.401194,-0.0220695,-0.454834,-0.114345,2.28689,0.729577,0.425822,-0.129863
2326586,0.99,-1.57161,-0.523582,0.000583158,-2.09594,1.56967,1.57015,0.786317,-1.57218,-0.524223,0.000842077,-2.09428,1.57022,1.5703,0.787238,-0.0729252,-0.0346114,0.0494976,0.00456477,-0.0152718,-0.00820361,0.0760483,-0.113384,-0.0486518,0.0658551,0.0090682,-0.0427715,-0.0366117,0.151178,-1.26372,-14.0811,-0.532163,23.1815,1.22621,0.24557,0.414011,-0.0253588,-0.470358,-0.110585,2.29782,0.727829,0.421359,-0.121475
2326587,0.99,-1.5717,-0.523624,0.000640946,-2.09594,1.56965,1.57014,0.786428,-1.5723,-0.524275,0.000911549,-2.09427,1.57018,1.57026,0.787398,-0.0796243,-0.0388568,0.0532539,0.00378774,-0.0166761,-0.00469882,0.0875946,-0.120935,-0.0513121,0.0694721,0.00956292,-0.0447553,-0.0383098,0.160906,-1.28753,-14.1565,-0.559934,23.1815,1.23812,0.207118,0.356333,-0.028532,-0.480095,-0.106591,2.30744,0.72589,0.416564,-0.112382
2326588,0.99,-1.57179,-0.523659,0.000702169,-2.09594,1.56962,1.57013,0.78655,-1.57243,-0.524329,0.000984638,-2.09426,1.57013,1.57022,0.787569,-0.0846053,-0.038962,0.0553102,0.0036404,-0.0163363,-0.00674195,0.100179,-0.128486,-0.0539724,0.0730892,0.0100576,-0.046739,-0.0400079,0.170634,-1.31133,-14.3589,-0.559934,23.1577,1.21523,0.161342,0.316965,-0.0305687,-0.484206,-0.10043,2.31626,0.72375,0.411288,-0.102634
2326589,0.99,-1.57189,-0.523702,0.000765187,-2.09593,1.5696,1.57012,0.786687,-1.57256,-0.524385,0.00106134,-2.09425,1.57008,1.57018,0.787749,-0.0902702,-0.0386777,0.0597362,0.00405217,-0.0160301,-0.00841086,0.111599,-0.136037,-0.0566328,0.0767062,0.0105524,-0.0487228,-0.041706,0.180361,-1.38671,-14.4342,-0.559934,23.1061,1.18685,0.116481,0.219919,-0.0324661,-0.48972,-0.0932151,2.32689,0.721514,0.405621,-0.0923845
2326590,0.99,-1.572,-0.523744,0.000828804,-2.09593,1.56958,1.5701,0.786827,-1.5727,-0.524445,0.00114167,-2.09424,1.57003,1.57014,0.78794,-0.0964513,-0.043283,0.0572456,0.00180913,-0.0203732,-0.00925533,0.116706,-0.143588,-0.0592931,0.0803232,0.0110471,-0.0507066,-0.043404,0.190089,-1.38671,-14.589,-0.559934,23.1577,1.15297,0.0588025,0.200693,-0.0338523,-0.500986,-0.0839894,2.34092,0.719199,0.39945,-0.0818657
2326591,0.99,-1.57212,-0.523788,0.00089837,-2.09592,1.56955,1.57009,0.786982,-1.57286,-0.524507,0.00122561,-2.09423,1.56998,1.57009,0.788139,-0.10242,-0.042627,0.0596974,0.00391403,-0.0290005,-0.0108141,0.130773,-0.151139,-0.0619535,0.0839402,0.0115418,-0.0526903,-0.0451021,0.199817,-1.46209,-14.7635,-0.611508,23.1815,1.13558,0.026759,0.16865,-0.0325037,-0.517246,-0.0690337,2.35774,0.716702,0.392376,-0.0713415
2326592,0.99,-1.57224,-0.523842,0.000966304,-2.09591,1.56951,1.57006,0.787143,-1.57301,-0.524571,0.00131317,-2.09421,1.56992,1.57005,0.788349,-0.111246,-0.0478163,0.0614944,0.00425089,-0.0268284,-0.0124011,0.13878,-0.158691,-0.0646138,0.0875572,0.0120365,-0.0546741,-0.0468002,0.209544,-1.46209,-14.8667,-0.659116,23.2569,1.14198,0.00753292,0.207102,-0.0274898,-0.536291,-0.0470639,2.37534,0.713895,0.384195,-0.0610411
2326593,0.99,-1.57237,-0.523894,0.00104213,-2.09591,1.56948,1.57004,0.787312,-1.57318,-0.524638,0.00140434,-2.0942,1.56986,1.57,0.788568,-0.119693,-0.0508762,0.0664716,0.00292789,-0.0298315,-0.0148983,0.146409,-0.166242,-0.0672742,0.0911742,0.0125313,-0.0566579,-0.0484983,0.219272,-1.54143,-14.9936,-0.734494,23.4076,1.14748,0.026759,0.330698,-0.0194213,-0.553615,-0.019717,2.39125,0.710682,0.375022,-0.0511124
2326594,0.99,-1.57252,-0.523948,0.00112763,-2.0959,1.56944,1.57001,0.7875,-1.57335,-0.524708,0.00149913,-2.09419,1.56981,1.56995,0.788797,-0.126608,-0.0532796,0.0720652,0.00151988,-0.0330817,-0.017662,0.155974,-0.173793,-0.0699345,0.0947912,0.013026,-0.0586416,-0.0501963,0.229,-1.58904,-15.1166,-0.889218,23.4552,1.18135,0.0716198,0.36915,-0.0106631,-0.568056,0.00862232,2.40582,0.707185,0.365259,-0.0415542
2326595,0.99,-1.57267,-0.52401,0.00120382,-2.0959,1.5694,1.56998,0.787692,-1.57354,-0.524781,0.00159754,-2.09417,1.56975,1.5699,0.789036,-0.133665,-0.0567285,0.0748993,0.00226466,-0.029025,-0.0246597,0.164404,-0.181344,-0.0725948,0.0984082,0.0135207,-0.0606254,-0.0518944,0.238728,-1.69219,-15.1682,-0.861447,23.5544,1.16945,0.129298,0.485422,-0.00404577,-0.581056,0.0333616,2.42022,0.703571,0.35543,-0.032217
2326596,1,-1.57282,-0.524071,0.00129296,-2.09589,1.56935,1.56995,0.787902,-1.57373,-0.524856,0.00169956,-2.09416,1.56968,1.56984,0.789284,-0.140235,-0.0582676,0.0795149,0.00494803,-0.0368078,-0.0285139,0.182071,-0.188895,-0.0752552,0.102025,0.0140154,-0.0626092,-0.0535925,0.248455,-1.7398,-15.2436,-0.940793,23.5782,1.19234,0.148524,0.531199,-0.000783899,-0.591814,0.0528664,2.43318,0.699843,0.345905,-0.0228819
2326597,1,-1.57299,-0.524135,0.00138048,-2.09588,1.5693,1.56992,0.788129,-1.57392,-0.524935,0.00180562,-2.09415,1.56962,1.56979,0.789543,-0.145414,-0.0598434,0.081269,0.0073581,-0.0365576,-0.0301768,0.193193,-0.196449,-0.0782237,0.106052,0.0145673,-0.0646679,-0.0553547,0.258529,-1.76757,-15.3189,-0.940793,23.5782,1.18135,0.135707,0.537607,-0.0012542,-0.600491,0.0669827,2.44333,0.695997,0.336871,-0.0133059
2326598,1,-1.57316,-0.5242,0.0014769,-2.09588,1.56926,1.56989,0.788373,-1.57413,-0.525016,0.0019157,-2.09413,1.56955,1.56973,0.789811,-0.157372,-0.0601546,0.0838007,0.00662311,-0.0412068,-0.030753,0.204773,-0.204003,-0.0811922,0.110079,0.0151191,-0.0667265,-0.0571169,0.268602,-1.81517,-15.4221,-0.988401,23.6814,1.16945,0.103663,0.491831,-0.00349563,-0.610688,0.0787971,2.45185,0.692067,0.328063,-0.00330644
2326599,1,-1.57334,-0.524267,0.00157806,-2.09587,1.56921,1.56985,0.788623,-1.57434,-0.5251,0.0020298,-2.09411,1.56948,1.56967,0.79009,-0.164313,-0.0652947,0.0883932,0.0080353,-0.043733,-0.0321525,0.217367,-0.211557,-0.0841607,0.114107,0.0156709,-0.0687852,-0.0588791,0.278676,-1.86675,-15.4737,-1.01617,23.7052,1.12459,0.0908459,0.427744,-0.00484711,-0.624164,0.09187,2.46028,0.688088,0.319095,0.00716894
2326600,1,-1.57353,-0.524333,0.00168672,-2.09586,1.56916,1.56981,0.788892,-1.57456,-0.525187,0.00214794,-2.0941,1.56941,1.56961,0.790379,-0.172734,-0.0673542,0.0960969,0.010809,-0.0461867,-0.0330057,0.232621,-0.219111,-0.0871292,0.118134,0.0162227,-0.0708439,-0.0606413,0.288749,-1.91832,-15.5966,-1.09155,23.6536,1.1017,0.0780285,0.316965,-0.00670271,-0.636567,0.103654,2.46688,0.684069,0.310204,0.0180438
2326601,1,-1.57373,-0.524402,0.0017938,-2.09585,1.56911,1.56977,0.789164,-1.57478,-0.525277,0.0022701,-2.09408,1.56934,1.56955,0.790678,-0.180181,-0.0706468,0.0992099,0.00971437,-0.0484512,-0.0383606,0.245252,-0.226665,-0.0900977,0.122161,0.0167745,-0.0729026,-0.0624035,0.298823,-1.91832,-15.799,-1.06378,23.729,1.08522,0.0588025,0.310557,-0.0117354,-0.645311,0.11,2.47051,0.680011,0.301806,0.0291102
2326602,1,-1.57394,-0.524481,0.00190684,-2.09585,1.56905,1.56973,0.789444,-1.57502,-0.52537,0.00239628,-2.09406,1.56926,1.56948,0.790987,-0.189736,-0.0755954,0.105686,0.0128058,-0.0510369,-0.0415124,0.255992,-0.234219,-0.0930662,0.126188,0.0173263,-0.0749613,-0.0641657,0.308896,-1.86675,-15.9021,-1.06378,23.7806,1.09621,0.0203503,0.265696,-0.0203131,-0.649343,0.110402,2.47112,0.67585,0.293991,0.0400972
2326603,1,-1.57416,-0.524565,0.00202808,-2.09583,1.56899,1.56968,0.789735,-1.57526,-0.525466,0.0025265,-2.09405,1.56919,1.56942,0.791306,-0.201678,-0.0762602,0.110057,0.0128927,-0.0524955,-0.0411792,0.266712,-0.241772,-0.0960348,0.130215,0.0178781,-0.0770199,-0.0659279,0.31897,-1.79137,-15.9775,-1.03998,23.7806,1.09072,0.0331677,0.265696,-0.0309931,-0.648027,0.10673,2.46836,0.671499,0.286532,0.0507733
2326604,1,-1.57438,-0.524654,0.00215685,-2.09582,1.56892,1.56963,0.790036,-1.57551,-0.525565,0.00266074,-2.09403,1.56911,1.56935,0.791635,-0.207116,-0.0791238,0.116394,0.0120805,-0.0536429,-0.0458222,0.275997,-0.249326,-0.0990033,0.134242,0.0184299,-0.0790786,-0.0676901,0.329043,-1.76757,-15.9537,-1.01617,23.8282,1.09072,0.0523938,0.259287,-0.0427837,-0.646361,0.100135,2.46493,0.66703,0.279185,0.0609678
2326605,1,-1.57462,-0.524739,0.00228258,-2.09582,1.56886,1.56958,0.790345,-1.57577,-0.525667,0.00279901,-2.09401,1.56903,1.56928,0.791974,-0.213242,-0.0829025,0.119533,0.00805235,-0.0551501,-0.0477527,0.282792,-0.25688,-0.101972,0.138269,0.0189817,-0.0811373,-0.0694523,0.339117,-1.69219,-16.0013,-0.913022,23.8797,1.1136,0.0331677,0.36915,-0.0569252,-0.649093,0.089146,2.46479,0.662627,0.272129,0.070578
2326606,1,-1.57485,-0.524829,0.00242111,-2.09581,1.56878,1.56953,0.790672,-1.57603,-0.525772,0.00294131,-2.09399,1.56894,1.56921,0.792323,-0.219952,-0.0849406,0.123621,0.00799241,-0.0616203,-0.0483179,0.296738,-0.264434,-0.10494,0.142297,0.0195335,-0.083196,-0.0712145,0.34919,-1.66442,-16.0767,-0.889218,23.9511,1.15297,-0.00619999,0.375559,-0.0738501,-0.657977,0.0736998,2.47032,0.658424,0.26546,0.0796137
2326607,1,-1.5751,-0.524923,0.00256158,-2.0958,1.56871,1.56947,0.791001,-1.5763,-0.52588,0.00308791,-2.09397,1.56886,1.56914,0.792682,-0.232982,-0.0877135,0.129872,0.00869215,-0.0651385,-0.0499995,0.305409,-0.271988,-0.108127,0.146606,0.0201258,-0.0852748,-0.0729939,0.359264,-1.61681,-16.1045,-0.889218,23.9789,1.15846,-0.0190174,0.434153,-0.0917626,-0.673324,0.0562525,2.48143,0.654463,0.258897,0.0882036
2326608,0.99,-1.57536,-0.525009,0.00269686,-2.09579,1.56863,1.56941,0.791346,-1.57658,-0.525992,0.00323883,-2.09395,1.56877,1.56906,0.793052,-0.238799,-0.0860171,0.133414,0.00773865,-0.0695348,-0.0548608,0.312583,-0.279542,-0.111315,0.150916,0.0207182,-0.0873535,-0.0747732,0.369337,-1.56524,-16.279,-0.81384,24.0781,1.20973,-0.0638782,0.440561,-0.108966,-0.697341,0.0387592,2.49808,0.650807,0.252157,0.0965188
2326609,0.99,-1.57561,-0.525106,0.00283977,-2.09578,1.56856,1.56935,0.791705,-1.57687,-0.526106,0.00339406,-2.09393,1.56868,1.56899,0.793431,-0.24389,-0.0908893,0.134042,0.00887091,-0.0701083,-0.0605249,0.325375,-0.287096,-0.114502,0.155226,0.0213105,-0.0894323,-0.0765526,0.379411,-1.61681,-16.3306,-0.786069,24.1019,1.18685,-0.0574695,0.407602,-0.124972,-0.732014,0.0225154,2.5205,0.647488,0.245163,0.104712
2326610,0.99,-1.57589,-0.525209,0.00298819,-2.09578,1.56848,1.56929,0.79207,-1.57716,-0.526224,0.00355359,-2.09391,1.56859,1.56891,0.79382,-0.253206,-0.0945508,0.138384,0.00802431,-0.0688955,-0.0588332,0.338445,-0.294649,-0.117689,0.159536,0.0219028,-0.0915111,-0.078332,0.389484,-1.54143,-16.406,-0.786069,24.2011,1.12459,-0.0766956,0.401194,-0.139103,-0.77159,0.00943201,2.54556,0.644368,0.237863,0.11287
2326611,0.99,-1.57617,-0.525314,0.00314103,-2.09577,1.5684,1.56923,0.792443,-1.57746,-0.526345,0.00371744,-2.09388,1.5685,1.56883,0.79422,-0.26597,-0.0965687,0.142927,0.00769363,-0.0709482,-0.0620395,0.352366,-0.302203,-0.120876,0.163846,0.0224951,-0.0935898,-0.0801114,0.399558,-1.43828,-16.5091,-0.710691,24.2765,1.10719,-0.108739,0.401194,-0.149588,-0.811231,0.001739,2.571,0.641315,0.229999,0.12099
2326612,0.99,-1.57646,-0.525423,0.00329665,-2.09576,1.56832,1.56916,0.792827,-1.57777,-0.526469,0.00388559,-2.09386,1.5684,1.56875,0.79463,-0.271574,-0.099506,0.144005,0.0100668,-0.0762084,-0.0651377,0.363367,-0.309757,-0.124063,0.168155,0.0230874,-0.0956686,-0.0818908,0.409631,-1.3629,-16.5607,-0.659116,24.2527,1.08522,-0.121556,0.401194,-0.154996,-0.850688,0.00097466,2.59644,0.638221,0.221341,0.129046
2326613,0.99,-1.57676,-0.525539,0.00345292,-2.09574,1.56823,1.56908,0.793225,-1.57809,-0.526596,0.00405806,-2.09384,1.5683,1.56866,0.795049,-0.279609,-0.106065,0.147961,0.0114763,-0.0794454,-0.0704165,0.371324,-0.317311,-0.127251,0.172465,0.0236797,-0.0977474,-0.0836702,0.419705,-1.3391,-16.5607,-0.611508,24.2249,1.04585,-0.0510608,0.381968,-0.155888,-0.885097,0.00660057,2.61867,0.634901,0.212036,0.137033
2326614,0.99,-1.57705,-0.525661,0.00361542,-2.09574,1.56814,1.56901,0.793628,-1.57842,-0.526726,0.00423483,-2.09381,1.5682,1.56858,0.795479,-0.284682,-0.11439,0.150508,0.00946105,-0.0833982,-0.0727069,0.38952,-0.324865,-0.130438,0.176775,0.024272,-0.0998261,-0.0854496,0.429778,-1.3391,-16.5329,-0.559934,24.3241,1.04585,-0.0190174,0.362742,-0.154341,-0.905112,0.0158843,2.63358,0.631192,0.202562,0.144936
2326615,0.99,-1.57737,-0.525781,0.00377647,-2.09572,1.56804,1.56894,0.794048,-1.57875,-0.52686,0.00441592,-2.09379,1.5681,1.56849,0.795919,-0.292988,-0.117687,0.154714,0.0104073,-0.0870965,-0.0673734,0.401287,-0.332419,-0.133625,0.181085,0.0248643,-0.101905,-0.087229,0.439852,-1.26372,-16.5091,-0.456784,24.3241,1.06783,-0.0510608,0.343516,-0.151796,-0.906744,0.0266973,2.64037,0.627057,0.193242,0.152701
2326616,0.99,-1.57769,-0.525898,0.00395763,-2.09571,1.56794,1.56887,0.79447,-1.57909,-0.526997,0.00460131,-2.09376,1.568,1.5684,0.796369,-0.302677,-0.117905,0.164829,0.0116091,-0.0903397,-0.066567,0.408499,-0.339973,-0.136812,0.185395,0.0254566,-0.103984,-0.0890084,0.449925,-1.21215,-16.5607,-0.508359,24.3003,1.1191,-0.127965,0.356333,-0.149647,-0.897356,0.0362181,2.64238,0.622685,0.1842,0.160262
2326617,0.99,-1.57801,-0.526025,0.00413779,-2.09569,1.56785,1.5688,0.7949,-1.57944,-0.527137,0.0047912,-2.09374,1.56789,1.56831,0.796829,-0.307265,-0.120353,0.168355,0.0118046,-0.0915903,-0.0723417,0.413829,-0.347526,-0.140146,0.189885,0.0260761,-0.106049,-0.0907764,0.459999,-1.26372,-16.5329,-0.532163,24.3003,1.1191,-0.166417,0.381968,-0.150476,-0.887909,0.0398315,2.64407,0.618393,0.175715,0.167575
2326618,0.99,-1.57835,-0.526147,0.00431112,-2.09569,1.56775,1.56872,0.795355,-1.57979,-0.52728,0.00498558,-2.09371,1.56778,1.56822,0.797299,-0.317705,-0.122507,0.169282,0.00713515,-0.0984662,-0.0732925,0.423193,-0.35508,-0.143481,0.194376,0.0266957,-0.108115,-0.0925444,0.470072,-1.26372,-16.6361,-0.484555,24.3756,1.15846,-0.166417,0.36915,-0.15374,-0.885861,0.0386413,2.64971,0.614377,0.16764,0.174632
2326619,0.99,-1.57869,-0.526278,0.0044895,-2.09567,1.56765,1.56864,0.795817,-1.58015,-0.527427,0.00518444,-2.09368,1.56767,1.56812,0.797779,-0.322593,-0.123318,0.169966,0.00881874,-0.101335,-0.0796195,0.435511,-0.362634,-0.146815,0.198866,0.0273152,-0.11018,-0.0943124,0.480146,-1.31133,-16.6361,-0.456784,24.3756,1.14198,-0.147191,0.362742,-0.155444,-0.896294,0.039388,2.66283,0.61068,0.15928,0.18144
2326620,0.99,-1.57904,-0.526411,0.00467532,-2.09566,1.56755,1.56856,0.796286,-1.58052,-0.527577,0.0053878,-2.09365,1.56756,1.56803,0.798269,-0.32887,-0.123213,0.179835,0.0106608,-0.103409,-0.0779841,0.444737,-0.370188,-0.150149,0.203357,0.0279347,-0.112245,-0.0960804,0.490219,-1.28753,-16.6599,-0.456784,24.4748,1.12459,-0.166417,0.349924,-0.156046,-0.921374,0.0418962,2.68346,0.607354,0.150615,0.188014
2326621,0.99,-1.57941,-0.52655,0.00487148,-2.09565,1.56744,1.56848,0.796759,-1.5809,-0.527731,0.00559565,-2.09362,1.56745,1.56793,0.79877,-0.338249,-0.126894,0.185378,0.0101202,-0.101188,-0.0769891,0.453501,-0.377742,-0.153484,0.207848,0.0285543,-0.114311,-0.0978484,0.500293,-1.13677,-16.6599,-0.456784,24.5264,1.1191,-0.179235,0.394785,-0.159371,-0.959139,0.040095,2.70936,0.604478,0.142167,0.19436
2326622,0.99,-1.57978,-0.526688,0.00505792,-2.09564,1.56734,1.5684,0.797245,-1.58129,-0.527888,0.00580798,-2.0936,1.56733,1.56783,0.79928,-0.348147,-0.131822,0.186336,0.0131018,-0.103142,-0.0813516,0.454709,-0.385296,-0.156818,0.212338,0.0291738,-0.116376,-0.0996164,0.510366,-1.06139,-16.6837,-0.329831,24.574,1.08522,-0.179235,0.388376,-0.164275,-1.00168,0.0352186,2.73652,0.601861,0.13385,0.200489
2326623,0.99,-1.58015,-0.526834,0.00524622,-2.09562,1.56724,1.56831,0.797749,-1.58168,-0.528048,0.00602481,-2.09357,1.56721,1.56773,0.7998,-0.351122,-0.135815,0.187479,0.0159012,-0.103408,-0.08184,0.465923,-0.39285,-0.160152,0.216829,0.0297933,-0.118442,-0.101384,0.52044,-1.06139,-16.7353,-0.202878,24.5978,1.00557,-0.121556,0.44697,-0.167036,-1.03848,0.0333624,2.7592,0.599088,0.125285,0.206454
2326624,0.99,-1.58052,-0.526989,0.00544625,-2.09561,1.56713,1.56822,0.798267,-1.58208,-0.528211,0.00624613,-2.09354,1.56709,1.56762,0.800331,-0.360728,-0.140586,0.190641,0.0178557,-0.104656,-0.0851766,0.48291,-0.400404,-0.163487,0.221319,0.0304129,-0.120507,-0.103152,0.530513,-1.06139,-16.7115,-0.0521213,24.6256,0.966203,-0.0959217,0.42042,-0.166564,-1.06319,0.03694,2.77381,0.59585,0.116444,0.212318
2326625,0.99,-1.58092,-0.527143,0.00565817,-2.09559,1.56701,1.56813,0.798787,-1.58249,-0.528378,0.00647194,-2.0935,1.56697,1.56752,0.800872,-0.371613,-0.144268,0.195193,0.0176175,-0.108158,-0.0844177,0.495091,-0.407957,-0.166821,0.22581,0.0310324,-0.122573,-0.10492,0.540587,-0.910633,-16.6837,0.0232571,24.7248,0.994585,-0.172826,0.42042,-0.162249,-1.07514,0.0466427,2.78064,0.592011,0.107351,0.218137
2326626,0.99,-1.58131,-0.527298,0.0058659,-2.09557,1.56689,1.56805,0.799327,-1.5829,-0.528548,0.00670224,-2.09347,1.56684,1.56741,0.801422,-0.3791,-0.14472,0.198433,0.0180458,-0.116243,-0.0844342,0.509576,-0.415511,-0.170155,0.2303,0.0316519,-0.124638,-0.106688,0.55066,-0.859058,-16.7353,0.0986355,24.6732,1.04585,-0.237828,0.343516,-0.153501,-1.08034,0.0626663,2.78389,0.587665,0.0979035,0.223934
2326627,0.99,-1.58171,-0.527458,0.00608242,-2.09555,1.56677,1.56796,0.799868,-1.58333,-0.528722,0.00693713,-2.09344,1.56672,1.5673,0.801983,-0.384869,-0.152182,0.204411,0.0161355,-0.11699,-0.0862541,0.520503,-0.423065,-0.17358,0.23489,0.0322881,-0.12667,-0.108428,0.560574,-0.859058,-16.763,0.15021,24.697,1.07973,-0.263463,0.291331,-0.142233,-1.0841,0.0820058,2.78753,0.583064,0.0882838,0.229674
2326628,0.99,-1.58211,-0.527623,0.00630281,-2.09553,1.56666,1.56786,0.800433,-1.58376,-0.528899,0.00717661,-2.09341,1.56659,1.56719,0.802553,-0.388281,-0.155786,0.21351,0.019304,-0.114268,-0.0888889,0.534827,-0.430619,-0.177004,0.23948,0.0329243,-0.128702,-0.110167,0.570488,-0.958241,-16.763,0.15021,24.6732,1.04585,-0.250646,0.200693,-0.133887,-1.0832,0.0967044,2.79072,0.578432,0.079276,0.23525
2326629,0.99,-1.58253,-0.527783,0.00652438,-2.09552,1.56654,1.56777,0.801003,-1.5842,-0.529079,0.00742068,-2.09337,1.56646,1.56708,0.803134,-0.40508,-0.157487,0.211903,0.016362,-0.113841,-0.0892593,0.543399,-0.438173,-0.180428,0.24407,0.0335605,-0.130734,-0.111906,0.580402,-0.958241,-16.9376,0.225589,24.7248,1.03945,-0.282689,0.162241,-0.129178,-1.07769,0.105685,2.79318,0.57384,0.0709324,0.240481
2326630,0.99,-1.58296,-0.527949,0.0067572,-2.0955,1.56642,1.56768,0.801563,-1.58464,-0.529263,0.00766934,-2.09334,1.56633,1.56697,0.803724,-0.411876,-0.159404,0.219496,0.019426,-0.114089,-0.0881615,0.545234,-0.445727,-0.183853,0.24866,0.0341966,-0.132765,-0.113645,0.590316,-0.910633,-16.9614,0.201785,24.697,1.05135,-0.353185,0.240061,-0.122289,-1.07471,0.117416,2.79787,0.569245,0.0622384,0.245159
2326631,0.99,-1.58339,-0.528119,0.00699024,-2.09548,1.5663,1.56758,0.802147,-1.5851,-0.52945,0.00792259,-2.09331,1.56619,1.56685,0.804324,-0.417799,-0.163365,0.227032,0.0170029,-0.113563,-0.0903227,0.553928,-0.453281,-0.187277,0.25325,0.0348328,-0.134797,-0.115384,0.60023,-0.934437,-17.013,0.225589,24.7248,1.04585,-0.340367,0.226328,-0.11403,-1.07747,0.130678,2.80595,0.564761,0.0531814,0.249179
2326632,0.99,-1.58382,-0.528288,0.00723892,-2.09546,1.56618,1.56747,0.802747,-1.58556,-0.529641,0.00818043,-2.09327,1.56605,1.56674,0.804934,-0.420116,-0.167835,0.23264,0.0214103,-0.112009,-0.0942115,0.57194,-0.460834,-0.190701,0.25784,0.035469,-0.136829,-0.117123,0.610144,-1.06139,-17.1161,0.225589,24.7724,1.00008,-0.269872,0.226328,-0.110672,-1.08262,0.136687,2.81547,0.560526,0.0446611,0.252576
2326633,0.99,-1.58427,-0.528464,0.00748373,-2.09544,1.56606,1.56736,0.80334,-1.58602,-0.529835,0.00844286,-2.09323,1.56591,1.56662,0.805554,-0.425116,-0.171778,0.234426,0.0207952,-0.115369,-0.101241,0.577147,-0.468388,-0.194125,0.26243,0.0361052,-0.138861,-0.118863,0.620058,-1.06139,-17.2431,0.225589,24.8478,0.955217,-0.205785,0.291331,-0.114777,-1.08509,0.132839,2.82326,0.556435,0.0371455,0.255431
2326634,0.99,-1.58472,-0.52865,0.00773745,-2.09542,1.56593,1.56726,0.803953,-1.5865,-0.530033,0.00870988,-2.0932,1.56577,1.5665,0.806184,-0.42986,-0.173408,0.23936,0.0195487,-0.121293,-0.103724,0.584764,-0.475942,-0.19755,0.26702,0.0367413,-0.140892,-0.120602,0.629972,-1.16057,-17.2669,0.201785,24.8239,0.994585,-0.212194,0.310557,-0.125319,-1.08624,0.121596,2.83021,0.552417,0.0305991,0.257849
2326635,0.99,-1.58517,-0.528833,0.00800572,-2.09539,1.5658,1.56715,0.804554,-1.58698,-0.530234,0.00898149,-2.09316,1.56563,1.56637,0.806824,-0.431021,-0.177297,0.244097,0.0204912,-0.124689,-0.104669,0.590163,-0.483496,-0.200974,0.27161,0.0373775,-0.142924,-0.122341,0.639886,-1.23595,-17.3423,0.126407,24.8478,0.994585,-0.244237,0.427744,-0.142071,-1.09101,0.103596,2.83952,0.548561,0.0250412,0.259981
2326636,0.99,-1.58564,-0.529025,0.0082668,-2.09537,1.56566,1.56704,0.805183,-1.58748,-0.530438,0.00925769,-2.09312,1.56549,1.56625,0.807474,-0.442998,-0.178977,0.248299,0.0201295,-0.127017,-0.106869,0.595151,-0.49105,-0.204398,0.2762,0.0380137,-0.144956,-0.12408,0.6498,-1.3391,-17.3185,0.0232571,24.9231,1.01106,-0.237828,0.491831,-0.164193,-1.10112,0.0798793,2.85189,0.544893,0.0203492,0.262022
2326637,0.99,-1.58609,-0.529219,0.00852314,-2.09535,1.56552,1.56693,0.805839,-1.58797,-0.530646,0.00953852,-2.09308,1.56534,1.56612,0.808133,-0.447746,-0.182642,0.252067,0.0231005,-0.129084,-0.109101,0.610197,-0.498604,-0.207867,0.280824,0.038658,-0.146942,-0.12578,0.659104,-1.54143,-17.3423,0.126407,24.8716,1.03395,-0.225011,0.407602,-0.188046,-1.11639,0.0552317,2.86655,0.541303,0.0159654,0.264208
2326638,0.99,-1.58657,-0.52941,0.00880423,-2.09533,1.56539,1.56681,0.806477,-1.58848,-0.530857,0.00982397,-2.09304,1.56519,1.566,0.808802,-0.458289,-0.184333,0.266994,0.0226057,-0.129369,-0.110579,0.621503,-0.506158,-0.211336,0.285448,0.0393024,-0.148927,-0.12748,0.668408,-1.66442,-17.3938,0.0748318,24.9231,1.02846,-0.212194,0.434153,-0.21393,-1.13577,0.0283333,2.8824,0.537818,0.0119131,0.266719
2326639,0.99,-1.58706,-0.529608,0.00908719,-2.0953,1.56526,1.56669,0.807137,-1.58899,-0.531072,0.010114,-2.093,1.56504,1.56587,0.809479,-0.468144,-0.185892,0.271788,0.0251862,-0.134312,-0.116278,0.635844,-0.513712,-0.214804,0.290073,0.0399467,-0.150913,-0.129179,0.677712,-1.66442,-17.4176,-0.0283176,24.8478,0.989092,-0.199376,0.414011,-0.244632,-1.16015,-0.00595579,2.89974,0.534638,0.00858755,0.269599
2326640,0.99,-1.58754,-0.529797,0.00936296,-2.09527,1.56512,1.56657,0.807805,-1.58951,-0.53129,0.0104087,-2.09296,1.56489,1.56574,0.810166,-0.467218,-0.191341,0.274458,0.0219138,-0.132947,-0.113907,0.648969,-0.521265,-0.218273,0.294697,0.0405911,-0.152899,-0.130879,0.687016,-1.7398,-17.5208,0.0232571,24.8478,0.966203,-0.244237,0.343516,-0.279762,-1.18958,-0.0464122,2.91905,0.53176,0.00591809,0.272807
2326641,0.99,-1.58804,-0.529996,0.00965508,-2.09524,1.56498,1.56644,0.808484,-1.59004,-0.531512,0.0107081,-2.09292,1.56473,1.5656,0.810863,-0.477665,-0.194749,0.280439,0.0232952,-0.131099,-0.118845,0.661336,-0.528819,-0.221742,0.299321,0.0412354,-0.154885,-0.132579,0.696321,-1.7398,-17.5684,-0.0798923,24.8239,0.921343,-0.225011,0.323374,-0.318014,-1.22065,-0.089529,2.9396,0.528996,0.00371405,0.276246
2326642,0.99,-1.58854,-0.530206,0.00994346,-2.09521,1.56485,1.56631,0.809177,-1.59058,-0.531737,0.011012,-2.09288,1.56457,1.56547,0.811568,-0.483782,-0.198377,0.282386,0.0282705,-0.129523,-0.123421,0.671283,-0.536373,-0.22521,0.303945,0.0418797,-0.15687,-0.134279,0.705625,-1.76757,-17.5684,-0.103696,24.7724,0.86458,-0.172826,0.291331,-0.357058,-1.24887,-0.131395,2.9583,0.526025,0.00167825,0.279768
2326643,0.99,-1.58906,-0.530414,0.0102342,-2.09518,1.5647,1.56617,0.809879,-1.59112,-0.531966,0.0113206,-2.09284,1.56442,1.56533,0.812283,-0.490835,-0.20079,0.284742,0.0258439,-0.131779,-0.126609,0.683467,-0.543927,-0.228679,0.30857,0.0425241,-0.158856,-0.135978,0.714929,-1.69219,-17.5684,-0.000546589,24.8478,0.875566,-0.140783,0.265696,-0.393676,-1.27282,-0.167107,2.97299,0.522529,-0.000610024,0.283226
2326644,0.99,-1.58959,-0.530628,0.0105347,-2.09515,1.56455,1.56604,0.81059,-1.59168,-0.532198,0.0116338,-2.09279,1.56425,1.5652,0.813007,-0.501292,-0.20344,0.287992,0.0300574,-0.143101,-0.131297,0.685799,-0.551481,-0.232147,0.313194,0.0431684,-0.160842,-0.137678,0.724233,-1.61681,-17.5208,0.0470608,24.7962,0.915849,-0.172826,0.252878,-0.42535,-1.29545,-0.193172,2.98524,0.518443,-0.00348052,0.286498
2326645,0.99,-1.59013,-0.530852,0.0108464,-2.09511,1.5644,1.56591,0.811294,-1.59223,-0.532434,0.0119516,-2.09275,1.56409,1.56506,0.813741,-0.515774,-0.216079,0.294705,0.0323373,-0.145107,-0.130523,0.701292,-0.559035,-0.235616,0.317818,0.0438128,-0.162828,-0.139378,0.733537,-1.41448,-17.4176,0.0232571,24.7724,0.909441,-0.199376,0.297739,-0.449929,-1.30992,-0.207708,2.99174,0.51369,-0.00710806,0.289502
2326646,0.99,-1.59067,-0.531065,0.011155,-2.09508,1.56425,1.56578,0.812028,-1.5928,-0.532673,0.012274,-2.09271,1.56393,1.56492,0.814484,-0.520628,-0.21379,0.30155,0.0324457,-0.148045,-0.129308,0.710567,-0.566589,-0.239085,0.322443,0.0444571,-0.164813,-0.141078,0.742842,-1.41448,-17.4176,0.0748318,24.8239,0.955217,-0.244237,0.278513,-0.468038,-1.30849,-0.2132,2.98894,0.508307,-0.011322,0.292201
2326647,0.99,-1.59121,-0.531287,0.0114647,-2.09505,1.5641,1.56564,0.812772,-1.59338,-0.532916,0.0126011,-2.09266,1.56376,1.56477,0.815235,-0.526457,-0.215223,0.300019,0.0344059,-0.149955,-0.127265,0.711097,-0.574142,-0.242561,0.327049,0.0451029,-0.166745,-0.142731,0.751265,-1.38671,-17.4176,0.15021,24.7962,0.989092,-0.321141,0.291331,-0.481684,-1.30232,-0.212871,2.98259,0.502635,-0.0160354,0.294596
2326648,0.99,-1.59177,-0.531513,0.0117891,-2.09502,1.56395,1.56551,0.813514,-1.59396,-0.533162,0.0129327,-2.09261,1.56359,1.56463,0.815995,-0.531262,-0.218583,0.306804,0.0311406,-0.150101,-0.132352,0.72121,-0.581696,-0.246038,0.331656,0.0457486,-0.168678,-0.144385,0.759688,-1.31133,-17.3423,0.15021,24.8478,0.989092,-0.353185,0.310557,-0.491886,-1.3035,-0.2075,2.97922,0.496994,-0.0213167,0.296713
2326649,0.99,-1.59236,-0.531743,0.0121119,-2.09498,1.56379,1.56536,0.814272,-1.59455,-0.533411,0.013269,-2.09257,1.56342,1.56448,0.816763,-0.543096,-0.221265,0.31273,0.0315879,-0.149909,-0.132549,0.732681,-0.58925,-0.249514,0.336263,0.0463944,-0.17061,-0.146039,0.768111,-1.13677,-17.3938,0.249392,24.8993,0.983598,-0.346776,0.291331,-0.500424,-1.31416,-0.200035,2.9815,0.491631,-0.0269706,0.298585
2326650,0.99,-1.59294,-0.531977,0.0124378,-2.09495,1.56363,1.56522,0.815034,-1.59514,-0.533664,0.0136099,-2.09252,1.56325,1.56434,0.817539,-0.555304,-0.234571,0.316989,0.0317931,-0.149755,-0.138316,0.73512,-0.596804,-0.252991,0.340869,0.0470402,-0.172542,-0.147693,0.776535,-0.986012,-17.4176,0.328738,24.9707,0.966203,-0.32755,0.394785,-0.506834,-1.32517,-0.190987,2.98597,0.486511,-0.0329723,0.300265
2326651,0.99,-1.59353,-0.532219,0.0127698,-2.09491,1.56347,1.56507,0.815806,-1.59575,-0.533921,0.0139553,-2.09247,1.56307,1.56419,0.818324,-0.567421,-0.236825,0.323121,0.0351703,-0.153191,-0.143552,0.745239,-0.604358,-0.256467,0.345476,0.0476859,-0.174474,-0.149347,0.784958,-0.807484,-17.3423,0.328738,24.8993,0.926836,-0.276281,0.394785,-0.508746,-1.32173,-0.177784,2.98516,0.48134,-0.0394323,0.301846
2326652,0.99,-1.59413,-0.532465,0.0131047,-2.09488,1.56332,1.56493,0.816587,-1.59636,-0.53418,0.0143054,-2.09243,1.5629,1.56404,0.819118,-0.571664,-0.240392,0.323768,0.0316451,-0.153968,-0.140804,0.75156,-0.611912,-0.259943,0.350083,0.0483317,-0.176406,-0.151001,0.793381,-0.732105,-17.2907,0.352542,24.9469,0.830705,-0.269872,0.401194,-0.505468,-1.30527,-0.159585,2.97929,0.476082,-0.0463811,0.303459
2326653,0.99,-1.59473,-0.532712,0.0134374,-2.09484,1.56315,1.56479,0.81737,-1.59698,-0.534444,0.0146601,-2.09238,1.56272,1.56388,0.81992,-0.582809,-0.239581,0.325892,0.0342576,-0.163492,-0.142358,0.758757,-0.619466,-0.26342,0.354689,0.0489774,-0.178338,-0.152655,0.801804,-0.708302,-17.2669,0.42792,24.8993,0.819719,-0.295507,0.356333,-0.4961,-1.28953,-0.134624,2.97498,0.470842,-0.0540629,0.305202
2326654,0.99,-1.59534,-0.532963,0.0137772,-2.0948,1.56297,1.56465,0.818167,-1.59761,-0.534711,0.0150194,-2.09233,1.56254,1.56373,0.82073,-0.592826,-0.242455,0.326915,0.0334218,-0.166348,-0.138825,0.771401,-0.627019,-0.266896,0.359296,0.0496232,-0.18027,-0.154309,0.810228,-0.680531,-17.2431,0.53107,24.9707,0.847185,-0.314733,0.349924,-0.478224,-1.28453,-0.099216,2.97651,0.465564,-0.0629342,0.307099
2326655,0.99,-1.59595,-0.533217,0.0141345,-2.09476,1.5628,1.56451,0.81897,-1.59824,-0.534981,0.0153833,-2.09228,1.56236,1.56357,0.821548,-0.603319,-0.244081,0.331859,0.0357066,-0.168528,-0.141052,0.777591,-0.634573,-0.270373,0.363903,0.0502689,-0.182202,-0.155962,0.818651,-0.632923,-17.2431,0.42792,24.9231,0.870073,-0.340367,0.316965,-0.450847,-1.29274,-0.05206,2.9844,0.460126,-0.0731782,0.30911
2326656,0.99,-1.59658,-0.533473,0.0144845,-2.09471,1.56262,1.56437,0.819771,-1.59888,-0.535255,0.0157518,-2.09223,1.56217,1.56341,0.822375,-0.605164,-0.247629,0.342412,0.0398034,-0.170162,-0.141378,0.787354,-0.642127,-0.273849,0.36851,0.0509147,-0.184135,-0.157616,0.827074,-0.605152,-17.2907,0.503299,24.7724,0.909441,-0.40537,0.278513,-0.419695,-1.31002,-0.00171117,2.99568,0.454577,-0.0839072,0.31118
2326657,0.99,-1.59723,-0.533739,0.0148311,-2.09467,1.56244,1.56422,0.820602,-1.59953,-0.535532,0.0161249,-2.09217,1.56199,1.56326,0.82321,-0.611858,-0.250095,0.34428,0.0383971,-0.172417,-0.13888,0.796449,-0.649478,-0.277305,0.373057,0.0515565,-0.186009,-0.15922,0.834456,-0.581349,-17.3185,0.53107,24.7962,0.96071,-0.418187,0.135691,-0.392646,-1.33156,0.0404464,3.00739,0.449112,-0.093967,0.313235
2326658,0.99,-1.59787,-0.533999,0.0152021,-2.09463,1.56227,1.56408,0.821424,-1.60019,-0.535813,0.0165025,-2.09212,1.5618,1.56309,0.824052,-0.622341,-0.260256,0.350961,0.0389217,-0.173291,-0.141888,0.799903,-0.65683,-0.28076,0.377605,0.0521982,-0.187883,-0.160825,0.841839,-0.50597,-17.3938,0.451724,24.7724,0.881059,-0.424596,0.0130102,-0.370711,-1.35122,0.073312,3.01762,0.443812,-0.103229,0.315112
2326659,0.99,-1.59853,-0.534273,0.015567,-2.09458,1.56208,1.56393,0.822268,-1.60085,-0.536097,0.0168846,-2.09207,1.56161,1.56293,0.824901,-0.630956,-0.261873,0.353754,0.0390006,-0.177277,-0.142074,0.803155,-0.664181,-0.284215,0.382153,0.05284,-0.189756,-0.162429,0.849221,-0.402821,-17.3661,0.479495,24.7486,0.892961,-0.475866,-0.0318506,-0.351133,-1.36209,0.100911,3.02407,0.438624,-0.112047,0.316545
2326660,0.99,-1.59917,-0.53454,0.0159264,-2.09454,1.56189,1.56379,0.823118,-1.60152,-0.536385,0.0172713,-2.09202,1.56142,1.56277,0.825758,-0.634013,-0.262427,0.351365,0.0379457,-0.180035,-0.142149,0.818249,-0.671532,-0.28767,0.3867,0.0534818,-0.19163,-0.164033,0.856603,-0.50597,-17.493,0.681826,24.7724,0.887468,-0.539952,-0.0190333,-0.330979,-1.36954,0.128144,3.02944,0.433537,-0.120958,0.317224
2326661,0.99,-1.59984,-0.534817,0.016306,-2.0945,1.56171,1.56363,0.823952,-1.6022,-0.536676,0.0176626,-2.09196,1.56122,1.5626,0.826622,-0.640209,-0.268273,0.356507,0.0392626,-0.17727,-0.142109,0.822178,-0.678883,-0.291126,0.391248,0.0541236,-0.193504,-0.165637,0.863985,-0.454395,-17.4176,0.630252,24.8478,0.853594,-0.488683,0.0651953,-0.308772,-1.38122,0.15846,3.03715,0.428526,-0.130374,0.31693
2326662,0.99,-1.60052,-0.535093,0.0166806,-2.09445,1.56152,1.56348,0.824798,-1.60289,-0.536971,0.0180584,-2.09191,1.56103,1.56244,0.827493,-0.6495,-0.269146,0.361624,0.0434383,-0.177127,-0.141969,0.820481,-0.686234,-0.294581,0.395796,0.0547653,-0.195378,-0.167241,0.871368,-0.478199,-17.4692,0.630252,24.7962,0.892961,-0.424596,0.240061,-0.285847,-1.39498,0.190128,3.04504,0.423499,-0.140157,0.31566
2326663,0.99,-1.60119,-0.535384,0.0170582,-2.09441,1.56133,1.56332,0.82565,-1.60358,-0.537269,0.0184587,-2.09185,1.56083,1.56227,0.828372,-0.662518,-0.277991,0.362549,0.0437017,-0.182874,-0.145874,0.846596,-0.693586,-0.298036,0.400343,0.0554071,-0.197252,-0.168845,0.87875,-0.529774,-17.4176,0.733401,24.8478,0.966203,-0.379735,0.343516,-0.261262,-1.40556,0.2239,3.04947,0.418301,-0.150347,0.313644
2326664,0.99,-1.60189,-0.535668,0.0174508,-2.09437,1.56115,1.56316,0.826522,-1.60428,-0.53757,0.0188636,-2.0918,1.56063,1.5621,0.829258,-0.670584,-0.282703,0.373051,0.0438093,-0.182545,-0.153856,0.851932,-0.700937,-0.301491,0.404891,0.0560489,-0.199126,-0.170449,0.886132,-0.430592,-17.3661,0.578677,24.9231,0.926836,-0.321141,0.356333,-0.234267,-1.40669,0.260279,3.04828,0.412904,-0.160767,0.311283
2326665,0.99,-1.60257,-0.535956,0.0178401,-2.09433,1.56096,1.563,0.827412,-1.60499,-0.537875,0.0192731,-2.09174,1.56043,1.56192,0.830151,-0.674657,-0.280507,0.373963,0.0406794,-0.187872,-0.157176,0.85579,-0.708288,-0.304946,0.409439,0.0566907,-0.201,-0.172053,0.893514,-0.50597,-17.3661,0.578677,24.9985,0.898454,-0.333959,0.343516,-0.208554,-1.40365,0.293663,3.04578,0.407688,-0.17065,0.308998
2326666,0.99,-1.60327,-0.536243,0.0182269,-2.09428,1.56076,1.56284,0.828303,-1.60571,-0.538184,0.019687,-2.09168,1.56023,1.56175,0.831052,-0.678262,-0.280292,0.37836,0.0410436,-0.186911,-0.156205,0.863306,-0.715639,-0.308402,0.413987,0.0573324,-0.202874,-0.173657,0.900897,-0.656727,-17.3423,0.681826,24.9707,0.86458,-0.443822,0.226328,-0.186808,-1.41346,0.320805,3.05114,0.403075,-0.179647,0.307064
2326667,0.99,-1.60399,-0.536537,0.0186218,-2.09423,1.56057,1.56269,0.829209,-1.60643,-0.538495,0.0201055,-2.09162,1.56002,1.56157,0.831959,-0.682093,-0.285688,0.385439,0.0441304,-0.185762,-0.155985,0.874872,-0.722284,-0.311812,0.418442,0.0579659,-0.204687,-0.175209,0.907149,-0.605152,-17.3661,0.781009,24.9469,0.784929,-0.539952,0.143015,-0.17104,-1.44009,0.339594,3.06567,0.39908,-0.187588,0.305548
2326668,0.99,-1.60471,-0.53684,0.0190229,-2.09418,1.56038,1.56252,0.83012,-1.60716,-0.538811,0.0205284,-2.09156,1.55982,1.5614,0.832873,-0.691518,-0.287327,0.390267,0.0474078,-0.186368,-0.160108,0.884405,-0.728929,-0.315223,0.422898,0.0585994,-0.2065,-0.176761,0.913402,-0.430592,-17.3661,0.860354,24.8993,0.76845,-0.533544,0.09083,-0.162893,-1.47368,0.34791,3.08292,0.39539,-0.19434,0.304334
2326669,0.99,-1.60545,-0.537139,0.0194158,-2.09412,1.56018,1.56234,0.831016,-1.60789,-0.539129,0.0209557,-2.09151,1.55961,1.56122,0.833792,-0.698748,-0.288309,0.3877,0.0511632,-0.192237,-0.165916,0.885045,-0.735575,-0.318634,0.427354,0.0592329,-0.208313,-0.178313,0.919654,-0.379017,-17.3661,1.11029,24.7724,0.784929,-0.450231,0.071604,-0.15847,-1.50929,0.351869,3.09885,0.391581,-0.200619,0.303201
2326670,0.99,-1.60621,-0.53746,0.0198185,-2.09407,1.55998,1.56217,0.831927,-1.60864,-0.539451,0.0213875,-2.09145,1.5594,1.56104,0.834718,-0.7174,-0.299162,0.395094,0.0480663,-0.192353,-0.170208,0.893648,-0.74222,-0.322045,0.431809,0.0598664,-0.210126,-0.179865,0.925906,-0.0497324,-17.1915,1.23725,24.7486,0.802324,-0.366002,0.155832,-0.150702,-1.54251,0.361737,3.11159,0.3873,-0.207433,0.301936
2326671,0.99,-1.60696,-0.537772,0.0202351,-2.09402,1.55977,1.56199,0.832849,-1.60939,-0.539777,0.0218238,-2.09139,1.55919,1.56086,0.83565,-0.730757,-0.302822,0.399439,0.048174,-0.193306,-0.176944,0.90617,-0.748865,-0.325455,0.436265,0.0604999,-0.211939,-0.181417,0.932159,0.148632,-17.0883,1.41577,24.7486,0.836199,-0.301915,0.0587866,-0.135075,-1.56508,0.382566,3.11957,0.382425,-0.215145,0.300416
2326672,0.99,-1.60771,-0.538093,0.0206387,-2.09397,1.55956,1.56182,0.833764,-1.61014,-0.540106,0.0222645,-2.09132,1.55897,1.56068,0.836589,-0.734004,-0.306332,0.399193,0.0453396,-0.197024,-0.170118,0.905999,-0.75551,-0.328866,0.440721,0.0611333,-0.213752,-0.182969,0.938411,0.32716,-16.9376,1.61811,24.7724,0.847185,-0.424596,0.162241,-0.110765,-1.5779,0.414844,3.12495,0.377115,-0.223645,0.298605
2326673,0.99,-1.60846,-0.53842,0.0210603,-2.09391,1.55936,1.56166,0.834712,-1.6109,-0.540438,0.0227097,-2.09126,1.55876,1.56049,0.837534,-0.741217,-0.310292,0.401571,0.0464209,-0.195406,-0.164779,0.916169,-0.762155,-0.332277,0.445176,0.0617668,-0.215565,-0.18452,0.944664,0.32716,-16.886,1.69348,24.7724,0.859087,-0.572911,0.135691,-0.0788986,-1.58722,0.457875,3.13103,0.371612,-0.232809,0.296503
2326674,0.99,-1.60922,-0.538744,0.0214829,-2.09387,1.55914,1.5615,0.835644,-1.61167,-0.540774,0.0231593,-2.0912,1.55854,1.56031,0.838484,-0.746746,-0.312951,0.413543,0.0471658,-0.200437,-0.167021,0.922661,-0.7688,-0.335688,0.449632,0.0624003,-0.217378,-0.186072,0.950916,0.350963,-16.8384,1.76886,24.9231,0.915849,-0.694677,0.135691,-0.0440708,-1.59523,0.504952,3.13825,0.366183,-0.242117,0.294179
2326675,0.99,-1.60999,-0.539072,0.0219057,-2.09382,1.55894,1.56132,0.836595,-1.61245,-0.541113,0.0236134,-2.09114,1.55832,1.56012,0.839442,-0.75189,-0.313251,0.4129,0.0483534,-0.202572,-0.167062,0.932842,-0.775446,-0.339098,0.454088,0.0630338,-0.219191,-0.187624,0.957168,0.32716,-16.8384,1.84424,24.9231,0.903948,-0.733129,0.181467,-0.011922,-1.60517,0.547314,3.14724,0.361143,-0.250997,0.291726
2326676,0.99,-1.61076,-0.539401,0.0223455,-2.09376,1.55873,1.56114,0.837544,-1.61323,-0.541455,0.024072,-2.09107,1.5581,1.55993,0.840405,-0.754644,-0.323947,0.41839,0.0523029,-0.204047,-0.175554,0.936936,-0.782091,-0.342509,0.458543,0.0636673,-0.221004,-0.189176,0.963421,0.275585,-16.7868,1.76886,24.9231,0.915849,-0.669042,0.143015,0.0156677,-1.61391,0.58316,3.15557,0.356495,-0.259395,0.289225
2326677,0.99,-1.61153,-0.539728,0.0227759,-2.09371,1.55852,1.56095,0.838515,-1.61402,-0.541801,0.0245348,-2.09101,1.55788,1.55974,0.841374,-0.760697,-0.326056,0.420816,0.0536513,-0.208456,-0.180904,0.944112,-0.787689,-0.345857,0.462881,0.0642891,-0.222755,-0.190674,0.968503,0.101024,-16.7868,1.76886,24.9707,0.875566,-0.611364,0.110056,0.0378786,-1.6106,0.612468,3.15732,0.352034,-0.267191,0.286767
2326678,0.99,-1.61231,-0.540071,0.0232267,-2.09365,1.5583,1.56077,0.83949,-1.61481,-0.54215,0.0250021,-2.09094,1.55765,1.55955,0.842347,-0.782459,-0.328185,0.430801,0.0584406,-0.211414,-0.18373,0.951457,-0.793287,-0.349205,0.467218,0.0649108,-0.224505,-0.192173,0.973586,0.0732535,-16.7353,1.66968,24.8716,0.830705,-0.560094,0.135691,0.0568977,-1.59548,0.63757,3.15198,0.347712,-0.27469,0.284369
2326679,0.99,-1.61309,-0.54041,0.0236814,-2.09359,1.55809,1.56058,0.84046,-1.61561,-0.542503,0.0254736,-2.09088,1.55743,1.55935,0.843326,-0.780935,-0.328931,0.432805,0.059431,-0.213532,-0.187523,0.959358,-0.798886,-0.352552,0.471555,0.0655326,-0.226255,-0.193671,0.978668,-0.125111,-16.7353,1.66968,24.8716,0.740068,-0.488683,0.116465,0.0757392,-1.57757,0.661586,3.14324,0.343555,-0.282362,0.281998
2326680,0.99,-1.61388,-0.540766,0.0241377,-2.09354,1.55787,1.56038,0.841445,-1.61641,-0.542859,0.0259495,-2.09081,1.5572,1.55916,0.84431,-0.777259,-0.332222,0.4437,0.060368,-0.215127,-0.186591,0.963502,-0.804484,-0.3559,0.475893,0.0661543,-0.228006,-0.195169,0.983751,-0.252064,-16.6083,1.66968,24.8716,0.683306,-0.379735,0.0844213,0.0886287,-1.56309,0.677099,3.13461,0.339693,-0.289324,0.279641
2326681,0.99,-1.61467,-0.541122,0.0246034,-2.09348,1.55766,1.56018,0.842432,-1.61722,-0.543218,0.0264297,-2.09075,1.55697,1.55896,0.845298,-0.78163,-0.345458,0.450496,0.0608651,-0.216168,-0.189163,0.984431,-0.810083,-0.359248,0.48023,0.0667761,-0.229756,-0.196668,0.988833,-0.279835,-16.5329,1.69348,24.8716,0.615556,-0.314733,0.0972387,0.0866299,-1.54541,0.672523,3.12459,0.336116,-0.294042,0.277279
2326682,0.99,-1.61548,-0.541474,0.0250747,-2.09342,1.55742,1.55999,0.843412,-1.61804,-0.543581,0.0269143,-2.09068,1.55674,1.55876,0.846292,-0.782808,-0.349883,0.462867,0.0594414,-0.226092,-0.190985,0.987202,-0.815681,-0.362596,0.484567,0.0673979,-0.231506,-0.198166,0.993915,-0.176685,-16.4814,1.72126,24.8239,0.683306,-0.373326,0.110056,0.0660493,-1.51133,0.642591,3.10892,0.332621,-0.295601,0.274879
2326683,0.99,-1.61628,-0.541834,0.025553,-2.09336,1.55719,1.55979,0.844422,-1.61886,-0.543946,0.0274032,-2.09061,1.5565,1.55856,0.847291,-0.789909,-0.35121,0.465397,0.0577395,-0.233753,-0.190412,0.986663,-0.821279,-0.365943,0.488905,0.0680196,-0.233257,-0.199664,0.998998,-0.152882,-16.4814,1.76886,24.7962,0.745561,-0.366002,0.0587866,0.0287941,-1.4653,0.589661,3.09127,0.329238,-0.294146,0.27244
2326684,0.99,-1.61709,-0.542188,0.026039,-2.0933,1.55695,1.55959,0.84541,-1.61969,-0.544316,0.0278965,-2.09054,1.55627,1.55836,0.848295,-0.784628,-0.351927,0.465671,0.0583822,-0.234272,-0.192261,0.988117,-0.826878,-0.369291,0.493242,0.0686414,-0.235007,-0.201162,1.00408,-0.204456,-16.5329,1.74506,24.8239,0.807817,-0.431005,0.103647,-0.01868,-1.4234,0.523921,3.07916,0.326037,-0.290773,0.269952
2326685,0.99,-1.61791,-0.542548,0.0265185,-2.09325,1.55671,1.55939,0.846418,-1.62052,-0.544688,0.028394,-2.09047,1.55603,1.55816,0.849305,-0.788905,-0.347926,0.474109,0.058384,-0.235707,-0.192975,0.994135,-0.832476,-0.372639,0.49758,0.0692632,-0.236758,-0.202661,1.00916,-0.204456,-16.6361,1.79663,24.8716,0.875566,-0.5015,0.110056,-0.0721355,-1.39986,0.452724,3.07789,0.323105,-0.286313,0.267383
2326686,0.99,-1.61873,-0.542908,0.027005,-2.09318,1.55647,1.55919,0.847432,-1.62136,-0.545064,0.028896,-2.0904,1.55579,1.55795,0.850319,-0.797312,-0.348984,0.474777,0.0606906,-0.239934,-0.189646,0.995916,-0.838074,-0.375987,0.501917,0.0698849,-0.238508,-0.204159,1.01425,-0.0497324,-16.7353,1.89582,24.8239,0.932329,-0.572911,0.135691,-0.127881,-1.40429,0.380938,3.09029,0.320609,-0.281568,0.264741
2326687,0.99,-1.61957,-0.54327,0.0274892,-2.09312,1.55623,1.55899,0.848429,-1.6222,-0.545444,0.0294021,-2.09033,1.55555,1.55775,0.851337,-0.805729,-0.354216,0.484925,0.0606828,-0.238648,-0.192089,1.00068,-0.84243,-0.379257,0.506115,0.0704922,-0.240195,-0.205603,1.01816,0.124828,-16.7868,1.92359,24.8478,0.881059,-0.636998,0.200693,-0.180328,-1.43223,0.315368,3.11316,0.318537,-0.277538,0.262077
2326688,0.99,-1.62041,-0.543645,0.0279714,-2.09306,1.55599,1.55878,0.849454,-1.62305,-0.545826,0.0299124,-2.09026,1.55531,1.55754,0.852359,-0.811189,-0.358545,0.479425,0.0582258,-0.239386,-0.198413,1.00357,-0.846787,-0.382527,0.510313,0.0710995,-0.241881,-0.207047,1.02207,0.251781,-16.7868,2.09815,24.8478,0.859087,-0.585729,0.194285,-0.225423,-1.47126,0.261344,3.14112,0.316738,-0.274804,0.259474
2326689,0.99,-1.62125,-0.544028,0.028461,-2.09299,1.55575,1.55857,0.850468,-1.6239,-0.546212,0.0304269,-2.09019,1.55507,1.55733,0.853385,-0.824017,-0.366773,0.47741,0.0592741,-0.238664,-0.198539,1.00302,-0.851143,-0.385797,0.514511,0.0717068,-0.243568,-0.20849,1.02598,0.454113,-16.6083,2.32825,24.8478,0.773943,-0.520726,0.187876,-0.256125,-1.51031,0.229854,3.16974,0.314815,-0.27433,0.25703
2326690,0.99,-1.62211,-0.544406,0.0289503,-2.09293,1.55551,1.55836,0.851508,-1.62475,-0.546601,0.0309456,-2.09012,1.55482,1.55712,0.854415,-0.828656,-0.370036,0.485449,0.0595928,-0.238246,-0.20258,1.01291,-0.855499,-0.389067,0.518709,0.0723141,-0.245255,-0.209934,1.02989,0.704052,-16.5329,2.55438,24.7724,0.71718,-0.463048,0.135691,-0.268804,-1.54043,0.226117,3.19456,0.312408,-0.276519,0.254811
2326691,0.98,-1.62296,-0.544783,0.0294413,-2.09286,1.55527,1.55816,0.852554,-1.62561,-0.546993,0.0314685,-2.09004,1.55458,1.55691,0.855449,-0.833931,-0.370975,0.484017,0.0629962,-0.235102,-0.200945,1.01407,-0.859855,-0.392337,0.522908,0.0729214,-0.246941,-0.211378,1.0338,0.831005,-16.5091,2.78449,24.7962,0.695207,-0.539952,0.0322363,-0.26785,-1.56164,0.24276,3.21446,0.309476,-0.280562,0.252821
2326692,0.98,-1.62383,-0.545159,0.0299475,-2.09279,1.55502,1.55795,0.853578,-1.62648,-0.547389,0.0319956,-2.08997,1.55433,1.5567,0.856486,-0.843459,-0.371943,0.485691,0.0684111,-0.232555,-0.204241,1.01855,-0.864211,-0.395607,0.527106,0.0735288,-0.248628,-0.212822,1.03771,1.08491,-16.4814,2.95905,24.697,0.677812,-0.624181,0.0523779,-0.255085,-1.57953,0.27697,3.22983,0.305875,-0.286111,0.250953
2326693,0.98,-1.6247,-0.545538,0.0304459,-2.09271,1.55477,1.55774,0.85462,-1.62735,-0.547788,0.0325269,-2.0899,1.55408,1.55648,0.857528,-0.851857,-0.373348,0.491077,0.0691564,-0.241906,-0.204795,1.02362,-0.868568,-0.398877,0.531304,0.0741361,-0.250315,-0.214266,1.04162,1.31105,-16.5329,3.086,24.5978,0.695207,-0.636998,0.103647,-0.230512,-1.59821,0.328053,3.2411,0.30153,-0.293178,0.249051
2326694,0.98,-1.62556,-0.545921,0.0309529,-2.09264,1.55452,1.55753,0.855655,-1.62822,-0.54819,0.0330624,-2.08982,1.55382,1.55627,0.858574,-0.853068,-0.385555,0.491886,0.0707739,-0.243697,-0.206697,1.02722,-0.872924,-0.402147,0.535502,0.0747434,-0.252002,-0.215709,1.04554,1.36262,-16.5091,3.18915,24.5978,0.71718,-0.617772,0.116465,-0.197733,-1.61276,0.389912,3.24707,0.296563,-0.301221,0.247044
2326695,0.98,-1.62643,-0.546312,0.031464,-2.09258,1.55427,1.55732,0.856708,-1.6291,-0.548595,0.0336021,-2.08975,1.55357,1.55605,0.859623,-0.860304,-0.387081,0.500802,0.0689776,-0.246031,-0.205437,1.03409,-0.87728,-0.405417,0.5397,0.0753507,-0.253688,-0.217153,1.04945,1.438,-16.4576,3.23676,24.697,0.740068,-0.649816,0.135691,-0.161943,-1.61372,0.454634,3.24542,0.291137,-0.309394,0.244961
2326696,0.98,-1.62732,-0.546709,0.0319793,-2.09251,1.55403,1.55712,0.857764,-1.62998,-0.549004,0.034146,-2.08967,1.55332,1.55583,0.860676,-0.881257,-0.38702,0.50296,0.0668219,-0.2479,-0.203223,1.02945,-0.881636,-0.408687,0.543898,0.075958,-0.255375,-0.218597,1.05336,1.61256,-16.4337,3.3161,24.7248,0.796831,-0.72672,0.155832,-0.122849,-1.60913,0.520946,3.242,0.285609,-0.317815,0.242847
2326697,0.98,-1.6282,-0.547109,0.0325045,-2.09245,1.55378,1.55692,0.858809,-1.63086,-0.549416,0.034694,-2.08959,1.55306,1.55561,0.861733,-0.88542,-0.387677,0.503235,0.0675275,-0.254942,-0.201429,1.03937,-0.884691,-0.411867,0.547941,0.0765486,-0.256998,-0.219986,1.05614,1.68794,-16.406,3.3161,24.7962,0.841692,-0.817357,0.162241,-0.0743936,-1.61536,0.596356,3.24549,0.280274,-0.327614,0.240744
2326698,0.98,-1.6291,-0.54751,0.0330294,-2.09237,1.55352,1.55671,0.859862,-1.63175,-0.549831,0.0352459,-2.08952,1.5528,1.55539,0.862791,-0.888841,-0.387222,0.512517,0.0710129,-0.255087,-0.207266,1.04456,-0.887745,-0.415048,0.551983,0.0771393,-0.25862,-0.221375,1.05891,1.71571,-16.406,3.33991,24.7486,0.784929,-0.830175,0.155832,-0.0181841,-1.63825,0.679106,3.25773,0.275337,-0.338742,0.238722
2326699,0.98,-1.62999,-0.547923,0.0335614,-2.09229,1.55328,1.55649,0.860931,-1.63264,-0.550249,0.035802,-2.08944,1.55254,1.55517,0.863853,-0.897027,-0.393556,0.514311,0.0750836,-0.249813,-0.209755,1.07066,-0.890799,-0.418228,0.556025,0.07773,-0.260242,-0.222763,1.06169,1.84266,-16.3068,3.39148,24.6256,0.700701,-0.778905,-0.0126246,0.0385678,-1.67168,0.759458,3.27395,0.270825,-0.350166,0.236836
