shamilmamedov/beam_handling/log/vibration_suppression_ICRA/OCP_T1_0.56s.csv
duration, success rate, q[0], q[1], q[2], q[3], q[4], q[5], q[6],q_d[0], q_d[1], q_d[2], q_d[3], q_d[4], q_d[5], q_d[6],dq[0], dq[1], dq[2], dq[3], dq[4], dq[5], dq[6],dq_d[0], dq_d[1], dq_d[2], dq_d[3], dq_d[4], dq_d[5], dq_d[6],tau_J[0], tau_J[1], tau_J[2], tau_J[3], tau_J[4], tau_J[5], tau_J[6],tau_ext_hat_filtered[0], tau_ext_hat_filtered[1], tau_ext_hat_filtered[2], tau_ext_hat_filtered[3], tau_ext_hat_filtered[4], tau_ext_hat_filtered[5], tau_ext_hat_filtered[6]
2946467,0,-1.57096,-0.522844,-0.000596167,-2.09588,-1.57081,1.57149,0.785864,-1.5708,-0.523599,-4.23269e-08,-2.0944,-1.5708,1.5708,0.785399,0.000773423,0.0010279,0.000464461,0.00141637,-7.7599e-05,0.000137595,-0.000519169,0,0,0,0,0,0,0,0.124828,-10.213,0.935733,20.8448,-0.741255,-0.527135,-0.26531,0.152066,-1.05262,0.787347,2.36179,-0.184386,-0.52283,-0.306867
2946468,1,-1.57097,-0.522845,-0.000597838,-2.09588,-1.57081,1.57149,0.785867,-1.5708,-0.523599,-4.23269e-08,-2.0944,-1.5708,1.5708,0.785399,-4.11963e-05,0.000128458,-0.000247171,-0.000262182,0.000151718,0.000329089,0.000603323,0,0,0,0,0,0,0,0.148632,-10.1892,0.959536,20.8963,-0.746748,-0.533544,-0.290945,0.15077,-1.05409,0.785462,2.36209,-0.184338,-0.52303,-0.306876
2946469,1,-1.57096,-0.522844,-0.000596167,-2.09588,-1.57081,1.57149,0.785861,-1.5708,-0.523599,-4.23269e-08,-2.0944,-1.5708,1.5708,0.785399,0.000529348,0.00064245,0.000392031,-0.0007316,0.000541955,-1.79662e-05,-0.00153056,0,0,0,0,0,0,0,0.124828,-10.213,0.935733,20.9201,-0.75865,-0.527135,-0.23876,0.149625,-1.0563,0.783822,2.36284,-0.184294,-0.523223,-0.30697
2946470,1,-1.57097,-0.522844,-0.000596167,-2.09588,-1.57081,1.57149,0.78586,-1.5708,-0.523599,-4.23269e-08,-2.0944,-1.5708,1.5708,0.785399,-0.000203913,0.0004283,0.000261354,6.90785e-05,0.000123944,-0.000486695,-0.00125774,0,0,0,0,0,0,0,0.148632,-10.213,0.935733,20.8963,-0.752241,-0.514318,-0.232351,0.148621,-1.0593,0.782381,2.36438,-0.184281,-0.523406,-0.307118
2946471,1,-1.57096,-0.522847,-0.000597838,-2.09588,-1.57081,1.57149,0.78586,-1.5708,-0.523599,-4.23269e-08,-2.0944,-1.5708,1.5708,0.785399,0.00042087,-0.00082809,-0.000382576,4.60523e-05,-0.000324272,-8.71046e-05,-0.00083849,0,0,0,0,0,0,0,0.124828,-10.1654,0.959536,20.8963,-0.741255,-0.520726,-0.232351,0.147935,-1.06128,0.781362,2.36548,-0.184258,-0.523525,-0.30727
2946472,1,-1.57096,-0.522845,-0.000599508,-2.09588,-1.57081,1.57149,0.785862,-1.5708,-0.523599,-4.23269e-08,-2.0944,-1.5708,1.5708,0.785399,-0.000276232,4.75166e-06,-0.000811863,3.07015e-05,-1.27305e-05,0.000179289,0.000186992,0,0,0,0,0,0,0,0.148632,-10.1892,0.98334,20.8963,-0.746748,-0.527135,-0.252493,0.14802,-1.06092,0.781487,2.36542,-0.184184,-0.523491,-0.307374
2946473,1,-1.57096,-0.522849,-0.000599508,-2.09588,-1.57081,1.57149,0.785862,-1.5708,-0.523599,-4.23269e-08,-2.0944,-1.5708,1.5708,0.785399,-0.000184155,-0.000553644,-0.000541242,-0.000536344,0.000432322,0.000356885,0.000124661,0,0,0,0,0,0,0,0.148632,-10.1654,0.98334,20.9201,-0.75865,-0.533544,-0.252493,0.14896,-1.05939,0.782934,2.36489,-0.184078,-0.523307,-0.307406
2946474,1,-1.57097,-0.522844,-0.000596167,-2.09588,-1.57081,1.57149,0.785865,-1.5708,-0.523599,-4.23269e-08,-2.0944,-1.5708,1.5708,0.785399,-0.00012277,0.000744528,0.000752796,0.000199249,5.0856e-05,5.64434e-07,0.00103254,0,0,0,0,0,0,0,0.148632,-10.213,0.935733,20.8963,-0.752241,-0.527135,-0.278127,0.149975,-1.05819,0.784515,2.36462,-0.183992,-0.523119,-0.307371
2946475,1,-1.57097,-0.522846,-0.000601457,-2.09588,-1.57081,1.57149,0.785865,-1.5708,-0.523599,-4.23269e-08,-2.0944,-1.5708,1.5708,0.785399,-0.000731461,-6.04601e-05,-0.00126137,0.00133926,3.3904e-05,3.76289e-07,0.000688362,0,0,0,0,0,0,0,0.176403,-10.1892,1.01111,20.8448,-0.752241,-0.527135,-0.278127,0.150817,-1.0575,0.785825,2.36422,-0.183926,-0.522981,-0.307301
2946476,1,-1.57096,-0.522846,-0.000596167,-2.09588,-1.57081,1.57149,0.785865,-1.5708,-0.523599,-4.23269e-08,-2.0944,-1.5708,1.5708,0.785399,0.0012756,-4.03067e-05,0.000922322,-0.000870399,2.26027e-05,0.00023761,0.000458908,0,0,0,0,0,0,0,0.101024,-10.1892,0.935733,20.9201,-0.752241,-0.533544,-0.278127,0.151485,-1.05669,0.786922,2.3634,-0.183868,-0.522887,-0.307237
2946477,1,-1.57097,-0.522842,-0.000597838,-2.09588,-1.57081,1.57149,0.785867,-1.5708,-0.523599,-4.23269e-08,-2.0944,-1.5708,1.5708,0.785399,-0.000263226,0.00117955,5.80694e-05,0.00118297,1.50685e-05,-7.89524e-05,0.00101802,0,0,0,0,0,0,0,0.148632,-10.2408,0.959536,20.8448,-0.752241,-0.527135,-0.297354,0.151152,-1.05664,0.786654,2.36294,-0.183871,-0.522965,-0.307208
2946478,1,-1.57096,-0.522845,-0.000596167,-2.09588,-1.57081,1.57149,0.785861,-1.5708,-0.523599,-4.23269e-08,-2.0944,-1.5708,1.5708,0.785399,0.00093814,-0.000420056,0.000595525,-0.000417778,-0.000396855,0.000184724,-0.00149146,0,0,0,0,0,0,0,0.101024,-10.1892,0.935733,20.8963,-0.741255,-0.533544,-0.23876,0.149953,-1.05758,0.785184,2.36285,-0.183925,-0.523199,-0.307235
2946479,1,-1.57096,-0.522844,-0.000595707,-2.09588,-1.57081,1.57149,0.785865,-1.5708,-0.523599,-4.23269e-08,-2.0944,-1.5708,1.5708,0.785399,-0.000488197,0.000276775,-0.000159795,-0.000278519,-0.00026457,-0.00011421,0.000463754,0,0,0,0,0,0,0,0.148632,-10.213,0.959536,20.8963,-0.741255,-0.527135,-0.278127,0.148624,-1.05841,0.783556,2.36286,-0.183993,-0.523455,-0.307321
2946480,1,-1.57096,-0.522845,-0.000597127,-2.09588,-1.57081,1.57149,0.78586,-1.5708,-0.523599,-4.23269e-08,-2.0944,-1.5708,1.5708,0.785399,-0.000325465,-0.000372296,-0.00010653,-0.000185679,0.000230521,0.000161219,-0.00138625,0,0,0,0,0,0,0,0.148632,-10.1892,0.959536,20.8963,-0.752241,-0.533544,-0.232351,0.147882,-1.05888,0.782777,2.36305,-0.184047,-0.52362,-0.307435
2946481,1,-1.57096,-0.522847,-0.000593982,-2.09588,-1.57081,1.57149,0.78586,-1.5708,-0.523599,-4.23269e-08,-2.0944,-1.5708,1.5708,0.785399,0.000339835,-0.000805009,0.00113541,-0.000123786,-4.97699e-05,-0.000129879,-0.000924168,0,0,0,0,0,0,0,0.124828,-10.1654,0.907962,20.8963,-0.746748,-0.527135,-0.232351,0.147442,-1.05824,0.782359,2.36287,-0.184071,-0.523729,-0.307553
2946482,1,-1.57097,-0.522844,-0.000597759,-2.09588,-1.57081,1.57149,0.78586,-1.5708,-0.523599,-4.23269e-08,-2.0944,-1.5708,1.5708,0.785399,-0.000979869,0.000576951,-0.000449489,-8.2524e-05,0.000170271,0.000150773,-0.000853471,0,0,0,0,0,0,0,0.176403,-10.213,0.959536,20.8963,-0.752241,-0.533544,-0.225942,0.146891,-1.05687,0.781674,2.36238,-0.184079,-0.523853,-0.307636
2946483,1,-1.57097,-0.522848,-0.000596141,-2.09588,-1.57081,1.57149,0.785862,-1.5708,-0.523599,-4.23269e-08,-2.0944,-1.5708,1.5708,0.785399,-3.632e-06,-0.000172178,0.000257153,-0.000611828,0.000350873,-0.000374203,0.000177005,0,0,0,0,0,0,0,0.148632,-10.1892,0.935733,20.9201,-0.75865,-0.520726,-0.246084,0.146863,-1.05649,0.781699,2.36239,-0.184091,-0.523917,-0.307638
2946484,1,-1.57096,-0.522844,-0.000596158,-2.09588,-1.57081,1.57149,0.785862,-1.5708,-0.523599,-4.23269e-08,-2.0944,-1.5708,1.5708,0.785399,0.000554391,0.000442027,0.000171435,-0.000407885,-0.000410345,-0.000249469,0.000355362,0,0,0,0,0,0,0,0.124828,-10.213,0.935733,20.9201,-0.741255,-0.520726,-0.252493,0.146954,-1.05734,0.781909,2.36312,-0.184132,-0.523979,-0.307547
2946485,1,-1.57097,-0.522844,-0.000599505,-2.09588,-1.57081,1.57149,0.785865,-1.5708,-0.523599,-4.23269e-08,-2.0944,-1.5708,1.5708,0.785399,-0.000836832,0.000294685,-0.000999334,0.0008417,-7.01127e-05,-0.000166312,0.00118634,0,0,0,0,0,0,0,0.176403,-10.213,0.98334,20.8725,-0.746748,-0.520726,-0.278127,0.147135,-1.0587,0.782286,2.36395,-0.184178,-0.52403,-0.307382
2946486,1,-1.57096,-0.522849,-0.000597837,-2.09588,-1.57081,1.57149,0.785864,-1.5708,-0.523599,-4.23269e-08,-2.0944,-1.5708,1.5708,0.785399,9.17258e-05,-0.00156678,-0.000109411,-0.00055249,0.000394068,0.000363843,0.000316178,0,0,0,0,0,0,0,0.148632,-10.1377,0.959536,20.9201,-0.75865,-0.533544,-0.26531,0.148064,-1.05869,0.783721,2.36386,-0.184166,-0.523944,-0.307188
2946487,1,-1.57097,-0.522847,-0.000596167,-2.09588,-1.57081,1.57149,0.785867,-1.5708,-0.523599,-4.23269e-08,-2.0944,-1.5708,1.5708,0.785399,-0.000588463,-0.000394907,0.000483872,0.000188485,0.000262712,5.20304e-06,0.00116022,0,0,0,0,0,0,0,0.176403,-10.1654,0.935733,20.8963,-0.75865,-0.527135,-0.290945,0.149066,-1.05619,0.785117,2.36268,-0.184117,-0.523811,-0.307012
2946488,1,-1.57097,-0.522847,-0.000599508,-2.09588,-1.57081,1.57149,0.785867,-1.5708,-0.523599,-4.23269e-08,-2.0944,-1.5708,1.5708,0.785399,-0.000392309,-0.000263271,-0.000791043,0.000125657,-6.22178e-05,-0.00023389,0.000773481,0,0,0,0,0,0,0,0.176403,-10.1654,0.98334,20.8963,-0.752241,-0.520726,-0.290945,0.149897,-1.05291,0.786119,2.36118,-0.184074,-0.523697,-0.30688
2946489,1,-1.57097,-0.522844,-0.000596167,-2.09588,-1.57081,1.57149,0.785863,-1.5708,-0.523599,-4.23269e-08,-2.0944,-1.5708,1.5708,0.785399,0.000388075,0.00158772,0.000586262,8.37711e-05,0.00019588,8.14321e-05,-0.000671141,0,0,0,0,0,0,0,0.148632,-10.2408,0.935733,20.8963,-0.75865,-0.527135,-0.258901,0.150635,-1.05167,0.786979,2.3605,-0.184079,-0.523628,-0.306818
2946490,1,-1.57097,-0.522848,-0.000596167,-2.09588,-1.57081,1.57149,0.785862,-1.5708,-0.523599,-4.23269e-08,-2.0944,-1.5708,1.5708,0.785399,0.000258716,-0.000704755,0.000390841,5.58474e-05,-0.000513673,5.42881e-05,-0.000922145,0,0,0,0,0,0,0,0.148632,-10.1654,0.935733,20.8963,-0.741255,-0.527135,-0.246084,0.150543,-1.05289,0.786659,2.36087,-0.184155,-0.523717,-0.306831
2946491,1,-1.57097,-0.522847,-0.000597838,-2.09588,-1.57081,1.57149,0.785865,-1.5708,-0.523599,-4.23269e-08,-2.0944,-1.5708,1.5708,0.785399,-0.000477136,-0.000469837,-0.000296251,-0.00051958,-0.000342449,-0.000201167,0.000572031,0,0,0,0,0,0,0,0.176403,-10.1654,0.959536,20.9201,-0.741255,-0.520726,-0.278127,0.150014,-1.05373,0.785625,2.3612,-0.18425,-0.523866,-0.306894
2946492,1,-1.57097,-0.522844,-0.000596167,-2.09588,-1.57081,1.57149,0.785861,-1.5708,-0.523599,-4.23269e-08,-2.0944,-1.5708,1.5708,0.785399,-0.000318091,0.000800399,0.000359311,0.000210425,-2.48486e-05,-0.00037147,-0.00107671,0,0,0,0,0,0,0,0.176403,-10.213,0.935733,20.8963,-0.746748,-0.514318,-0.23876,0.149904,-1.054,0.78509,2.36147,-0.184329,-0.52394,-0.306975
2946493,1,-1.57097,-0.522844,-0.000597838,-2.09588,-1.57081,1.57149,0.785858,-1.5708,-0.523599,-4.23269e-08,-2.0944,-1.5708,1.5708,0.785399,-0.000212061,0.0005336,-0.000317271,-0.000416529,0.000186885,-1.02879e-05,-0.00166724,0,0,0,0,0,0,0,0.176403,-10.213,0.959536,20.9201,-0.752241,-0.520726,-0.213125,0.150122,-1.05575,0.784966,2.36245,-0.184408,-0.523972,-0.307054
2946494,1,-1.57096,-0.522848,-0.000597838,-2.09588,-1.57081,1.57149,0.785862,-1.5708,-0.523599,-4.23269e-08,-2.0944,-1.5708,1.5708,0.785399,0.00162186,-0.000201079,-0.000211514,-0.000834498,0.000361949,0.0002305,0.000109209,0,0,0,0,0,0,0,0.101024,-10.1892,0.959536,20.9439,-0.75865,-0.527135,-0.246084,0.150178,-1.05856,0.784676,2.36412,-0.184499,-0.524023,-0.307096
2946495,1,-1.57096,-0.52285,-0.000597838,-2.09588,-1.57081,1.57149,0.78586,-1.5708,-0.523599,-4.23269e-08,-2.0944,-1.5708,1.5708,0.785399,-3.23812e-05,-0.000690865,-0.000141009,0.000557292,-0.000402961,0.000153667,-0.000673179,0,0,0,0,0,0,0,0.148632,-10.1654,0.959536,20.8963,-0.741255,-0.527135,-0.225942,0.149785,-1.06016,0.783861,2.36539,-0.184581,-0.524109,-0.307064
2946496,1,-1.57097,-0.522841,-0.000597838,-2.09588,-1.57081,1.57149,0.785863,-1.5708,-0.523599,-4.23269e-08,-2.0944,-1.5708,1.5708,0.785399,-2.15874e-05,0.00185947,-9.40063e-05,0.000371528,-6.519e-05,0.000339804,0.000771917,0,0,0,0,0,0,0,0.148632,-10.2646,0.959536,20.8963,-0.746748,-0.533544,-0.258901,0.149385,-1.06088,0.783083,2.36591,-0.18463,-0.524183,-0.306949
2946497,1,-1.57097,-0.522846,-0.000597838,-2.09588,-1.57081,1.57149,0.785864,-1.5708,-0.523599,-4.23269e-08,-2.0944,-1.5708,1.5708,0.785399,-1.43916e-05,-0.000523589,-6.26708e-05,0.000247685,-4.346e-05,-0.000485541,0.00075197,0,0,0,0,0,0,0,0.148632,-10.1892,0.959536,20.8963,-0.746748,-0.514318,-0.26531,0.149295,-1.06243,0.782776,2.36641,-0.184661,-0.524224,-0.306758
2946498,1,-1.57096,-0.522847,-0.000597838,-2.09588,-1.57081,1.57149,0.785868,-1.5708,-0.523599,-4.23269e-08,-2.0944,-1.5708,1.5708,0.785399,0.000547218,-0.000905871,-4.17806e-05,0.000165124,0.000174477,0.000151024,0.00192547,0,0,0,0,0,0,0,0.124828,-10.1654,0.959536,20.8963,-0.752241,-0.527135,-0.303762,0.149266,-1.06258,0.78256,2.3662,-0.18466,-0.524235,-0.306532
2946499,1,-1.57097,-0.522845,-0.000599508,-2.09588,-1.57081,1.57149,0.785863,-1.5708,-0.523599,-4.23269e-08,-2.0944,-1.5708,1.5708,0.785399,-0.000192,-4.71022e-05,-0.000584666,0.000110082,0.000116318,-0.000136676,-0.000377868,0,0,0,0,0,0,0,0.148632,-10.1892,0.98334,20.8963,-0.752241,-0.520726,-0.258901,0.149324,-1.06038,0.782505,2.365,-0.184618,-0.524193,-0.30633
2946500,1,-1.57097,-0.522847,-0.000597838,-2.09588,-1.57081,1.57149,0.785867,-1.5708,-0.523599,-4.23269e-08,-2.0944,-1.5708,1.5708,0.785399,-0.000128,-0.000588213,0.000167035,0.0006302,0.000314904,0.000620959,0.00117224,0,0,0,0,0,0,0,0.148632,-10.1654,0.959536,20.8725,-0.75865,-0.539952,-0.297354,0.149649,-1.05752,0.782901,2.36349,-0.184556,-0.524095,-0.306194
2946501,1,-1.57097,-0.522844,-0.000596167,-2.09588,-1.57081,1.57149,0.785864,-1.5708,-0.523599,-4.23269e-08,-2.0944,-1.5708,1.5708,0.785399,-0.00129176,0.000721482,0.000668169,-0.0012503,-2.74227e-05,-6.07451e-05,-0.0004053,0,0,0,0,0,0,0,0.200207,-10.213,0.935733,20.9439,-0.752241,-0.527135,-0.26531,0.150049,-1.05557,0.783358,2.36255,-0.184523,-0.524001,-0.306133
2946502,1,-1.57096,-0.522848,-0.000597838,-2.09588,-1.57081,1.57149,0.785862,-1.5708,-0.523599,-4.23269e-08,-2.0944,-1.5708,1.5708,0.785399,0.000902065,-7.58242e-05,-0.000111366,-0.000276723,-1.82818e-05,-4.04967e-05,-0.000982277,0,0,0,0,0,0,0,0.124828,-10.1892,0.959536,20.9201,-0.752241,-0.527135,-0.246084,0.150225,-1.05594,0.783446,2.36317,-0.18457,-0.523982,-0.306145
2946503,1,-1.57096,-0.522848,-0.000599508,-2.09588,-1.57081,1.57149,0.785863,-1.5708,-0.523599,-4.23269e-08,-2.0944,-1.5708,1.5708,0.785399,4.45647e-05,-0.000607361,-0.000631056,0.00037233,0.000225171,-0.000264357,-0.000180133,0,0,0,0,0,0,0,0.148632,-10.1654,0.98334,20.8963,-0.75865,-0.520726,-0.258901,0.150239,-1.05676,0.783397,2.36414,-0.184645,-0.524002,-0.306213
2946504,1,-1.57097,-0.522846,-0.000599508,-2.09588,-1.57081,1.57149,0.785861,-1.5708,-0.523599,-4.23269e-08,-2.0944,-1.5708,1.5708,0.785399,2.97098e-05,0.000151904,-0.000420704,0.000805032,-8.72449e-05,6.11211e-05,-0.000866074,0,0,0,0,0,0,0,0.148632,-10.1892,0.98334,20.8725,-0.752241,-0.527135,-0.23876,0.150526,-1.05608,0.783864,2.36402,-0.184677,-0.523969,-0.306304
2946505,1,-1.57096,-0.522846,-0.000601457,-2.09588,-1.57081,1.57149,0.78586,-1.5708,-0.523599,-4.23269e-08,-2.0944,-1.5708,1.5708,0.785399,1.98065e-05,0.00010127,-0.000930083,-0.000576936,-0.000261614,4.07474e-05,-0.0010521,0,0,0,0,0,0,0,0.148632,-10.1892,1.01111,20.9201,-0.746748,-0.527135,-0.225942,0.151282,-1.05527,0.785129,2.36357,-0.184689,-0.523866,-0.306384
2946506,1,-1.57096,-0.522844,-0.000597838,-2.09588,-1.57081,1.57149,0.78586,-1.5708,-0.523599,-4.23269e-08,-2.0944,-1.5708,1.5708,0.785399,1.32044e-05,0.000624325,0.00058637,0.000729,0.0002664,-0.000210194,-0.000464042,0,0,0,0,0,0,0,0.148632,-10.213,0.959536,20.8725,-0.75865,-0.520726,-0.232351,0.15203,-1.05565,0.786496,2.36368,-0.184729,-0.52378,-0.306416
2946507,1,-1.57096,-0.522849,-0.000594037,-2.09588,-1.57081,1.57149,0.78586,-1.5708,-0.523599,-4.23269e-08,-2.0944,-1.5708,1.5708,0.785399,0.000565615,-0.00134702,0.000947726,-0.00118444,-0.00046666,-0.000140129,-0.00054672,0,0,0,0,0,0,0,0.124828,-10.1377,0.935733,20.9439,-0.741255,-0.520726,-0.225942,0.151815,-1.05616,0.786442,2.36399,-0.184812,-0.523837,-0.306369
2946508,1,-1.57096,-0.522845,-0.000593508,-2.09588,-1.57081,1.57149,0.785862,-1.5708,-0.523599,-4.23269e-08,-2.0944,-1.5708,1.5708,0.785399,-0.000179735,0.000308412,0.00128143,0.000880812,9.57945e-05,-9.34196e-05,0.000381505,0,0,0,0,0,0,0,0.148632,-10.1892,0.907962,20.8725,-0.752241,-0.520726,-0.246084,0.150301,-1.05552,0.784367,2.36397,-0.184927,-0.524067,-0.306235
2946509,1,-1.57096,-0.522844,-0.000597601,-2.09588,-1.57081,1.57149,0.785866,-1.5708,-0.523599,-4.23269e-08,-2.0944,-1.5708,1.5708,0.785399,-0.000119824,0.00076242,-0.000352139,3.0396e-05,-0.000343038,-0.000299639,0.00167849,0,0,0,0,0,0,0,0.148632,-10.213,0.959536,20.8963,-0.741255,-0.514318,-0.284536,0.148509,-1.05516,0.781812,2.36389,-0.185042,-0.524331,-0.306016
2946510,1,-1.57097,-0.522844,-0.000599429,-2.09588,-1.57081,1.57149,0.785865,-1.5708,-0.523599,-4.23269e-08,-2.0944,-1.5708,1.5708,0.785399,-7.98824e-05,0.00050828,-0.000791571,-0.00109336,-2.52415e-05,3.75998e-05,0.000644276,0,0,0,0,0,0,0,0.148632,-10.213,0.98334,20.9439,-0.746748,-0.520726,-0.271719,0.147724,-1.05694,0.78083,2.3648,-0.185151,-0.524449,-0.305748
2946511,1,-1.57097,-0.522849,-0.000597811,-2.09588,-1.57081,1.57149,0.785867,-1.5708,-0.523599,-4.23269e-08,-2.0944,-1.5708,1.5708,0.785399,-5.32549e-05,-0.00142438,2.90979e-05,0.000384717,0.000423982,0.000262426,0.00114159,0,0,0,0,0,0,0,0.148632,-10.1377,0.959536,20.8963,-0.75865,-0.527135,-0.290945,0.147978,-1.05886,0.781466,2.36613,-0.185229,-0.524386,-0.305494
2946512,1,-1.57096,-0.522846,-0.000599499,-2.09588,-1.57081,1.57149,0.785867,-1.5708,-0.523599,-4.23269e-08,-2.0944,-1.5708,1.5708,0.785399,-3.55033e-05,0.000813648,-0.000537413,-0.000300334,4.52956e-05,-0.000299768,0.000761063,0,0,0,0,0,0,0,0.148632,-10.213,0.98334,20.9201,-0.752241,-0.514318,-0.290945,0.148599,-1.05896,0.782626,2.36663,-0.185253,-0.524229,-0.305309
2946513,1,-1.57096,-0.522846,-0.000597835,-2.09587,-1.57081,1.57149,0.785867,-1.5708,-0.523599,-4.23269e-08,-2.0944,-1.5708,1.5708,0.785399,-2.36689e-05,-1.43799e-05,0.000198536,0.00156302,3.01971e-05,-0.000437204,0.000507375,0,0,0,0,0,0,0,0.148632,-10.1892,0.959536,20.8448,-0.752241,-0.507909,-0.290945,0.149259,-1.05867,0.783848,2.36657,-0.18525,-0.52405,-0.30522
2946514,1,-1.57097,-0.522846,-0.000597837,-2.09588,-1.57081,1.57149,0.78586,-1.5708,-0.523599,-4.23269e-08,-2.0944,-1.5708,1.5708,0.785399,-0.000665393,-9.58658e-06,0.000132358,0.000392396,2.01314e-05,0.000183249,-0.00183189,0,0,0,0,0,0,0,0.176403,-10.1892,0.959536,20.8725,-0.752241,-0.520726,-0.232351,0.149804,-1.05801,0.784831,2.36573,-0.18522,-0.523873,-0.305245
2946515,1,-1.57097,-0.522847,-0.000594036,-2.09588,-1.57081,1.57149,0.785863,-1.5708,-0.523599,-4.23269e-08,-2.0944,-1.5708,1.5708,0.785399,-0.000443595,-0.000563203,0.00064505,0.000261598,-0.00019003,0.000359525,-0.000237915,0,0,0,0,0,0,0,0.176403,-10.1654,0.935733,20.8725,-0.746748,-0.527135,-0.258901,0.150162,-1.05638,0.785361,2.36426,-0.185176,-0.5237,-0.305361
2946516,1,-1.57097,-0.522845,-0.000595457,-2.09588,-1.57081,1.57149,0.78586,-1.5708,-0.523599,-4.23269e-08,-2.0944,-1.5708,1.5708,0.785399,-0.00029573,0.000181343,0.000430034,-0.000939226,-0.000126686,2.32416e-06,-0.00114195,0,0,0,0,0,0,0,0.176403,-10.1892,0.935733,20.9201,-0.746748,-0.520726,-0.232351,0.150208,-1.05491,0.785262,2.36324,-0.185164,-0.523573,-0.305505
2946517,1,-1.57096,-0.522844,-0.000597601,-2.09588,-1.57081,1.57149,0.78586,-1.5708,-0.523599,-4.23269e-08,-2.0944,-1.5708,1.5708,0.785399,0.00156608,0.000677707,-0.000270123,-0.00062615,-8.44576e-05,0.000713626,-0.000761303,0,0,0,0,0,0,0,0.101024,-10.213,0.959536,20.9201,-0.746748,-0.539952,-0.232351,0.149725,-1.05544,0.784423,2.36374,-0.185224,-0.523554,-0.305627
2946518,1,-1.57096,-0.522844,-0.000597759,-2.09588,-1.57081,1.57149,0.78586,-1.5708,-0.523599,-4.23269e-08,-2.0944,-1.5708,1.5708,0.785399,-6.95677e-05,0.000451805,-0.000180082,-0.000974246,-5.63051e-05,1.03296e-06,-0.000507535,0,0,0,0,0,0,0,0.148632,-10.213,0.959536,20.9439,-0.746748,-0.527135,-0.232351,0.148879,-1.05851,0.783271,2.36588,-0.185341,-0.523631,-0.305691
2946519,1,-1.57096,-0.522847,-0.000597811,-2.09588,-1.57081,1.57149,0.785861,-1.5708,-0.523599,-4.23269e-08,-2.0944,-1.5708,1.5708,0.785399,-4.63785e-05,-0.000812421,-0.000120055,-9.26851e-05,-3.75367e-05,6.8864e-07,-0.000100998,0,0,0,0,0,0,0,0.148632,-10.1654,0.959536,20.9201,-0.746748,-0.527135,-0.23876,0.148349,-1.06169,0.782643,2.36824,-0.185447,-0.523679,-0.305675
2946520,1,-1.57097,-0.522844,-0.000597829,-2.09588,-1.57081,1.57149,0.785863,-1.5708,-0.523599,-4.23269e-08,-2.0944,-1.5708,1.5708,0.785399,-3.0919e-05,0.00057201,-8.00364e-05,0.000495022,0.000178426,-0.0002369,0.000678653,0,0,0,0,0,0,0,0.148632,-10.213,0.959536,20.8963,-0.752241,-0.520726,-0.258901,0.148353,-1.063,0.782704,2.36949,-0.185486,-0.523647,-0.305581
2946521,1,-1.57096,-0.522845,-0.000596164,-2.09588,-1.57081,1.57149,0.785864,-1.5708,-0.523599,-4.23269e-08,-2.0944,-1.5708,1.5708,0.785399,0.000536199,-0.000175472,0.000503454,-0.000783609,-8.44998e-05,0.000316785,0.000689794,0,0,0,0,0,0,0,0.124828,-10.1892,0.935733,20.9439,-0.746748,-0.533544,-0.26531,0.148294,-1.06351,0.782637,2.37005,-0.185494,-0.523634,-0.305424
2946522,1,-1.57096,-0.522845,-0.000596166,-2.09588,-1.57081,1.57149,0.785867,-1.5708,-0.523599,-4.23269e-08,-2.0944,-1.5708,1.5708,0.785399,-0.000199346,-0.000116981,0.000335636,0.000591218,-5.63332e-05,-2.61692e-05,0.0014093,0,0,0,0,0,0,0,0.148632,-10.1892,0.935733,20.8963,-0.746748,-0.527135,-0.290945,0.147795,-1.06371,0.7819,2.37039,-0.185502,-0.5237,-0.305237
2946523,1,-1.57096,-0.522848,-0.000597837,-2.09588,-1.57081,1.57149,0.785864,-1.5708,-0.523599,-4.23269e-08,-2.0944,-1.5708,1.5708,0.785399,-0.000132897,-7.79875e-05,-0.000333054,0.00160057,0.000165895,-0.000254805,-9.90326e-06,0,0,0,0,0,0,0,0.148632,-10.1892,0.959536,20.8448,-0.752241,-0.520726,-0.26531,0.147405,-1.06246,0.78125,2.36958,-0.185457,-0.523748,-0.305072
2946524,1,-1.57096,-0.522846,-0.000596167,-2.09588,-1.57081,1.57149,0.785867,-1.5708,-0.523599,-4.23269e-08,-2.0944,-1.5708,1.5708,0.785399,0.000468214,-5.19917e-05,0.000334776,-0.00069619,-0.000296304,6.74889e-05,0.00118019,0,0,0,0,0,0,0,0.124828,-10.1892,0.935733,20.9201,-0.741255,-0.527135,-0.297354,0.147345,-1.06028,0.781067,2.36788,-0.185363,-0.523746,-0.304965
2946525,1,-1.57096,-0.522844,-0.000601457,-2.09588,-1.57081,1.57149,0.785863,-1.5708,-0.523599,-4.23269e-08,-2.0944,-1.5708,1.5708,0.785399,0.000312143,0.000522151,-0.00154005,-0.000464127,5.91429e-06,-0.000192366,-0.000637359,0,0,0,0,0,0,0,0.124828,-10.213,1.01111,20.9201,-0.746748,-0.520726,-0.258901,0.147525,-1.05933,0.781395,2.36712,-0.185292,-0.523715,-0.304927
2946526,1,-1.57096,-0.522848,-0.000601457,-2.09588,-1.57081,1.57149,0.785863,-1.5708,-0.523599,-4.23269e-08,-2.0944,-1.5708,1.5708,0.785399,-0.000348717,-0.000208711,-0.0010267,0.000247394,-0.000199508,0.000346474,-0.000424906,0,0,0,0,0,0,0,0.148632,-10.1892,1.01111,20.8963,-0.741255,-0.533544,-0.258901,0.148576,-1.05984,0.783246,2.36746,-0.185225,-0.523559,-0.304962
2946527,1,-1.57097,-0.522845,-0.000596167,-2.09588,-1.57081,1.57149,0.785864,-1.5708,-0.523599,-4.23269e-08,-2.0944,-1.5708,1.5708,0.785399,-0.000882092,0.000417671,0.00107877,0.000721741,0.000511255,0.000468341,-4.59116e-05,0,0,0,0,0,0,0,0.176403,-10.213,0.935733,20.8725,-0.75865,-0.539952,-0.26531,0.150083,-1.06025,0.785796,2.36762,-0.185125,-0.523337,-0.305056
2946528,1,-1.57097,-0.522846,-0.000596167,-2.09588,-1.57081,1.57149,0.785862,-1.5708,-0.523599,-4.23269e-08,-2.0944,-1.5708,1.5708,0.785399,6.15527e-05,-0.000278365,0.00071918,-0.00118928,-9.99729e-05,-0.00016249,-0.000505326,0,0,0,0,0,0,0,0.148632,-10.1892,0.935733,20.9439,-0.746748,-0.527135,-0.252493,0.150688,-1.06053,0.786836,2.36766,-0.185048,-0.523269,-0.305179
2946529,1,-1.57097,-0.522849,-0.000597838,-2.09588,-1.57081,1.57149,0.78586,-1.5708,-0.523599,-4.23269e-08,-2.0944,-1.5708,1.5708,0.785399,-0.000608579,-0.001392,-7.73589e-05,0.000877586,-6.66486e-05,-0.000345686,-0.00132023,0,0,0,0,0,0,0,0.176403,-10.1377,0.959536,20.8725,-0.746748,-0.520726,-0.225942,0.150522,-1.05971,0.786571,2.36745,-0.184995,-0.523323,-0.305312
2946530,1,-1.57096,-0.522844,-0.000599508,-2.09588,-1.57082,1.57149,0.785863,-1.5708,-0.523599,-4.23269e-08,-2.0944,-1.5708,1.5708,0.785399,0.000243895,0.000835236,-0.000608385,0.000585057,-0.000451333,-0.000230457,0.000340551,0,0,0,0,0,0,0,0.148632,-10.213,0.98334,20.8725,-0.735762,-0.520726,-0.258901,0.150601,-1.0572,0.786607,2.36626,-0.184902,-0.523335,-0.305429
2946531,1,-1.57096,-0.522844,-0.000601457,-2.09588,-1.57081,1.57149,0.78586,-1.5708,-0.523599,-4.23269e-08,-2.0944,-1.5708,1.5708,0.785399,0.000719408,0.000556824,-0.0010552,-0.000166774,0.000106012,-0.000153638,-0.000993669,0,0,0,0,0,0,0,0.124828,-10.213,1.01111,20.8963,-0.746748,-0.520726,-0.225942,0.151085,-1.056,0.787428,2.36535,-0.184798,-0.523304,-0.305494
2946532,1,-1.57096,-0.522844,-0.000597838,-2.09588,-1.57081,1.57149,0.785861,-1.5708,-0.523599,-4.23269e-08,-2.0944,-1.5708,1.5708,0.785399,-7.72063e-05,0.000371216,0.000502957,0.000445629,0.000274125,0.000372292,-0.000187728,0,0,0,0,0,0,0,0.148632,-10.213,0.959536,20.8725,-0.752241,-0.533544,-0.23876,0.151433,-1.05715,0.788288,2.36553,-0.184725,-0.523313,-0.305495
2946533,1,-1.57097,-0.522847,-0.000601457,-2.09588,-1.57081,1.57149,0.785864,-1.5708,-0.523599,-4.23269e-08,-2.0944,-1.5708,1.5708,0.785399,-5.14709e-05,-0.000866146,-0.000871121,-0.000259726,0.00018275,-0.000226523,0.000858192,0,0,0,0,0,0,0,0.148632,-10.1654,1.01111,20.8963,-0.752241,-0.520726,-0.26531,0.151547,-1.05819,0.788845,2.36573,-0.184658,-0.523347,-0.305427
2946534,1,-1.57097,-0.522844,-0.000599508,-2.09588,-1.57081,1.57149,0.785867,-1.5708,-0.523599,-4.23269e-08,-2.0944,-1.5708,1.5708,0.785399,-0.00124074,0.000536193,6.88664e-05,0.000383662,-0.000285068,8.63437e-05,0.00152156,0,0,0,0,0,0,0,0.200207,-10.213,0.98334,20.8725,-0.741255,-0.527135,-0.290945,0.152049,-1.0582,0.789902,2.36554,-0.184578,-0.523306,-0.305302
2946535,1,-1.57096,-0.522847,-0.000597838,-2.09588,-1.57081,1.57149,0.785862,-1.5708,-0.523599,-4.23269e-08,-2.0944,-1.5708,1.5708,0.785399,0.000936078,-0.000756162,0.000602723,-0.000301038,-0.000393496,0.000294921,-0.000647137,0,0,0,0,0,0,0,0.124828,-10.1654,0.959536,20.8963,-0.735762,-0.533544,-0.246084,0.15249,-1.05785,0.790787,2.36523,-0.184507,-0.523276,-0.305164
2946536,1,-1.57097,-0.522848,-0.000596167,-2.09588,-1.57081,1.57149,0.785867,-1.5708,-0.523599,-4.23269e-08,-2.0944,-1.5708,1.5708,0.785399,-0.00113919,5.2704e-05,0.000958627,-0.00196393,0.000348021,-4.07447e-05,0.00123009,0,0,0,0,0,0,0,0.200207,-10.1892,0.935733,20.9717,-0.752241,-0.527135,-0.290945,0.151972,-1.05785,0.790172,2.36553,-0.184487,-0.5234,-0.30505
2946537,1,-1.57096,-0.522846,-0.000597838,-2.09588,-1.57081,1.57149,0.785865,-1.5708,-0.523599,-4.23269e-08,-2.0944,-1.5708,1.5708,0.785399,0.00100378,3.5136e-05,8.22728e-05,-0.00010286,-0.000174887,-2.71631e-05,0.000107982,0,0,0,0,0,0,0,0.124828,-10.1892,0.959536,20.9201,-0.741255,-0.527135,-0.271719,0.150844,-1.05896,0.78858,2.36699,-0.184526,-0.523635,-0.304972
2946538,1,-1.57097,-0.522842,-0.000596167,-2.09588,-1.57081,1.57149,0.785867,-1.5708,-0.523599,-4.23269e-08,-2.0944,-1.5708,1.5708,0.785399,-0.000537239,0.00122985,0.000611661,0.000488238,0.00029031,-0.000255468,0.00102142,0,0,0,0,0,0,0,0.176403,-10.2408,0.935733,20.8963,-0.752241,-0.520726,-0.297354,0.149567,-1.06122,0.786763,2.3688,-0.184572,-0.523916,-0.304947
2946539,1,-1.57096,-0.522846,-0.000599508,-2.09588,-1.57081,1.57149,0.785865,-1.5708,-0.523599,-4.23269e-08,-2.0944,-1.5708,1.5708,0.785399,0.000848267,-0.000386526,-0.00070585,0.000882304,-0.000213361,6.70471e-05,-3.11277e-05,0,0,0,0,0,0,0,0.124828,-10.1892,0.98334,20.8725,-0.741255,-0.527135,-0.278127,0.148529,-1.06344,0.785311,2.36981,-0.184567,-0.524167,-0.305
2946540,1,-1.57096,-0.522845,-0.000596167,-2.09588,-1.57082,1.57149,0.785865,-1.5708,-0.523599,-4.23269e-08,-2.0944,-1.5708,1.5708,0.785399,8.69917e-06,-0.000257684,0.000643057,-0.00108223,-0.000345691,4.46981e-05,-2.07518e-05,0,0,0,0,0,0,0,0.148632,-10.1892,0.935733,20.9439,-0.735762,-0.527135,-0.278127,0.147839,-1.06427,0.784376,2.36989,-0.18451,-0.524347,-0.305141
2946541,1,-1.57096,-0.522845,-0.000597838,-2.09588,-1.57081,1.57149,0.78586,-1.5708,-0.523599,-4.23269e-08,-2.0944,-1.5708,1.5708,0.785399,0.00111942,-0.000171789,-0.000128107,-0.000164677,0.000379891,2.97987e-05,-0.00194661,0,0,0,0,0,0,0,0.101024,-10.1892,0.959536,20.9201,-0.752241,-0.527135,-0.225942,0.147027,-1.0642,0.783293,2.3699,-0.184446,-0.524521,-0.305358
2946542,1,-1.57096,-0.522844,-0.000599508,-2.09588,-1.57081,1.57149,0.785865,-1.5708,-0.523599,-4.23269e-08,-2.0944,-1.5708,1.5708,0.785399,-0.000367342,0.000442286,-0.000642217,0.000447027,4.98099e-05,0.000257225,0.000397678,0,0,0,0,0,0,0,0.148632,-10.213,0.98334,20.8963,-0.746748,-0.533544,-0.271719,0.14638,-1.06418,0.782534,2.37006,-0.184369,-0.524658,-0.305612
2946543,1,-1.57097,-0.522842,-0.000596167,-2.09588,-1.57081,1.57149,0.78586,-1.5708,-0.523599,-4.23269e-08,-2.0944,-1.5708,1.5708,0.785399,-0.000894508,0.000944471,0.000685479,-0.000258794,3.32066e-05,-0.000303235,-0.00119294,0,0,0,0,0,0,0,0.176403,-10.2408,0.935733,20.9201,-0.746748,-0.520726,-0.232351,0.146492,-1.06506,0.782894,2.37042,-0.184273,-0.524689,-0.305851
2946544,1,-1.57097,-0.522845,-0.000597838,-2.09588,-1.57081,1.57149,0.785861,-1.5708,-0.523599,-4.23269e-08,-2.0944,-1.5708,1.5708,0.785399,-0.000596339,-0.000576778,-9.98257e-05,0.000941095,0.000462947,3.52025e-05,-0.000557937,0,0,0,0,0,0,0,0.176403,-10.1892,0.959536,20.8725,-0.75865,-0.527135,-0.23876,0.147159,-1.06631,0.783891,2.37076,-0.184168,-0.524642,-0.306049
2946545,1,-1.57097,-0.522844,-0.000597838,-2.09588,-1.57081,1.57149,0.785864,-1.5708,-0.523599,-4.23269e-08,-2.0944,-1.5708,1.5708,0.785399,0.000252055,0.000172293,-6.65505e-05,-0.000486227,7.12725e-05,0.000260827,0.000611386,0,0,0,0,0,0,0,0.148632,-10.213,0.959536,20.9201,-0.752241,-0.533544,-0.26531,0.14798,-1.06631,0.784976,2.3704,-0.184048,-0.52456,-0.306189
2946546,0.99,-1.57096,-0.522844,-0.000597838,-2.09588,-1.57081,1.57149,0.785863,-1.5708,-0.523599,-4.23269e-08,-2.0944,-1.5708,1.5708,0.785399,0.00128166,0.000114862,-4.4367e-05,0.000789472,4.7515e-05,0.000173885,0.000170232,0,0,0,0,0,0,0,0.101024,-10.213,0.959536,20.8725,-0.752241,-0.533544,-0.258901,0.148346,-1.06573,0.785471,2.36978,-0.183954,-0.524546,-0.306263
2946547,0.99,-1.57096,-0.522845,-0.000596167,-2.09588,-1.57081,1.57149,0.785864,-1.5708,-0.523599,-4.23269e-08,-2.0944,-1.5708,1.5708,0.785399,-0.000259184,-0.000480237,0.000527234,-0.000587309,3.16767e-05,-0.000121436,0.000350847,0,0,0,0,0,0,0,0.148632,-10.1892,0.935733,20.9201,-0.752241,-0.527135,-0.26531,0.147945,-1.06503,0.78495,2.36914,-0.183905,-0.524651,-0.30629
2946548,0.99,-1.57096,-0.522845,-0.000596167,-2.09588,-1.57081,1.57149,0.785865,-1.5708,-0.523599,-4.23269e-08,-2.0944,-1.5708,1.5708,0.785399,-0.000172789,-0.000320158,0.000351489,0.000165273,-0.000182333,-0.000318316,0.000471257,0,0,0,0,0,0,0,0.148632,-10.1892,0.935733,20.8963,-0.746748,-0.520726,-0.271719,0.147327,-1.0637,0.784044,2.3684,-0.183885,-0.524784,-0.306293
2946549,0.99,-1.57097,-0.522847,-0.000594218,-2.09588,-1.57081,1.57149,0.785867,-1.5708,-0.523599,-4.23269e-08,-2.0944,-1.5708,1.5708,0.785399,-0.000764807,-0.000770251,0.00088394,-0.00100344,8.18954e-05,0.000737225,0.00102625,0,0,0,0,0,0,0,0.176403,-10.1654,0.907962,20.9439,-0.752241,-0.546361,-0.290945,0.14685,-1.06189,0.783159,2.36777,-0.18389,-0.52489,-0.306293
2946550,0.99,-1.57096,-0.522845,-0.000599508,-2.09588,-1.57081,1.57148,0.785865,-1.5708,-0.523599,-4.23269e-08,-2.0944,-1.5708,1.5708,0.785399,0.00125337,4.33114e-05,-0.00117394,0.00165109,-0.000148854,-0.000457952,0.000209448,0,0,0,0,0,0,0,0.101024,-10.1892,0.98334,20.8448,-0.746748,-0.520726,-0.278127,0.146592,-1.05966,0.782538,2.36695,-0.18389,-0.524967,-0.306318
2946551,0.99,-1.57097,-0.522848,-0.000597838,-2.09588,-1.57081,1.57149,0.785867,-1.5708,-0.523599,-4.23269e-08,-2.0944,-1.5708,1.5708,0.785399,-0.00092766,2.88743e-05,-0.000225818,0.000451112,-0.000302686,-0.000305302,0.00061435,0,0,0,0,0,0,0,0.176403,-10.1892,0.959536,20.8725,-0.741255,-0.520726,-0.290945,0.146959,-1.05729,0.78295,2.36548,-0.183846,-0.524955,-0.306398
2946552,0.99,-1.57097,-0.522846,-0.000597838,-2.09588,-1.57081,1.57149,0.785861,-1.5708,-0.523599,-4.23269e-08,-2.0944,-1.5708,1.5708,0.785399,-0.00061844,1.92495e-05,-0.000150545,-0.000256071,0.00020511,-0.000440893,-0.00152321,0,0,0,0,0,0,0,0.176403,-10.1892,0.959536,20.8963,-0.752241,-0.514318,-0.23876,0.148138,-1.05568,0.784559,2.36413,-0.183781,-0.524824,-0.30654
2946553,0.99,-1.57097,-0.522842,-0.000599508,-2.09588,-1.57081,1.57149,0.78586,-1.5708,-0.523599,-4.23269e-08,-2.0944,-1.5708,1.5708,0.785399,-0.000412293,0.00121926,-0.000657175,0.000386098,-6.67104e-05,0.000180789,-0.00125283,0,0,0,0,0,0,0,0.176403,-10.2408,0.98334,20.8725,-0.746748,-0.527135,-0.232351,0.1498,-1.05614,0.786816,2.36395,-0.18374,-0.524631,-0.306723
2946554,0.99,-1.57097,-0.522842,-0.000596167,-2.09588,-1.57081,1.57149,0.785863,-1.5708,-0.523599,-4.23269e-08,-2.0944,-1.5708,1.5708,0.785399,-0.000831674,0.000812839,0.000675507,0.000907013,-4.44736e-05,-0.000116833,0.000148121,0,0,0,0,0,0,0,0.200207,-10.2408,0.935733,20.8448,-0.746748,-0.520726,-0.258901,0.151424,-1.05887,0.78898,2.36467,-0.183729,-0.52446,-0.306896
2946555,0.99,-1.57096,-0.522844,-0.000599508,-2.09588,-1.57081,1.57149,0.785861,-1.5708,-0.523599,-4.23269e-08,-2.0944,-1.5708,1.5708,0.785399,0.00120879,-0.000107721,-0.000663286,-4.49389e-05,-0.0002331,-7.78886e-05,-0.000647238,0,0,0,0,0,0,0,0.124828,-10.213,0.98334,20.8725,-0.741255,-0.520726,-0.23876,0.152423,-1.06209,0.790176,2.36536,-0.183734,-0.524386,-0.307022
2946556,0.99,-1.57096,-0.522849,-0.000599508,-2.09588,-1.57081,1.57149,0.785864,-1.5708,-0.523599,-4.23269e-08,-2.0944,-1.5708,1.5708,0.785399,0.000249047,-0.00183505,-0.000442191,-2.99592e-05,4.80508e-05,0.000422792,0.000551852,0,0,0,0,0,0,0,0.148632,-10.1377,0.98334,20.8725,-0.746748,-0.533544,-0.26531,0.152782,-1.06291,0.790489,2.36511,-0.183719,-0.524364,-0.307098
2946557,0.99,-1.57096,-0.522847,-0.000597838,-2.09588,-1.57081,1.57149,0.785865,-1.5708,-0.523599,-4.23269e-08,-2.0944,-1.5708,1.5708,0.785399,0.000166031,-0.000573754,0.000262018,-0.00169041,0.000472843,0.00051922,0.000842619,0,0,0,0,0,0,0,0.148632,-10.1654,0.959536,20.9439,-0.75865,-0.539952,-0.278127,0.152795,-1.06089,0.790336,2.36419,-0.183691,-0.524348,-0.307128
2946558,0.99,-1.57097,-0.522844,-0.000597838,-2.09588,-1.57081,1.57149,0.785865,-1.5708,-0.523599,-4.23269e-08,-2.0944,-1.5708,1.5708,0.785399,-0.000538926,0.000731121,0.000174679,0.000543497,7.78699e-05,-0.00036593,0.000561746,0,0,0,0,0,0,0,0.176403,-10.213,0.959536,20.8725,-0.752241,-0.520726,-0.278127,0.15256,-1.05929,0.789786,2.36398,-0.183703,-0.524378,-0.307128
2946559,0.99,-1.57097,-0.522847,-0.000597838,-2.09588,-1.57081,1.57149,0.785865,-1.5708,-0.523599,-4.23269e-08,-2.0944,-1.5708,1.5708,0.785399,0.00029033,-0.00062621,0.000116453,-0.000751293,5.19133e-05,-6.59434e-06,0.000374498,0,0,0,0,0,0,0,0.148632,-10.1654,0.959536,20.9201,-0.752241,-0.527135,-0.278127,0.152248,-1.05939,0.789094,2.36449,-0.183755,-0.524454,-0.307131
2946560,0.99,-1.57097,-0.522847,-0.000597838,-2.09588,-1.57081,1.57149,0.785868,-1.5708,-0.523599,-4.23269e-08,-2.0944,-1.5708,1.5708,0.785399,-0.000456061,-0.000417473,7.7635e-05,5.59501e-05,-0.000168842,-4.39622e-06,0.0011991,0,0,0,0,0,0,0,0.176403,-10.1654,0.959536,20.8963,-0.746748,-0.527135,-0.303762,0.151979,-1.05936,0.788427,2.36482,-0.183811,-0.524533,-0.307169
2946561,0.99,-1.57096,-0.522845,-0.000599508,-2.09588,-1.57081,1.57149,0.785863,-1.5708,-0.523599,-4.23269e-08,-2.0944,-1.5708,1.5708,0.785399,0.000345573,0.000278497,-0.000505055,0.000594112,-0.000316012,-0.000477649,-0.000862112,0,0,0,0,0,0,0,0.148632,-10.1892,0.98334,20.8725,-0.741255,-0.514318,-0.258901,0.151952,-1.05878,0.788112,2.36466,-0.183847,-0.524576,-0.307266
2946562,0.99,-1.57096,-0.522844,-0.000596167,-2.09588,-1.57081,1.57149,0.785868,-1.5708,-0.523599,-4.23269e-08,-2.0944,-1.5708,1.5708,0.785399,0.00134401,0.000742476,0.00077692,0.000396075,-0.000210674,0.000156285,0.00108677,0,0,0,0,0,0,0,0.101024,-10.213,0.935733,20.8725,-0.741255,-0.527135,-0.303762,0.151624,-1.05894,0.787481,2.36435,-0.183875,-0.524672,-0.307429
2946563,0.99,-1.57096,-0.522845,-0.000594218,-2.09588,-1.57081,1.57149,0.785864,-1.5708,-0.523599,-4.23269e-08,-2.0944,-1.5708,1.5708,0.785399,0.000339192,-6.18278e-05,0.00116756,-0.000849574,0.00050381,0.00010419,-0.00069964,0,0,0,0,0,0,0,0.124828,-10.1892,0.907962,20.9201,-0.75865,-0.527135,-0.26531,0.150029,-1.06049,0.785129,2.36458,-0.183946,-0.524963,-0.307649
2946564,0.99,-1.57096,-0.522844,-0.000596167,-2.09588,-1.57081,1.57149,0.785862,-1.5708,-0.523599,-4.23269e-08,-2.0944,-1.5708,1.5708,0.785399,0.000226128,0.000515593,0.00012876,-0.000566383,9.85146e-05,6.94602e-05,-0.0011785,0,0,0,0,0,0,0,0.124828,-10.213,0.935733,20.9201,-0.752241,-0.527135,-0.246084,0.147752,-1.06308,0.781801,2.36571,-0.184062,-0.525347,-0.307919
2946565,0.99,-1.57097,-0.522845,-0.000594218,-2.09588,-1.57081,1.57149,0.78586,-1.5708,-0.523599,-4.23269e-08,-2.0944,-1.5708,1.5708,0.785399,-0.00105567,-0.000213083,0.000735454,-0.0009344,6.56764e-05,-0.000191052,-0.0012943,0,0,0,0,0,0,0,0.176403,-10.1892,0.907962,20.9439,-0.752241,-0.520726,-0.232351,0.146106,-1.06607,0.779332,2.3675,-0.184186,-0.525621,-0.308209
2946566,0.99,-1.57096,-0.522845,-0.000597378,-2.09588,-1.57081,1.57149,0.785861,-1.5708,-0.523599,-4.23269e-08,-2.0944,-1.5708,1.5708,0.785399,0.000502643,-0.000142055,-0.00127294,-6.61217e-05,-0.000159666,0.000109991,-0.000625504,0,0,0,0,0,0,0,0.124828,-10.1892,0.98334,20.9201,-0.746748,-0.527135,-0.23876,0.145699,-1.06833,0.778612,2.36916,-0.184275,-0.525683,-0.308465
2946567,0.99,-1.57097,-0.522842,-0.000598798,-2.09588,-1.57081,1.57149,0.785862,-1.5708,-0.523599,-4.23269e-08,-2.0944,-1.5708,1.5708,0.785399,-0.00087133,0.00111172,-0.000848623,0.000512731,-0.000309895,7.33272e-05,9.16233e-05,0,0,0,0,0,0,0,0.176403,-10.2408,0.98334,20.8963,-0.741255,-0.527135,-0.252493,0.146724,-1.0699,0.780079,2.37026,-0.184297,-0.525516,-0.308646
2946568,0.99,-1.57096,-0.522845,-0.00059593,-2.09588,-1.57081,1.57149,0.785863,-1.5708,-0.523599,-4.23269e-08,-2.0944,-1.5708,1.5708,0.785399,6.87271e-05,-0.000465278,0.000547875,0.000898633,0.000200305,4.88848e-05,0.000298441,0,0,0,0,0,0,0,0.148632,-10.1892,0.935733,20.8725,-0.752241,-0.527135,-0.258901,0.148444,-1.07094,0.782603,2.3705,-0.184259,-0.525242,-0.30874
2946569,0.99,-1.57097,-0.522847,-0.000597759,-2.09588,-1.57081,1.57149,0.785867,-1.5708,-0.523599,-4.23269e-08,-2.0944,-1.5708,1.5708,0.785399,-0.00116061,-0.000866997,-0.000191562,4.22764e-05,0.000133536,3.25899e-05,0.00138576,0,0,0,0,0,0,0,0.200207,-10.1654,0.959536,20.8963,-0.752241,-0.527135,-0.290945,0.149941,-1.06975,0.784622,2.36932,-0.184175,-0.524987,-0.308766
2946570,0.99,-1.57096,-0.522844,-0.000601431,-2.09588,-1.57081,1.57149,0.785864,-1.5708,-0.523599,-4.23269e-08,-2.0944,-1.5708,1.5708,0.785399,0.000989499,0.00118524,-0.00133413,2.81843e-05,0.000529834,-0.000452991,-2.55988e-05,0,0,0,0,0,0,0,0.124828,-10.2408,1.01111,20.8963,-0.764143,-0.514318,-0.26531,0.151449,-1.06761,0.786613,2.36779,-0.184084,-0.524723,-0.308758
2946571,0.99,-1.57097,-0.522846,-0.000596158,-2.09588,-1.57081,1.57149,0.785865,-1.5708,-0.523599,-4.23269e-08,-2.0944,-1.5708,1.5708,0.785399,0.000102854,-0.000416266,0.000873815,-0.000538022,-8.7587e-05,0.000172724,0.000457652,0,0,0,0,0,0,0,0.148632,-10.1892,0.935733,20.9201,-0.752241,-0.527135,-0.278127,0.152595,-1.06717,0.788246,2.36733,-0.184055,-0.52453,-0.30875
2946572,0.99,-1.57096,-0.522844,-0.000596164,-2.09588,-1.57081,1.57149,0.785866,-1.5708,-0.523599,-4.23269e-08,-2.0944,-1.5708,1.5708,0.785399,0.000625381,0.000279301,0.000582543,-0.000358682,-5.83913e-05,-0.000359569,0.00054246,0,0,0,0,0,0,0,0.124828,-10.213,0.935733,20.9201,-0.752241,-0.514318,-0.284536,0.15242,-1.06768,0.787998,2.36765,-0.184115,-0.524539,-0.308763
2946573,0.99,-1.57096,-0.522844,-0.000597837,-2.09588,-1.57081,1.57149,0.785865,-1.5708,-0.523599,-4.23269e-08,-2.0944,-1.5708,1.5708,0.785399,0.000416921,0.000186201,-0.00016845,0.000317691,-3.89275e-05,0.000472364,-0.000113078,0,0,0,0,0,0,0,0.124828,-10.213,0.959536,20.8963,-0.752241,-0.533544,-0.271719,0.151269,-1.06831,0.786329,2.36813,-0.184226,-0.524686,-0.308812
2946574,0.99,-1.57097,-0.522845,-0.000596167,-2.09588,-1.57081,1.57149,0.785864,-1.5708,-0.523599,-4.23269e-08,-2.0944,-1.5708,1.5708,0.785399,-0.000278865,-0.000432678,0.000444512,0.000211794,-0.000229402,-0.000159808,-0.000312744,0,0,0,0,0,0,0,0.148632,-10.1892,0.935733,20.8963,-0.746748,-0.520726,-0.26531,0.150083,-1.06843,0.784639,2.36819,-0.184326,-0.524823,-0.308909
2946575,0.99,-1.57097,-0.522845,-0.000599508,-2.09588,-1.57081,1.57149,0.785864,-1.5708,-0.523599,-4.23269e-08,-2.0944,-1.5708,1.5708,0.785399,-0.000835524,-0.000288452,-0.000817282,-0.000415616,-0.000356385,-0.000343898,-0.000208496,0,0,0,0,0,0,0,0.176403,-10.1892,0.98334,20.9201,-0.741255,-0.514318,-0.26531,0.14968,-1.06741,0.784027,2.36767,-0.184385,-0.524819,-0.309045
2946576,0.99,-1.57096,-0.522845,-0.000596167,-2.09587,-1.57081,1.57149,0.78586,-1.5708,-0.523599,-4.23269e-08,-2.0944,-1.5708,1.5708,0.785399,0.00064941,-0.000192301,0.000568769,0.00148616,0.000169311,0.000245453,-0.0013597,0,0,0,0,0,0,0,0.124828,-10.1892,0.935733,20.8448,-0.752241,-0.527135,-0.232351,0.149972,-1.06548,0.784385,2.36662,-0.184397,-0.524691,-0.3092
2946577,0.99,-1.57097,-0.522845,-0.000596167,-2.09588,-1.57081,1.57149,0.785862,-1.5708,-0.523599,-4.23269e-08,-2.0944,-1.5708,1.5708,0.785399,-0.000123872,-0.000128201,0.000379179,0.00034116,-9.05766e-05,-7.37238e-05,-0.000397841,0,0,0,0,0,0,0,0.148632,-10.1892,0.935733,20.8725,-0.746748,-0.520726,-0.246084,0.14987,-1.06286,0.784155,2.36482,-0.184375,-0.524609,-0.309348
2946578,0.99,-1.57097,-0.522845,-0.000597838,-2.09588,-1.57081,1.57149,0.785857,-1.5708,-0.523599,-4.23269e-08,-2.0944,-1.5708,1.5708,0.785399,-0.000732195,-8.54673e-05,-0.000304026,-0.000329372,-6.03844e-05,0.00018821,-0.00196065,0,0,0,0,0,0,0,0.176403,-10.1892,0.959536,20.8963,-0.746748,-0.527135,-0.200308,0.149598,-1.06058,0.78364,2.36312,-0.184352,-0.524552,-0.309448
2946579,0.99,-1.57096,-0.522845,-0.000599508,-2.09588,-1.57081,1.57149,0.785865,-1.5708,-0.523598,-2.54233e-06,-2.09439,-1.5708,1.5708,0.785399,0.000161484,-5.69782e-05,-0.000759496,-0.000219581,-0.000243707,-0.000111886,0.00133776,0.000224485,0.000702902,-0.0025,0.00089749,-0.00158082,0.00348776,7.58157e-05,0.148632,-10.1892,0.98334,20.8963,-0.741255,-0.520726,-0.271719,0.150058,-1.05954,0.784215,2.36241,-0.184337,-0.524396,-0.309455
2946580,0.99,-1.57097,-0.522844,-0.000597838,-2.09588,-1.57081,1.57149,0.785863,-1.5708,-0.523597,-7.54233e-06,-2.09439,-1.5708,1.57081,0.785399,-0.000541958,0.000518826,5.04814e-05,0.00106004,4.09793e-05,0.000400127,0.000417121,0.000448971,0.0014058,-0.005,0.00179498,-0.00316164,0.00697551,0.000151631,0.176403,-10.213,0.959536,20.8448,-0.746748,-0.533544,-0.258901,0.151004,-1.05948,0.785562,2.36224,-0.184318,-0.524184,-0.309357
2946581,0.99,-1.57096,-0.522845,-0.000599508,-2.09588,-1.57081,1.57149,0.785867,-1.5708,-0.523594,-1.50423e-05,-2.09439,-1.57081,1.57082,0.785399,0.000288309,-0.000210928,-0.000523158,5.70782e-05,2.73195e-05,0.000266752,0.00146488,0.000673456,0.00210871,-0.0075,0.00269247,-0.00474246,0.0104633,0.000227447,0.148632,-10.1892,0.98334,20.8725,-0.746748,-0.533544,-0.290945,0.151908,-1.0598,0.786868,2.36193,-0.184282,-0.524002,-0.309191
2946582,0.99,-1.57097,-0.522849,-0.00059532,-2.09588,-1.57081,1.57149,0.785863,-1.57079,-0.523592,-2.50423e-05,-2.09439,-1.57081,1.57083,0.7854,-0.00614871,-0.00190386,-0.00311573,-0.002282,0.000459022,-0.000534242,-0.000210211,0.000897941,0.00281161,-0.01,0.00358996,-0.00632329,0.013951,0.000303263,0.148632,-10.1139,0.832583,20.9717,-0.75865,-0.514318,-0.258901,0.154846,-1.0593,0.790951,2.36173,-0.184193,-0.523525,-0.309012
2946583,0.99,-1.57097,-0.522847,-0.000596035,-2.09588,-1.57081,1.57149,0.785867,-1.57079,-0.523588,-3.75423e-05,-2.09438,-1.57082,1.57085,0.7854,-0.0023075,0.000677404,-0.00415966,-0.000871718,0.00111982,-0.000593521,0.00104665,0.00112243,0.00351451,-0.0125,0.00448745,-0.00790411,0.0174388,0.000379079,0.0494498,-10.0623,0.630252,20.9439,-0.780623,-0.507909,-0.290945,0.162513,-1.05851,0.801662,2.36257,-0.184025,-0.522338,-0.308853
2946584,0.99,-1.57096,-0.522848,-0.000603852,-2.09588,-1.57081,1.57149,0.785862,-1.57079,-0.523584,-5.25423e-05,-2.09438,-1.57083,1.57087,0.785401,0.000367945,-0.00160569,-0.00519959,-0.000581145,0.00223852,-0.000870397,-0.000963743,0.00134691,0.00421741,-0.015,0.00538494,-0.00948493,0.0209265,0.000454894,-0.176685,-9.9631,0.42792,20.9439,-0.820906,-0.495092,-0.246084,0.172864,-1.05823,0.816494,2.36421,-0.183833,-0.520715,-0.30874
2946585,0.99,-1.57096,-0.522841,-0.000614496,-2.09588,-1.57081,1.57149,0.785862,-1.57079,-0.523579,-7.00423e-05,-2.09437,-1.57084,1.57089,0.785401,-0.000385436,0.00420486,-0.0056933,-0.00103704,0.00149234,-0.00129234,-0.000642496,0.0015714,0.00492032,-0.0175,0.00628243,-0.0110658,0.0244143,0.00053071,-0.303639,-9.91153,0.201785,20.9717,-0.820906,-0.475866,-0.246084,0.182739,-1.06052,0.831222,2.36703,-0.183748,-0.519092,-0.308674
2946586,0.99,-1.57095,-0.52284,-0.000626179,-2.09588,-1.57081,1.57149,0.785862,-1.57079,-0.523573,-9.00423e-05,-2.09436,-1.57085,1.57092,0.785402,0.00260538,0.00367556,-0.00677564,0.000515063,0.0014018,-0.00109892,-0.000190971,0.00179588,0.00562322,-0.02,0.00717992,-0.0126466,0.0279021,0.000606526,-0.454395,-9.78458,-0.000546589,20.9201,-0.831892,-0.469457,-0.252493,0.190909,-1.07007,0.844151,2.37294,-0.183917,-0.517631,-0.308614
2946587,0.99,-1.57095,-0.522831,-0.000641453,-2.09588,-1.57081,1.57149,0.785857,-1.57079,-0.523567,-0.000112542,-2.09435,-1.57087,1.57095,0.785402,0.00365167,0.00628526,-0.0082542,0.000343375,0.00134143,0.00421844,-0.00182274,0.00202037,0.00632612,-0.0225,0.00807741,-0.0142274,0.0313898,0.000682341,-0.557545,-9.78458,-0.179074,20.9201,-0.842879,-0.475866,-0.206716,0.196167,-1.08727,0.853697,2.38177,-0.184381,-0.516461,-0.308532
2946588,0.99,-1.57095,-0.522829,-0.000655697,-2.09587,-1.57082,1.57149,0.785862,-1.57078,-0.52356,-0.000137542,-2.09435,-1.57088,1.57099,0.785403,0.00493773,0.00642762,-0.00878273,0.000228917,8.0486e-05,0.00296774,0.000480264,0.00224485,0.00702902,-0.025,0.0089749,-0.0158082,0.0348776,0.000758157,-0.680531,-9.7092,-0.381406,20.9201,-0.820906,-0.469457,-0.252493,0.197815,-1.1102,0.858861,2.39283,-0.185139,-0.515632,-0.3084
2946589,0.99,-1.57095,-0.522825,-0.000675443,-2.09587,-1.57081,1.57149,0.785862,-1.57078,-0.523552,-0.000167044,-2.09434,-1.5709,1.57103,0.785404,0.00301164,0.00340954,-0.0109568,0.000152611,0.000460558,0.00132366,8.28172e-05,0.00263263,0.00826277,-0.029502,0.0105493,-0.018291,0.0403506,0.000877106,-0.680531,-9.63382,-0.508359,20.9201,-0.831892,-0.443822,-0.246084,0.196967,-1.13391,0.860806,2.40442,-0.186114,-0.514842,-0.308197
2946590,0.99,-1.57094,-0.522824,-0.000691641,-2.09587,-1.57082,1.57149,0.785865,-1.57078,-0.523542,-0.000201048,-2.09432,-1.57092,1.57107,0.785405,0.00476728,-3.08552e-05,-0.0113036,0.00258598,-0.00377959,0.000628679,0.00100465,0.00302041,0.00949651,-0.0340039,0.0121236,-0.0207739,0.0458236,0.000996054,-0.807484,-9.50687,-0.686887,20.9439,-0.848372,-0.431005,-0.271719,0.195333,-1.14756,0.861285,2.41166,-0.187069,-0.513626,-0.30795
2946591,0.99,-1.57093,-0.522822,-0.000717232,-2.09587,-1.57081,1.5715,0.785865,-1.57078,-0.523532,-0.000239554,-2.09431,-1.57095,1.57113,0.785406,0.0035774,-0.00128447,-0.0140057,0.000214172,-0.00162262,0.0036037,0.000907124,0.00340819,0.0107303,-0.0385059,0.013698,-0.0232567,0.0512966,0.001115,-0.831288,-9.43149,-0.762265,21.0193,-0.883162,-0.386144,-0.278127,0.193487,-1.14439,0.860697,2.41149,-0.187853,-0.511793,-0.307708
2946592,0.99,-1.57093,-0.522819,-0.000738894,-2.09587,-1.57081,1.5715,0.785869,-1.57077,-0.52352,-0.000282562,-2.09429,-1.57097,1.57118,0.785407,0.00412277,0.000235098,-0.0160519,-0.000223965,-0.000120696,0.00591834,0.00179154,0.00379597,0.011964,-0.0430078,0.0152723,-0.0257395,0.0567697,0.00123395,-0.910633,-9.32834,-0.964597,21.0431,-0.917036,-0.340367,-0.310171,0.19198,-1.1286,0.85989,2.40688,-0.188579,-0.509302,-0.307506
2946593,0.99,-1.57093,-0.522815,-0.000763777,-2.09587,-1.57081,1.5715,0.785864,-1.57077,-0.523506,-0.000330072,-2.09428,-1.571,1.57124,0.785409,0.0044231,0.000856769,-0.0185424,0.00126629,-0.003743,0.00748228,-0.00046715,0.00418375,0.0131977,-0.0475098,0.0168467,-0.0282224,0.0622427,0.0013529,-0.986012,-9.20535,-1.26611,21.1185,-0.950911,-0.289098,-0.26531,0.191196,-1.10814,0.859659,2.40174,-0.189414,-0.506158,-0.307376
2946594,0.99,-1.57092,-0.522804,-0.000808746,-2.09586,-1.57082,1.57151,0.785867,-1.57076,-0.523492,-0.000382083,-2.09426,-1.57103,1.57131,0.78541,0.00498517,0.00373507,-0.027109,0.00370276,-0.00139036,0.00477246,0.000638002,0.00457153,0.0144315,-0.0520118,0.018421,-0.0307052,0.0677157,0.00147185,-1.21215,-9.17758,-1.42083,21.1423,-0.995772,-0.257054,-0.290945,0.19281,-1.08772,0.862789,2.39707,-0.190377,-0.502067,-0.307343
2946595,0.99,-1.57091,-0.522794,-0.000844728,-2.09586,-1.57082,1.57153,0.785864,-1.57076,-0.523476,-0.000438597,-2.09424,-1.57106,1.57139,0.785412,0.00523504,0.00639667,-0.0295088,0.00331259,-0.000496606,0.00860692,-0.000524101,0.00495931,0.0156652,-0.0565137,0.0199954,-0.033188,0.0731887,0.0015908,-1.43828,-9.17758,-1.75012,21.2693,-1.01866,-0.257054,-0.26531,0.199186,-1.07209,0.873143,2.39434,-0.191523,-0.496591,-0.307397
2946596,0.99,-1.57091,-0.522784,-0.000893296,-2.09585,-1.57083,1.57154,0.785862,-1.57075,-0.523459,-0.000499613,-2.09422,-1.5711,1.57146,0.785413,0.00269291,0.0113573,-0.037148,0.00408235,-0.00575981,0.0108702,-0.000824118,0.00534709,0.016899,-0.0610157,0.0215697,-0.0356709,0.0786618,0.00170975,-1.56524,-9.17758,-1.97625,21.2177,-1.00676,-0.244237,-0.252493,0.2111,-1.06769,0.892065,2.39683,-0.193002,-0.489628,-0.307504
2946597,0.99,-1.5709,-0.522776,-0.000940209,-2.09584,-1.57084,1.57156,0.785856,-1.57075,-0.523441,-0.00056513,-2.09419,-1.57114,1.57155,0.785415,0.00467999,0.00750978,-0.037835,0.00145897,-0.00928814,0.0165095,-0.00271955,0.00573487,0.0181327,-0.0655176,0.0231441,-0.0381537,0.0841348,0.00182869,-1.71599,-9.12601,-2.28174,21.2931,-1.00676,-0.212194,-0.193899,0.227684,-1.0751,0.918211,2.40576,-0.194865,-0.48133,-0.307618
2946598,0.99,-1.57089,-0.522766,-0.000993535,-2.09583,-1.57085,1.57158,0.78586,-1.57074,-0.523422,-0.00063515,-2.09417,-1.57118,1.57164,0.785417,0.00681476,0.00410178,-0.0409237,0.00406502,-0.0111337,0.0201392,-0.000626239,0.00612265,0.0193665,-0.0700196,0.0247184,-0.0406365,0.0896078,0.00194764,-1.89452,-9.05063,-2.48407,21.3169,-1.02415,-0.160009,-0.225942,0.244722,-1.08278,0.945038,2.41668,-0.197032,-0.472214,-0.307701
2946599,0.99,-1.57089,-0.522758,-0.00104343,-2.09583,-1.57085,1.5716,0.785852,-1.57073,-0.523401,-0.000711162,-2.09414,-1.57122,1.57173,0.785419,0.00594542,0.00416031,-0.0443919,0.00455664,-0.0117107,0.0229316,-0.00279108,0.00662452,0.0209935,-0.0760119,0.0267931,-0.0436079,0.0961501,0.0020898,-1.9699,-8.95145,-2.76178,21.3922,-1.06352,-0.108739,-0.161856,0.258759,-1.07942,0.967081,2.42403,-0.199369,-0.462636,-0.307713
2946600,0.99,-1.57088,-0.522748,-0.0011009,-2.09581,-1.57086,1.57163,0.785855,-1.57073,-0.523378,-0.000793166,-2.09411,-1.57127,1.57184,0.785422,0.00545611,0.00544928,-0.0495452,0.0055488,-0.00772851,0.0239519,-0.00114864,0.00712639,0.0226205,-0.0820043,0.0288679,-0.0465793,0.102692,0.00223196,-2.04528,-8.89987,-2.9403,21.4438,-1.0974,-0.0254261,-0.181082,0.270462,-1.06545,0.985112,2.42745,-0.201863,-0.452402,-0.307601
2946601,0.99,-1.57087,-0.522741,-0.00115885,-2.09581,-1.57087,1.57167,0.785854,-1.57072,-0.523354,-0.000881163,-2.09408,-1.57132,1.57195,0.785424,0.00519759,0.0045866,-0.0533677,0.00583734,-0.00945458,0.0297241,-0.00100312,0.00762826,0.0242475,-0.0879966,0.0309426,-0.0495506,0.109235,0.00237412,-2.12066,-8.77292,-3.11487,21.5152,-1.13127,0.0459851,-0.174673,0.281212,-1.04521,1.00103,2.42903,-0.2046,-0.441251,-0.307305
2946602,0.99,-1.57087,-0.522727,-0.00122299,-2.0958,-1.57088,1.57171,0.785854,-1.57071,-0.523328,-0.000975152,-2.09405,-1.57137,1.57206,0.785426,0.00331276,0.00965213,-0.0558603,0.00600685,-0.0102525,0.0358574,-0.000668748,0.00813013,0.0258744,-0.093989,0.0330173,-0.052522,0.115777,0.00251628,-2.12066,-8.74911,-3.29339,21.5906,-1.17705,0.0780285,-0.174673,0.290951,-1.02389,1.01455,2.43133,-0.207702,-0.429201,-0.306785
2946603,0.99,-1.57087,-0.522713,-0.00128658,-2.09579,-1.57089,1.57177,0.785854,-1.5707,-0.523301,-0.00107513,-2.09401,-1.57143,1.57218,0.785429,0.00320791,0.0121823,-0.0586788,0.00995816,-0.0110471,0.0417007,-0.000445832,0.00863201,0.0275014,-0.0999813,0.035092,-0.0554934,0.122319,0.00265844,-2.16826,-8.67374,-3.5711,21.6422,-1.22191,0.0716198,-0.174673,0.298636,-1.0088,1.02387,2.43711,-0.211318,-0.416491,-0.306025
2946604,0.99,-1.57086,-0.522695,-0.00136204,-2.09577,-1.57091,1.57183,0.785857,-1.57069,-0.523272,-0.00118111,-2.09398,-1.57148,1.57231,0.785432,-0.000205694,0.0152037,-0.0650496,0.0134634,-0.0116254,0.0478957,0.000889573,0.00913388,0.0291284,-0.105974,0.0371667,-0.0584647,0.128862,0.0028006,-2.34679,-8.64597,-3.80121,21.666,-1.26768,0.0139416,-0.206716,0.304878,-1.00217,1.02957,2.44585,-0.21545,-0.403097,-0.305043
2946605,0.99,-1.57085,-0.522675,-0.00145063,-2.09575,-1.57092,1.57191,0.785855,-1.57068,-0.523241,-0.00129307,-2.09394,-1.57155,1.57245,0.785435,0.00158244,0.0137344,-0.071225,0.0155002,-0.0127824,0.0572515,-0.000119028,0.00963575,0.0307554,-0.111966,0.0392414,-0.0614361,0.135404,0.00294277,-2.44597,-8.59836,-3.97577,21.7176,-1.29515,-0.0510608,-0.18749,0.311891,-0.999594,1.03481,2.45473,-0.219981,-0.388762,-0.303896
2946606,0.99,-1.57085,-0.52265,-0.00153525,-2.09574,-1.57094,1.57199,0.785858,-1.57067,-0.523208,-0.00141103,-2.0939,-1.57161,1.57259,0.785438,0.00125422,0.0174125,-0.0758858,0.0201582,-0.0139445,0.068285,0.000870084,0.0101376,0.0323824,-0.117958,0.0413162,-0.0644075,0.141946,0.00308493,-2.47374,-8.62216,-4.28125,21.7652,-1.31254,-0.108739,-0.213125,0.319703,-0.996195,1.03995,2.46148,-0.224854,-0.373667,-0.302656
2946607,0.99,-1.57084,-0.522629,-0.00163246,-2.09571,-1.57097,1.57207,0.785857,-1.57066,-0.523174,-0.00153498,-2.09385,-1.57168,1.57274,0.785441,0.00402485,0.0183357,-0.0797382,0.0209538,-0.0145824,0.0737382,0.000105338,0.0106395,0.0340094,-0.123951,0.0433909,-0.0673788,0.148489,0.00322709,-2.6245,-8.57059,-4.432,21.789,-1.33543,-0.10233,-0.200308,0.325968,-0.991685,1.04183,2.46606,-0.230149,-0.358446,-0.301377
2946608,0.99,-1.57083,-0.522609,-0.00173089,-2.0957,-1.571,1.57217,0.785854,-1.57065,-0.523139,-0.00166492,-2.09381,-1.57175,1.57289,0.785445,0.0109345,0.0178918,-0.0847272,0.0197151,-0.0152821,0.0829956,-0.00087921,0.0111414,0.0356364,-0.129943,0.0454656,-0.0703502,0.155031,0.00336925,-2.72368,-8.47141,-4.63434,21.8882,-1.35191,-0.089513,-0.174673,0.327126,-0.987026,1.03562,2.47051,-0.236053,-0.343845,-0.300091
2946609,0.99,-1.57083,-0.522588,-0.00182944,-2.09567,-1.57103,1.57228,0.785852,-1.57064,-0.523101,-0.00180194,-2.09376,-1.57182,1.57306,0.785448,0.00761503,0.0182629,-0.0903161,0.0208379,-0.0207194,0.089514,-0.00129822,0.011718,0.0375466,-0.137017,0.0478995,-0.0735583,0.162084,0.00352248,-2.72368,-8.39603,-4.88824,21.9159,-1.36381,-0.0638782,-0.155447,0.321814,-0.980935,1.01964,2.47638,-0.242638,-0.33017,-0.298806
2946610,0.99,-1.57081,-0.522565,-0.00194029,-2.09566,-1.57107,1.5724,0.785849,-1.57063,-0.523062,-0.00194603,-2.09371,-1.5719,1.57323,0.785452,0.00773357,0.0185073,-0.0944617,0.019602,-0.0245109,0.0998926,-0.00161146,0.0122947,0.0394569,-0.14409,0.0503334,-0.0767664,0.169137,0.00367571,-2.82683,-8.32065,-5.01519,22.0389,-1.38029,-0.0574695,-0.135305,0.312768,-0.972436,0.997282,2.48431,-0.249803,-0.317089,-0.297484
2946611,0.99,-1.5708,-0.522538,-0.00204845,-2.09563,-1.5711,1.57253,0.785847,-1.57061,-0.52302,-0.0020972,-2.09366,-1.57198,1.5734,0.785456,0.0108355,0.0222929,-0.0999555,0.0232289,-0.0308215,0.107637,-0.00178639,0.0128713,0.0413671,-0.151164,0.0527673,-0.0799745,0.176191,0.00382894,-2.92601,-8.26907,-5.16595,22.0905,-1.43156,-0.0510608,-0.116079,0.301405,-0.963292,0.970182,2.49503,-0.257463,-0.304468,-0.296067
2946612,0.99,-1.5708,-0.522512,-0.00216396,-2.0956,-1.57114,1.57266,0.785849,-1.5706,-0.522977,-0.00225543,-2.0936,-1.57206,1.57358,0.78546,0.00762567,0.0215805,-0.104384,0.0260902,-0.0368239,0.117901,-0.000478847,0.0134479,0.0432773,-0.158237,0.0552012,-0.0831826,0.183244,0.00398217,-2.92601,-8.1937,-5.41986,22.1381,-1.45354,-0.0382434,-0.135305,0.287872,-0.954146,0.938507,2.50739,-0.265507,-0.292323,-0.294507
2946613,0.99,-1.57079,-0.522482,-0.00229175,-2.09557,-1.57119,1.57281,0.785855,-1.57059,-0.522932,-0.00242074,-2.09354,-1.57215,1.57377,0.785464,0.00779813,0.0221617,-0.112345,0.0281365,-0.035884,0.126366,0.00137619,0.0140246,0.0451876,-0.165311,0.0576351,-0.0863907,0.190297,0.00413541,-3.02916,-8.16592,-5.59839,22.1897,-1.49382,-0.0446521,-0.181082,0.274507,-0.941299,0.905335,2.51862,-0.273777,-0.280263,-0.292787
2946614,0.99,-1.57077,-0.522446,-0.00242446,-2.09553,-1.57124,1.57296,0.785849,-1.57057,-0.522885,-0.00259313,-2.09348,-1.57224,1.57397,0.785468,0.00950816,0.0263533,-0.118441,0.0302856,-0.0407727,0.13294,-0.00101532,0.0146012,0.0470978,-0.172384,0.060069,-0.0895987,0.19735,0.00428864,-3.20372,-8.16592,-5.80072,22.2135,-1.5048,-0.0638782,-0.128897,0.263239,-0.925026,0.873545,2.5288,-0.28227,-0.267953,-0.29094
2946615,0.99,-1.57077,-0.522414,-0.00256,-2.0955,-1.5713,1.57313,0.785853,-1.57056,-0.522836,-0.00277259,-2.09342,-1.57233,1.57418,0.785472,0.00892122,0.0281333,-0.124873,0.0336676,-0.0492275,0.143765,0.000781182,0.0151779,0.049008,-0.179458,0.0625029,-0.0928068,0.204403,0.00444187,-3.30687,-8.11832,-6.05462,22.2889,-1.52128,-0.108739,-0.168264,0.253932,-0.910033,0.843369,2.53977,-0.291053,-0.25544,-0.289003
2946616,0.99,-1.57075,-0.522375,-0.00269603,-2.09546,-1.57136,1.57331,0.785852,-1.57054,-0.522785,-0.00295912,-2.09336,-1.57243,1.57439,0.785477,0.00960115,0.0338567,-0.126438,0.0385816,-0.0556479,0.151456,4.60701e-05,0.0157545,0.0509183,-0.186532,0.0649368,-0.0960149,0.211457,0.0045951,-3.45763,-8.11832,-6.33233,22.2611,-1.53319,-0.147191,-0.155447,0.244786,-0.899405,0.812199,2.55186,-0.300135,-0.243096,-0.286991
2946617,0.99,-1.57074,-0.522337,-0.0028451,-2.09542,-1.57143,1.57348,0.785851,-1.57053,-0.522732,-0.00315272,-2.09329,-1.57253,1.57461,0.785482,0.01444,0.0369044,-0.130893,0.0380601,-0.0612989,0.159604,-0.000206646,0.0163312,0.0528285,-0.193605,0.0673707,-0.099223,0.21851,0.00474834,-3.65996,-8.06674,-6.58624,22.2889,-1.52128,-0.121556,-0.149038,0.231781,-0.89701,0.774211,2.56648,-0.309641,-0.231633,-0.284921
2946618,0.99,-1.57072,-0.522296,-0.00300733,-2.09537,-1.57149,1.57367,0.785849,-1.57051,-0.522677,-0.0033534,-2.09322,-1.57263,1.57483,0.785487,0.0154588,0.0366,-0.140237,0.0383371,-0.0640443,0.166757,-0.00064639,0.0169078,0.0547387,-0.200679,0.0698046,-0.102431,0.225563,0.00490157,-3.75914,-8.03897,-6.737,22.2889,-1.54417,-0.127965,-0.135305,0.213165,-0.903645,0.727441,2.5857,-0.319676,-0.221307,-0.282815
2946619,0.99,-1.5707,-0.522251,-0.00316642,-2.09533,-1.57157,1.57388,0.785851,-1.57049,-0.52262,-0.00356191,-2.09315,-1.57273,1.57506,0.785492,0.0181476,0.0396616,-0.144583,0.0398382,-0.0630953,0.176769,7.76996e-05,0.0175281,0.0568442,-0.208506,0.0724848,-0.105723,0.232787,0.00505848,-3.93767,-8.01517,-6.9909,22.3603,-1.52128,-0.140783,-0.149038,0.190662,-0.91547,0.674948,2.60941,-0.330176,-0.211748,-0.280689
2946620,0.99,-1.57069,-0.522207,-0.00333774,-2.09528,-1.57164,1.57409,0.785845,-1.57047,-0.522562,-0.00377824,-2.09307,-1.57284,1.5753,0.785497,0.0170451,0.041247,-0.151097,0.0427973,-0.0660833,0.185396,-0.00188098,0.0181485,0.0589498,-0.216333,0.0751649,-0.109014,0.24001,0.00521539,-3.98528,-7.96359,-7.09009,22.3603,-1.51579,-0.172826,-0.0968531,0.165288,-0.929888,0.618204,2.63633,-0.341045,-0.202745,-0.278558
2946621,0.99,-1.57067,-0.522165,-0.00350757,-2.09523,-1.57173,1.57431,0.785845,-1.57045,-0.5225,-0.0040024,-2.09299,-1.57295,1.57555,0.785502,0.0196365,0.0419812,-0.158517,0.0453786,-0.0725575,0.194591,-0.00125399,0.0187688,0.0610553,-0.224161,0.077845,-0.112305,0.247234,0.00537229,-4.03685,-7.88821,-7.21704,22.3365,-1.53319,-0.147191,-0.0968531,0.138248,-0.943556,0.558843,2.66405,-0.352072,-0.194098,-0.276414
2946622,0.99,-1.57066,-0.522115,-0.00368885,-2.09517,-1.57181,1.57453,0.785847,-1.57043,-0.522437,-0.00423439,-2.09291,-1.57307,1.57581,0.785508,0.0178984,0.0443411,-0.162913,0.0504044,-0.0775867,0.202228,-0.000123914,0.0193891,0.0631608,-0.231988,0.0805251,-0.115597,0.254458,0.0055292,-4.06066,-7.88821,-7.39557,22.3127,-1.54417,-0.147191,-0.116079,0.110806,-0.952259,0.498579,2.68944,-0.362996,-0.185603,-0.274226
2946623,0.99,-1.57063,-0.522062,-0.0038756,-2.09511,-1.5719,1.57477,0.785848,-1.57041,-0.522372,-0.0044742,-2.09283,-1.57319,1.57607,0.785513,0.0191516,0.0459108,-0.168909,0.050221,-0.0808532,0.209533,0.000154749,0.0200094,0.0652664,-0.239815,0.0832053,-0.118888,0.261682,0.00568611,-4.18761,-7.88821,-7.5979,22.3127,-1.57255,-0.186559,-0.122488,0.0831847,-0.955309,0.437361,2.71164,-0.373738,-0.17722,-0.271962
2946624,0.99,-1.57061,-0.522006,-0.00407003,-2.09505,-1.572,1.57502,0.785848,-1.57039,-0.522305,-0.00472185,-2.09274,-1.57331,1.57634,0.785519,0.0221822,0.0508851,-0.178408,0.0530529,-0.084555,0.220417,0.000103166,0.0206297,0.0673719,-0.247643,0.0858854,-0.12218,0.268905,0.00584302,-4.41375,-7.91599,-7.72485,22.3127,-1.56706,-0.250646,-0.122488,0.0555798,-0.957011,0.37568,2.73321,-0.384387,-0.168956,-0.269624
2946625,0.99,-1.57059,-0.521946,-0.00426636,-2.09499,-1.5721,1.57527,0.785852,-1.57037,-0.522235,-0.00497732,-2.09266,-1.57344,1.57661,0.785525,0.0216061,0.0544135,-0.183308,0.0555057,-0.0823772,0.235017,0.00152684,0.0212501,0.0694774,-0.25547,0.0885655,-0.125471,0.276129,0.00599993,-4.5169,-7.93979,-7.92718,22.3127,-1.56706,-0.269872,-0.161856,0.0279286,-0.963371,0.314124,2.757,-0.395058,-0.160969,-0.267237
2946626,0.99,-1.57056,-0.521888,-0.00447314,-2.09492,-1.5722,1.57554,0.785854,-1.57035,-0.522164,-0.00524061,-2.09256,-1.57357,1.5769,0.785531,0.0202921,0.0559137,-0.190906,0.0578857,-0.0853488,0.246359,0.000543175,0.0218704,0.0715829,-0.263297,0.0912457,-0.128763,0.283353,0.00615684,-4.59227,-7.91599,-8.10571,22.2889,-1.56706,-0.263463,-0.149038,0.000272177,-0.975589,0.252793,2.78326,-0.405766,-0.153407,-0.264852
2946627,0.99,-1.57054,-0.521823,-0.00469648,-2.09485,-1.5723,1.57581,0.785858,-1.57033,-0.52209,-0.00551174,-2.09247,-1.5737,1.57719,0.785538,0.0216909,0.06139,-0.20219,0.0633298,-0.0874357,0.250465,0.00131155,0.0224907,0.0736885,-0.271124,0.0939258,-0.132054,0.290576,0.00631375,-4.76683,-7.93979,-8.18109,22.2373,-1.56706,-0.269872,-0.174673,-0.0253659,-0.991752,0.194657,2.81047,-0.416386,-0.145969,-0.262531
2946628,0.99,-1.57051,-0.521758,-0.00492339,-2.09478,-1.57241,1.57608,0.78586,-1.57031,-0.522014,-0.00579069,-2.09237,-1.57383,1.57749,0.785544,0.0256399,0.0615367,-0.206933,0.0671023,-0.0939193,0.258149,0.00134909,0.023111,0.075794,-0.278952,0.0966059,-0.135346,0.2978,0.00647066,-4.92156,-7.93979,-8.28027,22.3365,-1.56706,-0.269872,-0.18749,-0.0483157,-1.00939,0.141177,2.83626,-0.42677,-0.138426,-0.26032
2946629,0.99,-1.57048,-0.521693,-0.00515436,-2.0947,-1.57252,1.57636,0.785855,-1.57028,-0.521936,-0.00607796,-2.09227,-1.57397,1.57779,0.785551,0.0258755,0.0639681,-0.215964,0.0698105,-0.103226,0.26467,0.000424673,0.0237508,0.0780245,-0.28727,0.0994419,-0.138627,0.304987,0.00662674,-4.96917,-7.91599,-8.40722,22.3127,-1.57805,-0.289098,-0.174673,-0.0708092,-1.02406,0.089418,2.85827,-0.436829,-0.130975,-0.258264
2946630,0.99,-1.57046,-0.521624,-0.00539521,-2.09462,-1.57264,1.57666,0.785857,-1.57026,-0.521856,-0.00637355,-2.09217,-1.57411,1.5781,0.785558,0.0250725,0.0673549,-0.220417,0.0739349,-0.105015,0.268335,0.00123255,0.0243906,0.0802551,-0.295589,0.102278,-0.141908,0.312174,0.00678282,-4.96917,-7.93979,-8.4826,22.3365,-1.60094,-0.276281,-0.200308,-0.0935926,-1.03428,0.0381644,2.87628,-0.446542,-0.123648,-0.256384
2946631,0.99,-1.57042,-0.521553,-0.00564149,-2.09453,-1.57276,1.57695,0.785855,-1.57023,-0.521773,-0.00667746,-2.09207,-1.57426,1.57842,0.785565,0.0271392,0.0666921,-0.228617,0.0776062,-0.110759,0.279272,-0.000839812,0.0250304,0.0824856,-0.303907,0.105114,-0.14519,0.31936,0.00693891,-5.07232,-7.96359,-8.51037,22.3365,-1.63481,-0.218602,-0.155447,-0.116821,-1.03927,-0.0131752,2.89016,-0.455936,-0.116426,-0.254696
2946632,0.99,-1.5704,-0.521483,-0.0058956,-2.09444,-1.57288,1.57726,0.785853,-1.57021,-0.521689,-0.00698968,-2.09196,-1.57441,1.57875,0.785572,0.028012,0.068224,-0.236914,0.0811576,-0.115348,0.284642,-0.00154322,0.0256702,0.0847161,-0.312226,0.10795,-0.148471,0.326547,0.00709499,-5.02074,-7.93979,-8.55798,22.2889,-1.6522,-0.225011,-0.128897,-0.140661,-1.03527,-0.0648604,2.89847,-0.465001,-0.109272,-0.253208
2946633,0.99,-1.57037,-0.521404,-0.0061623,-2.09435,-1.57301,1.57758,0.78585,-1.57018,-0.521602,-0.00731023,-2.09185,-1.57456,1.57908,0.785579,0.031396,0.0704435,-0.246686,0.0829048,-0.119419,0.294661,-0.00221561,0.02631,0.0869467,-0.320544,0.110786,-0.151752,0.333734,0.00725107,-5.07232,-7.96359,-8.7127,22.2889,-1.6577,-0.257054,-0.0968531,-0.1644,-1.02253,-0.115394,2.90197,-0.473796,-0.102011,-0.251869
2946634,0.99,-1.57033,-0.521325,-0.00644639,-2.09426,-1.57316,1.57791,0.785851,-1.57015,-0.521513,-0.00763909,-2.09173,-1.57471,1.57942,0.785586,0.0327616,0.0715918,-0.258903,0.0835071,-0.123063,0.306313,-0.00123971,0.0269498,0.0891772,-0.328863,0.113622,-0.155034,0.340921,0.00740716,-5.1953,-7.96359,-8.68493,22.3127,-1.6522,-0.276281,-0.103262,-0.186759,-1.00538,-0.16232,2.90392,-0.482455,-0.0944854,-0.250579
2946635,0.99,-1.57029,-0.521243,-0.00673709,-2.09416,-1.5733,1.57824,0.78585,-1.57013,-0.521421,-0.00797627,-2.09162,-1.57487,1.57977,0.785594,0.0359805,0.0755529,-0.268527,0.0903975,-0.131009,0.313579,-0.00106383,0.0275896,0.0914077,-0.337181,0.116458,-0.158315,0.348108,0.00756324,-5.29845,-7.96359,-8.73651,22.3127,-1.62932,-0.250646,-0.0968531,-0.20631,-0.98688,-0.203135,2.90589,-0.491,-0.086578,-0.249249
2946636,0.99,-1.57026,-0.521157,-0.00703461,-2.09407,-1.57345,1.57858,0.785856,-1.5701,-0.521327,-0.00832177,-2.0915,-1.57503,1.58013,0.785602,0.0341156,0.0796288,-0.274974,0.0904684,-0.132089,0.320537,0.00122356,0.0282294,0.0936383,-0.3455,0.119294,-0.161596,0.355294,0.00771932,-5.22307,-8.01517,-8.83966,22.2889,-1.60643,-0.276281,-0.149038,-0.223286,-0.970704,-0.238317,2.90864,-0.499452,-0.0783876,-0.247818
2946637,0.99,-1.57022,-0.521071,-0.00733693,-2.09396,-1.5736,1.57894,0.785855,-1.57007,-0.521232,-0.00867559,-2.09138,-1.5752,1.58049,0.78561,0.0366458,0.081136,-0.2817,0.0966552,-0.137607,0.331791,0.000544438,0.0288692,0.0958688,-0.353819,0.12213,-0.164878,0.362481,0.00787541,-5.29845,-7.99136,-8.86346,22.2611,-1.58354,-0.340367,-0.141714,-0.239617,-0.959471,-0.271393,2.91309,-0.507881,-0.0702423,-0.246281
2946638,0.99,-1.57018,-0.520981,-0.00765771,-2.09386,-1.57375,1.57929,0.785854,-1.57004,-0.521133,-0.00903773,-2.09125,-1.57537,1.58086,0.785618,0.0386029,0.0858723,-0.292996,0.100235,-0.144322,0.346494,0.000125599,0.029509,0.0980993,-0.362137,0.124966,-0.168159,0.369668,0.00803149,-5.37383,-7.99136,-8.86346,22.2889,-1.59544,-0.373326,-0.135305,-0.256893,-0.952208,-0.305003,2.91809,-0.516196,-0.0624932,-0.244692
2946639,0.99,-1.57015,-0.520887,-0.00797304,-2.09374,-1.5739,1.57966,0.785859,-1.57001,-0.521033,-0.00940846,-2.09112,-1.57554,1.58124,0.785626,0.0344022,0.0901093,-0.299001,0.10768,-0.149565,0.354366,0.00177915,0.03015,0.100399,-0.370736,0.127885,-0.171373,0.376691,0.00818401,-5.35003,-8.01517,-8.99041,22.2373,-1.62382,-0.379735,-0.181082,-0.274283,-0.949064,-0.33805,2.92238,-0.524216,-0.0552014,-0.243101
2946640,0.99,-1.57011,-0.520796,-0.0083127,-2.09363,-1.57406,1.58003,0.785862,-1.56998,-0.52093,-0.0097878,-2.09099,-1.57571,1.58162,0.785634,0.0356269,0.0889742,-0.311043,0.108341,-0.153281,0.356917,0.00189818,0.0307909,0.102698,-0.379335,0.130805,-0.174587,0.383715,0.00833653,-5.37383,-7.99136,-8.93884,22.2611,-1.6577,-0.314733,-0.200308,-0.28913,-0.947727,-0.367243,2.92482,-0.531833,-0.047985,-0.241545
2946641,0.99,-1.57007,-0.520701,-0.00866075,-2.09352,-1.57423,1.5804,0.785863,-1.56995,-0.520825,-0.0101757,-2.09086,-1.57589,1.58201,0.785643,0.037709,0.0909812,-0.319027,0.112693,-0.157354,0.359645,0.000790735,0.0314318,0.104997,-0.387934,0.133724,-0.177801,0.390738,0.00848905,-5.44921,-7.96359,-8.91504,22.2611,-1.66868,-0.250646,-0.18749,-0.300005,-0.94259,-0.390679,2.92436,-0.539068,-0.0404247,-0.240095
2946642,0.99,-1.57003,-0.520601,-0.00900946,-2.0934,-1.5744,1.58079,0.785866,-1.56991,-0.520718,-0.0105723,-2.09072,-1.57607,1.58241,0.785651,0.0369658,0.0940427,-0.329445,0.115141,-0.159691,0.368908,0.00123923,0.0320728,0.107297,-0.396533,0.136644,-0.181015,0.397762,0.00864157,-5.4254,-7.99136,-8.83966,22.2889,-1.68608,-0.269872,-0.206716,-0.30742,-0.932847,-0.408817,2.92176,-0.546061,-0.032415,-0.238812
2946643,0.99,-1.56999,-0.520498,-0.00936625,-2.09328,-1.57457,1.58118,0.785866,-1.56988,-0.520609,-0.0109774,-2.09058,-1.57626,1.58281,0.78566,0.0320436,0.0956452,-0.335197,0.117339,-0.157544,0.384271,0.000588797,0.0327137,0.109596,-0.405132,0.139564,-0.184229,0.404785,0.00879409,-5.35003,-7.99136,-8.93884,22.3127,-1.69157,-0.314733,-0.200308,-0.311719,-0.921499,-0.422327,2.91907,-0.552982,-0.0239958,-0.237725
2946644,0.99,-1.56995,-0.520397,-0.00973613,-2.09316,-1.57474,1.58159,0.785863,-1.56985,-0.520497,-0.0113911,-2.09044,-1.57644,1.58322,0.785669,0.034296,0.0955379,-0.344089,0.118981,-0.166191,0.393857,-0.000556905,0.0333546,0.111896,-0.413731,0.142483,-0.187443,0.411809,0.00894661,-5.37383,-7.93979,-8.88727,22.3365,-1.67418,-0.373326,-0.174673,-0.313797,-0.908671,-0.432984,2.9173,-0.559941,-0.015381,-0.236851
2946645,0.99,-1.56992,-0.520289,-0.0101257,-2.09302,-1.57492,1.58201,0.785861,-1.56981,-0.520382,-0.0118135,-2.0903,-1.57663,1.58364,0.785678,0.0332805,0.100002,-0.359698,0.125633,-0.172239,0.401648,-0.00132071,0.0339955,0.114195,-0.42233,0.145403,-0.190657,0.418832,0.00909913,-5.29845,-7.93979,-8.83966,22.2611,-1.6522,-0.456639,-0.149038,-0.313147,-0.893004,-0.439717,2.91552,-0.566848,-0.00656915,-0.236173
2946646,1,-1.56988,-0.520179,-0.0105159,-2.09288,-1.5751,1.58242,0.785865,-1.56978,-0.520266,-0.0122444,-2.09015,-1.57683,1.58407,0.785687,0.0339846,0.102432,-0.365462,0.126169,-0.178642,0.405168,-0.000405752,0.0346365,0.116494,-0.430929,0.148322,-0.193871,0.425856,0.00925165,-5.24688,-7.91599,-8.78808,22.2373,-1.59544,-0.482274,-0.161856,-0.307897,-0.876726,-0.43918,2.91377,-0.573581,0.00261558,-0.23562
2946647,1,-1.56985,-0.520063,-0.0109106,-2.09275,-1.57529,1.58283,0.785863,-1.56974,-0.520147,-0.0126839,-2.09,-1.57703,1.5845,0.785697,0.0347581,0.105729,-0.378407,0.128998,-0.176548,0.405381,-0.0014912,0.0352774,0.118794,-0.439528,0.151242,-0.197085,0.432879,0.00940417,-5.22307,-7.96359,-8.76428,22.2373,-1.58995,-0.437413,-0.128897,-0.298606,-0.863669,-0.432147,2.91419,-0.580206,0.0119924,-0.235112
2946648,1,-1.5698,-0.519944,-0.0113284,-2.09261,-1.57547,1.58324,0.785864,-1.56971,-0.520026,-0.013132,-2.08984,-1.57723,1.58494,0.785706,0.0368322,0.109225,-0.391736,0.130675,-0.178595,0.403268,-0.000756778,0.0359183,0.121093,-0.448127,0.154161,-0.2003,0.439903,0.00955669,-5.27465,-8.03897,-8.68493,22.2611,-1.61741,-0.321141,-0.135305,-0.284792,-0.85655,-0.417645,2.91878,-0.586765,0.0216508,-0.234589
2946649,1,-1.56977,-0.519825,-0.0117351,-2.09247,-1.57567,1.58366,0.785864,-1.56967,-0.519903,-0.0135889,-2.08968,-1.57743,1.58539,0.785716,0.0372905,0.110488,-0.405776,0.133087,-0.184899,0.408833,-0.000267159,0.036547,0.123417,-0.456836,0.157107,-0.203411,0.446686,0.00970398,-5.27465,-8.06674,-8.76428,22.2373,-1.6458,-0.263463,-0.141714,-0.264286,-0.855499,-0.39196,2.92778,-0.593151,0.0320331,-0.234001
2946650,1,-1.56973,-0.519709,-0.0121642,-2.09232,-1.57586,1.58409,0.785863,-1.56963,-0.519777,-0.0140544,-2.08952,-1.57764,1.58584,0.785726,0.0366618,0.113033,-0.41216,0.137977,-0.183907,0.409151,-0.00160226,0.0371757,0.12574,-0.465546,0.160052,-0.206523,0.453469,0.00985127,-5.24688,-8.01517,-8.73651,22.2135,-1.69157,-0.250646,-0.103262,-0.237557,-0.857059,-0.35597,2.939,-0.599282,0.0432541,-0.23333
2946651,1,-1.56969,-0.519586,-0.0125966,-2.09216,-1.57606,1.58453,0.785868,-1.5696,-0.519649,-0.0145287,-2.08936,-1.57784,1.5863,0.785736,0.0391308,0.116517,-0.418236,0.142378,-0.185023,0.415501,0.000118621,0.0378044,0.128063,-0.474255,0.162997,-0.209635,0.460252,0.00999857,-5.35003,-8.03897,-8.76428,22.1619,-1.69707,-0.244237,-0.135305,-0.209524,-0.858555,-0.317788,2.94975,-0.605279,0.0547489,-0.232576
2946652,1,-1.56965,-0.519468,-0.0130475,-2.09201,-1.57625,1.58498,0.785871,-1.56956,-0.519518,-0.0150116,-2.0892,-1.57806,1.58677,0.785746,0.0386886,0.117041,-0.425289,0.144294,-0.19034,0.42787,0.00106243,0.038433,0.130387,-0.482965,0.165942,-0.212746,0.467036,0.0101459,-5.35003,-7.96359,-8.7127,22.1619,-1.71355,-0.333959,-0.161856,-0.186017,-0.859118,-0.286577,2.9589,-0.611348,0.06567,-0.231732
2946653,1,-1.56961,-0.51934,-0.0135181,-2.09185,-1.57645,1.58545,0.785874,-1.56952,-0.519386,-0.0155033,-2.08903,-1.57827,1.58724,0.785756,0.0376212,0.123589,-0.435356,0.152382,-0.195754,0.436552,0.00142036,0.0390617,0.13271,-0.491675,0.168887,-0.215858,0.473819,0.0102931,-5.32225,-8.01517,-8.68493,22.1143,-1.68608,-0.418187,-0.181082,-0.168384,-0.858825,-0.264393,2.96587,-0.61751,0.0756841,-0.230823
2946654,1,-1.56957,-0.51921,-0.0139964,-2.09169,-1.57666,1.5859,0.785875,-1.56948,-0.519251,-0.0160037,-2.08885,-1.57849,1.58772,0.785767,0.0344226,0.124336,-0.448804,0.152288,-0.199722,0.441507,0.00023483,0.0396904,0.135033,-0.500384,0.171833,-0.21897,0.480602,0.0104404,-5.32225,-8.03897,-8.55798,22.0905,-1.66319,-0.456639,-0.161856,-0.152514,-0.859473,-0.245009,2.97094,-0.623646,0.0852275,-0.2299
2946655,1,-1.56953,-0.519084,-0.0144741,-2.09153,-1.57687,1.58636,0.785871,-1.56944,-0.519113,-0.0165128,-2.08868,-1.57871,1.58821,0.785777,0.0347193,0.128351,-0.456646,0.15316,-0.202072,0.447292,-0.00130151,0.0403191,0.137357,-0.509094,0.174778,-0.222082,0.487385,0.0105877,-5.29845,-8.06674,-8.53418,22.1619,-1.6458,-0.437413,-0.122488,-0.13422,-0.863138,-0.222012,2.97675,-0.629727,0.0947795,-0.229
2946656,1,-1.56949,-0.518947,-0.0149578,-2.09136,-1.57708,1.58682,0.785865,-1.5694,-0.518974,-0.0170306,-2.0885,-1.57894,1.5887,0.785788,0.0355095,0.131891,-0.46534,0.160816,-0.206221,0.449711,-0.0030039,0.0409477,0.13968,-0.517804,0.177723,-0.225193,0.494169,0.010735,-5.29845,-8.11832,-8.60956,22.0905,-1.66319,-0.340367,-0.0648096,-0.114406,-0.870873,-0.196512,2.98459,-0.635795,0.10411,-0.228121
2946657,1,-1.56945,-0.51881,-0.0154446,-2.09119,-1.57729,1.5873,0.785869,-1.56936,-0.518832,-0.0175571,-2.08832,-1.57917,1.58921,0.785799,0.0405944,0.133828,-0.471844,0.163582,-0.209309,0.457515,-0.0020026,0.0415764,0.142003,-0.526513,0.180668,-0.228305,0.500952,0.0108823,-5.35003,-8.14212,-8.60956,22.1143,-1.71995,-0.269872,-0.0648096,-0.0973518,-0.880556,-0.174547,2.99203,-0.641826,0.112603,-0.22721
2946658,1,-1.56941,-0.518675,-0.0159447,-2.09102,-1.5775,1.58779,0.785871,-1.56931,-0.518687,-0.0180923,-2.08814,-1.5794,1.58971,0.78581,0.042863,0.134049,-0.477667,0.166287,-0.207024,0.465638,-0.00109771,0.0422051,0.144327,-0.535223,0.183614,-0.231417,0.507735,0.0110296,-5.35003,-8.11832,-8.7127,22.1381,-1.77031,-0.250646,-0.0712183,-0.0880639,-0.888101,-0.163302,2.99712,-0.647909,0.119667,-0.226195
2946659,1,-1.56937,-0.518533,-0.0164723,-2.09084,-1.57771,1.58828,0.785875,-1.56927,-0.518541,-0.0186362,-2.08795,-1.57963,1.59023,0.785821,0.0437984,0.137097,-0.493834,0.168284,-0.211652,0.472714,0.000692348,0.0428124,0.146638,-0.543906,0.186538,-0.234404,0.514232,0.0111707,-5.44921,-8.09055,-8.73651,22.1619,-1.7877,-0.269872,-0.10967,-0.0864508,-0.891663,-0.162451,3.00023,-0.654151,0.125518,-0.225025
2946660,1,-1.56932,-0.518389,-0.0169885,-2.09067,-1.57794,1.58879,0.785875,-1.56923,-0.518392,-0.0191888,-2.08776,-1.57987,1.59075,0.785832,0.0464768,0.137934,-0.498205,0.172305,-0.214583,0.480847,0.000461565,0.0434196,0.14895,-0.552589,0.189463,-0.237392,0.520728,0.0113117,-5.50078,-8.11832,-8.81189,22.2135,-1.80418,-0.269872,-0.10967,-0.0887811,-0.891438,-0.166317,3.00209,-0.660559,0.130854,-0.223698
2946661,1,-1.56927,-0.518246,-0.0175267,-2.09049,-1.57817,1.58931,0.785881,-1.56918,-0.51824,-0.0197501,-2.08757,-1.58011,1.59128,0.785844,0.047999,0.137857,-0.508376,0.175575,-0.214075,0.50828,0.00125715,0.0440269,0.151261,-0.561272,0.192388,-0.24038,0.527224,0.0114528,-5.52459,-8.11832,-8.81189,22.2611,-1.7758,-0.379735,-0.135305,-0.0957495,-0.885305,-0.176087,3.00156,-0.667154,0.135533,-0.222277
2946662,1,-1.56923,-0.518091,-0.0180609,-2.0903,-1.5784,1.58984,0.78588,-1.56914,-0.518087,-0.0203201,-2.08737,-1.58036,1.59181,0.785855,0.0447268,0.140133,-0.518423,0.17965,-0.218847,0.516459,-0.00106077,0.0446342,0.153572,-0.569955,0.195312,-0.243367,0.533721,0.0115938,-5.50078,-8.2175,-8.88727,22.2373,-1.73643,-0.469457,-0.0840357,-0.106993,-0.871002,-0.19161,2.99735,-0.673872,0.139424,-0.220846
2946663,1,-1.56918,-0.517939,-0.0186093,-2.0901,-1.57864,1.59037,0.785883,-1.56909,-0.517931,-0.0208987,-2.08718,-1.5806,1.59235,0.785867,0.0486992,0.141236,-0.524709,0.183728,-0.221662,0.522387,-0.0011819,0.0452414,0.155884,-0.578639,0.198237,-0.246355,0.540217,0.0117349,-5.59996,-8.29288,-8.88727,22.1619,-1.70256,-0.450231,-0.0712183,-0.120014,-0.849268,-0.209671,2.98953,-0.680597,0.142778,-0.219434
2946664,1,-1.56912,-0.517786,-0.0191645,-2.08992,-1.57887,1.5909,0.78588,-1.56905,-0.517773,-0.021486,-2.08698,-1.58085,1.5929,0.785879,0.0522151,0.143599,-0.532509,0.183682,-0.22251,0.526742,-0.00248335,0.0458487,0.158195,-0.587322,0.201162,-0.249343,0.546713,0.0118759,-5.75072,-8.32065,-9.01422,22.2135,-1.71355,-0.40537,-0.0254419,-0.136373,-0.823119,-0.232635,2.97984,-0.687373,0.14534,-0.218008
2946665,1,-1.56907,-0.517628,-0.0197135,-2.08973,-1.57911,1.59144,0.785883,-1.569,-0.517612,-0.022082,-2.08677,-1.5811,1.59345,0.785891,0.0517869,0.152216,-0.542726,0.18734,-0.226073,0.530448,-0.00165557,0.046456,0.160507,-0.596005,0.204086,-0.25233,0.55321,0.012017,-5.77849,-8.39603,-9.24432,22.2373,-1.77031,-0.379735,-0.0254419,-0.156867,-0.801887,-0.261164,2.97339,-0.69433,0.146984,-0.216479
2946666,1,-1.56901,-0.517474,-0.0202875,-2.08953,-1.57936,1.59201,0.785885,-1.56896,-0.517449,-0.0226867,-2.08656,-1.58136,1.59401,0.785903,0.0578302,0.151411,-0.545216,0.190834,-0.225405,0.530184,-0.000866354,0.0470633,0.162818,-0.604688,0.207011,-0.255318,0.559706,0.012158,-5.92925,-8.39603,-9.24432,22.2373,-1.80418,-0.386144,-0.0318506,-0.181588,-0.792612,-0.295218,2.97311,-0.701552,0.1478,-0.214762
2946667,1,-1.56896,-0.517315,-0.020865,-2.08933,-1.5796,1.59257,0.785889,-1.56891,-0.517284,-0.0233001,-2.08635,-1.58162,1.59458,0.785916,0.0577299,0.154536,-0.554023,0.194263,-0.230528,0.540702,0.000643134,0.0476705,0.16513,-0.613371,0.209936,-0.258305,0.566202,0.0122991,-6.02843,-8.41983,-9.26812,22.2135,-1.80968,-0.424596,-0.0648096,-0.212812,-0.790859,-0.338527,2.97629,-0.709062,0.14763,-0.212832
2946668,1,-1.56891,-0.517156,-0.0214554,-2.08914,-1.57985,1.59314,0.785892,-1.56886,-0.517117,-0.0239221,-2.08614,-1.58188,1.59515,0.785928,0.0524963,0.153468,-0.565507,0.195121,-0.234638,0.545928,0.000191397,0.0482778,0.167441,-0.622054,0.21286,-0.261293,0.572699,0.0124402,-5.90545,-8.41983,-9.3435,22.2611,-1.79869,-0.424596,-0.0584009,-0.247064,-0.790098,-0.386449,2.9802,-0.716709,0.147057,-0.21072
2946669,1,-1.56886,-0.516994,-0.0220536,-2.08893,-1.58009,1.59372,0.785895,-1.56881,-0.516947,-0.0245527,-2.08593,-1.58214,1.59573,0.785941,0.0507448,0.155486,-0.573289,0.199734,-0.238159,0.556157,0.00431595,0.0488581,0.169712,-0.6306,0.215727,-0.264143,0.57888,0.0125744,-5.85387,-8.41983,-9.2959,22.2611,-1.7758,-0.431005,-0.044668,-0.277175,-0.785848,-0.429017,2.98329,-0.724252,0.14712,-0.208482
2946670,1,-1.56881,-0.516822,-0.0226613,-2.08872,-1.58035,1.59432,0.785893,-1.56876,-0.516775,-0.0251919,-2.08571,-1.58241,1.59631,0.785953,0.0540543,0.158634,-0.581287,0.204055,-0.239933,0.570966,0.00231928,0.0494384,0.171983,-0.639145,0.218594,-0.266992,0.585061,0.0127086,-5.85387,-8.47141,-9.16894,22.2135,-1.7758,-0.507909,-0.0190333,-0.30259,-0.777036,-0.465589,2.98431,-0.731602,0.147779,-0.206175
2946671,1,-1.56876,-0.516648,-0.0232709,-2.08851,-1.58061,1.59493,0.785903,-1.56871,-0.516601,-0.0258396,-2.08549,-1.58268,1.5969,0.785966,0.0513323,0.16572,-0.585219,0.210797,-0.241298,0.581475,0.00278918,0.0500187,0.174254,-0.647691,0.221461,-0.269842,0.591242,0.0128428,-5.77849,-8.59836,-9.21655,22.2373,-1.7758,-0.572911,-0.044668,-0.32752,-0.768964,-0.502102,2.98397,-0.738835,0.148164,-0.203811
2946672,1,-1.56872,-0.516477,-0.0238902,-2.0883,-1.58086,1.59552,0.785905,-1.56866,-0.516424,-0.0264958,-2.08526,-1.58295,1.5975,0.785979,0.0471438,0.16859,-0.597054,0.208003,-0.241956,0.587378,0.00655109,0.050599,0.176524,-0.656236,0.224329,-0.272692,0.597423,0.012977,-5.59996,-8.64597,-9.19275,22.2611,-1.7877,-0.592137,-0.044668,-0.352134,-0.76956,-0.538924,2.98591,-0.746071,0.148034,-0.201367
2946673,1,-1.56867,-0.516304,-0.0245136,-2.08809,-1.58112,1.59612,0.78592,-1.56861,-0.516246,-0.0271606,-2.08503,-1.58323,1.5981,0.785992,0.047307,0.16765,-0.608289,0.209734,-0.246274,0.584605,0.00731264,0.0511793,0.178795,-0.664781,0.227196,-0.275541,0.603604,0.0131112,-5.55236,-8.67374,-9.19275,22.2373,-1.80968,-0.437413,-0.10967,-0.371314,-0.779924,-0.568733,2.99332,-0.75332,0.14814,-0.198841
2946674,1,-1.56862,-0.516128,-0.0251586,-2.08787,-1.58138,1.59671,0.78592,-1.56856,-0.516065,-0.0278339,-2.0848,-1.58351,1.59871,0.786005,0.0481971,0.169883,-0.615323,0.209776,-0.255828,0.583995,0.00239619,0.0517596,0.181066,-0.673327,0.230063,-0.278391,0.609786,0.0132454,-5.52459,-8.69754,-9.06579,22.2889,-1.80968,-0.276281,-0.0318506,-0.382625,-0.794018,-0.588086,3.00535,-0.760509,0.149052,-0.19628
2946675,1,-1.56856,-0.515943,-0.0257978,-2.08766,-1.58165,1.59734,0.785932,-1.56851,-0.515881,-0.0285158,-2.08457,-1.58379,1.59933,0.786019,0.0527004,0.172287,-0.623025,0.207842,-0.259226,0.595627,0.00736526,0.0523399,0.183337,-0.681872,0.23293,-0.281241,0.615967,0.0133796,-5.55236,-8.74911,-9.14117,22.4118,-1.78221,-0.301915,-0.0584009,-0.389945,-0.810826,-0.602473,3.0223,-0.767742,0.150421,-0.193726
2946676,1,-1.56851,-0.51577,-0.0264711,-2.08744,-1.58192,1.59799,0.785931,-1.56845,-0.515696,-0.0292062,-2.08434,-1.58407,1.59995,0.786032,0.0544983,0.171102,-0.633965,0.210974,-0.260444,0.610239,0.00191624,0.0529202,0.185608,-0.690418,0.235797,-0.28409,0.622148,0.0135138,-5.50078,-8.67374,-9.01422,22.4872,-1.78221,-0.379735,0.038645,-0.397784,-0.830281,-0.617847,3.04445,-0.775116,0.151726,-0.1912
2946677,1,-1.56845,-0.515587,-0.0271421,-2.08721,-1.58218,1.59862,0.785937,-1.5684,-0.515508,-0.0299052,-2.0841,-1.58436,1.60058,0.786046,0.0536481,0.171866,-0.645191,0.216807,-0.260565,0.615425,0.000507061,0.0535005,0.187879,-0.698963,0.238664,-0.28694,0.628329,0.013648,-5.50078,-8.67374,-9.01422,22.4118,-1.80968,-0.418187,0.071604,-0.405606,-0.844899,-0.633235,3.06659,-0.782392,0.153166,-0.188699
2946678,1,-1.56841,-0.515405,-0.0278032,-2.08698,-1.58245,1.59926,0.785944,-1.56834,-0.515318,-0.0306127,-2.08385,-1.58465,1.60121,0.78606,0.0499576,0.175388,-0.653236,0.222038,-0.26062,0.624,0.00468217,0.0540808,0.190149,-0.707508,0.241531,-0.28979,0.63451,0.0137822,-5.37383,-8.64597,-9.06579,22.4118,-1.83256,-0.386144,0.09083,-0.410004,-0.849602,-0.644217,3.08354,-0.789304,0.155263,-0.186144
2946679,1,-1.56835,-0.515208,-0.0284696,-2.08675,-1.58273,1.59991,0.785961,-1.56829,-0.515125,-0.0313285,-2.08361,-1.58494,1.60186,0.786074,0.0548842,0.180387,-0.649099,0.222672,-0.265895,0.641026,0.0107999,0.0546315,0.192357,-0.715825,0.244311,-0.292492,0.640359,0.0139092,-5.4254,-8.72531,-9.19275,22.4356,-1.84447,-0.437413,0.0258276,-0.414885,-0.850067,-0.657259,3.09658,-0.796049,0.157219,-0.183408
2946680,1,-1.56828,-0.515009,-0.0291596,-2.08651,-1.58301,1.60057,0.785968,-1.56823,-0.514931,-0.0320526,-2.08336,-1.58524,1.6025,0.786088,0.0587031,0.183819,-0.659362,0.227555,-0.27469,0.649393,0.0116295,0.0551823,0.194564,-0.724142,0.247091,-0.295195,0.646208,0.0140362,-5.62774,-8.80069,-9.06579,22.4118,-1.85545,-0.539952,0.0523779,-0.429482,-0.854963,-0.685945,3.10972,-0.803023,0.157379,-0.180418
2946681,1,-1.56822,-0.514809,-0.0298454,-2.08627,-1.58329,1.60123,0.785977,-1.56818,-0.514734,-0.0327851,-2.08311,-1.58553,1.60315,0.786102,0.0599463,0.189654,-0.666611,0.23127,-0.27929,0.648175,0.0134336,0.0557331,0.196771,-0.732459,0.249871,-0.297898,0.652057,0.0141631,-5.65154,-8.87607,-9.26812,22.511,-1.89482,-0.572911,0.0523779,-0.454598,-0.868234,-0.730681,3.12445,-0.810287,0.155557,-0.177182
2946682,1,-1.56816,-0.514609,-0.0305434,-2.08604,-1.58357,1.60188,0.785992,-1.56812,-0.514535,-0.0335259,-2.08286,-1.58583,1.60381,0.786116,0.0624369,0.189728,-0.672399,0.23129,-0.279445,0.648248,0.0153781,0.0562839,0.198979,-0.740776,0.25265,-0.3006,0.657906,0.0142901,-5.72692,-8.92368,-9.44665,22.6102,-1.9232,-0.5015,0.0322363,-0.486092,-0.889878,-0.784854,3.14129,-0.81783,0.152466,-0.173729
2946683,1,-1.5681,-0.514411,-0.0312537,-2.08579,-1.58387,1.60254,0.786006,-1.56807,-0.514334,-0.034275,-2.08261,-1.58614,1.60448,0.786131,0.0649801,0.189152,-0.683745,0.231866,-0.281252,0.648017,0.0174303,0.0568346,0.201186,-0.749093,0.25543,-0.303303,0.663755,0.0144171,-5.8261,-8.92368,-9.47046,22.6618,-1.90581,-0.424596,0.000192821,-0.521048,-0.914611,-0.844138,3.16013,-0.825716,0.148715,-0.170107
2946684,1,-1.56803,-0.514209,-0.0319826,-2.08555,-1.58417,1.60322,0.786011,-1.56801,-0.51413,-0.0350324,-2.08235,-1.58644,1.60514,0.786145,0.0647155,0.188504,-0.698863,0.235097,-0.28782,0.653577,0.011018,0.0573854,0.203393,-0.75741,0.25821,-0.306006,0.669604,0.0145441,-5.85387,-8.92368,-9.41888,22.761,-1.87834,-0.469457,0.0523779,-0.553559,-0.933861,-0.899647,3.1786,-0.833747,0.145412,-0.166402
2946685,1,-1.56797,-0.514009,-0.0327017,-2.0853,-1.58447,1.6039,0.78603,-1.56795,-0.513925,-0.0357981,-2.08209,-1.58675,1.60582,0.78616,0.0646223,0.190691,-0.71044,0.237146,-0.290445,0.664492,0.015203,0.0579362,0.2056,-0.765727,0.26099,-0.308709,0.675453,0.0146711,-5.87767,-8.89987,-9.44665,22.7332,-1.7758,-0.585729,-0.00621587,-0.577202,-0.943252,-0.941583,3.19455,-0.841588,0.143616,-0.162686
2946686,1,-1.56791,-0.513811,-0.0334357,-2.08506,-1.58477,1.60459,0.786039,-1.56789,-0.513717,-0.0365722,-2.08182,-1.58706,1.6065,0.786175,0.0638165,0.191969,-0.717078,0.236451,-0.29069,0.668644,0.0154674,0.0584869,0.207808,-0.774044,0.26377,-0.311411,0.681301,0.0147981,-5.87767,-8.8483,-9.39508,22.7848,-1.82158,-0.649816,0.00660151,-0.591218,-0.945489,-0.968796,3.20947,-0.849141,0.143328,-0.158996
2946687,1,-1.56784,-0.513602,-0.034193,-2.08481,-1.58506,1.60525,0.786054,-1.56783,-0.513507,-0.0373545,-2.08156,-1.58738,1.60719,0.78619,0.0673486,0.195943,-0.722806,0.241289,-0.297376,0.669314,0.0120297,0.0590377,0.210015,-0.782361,0.26655,-0.314114,0.68715,0.014925,-5.92925,-8.80069,-9.26812,22.761,-1.84447,-0.598546,-0.00621587,-0.600377,-0.945715,-0.988581,3.22577,-0.856497,0.143655,-0.155369
2946688,1,-1.56779,-0.513378,-0.0349296,-2.08455,-1.58538,1.60594,0.786074,-1.56777,-0.513295,-0.0381452,-2.08129,-1.58769,1.60788,0.786205,0.0625028,0.204108,-0.725188,0.247871,-0.302303,0.671314,0.0155784,0.0595885,0.212222,-0.790678,0.26933,-0.316817,0.692999,0.015052,-5.77849,-8.95145,-9.37127,22.7094,-1.87834,-0.592137,-0.0584009,-0.610104,-0.949904,-1.00933,3.24395,-0.863737,0.14362,-0.15183
2946689,1,-1.56772,-0.513162,-0.0357062,-2.08429,-1.58569,1.60662,0.78609,-1.56771,-0.51308,-0.0389439,-2.08101,-1.58801,1.60858,0.78622,0.0640694,0.209191,-0.738252,0.255907,-0.301359,0.675363,0.0167591,0.0601096,0.214347,-0.798692,0.271999,-0.319366,0.698506,0.0151716,-5.8261,-9.0784,-9.24432,22.6102,-1.91221,-0.520726,-0.077627,-0.621221,-0.963526,-1.03253,3.26314,-0.870867,0.142993,-0.148425
2946690,1,-1.56764,-0.512941,-0.0364998,-2.08403,-1.586,1.6073,0.786099,-1.56765,-0.512864,-0.0397506,-2.08074,-1.58834,1.60928,0.786235,0.0693546,0.212262,-0.748511,0.258506,-0.300372,0.675371,0.01499,0.0606307,0.216473,-0.806707,0.274668,-0.321916,0.704012,0.0152911,-5.92925,-9.20535,-8.99041,22.5864,-1.95708,-0.482274,-0.0254419,-0.631584,-0.986561,-1.05432,3.28198,-0.877876,0.142172,-0.145255
2946691,1,-1.56759,-0.512724,-0.0372865,-2.08376,-1.58632,1.60799,0.786113,-1.56759,-0.512645,-0.0405653,-2.08046,-1.58866,1.60999,0.78625,0.0654872,0.213166,-0.760474,0.258682,-0.306121,0.678836,0.015965,0.0611519,0.218598,-0.814721,0.277337,-0.324465,0.709519,0.0154106,-5.70311,-9.25296,-8.81189,22.4872,-1.9406,-0.443822,-0.0254419,-0.638992,-1.01538,-1.07048,3.30063,-0.884825,0.141714,-0.142377
2946692,1,-1.56754,-0.512508,-0.0380884,-2.0835,-1.58664,1.60867,0.786126,-1.56753,-0.512425,-0.041388,-2.08018,-1.58899,1.61071,0.786266,0.0586763,0.212766,-0.765545,0.260079,-0.311383,0.678923,0.0162704,0.061673,0.220723,-0.822735,0.280006,-0.327015,0.715025,0.0155302,-5.4254,-9.25296,-8.7127,22.4872,-1.90581,-0.424596,-0.0126246,-0.639935,-1.04424,-1.07643,3.31927,-0.891728,0.142351,-0.139756
2946693,1,-1.56748,-0.512293,-0.0389049,-2.08323,-1.58697,1.60937,0.786136,-1.56747,-0.512202,-0.0422188,-2.0799,-1.58932,1.61143,0.786282,0.0575959,0.211287,-0.783256,0.262553,-0.310563,0.690734,0.0166314,0.0621942,0.222848,-0.830749,0.282675,-0.329564,0.720532,0.0156497,-5.29845,-9.20535,-8.38342,22.4118,-1.86644,-0.469457,-0.00621587,-0.630475,-1.06505,-1.06754,3.33559,-0.898443,0.144775,-0.137346
2946694,1,-1.56742,-0.512079,-0.0397364,-2.08296,-1.5873,1.6101,0.786148,-1.56741,-0.511977,-0.0430576,-2.07961,-1.58965,1.61216,0.786297,0.055238,0.2111,-0.791376,0.264783,-0.31517,0.700951,0.0167373,0.0627153,0.224974,-0.838764,0.285344,-0.332114,0.726039,0.0157692,-5.11992,-9.17758,-8.10571,22.4634,-1.79869,-0.566503,0.00660151,-0.608573,-1.07164,-1.04095,3.34685,-0.904761,0.149221,-0.13512
2946695,1,-1.56737,-0.511848,-0.0405731,-2.08269,-1.58762,1.6108,0.786159,-1.56734,-0.51175,-0.0439043,-2.07933,-1.58998,1.61289,0.786313,0.0522371,0.215604,-0.804908,0.268585,-0.318497,0.705304,0.0163693,0.0632365,0.227099,-0.846778,0.288013,-0.334663,0.731545,0.0158888,-4.96917,-9.22916,-7.90338,22.4118,-1.74193,-0.572911,0.0322363,-0.574862,-1.0656,-0.997352,3.35313,-0.910558,0.155365,-0.133027
2946696,1,-1.56731,-0.511621,-0.0414071,-2.0824,-1.58796,1.61151,0.786174,-1.56728,-0.51152,-0.0447591,-2.07904,-1.59032,1.61362,0.786329,0.0546442,0.217544,-0.815262,0.271618,-0.323478,0.70496,0.0124068,0.0637576,0.229224,-0.854792,0.290682,-0.337213,0.737052,0.0160083,-4.92156,-9.25296,-7.69708,22.3365,-1.74193,-0.40537,0.0322363,-0.531106,-1.05396,-0.938908,3.35666,-0.91578,0.16273,-0.130985
2946697,1,-1.56724,-0.511385,-0.042264,-2.08213,-1.58829,1.61221,0.786183,-1.56721,-0.511289,-0.0456219,-2.07874,-1.59066,1.61437,0.786345,0.0567576,0.221946,-0.823243,0.276171,-0.324998,0.701913,0.00888303,0.0642787,0.23135,-0.862806,0.293351,-0.339762,0.742558,0.0161278,-4.89379,-9.35611,-7.54632,22.3365,-1.80968,-0.32755,0.0459692,-0.481526,-1.04217,-0.871159,3.35899,-0.920453,0.170688,-0.128913
2946698,1,-1.56718,-0.511141,-0.0431056,-2.08184,-1.58861,1.61295,0.786207,-1.56715,-0.511056,-0.0464928,-2.07845,-1.591,1.61511,0.786362,0.059561,0.229381,-0.838827,0.278925,-0.321114,0.707352,0.0147362,0.0647999,0.233475,-0.87082,0.296021,-0.342312,0.748065,0.0162474,-4.92156,-9.50687,-7.64947,22.2135,-1.89482,-0.366002,-0.044668,-0.43035,-1.03749,-0.799395,3.36274,-0.924763,0.178776,-0.126757
2946699,1,-1.56711,-0.510908,-0.0439655,-2.08154,-1.58895,1.61369,0.786224,-1.56708,-0.51082,-0.0473712,-2.07815,-1.59135,1.61587,0.786378,0.065665,0.22868,-0.839752,0.281512,-0.323115,0.715886,0.0154761,0.0652932,0.235503,-0.878471,0.29856,-0.344704,0.753223,0.0163593,-5.11992,-9.53067,-7.77643,22.0627,-1.96257,-0.539952,-0.044668,-0.382269,-1.04498,-0.729671,3.37022,-0.929032,0.186408,-0.124542
2946700,1,-1.56703,-0.510671,-0.0448364,-2.08125,-1.58929,1.61443,0.78625,-1.56702,-0.510583,-0.0482574,-2.07785,-1.59169,1.61663,0.786395,0.0715431,0.229739,-0.836896,0.286459,-0.326974,0.728693,0.0150594,0.0657866,0.237532,-0.886121,0.301099,-0.347095,0.758381,0.0164712,-5.37383,-9.50687,-7.90338,22.0389,-1.98546,-0.63059,-0.141714,-0.348952,-1.05843,-0.679694,3.37832,-0.93366,0.191775,-0.122384
2946701,1,-1.56695,-0.51044,-0.04571,-2.08096,-1.58963,1.61518,0.786266,-1.56695,-0.510343,-0.0491511,-2.07754,-1.59204,1.61739,0.786411,0.0770759,0.230561,-0.847257,0.289682,-0.328244,0.734494,0.0160875,0.06628,0.23956,-0.893771,0.303639,-0.349487,0.76354,0.0165832,-5.59996,-9.37991,-7.95099,22.0151,-1.92869,-0.624181,-0.155447,-0.339168,-1.06958,-0.663013,3.3825,-0.938909,0.193364,-0.120433
2946702,1,-1.56687,-0.510205,-0.0465923,-2.08066,-1.58998,1.61591,0.786287,-1.56688,-0.510101,-0.0500525,-2.07724,-1.5924,1.61816,0.786428,0.0757709,0.230356,-0.854136,0.296097,-0.338898,0.725812,0.0164478,0.0667734,0.241589,-0.901421,0.306178,-0.351879,0.768698,0.0166951,-5.72692,-9.28073,-8.10571,21.8644,-1.84996,-0.514318,-0.155447,-0.348326,-1.07279,-0.672833,3.37968,-0.944652,0.191835,-0.118839
2946703,1,-1.56679,-0.509968,-0.0474811,-2.08036,-1.59034,1.61666,0.786299,-1.56682,-0.509858,-0.0509616,-2.07693,-1.59275,1.61893,0.786445,0.0808667,0.230008,-0.869999,0.296724,-0.345824,0.73246,0.00948753,0.0672667,0.243617,-0.909072,0.308718,-0.354271,0.773856,0.0168071,-5.98082,-9.17758,-8.15332,21.8882,-1.79869,-0.475866,-0.0840357,-0.365931,-1.06316,-0.693514,3.36799,-0.950475,0.188961,-0.117694
2946704,1,-1.5667,-0.509727,-0.048381,-2.08005,-1.59069,1.61744,0.786312,-1.56675,-0.509612,-0.0518783,-2.07662,-1.59311,1.61971,0.786462,0.0828887,0.233024,-0.880183,0.299135,-0.348529,0.74968,0.00969229,0.0677601,0.245646,-0.916722,0.311257,-0.356663,0.779015,0.016919,-6.17919,-9.20535,-8.12951,21.8405,-1.7932,-0.572911,-0.0254419,-0.385092,-1.04282,-0.713817,3.35003,-0.956055,0.185885,-0.116987
2946705,1,-1.56662,-0.509485,-0.049277,-2.07974,-1.59104,1.61821,0.78633,-1.56668,-0.509364,-0.0528027,-2.0763,-1.59347,1.6205,0.786479,0.0826191,0.236513,-0.879447,0.304442,-0.350796,0.754439,0.0117913,0.0682535,0.247674,-0.924372,0.313797,-0.359055,0.784173,0.017031,-6.17919,-9.15378,-8.28027,21.7652,-1.79869,-0.649816,-0.0126246,-0.40664,-1.01915,-0.734388,3.32984,-0.961362,0.18244,-0.116605
2946706,1,-1.56655,-0.509241,-0.0501772,-2.07943,-1.5914,1.619,0.786351,-1.56661,-0.509115,-0.0537347,-2.07599,-1.59383,1.62128,0.786496,0.0760282,0.237376,-0.887966,0.303083,-0.355593,0.765466,0.0143974,0.0687468,0.249703,-0.932022,0.316336,-0.361446,0.789331,0.0171429,-6.00463,-9.15378,-8.2287,21.7652,-1.84996,-0.688268,-0.0318506,-0.432835,-0.997032,-0.759646,3.30981,-0.966478,0.178209,-0.116374
2946707,1,-1.56648,-0.508994,-0.0511045,-2.07911,-1.59177,1.61978,0.786381,-1.56654,-0.508863,-0.0546744,-2.07567,-1.59419,1.62208,0.786513,0.0759002,0.239128,-0.896789,0.310108,-0.361166,0.770571,0.0200959,0.0692402,0.251731,-0.939673,0.318876,-0.363838,0.794489,0.0172549,-5.87767,-9.20535,-8.07794,21.7652,-1.85545,-0.643407,-0.155447,-0.459985,-0.97623,-0.78538,3.29045,-0.971335,0.173635,-0.116162
2946708,1,-1.5664,-0.50875,-0.0520481,-2.07879,-1.59213,1.62056,0.786399,-1.56647,-0.508609,-0.0556217,-2.07535,-1.59456,1.62288,0.78653,0.0759918,0.24026,-0.911679,0.311693,-0.359301,0.774539,0.0196529,0.0697336,0.25376,-0.947323,0.321415,-0.36623,0.799648,0.0173668,-5.87767,-9.15378,-7.8518,21.7414,-1.89482,-0.598546,-0.161856,-0.48249,-0.953926,-0.803578,3.27013,-0.9758,0.169522,-0.11597
2946709,1,-1.56632,-0.5085,-0.0529609,-2.07847,-1.59249,1.62136,0.786413,-1.5664,-0.508354,-0.0565763,-2.07502,-1.59493,1.62368,0.786548,0.0728116,0.244147,-0.909368,0.311775,-0.362282,0.780108,0.0128024,0.0702025,0.255679,-0.954559,0.32381,-0.368461,0.804454,0.0174711,-5.75072,-9.20535,-7.90338,21.7414,-1.91771,-0.67545,-0.116079,-0.499534,-0.932059,-0.813129,3.25031,-0.980031,0.16604,-0.115901
2946710,1,-1.56624,-0.508251,-0.0538996,-2.07815,-1.59286,1.62216,0.786435,-1.56633,-0.508096,-0.0575381,-2.0747,-1.5953,1.62449,0.786565,0.0751027,0.244639,-0.915178,0.313997,-0.364758,0.796043,0.0142023,0.0706714,0.257599,-0.961794,0.326205,-0.370691,0.809261,0.0175753,-5.77849,-9.15378,-7.92718,21.8167,-1.96257,-0.759679,-0.116079,-0.517009,-0.915168,-0.82332,3.23432,-0.984415,0.162245,-0.116025
2946711,1,-1.56615,-0.508002,-0.0548304,-2.07782,-1.59323,1.62295,0.786454,-1.56626,-0.507836,-0.0585071,-2.07437,-1.59567,1.62531,0.786583,0.0771446,0.245118,-0.926137,0.312213,-0.367759,0.794098,0.0179121,0.0711403,0.259519,-0.96903,0.328599,-0.372922,0.814068,0.0176796,-5.85387,-9.1022,-8.02636,21.8882,-1.97447,-0.617772,-0.0712183,-0.53853,-0.902901,-0.83947,3.2229,-0.98917,0.157481,-0.116341
2946712,1,-1.56607,-0.507759,-0.0557734,-2.07749,-1.59361,1.62375,0.786477,-1.56619,-0.507575,-0.0594834,-2.07404,-1.59604,1.62613,0.786601,0.0825928,0.244512,-0.934152,0.320449,-0.372796,0.792536,0.0188642,0.0716092,0.261439,-0.976266,0.330994,-0.375152,0.818874,0.0177839,-5.8261,-9.00302,-8.18109,21.8405,-1.89482,-0.456639,-0.0904444,-0.562234,-0.889723,-0.858311,3.21341,-0.994264,0.152158,-0.116812
2946713,1,-1.56598,-0.5075,-0.0567252,-2.07716,-1.594,1.62455,0.786502,-1.56612,-0.507312,-0.0604669,-2.0737,-1.59642,1.62695,0.786619,0.0851697,0.251109,-0.938276,0.321061,-0.377942,0.790664,0.0241395,0.0720781,0.263358,-0.983501,0.333389,-0.377383,0.823681,0.0178882,-5.87767,-9.1022,-8.25647,21.8882,-1.7877,-0.507909,-0.10967,-0.588618,-0.873551,-0.880459,3.20309,-0.999647,0.146533,-0.117369
2946714,1,-1.56588,-0.507244,-0.0576874,-2.07682,-1.59438,1.62539,0.786519,-1.56605,-0.507046,-0.0614576,-2.07337,-1.5968,1.62778,0.786637,0.089431,0.257249,-0.948279,0.327233,-0.385111,0.801292,0.0205864,0.072547,0.265278,-0.990737,0.335784,-0.379614,0.828488,0.0179924,-6.02843,-9.15378,-8.07794,21.8167,-1.70805,-0.688268,-0.0510767,-0.619806,-0.863188,-0.908869,3.19456,-1.0053,0.140485,-0.117947
2946715,1,-1.56579,-0.506985,-0.058658,-2.07649,-1.59475,1.62619,0.786536,-1.56597,-0.506779,-0.0624556,-2.07303,-1.59718,1.62861,0.786655,0.0887735,0.257527,-0.948871,0.324771,-0.377362,0.809263,0.018085,0.0730159,0.267198,-0.997973,0.338179,-0.381844,0.833294,0.0180967,-6.02843,-9.1022,-8.07794,21.9159,-1.73094,-0.707494,0.00660151,-0.656944,-0.865367,-0.945218,3.19118,-1.01111,0.133763,-0.118506
2946716,1,-1.56572,-0.506726,-0.0596177,-2.07614,-1.59512,1.62701,0.786556,-1.5659,-0.50651,-0.0634608,-2.07269,-1.59757,1.62945,0.786673,0.0818094,0.257191,-0.95234,0.325532,-0.379339,0.806374,0.0181,0.0734848,0.269117,-1.00521,0.340573,-0.384075,0.838101,0.018201,-5.75072,-9.02682,-8.18109,21.9159,-1.80418,-0.624181,0.0130102,-0.699436,-0.875727,-0.989982,3.19311,-1.01693,0.126322,-0.118975
2946717,1,-1.56564,-0.506463,-0.0606178,-2.07579,-1.59549,1.62783,0.786577,-1.56583,-0.506239,-0.0644732,-2.07235,-1.59795,1.63029,0.786691,0.0819259,0.259516,-0.969773,0.331451,-0.375732,0.808326,0.0189711,0.0739538,0.271037,-1.01244,0.342968,-0.386305,0.842908,0.0183052,-5.67534,-9.05063,-8.02636,21.8167,-1.86644,-0.539952,0.000192821,-0.740189,-0.886135,-1.03412,3.19755,-1.02247,0.119227,-0.119253
2946718,1,-1.56555,-0.506203,-0.061623,-2.07545,-1.59586,1.62867,0.786595,-1.56575,-0.505966,-0.0654929,-2.072,-1.59834,1.63114,0.78671,0.0856199,0.258271,-0.97802,0.333893,-0.374162,0.82021,0.0194382,0.0744227,0.272957,-1.01968,0.345363,-0.388536,0.847714,0.0184095,-5.72692,-8.97525,-7.90338,21.789,-1.92869,-0.572911,-0.0126246,-0.771797,-0.889819,-1.0665,3.19998,-1.02746,0.11363,-0.119296
2946719,1,-1.56547,-0.505939,-0.062628,-2.07511,-1.59624,1.6295,0.786612,-1.56568,-0.505691,-0.0665194,-2.07165,-1.59873,1.63199,0.786728,0.0836301,0.25937,-0.983225,0.337149,-0.375271,0.821507,0.0190494,0.0748714,0.274758,-1.02646,0.347601,-0.390602,0.852167,0.0185061,-5.59996,-8.95145,-7.69708,21.8167,-1.9406,-0.539952,-0.00621587,-0.795171,-0.882705,-1.0881,3.1977,-1.03198,0.109404,-0.119121
2946720,1,-1.56541,-0.505683,-0.0636494,-2.07476,-1.59662,1.63034,0.786634,-1.5656,-0.505415,-0.0675526,-2.0713,-1.59913,1.63285,0.786747,0.0786624,0.255616,-0.989581,0.340997,-0.371306,0.823135,0.0209883,0.0753201,0.27656,-1.03324,0.34984,-0.392669,0.856621,0.0186026,-5.32225,-8.87607,-7.47094,21.8167,-1.95158,-0.386144,-0.0584009,-0.812326,-0.860435,-1.1028,3.18848,-1.03622,0.106315,-0.11876
