shamilmamedov/beam_handling/log/vibration_suppression_ICRA/OCP_T1_0.44s.csv
duration, success rate, q[0], q[1], q[2], q[3], q[4], q[5], q[6],q_d[0], q_d[1], q_d[2], q_d[3], q_d[4], q_d[5], q_d[6],dq[0], dq[1], dq[2], dq[3], dq[4], dq[5], dq[6],dq_d[0], dq_d[1], dq_d[2], dq_d[3], dq_d[4], dq_d[5], dq_d[6],tau_J[0], tau_J[1], tau_J[2], tau_J[3], tau_J[4], tau_J[5], tau_J[6],tau_ext_hat_filtered[0], tau_ext_hat_filtered[1], tau_ext_hat_filtered[2], tau_ext_hat_filtered[3], tau_ext_hat_filtered[4], tau_ext_hat_filtered[5], tau_ext_hat_filtered[6]
2573111,0,-1.57025,-0.522728,-4.56766e-05,-2.09683,-1.56939,1.57143,0.785935,-1.5708,-0.523598,1.34543e-07,-2.0944,-1.5708,1.5708,0.785398,0.000524548,-0.000105683,7.98564e-05,-0.000306958,0.000144018,0.000135863,0.0015374,0,0,0,0,0,0,0,-0.708302,-10.3678,0.328738,21.9397,-1.60643,-0.495092,-0.355947,-0.678642,-1.22566,0.185591,3.39131,-1.04098,-0.491862,-0.352765
2573112,1,-1.57025,-0.52273,-5.08085e-05,-2.09683,-1.56939,1.57143,0.785928,-1.5708,-0.523598,1.34543e-07,-2.0944,-1.5708,1.5708,0.785398,0.000349699,-0.00072007,-0.00171,-0.000204639,0.000299462,-0.000146783,-0.00043313,0,0,0,0,0,0,0,-0.708302,-10.34,0.404117,21.9397,-1.61192,-0.488683,-0.31658,-0.678486,-1.2263,0.185747,3.39199,-1.04098,-0.491843,-0.352763
2573113,1,-1.57025,-0.522728,-4.71366e-05,-2.09683,-1.56939,1.57144,0.78593,-1.5708,-0.523598,1.34543e-07,-2.0944,-1.5708,1.5708,0.785398,0.000789944,0.000169568,6.64257e-05,-0.000136426,-3.80892e-06,-9.78556e-05,0.000694591,0,0,0,0,0,0,0,-0.732105,-10.3678,0.352542,21.9397,-1.60643,-0.488683,-0.34313,-0.677781,-1.22576,0.18688,3.39213,-1.04094,-0.49171,-0.352859
2573114,1,-1.57025,-0.522727,-4.71191e-05,-2.09683,-1.56939,1.57143,0.785929,-1.5708,-0.523598,1.34543e-07,-2.0944,-1.5708,1.5708,0.785398,-0.00179342,0.000113045,4.42838e-05,-9.09505e-05,0.000200911,-0.000302596,-4.55656e-05,0,0,0,0,0,0,0,-0.632923,-10.3678,0.352542,21.9397,-1.61192,-0.482274,-0.329397,-0.676942,-1.22529,0.188257,3.39224,-1.0409,-0.491544,-0.353044
2573115,1,-1.57025,-0.522727,-4.71133e-05,-2.09683,-1.56939,1.57144,0.78593,-1.5708,-0.523598,1.34543e-07,-2.0944,-1.5708,1.5708,0.785398,-0.000638802,7.53634e-05,2.95225e-05,-0.000617446,-6.95097e-05,0.000272987,0.000478249,0,0,0,0,0,0,0,-0.656727,-10.3678,0.352542,21.9635,-1.60643,-0.495092,-0.34313,-0.675812,-1.22552,0.189903,3.39267,-1.04088,-0.491332,-0.353307
2573116,1,-1.57025,-0.522727,-4.87817e-05,-2.09683,-1.56939,1.57143,0.785929,-1.5708,-0.523598,1.34543e-07,-2.0944,-1.5708,1.5708,0.785398,0.000130944,5.02422e-05,-0.00053713,0.000145182,-4.63398e-05,-5.53675e-05,8.14739e-05,0,0,0,0,0,0,0,-0.680531,-10.3678,0.376346,21.9397,-1.60643,-0.488683,-0.336721,-0.674541,-1.2261,0.191691,3.39332,-1.04089,-0.491099,-0.353644
2573117,1,-1.57025,-0.522729,-4.87811e-05,-2.09683,-1.56939,1.57144,0.78593,-1.5708,-0.523598,1.34543e-07,-2.0944,-1.5708,1.5708,0.785398,8.72962e-05,-0.000616119,-0.000358087,0.0006536,-3.08932e-05,0.000437805,-0.000691669,0,0,0,0,0,0,0,-0.680531,-10.34,0.376346,21.9159,-1.60643,-0.5015,-0.31658,-0.673587,-1.22582,0.193104,3.39333,-1.04088,-0.490907,-0.354055
2573118,1,-1.57025,-0.522729,-5.07297e-05,-2.09683,-1.56939,1.57143,0.785927,-1.5708,-0.523598,1.34543e-07,-2.0944,-1.5708,1.5708,0.785398,5.81975e-05,-0.000410746,-0.000888339,0.000435733,-2.05955e-05,-0.000420206,-0.000698472,0,0,0,0,0,0,0,-0.680531,-10.34,0.404117,21.9159,-1.60643,-0.482274,-0.310171,-0.672796,-1.22373,0.194378,3.39213,-1.04083,-0.490727,-0.354525
2573119,1,-1.57025,-0.522729,-4.71104e-05,-2.09683,-1.56939,1.57143,0.785929,-1.5708,-0.523598,1.34543e-07,-2.0944,-1.5708,1.5708,0.785398,-0.000518014,-0.000273831,0.0006142,0.000290489,0.00018972,-4.27781e-05,0.000246429,0,0,0,0,0,0,0,-0.656727,-10.34,0.352542,21.9159,-1.61192,-0.488683,-0.329397,-0.672154,-1.22069,0.195465,3.39031,-1.04077,-0.490565,-0.355014
2573120,1,-1.57025,-0.522729,-4.87808e-05,-2.09684,-1.56939,1.57143,0.785927,-1.5708,-0.523598,1.34543e-07,-2.0944,-1.5708,1.5708,0.785398,-0.000345342,-0.000182554,-0.000147345,-0.00212639,-7.69704e-05,0.00020884,-0.000547791,0,0,0,0,0,0,0,-0.656727,-10.34,0.376346,22.0151,-1.60643,-0.495092,-0.310171,-0.671912,-1.21868,0.195928,3.38943,-1.04077,-0.490478,-0.355486
2573121,1,-1.57025,-0.522727,-4.71103e-05,-2.09683,-1.56939,1.57143,0.78593,-1.5708,-0.523598,1.34543e-07,-2.0944,-1.5708,1.5708,0.785398,0.000976198,0.000527911,0.000458582,0.000345644,-0.000458215,0.000139227,0.000855509,0,0,0,0,0,0,0,-0.708302,-10.3678,0.352542,21.9397,-1.59544,-0.495092,-0.34313,-0.672345,-1.21893,0.19545,3.39031,-1.04087,-0.490523,-0.355929
2573122,1,-1.57025,-0.522726,-4.71103e-05,-2.09683,-1.56939,1.57143,0.785928,-1.5708,-0.523598,1.34543e-07,-2.0944,-1.5708,1.5708,0.785398,1.18446e-06,0.000908753,0.000305721,0.00143686,-0.000102026,9.28179e-05,-0.000175646,0,0,0,0,0,0,0,-0.680531,-10.3916,0.352542,21.8882,-1.60094,-0.495092,-0.322988,-0.67363,-1.22066,0.193839,3.39156,-1.04099,-0.49073,-0.35635
2573123,1,-1.57025,-0.522726,-4.71103e-05,-2.09683,-1.56939,1.57143,0.785924,-1.5708,-0.523598,1.34543e-07,-2.0944,-1.5708,1.5708,0.785398,7.8964e-07,0.000605835,0.000203814,-0.000248522,0.000135433,6.18786e-05,-0.00130389,0,0,0,0,0,0,0,-0.680531,-10.3916,0.352542,21.9397,-1.60643,-0.495092,-0.290945,-0.67523,-1.22302,0.191796,3.39234,-1.04109,-0.491011,-0.356764
2573124,1,-1.57025,-0.522727,-4.54399e-05,-2.09683,-1.56939,1.57143,0.785926,-1.5708,-0.523598,1.34543e-07,-2.0944,-1.5708,1.5708,0.785398,5.26427e-07,-0.000152922,0.000692688,-0.000165682,9.02888e-05,4.12524e-05,-0.000394543,0,0,0,0,0,0,0,-0.680531,-10.3678,0.328738,21.9397,-1.60643,-0.495092,-0.303762,-0.676715,-1.22556,0.189875,3.3932,-1.04117,-0.491284,-0.357159
2573125,1,-1.57025,-0.522727,-4.71103e-05,-2.09683,-1.56939,1.57143,0.785926,-1.5708,-0.523598,1.34543e-07,-2.0944,-1.5708,1.5708,0.785398,3.50951e-07,-0.000101948,-9.50199e-05,0.000446358,0.000263643,-0.000447216,-0.00121246,0,0,0,0,0,0,0,-0.680531,-10.3678,0.352542,21.9159,-1.61192,-0.482274,-0.278127,-0.678024,-1.22702,0.188125,3.39379,-1.04124,-0.491519,-0.357503
2573126,1,-1.57025,-0.522727,-4.71103e-05,-2.09683,-1.56939,1.57144,0.785927,-1.5708,-0.523598,1.34543e-07,-2.0944,-1.5708,1.5708,0.785398,0.000649848,-6.79652e-05,-6.33466e-05,-0.00137286,0.000175762,0.000176574,0.000141126,0,0,0,0,0,0,0,-0.708302,-10.3678,0.352542,21.9873,-1.61192,-0.495092,-0.303762,-0.678983,-1.2275,0.186884,3.39417,-1.04129,-0.491684,-0.357767
2573127,1,-1.57025,-0.522727,-4.71103e-05,-2.09683,-1.56939,1.57144,0.785925,-1.5708,-0.523598,1.34543e-07,-2.0944,-1.5708,1.5708,0.785398,0.000433232,-4.53102e-05,-4.22311e-05,0.000755193,-0.000289726,0.000117716,-0.000143275,0,0,0,0,0,0,0,-0.708302,-10.3678,0.352542,21.9159,-1.60094,-0.495092,-0.297354,-0.679771,-1.22782,0.185996,3.39477,-1.04135,-0.49181,-0.357933
2573128,1,-1.57025,-0.522731,-4.54399e-05,-2.09683,-1.56939,1.57144,0.785926,-1.5708,-0.523598,1.34543e-07,-2.0944,-1.5708,1.5708,0.785398,0.000288821,-0.00123663,0.000528658,-5.33499e-05,-0.000396601,-0.000158882,0.000141842,0,0,0,0,0,0,0,-0.708302,-10.3162,0.328738,21.9397,-1.59544,-0.488683,-0.303762,-0.680624,-1.22667,0.185046,3.39455,-1.04138,-0.491924,-0.358012
2573129,1,-1.57025,-0.522729,-4.54399e-05,-2.09683,-1.56939,1.57143,0.785923,-1.5708,-0.523598,1.34543e-07,-2.0944,-1.5708,1.5708,0.785398,-0.000457066,-0.00026761,0.000352439,-3.55666e-05,0.0001425,-0.000105921,-0.000854874,0,0,0,0,0,0,0,-0.680531,-10.34,0.328738,21.9397,-1.60643,-0.488683,-0.278127,-0.68145,-1.22353,0.184043,3.39329,-1.04138,-0.492005,-0.358021
2573130,1,-1.57025,-0.522726,-4.87808e-05,-2.09683,-1.56939,1.57143,0.785924,-1.5708,-0.523598,1.34543e-07,-2.0944,-1.5708,1.5708,0.785398,-0.000861523,0.00102802,-0.000878665,-2.37111e-05,0.000298451,0.000166745,-9.51983e-05,0,0,0,0,0,0,0,-0.656727,-10.3916,0.376346,21.9397,-1.61192,-0.495092,-0.290945,-0.681526,-1.22126,0.184079,3.39247,-1.04135,-0.491973,-0.35796
2573131,1,-1.57025,-0.522727,-5.07296e-05,-2.09683,-1.56939,1.57144,0.785924,-1.5708,-0.523598,1.34543e-07,-2.0944,-1.5708,1.5708,0.785398,-1.75366e-05,0.000128534,-0.00123539,0.000541005,-4.48346e-06,0.000348521,-0.000300824,0,0,0,0,0,0,0,-0.680531,-10.3678,0.404117,21.9159,-1.60643,-0.5015,-0.284536,-0.680249,-1.22142,0.186183,3.39265,-1.04132,-0.491764,-0.35782
2573132,1,-1.57025,-0.522726,-4.54399e-05,-2.09683,-1.56939,1.57144,0.785928,-1.5708,-0.523598,1.34543e-07,-2.0944,-1.5708,1.5708,0.785398,0.000637923,0.000642501,0.000939644,-0.000196142,-2.98898e-06,-0.000242369,0.000274168,0,0,0,0,0,0,0,-0.708302,-10.3916,0.328738,21.9397,-1.60643,-0.488683,-0.297354,-0.678809,-1.22283,0.18866,3.39324,-1.0413,-0.491554,-0.357606
2573133,1,-1.57025,-0.522729,-4.71103e-05,-2.09683,-1.56939,1.57144,0.785922,-1.5708,-0.523598,1.34543e-07,-2.0944,-1.5708,1.5708,0.785398,-0.000224332,-0.000778092,6.96175e-05,-0.00124439,-0.000408894,7.57793e-05,-0.00100402,0,0,0,0,0,0,0,-0.680531,-10.34,0.352542,21.9873,-1.59544,-0.495092,-0.26531,-0.678512,-1.2245,0.189475,3.39423,-1.04132,-0.491526,-0.357329
2573134,1,-1.57025,-0.522729,-5.09113e-05,-2.09683,-1.56939,1.57144,0.785925,-1.5708,-0.523598,1.34543e-07,-2.0944,-1.5708,1.5708,0.785398,0.000500059,-0.000518728,-0.0005104,0.000284034,0.000134305,-0.000186839,0.000280092,0,0,0,0,0,0,0,-0.708302,-10.34,0.376346,21.9397,-1.60643,-0.488683,-0.290945,-0.67874,-1.22507,0.189492,3.39515,-1.04137,-0.491563,-0.356997
2573135,1,-1.57025,-0.522727,-4.78205e-05,-2.09683,-1.56939,1.57143,0.785927,-1.5708,-0.523598,1.34543e-07,-2.0944,-1.5708,1.5708,0.785398,-0.000316241,0.000303795,0.000216545,0.000189356,-0.000520815,-0.000361919,0.00113616,0,0,0,0,0,0,0,-0.680531,-10.3678,0.352542,21.9397,-1.58995,-0.482274,-0.31658,-0.678833,-1.22431,0.189723,3.39537,-1.04137,-0.491561,-0.356611
2573136,1,-1.57025,-0.522729,-4.73471e-05,-2.09683,-1.56939,1.57143,0.785924,-1.5708,-0.523598,1.34543e-07,-2.0944,-1.5708,1.5708,0.785398,-0.000210827,-0.000447084,0.000144363,0.00133266,-0.000143759,0.000470797,-0.000191993,0,0,0,0,0,0,0,-0.680531,-10.34,0.352542,21.8882,-1.59544,-0.5015,-0.290945,-0.678928,-1.22288,0.189916,3.39474,-1.04133,-0.491553,-0.356192
2573137,1,-1.57025,-0.522729,-4.71892e-05,-2.09682,-1.56939,1.57143,0.785924,-1.5708,-0.523598,1.34543e-07,-2.0944,-1.5708,1.5708,0.785398,-0.000140552,-0.000298056,9.62423e-05,0.00144525,0.000311062,0.000313864,-0.000127996,0,0,0,0,0,0,0,-0.680531,-10.34,0.352542,21.8644,-1.60643,-0.5015,-0.290945,-0.679091,-1.22006,0.18991,3.39274,-1.04121,-0.491545,-0.355781
2573138,1,-1.57025,-0.522727,-4.88071e-05,-2.09683,-1.56939,1.57143,0.785929,-1.5708,-0.523598,1.34543e-07,-2.0944,-1.5708,1.5708,0.785398,-9.37011e-05,0.00045091,-0.00049265,-0.00135655,-0.000199527,-0.000265474,0.00161009,0,0,0,0,0,0,0,-0.680531,-10.3678,0.376346,21.9635,-1.59544,-0.488683,-0.336721,-0.679148,-1.21737,0.190056,3.39067,-1.04106,-0.49153,-0.355382
2573139,1,-1.57025,-0.522727,-4.87895e-05,-2.09683,-1.56939,1.57143,0.785927,-1.5708,-0.523598,1.34543e-07,-2.0944,-1.5708,1.5708,0.785398,0.000587147,0.000300607,-0.000328434,-0.000347553,0.000273883,6.03764e-05,0.000327409,0,0,0,0,0,0,0,-0.708302,-10.3678,0.376346,21.9397,-1.60643,-0.495092,-0.31658,-0.67904,-1.21747,0.190594,3.39064,-1.04098,-0.491523,-0.354998
2573140,1,-1.57025,-0.522731,-4.71133e-05,-2.09683,-1.56939,1.57143,0.785926,-1.5708,-0.523598,1.34543e-07,-2.0944,-1.5708,1.5708,0.785398,-0.000814995,-0.00100602,0.000337856,-0.000788514,0.000182589,-0.000197108,-1.90866e-05,0,0,0,0,0,0,0,-0.656727,-10.3162,0.352542,21.9635,-1.60643,-0.488683,-0.310171,-0.678966,-1.21888,0.191156,3.39189,-1.04095,-0.491533,-0.354669
2573141,1,-1.57025,-0.522729,-4.87817e-05,-2.09683,-1.56939,1.57143,0.785926,-1.5708,-0.523598,1.34543e-07,-2.0944,-1.5708,1.5708,0.785398,1.3482e-05,-0.000113869,-0.000331574,-0.000525676,0.000325176,0.000105954,-0.000250083,0,0,0,0,0,0,0,-0.680531,-10.34,0.376346,21.9635,-1.61192,-0.495092,-0.303762,-0.678847,-1.21935,0.191686,3.39305,-1.04091,-0.491523,-0.354418
2573142,1,-1.57025,-0.522729,-4.87811e-05,-2.09683,-1.56939,1.57143,0.785929,-1.5708,-0.523598,1.34543e-07,-2.0944,-1.5708,1.5708,0.785398,-0.000547824,-7.59127e-05,-0.00022105,-0.000350451,0.000216784,-0.000166723,0.00105398,0,0,0,0,0,0,0,-0.656727,-10.34,0.376346,21.9635,-1.61192,-0.488683,-0.336721,-0.678489,-1.21954,0.192505,3.39421,-1.04088,-0.491477,-0.354231
2573143,1,-1.57025,-0.522726,-4.71104e-05,-2.09683,-1.56939,1.57143,0.785927,-1.5708,-0.523598,1.34543e-07,-2.0944,-1.5708,1.5708,0.785398,0.00084121,0.00115582,0.000409446,0.000323178,-0.000465829,-0.000111149,-4.33313e-05,0,0,0,0,0,0,0,-0.708302,-10.3916,0.352542,21.9397,-1.59544,-0.488683,-0.31658,-0.678325,-1.22076,0.193073,3.39561,-1.04088,-0.491479,-0.354102
2573144,1,-1.57025,-0.522726,-4.71104e-05,-2.09683,-1.56939,1.57143,0.785929,-1.5708,-0.523598,1.34543e-07,-2.0944,-1.5708,1.5708,0.785398,-8.88073e-05,0.000770545,0.000272964,0.000215452,9.63486e-05,-7.40992e-05,0.000717098,0,0,0,0,0,0,0,-0.680531,-10.3916,0.352542,21.9397,-1.60643,-0.488683,-0.336721,-0.678926,-1.22359,0.192578,3.39727,-1.04092,-0.491621,-0.354038
2573145,1,-1.57025,-0.522729,-4.71103e-05,-2.09683,-1.56939,1.57144,0.785929,-1.5708,-0.523598,1.34543e-07,-2.0944,-1.5708,1.5708,0.785398,-5.92049e-05,-0.000692729,0.000181976,0.000700447,-0.000139218,-4.93995e-05,0.000206798,0,0,0,0,0,0,0,-0.680531,-10.34,0.352542,21.9159,-1.60094,-0.488683,-0.329397,-0.679884,-1.22607,0.191522,3.39833,-1.04095,-0.49181,-0.354051
2573146,1,-1.57025,-0.522726,-4.87808e-05,-2.09683,-1.56939,1.57144,0.785931,-1.5708,-0.523598,1.34543e-07,-2.0944,-1.5708,1.5708,0.785398,-3.94699e-05,0.000744606,-0.000435495,-8.98475e-05,0.000314089,-3.2933e-05,0.00112121,0,0,0,0,0,0,0,-0.680531,-10.3916,0.376346,21.9397,-1.61192,-0.488683,-0.355947,-0.68051,-1.22676,0.19087,3.39837,-1.04094,-0.491918,-0.354148
2573147,1,-1.57025,-0.522729,-4.71103e-05,-2.09683,-1.56939,1.57144,0.785927,-1.5708,-0.523598,1.34543e-07,-2.0944,-1.5708,1.5708,0.785398,-2.63133e-05,-0.000710022,0.000266482,0.000496914,0.000412843,0.000452761,-0.000710589,0,0,0,0,0,0,0,-0.680531,-10.34,0.352542,21.9159,-1.61741,-0.5015,-0.31658,-0.680776,-1.22659,0.190722,3.39801,-1.0409,-0.49195,-0.354336
2573148,1,-1.57025,-0.522727,-4.87808e-05,-2.09683,-1.56939,1.57143,0.78593,-1.5708,-0.523598,1.34543e-07,-2.0944,-1.5708,1.5708,0.785398,-1.75422e-05,0.000176266,-0.000379157,-0.000225536,7.17782e-05,0.0005392,0.000509618,0,0,0,0,0,0,0,-0.680531,-10.3678,0.376346,21.9397,-1.61192,-0.507909,-0.34313,-0.680907,-1.22564,0.190747,3.39737,-1.04087,-0.491952,-0.354614
2573149,1,-1.57025,-0.522729,-4.54399e-05,-2.09683,-1.56939,1.57143,0.785928,-1.5708,-0.523598,1.34543e-07,-2.0944,-1.5708,1.5708,0.785398,0.000637919,-0.000532103,0.000860852,-0.00126398,-0.000359049,0.000122108,-0.00040624,0,0,0,0,0,0,0,-0.708302,-10.34,0.328738,21.9873,-1.60094,-0.5015,-0.322988,-0.681293,-1.22464,0.190402,3.39712,-1.04089,-0.492004,-0.354962
2573150,1,-1.57025,-0.522729,-4.71103e-05,-2.09683,-1.56939,1.57143,0.785931,-1.5708,-0.523598,1.34543e-07,-2.0944,-1.5708,1.5708,0.785398,-0.000224335,-0.000354735,1.70897e-05,0.000827782,-0.000442816,-0.000155953,0.000949877,0,0,0,0,0,0,0,-0.680531,-10.34,0.352542,21.9159,-1.59544,-0.495092,-0.355947,-0.682137,-1.22361,0.189365,3.39722,-1.04095,-0.492147,-0.355361
2573151,1,-1.57025,-0.522729,-4.87808e-05,-2.09683,-1.56939,1.57143,0.785924,-1.5708,-0.523598,1.34543e-07,-2.0944,-1.5708,1.5708,0.785398,0.000500058,-0.00023649,-0.000545419,0.000551854,-9.17604e-05,-0.000341327,-0.00201161,0,0,0,0,0,0,0,-0.708302,-10.34,0.376346,21.9159,-1.60094,-0.488683,-0.284536,-0.682785,-1.2215,0.188598,3.3965,-1.04098,-0.492269,-0.35581
2573152,0.99,-1.57025,-0.522731,-4.71103e-05,-2.09683,-1.56939,1.57143,0.785929,-1.5708,-0.523598,1.34543e-07,-2.0944,-1.5708,1.5708,0.785398,-0.000316242,-0.000714472,0.000193199,-0.000745721,0.000142277,-0.000227552,0.000591709,0,0,0,0,0,0,0,-0.680531,-10.3162,0.352542,21.9635,-1.60643,-0.488683,-0.336721,-0.682888,-1.2188,0.188664,3.3953,-1.04096,-0.492307,-0.35629
2573153,0.99,-1.57025,-0.522731,-4.87808e-05,-2.09683,-1.56939,1.57143,0.78593,-1.5708,-0.523598,1.34543e-07,-2.0944,-1.5708,1.5708,0.785398,-0.00076764,-0.000476315,-0.000428012,-0.000497147,9.48513e-05,-0.00038906,0.000631832,0,0,0,0,0,0,0,-0.656727,-10.3162,0.376346,21.9635,-1.60643,-0.482274,-0.34313,-0.682476,-1.21631,0.189456,3.39461,-1.04094,-0.492258,-0.356759
2573154,0.99,-1.57025,-0.522733,-4.54399e-05,-2.09683,-1.56939,1.57143,0.785929,-1.5708,-0.523598,1.34543e-07,-2.0944,-1.5708,1.5708,0.785398,4.50519e-05,-0.000874355,0.000828282,0.000782192,6.32342e-05,-2.20144e-05,-8.7405e-05,0,0,0,0,0,0,0,-0.680531,-10.2924,0.328738,21.9159,-1.60643,-0.488683,-0.329397,-0.681812,-1.21359,0.190507,3.39399,-1.04091,-0.492158,-0.357218
2573155,0.99,-1.57025,-0.522726,-5.07296e-05,-2.09683,-1.56939,1.57143,0.785924,-1.5708,-0.523598,1.34543e-07,-2.0944,-1.5708,1.5708,0.785398,3.00346e-05,0.00173715,-0.00121105,0.000521462,0.000245607,-0.000489394,-0.00148242,0,0,0,0,0,0,0,-0.680531,-10.3916,0.404117,21.9159,-1.61192,-0.475866,-0.290945,-0.681281,-1.21162,0.191358,3.39329,-1.04088,-0.492074,-0.357683
2573156,0.99,-1.57024,-0.522729,-4.87808e-05,-2.09683,-1.56938,1.57143,0.785929,-1.5708,-0.523598,1.34543e-07,-2.0944,-1.5708,1.5708,0.785398,0.00122645,-4.83283e-05,-0.000157752,0.000347641,0.000367188,0.000385814,0.000707139,0,0,0,0,0,0,0,-0.732105,-10.34,0.376346,21.9159,-1.61741,-0.495092,-0.336721,-0.680859,-1.21229,0.19228,3.39341,-1.04087,-0.492016,-0.358135
2573157,0.99,-1.57025,-0.522726,-4.54399e-05,-2.09683,-1.56939,1.57144,0.785929,-1.5708,-0.523598,1.34543e-07,-2.0944,-1.5708,1.5708,0.785398,0.000260821,0.00117421,0.00100846,-0.000325051,-0.000365559,0.000731926,0.000200158,0,0,0,0,0,0,0,-0.708302,-10.3916,0.328738,21.9397,-1.60094,-0.507909,-0.329397,-0.681273,-1.215,0.192199,3.39445,-1.04093,-0.492088,-0.358547
2573158,0.99,-1.57025,-0.522726,-4.54399e-05,-2.09683,-1.56939,1.57144,0.785926,-1.5708,-0.523598,1.34543e-07,-2.0944,-1.5708,1.5708,0.785398,0.00017388,0.000782805,0.000672304,0.000989725,-0.000243706,-0.000224125,-0.000815997,0,0,0,0,0,0,0,-0.708302,-10.3916,0.328738,21.8882,-1.60094,-0.488683,-0.303762,-0.682848,-1.21891,0.190433,3.39603,-1.04106,-0.492343,-0.358926
2573159,0.99,-1.57025,-0.522727,-4.71103e-05,-2.09683,-1.56939,1.57144,0.785924,-1.5708,-0.523598,1.34543e-07,-2.0944,-1.5708,1.5708,0.785398,-0.000533694,-3.49422e-05,-0.000108609,1.02028e-05,4.09797e-05,8.79423e-05,-0.00101872,0,0,0,0,0,0,0,-0.680531,-10.3678,0.352542,21.9159,-1.60643,-0.495092,-0.290945,-0.68445,-1.22259,0.188537,3.39731,-1.04118,-0.4926,-0.35928
2573160,0.99,-1.57025,-0.522726,-4.87808e-05,-2.09683,-1.56939,1.57143,0.785927,-1.5708,-0.523598,1.34543e-07,-2.0944,-1.5708,1.5708,0.785398,-0.000355796,0.000533517,-0.000629218,-0.00055001,-0.000176131,0.000295986,0.000270292,0,0,0,0,0,0,0,-0.680531,-10.3916,0.376346,21.9397,-1.60094,-0.5015,-0.31658,-0.684987,-1.22521,0.188138,3.39825,-1.04126,-0.492681,-0.359586
2573161,0.99,-1.57025,-0.522726,-4.71103e-05,-2.09683,-1.56939,1.57143,0.785929,-1.5708,-0.523598,1.34543e-07,-2.0944,-1.5708,1.5708,0.785398,-0.000237197,0.000355678,0.000137333,0.000839752,-0.00011742,-4.00338e-05,0.000654912,0,0,0,0,0,0,0,-0.680531,-10.3916,0.352542,21.8882,-1.60094,-0.495092,-0.329397,-0.684575,-1.22742,0.189115,3.39918,-1.04132,-0.49262,-0.359822
2573162,0.99,-1.57025,-0.522727,-4.87808e-05,-2.09683,-1.56939,1.57143,0.785923,-1.5708,-0.523598,1.34543e-07,-2.0944,-1.5708,1.5708,0.785398,-0.000158131,-0.000319693,-0.000465257,-0.000646591,0.000328621,-0.000264048,-0.00146226,0,0,0,0,0,0,0,-0.680531,-10.3678,0.376346,21.9397,-1.61192,-0.488683,-0.278127,-0.683864,-1.22871,0.190493,3.39962,-1.04134,-0.492514,-0.360007
2573163,0.99,-1.57025,-0.522727,-4.71103e-05,-2.09683,-1.56939,1.57143,0.785924,-1.5708,-0.523598,1.34543e-07,-2.0944,-1.5708,1.5708,0.785398,-0.000105421,-0.000213129,0.000246641,-0.000987873,0.00021908,6.13268e-05,-0.000500124,0,0,0,0,0,0,0,-0.680531,-10.3678,0.352542,21.9635,-1.61192,-0.495092,-0.290945,-0.68316,-1.22899,0.191809,3.39993,-1.04135,-0.4924,-0.360148
2573164,0.99,-1.57025,-0.522726,-4.71103e-05,-2.09683,-1.56939,1.57143,0.785924,-1.5708,-0.523598,1.34543e-07,-2.0944,-1.5708,1.5708,0.785398,-7.02806e-05,0.000414726,0.000164427,0.000455042,0.000146054,4.08846e-05,-0.000570775,0,0,0,0,0,0,0,-0.680531,-10.3916,0.352542,21.9159,-1.61192,-0.495092,-0.284536,-0.68278,-1.22907,0.192598,3.40043,-1.04139,-0.492337,-0.360221
2573165,0.99,-1.57025,-0.522726,-4.71103e-05,-2.09683,-1.56939,1.57144,0.785927,-1.5708,-0.523598,1.34543e-07,-2.0944,-1.5708,1.5708,0.785398,-4.68538e-05,0.000276484,0.000109618,-0.000810262,-0.000106081,2.72564e-05,0.000806278,0,0,0,0,0,0,0,-0.680531,-10.3916,0.352542,21.9635,-1.60643,-0.495092,-0.31658,-0.682791,-1.22956,0.192768,3.40097,-1.04145,-0.492348,-0.360205
2573166,0.99,-1.57025,-0.522729,-4.87808e-05,-2.09683,-1.56939,1.57144,0.785924,-1.5708,-0.523598,1.34543e-07,-2.0944,-1.5708,1.5708,0.785398,-3.12358e-05,-0.0010221,-0.000483733,0.000573449,-0.000274171,-0.000219188,-0.000411917,0,0,0,0,0,0,0,-0.680531,-10.34,0.376346,21.9159,-1.60094,-0.488683,-0.290945,-0.682791,-1.22945,0.192919,3.40108,-1.0415,-0.492361,-0.360111
2573167,0.99,-1.57025,-0.522729,-4.54399e-05,-2.09683,-1.56939,1.57143,0.785925,-1.5708,-0.523598,1.34543e-07,-2.0944,-1.5708,1.5708,0.785398,0.00062879,-0.000681402,0.000791135,0.000382299,-0.000386231,9.12336e-05,-3.72525e-05,0,0,0,0,0,0,0,-0.708302,-10.34,0.328738,21.9159,-1.59544,-0.495092,-0.297354,-0.682907,-1.22681,0.192835,3.39973,-1.04151,-0.492369,-0.359969
2573168,0.99,-1.57025,-0.522726,-4.71103e-05,-2.09683,-1.56939,1.57143,0.785922,-1.5708,-0.523598,1.34543e-07,-2.0944,-1.5708,1.5708,0.785398,0.000419193,0.000752158,-2.93885e-05,-0.000301946,0.000352864,-0.000413895,-0.000974271,0,0,0,0,0,0,0,-0.708302,-10.3916,0.352542,21.9397,-1.61192,-0.482274,-0.271719,-0.683667,-1.22349,0.191804,3.39783,-1.0415,-0.492464,-0.359784
2573169,0.99,-1.57025,-0.522726,-4.71103e-05,-2.09683,-1.56939,1.57143,0.785926,-1.5708,-0.523598,1.34543e-07,-2.0944,-1.5708,1.5708,0.785398,-0.000370152,0.000501439,-1.95924e-05,0.000355515,3.17921e-05,-0.00027593,0.000537281,0,0,0,0,0,0,0,-0.680531,-10.3916,0.352542,21.9159,-1.60643,-0.482274,-0.303762,-0.684558,-1.22252,0.190652,3.397,-1.04152,-0.492594,-0.359541
2573170,0.99,-1.57025,-0.522727,-4.71103e-05,-2.09683,-1.56939,1.57143,0.785923,-1.5708,-0.523598,1.34543e-07,-2.0944,-1.5708,1.5708,0.785398,-0.00080358,-0.00022252,-1.30616e-05,-0.000319802,2.11947e-05,0.000290764,-0.000591249,0,0,0,0,0,0,0,-0.656727,-10.3678,0.352542,21.9397,-1.60643,-0.495092,-0.278127,-0.684773,-1.2231,0.190462,3.3969,-1.04155,-0.49262,-0.359239
2573171,0.99,-1.57025,-0.522724,-4.71103e-05,-2.09683,-1.56939,1.57143,0.785926,-1.5708,-0.523598,1.34543e-07,-2.0944,-1.5708,1.5708,0.785398,2.10921e-05,0.000965278,-8.70771e-06,-0.000770013,0.00021758,-4.35161e-05,0.000792629,0,0,0,0,0,0,0,-0.680531,-10.4154,0.352542,21.9635,-1.61192,-0.488683,-0.310171,-0.684441,-1.22451,0.190992,3.3974,-1.04158,-0.492558,-0.358885
2573172,0.99,-1.57025,-0.522729,-4.71103e-05,-2.09683,-1.56939,1.57144,0.785921,-1.5708,-0.523598,1.34543e-07,-2.0944,-1.5708,1.5708,0.785398,1.40614e-05,-0.00111972,-5.80514e-06,0.0012499,-0.000668749,-2.90107e-05,-0.00137045,0,0,0,0,0,0,0,-0.680531,-10.34,0.352542,21.8882,-1.58995,-0.488683,-0.258901,-0.684072,-1.22585,0.191531,3.39792,-1.04162,-0.492481,-0.358496
2573173,0.99,-1.57025,-0.522729,-4.71103e-05,-2.09682,-1.56939,1.57143,0.785926,-1.5708,-0.523598,1.34543e-07,-2.0944,-1.5708,1.5708,0.785398,-0.00110425,-0.00074648,-3.87009e-06,0.00139008,-3.89313e-05,0.000218018,0.000985237,0,0,0,0,0,0,0,-0.632923,-10.34,0.352542,21.8644,-1.60094,-0.495092,-0.310171,-0.683579,-1.22393,0.192094,3.39632,-1.04156,-0.492351,-0.358089
2573174,0.99,-1.57025,-0.522729,-4.87808e-05,-2.09683,-1.56939,1.57143,0.785926,-1.5708,-0.523598,1.34543e-07,-2.0944,-1.5708,1.5708,0.785398,0.000377457,-0.000497653,-0.000559392,-0.00139333,0.000380947,-9.20133e-05,0.000419466,0,0,0,0,0,0,0,-0.680531,-10.34,0.376346,21.9635,-1.61192,-0.488683,-0.303762,-0.682698,-1.21968,0.193064,3.39343,-1.04144,-0.49214,-0.357657
2573175,0.99,-1.57025,-0.522729,-4.71103e-05,-2.09683,-1.56939,1.57143,0.785929,-1.5708,-0.523598,1.34543e-07,-2.0944,-1.5708,1.5708,0.785398,0.000251638,-0.000331769,0.000183884,0.000184735,5.0514e-05,-6.13422e-05,0.00122908,0,0,0,0,0,0,0,-0.680531,-10.34,0.352542,21.9159,-1.60643,-0.488683,-0.329397,-0.681934,-1.21648,0.193901,3.39163,-1.04135,-0.491957,-0.357211
2573176,0.99,-1.57025,-0.522726,-4.71103e-05,-2.09683,-1.56939,1.57143,0.785921,-1.5708,-0.523598,1.34543e-07,-2.0944,-1.5708,1.5708,0.785398,0.000167759,0.000985247,0.000122589,-0.000990467,-0.000576676,-0.000278254,-0.0015542,0,0,0,0,0,0,0,-0.680531,-10.3916,0.352542,21.9635,-1.58995,-0.482274,-0.26531,-0.681774,-1.21574,0.193939,3.39142,-1.04135,-0.491894,-0.356786
2573177,0.99,-1.57025,-0.522727,-4.87808e-05,-2.09683,-1.56939,1.57143,0.785925,-1.5708,-0.523598,1.34543e-07,-2.0944,-1.5708,1.5708,0.785398,0.000111839,0.000100019,-0.000475086,0.000453313,0.000429352,0.000289215,0.000150659,0,0,0,0,0,0,0,-0.680531,-10.3678,0.376346,21.9159,-1.61192,-0.495092,-0.297354,-0.681907,-1.21762,0.19362,3.3925,-1.04139,-0.491904,-0.356392
2573178,0.99,-1.57025,-0.522729,-4.71103e-05,-2.09683,-1.56939,1.57143,0.785924,-1.5708,-0.523598,1.34543e-07,-2.0944,-1.5708,1.5708,0.785398,-0.000482252,-0.000582934,0.000240088,0.000302208,8.2784e-05,-4.45487e-05,-0.000374278,0,0,0,0,0,0,0,-0.656727,-10.34,0.352542,21.9159,-1.60643,-0.488683,-0.284536,-0.681864,-1.21949,0.193545,3.39337,-1.0414,-0.491885,-0.356014
2573179,0.99,-1.57025,-0.522727,-4.87808e-05,-2.09683,-1.56939,1.57143,0.785929,-1.5708,-0.523598,1.34543e-07,-2.0944,-1.5708,1.5708,0.785398,-0.000321502,0.000260991,-0.000396753,0.000201472,0.00025864,0.00020766,0.00141199,0,0,0,0,0,0,0,-0.656727,-10.3678,0.376346,21.9159,-1.61192,-0.495092,-0.329397,-0.68151,-1.21984,0.193812,3.39324,-1.04137,-0.491807,-0.355639
2573180,0.99,-1.57025,-0.522731,-4.71103e-05,-2.09683,-1.56939,1.57143,0.785928,-1.5708,-0.523598,1.34543e-07,-2.0944,-1.5708,1.5708,0.785398,0.000342478,-0.00103243,0.00029231,-0.00153612,0.000172427,-9.89191e-05,-0.000245466,0,0,0,0,0,0,0,-0.680531,-10.3162,0.352542,21.9873,-1.61192,-0.488683,-0.297354,-0.681102,-1.21977,0.194104,3.39316,-1.04135,-0.491721,-0.355273
2573181,0.99,-1.57025,-0.522729,-4.71103e-05,-2.09683,-1.56939,1.57144,0.785924,-1.5708,-0.523598,1.34543e-07,-2.0944,-1.5708,1.5708,0.785398,-0.000885306,-0.000131476,0.000194873,0.00129597,-0.000495401,0.000171413,-0.000875721,0,0,0,0,0,0,0,-0.632923,-10.34,0.352542,21.8882,-1.59544,-0.495092,-0.278127,-0.680884,-1.21907,0.194044,3.39308,-1.04135,-0.491665,-0.35494
2573182,0.99,-1.57025,-0.522727,-4.71103e-05,-2.09683,-1.56939,1.57143,0.78593,-1.5708,-0.523598,1.34543e-07,-2.0944,-1.5708,1.5708,0.785398,-3.33917e-05,0.000561963,0.000129915,-0.000899258,0.000280085,-0.000123084,0.00182368,0,0,0,0,0,0,0,-0.656727,-10.3678,0.352542,21.9635,-1.61192,-0.488683,-0.34313,-0.680667,-1.21835,0.193864,3.39284,-1.04135,-0.491627,-0.354636
2573183,0.99,-1.57025,-0.522727,-4.71103e-05,-2.09683,-1.56939,1.57144,0.785927,-1.5708,-0.523598,1.34543e-07,-2.0944,-1.5708,1.5708,0.785398,0.000534551,0.000374642,8.66103e-05,0.000514118,0.000186723,0.000155303,0.000232445,0,0,0,0,0,0,0,-0.680531,-10.3678,0.352542,21.9159,-1.61192,-0.495092,-0.31658,-0.680608,-1.2193,0.193452,3.39326,-1.04139,-0.491649,-0.354352
2573184,0.99,-1.57025,-0.522729,-4.87808e-05,-2.09683,-1.56939,1.57144,0.785928,-1.5708,-0.523598,1.34543e-07,-2.0944,-1.5708,1.5708,0.785398,-0.000200445,-0.000399852,-0.000499072,0.000342746,0.000124482,0.000103535,0.000392322,0,0,0,0,0,0,0,-0.656727,-10.34,0.376346,21.9159,-1.61192,-0.495092,-0.322988,-0.680684,-1.22064,0.192898,3.39372,-1.04144,-0.491708,-0.354124
2573185,0.99,-1.57025,-0.522727,-5.07296e-05,-2.09683,-1.56939,1.57144,0.785927,-1.5708,-0.523598,1.34543e-07,-2.0944,-1.5708,1.5708,0.785398,0.000423182,0.000383046,-0.000982328,-0.000885127,8.2988e-05,6.90236e-05,2.41893e-05,0,0,0,0,0,0,0,-0.680531,-10.3678,0.404117,21.9635,-1.61192,-0.495092,-0.31658,-0.680262,-1.22143,0.193145,3.39394,-1.04147,-0.491696,-0.353974
2573186,0.99,-1.57025,-0.522726,-4.87808e-05,-2.09683,-1.56939,1.57144,0.785929,-1.5708,-0.523598,1.34543e-07,-2.0944,-1.5708,1.5708,0.785398,0.000931735,0.000812176,-5.27168e-06,-3.32726e-05,-0.000351576,0.000283374,0.000762111,0,0,0,0,0,0,0,-0.708302,-10.3916,0.376346,21.9397,-1.60094,-0.5015,-0.336721,-0.67967,-1.22336,0.193834,3.39497,-1.04154,-0.491679,-0.353892
2573187,0.99,-1.57025,-0.522727,-4.71103e-05,-2.09683,-1.56939,1.57144,0.785929,-1.5708,-0.523598,1.34543e-07,-2.0944,-1.5708,1.5708,0.785398,0.000621157,-1.53615e-05,0.000553297,0.00118424,-3.09333e-05,0.000188916,0.000508074,0,0,0,0,0,0,0,-0.708302,-10.3678,0.352542,21.8882,-1.60643,-0.5015,-0.336721,-0.679912,-1.22585,0.193468,3.39609,-1.04165,-0.491811,-0.353883
2573188,0.99,-1.57025,-0.522729,-4.71103e-05,-2.09683,-1.56939,1.57144,0.785927,-1.5708,-0.523598,1.34543e-07,-2.0944,-1.5708,1.5708,0.785398,-0.000235509,-0.000659855,0.000368865,0.000139882,-2.06222e-05,-0.000111414,-0.000407269,0,0,0,0,0,0,0,-0.680531,-10.34,0.352542,21.9159,-1.60643,-0.495092,-0.31658,-0.680904,-1.22636,0.191979,3.39581,-1.04172,-0.492048,-0.353962
2573189,0.99,-1.57025,-0.522727,-4.87808e-05,-2.09683,-1.56939,1.57143,0.785929,-1.5708,-0.523598,1.34543e-07,-2.0944,-1.5708,1.5708,0.785398,0.000492608,0.000209711,-0.000310902,-0.000463557,-0.000217199,-7.4276e-05,0.000474473,0,0,0,0,0,0,0,-0.708302,-10.3678,0.376346,21.9397,-1.60094,-0.495092,-0.336721,-0.681805,-1.22527,0.190597,3.39483,-1.04177,-0.492258,-0.354125
2573190,0.99,-1.57025,-0.522731,-4.87808e-05,-2.09683,-1.56939,1.57143,0.785931,-1.5708,-0.523598,1.34543e-07,-2.0944,-1.5708,1.5708,0.785398,-0.000878021,-0.00106662,-0.000207268,-0.000309038,-0.000144799,-0.000286876,0.00102839,0,0,0,0,0,0,0,-0.656727,-10.3162,0.376346,21.9397,-1.60094,-0.488683,-0.355947,-0.682023,-1.22388,0.190273,3.39416,-1.04181,-0.492357,-0.354352
2573191,0.99,-1.57025,-0.522729,-4.87808e-05,-2.09683,-1.56939,1.57143,0.785929,-1.5708,-0.523598,1.34543e-07,-2.0944,-1.5708,1.5708,0.785398,0.000621079,-0.000154267,-0.000138179,-0.000762837,0.000310368,4.61081e-05,-2.64822e-05,0,0,0,0,0,0,0,-0.708302,-10.34,0.376346,21.9635,-1.61192,-0.495092,-0.336721,-0.681625,-1.22207,0.190904,3.39371,-1.04183,-0.492349,-0.354648
2573192,0.99,-1.57025,-0.522727,-4.71103e-05,-2.09683,-1.56939,1.57144,0.785929,-1.5708,-0.523598,1.34543e-07,-2.0944,-1.5708,1.5708,0.785398,0.000414052,0.000546769,0.000464693,4.82537e-05,0.000206912,3.07387e-05,-0.000288922,0,0,0,0,0,0,0,-0.708302,-10.3678,0.352542,21.9397,-1.61192,-0.495092,-0.329397,-0.681512,-1.22107,0.191247,3.39385,-1.04186,-0.492383,-0.355023
2573193,0.99,-1.57025,-0.522727,-4.54399e-05,-2.09683,-1.56939,1.57143,0.785929,-1.5708,-0.523598,1.34543e-07,-2.0944,-1.5708,1.5708,0.785398,0.000276035,0.000364513,-0.0054268,0.000588981,-6.5509e-05,-0.000454225,7.86526e-05,0,0,0,0,0,0,0,-0.708302,-10.3678,0.328738,21.9159,-1.60643,-0.482274,-0.336721,-0.680536,-1.22163,0.193256,3.39448,-1.04188,-0.492291,-0.355466
2573194,0.99,-1.57025,-0.522729,-4.71103e-05,-2.09683,-1.56939,1.57143,0.78593,-1.5708,-0.523598,1.34543e-07,-2.0944,-1.5708,1.5708,0.785398,-0.00157921,-0.000406605,-0.00469913,-0.00072097,-4.36727e-05,0.000171901,0.000289794,0,0,0,0,0,0,0,-0.632923,-10.34,0.352542,21.9635,-1.60643,-0.495092,-0.34313,-0.67574,-1.22248,0.201412,3.39504,-1.04177,-0.491599,-0.355957
2573195,0.99,-1.57025,-0.522727,-4.71103e-05,-2.09683,-1.56939,1.57143,0.785929,-1.5708,-0.523598,1.34543e-07,-2.0944,-1.5708,1.5708,0.785398,0.000710428,0.000378544,-0.00352609,0.000632977,0.000174335,-0.000122758,-4.4163e-05,0,0,0,0,0,0,0,-0.708302,-10.3678,0.352542,21.9159,-1.61192,-0.488683,-0.336721,-0.667959,-1.22295,0.214197,3.39548,-1.04156,-0.49043,-0.356487
2573196,0.99,-1.57025,-0.522727,-4.87808e-05,-2.09683,-1.56939,1.57143,0.78593,-1.5708,-0.523598,1.34543e-07,-2.0944,-1.5708,1.5708,0.785398,-0.00128962,0.000252362,-0.00320254,0.000421985,-0.000494128,0.00015552,0.000207917,0,0,0,0,0,0,0,-0.632923,-10.3678,0.376346,21.9159,-1.59544,-0.495092,-0.34313,-0.660229,-1.2233,0.226794,3.39565,-1.04135,-0.489261,-0.357051
2573197,0.99,-1.57025,-0.522729,-5.07296e-05,-2.09683,-1.56939,1.57144,0.785931,-1.5708,-0.523598,1.34543e-07,-2.0944,-1.5708,1.5708,0.785398,-0.000302934,-0.000481372,-0.0030059,0.000281323,-0.000329419,0.00010368,0.000613329,0,0,0,0,0,0,0,-0.656727,-10.34,0.404117,21.9159,-1.59544,-0.495092,-0.355947,-0.653496,-1.22312,0.237606,3.39528,-1.04115,-0.488243,-0.357644
2573198,0.99,-1.57025,-0.522727,-5.07296e-05,-2.09683,-1.56939,1.57143,0.78593,-1.5708,-0.523598,1.34543e-07,-2.0944,-1.5708,1.5708,0.785398,0.00100447,0.000328699,-0.00216987,-0.000369263,0.000187289,6.912e-05,-6.58318e-05,0,0,0,0,0,0,0,-0.708302,-10.3678,0.404117,21.9397,-1.60643,-0.495092,-0.34313,-0.648525,-1.22246,0.245555,3.39475,-1.04098,-0.487494,-0.358269
2573199,0.99,-1.57024,-0.522726,-4.54399e-05,-2.09683,-1.56939,1.57143,0.78593,-1.5708,-0.523598,1.34543e-07,-2.0944,-1.5708,1.5708,0.785398,0.00122646,0.000775945,0.000192203,-0.000246175,0.000124859,-0.000191279,-4.38878e-05,0,0,0,0,0,0,0,-0.732105,-10.3916,0.328738,21.9397,-1.60643,-0.488683,-0.34313,-0.646966,-1.22304,0.248379,3.39503,-1.04094,-0.48728,-0.358927
2573200,0.99,-1.57025,-0.522729,-4.87808e-05,-2.09683,-1.56939,1.57143,0.78593,-1.5708,-0.523598,1.34543e-07,-2.0944,-1.5708,1.5708,0.785398,-0.000388787,-0.000689129,-0.00107883,0.000392695,0.00028669,-0.000127519,-2.92586e-05,0,0,0,0,0,0,0,-0.680531,-10.34,0.376346,21.9159,-1.61192,-0.488683,-0.34313,-0.648699,-1.22438,0.246178,3.39571,-1.041,-0.487571,-0.359614
2573201,0.99,-1.57025,-0.522731,-5.07296e-05,-2.09684,-1.56939,1.57144,0.785931,-1.5708,-0.523598,1.34543e-07,-2.0944,-1.5708,1.5708,0.785398,0.000390423,-0.00101623,-0.00143884,-0.00205825,-0.000215774,0.000152346,0.000217853,0,0,0,0,0,0,0,-0.708302,-10.3162,0.404117,22.0151,-1.60094,-0.495092,-0.349539,-0.651534,-1.22425,0.242148,3.39602,-1.04108,-0.487999,-0.360321
2573202,0.99,-1.57025,-0.522729,-4.71103e-05,-2.09683,-1.56939,1.57144,0.785929,-1.5708,-0.523598,1.34543e-07,-2.0944,-1.5708,1.5708,0.785398,-0.000946144,-0.000120676,0.000194695,-0.000165743,0.000263051,0.000101564,-0.00060075,0,0,0,0,0,0,0,-0.656727,-10.34,0.352542,21.9635,-1.61192,-0.495092,-0.329397,-0.654443,-1.22312,0.237878,3.39652,-1.04119,-0.488413,-0.361039
2573203,0.99,-1.57025,-0.522727,-5.07296e-05,-2.09683,-1.56939,1.57144,0.78593,-1.5708,-0.523598,1.34543e-07,-2.0944,-1.5708,1.5708,0.785398,-0.00118757,0.000569163,-0.00111601,0.00165274,-0.000434984,6.77094e-05,0.000108126,0,0,0,0,0,0,0,-0.632923,-10.3678,0.404117,21.8882,-1.59544,-0.495092,-0.34313,-0.657221,-1.22205,0.23361,3.39679,-1.04128,-0.488816,-0.36176
2573204,0.99,-1.57025,-0.522727,-4.71103e-05,-2.09683,-1.56939,1.57144,0.785929,-1.5708,-0.523598,1.34543e-07,-2.0944,-1.5708,1.5708,0.785398,0.000321907,0.000379442,0.000432887,-0.000661409,0.000116912,-0.000192219,-0.00138598,0,0,0,0,0,0,0,-0.680531,-10.3678,0.352542,21.9635,-1.60643,-0.488683,-0.303762,-0.659827,-1.22158,0.229456,3.39652,-1.04133,-0.48922,-0.362469
2573205,0.99,-1.57025,-0.522729,-5.07296e-05,-2.09683,-1.56939,1.57144,0.785932,-1.5708,-0.523598,1.34543e-07,-2.0944,-1.5708,1.5708,0.785398,0.000214605,-0.000396652,-0.000939985,-0.00044094,7.79412e-05,-0.000128146,0.000771436,0,0,0,0,0,0,0,-0.680531,-10.34,0.404117,21.9635,-1.60643,-0.488683,-0.349539,-0.662847,-1.22198,0.224735,3.39671,-1.04142,-0.489704,-0.363142
2573206,0.99,-1.57025,-0.522731,-4.87808e-05,-2.09683,-1.56939,1.57144,0.785929,-1.5708,-0.523598,1.34543e-07,-2.0944,-1.5708,1.5708,0.785398,0.00014307,-0.000821247,6.34488e-06,0.00146928,-0.00015149,-8.54308e-05,-0.000231695,0,0,0,0,0,0,0,-0.680531,-10.3162,0.376346,21.8882,-1.60094,-0.488683,-0.329397,-0.666067,-1.22121,0.21979,3.39644,-1.04149,-0.490202,-0.363767
2573207,0.99,-1.57025,-0.522727,-4.71103e-05,-2.09683,-1.56939,1.57144,0.78593,-1.5708,-0.523598,1.34543e-07,-2.0944,-1.5708,1.5708,0.785398,0.000744994,0.000658928,0.000548582,-0.000226907,0.000102457,-5.69539e-05,0.000354163,0,0,0,0,0,0,0,-0.708302,-10.3678,0.352542,21.9397,-1.60643,-0.488683,-0.34313,-0.669561,-1.21897,0.214482,3.39511,-1.04152,-0.490723,-0.364353
2573208,0.99,-1.57025,-0.522729,-4.87808e-05,-2.09683,-1.56938,1.57144,0.785929,-1.5708,-0.523598,1.34543e-07,-2.0944,-1.5708,1.5708,0.785398,-0.000152951,-0.000210329,-0.000200435,-0.000151271,0.000475206,-3.79693e-05,-1.25016e-06,0,0,0,0,0,0,0,-0.680531,-10.34,0.376346,21.9397,-1.61741,-0.488683,-0.336721,-0.673428,-1.21775,0.208707,3.3943,-1.04158,-0.491301,-0.364904
2573209,0.99,-1.57025,-0.522729,-4.71103e-05,-2.09683,-1.56939,1.57144,0.785929,-1.5708,-0.523598,1.34543e-07,-2.0944,-1.5708,1.5708,0.785398,0.000547646,-0.000140219,0.00041618,-0.000100848,-0.000496998,-2.53128e-05,-8.33437e-07,0,0,0,0,0,0,0,-0.708302,-10.34,0.352542,21.9397,-1.59544,-0.488683,-0.336721,-0.677053,-1.2175,0.203371,3.39426,-1.04167,-0.491836,-0.365427
2573210,0.99,-1.57025,-0.522729,-4.71103e-05,-2.09683,-1.56939,1.57144,0.785929,-1.5708,-0.523598,1.34543e-07,-2.0944,-1.5708,1.5708,0.785398,-0.000284516,-9.34794e-05,0.000272197,-6.72318e-05,7.5569e-05,-1.68752e-05,-0.000271823,0,0,0,0,0,0,0,-0.680531,-10.34,0.352542,21.9397,-1.60643,-0.488683,-0.329397,-0.68032,-1.2172,0.198592,3.39436,-1.04176,-0.4923,-0.365932
2573211,0.99,-1.57025,-0.522727,-4.54399e-05,-2.09683,-1.56939,1.57144,0.785928,-1.5708,-0.523598,1.34543e-07,-2.0944,-1.5708,1.5708,0.785398,-0.000189678,0.000587294,0.000734334,0.000511991,0.00025383,-1.12501e-05,-0.000418574,0,0,0,0,0,0,0,-0.680531,-10.3678,0.328738,21.9159,-1.61192,-0.488683,-0.322988,-0.683213,-1.21726,0.194333,3.39457,-1.04185,-0.4927,-0.366416
2573212,0.99,-1.57025,-0.522727,-4.87808e-05,-2.09683,-1.56939,1.57143,0.78593,-1.5708,-0.523598,1.34543e-07,-2.0944,-1.5708,1.5708,0.785398,-0.000683264,0.00039153,-0.000627024,0.000341327,0.00016922,0.000704576,0.000466936,0,0,0,0,0,0,0,-0.656727,-10.3678,0.376346,21.9159,-1.61192,-0.507909,-0.34313,-0.685322,-1.2181,0.19118,3.39491,-1.04191,-0.492986,-0.36687
2573213,0.99,-1.57025,-0.522727,-4.71103e-05,-2.09683,-1.56939,1.57143,0.785928,-1.5708,-0.523598,1.34543e-07,-2.0944,-1.5708,1.5708,0.785398,0.000101303,0.00026102,0.000136578,-0.00032926,-0.000497538,-0.000242359,-0.000434695,0,0,0,0,0,0,0,-0.680531,-10.3678,0.352542,21.9397,-1.59544,-0.488683,-0.322988,-0.686404,-1.21956,0.189537,3.39545,-1.04197,-0.493132,-0.36729
2573214,0.99,-1.57025,-0.522733,-4.87808e-05,-2.09683,-1.56939,1.57143,0.78593,-1.5708,-0.523598,1.34543e-07,-2.0944,-1.5708,1.5708,0.785398,-0.000489277,-0.00158922,-0.000467423,-0.000776319,-0.000128242,-0.000398931,0.000456189,0,0,0,0,0,0,0,-0.656727,-10.2924,0.376346,21.9635,-1.60094,-0.482274,-0.34313,-0.686729,-1.22016,0.18898,3.39597,-1.04201,-0.49316,-0.367683
2573215,0.99,-1.57025,-0.522727,-4.87808e-05,-2.09683,-1.56939,1.57144,0.785926,-1.5708,-0.523598,1.34543e-07,-2.0944,-1.5708,1.5708,0.785398,-0.000326184,0.000703755,-0.000312863,3.9266e-05,0.000117956,-2.85953e-05,-0.00115394,0,0,0,0,0,0,0,-0.656727,-10.3678,0.376346,21.9397,-1.60643,-0.488683,-0.303762,-0.686406,-1.21931,0.189306,3.3962,-1.04202,-0.493074,-0.368054
2573219,0.95,-1.57025,-0.522727,-4.71103e-05,-2.09683,-1.56939,1.57144,0.785927,-1.5708,-0.523598,1.34543e-07,-2.0944,-1.5708,1.5708,0.785398,0.0008739,0.00049991,0.000493677,0.000440832,-0.000285643,0.000170173,-0.000487903,0,0,0,0,0,0,0,-0.708302,-10.3678,0.352542,21.9159,-1.60094,-0.495092,-0.310171,-0.68548,-1.21874,0.190211,3.39672,-1.04197,-0.492896,-0.369201
2573220,0.95,-1.57025,-0.522724,-4.87808e-05,-2.09683,-1.56939,1.57143,0.785931,-1.5708,-0.523598,1.34543e-07,-2.0944,-1.5708,1.5708,0.785398,0.0005826,0.0014469,-0.00022799,-0.000262924,1.30216e-05,0.000113449,0.00113279,0,0,0,0,0,0,0,-0.708302,-10.4154,0.376346,21.9397,-1.60643,-0.495092,-0.349539,-0.686557,-1.21984,0.188677,3.3971,-1.042,-0.493082,-0.369384
2573221,0.95,-1.57025,-0.522727,-4.87808e-05,-2.09683,-1.56939,1.57143,0.785928,-1.5708,-0.523598,1.34543e-07,-2.0944,-1.5708,1.5708,0.785398,0.0003884,-0.000149026,-0.000152215,-0.000175283,-0.00039822,7.56325e-05,-0.000228148,0,0,0,0,0,0,0,-0.708302,-10.3678,0.376346,21.9397,-1.59544,-0.495092,-0.322988,-0.687762,-1.22287,0.187141,3.39843,-1.04208,-0.493309,-0.369522
2573222,0.95,-1.57025,-0.522727,-4.71103e-05,-2.09683,-1.56939,1.57143,0.785929,-1.5708,-0.523598,1.34543e-07,-2.0944,-1.5708,1.5708,0.785398,0.000258933,-9.93505e-05,0.000455169,-0.000116855,0.000344872,0.00028778,0.000356527,0,0,0,0,0,0,0,-0.708302,-10.3678,0.352542,21.9397,-1.61192,-0.5015,-0.336721,-0.688789,-1.22529,0.185943,3.39964,-1.04215,-0.493497,-0.369645
2573223,0.95,-1.57025,-0.522727,-4.71103e-05,-2.09683,-1.56939,1.57143,0.785924,-1.5708,-0.523598,1.34543e-07,-2.0944,-1.5708,1.5708,0.785398,0.000172622,-6.62337e-05,0.000303321,-7.79034e-05,-0.000176987,-4.55048e-05,-0.00145774,0,0,0,0,0,0,0,-0.708302,-10.3678,0.352542,21.9397,-1.60094,-0.495092,-0.290945,-0.689856,-1.22605,0.184672,3.40014,-1.04219,-0.49367,-0.369771
2573224,0.95,-1.57025,-0.522729,-4.71103e-05,-2.09683,-1.56939,1.57143,0.78593,-1.5708,-0.523598,1.34543e-07,-2.0944,-1.5708,1.5708,0.785398,-0.00164816,-0.00069377,0.00020212,-5.19356e-05,-0.000117991,-3.03365e-05,0.000960956,0,0,0,0,0,0,0,-0.632923,-10.34,0.352542,21.9397,-1.60094,-0.495092,-0.34313,-0.690448,-1.22539,0.183984,3.4,-1.04219,-0.493758,-0.369888
2573225,0.95,-1.57025,-0.522726,-4.71103e-05,-2.09683,-1.56939,1.57143,0.785928,-1.5708,-0.523598,1.34543e-07,-2.0944,-1.5708,1.5708,0.785398,-0.000541959,0.000743913,0.000134677,-3.46237e-05,-7.86607e-05,-0.000732301,-0.000105348,0,0,0,0,0,0,0,-0.656727,-10.3916,0.352542,21.9397,-1.60094,-0.475866,-0.322988,-0.689989,-1.22407,0.184636,3.39954,-1.04215,-0.493687,-0.369976
2573226,0.95,-1.57025,-0.522727,-4.71103e-05,-2.09683,-1.56939,1.57143,0.78593,-1.5708,-0.523597,-2.36546e-06,-2.09439,-1.5708,1.5708,0.785399,0.00140193,-6.08701e-05,8.97317e-05,0.000533729,-0.000255891,-1.34829e-05,-0.00054495,-0.00375,0.00173418,-0.0025,0.00131275,-0.00334638,0.005,0.000324765,-0.732105,-10.3678,0.352542,21.9159,-1.59544,-0.488683,-0.310171,-0.689381,-1.22338,0.185489,3.39921,-1.0421,-0.4936,-0.370045
2573227,0.95,-1.57025,-0.522727,-4.71103e-05,-2.09683,-1.56939,1.57143,0.785929,-1.57081,-0.523593,-7.36546e-06,-2.09439,-1.57081,1.57081,0.785399,-0.000271805,-4.05801e-05,5.97816e-05,-0.00131462,0.000236307,0.00022837,-0.00107538,-0.0075,0.00346836,-0.005,0.00262549,-0.00669276,0.01,0.00064953,-0.680531,-10.3678,0.352542,21.9873,-1.60643,-0.495092,-0.290945,-0.689437,-1.22327,0.185511,3.39916,-1.04205,-0.493604,-0.370099
2573228,0.95,-1.57025,-0.522729,-4.71103e-05,-2.09683,-1.56939,1.57143,0.785931,-1.57082,-0.523588,-1.48655e-05,-2.09439,-1.57082,1.57083,0.7854,0.000468411,-0.000676667,3.98248e-05,0.000237213,0.000157538,0.000152247,0.000978503,-0.01125,0.00520254,-0.0075,0.00393824,-0.0100391,0.015,0.000974295,-0.708302,-10.34,0.352542,21.9397,-1.60643,-0.495092,-0.336721,-0.689713,-1.22299,0.18527,3.39937,-1.04201,-0.493621,-0.370118
2573229,0.95,-1.57025,-0.52273,-4.73652e-05,-2.09683,-1.56939,1.57144,0.785929,-1.57083,-0.523581,-2.48655e-05,-2.09438,-1.57083,1.57085,0.785402,-0.0048951,-0.00221435,-0.00528233,-0.00039867,0.00115619,-0.000135861,0.000381068,-0.015,0.00693673,-0.01,0.00525099,-0.0133855,0.02,0.00129906,-0.755909,-10.2646,0.174014,21.9635,-1.63481,-0.488683,-0.329397,-0.687306,-1.22028,0.188872,3.39867,-1.04186,-0.493195,-0.370096
2573230,0.95,-1.57025,-0.522732,-5.09258e-05,-2.09683,-1.56938,1.57144,0.785924,-1.57085,-0.523572,-3.73655e-05,-2.09438,-1.57085,1.57087,0.785403,-0.00543367,-0.000423765,-0.00728117,-0.000822592,0.00328001,-9.0574e-05,-0.00117011,-0.01875,0.00867091,-0.0125,0.00656373,-0.0167319,0.025,0.00162382,-1.08519,-10.0385,-0.230649,21.9873,-1.70256,-0.488683,-0.290945,-0.677698,-1.21493,0.202877,3.39708,-1.0415,-0.491638,-0.370056
2573231,0.95,-1.57025,-0.522729,-7.10704e-05,-2.09683,-1.56938,1.57144,0.785924,-1.57087,-0.523562,-5.23655e-05,-2.09437,-1.57087,1.5709,0.785405,-0.00118693,0.0011457,-0.013283,0.000565229,0.004289,-6.03827e-05,-0.000780072,-0.0225,0.0104051,-0.015,0.00787648,-0.0200783,0.03,0.00194859,-1.64061,-9.80838,-0.611508,21.9397,-1.75932,-0.488683,-0.290945,-0.660393,-1.21115,0.228647,3.39653,-1.04104,-0.488876,-0.370001
2573232,0.95,-1.57025,-0.522725,-8.65271e-05,-2.09683,-1.56939,1.57143,0.785926,-1.5709,-0.52355,-6.98655e-05,-2.09436,-1.57089,1.57094,0.785407,-0.00146266,0.00277935,-0.0135397,-0.000179992,0.0051651,-0.000752332,-4.53302e-05,-0.02625,0.0121393,-0.0175,0.00918922,-0.0234247,0.035,0.00227335,-2.21984,-9.58224,-1.19073,21.9635,-1.82158,-0.469457,-0.303762,-0.638803,-1.21255,0.262259,3.39838,-1.0407,-0.485352,-0.369899
2573233,0.95,-1.57026,-0.522718,-0.000113873,-2.09683,-1.5694,1.57144,0.785926,-1.57093,-0.523536,-8.98655e-05,-2.09435,-1.57092,1.57098,0.78541,-0.00472117,0.00527562,-0.0165524,-0.000119995,-0.00112804,0.000210522,-3.02202e-05,-0.03,0.0138735,-0.02,0.010502,-0.026771,0.04,0.00259812,-2.69988,-9.40768,-1.67474,21.9635,-1.82707,-0.488683,-0.303762,-0.615642,-1.22129,0.300149,3.40383,-1.04072,-0.481348,-0.369714
2573234,0.95,-1.57027,-0.522701,-0.000144723,-2.09682,-1.5694,1.57144,0.785923,-1.57096,-0.52352,-0.000112365,-2.09434,-1.57095,1.57102,0.785413,-0.00426029,0.0108076,-0.0204543,0.00103363,-0.00114993,0.000852424,-0.000969583,-0.03375,0.0156076,-0.0225,0.0118147,-0.0301174,0.045,0.00292288,-3.30687,-9.37991,-2.10321,21.9159,-1.82707,-0.507909,-0.278127,-0.59185,-1.24092,0.341294,3.4145,-1.04122,-0.476886,-0.369426
2573235,0.95,-1.57028,-0.522689,-0.000173032,-2.09682,-1.56941,1.57145,0.785924,-1.571,-0.523503,-0.000137365,-2.09432,-1.57098,1.57107,0.785416,-0.00781038,0.0128998,-0.0200725,0.000132273,-0.00471643,0.0074188,-0.000409029,-0.0375,0.0173418,-0.025,0.0131275,-0.0334638,0.05,0.00324765,-3.75914,-9.28073,-2.53564,21.9397,-1.85545,-0.566503,-0.284536,-0.569251,-1.27473,0.383669,3.43174,-1.04233,-0.47215,-0.369023
2573236,0.95,-1.5703,-0.522678,-0.000200865,-2.09682,-1.56943,1.57147,0.785925,-1.57105,-0.523483,-0.000167365,-2.09431,-1.57102,1.57113,0.78542,-0.0135368,0.0136393,-0.0231754,8.81819e-05,-0.00375999,0.0124028,0.000202032,-0.045,0.0203479,-0.03,0.015375,-0.0384795,0.0595867,0.0037469,-4.08843,-9.15378,-2.96411,21.9397,-1.85545,-0.63059,-0.297354,-0.549687,-1.32018,0.424691,3.45485,-1.04405,-0.467343,-0.368501
2573237,0.95,-1.57032,-0.522672,-0.000229476,-2.09681,-1.56943,1.57148,0.785924,-1.5711,-0.523459,-0.000202365,-2.09429,-1.57106,1.5712,0.785424,-0.0163231,0.00997799,-0.0241132,-0.000498024,-0.0108183,0.00942686,-0.00034003,-0.0525,0.0233539,-0.035,0.0176225,-0.0434952,0.0691733,0.00424616,-4.46532,-8.97525,-3.3172,21.9635,-1.90031,-0.643407,-0.284536,-0.533067,-1.367,0.464205,3.47981,-1.04621,-0.462301,-0.367881
2573238,0.95,-1.57035,-0.522666,-0.000254174,-2.09681,-1.56944,1.57149,0.785926,-1.57116,-0.523433,-0.000242365,-2.09427,-1.57111,1.57128,0.785429,-0.0212135,0.00929602,-0.0245144,0.00154374,-0.0105095,0.00911514,-0.000464046,-0.06,0.02636,-0.04,0.0198701,-0.0485109,0.07876,0.00474541,-4.71923,-8.74911,-3.67425,22.0151,-1.96806,-0.57932,-0.278127,-0.519931,-1.40281,0.501039,3.50107,-1.04862,-0.456904,-0.367203
2573239,0.95,-1.57038,-0.522656,-0.000281353,-2.0968,-1.56946,1.57149,0.785931,-1.57123,-0.523404,-0.000287365,-2.09425,-1.57116,1.57137,0.785434,-0.0258007,0.0121624,-0.0287894,0.0056659,-0.0146055,0.00373268,0.00111479,-0.0675,0.029366,-0.045,0.0221176,-0.0535266,0.0883467,0.00524467,-4.92156,-8.52298,-4.13049,22.1143,-2.04771,-0.495092,-0.31658,-0.510329,-1.4228,0.534891,3.51522,-1.05117,-0.45103,-0.366483
2573240,0.95,-1.57042,-0.522646,-0.000315831,-2.0968,-1.56947,1.5715,0.785927,-1.5713,-0.523371,-0.000337365,-2.09422,-1.57122,1.57147,0.78544,-0.0298072,0.0132443,-0.0323454,0.00480505,-0.0125778,0.00971818,0.000268475,-0.075,0.0323721,-0.05,0.0243651,-0.0585422,0.0979334,0.00574392,-5.35003,-8.2413,-4.70971,22.2373,-2.14384,-0.418187,-0.303762,-0.502752,-1.43083,0.568095,3.52314,-1.05394,-0.444393,-0.365733
2573241,0.95,-1.57046,-0.522624,-0.000365533,-2.09679,-1.56948,1.57151,0.785928,-1.57138,-0.523336,-0.000392365,-2.0942,-1.57129,1.57157,0.785446,-0.0354781,0.0158697,-0.0389796,0.00794152,-0.0104371,0.00928933,0.00089106,-0.0825,0.0353782,-0.055,0.0266126,-0.0635579,0.10752,0.00624318,-5.95305,-8.03897,-5.2691,22.2135,-2.26286,-0.333959,-0.322988,-0.495563,-1.43207,0.603153,3.52788,-1.05713,-0.436674,-0.364987
2573242,0.95,-1.5705,-0.522597,-0.000417147,-2.09678,-1.56951,1.57154,0.785929,-1.57147,-0.523298,-0.000452365,-2.09417,-1.57136,1.57169,0.785453,-0.0375414,0.0218886,-0.0418581,0.00619348,-0.0103993,0.0163258,-0.000118037,-0.09,0.0383842,-0.06,0.0288602,-0.0685736,0.117107,0.00674243,-6.53228,-7.86441,-5.92767,22.2135,-2.3416,-0.321141,-0.303762,-0.488565,-1.43371,0.640568,3.53366,-1.06106,-0.427731,-0.364271
2573243,0.95,-1.57057,-0.522564,-0.000474309,-2.09676,-1.56954,1.57157,0.785929,-1.57157,-0.523256,-0.000517365,-2.09414,-1.57143,1.57182,0.78546,-0.0490293,0.0235005,-0.0435216,0.0116438,-0.0171503,0.0222805,-0.000553409,-0.0975,0.0413903,-0.065,0.0311077,-0.0735893,0.126693,0.00724169,-6.96471,-7.71365,-6.61004,22.0627,-2.36449,-0.333959,-0.290945,-0.483511,-1.44164,0.677686,3.54339,-1.06603,-0.417723,-0.363587
2573244,0.95,-1.57065,-0.522531,-0.000541866,-2.09674,-1.56958,1.57162,0.785925,-1.57168,-0.523212,-0.000587365,-2.0941,-1.57151,1.57195,0.785468,-0.0594624,0.0243263,-0.0493438,0.0121591,-0.0272955,0.0288479,-0.000606298,-0.105,0.0443963,-0.07,0.0333552,-0.078605,0.13628,0.00774094,-7.3178,-7.55893,-7.11786,22.0389,-2.37547,-0.398961,-0.284536,-0.479489,-1.45188,0.714828,3.55446,-1.07197,-0.406408,-0.362925
2573245,0.95,-1.57073,-0.522501,-0.000610112,-2.09672,-1.56963,1.57168,0.785925,-1.57179,-0.523164,-0.000662365,-2.09407,-1.57159,1.5721,0.785476,-0.063886,0.0241612,-0.0554171,0.0166404,-0.0363166,0.0388077,-0.00111628,-0.1125,0.0474024,-0.075,0.0356028,-0.0836207,0.145867,0.0082402,-7.67089,-7.3566,-7.54632,21.9873,-2.3416,-0.482274,-0.26531,-0.474305,-1.45602,0.754646,3.56237,-1.07861,-0.393405,-0.362268
2573246,0.95,-1.57082,-0.522472,-0.000667544,-2.0967,-1.56969,1.57175,0.785921,-1.57191,-0.523113,-0.000744865,-2.09403,-1.57168,1.57226,0.785485,-0.0762457,0.0227155,-0.0566126,0.017984,-0.0476954,0.0555279,-0.0024396,-0.122084,0.0513073,-0.0825,0.0384899,-0.0892645,0.157945,0.00882258,-7.86925,-7.10666,-8.10571,22.0151,-2.30223,-0.566503,-0.219534,-0.469105,-1.4468,0.795317,3.56351,-1.0857,-0.379034,-0.361597
2573247,0.95,-1.57092,-0.522442,-0.00073103,-2.09669,-1.56975,1.57183,0.785917,-1.57204,-0.523058,-0.000834865,-2.09399,-1.57178,1.57243,0.785494,-0.0837652,0.0255817,-0.0613642,0.0175277,-0.051886,0.0658428,-0.0028132,-0.131668,0.0552122,-0.09,0.0413769,-0.0949082,0.170023,0.00940497,-8.02398,-6.87656,-8.51037,22.1143,-2.25096,-0.598546,-0.18749,-0.465954,-1.42284,0.83314,3.55799,-1.09311,-0.363953,-0.360862
2573248,0.95,-1.57102,-0.522414,-0.000800154,-2.09667,-1.56982,1.57193,0.785922,-1.57218,-0.522999,-0.000932365,-2.09394,-1.57188,1.57261,0.785504,-0.0885521,0.026063,-0.0635648,0.0184573,-0.0574405,0.0754144,-0.000213953,-0.141252,0.0591171,-0.0975,0.044264,-0.100552,0.1821,0.00998736,-8.19854,-6.57504,-8.81189,22.1619,-2.25645,-0.546361,-0.232351,-0.467254,-1.3896,0.864247,3.54994,-1.10089,-0.348869,-0.359972
2573249,0.95,-1.57113,-0.522381,-0.000856858,-2.09665,-1.5699,1.57202,0.785917,-1.57234,-0.522936,-0.00103737,-2.0939,-1.57198,1.5728,0.785515,-0.0974573,0.0301979,-0.0654145,0.0174339,-0.0611,0.0823022,-0.00204151,-0.150836,0.0630219,-0.105,0.0471511,-0.106196,0.194178,0.0105697,-8.27391,-6.29733,-9.3435,22.2889,-2.27934,-0.482274,-0.181082,-0.47596,-1.35312,0.884067,3.54336,-1.10907,-0.334438,-0.358855
2573250,0.95,-1.57127,-0.522336,-0.00093203,-2.09662,-1.56997,1.57213,0.78592,-1.5725,-0.522869,-0.00114987,-2.09385,-1.57209,1.57301,0.785526,-0.110065,0.0359225,-0.0700586,0.0225127,-0.0669099,0.0966406,-0.00017421,-0.16042,0.0669268,-0.1125,0.0500382,-0.11184,0.206256,0.0111521,-8.34929,-6.1188,-9.90289,22.3127,-2.34709,-0.411779,-0.213125,-0.49154,-1.32017,0.892514,3.54134,-1.11763,-0.320739,-0.357485
2573251,0.95,-1.57139,-0.522286,-0.0010281,-2.09659,-1.57006,1.57226,0.78592,-1.57267,-0.522798,-0.00126987,-2.09379,-1.57221,1.57323,0.785538,-0.114839,0.0398416,-0.0785904,0.0241529,-0.0720934,0.110623,-0.00011614,-0.170004,0.0708317,-0.12,0.0529253,-0.117483,0.218334,0.0117345,-8.75396,-5.94424,-10.3829,22.2889,-2.39287,-0.411779,-0.213125,-0.510393,-1.29548,0.89416,3.54478,-1.12641,-0.307337,-0.355859
2573252,0.96,-1.57153,-0.522229,-0.00112946,-2.09656,-1.57015,1.57242,0.785919,-1.57285,-0.522723,-0.00139737,-2.09374,-1.57233,1.57346,0.78555,-0.122047,0.0444191,-0.0844466,0.0284115,-0.0756612,0.124185,-0.000552144,-0.179588,0.0747366,-0.1275,0.0558124,-0.123127,0.230412,0.0123169,-9.15862,-5.81729,-10.8907,22.2611,-2.45512,-0.5015,-0.200308,-0.530708,-1.27935,0.891718,3.55286,-1.13529,-0.293933,-0.354014
2573253,0.96,-1.57169,-0.522166,-0.00122886,-2.09652,-1.57025,1.57259,0.785925,-1.57303,-0.522645,-0.00153237,-2.09368,-1.57246,1.5737,0.785563,-0.1316,0.0518293,-0.085728,0.0313116,-0.0866522,0.140201,0.000581339,-0.189172,0.0786415,-0.135,0.0586995,-0.128771,0.24249,0.0128993,-9.38475,-5.74191,-11.5215,22.2373,-2.42674,-0.63059,-0.225942,-0.553771,-1.27267,0.883195,3.56529,-1.14438,-0.280712,-0.351993
2573254,0.95,-1.57186,-0.522108,-0.00134533,-2.09649,-1.57037,1.57277,0.785923,-1.57323,-0.522562,-0.00167487,-2.09362,-1.5726,1.57396,0.785576,-0.143286,0.053779,-0.0908703,0.0342477,-0.0940589,0.154553,-0.000561876,-0.198755,0.0825464,-0.1425,0.0615866,-0.134415,0.254568,0.0134817,-9.55931,-5.53958,-12.0016,22.1897,-2.41484,-0.701085,-0.200308,-0.580819,-1.27546,0.865996,3.58166,-1.15374,-0.268003,-0.349821
2573255,0.95,-1.57203,-0.522046,-0.00145878,-2.09644,-1.57049,1.57297,0.785923,-1.57344,-0.522476,-0.00182487,-2.09355,-1.57274,1.57422,0.785591,-0.151468,0.056365,-0.0987974,0.0401839,-0.104883,0.168142,-0.000611943,-0.208339,0.0864512,-0.15,0.0644737,-0.140059,0.266646,0.0140641,-9.8886,-5.36105,-12.434,22.1143,-2.38096,-0.740453,-0.193899,-0.610096,-1.28061,0.842014,3.59835,-1.16317,-0.255683,-0.347547
2573256,0.95,-1.57223,-0.521983,-0.00157213,-2.0964,-1.57062,1.57318,0.785922,-1.57366,-0.522385,-0.00198486,-2.09349,-1.57288,1.5745,0.785605,-0.164434,0.0568976,-0.101546,0.0415907,-0.112501,0.179265,-0.000645321,-0.218652,0.0909519,-0.15999,0.0677738,-0.145686,0.279941,0.0146744,-10.0671,-5.13492,-12.9894,22.1619,-2.35258,-0.785314,-0.18749,-0.639371,-1.27853,0.814078,3.61076,-1.17239,-0.243494,-0.345208
2573257,0.95,-1.57242,-0.521919,-0.00169102,-2.09635,-1.57076,1.57341,0.785922,-1.57389,-0.522289,-0.00215484,-2.09341,-1.57303,1.57479,0.785621,-0.170952,0.0612002,-0.103017,0.043199,-0.122967,0.196325,-0.000667573,-0.228965,0.0954525,-0.16998,0.0710739,-0.151314,0.293236,0.0152847,-10.2417,-4.95639,-13.4457,22.1897,-2.30223,-0.810948,-0.181082,-0.67038,-1.26622,0.779178,3.61859,-1.18135,-0.231798,-0.342804
2573258,0.95,-1.57261,-0.52185,-0.00181622,-2.0963,-1.57089,1.57365,0.785915,-1.57413,-0.522189,-0.00233481,-2.09334,-1.57319,1.5751,0.785636,-0.180204,0.0626421,-0.110104,0.048083,-0.124306,0.205703,-0.00261519,-0.239277,0.0999531,-0.17997,0.074374,-0.156942,0.306531,0.015895,-10.4678,-4.80563,-13.775,22.2135,-2.32512,-0.746862,-0.122488,-0.70621,-1.24485,0.732801,3.62325,-1.19009,-0.221158,-0.340333
2573259,0.95,-1.57282,-0.521781,-0.0019385,-2.09624,-1.57103,1.5739,0.785914,-1.57438,-0.522085,-0.00252477,-2.09326,-1.57335,1.57542,0.785653,-0.195168,0.0657093,-0.114775,0.052395,-0.130032,0.218749,-0.00198082,-0.24959,0.104454,-0.18996,0.0776741,-0.16257,0.319826,0.0165053,-10.7217,-4.62711,-14.255,22.1897,-2.3416,-0.701085,-0.116079,-0.745131,-1.21322,0.677454,3.62378,-1.19846,-0.211269,-0.337783
2573260,0.95,-1.57306,-0.521697,-0.00205932,-2.09619,-1.57118,1.57418,0.78592,-1.57464,-0.521976,-0.00272472,-2.09318,-1.57352,1.57575,0.78567,-0.205547,0.0689393,-0.117622,0.0551811,-0.138073,0.23521,-0.000608468,-0.259903,0.108954,-0.19995,0.0809741,-0.168198,0.333121,0.0171157,-10.7971,-4.5795,-14.9136,22.1897,-2.39836,-0.720311,-0.135305,-0.784477,-1.17123,0.616661,3.61986,-1.20632,-0.201635,-0.335102
2573261,0.95,-1.57328,-0.521608,-0.00221312,-2.09613,-1.57133,1.57447,0.785918,-1.57491,-0.521862,-0.00293466,-2.0931,-1.5737,1.5761,0.785688,-0.208264,0.0760461,-0.126556,0.0576673,-0.138528,0.25305,-0.000405645,-0.270216,0.113455,-0.20994,0.0842742,-0.173825,0.346416,0.017726,-11.2018,-4.50412,-15.3976,22.1619,-2.47709,-0.746862,-0.135305,-0.826032,-1.12534,0.548475,3.61489,-1.21387,-0.192495,-0.332243
2573262,0.95,-1.57352,-0.521512,-0.00237309,-2.09606,-1.57149,1.57479,0.785919,-1.57519,-0.521744,-0.00315459,-2.09301,-1.57388,1.57646,0.785706,-0.215711,0.0821776,-0.135188,0.0602709,-0.145082,0.274033,-0.000745148,-0.280528,0.117956,-0.21993,0.0875743,-0.179453,0.359711,0.0183363,-11.6818,-4.47635,-15.953,22.0905,-2.52287,-0.855809,-0.122488,-0.871995,-1.08551,0.471384,3.61389,-1.22141,-0.184217,-0.329208
2573263,0.95,-1.57378,-0.521411,-0.00253548,-2.09598,-1.57167,1.57513,0.785918,-1.57548,-0.521622,-0.00338451,-2.09292,-1.57406,1.57683,0.785725,-0.227026,0.0877726,-0.142894,0.0666894,-0.157655,0.29661,-0.000971483,-0.290841,0.122456,-0.22992,0.0908744,-0.185081,0.373005,0.0189466,-11.9079,-4.47635,-16.5878,21.9873,-2.489,-1.04899,-0.10967,-0.921443,-1.05653,0.387725,3.61838,-1.22907,-0.176762,-0.326012
2573264,0.95,-1.57405,-0.521307,-0.00270971,-2.09591,-1.57185,1.57547,0.785927,-1.57578,-0.521495,-0.00362442,-2.09282,-1.57425,1.57722,0.785745,-0.24177,0.0932234,-0.148757,0.0698417,-0.166778,0.314091,0.00104777,-0.301154,0.126957,-0.23991,0.0941745,-0.190709,0.3863,0.0195569,-12.2095,-4.42477,-17.0916,21.9397,-2.44871,-1.12681,-0.155447,-0.971608,-1.03672,0.30113,3.62617,-1.23675,-0.169884,-0.322665
2573265,0.95,-1.57431,-0.521199,-0.00290134,-2.09583,-1.57203,1.57582,0.785925,-1.57609,-0.521363,-0.00387432,-2.09273,-1.57445,1.57762,0.785765,-0.250102,0.0946535,-0.163565,0.0735755,-0.174393,0.324594,-0.000284834,-0.311466,0.131457,-0.2499,0.0974746,-0.196337,0.399595,0.0201672,-12.5625,-4.3494,-17.4209,21.8644,-2.39287,-1.13962,-0.128897,-1.0186,-1.02133,0.216776,3.63485,-1.24428,-0.163108,-0.319191
2573266,0.95,-1.5746,-0.521092,-0.00308958,-2.09574,-1.57222,1.5762,0.78593,-1.57641,-0.521227,-0.00413421,-2.09263,-1.57465,1.57803,0.785786,-0.255706,0.100364,-0.168162,0.0740507,-0.179219,0.338142,0.000284829,-0.321464,0.136306,-0.25989,0.101018,-0.201556,0.413331,0.0207726,-12.7887,-4.22244,-17.8533,21.8405,-2.35899,-1.15885,-0.141714,-1.06155,-1.00626,0.136536,3.6436,-1.25161,-0.15626,-0.315644
2573267,0.95,-1.57488,-0.520984,-0.00327771,-2.09566,-1.57242,1.57659,0.785923,-1.57674,-0.521086,-0.00440409,-2.09252,-1.57486,1.57846,0.785807,-0.267424,0.103024,-0.173449,0.0782709,-0.183701,0.353574,-0.00242106,-0.331462,0.141154,-0.26988,0.104562,-0.206776,0.427067,0.021378,-12.991,-4.04788,-18.3056,21.8167,-2.30223,-1.1973,-0.0712183,-1.10516,-0.991074,0.054029,3.65314,-1.2588,-0.149994,-0.312068
2573268,0.95,-1.57518,-0.520866,-0.00347398,-2.09557,-1.57261,1.57699,0.785926,-1.57709,-0.52094,-0.00468396,-2.09241,-1.57507,1.5789,0.785829,-0.275957,0.105074,-0.179617,0.0830314,-0.183008,0.365572,-0.000901965,-0.34146,0.146002,-0.27987,0.108105,-0.211995,0.440803,0.0219834,-13.2965,-3.9725,-18.5873,21.8644,-2.34709,-1.14603,-0.0904444,-1.15318,-0.972016,-0.0367189,3.66139,-1.2658,-0.144802,-0.308481
2573269,0.95,-1.57548,-0.520745,-0.00368352,-2.09547,-1.5728,1.5774,0.785927,-1.57744,-0.520789,-0.00497382,-2.0923,-1.57529,1.57936,0.785851,-0.281076,0.111026,-0.188392,0.09093,-0.186225,0.379855,-0.00131339,-0.351457,0.150851,-0.28986,0.111649,-0.217215,0.454539,0.0225887,-13.4195,-3.84555,-18.8134,21.7414,-2.40935,-1.08103,-0.0712183,-1.20701,-0.944325,-0.137644,3.66462,-1.27244,-0.140749,-0.304873
2573270,0.95,-1.5758,-0.520616,-0.00389424,-2.09537,-1.57301,1.57784,0.78593,-1.5778,-0.520633,-0.00527367,-2.09219,-1.57551,1.57982,0.785875,-0.295041,0.11755,-0.19381,0.0936811,-0.189643,0.397704,-0.000400873,-0.361455,0.155699,-0.29985,0.115192,-0.222435,0.468275,0.0231941,-13.3719,-3.79398,-19.0673,21.7176,-2.4716,-1.0618,-0.0840357,-1.26706,-0.91118,-0.248685,3.66303,-1.27871,-0.137797,-0.301215
2573271,0.95,-1.57613,-0.520477,-0.00411963,-2.09526,-1.57322,1.5783,0.785933,-1.57817,-0.520473,-0.00558351,-2.09207,-1.57574,1.58031,0.785898,-0.297815,0.126026,-0.199875,0.101586,-0.193591,0.418137,0.000682187,-0.371453,0.160547,-0.30984,0.118736,-0.227654,0.482011,0.0237995,-13.4473,-3.7424,-19.2181,21.6144,-2.49449,-1.1204,-0.10967,-1.33393,-0.880525,-0.370456,3.65985,-1.28482,-0.136033,-0.29748
2573272,0.95,-1.57646,-0.520324,-0.004364,-2.09515,-1.57345,1.57879,0.785935,-1.57855,-0.520308,-0.00590334,-2.09195,-1.57597,1.5808,0.785923,-0.308658,0.131319,-0.214734,0.102134,-0.202147,0.441326,-1.99266e-05,-0.381451,0.165395,-0.31983,0.12228,-0.232874,0.495747,0.0244049,-13.4473,-3.82175,-19.1943,21.5668,-2.49449,-1.25498,-0.0968531,-1.40714,-0.858273,-0.501594,3.65801,-1.29095,-0.135441,-0.293674
2573273,0.95,-1.57682,-0.52018,-0.00460051,-2.09503,-1.57367,1.57928,0.785936,-1.57894,-0.520137,-0.00623316,-2.09182,-1.57621,1.58131,0.785948,-0.321852,0.135938,-0.221319,0.107481,-0.209592,0.455817,-0.00096272,-0.391448,0.170244,-0.32982,0.125823,-0.238094,0.509483,0.0250102,-13.3719,-3.77017,-19.345,21.4676,-2.46062,-1.35203,-0.0712183,-1.48127,-0.84457,-0.634007,3.65879,-1.2971,-0.135307,-0.289826
2573274,0.95,-1.57717,-0.520026,-0.00485562,-2.0949,-1.5739,1.57979,0.785936,-1.57935,-0.519962,-0.00657297,-2.09169,-1.57645,1.58183,0.785974,-0.331107,0.142767,-0.231531,0.111334,-0.214773,0.477672,-0.00209988,-0.401446,0.175092,-0.33981,0.129367,-0.243313,0.523219,0.0256156,-13.2965,-3.7424,-19.3728,21.3446,-2.42033,-1.30716,-0.0318506,-1.55204,-0.836696,-0.762132,3.6615,-1.30318,-0.135161,-0.285949
2573275,0.95,-1.57753,-0.519872,-0.00510738,-2.09478,-1.57415,1.5803,0.785944,-1.57976,-0.519782,-0.00692277,-2.09156,-1.5767,1.58237,0.786,-0.34143,0.146744,-0.241005,0.115921,-0.223737,0.491251,-0.00139992,-0.411444,0.17994,-0.3498,0.13291,-0.248533,0.536955,0.026221,-13.3441,-3.7186,-19.4958,21.2931,-2.38096,-1.21012,-0.0318506,-1.61855,-0.832598,-0.8851,3.66494,-1.30914,-0.135065,-0.282022
2573276,0.95,-1.5779,-0.519716,-0.00538082,-2.09466,-1.5744,1.58083,0.785945,-1.58018,-0.519597,-0.00728256,-2.09142,-1.57695,1.58292,0.786027,-0.347063,0.149088,-0.247934,0.121456,-0.230357,0.502649,-0.00164535,-0.420355,0.184932,-0.35979,0.136574,-0.253115,0.550656,0.0268024,-13.4473,-3.59164,-19.5989,21.3169,-2.3416,-1.15244,-0.0126246,-1.68154,-0.826566,-1.00421,3.66619,-1.31484,-0.135055,-0.278005
2573277,0.95,-1.57828,-0.519547,-0.00567085,-2.09452,-1.57465,1.58138,0.78595,-1.58061,-0.519407,-0.00765234,-2.09128,-1.57721,1.58349,0.786054,-0.368015,0.15235,-0.258173,0.125793,-0.234781,0.519464,0.00313952,-0.429265,0.189924,-0.36978,0.140238,-0.257698,0.564358,0.0273839,-13.4473,-3.56784,-19.6227,21.3169,-2.31322,-1.17167,0.00660151,-1.74042,-0.810953,-1.11933,3.66154,-1.32007,-0.134751,-0.27388
2573278,0.95,-1.57867,-0.519389,-0.00596835,-2.09439,-1.5749,1.58195,0.785948,-1.58104,-0.519212,-0.00803211,-2.09114,-1.57747,1.58406,0.786082,-0.375572,0.154304,-0.275675,0.133638,-0.237173,0.53269,9.78881e-05,-0.438176,0.194916,-0.37977,0.143902,-0.26228,0.57806,0.0279654,-13.4949,-3.44089,-19.6227,21.2693,-2.31322,-1.22934,0.071604,-1.78929,-0.780601,-1.22226,3.64847,-1.32451,-0.133011,-0.269637
2573279,0.95,-1.57909,-0.519214,-0.00628178,-2.09424,-1.57515,1.58253,0.78596,-1.58149,-0.519013,-0.00842187,-2.09099,-1.57774,1.58466,0.78611,-0.385149,0.163765,-0.282892,0.136544,-0.238917,0.549139,0.00647199,-0.447087,0.199908,-0.38976,0.147566,-0.266863,0.591762,0.0285468,-13.3719,-3.44089,-19.5751,21.1701,-2.31871,-1.31998,0.038645,-1.82583,-0.737949,-1.30862,3.62797,-1.32807,-0.129392,-0.265233
2573280,0.95,-1.5795,-0.519033,-0.00659478,-2.09409,-1.57542,1.58312,0.785974,-1.58195,-0.518808,-0.00882162,-2.09084,-1.57801,1.58526,0.78614,-0.393006,0.169709,-0.297673,0.141841,-0.249421,0.559962,0.0114854,-0.455998,0.2049,-0.39975,0.15123,-0.271445,0.605464,0.0291283,-13.2172,-3.41708,-19.472,21.0431,-2.3361,-1.38407,-0.00621587,-1.85376,-0.694121,-1.38252,3.60561,-1.33098,-0.124596,-0.260589
2573281,0.95,-1.57992,-0.518838,-0.0069257,-2.09394,-1.57568,1.58373,0.785988,-1.58241,-0.518598,-0.00923136,-2.09068,-1.57829,1.58588,0.786169,-0.399088,0.181025,-0.309527,0.146021,-0.252857,0.569368,0.013893,-0.464908,0.209892,-0.40974,0.154894,-0.276028,0.619166,0.0297098,-13.1418,-3.51627,-19.3966,20.9955,-2.3416,-1.38407,-0.0190333,-1.87546,-0.659904,-1.44641,3.58661,-1.33351,-0.119218,-0.255689
2573282,0.95,-1.58033,-0.518636,-0.00727687,-2.09378,-1.57596,1.58434,0.786001,-1.58289,-0.518383,-0.00965109,-2.09052,-1.57857,1.58651,0.7862,-0.395933,0.188189,-0.320624,0.152836,-0.254398,0.580538,0.0150451,-0.473819,0.214884,-0.41973,0.158558,-0.28061,0.632868,0.0302912,-13.2965,-3.61942,-19.2181,20.8725,-2.36449,-1.33921,-0.0126246,-1.89533,-0.642213,-1.50551,3.57367,-1.33594,-0.114112,-0.250607
2573283,0.95,-1.58075,-0.518434,-0.0076268,-2.09361,-1.57623,1.58496,0.786002,-1.58337,-0.518163,-0.0100808,-2.09036,-1.57885,1.58716,0.78623,-0.407435,0.188948,-0.333257,0.154173,-0.256652,0.592357,0.0105704,-0.48273,0.219876,-0.42972,0.162222,-0.285193,0.646569,0.0308727,-13.2687,-3.7186,-19.1189,20.7218,-2.36998,-1.26139,0.135691,-1.91791,-0.637413,-1.56582,3.5653,-1.33843,-0.109967,-0.245456
2573284,0.95,-1.58119,-0.518229,-0.00798234,-2.09345,-1.57651,1.5856,0.786029,-1.58386,-0.517938,-0.0105205,-2.0902,-1.57914,1.58782,0.786262,-0.414181,0.193737,-0.335973,0.156046,-0.263799,0.604066,0.0157969,-0.49164,0.224868,-0.43971,0.165886,-0.289775,0.660271,0.0314541,-13.2965,-3.77017,-19.1427,20.7218,-2.35899,-1.22294,0.0651953,-1.94405,-0.63525,-1.62944,3.55851,-1.34103,-0.106757,-0.240251
2573285,0.95,-1.58164,-0.518022,-0.00834809,-2.09328,-1.57679,1.58624,0.786043,-1.58436,-0.517708,-0.0109702,-2.09003,-1.57944,1.58849,0.786294,-0.430227,0.196446,-0.35049,0.156716,-0.268562,0.616652,0.0200377,-0.500551,0.22986,-0.4497,0.169549,-0.294358,0.673973,0.0320356,-13.1418,-3.69479,-19.1189,20.7456,-2.35899,-1.17807,0.110056,-1.97248,-0.631172,-1.69585,3.55288,-1.34377,-0.104135,-0.234904
2573286,0.95,-1.5821,-0.517813,-0.0087266,-2.09311,-1.57708,1.58691,0.786068,-1.58487,-0.517473,-0.0114299,-2.08985,-1.57973,1.58918,0.786326,-0.43642,0.202061,-0.358003,0.160067,-0.272649,0.62967,0.0221953,-0.50784,0.234829,-0.45969,0.173247,-0.298183,0.687347,0.0325828,-13.0942,-3.69479,-19.0673,20.698,-2.34709,-1.14603,0.0523779,-1.99956,-0.624616,-1.76037,3.54872,-1.34661,-0.101422,-0.229361
2573287,0.95,-1.58256,-0.517589,-0.00912317,-2.09293,-1.57737,1.58759,0.786086,-1.58538,-0.517234,-0.0118996,-2.08968,-1.58004,1.58988,0.78636,-0.434972,0.207237,-0.369751,0.167378,-0.27576,0.649758,0.0201845,-0.515129,0.239798,-0.46968,0.176944,-0.302008,0.700721,0.03313,-13.3203,-3.79398,-18.9919,20.6702,-2.31871,-1.21653,0.09083,-2.02708,-0.61568,-1.82501,3.54461,-1.34952,-0.0987976,-0.223647
2573288,0.95,-1.58303,-0.517365,-0.00953837,-2.09275,-1.57765,1.5883,0.786108,-1.58591,-0.516989,-0.0123793,-2.0895,-1.58034,1.5906,0.786393,-0.445886,0.208959,-0.382021,0.172499,-0.278296,0.666782,0.0241902,-0.522418,0.244767,-0.47967,0.180642,-0.305832,0.714094,0.0336771,-13.4473,-3.86935,-18.7896,20.6702,-2.30223,-1.33921,0.110056,-2.05867,-0.601155,-1.89392,3.53654,-1.35237,-0.0967652,-0.217837
2573289,0.95,-1.5835,-0.517126,-0.00995366,-2.09256,-1.57796,1.589,0.78613,-1.58644,-0.516739,-0.0128689,-2.08931,-1.58065,1.59132,0.786428,-0.451533,0.217874,-0.388861,0.178068,-0.282903,0.678032,0.0225929,-0.529707,0.249736,-0.48966,0.184339,-0.309657,0.727468,0.0342243,-13.5226,-4.02011,-18.6627,20.6702,-2.33061,-1.31357,0.122873,-2.09332,-0.579407,-1.9653,3.52249,-1.35501,-0.0952169,-0.211968
2573290,0.95,-1.58399,-0.516878,-0.0103804,-2.09237,-1.57826,1.58972,0.786151,-1.58697,-0.516484,-0.0133686,-2.08912,-1.58096,1.59206,0.786462,-0.466922,0.227088,-0.398974,0.184267,-0.285699,0.692083,0.021075,-0.536996,0.254706,-0.49965,0.188036,-0.313482,0.740842,0.0347715,-13.4195,-4.22244,-18.6111,20.6464,-2.37547,-1.29343,0.149424,-2.12956,-0.558557,-2.03702,3.5055,-1.35748,-0.0940999,-0.206001
2573291,0.95,-1.58449,-0.51663,-0.0108138,-2.09217,-1.57856,1.59047,0.786179,-1.58752,-0.516225,-0.0138782,-2.08893,-1.58128,1.59282,0.786498,-0.479841,0.234996,-0.411758,0.191177,-0.288577,0.704072,0.0220392,-0.544285,0.259675,-0.50964,0.191734,-0.317307,0.754216,0.0353187,-13.2449,-4.40097,-18.5119,20.5234,-2.40935,-1.24857,0.116465,-2.16269,-0.547128,-2.10243,3.48873,-1.35979,-0.0928609,-0.199886
2573292,0.95,-1.58498,-0.516372,-0.0112632,-2.09197,-1.57886,1.59122,0.786206,-1.58807,-0.51596,-0.0143978,-2.08874,-1.5816,1.59359,0.786533,-0.478413,0.242183,-0.423152,0.188809,-0.296134,0.735434,0.0264998,-0.551574,0.264644,-0.51963,0.195431,-0.321132,0.767589,0.0358659,-13.3957,-4.55173,-18.3849,20.571,-2.42033,-1.23575,0.110056,-2.19093,-0.549754,-2.15821,3.4754,-1.36206,-0.0913487,-0.193611
2573293,0.95,-1.58547,-0.516124,-0.0117223,-2.09177,-1.57918,1.592,0.786238,-1.58863,-0.515691,-0.0149275,-2.08854,-1.58193,1.59437,0.78657,-0.482423,0.248418,-0.435727,0.191078,-0.302342,0.747276,0.0306739,-0.558863,0.269613,-0.52962,0.199128,-0.324957,0.780963,0.0364131,-13.4949,-4.55173,-18.1548,20.5988,-2.42033,-1.30716,0.0780126,-2.21957,-0.570195,-2.2103,3.4702,-1.36463,-0.0904418,-0.18721
2573294,0.95,-1.58599,-0.515866,-0.0121986,-2.09157,-1.5795,1.59279,0.786265,-1.58919,-0.515416,-0.0154671,-2.08833,-1.58226,1.59516,0.786607,-0.4883,0.249604,-0.450929,0.193607,-0.302891,0.758998,0.0321662,-0.566152,0.274582,-0.53961,0.202826,-0.328782,0.794337,0.0369602,-13.4195,-4.52792,-18.0557,20.6226,-2.40385,-1.32639,0.09083,-2.25013,-0.603326,-2.25989,3.47262,-1.36762,-0.0901652,-0.180768
2573295,0.95,-1.58651,-0.5156,-0.0126985,-2.09136,-1.57981,1.59357,0.786299,-1.58977,-0.515136,-0.0160167,-2.08813,-1.58259,1.59597,0.786644,-0.513504,0.255158,-0.465973,0.202332,-0.302896,0.767805,0.0356618,-0.573441,0.279551,-0.5496,0.206523,-0.332607,0.807711,0.0375074,-13.3203,-4.50412,-17.9287,20.6702,-2.38646,-1.22294,0.0459692,-2.27416,-0.636061,-2.29574,3.47591,-1.37066,-0.0889656,-0.174391
2573296,0.95,-1.58704,-0.515326,-0.0132017,-2.09115,-1.58013,1.59439,0.786334,-1.59035,-0.514852,-0.0165763,-2.08792,-1.58292,1.59679,0.786682,-0.519133,0.255342,-0.474048,0.206418,-0.309883,0.78139,0.0323735,-0.578781,0.284363,-0.55959,0.210193,-0.335628,0.82057,0.0380152,-13.2172,-4.5795,-17.6748,20.6702,-2.32512,-1.18448,0.0194189,-2.28375,-0.65685,-2.30855,3.473,-1.37334,-0.0855101,-0.168172
2573297,0.95,-1.58759,-0.51504,-0.0137254,-2.09093,-1.58046,1.59524,0.786361,-1.59093,-0.514563,-0.0171458,-2.0877,-1.58326,1.59762,0.786721,-0.525528,0.263785,-0.485923,0.208531,-0.316605,0.799423,0.0316612,-0.584121,0.289175,-0.56958,0.213863,-0.338649,0.83343,0.0385229,-13.0188,-4.67868,-17.4963,20.6464,-2.3361,-1.34562,0.0780126,-2.28304,-0.663492,-2.30496,3.46273,-1.37562,-0.0803726,-0.162188
2573298,0.95,-1.58814,-0.514747,-0.0142568,-2.09071,-1.58079,1.59609,0.786388,-1.59152,-0.514269,-0.0177254,-2.08749,-1.58361,1.59847,0.78676,-0.533763,0.272834,-0.513534,0.214235,-0.3175,0.819698,0.0313498,-0.589461,0.293987,-0.57957,0.217533,-0.341671,0.846289,0.0390307,-12.9434,-4.80563,-17.2701,20.6226,-2.3416,-1.44175,0.135691,-2.2747,-0.666734,-2.28725,3.45067,-1.37759,-0.0741338,-0.156472
2573299,0.94,-1.58871,-0.514454,-0.0148039,-2.09048,-1.58111,1.59693,0.786425,-1.59211,-0.51397,-0.018315,-2.08727,-1.58395,1.59933,0.786799,-0.540447,0.278559,-0.522328,0.218555,-0.321763,0.822949,0.0345562,-0.594801,0.298799,-0.58956,0.221204,-0.344692,0.859149,0.0395384,-12.6657,-4.95639,-16.9924,20.6226,-2.37547,-1.26139,0.103647,-2.25504,-0.67614,-2.24879,3.44087,-1.37919,-0.0665181,-0.150968
2573300,0.94,-1.58927,-0.51416,-0.0153641,-2.09025,-1.58144,1.59778,0.786467,-1.59271,-0.513666,-0.0189145,-2.08704,-1.5843,1.6002,0.78684,-0.539957,0.282112,-0.531282,0.224118,-0.329855,0.836665,0.0377983,-0.60014,0.303612,-0.59955,0.224874,-0.347713,0.872008,0.0400462,-12.511,-5.03177,-16.7385,20.5988,-2.38646,-1.07462,0.0523779,-2.22982,-0.689616,-2.19841,3.4318,-1.38056,-0.0584479,-0.145595
2573301,0.94,-1.58985,-0.513855,-0.0159319,-2.09003,-1.58178,1.59866,0.786505,-1.59332,-0.513358,-0.0195241,-2.08681,-1.58465,1.60109,0.78688,-0.55114,0.285848,-0.54933,0.224514,-0.332588,0.84796,0.0427532,-0.60548,0.308424,-0.60954,0.228544,-0.350734,0.884868,0.0405539,-12.261,-5.15872,-16.5362,20.6226,-2.38096,-1.02335,0.0523779,-2.20581,-0.701533,-2.14687,3.42141,-1.38189,-0.0507744,-0.140341
2573302,0.94,-1.59042,-0.513556,-0.0165171,-2.08979,-1.58211,1.59957,0.786541,-1.59393,-0.513045,-0.0201436,-2.08658,-1.585,1.60198,0.786921,-0.559107,0.290257,-0.5549,0.228503,-0.33341,0.86852,0.0400304,-0.61082,0.313236,-0.61953,0.232214,-0.353756,0.897727,0.0410617,-12.1103,-5.13492,-16.2307,20.5988,-2.40385,-1.04899,0.0972387,-2.1822,-0.709966,-2.09421,3.4103,-1.38328,-0.0431624,-0.135257
2573303,0.94,-1.59101,-0.513245,-0.0171176,-2.08956,-1.58244,1.60048,0.786578,-1.59455,-0.512727,-0.0207731,-2.08634,-1.58536,1.60289,0.786963,-0.569419,0.293886,-0.566821,0.228711,-0.334454,0.886083,0.0393798,-0.61616,0.318048,-0.62952,0.235884,-0.356777,0.910587,0.0415695,-11.8326,-5.18649,-16.0284,20.698,-2.42674,-1.11399,0.116465,-2.15964,-0.715409,-2.043,3.39978,-1.38485,-0.0356308,-0.130366
2573304,0.94,-1.59162,-0.51294,-0.0177214,-2.08932,-1.58279,1.60141,0.786622,-1.59517,-0.512404,-0.0214126,-2.0861,-1.58572,1.60382,0.787005,-0.582566,0.296531,-0.579047,0.23136,-0.340279,0.894849,0.0398006,-0.6215,0.322861,-0.63951,0.239554,-0.359798,0.923447,0.0420772,-11.4279,-5.15872,-15.826,20.7456,-2.43773,-1.14603,0.103647,-2.1367,-0.717223,-1.99246,3.3904,-1.38668,-0.0279765,-0.125624
2573305,0.94,-1.59224,-0.512615,-0.0183317,-2.08908,-1.58314,1.60233,0.786662,-1.5958,-0.512076,-0.0220621,-2.08586,-1.58608,1.60475,0.787047,-0.591144,0.305753,-0.586162,0.235346,-0.339893,0.900121,0.0398368,-0.626839,0.327673,-0.6495,0.243224,-0.362819,0.936306,0.042585,-11.2018,-5.36105,-15.6991,20.698,-2.42674,-1.08103,0.0972387,-2.11008,-0.716982,-1.93889,3.38281,-1.38877,-0.0197611,-0.12096
2573306,0.94,-1.59284,-0.512286,-0.0189613,-2.08883,-1.58349,1.60327,0.78671,-1.59643,-0.511744,-0.0227216,-2.08561,-1.58645,1.6057,0.78709,-0.60028,0.308284,-0.600944,0.240921,-0.34754,0.910711,0.0463803,-0.630082,0.332225,-0.65949,0.246824,-0.365043,0.948529,0.0430511,-11.1502,-5.56339,-15.473,20.6464,-2.42033,-1.0618,0.0459692,-2.07939,-0.717633,-1.88249,3.37676,-1.39117,-0.011038,-0.116345
2573307,0.94,-1.59344,-0.511948,-0.019602,-2.08858,-1.58385,1.60424,0.786754,-1.59706,-0.511407,-0.0233911,-2.08536,-1.58681,1.60666,0.787134,-0.597256,0.319893,-0.61033,0.249287,-0.350645,0.927291,0.0448161,-0.633324,0.336778,-0.66948,0.250424,-0.367267,0.960752,0.0435173,-11.2018,-5.69034,-15.4214,20.6226,-2.40935,-1.15244,0.0322363,-2.04702,-0.720611,-1.82615,3.37035,-1.39382,-0.00229967,-0.111815
2573308,0.94,-1.59406,-0.511605,-0.0202607,-2.08833,-1.58422,1.60519,0.786794,-1.5977,-0.511066,-0.0240706,-2.08511,-1.58718,1.60764,0.787178,-0.606046,0.324035,-0.624739,0.248771,-0.353187,0.939493,0.0364777,-0.636567,0.34133,-0.67947,0.254023,-0.369491,0.972975,0.0439834,-11.1502,-5.84109,-15.346,20.6702,-2.39287,-1.12681,0.0844213,-2.01709,-0.730769,-1.77436,3.36449,-1.39676,0.00567574,-0.107434
2573309,0.94,-1.59471,-0.511274,-0.0209225,-2.08808,-1.58458,1.60614,0.78684,-1.59834,-0.51072,-0.02476,-2.08485,-1.58756,1.60862,0.787222,-0.617167,0.328268,-0.635893,0.250856,-0.350685,0.933972,0.0366132,-0.639809,0.345882,-0.68946,0.257623,-0.371714,0.985198,0.0444496,-10.8963,-5.81729,-15.2429,20.7694,-2.36998,-1.01053,0.0972387,-1.98745,-0.749715,-1.72375,3.36197,-1.4,0.0132386,-0.103227
2573310,0.94,-1.59535,-0.510927,-0.0215974,-2.08782,-1.58494,1.6071,0.786889,-1.59898,-0.51037,-0.0254595,-2.08459,-1.58793,1.60962,0.787267,-0.626559,0.335898,-0.644071,0.25578,-0.352617,0.955658,0.043631,-0.643052,0.350435,-0.69945,0.261222,-0.373938,0.997421,0.0449157,-10.6979,-5.86887,-14.9889,20.821,-2.34709,-0.940038,0.0587866,-1.95417,-0.774698,-1.66967,3.36312,-1.4035,0.0211129,-0.0991679
2573311,0.94,-1.596,-0.510578,-0.0222695,-2.08757,-1.58532,1.60808,0.786944,-1.59962,-0.510015,-0.0261689,-2.08433,-1.58831,1.61063,0.787313,-0.633125,0.349046,-0.649943,0.257695,-0.359082,0.967417,0.0452308,-0.646294,0.354987,-0.70944,0.264822,-0.376162,1.00964,0.0453819,-10.4202,-5.86887,-14.7866,20.9717,-2.3416,-0.952855,-0.0190333,-1.92036,-0.81165,-1.61715,3.3701,-1.40729,0.0287423,-0.0952187
2573312,0.94,-1.59665,-0.510232,-0.0229644,-2.0873,-1.5857,1.60909,0.786993,-1.60027,-0.509655,-0.0268883,-2.08406,-1.58868,1.61165,0.787359,-0.630397,0.351153,-0.661658,0.261265,-0.363586,0.97342,0.0425981,-0.649537,0.359539,-0.71943,0.268421,-0.378386,1.02187,0.045848,-10.2417,-5.84109,-14.5367,20.9439,-2.3361,-1.05539,0.000192821,-1.89182,-0.866176,-1.57407,3.3854,-1.41148,0.0352399,-0.0914019
2573313,0.94,-1.5973,-0.509875,-0.0236703,-2.08703,-1.58607,1.61009,0.787038,-1.60093,-0.509291,-0.0276178,-2.08379,-1.58906,1.61268,0.787405,-0.651901,0.348698,-0.673667,0.265979,-0.364679,0.991471,0.0415698,-0.652779,0.364092,-0.72942,0.272021,-0.380609,1.03409,0.0463142,-10.0156,-5.89267,-14.2828,20.9955,-2.38096,-1.1204,0.00660151,-1.86684,-0.923355,-1.53811,3.40262,-1.41572,0.0410332,-0.0878376
2573314,0.94,-1.59797,-0.509509,-0.024375,-2.08676,-1.58645,1.6111,0.787087,-1.60158,-0.508922,-0.0283572,-2.08351,-1.58945,1.61373,0.787452,-0.655294,0.355499,-0.6836,0.270169,-0.370988,0.988989,0.0440676,-0.656021,0.368644,-0.73941,0.275621,-0.382833,1.04631,0.0467803,-9.71404,-6.095,-14.128,20.9955,-2.43223,-1.04258,0.0459692,-1.83742,-0.964828,-1.49908,3.41338,-1.41953,0.0473308,-0.0846176
2573315,0.94,-1.59863,-0.509137,-0.0251007,-2.08649,-1.58683,1.61212,0.78715,-1.60224,-0.508549,-0.0291066,-2.08323,-1.58983,1.61479,0.787499,-0.653713,0.360375,-0.698125,0.271013,-0.368259,0.994174,0.05103,-0.659264,0.373197,-0.7494,0.27922,-0.385057,1.05854,0.0472464,-9.53551,-6.29733,-14.0051,21.0193,-2.42674,-0.984899,-0.044668,-1.80245,-0.99188,-1.45487,3.41859,-1.42301,0.0542447,-0.0817201
2573316,0.95,-1.59927,-0.508763,-0.0258331,-2.08621,-1.58722,1.61315,0.787197,-1.6029,-0.508172,-0.029866,-2.08295,-1.59022,1.61586,0.787547,-0.646311,0.361914,-0.727798,0.277814,-0.371262,1.00141,0.0507449,-0.660414,0.377415,-0.759389,0.282715,-0.386527,1.07004,0.0476703,-9.66246,-6.34891,-13.9257,21.1423,-2.42033,-1.01053,0.00660151,-1.76286,-1.00907,-1.40391,3.42065,-1.42638,0.0616944,-0.0791304
2573317,0.96,-1.59993,-0.508387,-0.0265757,-2.08594,-1.5876,1.61422,0.787253,-1.60356,-0.50779,-0.0306353,-2.08266,-1.59061,1.61694,0.787595,-0.644849,0.369622,-0.730867,0.276441,-0.380132,1.01491,0.052522,-0.661564,0.381634,-0.769378,0.286211,-0.387996,1.08154,0.0480941,-9.76165,-6.44809,-13.9019,21.2693,-2.34709,-1.19089,0.00660151,-1.71998,-1.01817,-1.34571,3.42034,-1.42968,0.0694881,-0.0768666
2573318,0.97,-1.60061,-0.508005,-0.0273193,-2.08565,-1.58799,1.61527,0.787313,-1.60423,-0.507404,-0.0314147,-2.08237,-1.591,1.61803,0.787643,-0.652943,0.37202,-0.732102,0.278474,-0.377817,1.02515,0.0550336,-0.662714,0.385853,-0.779368,0.289706,-0.389466,1.09304,0.048518,-9.76165,-6.49966,-14.0804,21.3446,-2.36998,-1.20371,-0.0126246,-1.68309,-1.0257,-1.2946,3.42164,-1.43323,0.0760075,-0.0748859
2573319,0.98,-1.60127,-0.507632,-0.0280524,-2.08536,-1.58837,1.61631,0.787372,-1.60489,-0.507014,-0.0322041,-2.08208,-1.59139,1.61914,0.787692,-0.656102,0.373379,-0.724997,0.277985,-0.380833,1.03277,0.0565348,-0.663864,0.390072,-0.789357,0.293201,-0.390936,1.10454,0.0489418,-9.76165,-6.49966,-14.2074,21.3922,-2.41484,-0.946447,-0.0318506,-1.66324,-1.03229,-1.26982,3.42616,-1.43743,0.0793544,-0.0731384
2573320,0.98,-1.60193,-0.50724,-0.0288109,-2.08507,-1.58876,1.61739,0.78743,-1.60556,-0.50662,-0.0330034,-2.08178,-1.59178,1.62025,0.787741,-0.650332,0.38474,-0.728526,0.281669,-0.383784,1.04411,0.0571055,-0.665014,0.394291,-0.799346,0.296696,-0.392406,1.11604,0.0493657,-9.91637,-6.59885,-14.1796,21.3684,-2.44322,-0.830175,-0.0382593,-1.66966,-1.03976,-1.28633,3.4347,-1.44254,0.0781114,-0.0716063
2573321,0.98,-1.60257,-0.506839,-0.0295782,-2.08478,-1.58915,1.61849,0.787483,-1.60622,-0.506221,-0.0338127,-2.08148,-1.59217,1.62138,0.787791,-0.647402,0.385727,-0.735323,0.28645,-0.383302,1.0645,0.0513084,-0.666164,0.398509,-0.809335,0.300191,-0.393876,1.12754,0.0497895,-10.0909,-6.75357,-14.1558,21.3922,-2.43223,-1.02976,0.000192821,-1.70617,-1.05384,-1.34849,3.44816,-1.44867,0.071909,-0.0702939
2573322,0.98,-1.60323,-0.50645,-0.0303516,-2.08448,-1.58953,1.61963,0.787537,-1.60689,-0.505819,-0.0346321,-2.08118,-1.59257,1.62252,0.787841,-0.645112,0.389582,-0.747336,0.291834,-0.382122,1.07836,0.0514878,-0.667314,0.402728,-0.819324,0.303686,-0.395346,1.13904,0.0502134,-10.1425,-6.77737,-14.0289,21.3922,-2.42674,-1.27421,0.038645,-1.7674,-1.06935,-1.44659,3.46203,-1.45548,0.0618701,-0.0692237
2573323,0.98,-1.60391,-0.506049,-0.0311532,-2.08417,-1.58991,1.62073,0.787594,-1.60756,-0.505412,-0.0354614,-2.08087,-1.59297,1.62367,0.787892,-0.652498,0.394769,-0.754923,0.297778,-0.377731,1.09775,0.0494306,-0.668464,0.406947,-0.829313,0.307182,-0.396816,1.15054,0.0506372,-9.94017,-6.85275,-13.8265,21.2693,-2.489,-1.13962,0.0130102,-1.84286,-1.07974,-1.56445,3.47179,-1.46257,0.0495797,-0.0683614
2573324,0.98,-1.60459,-0.505651,-0.031936,-2.08387,-1.5903,1.62186,0.787657,-1.60823,-0.505,-0.0363007,-2.08056,-1.59336,1.62483,0.787943,-0.664205,0.400696,-0.767502,0.298334,-0.389662,1.10582,0.0492187,-0.669614,0.411166,-0.839303,0.310677,-0.398285,1.16204,0.0510611,-9.58709,-6.87656,-13.8503,21.2931,-2.49449,-1.13321,-0.0510767,-1.91947,-1.08702,-1.68341,3.4782,-1.4696,0.0367263,-0.0676034
2573325,0.98,-1.60527,-0.505231,-0.032746,-2.08356,-1.5907,1.62301,0.787722,-1.6089,-0.504585,-0.03715,-2.08025,-1.59376,1.62601,0.787995,-0.664337,0.40908,-0.777901,0.303446,-0.393246,1.11981,0.0536887,-0.670764,0.415385,-0.849292,0.314172,-0.399755,1.17354,0.0514849,-9.36095,-7.00351,-13.775,21.1939,-2.44871,-1.19089,-0.116079,-1.98666,-1.09779,-1.78858,3.48509,-1.47645,0.0247315,-0.0668817
2573326,0.98,-1.60591,-0.504819,-0.033583,-2.08325,-1.59111,1.62416,0.787777,-1.60957,-0.504166,-0.0380086,-2.07993,-1.59416,1.62719,0.788046,-0.657926,0.409358,-0.797721,0.303806,-0.396542,1.13342,0.0531674,-0.669955,0.419224,-0.858581,0.317533,-0.400542,1.18426,0.0518663,-9.48394,-6.97971,-13.4734,21.1701,-2.36449,-1.21012,-0.0712183,-2.04168,-1.11446,-1.87514,3.49423,-1.4831,0.0139826,-0.0662664
2573327,0.98,-1.60658,-0.504405,-0.0344148,-2.08294,-1.59151,1.62532,0.787823,-1.61024,-0.503743,-0.0388764,-2.07961,-1.59457,1.62839,0.788099,-0.656902,0.414081,-0.80626,0.301102,-0.401772,1.13756,0.049848,-0.669145,0.423063,-0.867871,0.320894,-0.401328,1.19497,0.0522476,-9.46013,-7.05508,-13.2671,21.1701,-2.35258,-1.12681,0.0459692,-2.08622,-1.134,-1.94437,3.50625,-1.48956,0.00428675,-0.0658647
2573328,0.98,-1.60727,-0.503986,-0.0352595,-2.08262,-1.59191,1.62648,0.787889,-1.61091,-0.503316,-0.0397536,-2.07928,-1.59497,1.62959,0.788151,-0.667979,0.419278,-0.812975,0.301961,-0.39907,1.14081,0.0540639,-0.668335,0.426902,-0.87716,0.324255,-0.402114,1.20569,0.052629,-9.18242,-7.07889,-13.2195,21.1185,-2.36449,-0.868627,0.000192821,-2.12177,-1.15733,-1.99896,3.52389,-1.49593,-0.00443291,-0.0656343
2573329,0.98,-1.60794,-0.503559,-0.0361121,-2.0823,-1.59231,1.62762,0.787944,-1.61157,-0.502885,-0.04064,-2.07896,-1.59537,1.63081,0.788204,-0.67105,0.421693,-0.818839,0.311313,-0.396274,1.1438,0.058754,-0.667525,0.430741,-0.88645,0.327616,-0.402901,1.2164,0.0530103,-9.00786,-7.07889,-12.9894,21.0193,-2.41484,-0.611364,0.0322363,-2.14873,-1.18203,-2.04173,3.5447,-1.50215,-0.0119216,-0.0654614
2573330,0.98,-1.60861,-0.503137,-0.0369899,-2.08197,-1.59271,1.62883,0.788005,-1.61224,-0.502451,-0.0415358,-2.07862,-1.59577,1.63204,0.788258,-0.668467,0.42432,-0.833798,0.315781,-0.401408,1.16197,0.0596754,-0.666716,0.43458,-0.895739,0.330976,-0.403687,1.22712,0.0533916,-8.82933,-7.15427,-12.561,20.9439,-2.40385,-0.694677,0.00660151,-2.16845,-1.19817,-2.0756,3.56024,-1.50802,-0.017883,-0.0653004
2573331,0.98,-1.60931,-0.502711,-0.0378797,-2.08164,-1.59311,1.63003,0.788052,-1.61291,-0.502012,-0.0424408,-2.07829,-1.59618,1.63327,0.788312,-0.675597,0.423226,-0.846309,0.317749,-0.403493,1.18362,0.0523119,-0.665906,0.438419,-0.905029,0.334337,-0.404474,1.23783,0.053773,-8.32549,-7.20584,-12.1047,20.821,-2.42033,-0.830175,0.071604,-2.1807,-1.19789,-2.09967,3.56548,-1.51329,-0.0219479,-0.0651334
2573332,0.98,-1.60998,-0.502287,-0.0387614,-2.0813,-1.59351,1.63125,0.788106,-1.61357,-0.50157,-0.0433551,-2.07795,-1.59658,1.63452,0.788366,-0.668216,0.41925,-0.854934,0.321817,-0.400501,1.19337,0.0530602,-0.665096,0.442258,-0.914318,0.337698,-0.40526,1.24855,0.0541543,-8.04778,-7.23361,-11.7516,20.7456,-2.45512,-0.823766,0.0972387,-2.18564,-1.17314,-2.11389,3.55766,-1.51789,-0.0240924,-0.0649393
2573333,0.98,-1.61065,-0.501841,-0.0396639,-2.08096,-1.59392,1.63248,0.78816,-1.61424,-0.501124,-0.0442787,-2.07761,-1.59699,1.63578,0.78842,-0.665706,0.426128,-0.855901,0.323586,-0.39935,1.19241,0.05942,-0.664286,0.446098,-0.923608,0.341059,-0.406047,1.25926,0.0545357,-7.86925,-7.3566,-11.3708,20.698,-2.46062,-0.701085,0.0972387,-2.19085,-1.12281,-2.12927,3.53677,-1.52216,-0.0255275,-0.0646578
2573334,0.98,-1.61133,-0.501393,-0.040567,-2.08063,-1.59433,1.6337,0.788206,-1.6149,-0.500674,-0.0452116,-2.07727,-1.5974,1.63705,0.788475,-0.671647,0.431894,-0.884122,0.329524,-0.401003,1.20184,0.0520079,-0.663477,0.449937,-0.932897,0.34442,-0.406833,1.26997,0.054917,-7.56774,-7.48355,-11.0415,20.6702,-2.39836,-0.57932,0.162241,-2.1964,-1.06072,-2.14546,3.50876,-1.52644,-0.02642,-0.0641738
2573335,0.98,-1.61201,-0.500948,-0.0414781,-2.08028,-1.59473,1.63496,0.788249,-1.61556,-0.50022,-0.0461538,-2.07692,-1.5978,1.63833,0.78853,-0.671876,0.440409,-0.890651,0.33414,-0.401894,1.20944,0.0467838,-0.662667,0.453776,-0.942187,0.347781,-0.407619,1.28069,0.0552983,-7.29003,-7.66208,-10.8907,20.6702,-2.3361,-0.572911,0.219919,-2.19135,-1.00208,-2.14583,3.47948,-1.53061,-0.0252852,-0.0633699
2573336,0.98,-1.61267,-0.500495,-0.0424265,-2.07992,-1.59513,1.6362,0.788295,-1.61622,-0.499763,-0.0471042,-2.07657,-1.59821,1.63962,0.788586,-0.667934,0.445565,-0.911167,0.338951,-0.404097,1.22173,0.0444569,-0.660132,0.457214,-0.950348,0.350978,-0.407812,1.29056,0.0556368,-7.3416,-7.76126,-10.6091,20.6226,-2.3416,-0.40537,0.24647,-2.17272,-0.955745,-2.12541,3.45203,-1.53456,-0.0217618,-0.0621277
2573337,0.98,-1.61331,-0.50004,-0.0433552,-2.07958,-1.59553,1.63747,0.788347,-1.61688,-0.499302,-0.0480627,-2.07621,-1.59862,1.64092,0.788642,-0.659851,0.453537,-0.920696,0.344804,-0.407895,1.23804,0.0438675,-0.657598,0.460653,-0.958509,0.354175,-0.408004,1.30044,0.0559753,-7.49236,-7.86441,-10.5615,20.7694,-2.36998,-0.282689,0.233652,-2.1455,-0.925631,-2.09053,3.42772,-1.53829,-0.016643,-0.0603422
2573338,0.98,-1.61399,-0.499574,-0.0442926,-2.07922,-1.59593,1.63877,0.788402,-1.61753,-0.498838,-0.0490293,-2.07586,-1.59903,1.64223,0.788698,-0.658905,0.459377,-0.922355,0.348682,-0.405681,1.26003,0.0456902,-0.655064,0.464092,-0.966671,0.357372,-0.408196,1.31032,0.0563137,-7.39318,-8.03897,-10.736,20.821,-2.36449,-0.314733,0.155832,-2.11957,-0.913401,-2.05501,3.4071,-1.54195,-0.0113715,-0.0579691
2573339,0.98,-1.61464,-0.499104,-0.0452568,-2.07886,-1.59634,1.64007,0.78845,-1.61819,-0.498371,-0.0500042,-2.0755,-1.59944,1.64355,0.788755,-0.658611,0.461081,-0.930475,0.354188,-0.404466,1.27647,0.0453661,-0.652529,0.46753,-0.974832,0.360569,-0.408389,1.32019,0.0566522,-7.46856,-8.2175,-10.5853,20.7694,-2.3361,-0.431005,0.122873,-2.10392,-0.915047,-2.03309,3.38892,-1.54578,-0.00716728,-0.0550807
2573340,0.98,-1.61529,-0.498634,-0.0462214,-2.0785,-1.59674,1.6414,0.788495,-1.61884,-0.4979,-0.0509872,-2.07513,-1.59985,1.64488,0.788812,-0.653288,0.457571,-0.934892,0.357797,-0.403109,1.28262,0.0430157,-0.649995,0.470969,-0.982993,0.363766,-0.408581,1.33007,0.0569907,-7.51616,-8.36826,-10.2044,20.7972,-2.31871,-0.507909,0.135691,-2.10063,-0.915693,-2.02934,3.36753,-1.54973,-0.00413482,-0.0518689
2573341,0.98,-1.61596,-0.498157,-0.0471939,-2.07813,-1.59713,1.64275,0.788546,-1.61948,-0.497425,-0.0519783,-2.07477,-1.60025,1.64622,0.788869,-0.657534,0.463713,-0.940289,0.357769,-0.397322,1.31456,0.0418859,-0.647461,0.474408,-0.991154,0.366964,-0.408774,1.33994,0.0573291,-7.19085,-8.54678,-10.0298,20.8448,-2.28483,-0.598546,0.135691,-2.10987,-0.905706,-2.04468,3.34048,-1.55374,-0.00234572,-0.0485242
2573342,0.98,-1.61661,-0.497699,-0.0481656,-2.07776,-1.59753,1.64409,0.78859,-1.62013,-0.496947,-0.0529776,-2.0744,-1.60066,1.64757,0.788927,-0.649645,0.471917,-0.95307,0.360632,-0.408183,1.31781,0.0408179,-0.644926,0.477846,-0.999316,0.370161,-0.408966,1.34982,0.0576676,-6.93694,-8.49521,-9.70056,20.821,-2.29033,-0.649816,0.143015,-2.12956,-0.895117,-2.07517,3.31427,-1.55788,-0.00192595,-0.0451261
2573343,0.98,-1.61726,-0.497226,-0.0491726,-2.07738,-1.59793,1.64544,0.788636,-1.62077,-0.496466,-0.0539851,-2.07402,-1.60107,1.64893,0.788985,-0.647932,0.476043,-0.96519,0.362857,-0.40449,1.3238,0.0386436,-0.642392,0.481285,-1.00748,0.373358,-0.409158,1.35969,0.0580061,-6.80999,-8.49521,-9.11737,20.8963,-2.30772,-0.598546,0.187876,-2.15429,-0.896191,-2.11135,3.29508,-1.5621,-0.00239015,-0.0416851
2573344,0.98,-1.61791,-0.496753,-0.0501811,-2.077,-1.59833,1.64678,0.788692,-1.62141,-0.495981,-0.0550007,-2.07365,-1.60148,1.6503,0.789043,-0.664957,0.473618,-0.976818,0.364302,-0.395875,1.33173,0.0414415,-0.639858,0.484723,-1.01564,0.376555,-0.409351,1.36957,0.0583445,-6.4569,-8.39603,-8.68493,21.0193,-2.3416,-0.592137,0.122873,-2.17307,-0.904189,-2.13798,3.28138,-1.56614,-0.00218857,-0.0382191
2573345,0.98,-1.61858,-0.496275,-0.0511733,-2.07663,-1.59872,1.64814,0.788743,-1.62205,-0.495493,-0.0560245,-2.07327,-1.60189,1.65168,0.789102,-0.663176,0.478531,-0.98019,0.368719,-0.398572,1.33274,0.0464394,-0.637323,0.488162,-1.0238,0.379752,-0.409543,1.37944,0.058683,-5.95305,-8.47141,-8.4826,21.0431,-2.39836,-0.475866,0.0972387,-2.17661,-0.907544,-2.14387,3.26846,-1.56981,3.55518e-05,-0.0347611
2573346,0.98,-1.61923,-0.495799,-0.052218,-2.07624,-1.59912,1.6495,0.788794,-1.62268,-0.495002,-0.0570552,-2.07288,-1.6023,1.65307,0.789161,-0.658541,0.479581,-0.991955,0.368732,-0.398169,1.33626,0.0492489,-0.633378,0.491201,-1.03062,0.382756,-0.409243,1.38844,0.0589778,-5.67534,-8.41983,-7.92718,21.1185,-2.38646,-0.379735,0.0972387,-2.16771,-0.903576,-2.13342,3.25494,-1.57326,0.00388577,-0.0313693
2573347,0.98,-1.61988,-0.495307,-0.0532362,-2.07587,-1.59951,1.65087,0.788846,-1.62331,-0.494508,-0.0580926,-2.0725,-1.60271,1.65447,0.78922,-0.654356,0.482996,-1.00465,0.370186,-0.392513,1.35151,0.0513649,-0.629432,0.494239,-1.03743,0.38576,-0.408943,1.39743,0.0592725,-5.47301,-8.44363,-7.69708,21.3446,-2.40385,-0.366002,0.0972387,-2.15156,-0.894992,-2.11275,3.24268,-1.57678,0.00861761,-0.0281253
2573348,0.98,-1.62053,-0.494826,-0.0542743,-2.07548,-1.5999,1.65227,0.788903,-1.62394,-0.494011,-0.0591369,-2.07211,-1.60312,1.65587,0.78928,-0.654304,0.484715,-1.01017,0.379776,-0.400101,1.35915,0.0543902,-0.625486,0.497278,-1.04425,0.388764,-0.408644,1.40642,0.0595673,-5.22307,-8.44363,-7.6217,21.2931,-2.35899,-0.488683,0.0587866,-2.13008,-0.880893,-2.08415,3.23035,-1.5804,0.0139256,-0.0250965
2573349,0.98,-1.62118,-0.494322,-0.0553295,-2.07509,-1.60031,1.65368,0.788965,-1.62456,-0.49351,-0.0601879,-2.07172,-1.60353,1.65729,0.78934,-0.647631,0.487712,-1.01667,0.378879,-0.401434,1.37981,0.0525445,-0.621541,0.500317,-1.05107,0.391768,-0.408344,1.41541,0.0598621,-5.14769,-8.67374,-7.41937,21.3169,-2.27385,-0.785314,0.00660151,-2.10769,-0.858978,-2.05445,3.2149,-1.58408,0.019023,-0.0223251
2573350,0.98,-1.62179,-0.493832,-0.0563776,-2.07471,-1.60071,1.65509,0.789018,-1.62518,-0.493007,-0.0612458,-2.07132,-1.60393,1.65871,0.7894,-0.637495,0.490624,-1.02268,0.385264,-0.402602,1.38698,0.0525668,-0.617595,0.503355,-1.05789,0.394771,-0.408044,1.4244,0.0601569,-5.1953,-8.72531,-6.9909,21.3169,-2.1942,-0.772496,0.038645,-2.09147,-0.831583,-2.03379,3.19722,-1.58789,0.022499,-0.0198655
2573351,0.98,-1.62244,-0.493337,-0.0574194,-2.07431,-1.60112,1.65651,0.789079,-1.62579,-0.4925,-0.0623105,-2.07092,-1.60434,1.66015,0.78946,-0.635164,0.492107,-1.02368,0.38553,-0.40758,1.38942,0.053924,-0.61365,0.506394,-1.0647,0.397775,-0.407744,1.43339,0.0604516,-4.86998,-8.69754,-6.93933,21.3922,-2.13835,-0.533544,0.038645,-2.08697,-0.801146,-2.02991,3.17861,-1.59186,0.0231782,-0.0177706
2573352,0.98,-1.62306,-0.49285,-0.0584717,-2.07392,-1.60152,1.65792,0.789128,-1.6264,-0.491991,-0.063382,-2.07052,-1.60475,1.66159,0.789521,-0.633451,0.488049,-1.0466,0.387478,-0.405445,1.39964,0.0523382,-0.609704,0.509433,-1.07152,0.400779,-0.407444,1.44238,0.0607464,-4.69146,-8.54678,-6.86395,21.3684,-2.11546,-0.495092,0.122873,-2.08909,-0.76329,-2.03567,3.15811,-1.59565,0.0217926,-0.0160461
2573353,0.98,-1.62365,-0.492357,-0.0595356,-2.07353,-1.60191,1.65936,0.789185,-1.62701,-0.491479,-0.0644604,-2.07012,-1.60516,1.66304,0.789582,-0.618868,0.494582,-1.05029,0.38681,-0.398966,1.3977,0.0524243,-0.605759,0.512471,-1.07834,0.403783,-0.407144,1.45137,0.0610412,-4.92156,-8.52298,-6.48309,21.4914,-2.21709,-0.431005,0.162241,-2.08946,-0.71646,-2.03837,3.13689,-1.59895,0.0198831,-0.0146294
2573354,0.99,-1.62426,-0.491854,-0.0606188,-2.07314,-1.60229,1.66081,0.789244,-1.62761,-0.490963,-0.0655455,-2.06971,-1.60556,1.6645,0.789643,-0.614888,0.494271,-1.05913,0.391189,-0.398234,1.41958,0.0547832,-0.601813,0.51551,-1.08516,0.406787,-0.406845,1.46036,0.0613359,-4.89379,-8.49521,-6.20538,21.6144,-2.31871,-0.533544,0.155832,-2.09079,-0.66731,-2.04103,3.11838,-1.6019,0.0173306,-0.0133777
2573355,0.99,-1.62489,-0.49135,-0.0616816,-2.07273,-1.60269,1.66226,0.789318,-1.6282,-0.490444,-0.0666375,-2.0693,-1.60597,1.66597,0.789705,-0.615015,0.50596,-1.06473,0.399136,-0.396235,1.4243,0.0602104,-0.597868,0.518549,-1.09197,0.40979,-0.406545,1.46935,0.0616307,-4.48912,-8.59836,-6.10223,21.5668,-2.36998,-0.539952,0.038645,-2.09597,-0.622588,-2.0477,3.10342,-1.60469,0.0137681,-0.0121382
2573356,0.99,-1.6255,-0.490836,-0.0627883,-2.07233,-1.60308,1.66371,0.789385,-1.6288,-0.489923,-0.0677349,-2.06889,-1.60638,1.66745,0.789767,-0.61693,0.513893,-1.06878,0.403636,-0.391449,1.42603,0.0620533,-0.592878,0.521204,-1.09739,0.412573,-0.405862,1.47742,0.0618804,-4.33837,-8.69754,-5.69757,21.5906,-2.38646,-0.386144,-0.0318506,-2.10204,-0.592234,-2.0547,3.09357,-1.60756,0.00962778,-0.0108447
2573357,0.99,-1.62608,-0.490309,-0.0639222,-2.07192,-1.60349,1.66516,0.789434,-1.62939,-0.489399,-0.0688377,-2.06848,-1.60678,1.66893,0.789829,-0.61031,0.516436,-1.08008,0.40532,-0.394066,1.44058,0.0581716,-0.587889,0.523859,-1.10282,0.415355,-0.405178,1.48548,0.0621302,-4.44152,-8.92368,-5.01519,21.5906,-2.35258,-0.295507,0.0459692,-2.10644,-0.582006,-2.05897,3.09111,-1.61077,0.00533331,-0.00958296
2573358,0.99,-1.6267,-0.489791,-0.0650151,-2.07152,-1.60389,1.66663,0.78949,-1.62997,-0.488873,-0.069946,-2.06806,-1.60719,1.67043,0.789891,-0.611568,0.510172,-1.08417,0.406715,-0.396814,1.44002,0.0612889,-0.5829,0.526514,-1.10824,0.418137,-0.404495,1.49355,0.0623799,-4.03685,-9.1022,-4.70971,21.6898,-2.30772,-0.276281,0.09083,-2.10718,-0.579284,-2.0578,3.09228,-1.61426,0.00143024,-0.0084999
2573359,0.99,-1.62733,-0.489263,-0.0661321,-2.07111,-1.6043,1.66813,0.789545,-1.63055,-0.488344,-0.0710596,-2.06764,-1.60759,1.67193,0.789954,-0.615911,0.517071,-1.08613,0.404704,-0.402718,1.47923,0.0586537,-0.577911,0.529169,-1.11366,0.42092,-0.403812,1.50161,0.0626297,-3.58458,-9.30453,-4.50738,21.7176,-2.24547,-0.333959,0.149424,-2.10395,-0.571493,-2.05123,3.09366,-1.61791,-0.00188059,-0.00761637
2573360,0.99,-1.62792,-0.48873,-0.0672705,-2.0707,-1.60469,1.66958,0.7896,-1.63112,-0.487812,-0.0721787,-2.06721,-1.60799,1.67344,0.790017,-0.607084,0.516936,-1.10052,0.404816,-0.399856,1.47162,0.057394,-0.572921,0.531825,-1.11908,0.423702,-0.403129,1.50967,0.0628794,-3.48143,-9.45529,-3.87658,21.8405,-2.27385,-0.0446521,0.187876,-2.09694,-0.562167,-2.03926,3.09868,-1.62167,-0.00474089,-0.0068122
2573361,0.99,-1.62852,-0.488202,-0.0683966,-2.0703,-1.60509,1.67106,0.789652,-1.63169,-0.487277,-0.0733032,-2.06679,-1.60839,1.67496,0.79008,-0.602762,0.525808,-1.10187,0.40758,-0.405036,1.47523,0.0598977,-0.567932,0.53448,-1.1245,0.426484,-0.402446,1.51774,0.0631292,-3.12835,-9.63382,-3.62268,21.9635,-2.22899,0.0972546,0.265696,-2.08645,-0.558853,-2.02111,3.11072,-1.62558,-0.00698932,-0.00591729
2573362,0.99,-1.62913,-0.487666,-0.0695317,-2.06988,-1.6055,1.67255,0.789714,-1.63225,-0.48674,-0.0744331,-2.06636,-1.6088,1.67648,0.790144,-0.613675,0.52861,-1.10304,0.409404,-0.398594,1.48027,0.0613791,-0.562943,0.537135,-1.12992,0.429267,-0.401763,1.5258,0.0633789,-2.6007,-9.78458,-3.51953,22.0151,-2.1942,0.219935,0.240061,-2.07321,-0.566684,-1.99831,3.13053,-1.62967,-0.00829978,-0.00475121
2573363,0.99,-1.6297,-0.487127,-0.0706844,-2.06947,-1.6059,1.67406,0.789773,-1.63281,-0.486201,-0.0755684,-2.06592,-1.6092,1.67802,0.790207,-0.601423,0.524141,-1.11954,0.408665,-0.403448,1.48619,0.0563883,-0.557954,0.53979,-1.13534,0.432049,-0.40108,1.53387,0.0636287,-2.6483,-9.9631,-3.01568,22.0905,-2.17222,0.24557,0.226328,-2.054,-0.580262,-1.96773,3.15521,-1.63377,-0.00782644,-0.00318553
2573364,0.99,-1.63025,-0.486575,-0.0718442,-2.06904,-1.6063,1.67558,0.789823,-1.63336,-0.485658,-0.0767092,-2.06549,-1.6096,1.67956,0.790271,-0.586788,0.535179,-1.12585,0.413691,-0.403454,1.49446,0.0544223,-0.552965,0.542445,-1.14076,0.434831,-0.400396,1.54193,0.0638784,-2.82683,-10.1654,-2.63482,22.0151,-2.23448,0.322474,0.297739,-2.02899,-0.593673,-1.92856,3.18181,-1.63763,-0.00532592,-0.00118768
2573365,0.99,-1.63084,-0.486025,-0.0729776,-2.06862,-1.6067,1.67709,0.789873,-1.63391,-0.485113,-0.0778554,-2.06505,-1.61,1.68111,0.790335,-0.583347,0.538839,-1.12971,0.418924,-0.395413,1.50178,0.0542862,-0.547975,0.545101,-1.14618,0.437613,-0.399713,1.55,0.0641281,-2.44597,-10.3162,-2.58325,21.9397,-2.26835,0.360926,0.337107,-2.00562,-0.61428,-1.88935,3.21116,-1.64138,-0.00181195,0.00124087
2573366,0.99,-1.63142,-0.485475,-0.0741431,-2.06819,-1.60708,1.67863,0.789912,-1.63445,-0.484566,-0.0790057,-2.06461,-1.6104,1.68266,0.790399,-0.581801,0.544753,-1.13399,0.425238,-0.398471,1.50715,0.0446942,-0.542341,0.547398,-1.15027,0.440151,-0.398758,1.5571,0.0643312,-2.24761,-10.4431,-2.48407,21.8644,-2.32512,0.328883,0.49824,-1.98698,-0.645193,-1.85469,3.24169,-1.64515,0.00229405,0.00413224
2573367,0.99,-1.63197,-0.484916,-0.0753478,-2.06775,-1.60748,1.68017,0.78996,-1.63499,-0.484016,-0.08016,-2.06417,-1.61079,1.68423,0.790464,-0.56928,0.545365,-1.14771,0.432336,-0.401493,1.51999,0.0482124,-0.536707,0.549696,-1.15436,0.442688,-0.397803,1.56419,0.0645343,-2.42217,-10.5423,-1.90088,21.7414,-2.34709,0.284022,0.52479,-1.97047,-0.679885,-1.82172,3.26839,-1.64882,0.0073098,0.00758966
2573368,0.99,-1.63253,-0.484384,-0.076522,-2.06733,-1.60789,1.68173,0.790013,-1.63552,-0.483464,-0.0813185,-2.06372,-1.61119,1.6858,0.790529,-0.56556,0.542453,-1.15852,0.432907,-0.398491,1.52511,0.047946,-0.531072,0.551993,-1.15845,0.445226,-0.396847,1.57129,0.0647374,-2.24761,-10.4431,-1.5954,21.7176,-2.27385,0.226344,0.485422,-1.9519,-0.707033,-1.78427,3.28613,-1.65225,0.0136874,0.0117612
2573369,0.99,-1.63313,-0.483835,-0.0777011,-2.06689,-1.60828,1.68331,0.790078,-1.63604,-0.48291,-0.082481,-2.06328,-1.61159,1.68738,0.790594,-0.570471,0.54466,-1.154,0.432481,-0.404189,1.53647,0.0528378,-0.525438,0.554291,-1.16254,0.447763,-0.395892,1.57839,0.0649405,-1.69219,-10.2924,-1.47241,21.666,-2.23448,0.200709,0.304148,-1.92873,-0.719409,-1.73934,3.29447,-1.65549,0.0215491,0.0167472
