shamilmamedov/beam_handling/log/vibration_suppression_ICRA/OCP_T2_0.55s.csv
duration, success rate, q[0], q[1], q[2], q[3], q[4], q[5], q[6],q_d[0], q_d[1], q_d[2], q_d[3], q_d[4], q_d[5], q_d[6],dq[0], dq[1], dq[2], dq[3], dq[4], dq[5], dq[6],dq_d[0], dq_d[1], dq_d[2], dq_d[3], dq_d[4], dq_d[5], dq_d[6],tau_J[0], tau_J[1], tau_J[2], tau_J[3], tau_J[4], tau_J[5], tau_J[6],tau_ext_hat_filtered[0], tau_ext_hat_filtered[1], tau_ext_hat_filtered[2], tau_ext_hat_filtered[3], tau_ext_hat_filtered[4], tau_ext_hat_filtered[5], tau_ext_hat_filtered[6]
2169912,0,-1.57029,-0.522842,6.22327e-05,-2.09583,-0.00161769,1.57107,0.785718,-1.5708,-0.523598,-9.49362e-08,-2.09439,-2.39618e-08,1.5708,0.785399,-0.000656842,-0.000474212,4.11065e-05,6.47832e-06,-0.000115497,0.000146737,0.000262899,0,0,0,0,0,0,0,-0.605152,-10.1892,-0.659116,20.7972,1.96138,1.50167,-0.18749,-0.627028,-1.08309,-0.173574,2.27398,1.24556,-0.171744,-0.164387
2169913,1,-1.57028,-0.522841,6.05623e-05,-2.09583,-0.0016183,1.57107,0.785716,-1.5708,-0.523598,-9.49362e-08,-2.09439,-2.39618e-08,1.5708,0.785399,0.000211719,0.000240671,-0.000529408,-0.000552493,-0.000280448,0.000606451,-6.20932e-05,0,0,0,0,0,0,0,-0.632923,-10.213,-0.635312,20.821,1.96687,1.48794,-0.181082,-0.627731,-1.08177,-0.174714,2.27314,1.24549,-0.171744,-0.164342
2169914,1,-1.57028,-0.522841,6.05623e-05,-2.09583,-0.00161708,1.57107,0.785718,-1.5708,-0.523598,-9.49362e-08,-2.09439,-2.39618e-08,1.5708,0.785399,0.000141146,0.000160447,-0.000352938,0.000188483,0.000219935,-0.000341685,-0.000278754,0,0,0,0,0,0,0,-0.632923,-10.213,-0.635312,20.7972,1.95589,1.50808,-0.174673,-0.627594,-1.0812,-0.174579,2.27288,1.24547,-0.171679,-0.164407
2169915,1,-1.57028,-0.522839,6.41816e-05,-2.09583,-0.0016183,1.57107,0.785722,-1.5708,-0.523598,-9.49362e-08,-2.09439,-2.39618e-08,1.5708,0.785399,0.000650909,0.000756579,0.000971134,0.000125655,-0.000260277,9.56923e-06,0.000763599,0,0,0,0,0,0,0,-0.656727,-10.2408,-0.686887,20.7972,1.96687,1.50167,-0.200308,-0.627594,-1.08166,-0.17457,2.27308,1.24547,-0.171581,-0.16455
2169916,1,-1.57028,-0.522841,6.22327e-05,-2.09583,-0.00161769,1.57107,0.785717,-1.5708,-0.523598,-9.49362e-08,-2.09439,-2.39618e-08,1.5708,0.785399,-0.000122872,-0.000145228,-2.19152e-06,8.37703e-05,2.99323e-05,0.000243738,-0.00020301,0,0,0,0,0,0,0,-0.632923,-10.213,-0.659116,20.7972,1.96138,1.49526,-0.181082,-0.628238,-1.08263,-0.175506,2.27341,1.24544,-0.171485,-0.164755
2169917,1,-1.57029,-0.522842,6.05623e-05,-2.09583,-0.00161647,1.57107,0.785721,-1.5708,-0.523598,-9.49362e-08,-2.09439,-2.39618e-08,1.5708,0.785399,-0.000731529,-0.000653631,-0.000558273,-0.000500965,0.000426856,0.000162492,0.000339378,0,0,0,0,0,0,0,-0.605152,-10.1892,-0.635312,20.821,1.9504,1.49526,-0.193899,-0.628526,-1.08277,-0.175961,2.27343,1.24543,-0.171409,-0.165026
2169918,1,-1.57028,-0.522837,6.22327e-05,-2.09583,-0.00161708,1.57107,0.785717,-1.5708,-0.523598,-9.49362e-08,-2.09439,-2.39618e-08,1.5708,0.785399,0.000161928,0.00132748,0.00018463,0.000222835,8.11201e-05,0.000108328,-0.000248466,0,0,0,0,0,0,0,-0.632923,-10.2646,-0.659116,20.7972,1.95589,1.49526,-0.181082,-0.627985,-1.08268,-0.17524,2.27343,1.24547,-0.171333,-0.165359
2169919,1,-1.57028,-0.522841,6.22327e-05,-2.09583,-0.00161891,1.57107,0.785719,-1.5708,-0.523598,-9.49362e-08,-2.09439,-2.39618e-08,1.5708,0.785399,0.000107952,-0.000321437,0.000123087,-0.000408255,-0.000556272,-0.00016514,-0.000165644,0,0,0,0,0,0,0,-0.632923,-10.213,-0.659116,20.821,1.97237,1.50167,-0.181082,-0.627495,-1.08375,-0.174594,2.27397,1.24551,-0.171234,-0.165735
2169920,1,-1.57028,-0.522841,6.05623e-05,-2.09583,-0.00161647,1.57107,0.785721,-1.5708,-0.523598,-9.49362e-08,-2.09439,-2.39618e-08,1.5708,0.785399,7.1968e-05,-0.000214291,-0.000474754,-0.000828982,0.000442954,0.000127266,0.000364288,0,0,0,0,0,0,0,-0.632923,-10.213,-0.635312,20.8448,1.9504,1.49526,-0.193899,-0.627244,-1.08481,-0.174271,2.27472,1.24554,-0.171121,-0.166137
2169921,1,-1.57028,-0.522841,6.41816e-05,-2.09583,-0.00161647,1.57107,0.785718,-1.5708,-0.523598,-9.49362e-08,-2.09439,-2.39618e-08,1.5708,0.785399,0.000604791,-0.000142861,0.000889923,0.000560969,0.000295303,-0.000152515,-0.000943936,0,0,0,0,0,0,0,-0.656727,-10.213,-0.686887,20.7972,1.9504,1.50167,-0.161856,-0.6273,-1.08481,-0.174349,2.27512,1.24554,-0.171035,-0.166558
2169922,1,-1.57029,-0.522839,6.22327e-05,-2.09583,-0.00161708,1.57107,0.785721,-1.5708,-0.523598,-9.49362e-08,-2.09439,-2.39618e-08,1.5708,0.785399,-0.000803232,0.000554373,-5.63319e-05,0.000373979,-6.5819e-06,-0.000339036,0.000320145,0,0,0,0,0,0,0,-0.605152,-10.2408,-0.659116,20.7972,1.95589,1.50808,-0.18749,-0.627779,-1.08423,-0.175067,2.27495,1.2455,-0.171026,-0.166984
2169923,1,-1.57028,-0.522841,6.22327e-05,-2.09583,-0.0016183,1.57107,0.78572,-1.5708,-0.523598,-9.49362e-08,-2.09439,-2.39618e-08,1.5708,0.785399,0.000670938,-0.000280032,-3.75546e-05,0.00145575,-0.000411289,0.000248694,-2.39288e-05,0,0,0,0,0,0,0,-0.656727,-10.213,-0.659116,20.7456,1.96687,1.49526,-0.181082,-0.628124,-1.0832,-0.175628,2.27398,1.24544,-0.171118,-0.167401
2169924,1,-1.57028,-0.522839,6.22327e-05,-2.09583,-0.00161708,1.57107,0.785722,-1.5708,-0.523598,-9.49362e-08,-2.09439,-2.39618e-08,1.5708,0.785399,0.000447292,0.000462926,-2.50364e-05,-0.000792741,0.000132708,0.000437063,0.000458765,0,0,0,0,0,0,0,-0.656727,-10.2408,-0.659116,20.821,1.95589,1.48794,-0.193899,-0.628425,-1.08192,-0.176048,2.27259,1.24535,-0.17126,-0.167804
2169925,1,-1.57028,-0.522841,6.05623e-05,-2.09583,-0.00161769,1.57107,0.785716,-1.5708,-0.523598,-9.49362e-08,-2.09439,-2.39618e-08,1.5708,0.785399,-0.000258617,-0.000340996,-0.000573503,0.000677932,-0.000114978,2.01082e-05,-0.000643592,0,0,0,0,0,0,0,-0.632923,-10.213,-0.635312,20.7694,1.96138,1.49526,-0.168264,-0.628648,-1.08112,-0.176255,2.27159,1.24529,-0.171362,-0.168202
2169926,1,-1.57029,-0.522841,6.22327e-05,-2.09583,-0.0016183,1.57107,0.785717,-1.5708,-0.523598,-9.49362e-08,-2.09439,-2.39618e-08,1.5708,0.785399,-0.000172412,-0.000227331,0.000174477,-0.000197659,-0.000280103,-0.000461312,-0.00066642,0,0,0,0,0,0,0,-0.632923,-10.213,-0.659116,20.7972,1.96687,1.50808,-0.161856,-0.628404,-1.0802,-0.175762,2.27071,1.24525,-0.171443,-0.168597
2169927,1,-1.57029,-0.522839,6.22327e-05,-2.09583,-0.00161647,1.57107,0.785718,-1.5708,-0.523598,-9.49362e-08,-2.09439,-2.39618e-08,1.5708,0.785399,-0.000764555,0.00049806,0.000116318,-0.0012454,0.000423616,-7.01827e-05,0.000742514,0,0,0,0,0,0,0,-0.605152,-10.2408,-0.659116,20.8448,1.9504,1.50167,-0.193899,-0.627927,-1.07985,-0.175009,2.27047,1.24525,-0.171447,-0.168969
2169928,1,-1.57028,-0.522837,6.41816e-05,-2.09583,-0.00161708,1.57107,0.785716,-1.5708,-0.523598,-9.49362e-08,-2.09439,-2.39618e-08,1.5708,0.785399,-0.000509703,0.000888852,0.000727159,-0.000830264,7.89604e-05,0.000190571,2.02917e-05,0,0,0,0,0,0,0,-0.605152,-10.2646,-0.686887,20.8448,1.95589,1.49526,-0.181082,-0.627504,-1.08213,-0.174499,2.27205,1.2453,-0.171273,-0.169304
2169929,1,-1.57028,-0.522842,5.88918e-05,-2.09583,-0.00161708,1.57107,0.785717,-1.5708,-0.523598,-9.49362e-08,-2.09439,-2.39618e-08,1.5708,0.785399,0.000866624,-0.00117067,-0.00127847,0.000560114,5.26403e-05,0.000127047,-0.000698549,0,0,0,0,0,0,0,-0.656727,-10.1892,-0.611508,20.7972,1.95589,1.49526,-0.161856,-0.627181,-1.08493,-0.174171,2.27396,1.24534,-0.171072,-0.169619
2169930,1,-1.57028,-0.522841,6.05623e-05,-2.09583,-0.00161769,1.57107,0.785718,-1.5708,-0.523598,-9.49362e-08,-2.09439,-2.39618e-08,1.5708,0.785399,2.09372e-05,-0.000223635,-0.000295498,0.00102302,-0.000168357,-0.000152661,-0.000465699,0,0,0,0,0,0,0,-0.632923,-10.213,-0.635312,20.7694,1.96138,1.50167,-0.161856,-0.626757,-1.08459,-0.17351,2.27385,1.24533,-0.171066,-0.169921
2169931,1,-1.57028,-0.522839,6.22327e-05,-2.09583,-0.00161769,1.57107,0.785714,-1.5708,-0.523598,-9.49362e-08,-2.09439,-2.39618e-08,1.5708,0.785399,1.39581e-05,0.000500524,0.000359813,-0.00108122,-0.000112238,0.000135585,-0.000547825,0,0,0,0,0,0,0,-0.632923,-10.2408,-0.659116,20.8448,1.96138,1.49526,-0.155447,-0.626417,-1.08293,-0.172871,2.27276,1.24529,-0.171164,-0.170187
2169932,1,-1.57029,-0.522844,6.22327e-05,-2.09583,-0.00161708,1.57107,0.785718,-1.5708,-0.523598,-9.49362e-08,-2.09439,-2.39618e-08,1.5708,0.785399,-0.00119712,-0.00142956,0.000239875,0.000392809,0.000128625,-0.000384328,0.000109501,0,0,0,0,0,0,0,-0.581349,-10.1654,-0.659116,20.7972,1.95589,1.50808,-0.168264,-0.626293,-1.08172,-0.172679,2.27211,1.24525,-0.171217,-0.170396
2169933,1,-1.57028,-0.522842,5.88918e-05,-2.09583,-0.00161647,1.57107,0.785712,-1.5708,-0.523598,-9.49362e-08,-2.09439,-2.39618e-08,1.5708,0.785399,0.000408346,-0.000396225,-0.000953707,-0.000851751,0.000289201,0.000489767,-0.0011477,0,0,0,0,0,0,0,-0.632923,-10.1892,-0.611508,20.8448,1.9504,1.48794,-0.135305,-0.625901,-1.07942,-0.172211,2.27122,1.24523,-0.171271,-0.170546
2169934,1,-1.57028,-0.522841,6.41816e-05,-2.09583,-0.00161708,1.57107,0.785717,-1.5708,-0.523598,-9.49362e-08,-2.09439,-2.39618e-08,1.5708,0.785399,0.000829042,0.000292662,0.00112743,-1.10222e-05,-1.06501e-05,-0.000182115,0.000218209,0,0,0,0,0,0,0,-0.656727,-10.213,-0.686887,20.821,1.95589,1.50167,-0.161856,-0.625798,-1.0773,-0.172105,2.27058,1.24519,-0.171303,-0.170627
2169935,1,-1.57028,-0.522841,6.05623e-05,-2.09583,-0.00161769,1.57107,0.785713,-1.5708,-0.523598,-9.49362e-08,-2.09439,-2.39618e-08,1.5708,0.785399,-4.11706e-06,0.000195108,-0.000454804,-7.34811e-06,-0.000210551,-0.000358769,-0.000329245,0,0,0,0,0,0,0,-0.632923,-10.213,-0.635312,20.821,1.96138,1.50808,-0.149038,-0.626598,-1.077,-0.173235,2.27081,1.2451,-0.171285,-0.170622
2169936,1,-1.57028,-0.522842,6.41816e-05,-2.09583,-0.00162027,1.57107,0.785712,-1.5708,-0.523598,-9.49362e-08,-2.09439,-2.39618e-08,1.5708,0.785399,-0.000652359,-0.00042674,0.000903223,0.000551913,-0.00917332,-0.000239179,-0.000219497,0,0,0,0,0,0,0,-0.605152,-10.1892,-0.686887,20.7972,1.95589,1.50808,-0.149038,-0.627392,-1.07724,-0.174443,2.27113,1.24504,-0.171288,-0.170535
2169937,1,-1.57028,-0.522842,6.22327e-05,-2.09583,-0.00161753,1.57107,0.785719,-1.5708,-0.523598,-9.49362e-08,-2.09439,-2.39618e-08,1.5708,0.785399,0.000214708,-0.000284493,-4.7465e-05,0.000367942,-0.00668179,7.7906e-05,0.00104046,0,0,0,0,0,0,0,-0.632923,-10.1892,-0.659116,20.7972,1.9504,1.50167,-0.181082,-0.627718,-1.07665,-0.175166,2.27092,1.24505,-0.171364,-0.170371
2169938,1,-1.57028,-0.522841,6.22327e-05,-2.09583,-0.00161743,1.57107,0.785715,-1.5708,-0.523598,-9.49362e-08,-2.09439,-2.39618e-08,1.5708,0.785399,0.000699951,0.00036715,-3.16433e-05,0.000894909,-0.00523526,5.19373e-05,0.000218925,0,0,0,0,0,0,0,-0.656727,-10.213,-0.659116,20.7694,1.95589,1.50167,-0.168264,-0.627932,-1.07562,-0.175759,2.27028,1.24509,-0.17149,-0.170153
2169939,1,-1.57028,-0.522839,6.22327e-05,-2.09583,-0.0016172,1.57107,0.785713,-1.5708,-0.523598,-9.49362e-08,-2.09439,-2.39618e-08,1.5708,0.785399,-0.000739792,0.00089438,-2.10956e-05,-0.00116663,-0.00392313,0.000271984,-0.00131211,0,0,0,0,0,0,0,-0.605152,-10.2408,-0.659116,20.8448,1.95589,1.49526,-0.128897,-0.627983,-1.07623,-0.176041,2.27038,1.24513,-0.171542,-0.169922
2169940,1,-1.57028,-0.522841,6.22327e-05,-2.09583,-0.00161773,1.57107,0.785718,-1.5708,-0.523598,-9.49362e-08,-2.09439,-2.39618e-08,1.5708,0.785399,0.000156419,-5.33603e-05,-1.40637e-05,0.000335869,-0.00314359,0.000181323,0.00058332,0,0,0,0,0,0,0,-0.632923,-10.213,-0.659116,20.7972,1.96138,1.49526,-0.168264,-0.62768,-1.07894,-0.175818,2.27177,1.24518,-0.171455,-0.169691
2169941,1,-1.57028,-0.522842,6.05623e-05,-2.09583,-0.00161709,1.57107,0.785718,-1.5708,-0.523598,-9.49362e-08,-2.09439,-2.39618e-08,1.5708,0.785399,0.000661091,-0.000592385,-0.000566188,-0.000332899,-0.00213581,-0.000116477,0.000151521,0,0,0,0,0,0,0,-0.656727,-10.1892,-0.635312,20.821,1.95589,1.50167,-0.161856,-0.627306,-1.0811,-0.175415,2.27305,1.2452,-0.171348,-0.169445
2169942,1,-1.57028,-0.522837,6.05623e-05,-2.09583,-0.00161891,1.57107,0.78572,-1.5708,-0.523598,-9.49362e-08,-2.09439,-2.39618e-08,1.5708,0.785399,-0.000116084,0.000811502,-0.000377459,-0.000778745,-0.00221688,-7.76515e-05,0.000813091,0,0,0,0,0,0,0,-0.632923,-10.2408,-0.635312,20.8448,1.97237,1.50167,-0.181082,-0.626967,-1.08242,-0.174892,2.27409,1.24517,-0.171235,-0.169191
2169943,1,-1.57028,-0.522842,6.05623e-05,-2.09583,-0.00161647,1.57107,0.785716,-1.5708,-0.523598,-9.49362e-08,-2.09439,-2.39618e-08,1.5708,0.785399,-0.000727003,-0.000665424,-0.000251639,0.000594461,-0.000801107,-5.17677e-05,6.73428e-05,0,0,0,0,0,0,0,-0.605152,-10.1892,-0.635312,20.7972,1.9504,1.50167,-0.168264,-0.626327,-1.08384,-0.173867,2.27525,1.24515,-0.171098,-0.168953
2169944,1,-1.57028,-0.522842,6.05623e-05,-2.09583,-0.00161708,1.57107,0.785712,-1.5708,-0.523598,-9.49362e-08,-2.09439,-2.39618e-08,1.5708,0.785399,0.000164945,-0.000443616,-0.000167759,-0.000160505,-0.000840265,-3.45118e-05,-0.000938449,0,0,0,0,0,0,0,-0.632923,-10.1892,-0.635312,20.821,1.95589,1.50167,-0.141714,-0.625507,-1.08371,-0.172591,2.27545,1.24511,-0.171038,-0.168752
2169945,1,-1.57028,-0.522839,6.05623e-05,-2.09583,-0.00161891,1.57107,0.785718,-1.5708,-0.523598,-9.49362e-08,-2.09439,-2.39618e-08,1.5708,0.785399,0.000109963,0.000910682,-0.00011184,-0.000663815,-0.00124758,0.000214351,0.00154451,0,0,0,0,0,0,0,-0.632923,-10.2408,-0.635312,20.8448,1.97237,1.49526,-0.200308,-0.625002,-1.08314,-0.171731,2.27544,1.24505,-0.170992,-0.168576
2169946,1,-1.57028,-0.522841,6.41816e-05,-2.09583,-0.00161769,1.57107,0.785714,-1.5708,-0.523598,-9.49362e-08,-2.09439,-2.39618e-08,1.5708,0.785399,7.33089e-05,-4.24928e-05,0.00113187,0.00132069,-0.000482615,-9.44582e-05,-0.000157124,0,0,0,0,0,0,0,-0.632923,-10.213,-0.686887,20.7694,1.96138,1.50167,-0.168264,-0.625264,-1.08374,-0.171973,2.27588,1.24495,-0.170927,-0.168414
2169947,1,-1.57028,-0.522839,6.22327e-05,-2.09583,-0.00161769,1.57107,0.785719,-1.5708,-0.523598,-9.49362e-08,-2.09439,-2.39618e-08,1.5708,0.785399,0.0011625,0.000621285,0.000104964,-0.000325963,-0.000365088,0.000174387,0.000369969,0,0,0,0,0,0,0,-0.680531,-10.2408,-0.659116,20.821,1.96138,1.49526,-0.181082,-0.626597,-1.08443,-0.173762,2.276,1.24481,-0.170919,-0.168284
2169948,1,-1.57028,-0.522841,6.41816e-05,-2.09583,-0.0016183,1.57107,0.785715,-1.5708,-0.523598,-9.49362e-08,-2.09439,-2.39618e-08,1.5708,0.785399,-0.00098824,-0.000235424,0.00071959,-0.000774121,-0.000479351,0.000116258,-0.000228072,0,0,0,0,0,0,0,-0.605152,-10.213,-0.686887,20.8448,1.96687,1.49526,-0.168264,-0.628414,-1.08533,-0.176242,2.27633,1.24467,-0.170892,-0.168201
2169949,1,-1.57029,-0.522839,6.22327e-05,-2.09583,-0.0016183,1.57107,0.785716,-1.5708,-0.523598,-9.49362e-08,-2.09439,-2.39618e-08,1.5708,0.785399,-0.00177245,0.000492665,-0.000169888,-0.00051608,-0.000343948,-0.000159854,0.00032267,0,0,0,0,0,0,0,-0.557545,-10.2408,-0.659116,20.8448,1.96687,1.50167,-0.181082,-0.62929,-1.08684,-0.177552,2.27742,1.24462,-0.170782,-0.168165
2169950,1,-1.57028,-0.522841,6.22327e-05,-2.09583,-0.00161647,1.57107,0.785717,-1.5708,-0.523598,-9.49362e-08,-2.09439,-2.39618e-08,1.5708,0.785399,0.00113842,-0.000321171,-0.000113258,0.000212758,0.000362767,-0.000343928,0.000689831,0,0,0,0,0,0,0,-0.656727,-10.213,-0.659116,20.821,1.9504,1.50808,-0.193899,-0.629073,-1.08819,-0.177448,2.27858,1.24464,-0.170663,-0.168175
2169951,1,-1.57028,-0.522839,6.22327e-05,-2.09583,-0.00161769,1.57107,0.785714,-1.5708,-0.523598,-9.49362e-08,-2.09439,-2.39618e-08,1.5708,0.785399,0.000202132,0.0004355,-7.55056e-05,0.000698651,-0.000178771,0.000245433,-0.000489548,0,0,0,0,0,0,0,-0.632923,-10.2408,-0.659116,20.7972,1.96138,1.49526,-0.168264,-0.628964,-1.08854,-0.177412,2.27896,1.24465,-0.170626,-0.168229
2169952,1,-1.57029,-0.522841,5.6943e-05,-2.09583,-0.0016183,1.57107,0.785719,-1.5708,-0.523598,-9.49362e-08,-2.09439,-2.39618e-08,1.5708,0.785399,-0.000514859,-0.000359281,-0.00181357,-0.000647857,-0.000332917,-0.000311096,0.000385711,0,0,0,0,0,0,0,-0.605152,-10.213,-0.583737,20.8448,1.96687,1.50808,-0.18749,-0.628541,-1.08816,-0.17679,2.27873,1.24466,-0.17065,-0.168333
2169953,1,-1.57029,-0.522839,6.05623e-05,-2.09583,-0.00161708,1.57107,0.785722,-1.5708,-0.523598,-9.49362e-08,-2.09439,-2.39618e-08,1.5708,0.785399,-0.000900051,0.000410094,-2.62403e-06,-0.000431904,0.000177242,2.99615e-05,0.000731859,0,0,0,0,0,0,0,-0.581349,-10.2408,-0.635312,20.8448,1.95589,1.50167,-0.200308,-0.62689,-1.08804,-0.174378,2.27884,1.24475,-0.170629,-0.168482
2169954,1,-1.57028,-0.522841,6.41816e-05,-2.09583,-0.0016183,1.57107,0.785719,-1.5708,-0.523598,-9.49362e-08,-2.09439,-2.39618e-08,1.5708,0.785399,0.000606392,-0.000376218,0.00120468,0.000268876,-0.000294526,0.000257333,-0.00046153,0,0,0,0,0,0,0,-0.632923,-10.213,-0.686887,20.821,1.96687,1.49526,-0.174673,-0.625517,-1.08809,-0.172504,2.27921,1.24483,-0.170575,-0.16867
2169955,1,-1.57028,-0.522841,6.22327e-05,-2.09583,-0.0016183,1.57107,0.78572,-1.5708,-0.523598,-9.49362e-08,-2.09439,-2.39618e-08,1.5708,0.785399,0.000961073,-0.000250812,0.000153504,0.00138568,-0.00020069,0.000442823,-0.000307687,0,0,0,0,0,0,0,-0.656727,-10.213,-0.659116,20.7694,1.96687,1.48794,-0.174673,-0.625924,-1.08679,-0.173297,2.2786,1.24481,-0.170631,-0.168894
2169956,1,-1.57028,-0.522841,6.22327e-05,-2.09583,-0.00161769,1.57107,0.785719,-1.5708,-0.523598,-9.49362e-08,-2.09439,-2.39618e-08,1.5708,0.785399,8.39034e-05,-0.000167208,0.000102336,0.000923784,6.64029e-05,2.39479e-05,0.000506952,0,0,0,0,0,0,0,-0.632923,-10.213,-0.659116,20.7694,1.96138,1.49526,-0.193899,-0.627327,-1.0837,-0.175469,2.27653,1.24472,-0.170852,-0.169145
2169957,1,-1.57028,-0.522841,6.22327e-05,-2.09583,-0.00161586,1.57107,0.785712,-1.5708,-0.523598,-9.49362e-08,-2.09439,-2.39618e-08,1.5708,0.785399,-0.000593678,-0.000111472,6.82239e-05,-3.37578e-05,0.000652179,-0.000221394,-0.00159481,0,0,0,0,0,0,0,-0.605152,-10.213,-0.659116,20.7972,1.9449,1.50167,-0.141714,-0.628405,-1.08041,-0.177172,2.27413,1.24465,-0.171115,-0.169415
2169958,1,-1.57028,-0.522844,6.05623e-05,-2.09583,-0.00161708,1.57107,0.785719,-1.5708,-0.523598,-9.49362e-08,-2.09439,-2.39618e-08,1.5708,0.785399,0.000253828,-0.00118794,-0.000511329,-0.000579317,2.60545e-05,-0.000147596,0.000394854,0,0,0,0,0,0,0,-0.632923,-10.1654,-0.635312,20.821,1.95589,1.50167,-0.181082,-0.62874,-1.07755,-0.177844,2.2724,1.24464,-0.17129,-0.16969
2169959,1,-1.57028,-0.522841,6.22327e-05,-2.09583,-0.00161769,1.57107,0.785718,-1.5708,-0.523598,-9.49362e-08,-2.09439,-2.39618e-08,1.5708,0.785399,-0.000480395,0.000321665,0.000215926,0.000820214,-0.000187454,0.000138962,-0.000448841,0,0,0,0,0,0,0,-0.605152,-10.213,-0.659116,20.7694,1.96138,1.49526,-0.161856,-0.628554,-1.07489,-0.177769,2.27116,1.24465,-0.171393,-0.16994
2169960,1,-1.57028,-0.522835,6.22327e-05,-2.09583,-0.00161769,1.57107,0.785718,-1.5708,-0.523598,-9.49362e-08,-2.09439,-2.39618e-08,1.5708,0.785399,0.000329351,0.00207048,0.00014395,-0.00121643,-0.000125999,-0.000144718,0.000650209,0,0,0,0,0,0,0,-0.632923,-10.2924,-0.659116,20.8448,1.96138,1.50167,-0.18749,-0.628311,-1.0752,-0.17764,2.27139,1.24467,-0.171383,-0.170147
2169961,1,-1.57028,-0.522842,6.41816e-05,-2.09583,-0.0016183,1.57107,0.785714,-1.5708,-0.523598,-9.49362e-08,-2.09439,-2.39618e-08,1.5708,0.785399,0.000219567,-0.00103253,0.000745581,0.000952286,-0.000288222,-9.64785e-05,-0.00149931,0,0,0,0,0,0,0,-0.632923,-10.1892,-0.686887,20.7694,1.96687,1.50167,-0.135305,-0.628535,-1.07874,-0.178224,2.27321,1.2447,-0.17125,-0.170315
2169962,1,-1.57028,-0.522839,6.05623e-05,-2.09583,-0.0016183,1.57107,0.785714,-1.5708,-0.523598,-9.49362e-08,-2.09439,-2.39618e-08,1.5708,0.785399,0.000146378,0.000518073,-0.000709372,-0.00112838,-0.000192727,-0.000301678,-0.000253553,0,0,0,0,0,0,0,-0.632923,-10.2408,-0.635312,20.8448,1.96687,1.50808,-0.155447,-0.629042,-1.08161,-0.179209,2.27478,1.24471,-0.171123,-0.170447
2169963,1,-1.57028,-0.522842,6.41816e-05,-2.09583,-0.0016183,1.57107,0.785715,-1.5708,-0.523598,-9.49362e-08,-2.09439,-2.39618e-08,1.5708,0.785399,9.75854e-05,-0.000861044,0.000733511,-0.000195442,-0.000128919,-0.000438478,0.000305682,0,0,0,0,0,0,0,-0.632923,-10.1892,-0.686887,20.821,1.96687,1.51449,-0.168264,-0.629373,-1.08325,-0.179911,2.27602,1.24474,-0.170985,-0.170525
2169964,1,-1.57028,-0.522841,6.22327e-05,-2.09583,-0.00161647,1.57107,0.785714,-1.5708,-0.523598,-9.49362e-08,-2.09439,-2.39618e-08,1.5708,0.785399,0.000621869,-1.72174e-05,-0.000160606,-0.000130295,0.00052408,-0.000292318,0.000203788,0,0,0,0,0,0,0,-0.656727,-10.213,-0.659116,20.821,1.9504,1.51449,-0.168264,-0.629829,-1.08387,-0.180772,2.27695,1.24477,-0.170836,-0.17054
2169965,1,-1.57028,-0.522839,6.22327e-05,-2.09583,-0.0016183,1.57107,0.785714,-1.5708,-0.523598,-9.49362e-08,-2.09439,-2.39618e-08,1.5708,0.785399,-0.000791847,0.000638136,-0.000107071,-8.6863e-05,-0.00026121,0.000279839,-0.00108484,0,0,0,0,0,0,0,-0.605152,-10.2408,-0.659116,20.821,1.96687,1.50167,-0.135305,-0.630161,-1.08424,-0.181425,2.27758,1.2448,-0.170696,-0.17051
2169966,1,-1.57028,-0.522844,5.88918e-05,-2.09583,-0.0016183,1.57107,0.785716,-1.5708,-0.523598,-9.49362e-08,-2.09439,-2.39618e-08,1.5708,0.785399,0.000121716,-0.00133781,-0.001185,0.00114852,-0.000174323,0.000423918,-0.000214603,0,0,0,0,0,0,0,-0.632923,-10.1654,-0.611508,20.7694,1.96687,1.49526,-0.149038,-0.629564,-1.08413,-0.180695,2.27756,1.24488,-0.170613,-0.170446
2169967,1,-1.57028,-0.522842,6.05623e-05,-2.09583,-0.0016183,1.57107,0.785717,-1.5708,-0.523598,-9.49362e-08,-2.09439,-2.39618e-08,1.5708,0.785399,8.11441e-05,-0.000335064,-0.000233191,-0.000440748,-0.000116353,-0.000192106,9.42901e-05,0,0,0,0,0,0,0,-0.632923,-10.1892,-0.635312,20.821,1.96687,1.50808,-0.155447,-0.628264,-1.08175,-0.178843,2.27613,1.24496,-0.170646,-0.170332
2169968,1,-1.57028,-0.522839,6.05623e-05,-2.09583,-0.00161769,1.57107,0.785718,-1.5708,-0.523598,-9.49362e-08,-2.09439,-2.39618e-08,1.5708,0.785399,-0.000595518,0.00098305,-0.000155461,-0.000850644,0.000125779,0.000346647,0.00124965,0,0,0,0,0,0,0,-0.605152,-10.2408,-0.635312,20.8448,1.96138,1.49526,-0.18749,-0.626952,-1.08003,-0.176915,2.27524,1.24507,-0.170621,-0.170157
2169969,1,-1.57028,-0.522838,6.22327e-05,-2.09583,-0.00162027,1.57107,0.785714,-1.5708,-0.523598,-9.49362e-08,-2.09439,-2.39618e-08,1.5708,0.785399,0.000809414,5.75261e-06,0.000453171,0.00119614,0.000287226,-6.26067e-06,-0.00109968,0,0,0,0,0,0,0,-0.656727,-10.213,-0.659116,20.7694,1.95589,1.50167,-0.135305,-0.626197,-1.08087,-0.175806,2.27569,1.24518,-0.170492,-0.169942
2169970,1,-1.57028,-0.52284,6.22327e-05,-2.09583,-0.00161814,1.57107,0.785716,-1.5708,-0.523598,-9.49362e-08,-2.09439,-2.39618e-08,1.5708,0.785399,-1.72026e-05,3.83507e-06,0.000302114,0.000147814,0.000191426,-4.17378e-06,-0.000495759,0,0,0,0,0,0,0,-0.632923,-10.213,-0.659116,20.7972,1.95589,1.50167,-0.141714,-0.626432,-1.08173,-0.176097,2.2758,1.24524,-0.170424,-0.169711
2169971,1,-1.57029,-0.522842,5.88918e-05,-2.09583,-0.00161998,1.57107,0.785713,-1.5708,-0.523598,-9.49362e-08,-2.09439,-2.39618e-08,1.5708,0.785399,-0.00177471,-0.000554255,-0.000912214,-0.00101508,-0.000720137,0.000234576,-5.92386e-05,0,0,0,0,0,0,0,-0.557545,-10.1892,-0.611508,20.8448,1.97878,1.49526,-0.149038,-0.626496,-1.0818,-0.176185,2.27561,1.2453,-0.17038,-0.169459
2169972,1,-1.57028,-0.522841,6.05623e-05,-2.09583,-0.00161781,1.57107,0.785714,-1.5708,-0.523598,-9.49362e-08,-2.09439,-2.39618e-08,1.5708,0.785399,0.0005801,0.000187308,-5.1331e-05,-0.000676721,0.000164136,0.000156384,0.000435226,0,0,0,0,0,0,0,-0.632923,-10.213,-0.635312,20.8448,1.96138,1.49526,-0.161856,-0.625505,-1.08216,-0.174824,2.27612,1.24543,-0.170254,-0.169173
2169973,1,-1.57028,-0.522841,6.5852e-05,-2.09583,-0.00161895,1.57107,0.785718,-1.5708,-0.523598,-9.49362e-08,-2.09439,-2.39618e-08,1.5708,0.785399,0.000386734,0.000124872,0.00172902,0.000662477,-0.000297501,-0.000607821,0.000764868,0,0,0,0,0,0,0,-0.632923,-10.213,-0.710691,20.7972,1.97237,1.51449,-0.174673,-0.625224,-1.08297,-0.174519,2.27706,1.24553,-0.170103,-0.168849
2169974,1,-1.57028,-0.522841,6.22327e-05,-2.09583,-0.00161831,1.57107,0.785715,-1.5708,-0.523598,-9.49362e-08,-2.09439,-2.39618e-08,1.5708,0.785399,0.000257822,8.32482e-05,-5.37478e-05,0.000441651,5.09793e-06,6.95041e-05,-0.000710791,0,0,0,0,0,0,0,-0.632923,-10.213,-0.659116,20.7972,1.96687,1.50167,-0.141714,-0.626492,-1.08347,-0.176501,2.2775,1.24555,-0.170032,-0.168509
2169975,1,-1.57028,-0.522844,5.88918e-05,-2.09583,-0.00161586,1.57107,0.785715,-1.5708,-0.523598,-9.49362e-08,-2.09439,-2.39618e-08,1.5708,0.785399,0.000171882,-0.00105813,-0.00114946,-0.000262378,0.000817187,0.000554962,-0.00071122,0,0,0,0,0,0,0,-0.632923,-10.1654,-0.611508,20.821,1.9449,1.48794,-0.135305,-0.627624,-1.08275,-0.178226,2.27709,1.24558,-0.170041,-0.168184
2169976,1,-1.57028,-0.522841,6.05623e-05,-2.09583,-0.00161769,1.57107,0.785722,-1.5708,-0.523598,-9.49362e-08,-2.09439,-2.39618e-08,1.5708,0.785399,0.000114588,0.000408207,-0.000209492,0.00103151,-6.55706e-05,-0.00037601,0.00193335,0,0,0,0,0,0,0,-0.632923,-10.213,-0.635312,20.7694,1.96138,1.50808,-0.200308,-0.6277,-1.08086,-0.178255,2.27603,1.24564,-0.170105,-0.167865
2169977,1,-1.57028,-0.522842,6.41816e-05,-2.09583,-0.00161708,1.57107,0.785714,-1.5708,-0.523598,-9.49362e-08,-2.09439,-2.39618e-08,1.5708,0.785399,7.63918e-05,-0.000284674,0.00106676,-0.000518754,0.000159729,0.000495312,-0.000609971,0,0,0,0,0,0,0,-0.632923,-10.1892,-0.686887,20.821,1.95589,1.48794,-0.149038,-0.627698,-1.07914,-0.178147,2.27495,1.24569,-0.170186,-0.167544
2169978,1,-1.57028,-0.522842,6.22327e-05,-2.09583,-0.00161708,1.57107,0.785714,-1.5708,-0.523598,-9.49362e-08,-2.09439,-2.39618e-08,1.5708,0.785399,0.00060774,-0.000189783,6.15625e-05,0.000210976,0.00010648,5.89404e-05,6.80708e-05,0,0,0,0,0,0,0,-0.656727,-10.1892,-0.659116,20.7972,1.95589,1.49526,-0.161856,-0.628443,-1.07806,-0.179185,2.27433,1.2457,-0.170236,-0.167244
2169979,1,-1.57029,-0.522839,6.05623e-05,-2.09583,-0.00161769,1.57107,0.785712,-1.5708,-0.523598,-9.49362e-08,-2.09439,-2.39618e-08,1.5708,0.785399,-0.00135808,0.0010799,-0.00051577,-0.000416161,-0.000132468,-0.000435424,-0.00141268,0,0,0,0,0,0,0,-0.581349,-10.2408,-0.635312,20.821,1.96138,1.50808,-0.122488,-0.628978,-1.07823,-0.179947,2.2745,1.24571,-0.170224,-0.166975
2169980,1,-1.57028,-0.522842,6.22327e-05,-2.09583,-0.00161769,1.57107,0.785718,-1.5708,-0.523598,-9.49362e-08,-2.09439,-2.39618e-08,1.5708,0.785399,0.000301041,-0.00048649,0.000212965,0.000279371,-8.83153e-05,-0.000290283,0.000753633,0,0,0,0,0,0,0,-0.632923,-10.1892,-0.659116,20.7972,1.96138,1.50808,-0.168264,-0.628551,-1.07987,-0.179366,2.27542,1.24578,-0.170154,-0.166715
2169981,1,-1.57028,-0.522842,6.22327e-05,-2.09583,-0.00161962,1.57107,0.785716,-1.5708,-0.523598,-9.49362e-08,-2.09439,-2.39618e-08,1.5708,0.785399,0.000200694,-0.000324327,0.000141977,0.00139267,-0.000703139,-0.000193522,0.000739781,0,0,0,0,0,0,0,-0.632923,-10.1892,-0.659116,20.7456,1.97878,1.50808,-0.174673,-0.628111,-1.08031,-0.178786,2.27554,1.24581,-0.170154,-0.16644
2169982,1,-1.57028,-0.522839,6.05623e-05,-2.09584,-0.00161708,1.57107,0.785714,-1.5708,-0.523598,-9.49362e-08,-2.09439,-2.39618e-08,1.5708,0.785399,0.000133796,0.000990208,-0.000462161,-0.00259803,0.000378949,0.000345703,-0.000964875,0,0,0,0,0,0,0,-0.632923,-10.2408,-0.635312,20.8963,1.95589,1.49526,-0.135305,-0.627998,-1.08042,-0.178631,2.27553,1.24583,-0.170148,-0.166161
2169983,1,-1.57028,-0.522841,5.88918e-05,-2.09583,-0.00161708,1.57107,0.785717,-1.5708,-0.523598,-9.49362e-08,-2.09439,-2.39618e-08,1.5708,0.785399,0.000646009,1.05249e-05,-0.000864919,0.000588032,0.000252631,-0.000244249,0.000102735,0,0,0,0,0,0,0,-0.656727,-10.213,-0.611508,20.7972,1.95589,1.50808,-0.155447,-0.627689,-1.08287,-0.17806,2.27719,1.2459,-0.169963,-0.165895
2169984,1,-1.57028,-0.522841,6.22327e-05,-2.09583,-0.00161647,1.57107,0.785716,-1.5708,-0.523598,-9.49362e-08,-2.09439,-2.39618e-08,1.5708,0.785399,0.000430673,7.01658e-06,0.000537011,-0.000164791,0.00037187,7.45263e-05,0.000780567,0,0,0,0,0,0,0,-0.656727,-10.213,-0.659116,20.821,1.9504,1.50167,-0.174673,-0.627497,-1.08542,-0.177487,2.27895,1.24598,-0.16976,-0.16563
2169985,1,-1.57028,-0.522841,6.22327e-05,-2.09583,-0.00161708,1.57107,0.785717,-1.5708,-0.523598,-9.49362e-08,-2.09439,-2.39618e-08,1.5708,0.785399,0.000287115,4.67772e-06,0.000358007,-0.00010986,4.44623e-05,0.000287043,4.56602e-05,0,0,0,0,0,0,0,-0.656727,-10.213,-0.659116,20.821,1.95589,1.49526,-0.161856,-0.628024,-1.08653,-0.177897,2.27977,1.24599,-0.169646,-0.165366
2169986,1,-1.57028,-0.522842,6.05623e-05,-2.09583,-0.00161708,1.57107,0.785714,-1.5708,-0.523598,-9.49362e-08,-2.09439,-2.39618e-08,1.5708,0.785399,-0.00101502,-0.000553693,-0.00031814,0.00113319,2.9641e-05,-4.59969e-05,-0.00119026,0,0,0,0,0,0,0,-0.605152,-10.1892,-0.635312,20.7694,1.95589,1.50167,-0.128897,-0.62864,-1.08614,-0.178473,2.27962,1.24596,-0.169625,-0.165125
2169987,1,-1.57029,-0.522841,6.22327e-05,-2.09583,-0.00161708,1.57107,0.785714,-1.5708,-0.523598,-9.49362e-08,-2.09439,-2.39618e-08,1.5708,0.785399,-0.000676677,0.000187683,0.000344718,0.000755457,1.97602e-05,0.000477962,-0.00103087,0,0,0,0,0,0,0,-0.605152,-10.213,-0.659116,20.7694,1.95589,1.48794,-0.122488,-0.628489,-1.08399,-0.178034,2.27811,1.24593,-0.169747,-0.164904
2169988,1,-1.57029,-0.522841,6.41816e-05,-2.09583,-0.0016183,1.57107,0.785722,-1.5708,-0.523598,-9.49362e-08,-2.09439,-2.39618e-08,1.5708,0.785399,-0.000451118,0.000125122,0.000879426,-0.000145976,-0.000393728,-0.000189985,0.00219497,0,0,0,0,0,0,0,-0.605152,-10.213,-0.686887,20.7972,1.96687,1.50167,-0.200308,-0.628133,-1.08178,-0.177466,2.27632,1.24588,-0.169914,-0.16466
2169989,1,-1.57028,-0.522841,6.22327e-05,-2.09583,-0.00161708,1.57107,0.785719,-1.5708,-0.523598,-9.49362e-08,-2.09439,-2.39618e-08,1.5708,0.785399,0.000348869,8.34147e-05,-6.33298e-05,-9.73173e-05,0.000144416,0.000110702,0.000276519,0,0,0,0,0,0,0,-0.632923,-10.213,-0.659116,20.7972,1.95589,1.49526,-0.168264,-0.628228,-1.0808,-0.177672,2.27538,1.24582,-0.170009,-0.164381
2169990,1,-1.57028,-0.522842,6.05623e-05,-2.09583,-0.00161769,1.57107,0.78572,-1.5708,-0.523598,-9.49362e-08,-2.09439,-2.39618e-08,1.5708,0.785399,-0.000417035,-0.000501202,-0.000599032,-0.0011785,-0.000107174,-0.000163557,0.000421705,0,0,0,0,0,0,0,-0.605152,-10.1892,-0.635312,20.8448,1.96138,1.50167,-0.174673,-0.628267,-1.08063,-0.17779,2.27534,1.24578,-0.170005,-0.164119
2169991,1,-1.57028,-0.522838,6.41816e-05,-2.09583,-0.00161769,1.57107,0.785716,-1.5708,-0.523598,-9.49362e-08,-2.09439,-2.39618e-08,1.5708,0.785399,-0.000278023,0.000222677,0.000807071,-0.000785668,-7.14493e-05,-0.000346397,0.000281137,0,0,0,0,0,0,0,-0.605152,-10.213,-0.686887,20.8448,1.96138,1.50808,-0.174673,-0.62796,-1.08113,-0.177444,2.27622,1.24578,-0.169893,-0.16391
2169992,1,-1.57028,-0.522842,6.05623e-05,-2.09583,-0.00161769,1.57107,0.785716,-1.5708,-0.523598,-9.49362e-08,-2.09439,-2.39618e-08,1.5708,0.785399,0.00102108,-0.000408361,-0.000668378,0.000589845,-4.76329e-05,-0.000230932,0.000424783,0,0,0,0,0,0,0,-0.656727,-10.1892,-0.635312,20.7972,1.96138,1.50808,-0.181082,-0.627864,-1.08178,-0.177451,2.27733,1.24577,-0.169755,-0.163759
2169993,1,-1.57028,-0.522838,5.88918e-05,-2.09583,-0.00161769,1.57107,0.785718,-1.5708,-0.523598,-9.49362e-08,-2.09439,-2.39618e-08,1.5708,0.785399,0.000123906,0.000934186,-0.0010024,0.00104284,-3.17554e-05,-0.000391313,4.583e-05,0,0,0,0,0,0,0,-0.632923,-10.2408,-0.611508,20.7694,1.96138,1.51449,-0.174673,-0.627769,-1.08189,-0.177308,2.27759,1.24574,-0.169717,-0.163673
2169994,1,-1.57028,-0.522839,6.05623e-05,-2.09583,-0.0016183,1.57107,0.785715,-1.5708,-0.523598,-9.49362e-08,-2.09439,-2.39618e-08,1.5708,0.785399,0.000639416,0.00062279,-0.000111453,-0.000511197,-0.000224621,0.000451201,-0.000206806,0,0,0,0,0,0,0,-0.656727,-10.2408,-0.635312,20.821,1.96687,1.49526,-0.168264,-0.627344,-1.08278,-0.1765,2.27762,1.24572,-0.169715,-0.163655
2169995,1,-1.57028,-0.522841,6.22327e-05,-2.09583,-0.00161769,1.57107,0.785714,-1.5708,-0.523598,-9.49362e-08,-2.09439,-2.39618e-08,1.5708,0.785399,0.000983089,-0.00023442,0.00048251,0.000216014,5.37033e-05,0.000572068,-0.000375229,0,0,0,0,0,0,0,-0.680531,-10.213,-0.659116,20.7972,1.96138,1.48794,-0.161856,-0.62748,-1.08451,-0.176401,2.27806,1.2457,-0.169673,-0.163689
2169996,1,-1.57029,-0.522841,6.05623e-05,-2.09583,-0.00161708,1.57107,0.785718,-1.5708,-0.523598,-9.49362e-08,-2.09439,-2.39618e-08,1.5708,0.785399,-0.00110784,-0.00015628,-0.000235139,-0.000412802,0.000239253,0.000110111,0.001174,0,0,0,0,0,0,0,-0.605152,-10.213,-0.635312,20.821,1.95589,1.49526,-0.200308,-0.628154,-1.08536,-0.17707,2.27825,1.24567,-0.169637,-0.163758
2169997,1,-1.57028,-0.522842,6.05623e-05,-2.09583,-0.00161708,1.57107,0.785719,-1.5708,-0.523598,-9.49362e-08,-2.09439,-2.39618e-08,1.5708,0.785399,-0.000738563,-0.000660999,-0.000156759,0.000931224,0.000159502,-0.000163951,0.000307949,0,0,0,0,0,0,0,-0.605152,-10.1892,-0.635312,20.7694,1.95589,1.50167,-0.18749,-0.628118,-1.08455,-0.176808,2.27767,1.24567,-0.169665,-0.163866
2169998,1,-1.57028,-0.522837,6.41816e-05,-2.09583,-0.00161891,1.57107,0.785718,-1.5708,-0.523598,-9.49362e-08,-2.09439,-2.39618e-08,1.5708,0.785399,0.000157238,0.00132257,0.00110192,0.000620816,-0.000504017,0.000399325,0.000442658,0,0,0,0,0,0,0,-0.632923,-10.2646,-0.686887,20.7694,1.97237,1.48794,-0.193899,-0.62776,-1.08311,-0.176199,2.27648,1.24567,-0.169774,-0.164027
2169999,1,-1.57028,-0.522841,6.05623e-05,-2.09583,-0.0016183,1.57107,0.785716,-1.5708,-0.523598,-9.49362e-08,-2.09439,-2.39618e-08,1.5708,0.785399,0.000104826,-0.000324711,-0.000471813,-0.000235736,-0.000132561,-5.05041e-06,-0.000179612,0,0,0,0,0,0,0,-0.632923,-10.213,-0.635312,20.7972,1.96687,1.49526,-0.181082,-0.627976,-1.08281,-0.176457,2.27561,1.24565,-0.169888,-0.164246
2170000,1,-1.57028,-0.522841,6.05623e-05,-2.09583,-0.00161769,1.57107,0.78572,-1.5708,-0.523598,-9.49362e-08,-2.09439,-2.39618e-08,1.5708,0.785399,6.98837e-05,-0.000216474,-0.000314542,-0.000157158,0.000115077,-3.36694e-06,0.000117617,0,0,0,0,0,0,0,-0.632923,-10.213,-0.635312,20.7972,1.96138,1.49526,-0.18749,-0.628195,-1.08294,-0.176648,2.27519,1.24566,-0.169959,-0.164526
2170001,1,-1.57029,-0.522841,6.22327e-05,-2.09583,-0.00161891,1.57107,0.785722,-1.5708,-0.523598,-9.49362e-08,-2.09439,-2.39618e-08,1.5708,0.785399,-0.00115984,-0.000144316,0.000347117,-0.000104772,-0.000330183,0.000269023,0.00055313,0,0,0,0,0,0,0,-0.581349,-10.213,-0.659116,20.7972,1.97237,1.48794,-0.200308,-0.627943,-1.08251,-0.176161,2.27479,1.24571,-0.170016,-0.16486
2170002,1,-1.57028,-0.522842,6.22327e-05,-2.09583,-0.00161769,1.57107,0.785718,-1.5708,-0.523598,-9.49362e-08,-2.09439,-2.39618e-08,1.5708,0.785399,0.000990013,-0.000653023,0.000231412,0.000579766,0.000186779,0.000179348,-0.000105965,0,0,0,0,0,0,0,-0.656727,-10.1892,-0.659116,20.7694,1.96138,1.48794,-0.18749,-0.627734,-1.08131,-0.175837,2.27404,1.24576,-0.170116,-0.16524
2170003,1,-1.57028,-0.522844,5.88918e-05,-2.09583,-0.00161708,1.57107,0.785718,-1.5708,-0.523598,-9.49362e-08,-2.09439,-2.39618e-08,1.5708,0.785399,0.000103197,-0.00099216,-0.000959349,-0.000263103,0.00032797,-0.00062642,0.000404075,0,0,0,0,0,0,0,-0.632923,-10.1654,-0.611508,20.7972,1.95589,1.50808,-0.200308,-0.62785,-1.07863,-0.175917,2.27253,1.2458,-0.17029,-0.165667
2170004,1,-1.57028,-0.522837,6.05623e-05,-2.09583,-0.0016183,1.57107,0.785714,-1.5708,-0.523598,-9.49362e-08,-2.09439,-2.39618e-08,1.5708,0.785399,6.8798e-05,0.00165861,-8.27544e-05,-0.000175402,-0.000188255,-0.000417613,-0.000917412,0,0,0,0,0,0,0,-0.632923,-10.2646,-0.635312,20.7972,1.96687,1.50808,-0.168264,-0.627767,-1.07673,-0.175567,2.27151,1.24586,-0.170422,-0.166138
2170005,1,-1.57029,-0.522839,6.41816e-05,-2.09583,-0.0016183,1.57107,0.785718,-1.5708,-0.523598,-9.49362e-08,-2.09439,-2.39618e-08,1.5708,0.785399,-0.00116056,0.000548928,0.00115126,-0.000116935,-0.000125503,-4.10498e-05,-0.000374249,0,0,0,0,0,0,0,-0.581349,-10.2408,-0.686887,20.7972,1.96687,1.50167,-0.174673,-0.627564,-1.07848,-0.175128,2.27225,1.24595,-0.170412,-0.166631
2170006,1,-1.57028,-0.522842,6.22327e-05,-2.09583,-0.00161769,1.57107,0.785721,-1.5708,-0.523598,-9.49362e-08,-2.09439,-2.39618e-08,1.5708,0.785399,-0.000216895,-0.000840474,0.00011789,-0.000634768,0.000119782,-2.73665e-05,0.000225219,0,0,0,0,0,0,0,-0.605152,-10.1892,-0.659116,20.821,1.96138,1.50167,-0.18749,-0.627585,-1.0815,-0.175279,2.27366,1.24606,-0.170333,-0.16712
2170007,1,-1.57029,-0.522837,6.05623e-05,-2.09583,-0.00161708,1.57107,0.785717,-1.5708,-0.523598,-9.49362e-08,-2.09439,-2.39618e-08,1.5708,0.785399,-0.000701409,0.00064611,-0.000478218,-0.000423179,0.000283305,-0.000255603,-8.72132e-05,0,0,0,0,0,0,0,-0.581349,-10.2408,-0.635312,20.821,1.95589,1.50808,-0.181082,-0.627346,-1.08347,-0.175214,2.27481,1.24617,-0.170242,-0.167592
2170008,1,-1.57028,-0.52284,6.22327e-05,-2.09583,-0.00161891,1.57107,0.785713,-1.5708,-0.523598,-9.49362e-08,-2.09439,-2.39618e-08,1.5708,0.785399,0.00073882,-0.000218874,0.000238,0.000274693,-0.000421482,-0.000170402,-0.00100758,0,0,0,0,0,0,0,-0.632923,-10.213,-0.659116,20.7972,1.97237,1.50808,-0.155447,-0.626825,-1.08509,-0.174756,2.27577,1.24628,-0.170147,-0.168048
2170009,1,-1.57028,-0.522838,6.22327e-05,-2.09583,-0.00161708,1.57107,0.785718,-1.5708,-0.523598,-9.49362e-08,-2.09439,-2.39618e-08,1.5708,0.785399,0.000492547,0.000503698,0.000158666,-0.000373684,0.000329364,0.000123757,4.03582e-05,0,0,0,0,0,0,0,-0.632923,-10.2408,-0.659116,20.821,1.95589,1.50167,-0.174673,-0.626842,-1.08645,-0.175039,2.27641,1.24636,-0.170074,-0.168471
2170010,1,-1.57028,-0.522837,6.41816e-05,-2.09583,-0.00161769,1.57107,0.785717,-1.5708,-0.523598,-9.49362e-08,-2.09439,-2.39618e-08,1.5708,0.785399,0.000328364,0.000892611,0.000755392,-0.000805934,1.61254e-05,-0.000154854,-0.000685171,0,0,0,0,0,0,0,-0.632923,-10.2646,-0.686887,20.8448,1.96138,1.50808,-0.155447,-0.627643,-1.08861,-0.176453,2.27748,1.24639,-0.169953,-0.168838
2170011,1,-1.57028,-0.522841,6.05623e-05,-2.09583,-0.00161891,1.57107,0.785719,-1.5708,-0.523598,-9.49362e-08,-2.09439,-2.39618e-08,1.5708,0.785399,0.000775722,-0.000611352,-0.000702832,-0.0011869,-0.000396151,0.000134123,0.000255296,0,0,0,0,0,0,0,-0.656727,-10.213,-0.635312,20.8725,1.97237,1.50167,-0.174673,-0.628699,-1.09171,-0.178225,2.27935,1.24643,-0.169739,-0.169142
2170012,1,-1.57028,-0.522839,5.6943e-05,-2.09583,-0.00161769,1.57107,0.785715,-1.5708,-0.523598,-9.49362e-08,-2.09439,-2.39618e-08,1.5708,0.785399,-3.96642e-05,0.000242046,-0.00167498,0.000971969,0.000142801,0.000326774,-0.00128786,0,0,0,0,0,0,0,-0.632923,-10.2408,-0.583737,20.7972,1.96138,1.49526,-0.135305,-0.628904,-1.09353,-0.178592,2.28067,1.24649,-0.169558,-0.169391
2170013,1,-1.57028,-0.522839,6.22327e-05,-2.09583,-0.00161708,1.57107,0.785715,-1.5708,-0.523598,-9.49362e-08,-2.09439,-2.39618e-08,1.5708,0.785399,0.000530369,0.000161364,0.000646584,9.11673e-05,0.000298651,-1.95094e-05,-0.000858577,0,0,0,0,0,0,0,-0.656727,-10.2408,-0.659116,20.821,1.95589,1.50167,-0.135305,-0.628219,-1.09364,-0.177475,2.28064,1.24657,-0.169519,-0.169581
2170014,1,-1.57028,-0.522837,6.22327e-05,-2.09583,-0.00161769,1.57107,0.785716,-1.5708,-0.523598,-9.49362e-08,-2.09439,-2.39618e-08,1.5708,0.785399,-0.000203233,0.000107576,0.000431056,0.00061759,-4.34994e-06,0.000224353,0.000885678,0,0,0,0,0,0,0,-0.632923,-10.2408,-0.659116,20.7972,1.96138,1.49526,-0.174673,-0.627991,-1.09299,-0.176999,2.27981,1.24661,-0.169583,-0.169677
2170015,1,-1.57028,-0.522839,6.5852e-05,-2.09583,-0.00161708,1.57107,0.785713,-1.5708,-0.523598,-9.49362e-08,-2.09439,-2.39618e-08,1.5708,0.785399,-0.000785102,-0.00113471,0.0014938,0.000411727,0.000200551,0.000420836,-0.00110497,0,0,0,0,0,0,0,-0.605152,-10.1892,-0.710691,20.7972,1.95589,1.48794,-0.128897,-0.62854,-1.09088,-0.177819,2.27814,1.24659,-0.169737,-0.169672
2170016,1,-1.57028,-0.522841,5.88918e-05,-2.09583,-0.00161708,1.57107,0.785713,-1.5708,-0.523598,-9.49362e-08,-2.09439,-2.39618e-08,1.5708,0.785399,-0.000523402,-0.000756472,-0.00132419,-0.000282327,0.0001337,0.000280557,9.33911e-06,0,0,0,0,0,0,0,-0.605152,-10.1892,-0.611508,20.821,1.95589,1.48794,-0.149038,-0.628868,-1.08672,-0.17849,2.2756,1.24656,-0.169967,-0.169591
2170017,1,-1.57028,-0.522842,6.22327e-05,-2.09583,-0.00161769,1.57107,0.785715,-1.5708,-0.523598,-9.49362e-08,-2.09439,-2.39618e-08,1.5708,0.785399,0.00030068,-0.000504315,0.000230834,0.000368594,-0.000114317,-0.000321588,-0.000265041,0,0,0,0,0,0,0,-0.632923,-10.1892,-0.659116,20.7972,1.96138,1.50167,-0.141714,-0.628359,-1.08188,-0.177923,2.27301,1.24656,-0.170204,-0.169437
2170018,1,-1.57028,-0.522839,6.22327e-05,-2.09583,-0.00161891,1.57107,0.785715,-1.5708,-0.523598,-9.49362e-08,-2.09439,-2.39618e-08,1.5708,0.785399,-0.000449161,0.000870216,0.000153889,0.000245729,-0.000483112,2.29668e-05,-0.000414053,0,0,0,0,0,0,0,-0.605152,-10.2408,-0.659116,20.7972,1.97237,1.49526,-0.135305,-0.627703,-1.07853,-0.177091,2.27119,1.24656,-0.1704,-0.169202
2170019,1,-1.57028,-0.522837,6.22327e-05,-2.09583,-0.00161647,1.57107,0.785714,-1.5708,-0.523598,-9.49362e-08,-2.09439,-2.39618e-08,1.5708,0.785399,0.000350173,0.00113696,0.000102593,0.000163819,0.000491727,1.53112e-05,0.00046995,0,0,0,0,0,0,0,-0.632923,-10.2646,-0.659116,20.7972,1.9504,1.49526,-0.155447,-0.627382,-1.07857,-0.176774,2.27087,1.24656,-0.17051,-0.168889
2170020,1,-1.57028,-0.522841,6.05623e-05,-2.09583,-0.00162088,1.57107,0.785715,-1.5708,-0.523598,-9.49362e-08,-2.09439,-2.39618e-08,1.5708,0.785399,-0.000416165,-0.000448455,-0.000488417,-0.00100441,-7.90829e-05,-0.00046451,0.000788018,0,0,0,0,0,0,0,-0.605152,-10.213,-0.635312,20.8448,1.96138,1.50808,-0.168264,-0.627068,-1.08123,-0.176464,2.27197,1.24658,-0.170507,-0.168511
2170021,1,-1.57028,-0.522841,6.05623e-05,-2.09583,-0.00161936,1.57107,0.785718,-1.5708,-0.523598,-9.49362e-08,-2.09439,-2.39618e-08,1.5708,0.785399,0.000372171,-0.00029897,-0.000325611,0.00109363,-0.000256172,-7.23147e-05,0.000762704,0,0,0,0,0,0,0,-0.632923,-10.213,-0.635312,20.7694,1.96687,1.50167,-0.174673,-0.626492,-1.08324,-0.17574,2.27302,1.24661,-0.170485,-0.168105
2170022,1,-1.57028,-0.522842,6.22327e-05,-2.09583,-0.00161804,1.57107,0.785717,-1.5708,-0.523598,-9.49362e-08,-2.09439,-2.39618e-08,1.5708,0.785399,0.000248114,-0.000756125,0.000339738,-0.000477339,3.26689e-05,0.000189149,-0.000203607,0,0,0,0,0,0,0,-0.632923,-10.1892,-0.659116,20.821,1.96138,1.49526,-0.155447,-0.626074,-1.08298,-0.175205,2.27292,1.24661,-0.170546,-0.167711
2170023,1,-1.57028,-0.52284,5.88918e-05,-2.09583,-0.00161842,1.57107,0.785713,-1.5708,-0.523598,-9.49362e-08,-2.09439,-2.39618e-08,1.5708,0.785399,-0.000484205,-0.000504084,-0.000887132,0.000238586,-0.000181671,0.000126099,-0.000644365,0,0,0,0,0,0,0,-0.605152,-10.1892,-0.611508,20.7972,1.96687,1.49526,-0.141714,-0.625811,-1.08118,-0.174878,2.2721,1.24659,-0.170652,-0.167353
2170024,1,-1.57028,-0.522838,6.05623e-05,-2.09583,-0.00161712,1.57107,0.785717,-1.5708,-0.523597,2.28518e-06,-2.0944,1.36863e-06,1.5708,0.785403,-0.000322803,0.00087037,-3.46094e-05,0.000159057,0.000285787,0.000592693,0.00126584,0.000308385,0.00112747,0.00238011,-0.0022384,0.00139259,0.00490937,0.00323246,-0.605152,-10.2408,-0.635312,20.7972,1.95589,1.48153,-0.18749,-0.625057,-1.07979,-0.173849,2.27145,1.24661,-0.170747,-0.167024
2170025,1,-1.57028,-0.52284,6.22327e-05,-2.09583,-0.0016177,1.57107,0.785717,-1.57079,-0.523595,7.04541e-06,-2.0944,4.15381e-06,1.57081,0.785409,-0.000215202,-6.93672e-05,0.000533739,-0.00100759,-1.29259e-05,-0.000350857,0.00013182,0.000616769,0.00225493,0.00476023,-0.00447681,0.00278518,0.00981874,0.00646491,-0.605152,-10.213,-0.659116,20.8448,1.96138,1.50167,-0.168264,-0.624278,-1.08043,-0.172845,2.27179,1.24666,-0.170776,-0.166716
2170026,1,-1.57028,-0.522841,6.41816e-05,-2.09583,-0.00161708,1.57107,0.785719,-1.57079,-0.523592,1.41858e-05,-2.09441,8.33159e-06,1.57083,0.785419,0.000506146,-4.62448e-05,0.00100544,0.00109151,0.000194833,3.45438e-06,0.000325239,0.000925154,0.0033824,0.00714034,-0.00671521,0.00417778,0.0147281,0.00969737,-0.632923,-10.213,-0.686887,20.7694,1.95589,1.49526,-0.174673,-0.624451,-1.0819,-0.173331,2.27268,1.24666,-0.170772,-0.166442
2170027,1,-1.57028,-0.522841,6.37947e-05,-2.09583,-0.00161891,1.57107,0.785717,-1.57079,-0.523587,2.37062e-05,-2.09442,1.3902e-05,1.57085,0.785432,0.000337431,0.0033181,0.00397427,-0.000644135,-0.000480463,-0.000947133,-0.00073261,0.00123354,0.00450986,0.00952046,-0.00895362,0.00557037,0.0196375,0.0129298,-0.632923,-10.0901,-0.559934,20.698,1.97237,1.5209,-0.149038,-0.626658,-1.08515,-0.176986,2.27423,1.24658,-0.170739,-0.166208
2170028,1,-1.57028,-0.522846,6.58616e-05,-2.09583,-0.00161765,1.57107,0.785717,-1.57079,-0.523582,3.56068e-05,-2.09443,2.08649e-05,1.57087,0.785448,-0.000223864,0.00058273,0.00668055,-0.000961797,-0.000964568,-0.00158086,0.00918303,0.00154192,0.00563733,0.0119006,-0.011192,0.00696296,0.0245468,0.0161623,-0.478199,-9.733,-0.306028,20.448,1.98976,1.54653,-0.155447,-0.632265,-1.0926,-0.186099,2.27798,1.24637,-0.170522,-0.165994
2170029,1,-1.57029,-0.522843,7.43068e-05,-2.09583,-0.00161851,1.57107,0.785718,-1.57079,-0.523575,4.98875e-05,-2.09444,2.92205e-05,1.5709,0.785467,-0.00314884,0.00245079,0.00848503,-0.000732566,-0.00128731,-0.00319014,0.00616221,0.00185031,0.00676479,0.0142807,-0.0134304,0.00835555,0.0294562,0.0193947,-0.204456,-9.37991,-0.0283176,20.1505,2.00716,1.60421,-0.135305,-0.641086,-1.102,-0.200697,2.2832,1.24605,-0.170078,-0.165782
2170030,1,-1.57029,-0.522837,8.75654e-05,-2.09583,-0.00161562,1.57107,0.785713,-1.57079,-0.523567,6.65483e-05,-2.09446,3.89686e-05,1.57093,0.78549,-0.003849,0.0042105,0.0102383,-0.000409855,-1.04933e-05,-0.00283883,0.00256154,0.00215869,0.00789226,0.0166608,-0.0156688,0.00974814,0.0343656,0.0226272,0.0256461,-9.02682,0.249392,19.7022,1.98427,1.62344,-0.077627,-0.65129,-1.1129,-0.218242,2.28911,1.24574,-0.169369,-0.165548
2170031,1,-1.5703,-0.522831,0.000109849,-2.09584,-0.00161291,1.57107,0.785717,-1.57078,-0.523558,8.55892e-05,-2.09448,5.01093e-05,1.57097,0.785516,-0.00407476,0.00390552,0.0135463,-0.00067767,-0.000210446,-0.00189256,0.00333671,0.00246708,0.00901972,0.0190409,-0.0179072,0.0111407,0.0392749,0.0258597,0.251781,-8.72531,0.451724,19.3808,1.98976,1.62344,-0.10967,-0.662128,-1.12594,-0.237615,2.29522,1.24547,-0.168321,-0.165234
2170032,1,-1.57031,-0.522815,0.000127809,-2.09585,-0.00160987,1.57108,0.78572,-1.57078,-0.523548,0.00010701,-2.0945,6.26427e-05,1.57102,0.785545,-0.00728497,0.00659273,0.0141802,-0.000890029,0.000503963,-0.00173642,0.00255614,0.00277546,0.0101472,0.021421,-0.0201456,0.0125333,0.0441843,0.0290921,0.477917,-8.54678,0.733401,19.0555,1.97237,1.63626,-0.10967,-0.672857,-1.14005,-0.257822,2.30044,1.24526,-0.166894,-0.164772
2170033,1,-1.57031,-0.522803,0.000155832,-2.09586,-0.00160885,1.57109,0.785725,-1.57078,-0.523536,0.000130811,-2.09452,7.65686e-05,1.57107,0.785577,-0.00672856,0.0110099,0.0173243,-0.00272974,-0.000511735,0.00423301,0.00313964,0.00308385,0.0112747,0.0238011,-0.022384,0.0139259,0.0490937,0.0323246,0.581066,-8.34445,0.907962,18.8056,1.99526,1.61703,-0.141714,-0.681869,-1.1589,-0.276683,2.30599,1.24519,-0.164939,-0.164139
2170034,1,-1.57031,-0.522799,0.000180805,-2.09588,-0.00160956,1.5711,0.785731,-1.57077,-0.523523,0.000158782,-2.09454,9.26814e-05,1.57112,0.785614,-0.00555713,0.00938146,0.0213301,-0.00870241,0.00267982,0.00897004,0.00302564,0.00362618,0.0132375,0.027971,-0.0262917,0.0161128,0.056795,0.0373949,0.77943,-8.06674,1.13806,18.6072,2.04103,1.5914,-0.161856,-0.690167,-1.18617,-0.295598,2.3142,1.24523,-0.162247,-0.163353
2170035,1,-1.57032,-0.522792,0.000216919,-2.09589,-0.00160988,1.57111,0.785736,-1.57077,-0.523508,0.000190923,-2.09457,0.000110981,1.57119,0.785657,-0.00610656,0.00626276,0.0277762,-0.0109846,0.00051807,0.0110779,0.00239437,0.00416851,0.0152003,0.0321409,-0.0301994,0.0182997,0.0644963,0.0424653,0.906383,-7.84061,1.21344,18.4604,2.08589,1.5978,-0.168264,-0.700778,-1.2158,-0.319023,2.32398,1.24527,-0.158814,-0.162464
2170036,1,-1.57032,-0.522787,0.000242088,-2.09591,-0.0016121,1.57112,0.785744,-1.57077,-0.523491,0.000227234,-2.09461,0.000131468,1.57126,0.785704,-0.006058,0.00643,0.0265102,-0.0156152,-0.000614457,0.0107266,0.00193855,0.00471085,0.0171631,0.0363107,-0.0341071,0.0204866,0.0721977,0.0475356,1.00953,-7.5867,1.41577,18.3097,2.11977,1.65548,-0.174673,-0.713821,-1.23948,-0.347215,2.33246,1.24534,-0.154782,-0.161546
2170037,1,-1.57032,-0.522776,0.0002713,-2.09593,-0.00161276,1.57114,0.785756,-1.57076,-0.523472,0.000267715,-2.09465,0.000154141,1.57134,0.785757,-0.00306963,0.0102895,0.0281868,-0.0166554,-0.00164662,0.0102457,0.00583934,0.00525318,0.0191259,0.0404806,-0.0380148,0.0226735,0.079899,0.052606,0.981762,-7.3566,1.64191,18.2105,2.15914,1.72689,-0.168264,-0.726596,-1.25867,-0.375668,2.34012,1.24565,-0.150082,-0.160667
2170038,1,-1.57032,-0.522765,0.000306858,-2.09595,-0.00160893,1.57115,0.785767,-1.57075,-0.523451,0.000312365,-2.09469,0.000179001,1.57143,0.785815,-0.00280748,0.0109337,0.0320608,-0.0202725,0.00353506,0.0137871,0.00833081,0.00579552,0.0210887,0.0446504,-0.0419225,0.0248603,0.0876003,0.0576763,1.16029,-7.03128,1.89582,17.9605,2.16463,1.82302,-0.149038,-0.738486,-1.27881,-0.402741,2.34854,1.24632,-0.144588,-0.159865
2170039,1,-1.57033,-0.522758,0.000349903,-2.09597,-0.00160121,1.57117,0.785784,-1.57075,-0.523428,0.000361185,-2.09473,0.000206049,1.57152,0.785877,-0.00280184,0.0117034,0.0344551,-0.0227754,0.00388752,0.0123024,0.0107021,0.00633785,0.0230515,0.0488203,-0.0458302,0.0270472,0.0953017,0.0627467,1.48561,-6.57504,2.17353,17.6908,2.13716,1.91366,-0.141714,-0.750192,-1.30039,-0.429197,2.35746,1.24734,-0.138241,-0.159149
2170040,1,-1.57033,-0.522736,0.000387733,-2.096,-0.00159133,1.5712,0.785795,-1.57074,-0.523403,0.000414175,-2.09478,0.000235283,1.57163,0.785945,-0.00574797,0.0154413,0.035385,-0.0245216,0.00362111,0.0223975,0.0151261,0.00688019,0.0250143,0.0529902,-0.0497378,0.0292341,0.103003,0.067817,1.68794,-6.24576,2.62976,17.417,2.11977,1.95211,-0.077627,-0.759716,-1.3228,-0.452244,2.36598,1.24881,-0.131008,-0.158507
2170041,1,-1.57034,-0.522718,0.000434961,-2.09603,-0.00157152,1.57124,0.785812,-1.57073,-0.523376,0.000471336,-2.09484,0.000266704,1.57174,0.786018,-0.00607383,0.0178562,0.0388541,-0.024559,0.00416102,0.0313471,0.00964053,0.00742252,0.0269771,0.05716,-0.0536455,0.031421,0.110704,0.0728874,1.94184,-5.89267,2.98682,17.0917,2.0804,1.95211,-0.0254419,-0.764239,-1.34682,-0.468071,2.37265,1.25081,-0.123059,-0.157892
2170042,1,-1.57034,-0.522693,0.000492648,-2.09608,-0.00155363,1.57129,0.785833,-1.57073,-0.523347,0.000532665,-2.0949,0.000300312,1.57185,0.786096,-0.00489822,0.0183282,0.0439291,-0.0295658,0.00876195,0.0395754,0.0149583,0.00796486,0.0289399,0.0613299,-0.0575532,0.0336079,0.118406,0.0779577,2.14418,-5.61496,3.23676,16.9687,2.05202,1.90725,0.0258276,-0.764554,-1.37086,-0.477926,2.37574,1.25317,-0.114579,-0.157187
2170043,1,-1.57034,-0.522675,0.000544829,-2.09611,-0.00154092,1.57136,0.785856,-1.57072,-0.523316,0.000598165,-2.09496,0.000336106,1.57198,0.786179,-0.00287539,0.0167757,0.0469862,-0.0307745,0.00941691,0.046755,0.0215549,0.00850719,0.0309028,0.0654997,-0.0614609,0.0357948,0.126107,0.0830281,2.29493,-5.26187,3.51844,16.7426,2.09688,1.82943,0.129282,-0.763637,-1.38938,-0.485921,2.37337,1.25557,-0.105679,-0.156241
2170044,1,-1.57034,-0.522651,0.000599814,-2.09616,-0.00152155,1.57143,0.785886,-1.57071,-0.523282,0.000669151,-2.09502,0.00037452,1.57212,0.786268,-0.00151694,0.0179965,0.047409,-0.0342185,0.00989863,0.0542575,0.0230448,0.00922421,0.0334637,0.0709859,-0.0665784,0.0384132,0.13531,0.0890863,2.44569,-5.00797,3.74457,16.6196,2.14815,1.81661,0.213511,-0.762004,-1.39671,-0.492333,2.3635,1.25782,-0.096596,-0.154889
2170045,1,-1.57034,-0.522637,0.000663525,-2.09622,-0.00150348,1.57151,0.785925,-1.5707,-0.523246,0.000745623,-2.09509,0.000415551,1.57226,0.786363,-0.00186825,0.0169969,0.0530469,-0.0422959,0.00914504,0.0632335,0.0305432,0.00994124,0.0360247,0.0764721,-0.0716959,0.0410316,0.144513,0.0951444,2.52107,-4.67868,3.87152,16.6196,2.23329,1.84225,0.24647,-0.758571,-1.39276,-0.495377,2.34744,1.25999,-0.0873687,-0.152927
2170046,1,-1.57033,-0.522622,0.000722075,-2.09628,-0.00148133,1.57159,0.785969,-1.57069,-0.523208,0.000827581,-2.09517,0.000459201,1.57241,0.786465,0.00260717,0.0191862,0.0526543,-0.0471023,0.0144804,0.069261,0.03598,0.0106583,0.0385857,0.0819583,-0.0768134,0.04365,0.153716,0.101203,2.52107,-4.3494,4.05005,16.572,2.28914,1.88803,0.291331,-0.753347,-1.3815,-0.495,2.32941,1.26226,-0.077749,-0.150154
2170047,1,-1.57032,-0.522599,0.000788912,-2.09633,-0.0014552,1.57168,0.786021,-1.57068,-0.523167,0.000915026,-2.09525,0.00050547,1.57258,0.786572,0.00621357,0.0230221,0.058472,-0.0522358,0.0140911,0.0788902,0.0412395,0.0113753,0.0411467,0.0874445,-0.0819309,0.0462684,0.162919,0.107261,2.49726,-4.09946,4.22461,16.445,2.34041,1.92648,0.291331,-0.747826,-1.36894,-0.492814,2.31314,1.26476,-0.0675326,-0.146432
2170048,1,-1.57031,-0.522572,0.00086073,-2.0964,-0.00142105,1.57179,0.786078,-1.57066,-0.523123,0.00100796,-2.09534,0.000554356,1.57275,0.786685,0.0046303,0.0255358,0.0679615,-0.0550637,0.0218929,0.0856877,0.0485317,0.0120923,0.0437077,0.0929307,-0.0870484,0.0488869,0.172122,0.113319,2.64802,-3.84555,4.42694,16.2983,2.30104,1.97134,0.337107,-0.745149,-1.36014,-0.493462,2.30046,1.26751,-0.0566894,-0.141689
2170049,1,-1.57031,-0.522549,0.000935682,-2.09646,-0.00137986,1.5719,0.786146,-1.57065,-0.523077,0.00110637,-2.09543,0.000605862,1.57293,0.786805,0.00623832,0.0244929,0.0706691,-0.0600351,0.0279127,0.095757,0.0554056,0.0128093,0.0462687,0.0984169,-0.0921659,0.0515053,0.181325,0.119377,2.82258,-3.46469,4.70862,16.1237,2.24977,2.0162,0.337107,-0.746937,-1.35293,-0.499932,2.28968,1.27047,-0.0453817,-0.135942
2170050,1,-1.57029,-0.522525,0.00101594,-2.09654,-0.00133687,1.57203,0.786225,-1.57064,-0.523028,0.00121028,-2.09553,0.000659985,1.57312,0.78693,0.00718088,0.0232348,0.0760834,-0.0657286,0.0274782,0.104553,0.0662069,0.0135263,0.0488297,0.103903,-0.0972834,0.0541237,0.190529,0.125435,2.87416,-3.06003,4.98633,15.8976,2.19942,2.03543,0.297739,-0.751713,-1.33991,-0.510048,2.27751,1.27365,-0.0337898,-0.129267
2170051,1,-1.57029,-0.522486,0.00109852,-2.09662,-0.00129116,1.57216,0.786312,-1.57062,-0.522976,0.00131967,-2.09563,0.000716728,1.57332,0.787061,0.00743788,0.0273071,0.0759677,-0.0748183,0.0312499,0.116795,0.0750529,0.0142434,0.0513906,0.109389,-0.102401,0.0567421,0.199732,0.131493,3.07649,-2.8577,5.31562,15.727,2.15914,2.02261,0.252878,-0.756433,-1.32013,-0.518981,2.26463,1.27712,-0.0217547,-0.121783
2170052,1,-1.57028,-0.522453,0.00119032,-2.09671,-0.0012455,1.57231,0.786401,-1.57061,-0.522922,0.00143454,-2.09574,0.000776088,1.57353,0.787199,0.00730757,0.0245923,0.0782055,-0.0798573,0.0380695,0.127419,0.0802194,0.0149604,0.0539516,0.114875,-0.107518,0.0593606,0.208935,0.137552,3.17567,-2.55618,5.54175,15.6238,2.13075,1.97134,0.240061,-0.757029,-1.29685,-0.520326,2.25325,1.28094,-0.00904542,-0.113693
2170053,1,-1.57027,-0.52242,0.00127916,-2.0968,-0.00120314,1.57248,0.786501,-1.57059,-0.522866,0.0015549,-2.09585,0.000838067,1.57375,0.787343,0.00745458,0.0261365,0.0788334,-0.0816751,0.0412053,0.139846,0.086551,0.0156774,0.0565126,0.120362,-0.112636,0.061979,0.218138,0.14361,3.25502,-2.27847,5.81946,15.4532,2.16463,1.91366,0.272104,-0.750482,-1.26608,-0.509298,2.24016,1.28499,0.00398019,-0.10524
2170054,1,-1.57027,-0.52239,0.00137305,-2.09689,-0.00115013,1.57265,0.786607,-1.57058,-0.522806,0.00168169,-2.09597,0.000902877,1.57398,0.787493,0.00750622,0.0267606,0.0847339,-0.0857725,0.0399802,0.15663,0.0968521,0.0165219,0.0594794,0.126784,-0.118592,0.0648095,0.228057,0.150137,3.33039,-1.97299,5.99799,15.3778,2.17104,1.88162,0.284922,-0.736584,-1.22358,-0.485576,2.22088,1.28908,0.0166463,-0.0966076
2170055,1,-1.57026,-0.522352,0.00147844,-2.097,-0.00110144,1.57283,0.786717,-1.57056,-0.522744,0.00181489,-2.0961,0.000970517,1.57421,0.787649,0.00757688,0.0290629,0.0869146,-0.0928265,0.0426535,0.163744,0.102518,0.0173664,0.0624461,0.133207,-0.124549,0.0676401,0.237975,0.156665,3.40577,-1.74686,6.12494,15.3263,2.21041,1.90084,0.362742,-0.716982,-1.17189,-0.451762,2.19602,1.29312,0.0287293,-0.0878759
2170056,1,-1.57024,-0.522315,0.00158813,-2.09711,-0.0010478,1.57302,0.786835,-1.57054,-0.522679,0.00195452,-2.09623,0.00104099,1.57446,0.787813,0.0101381,0.0311999,0.0954177,-0.0984028,0.0442427,0.173825,0.107523,0.0182109,0.0654129,0.13963,-0.130505,0.0704706,0.247894,0.163193,3.378,-1.54453,6.22809,15.3263,2.26076,1.91366,0.434153,-0.694638,-1.11671,-0.412332,2.1696,1.29708,0.0405145,-0.0790314
2170057,1,-1.57024,-0.522273,0.00170008,-2.09722,-0.000989056,1.57322,0.786968,-1.57052,-0.52261,0.00210058,-2.09636,0.00111429,1.57472,0.787982,0.0123477,0.0327286,0.0997892,-0.101025,0.0509908,0.180362,0.117545,0.0190554,0.0683796,0.146053,-0.136462,0.0733012,0.257813,0.169721,3.45338,-1.34219,6.40265,15.2509,2.28365,1.96493,0.453379,-0.673812,-1.06075,-0.373502,2.14342,1.30083,0.0521592,-0.0699752
2170058,1,-1.57023,-0.522232,0.00182845,-2.09733,-0.000927081,1.57343,0.787099,-1.5705,-0.522539,0.00225305,-2.09651,0.00119042,1.57499,0.788159,0.010928,0.0362629,0.107546,-0.105485,0.05733,0.188651,0.123604,0.0198999,0.0713463,0.152476,-0.142418,0.0761317,0.267732,0.176249,3.53273,-1.11606,6.5296,15.0287,2.28365,2.04916,0.511057,-0.656789,-1.00396,-0.338694,2.11679,1.3043,0.0636205,-0.0605917
2170059,1,-1.57022,-0.52219,0.00194651,-2.09745,-0.000853501,1.57365,0.787246,-1.57048,-0.522464,0.00241195,-2.09665,0.00126938,1.57527,0.788341,0.00822315,0.0405075,0.109037,-0.112621,0.0588453,0.199624,0.130685,0.0207444,0.0743131,0.158899,-0.148375,0.0789622,0.277651,0.182776,3.68348,-0.838348,6.83509,14.8542,2.23879,2.14529,0.518381,-0.641389,-0.950352,-0.305163,2.09159,1.3077,0.0751385,-0.0507981
2170060,1,-1.57021,-0.522141,0.00208043,-2.09758,-0.000783352,1.57389,0.787403,-1.57046,-0.522387,0.00257727,-2.09681,0.00135118,1.57555,0.788531,0.00644095,0.0427881,0.116962,-0.116616,0.0638442,0.211851,0.136358,0.0215889,0.0772798,0.165322,-0.154332,0.0817928,0.287569,0.189304,3.83424,-0.636017,6.98584,14.7074,2.2159,2.13247,0.49824,-0.624108,-0.903899,-0.268287,2.07005,1.31132,0.0870407,-0.0405397
2170061,1,-1.5702,-0.522093,0.00220712,-2.09771,-0.000709115,1.57414,0.787559,-1.57044,-0.522307,0.00274902,-2.09697,0.0014358,1.57585,0.788727,0.00562795,0.0432456,0.12005,-0.12516,0.0677878,0.222296,0.146995,0.0224333,0.0802466,0.171745,-0.160288,0.0846233,0.297488,0.195832,3.96119,-0.382111,7.26355,14.5328,2.18202,2.06838,0.544016,-0.603847,-0.862325,-0.22674,2.05144,1.31518,0.0994601,-0.0298185
2170062,1,-1.57019,-0.522041,0.00234817,-2.09785,-0.000630118,1.5744,0.787732,-1.57041,-0.522224,0.00292719,-2.09713,0.00152325,1.57616,0.788929,0.00519585,0.0448167,0.127532,-0.132673,0.071032,0.234393,0.153423,0.0232778,0.0832133,0.178168,-0.166245,0.0874539,0.307407,0.20236,4.08418,-0.179779,7.46588,14.4059,2.14266,2.02902,0.531199,-0.581117,-0.821864,-0.181315,2.03511,1.31916,0.112505,-0.0186801
2170063,1,-1.57018,-0.521988,0.00249392,-2.098,-0.000547719,1.57468,0.787913,-1.57039,-0.522138,0.00311178,-2.09731,0.00161354,1.57648,0.789138,0.00402394,0.0457942,0.133478,-0.135734,0.0718901,0.244363,0.162926,0.0241223,0.0861801,0.18459,-0.172201,0.0902844,0.317326,0.208887,4.2389,0.0225525,7.64441,14.3067,2.14266,1.95852,0.511057,-0.557034,-0.779271,-0.133708,2.01968,1.3231,0.126017,-0.00716501
2170064,1,-1.57017,-0.521937,0.0026352,-2.09816,-0.000467103,1.57497,0.788106,-1.57037,-0.522048,0.00330342,-2.09749,0.00170673,1.5768,0.789353,0.00780333,0.0481039,0.133725,-0.142418,0.070963,0.256341,0.172349,0.0250566,0.0893968,0.191646,-0.178698,0.0931947,0.327482,0.215569,4.33809,0.276459,7.87055,14.2591,2.18202,1.88803,0.427744,-0.531698,-0.731608,-0.0836808,2.00247,1.32685,0.139565,0.00465709
2170065,1,-1.57016,-0.521873,0.00278883,-2.09831,-0.000379985,1.57526,0.788304,-1.57034,-0.521956,0.00350212,-2.09767,0.00180284,1.57714,0.789576,0.00794453,0.0502342,0.140279,-0.146336,0.0761399,0.264206,0.182225,0.0259909,0.0926136,0.198701,-0.185195,0.0961051,0.337637,0.222251,4.41346,0.399445,7.94593,14.1599,2.19942,1.84225,0.381968,-0.504491,-0.678845,-0.0295549,1.98269,1.33036,0.152843,0.0166433
2170066,1,-1.57015,-0.521815,0.00294321,-2.09847,-0.00029015,1.57557,0.788507,-1.57031,-0.52186,0.00370788,-2.09786,0.00190185,1.57749,0.789805,0.00743429,0.050268,0.149924,-0.149092,0.0794602,0.27221,0.191278,0.0269252,0.0958303,0.205756,-0.191691,0.0990154,0.347793,0.228932,4.51265,0.577972,8.04908,14.0845,2.23329,1.84866,0.394785,-0.477274,-0.619219,0.0257277,1.95881,1.33349,0.165506,0.0285923
2170067,1,-1.57013,-0.521751,0.00310536,-2.09864,-0.000196255,1.57587,0.788716,-1.57028,-0.521761,0.00392069,-2.09806,0.00200378,1.57785,0.79004,0.0125261,0.0541131,0.154215,-0.158932,0.082798,0.281209,0.196338,0.0278595,0.099047,0.212811,-0.198188,0.101926,0.357949,0.235614,4.51265,0.728729,8.17603,14.0329,2.24428,1.92648,0.362742,-0.453145,-0.552245,0.0771336,1.93078,1.33615,0.177416,0.0403241
2170068,1,-1.57013,-0.521688,0.00328492,-2.09881,-0.000100023,1.57619,0.78893,-1.57026,-0.521658,0.00414056,-2.09827,0.00210861,1.57821,0.790282,0.0093105,0.057565,0.164956,-0.162911,0.0859977,0.292025,0.201554,0.0287938,0.102264,0.219867,-0.204685,0.104836,0.368105,0.242295,4.66737,0.982635,8.25141,13.8623,2.23879,2.02902,0.381968,-0.433658,-0.484103,0.122206,1.9027,1.33845,0.188881,0.0517275
2170069,1,-1.57012,-0.521612,0.00346379,-2.09899,-2.30094e-06,1.57652,0.789154,-1.57023,-0.521553,0.00436748,-2.09848,0.00221636,1.57859,0.790531,0.00843585,0.0629844,0.168003,-0.171095,0.093302,0.297478,0.211986,0.029728,0.105481,0.226922,-0.211182,0.107746,0.378261,0.248977,4.89351,1.13339,8.40216,13.7632,2.22139,2.07479,0.388376,-0.417205,-0.42173,0.162663,1.87818,1.3406,0.200296,0.0627221
2170070,1,-1.57011,-0.521542,0.00364604,-2.09917,9.54181e-05,1.57687,0.789388,-1.5702,-0.521444,0.00460146,-2.09869,0.00232702,1.57898,0.790787,0.0104017,0.0649726,0.170076,-0.176444,0.0971962,0.313845,0.221057,0.0306623,0.108697,0.233977,-0.217679,0.110657,0.388417,0.255658,5.02046,1.36349,8.55689,13.6362,2.23329,2.05557,0.36915,-0.39958,-0.368298,0.204541,1.85855,1.34282,0.211974,0.0732511
2170071,1,-1.5701,-0.521463,0.00383768,-2.09936,0.000201893,1.57723,0.789624,-1.57016,-0.521332,0.00484249,-2.09892,0.00244058,1.57938,0.791049,0.00937804,0.0693904,0.173037,-0.184538,0.102268,0.331555,0.224549,0.0315966,0.111914,0.241032,-0.224175,0.113567,0.398572,0.26234,5.11964,1.46268,8.65607,13.537,2.20491,1.99057,0.407602,-0.377009,-0.322899,0.253723,1.84296,1.34527,0.223923,0.0832889
2170072,1,-1.57008,-0.521381,0.00403512,-2.09956,0.000315576,1.57761,0.789875,-1.57013,-0.521217,0.00509058,-2.09915,0.00255706,1.57979,0.791318,0.011123,0.0751846,0.18144,-0.189335,0.100926,0.351144,0.232451,0.0325309,0.115131,0.248088,-0.230672,0.116477,0.408728,0.269021,5.24659,1.58963,8.75922,13.537,2.18202,1.96493,0.337107,-0.349124,-0.285764,0.310475,1.83071,1.34801,0.235944,0.0928607
2170073,1,-1.57007,-0.521298,0.00424127,-2.09977,0.000423582,1.57799,0.790123,-1.5701,-0.521099,0.00534572,-2.09939,0.00267645,1.58021,0.791594,0.0118343,0.0757755,0.187648,-0.193797,0.107773,0.362899,0.237672,0.0334652,0.118347,0.255143,-0.237169,0.119388,0.418884,0.275703,5.39735,1.74039,8.8584,13.4378,2.20491,1.9393,0.388376,-0.318943,-0.254835,0.369835,1.81981,1.35085,0.2477,0.102013
2170074,1,-1.57006,-0.521204,0.00444762,-2.09998,0.000535342,1.57839,0.790384,-1.57006,-0.520977,0.00560831,-2.09963,0.00279875,1.58064,0.791876,0.010629,0.0816935,0.196153,-0.200057,0.111791,0.372679,0.243693,0.0344591,0.121689,0.262587,-0.243966,0.122298,0.428985,0.282346,5.49653,1.79196,8.93378,13.3387,2.24977,1.87521,0.407602,-0.288881,-0.225148,0.42768,1.80763,1.35354,0.258968,0.110765
2170075,1,-1.57006,-0.521123,0.00466071,-2.1002,0.000654805,1.5788,0.790654,-1.57003,-0.520852,0.00587834,-2.09988,0.00292396,1.58108,0.792165,0.0106816,0.0786923,0.200495,-0.21031,0.111462,0.384104,0.253525,0.035453,0.12503,0.27003,-0.250763,0.125209,0.439087,0.288989,5.67506,2.0181,9.0885,13.3149,2.27266,1.84225,0.407602,-0.258756,-0.193713,0.483686,1.79442,1.35608,0.269884,0.119157
2170076,1,-1.57004,-0.521027,0.00489245,-2.10043,0.000779886,1.57922,0.790929,-1.56999,-0.520724,0.00615581,-2.10014,0.00305208,1.58152,0.792461,0.0146215,0.0866747,0.211551,-0.214341,0.117109,0.395673,0.255949,0.0364469,0.128371,0.277474,-0.25756,0.128119,0.449188,0.295631,5.69886,2.06967,9.18769,13.3149,2.26076,1.84866,0.407602,-0.229478,-0.158798,0.53637,1.78093,1.35855,0.280531,0.127273
2170077,1,-1.57003,-0.520935,0.00512819,-2.10067,0.000913063,1.57965,0.791211,-1.56995,-0.520592,0.00644073,-2.1004,0.00318311,1.58198,0.792763,0.0167011,0.086691,0.217944,-0.225562,0.121447,0.407537,0.265363,0.0374409,0.131712,0.284918,-0.264357,0.13103,0.459289,0.302274,5.75044,2.2482,9.23926,13.3149,2.23879,1.90725,0.337107,-0.204318,-0.122726,0.58119,1.76869,1.36084,0.290944,0.135192
2170078,1,-1.57002,-0.520831,0.00537842,-2.1009,0.00104989,1.58009,0.791501,-1.56992,-0.520457,0.00673309,-2.10067,0.00331705,1.58245,0.793072,0.0174471,0.091626,0.229558,-0.228224,0.125372,0.423536,0.273569,0.0384348,0.135053,0.292362,-0.271154,0.133941,0.469391,0.308917,5.82582,2.34738,9.23926,13.1403,2.20491,1.90725,0.337107,-0.18518,-0.0863843,0.615446,1.7581,1.3629,0.30109,0.142923
2170079,1,-1.57001,-0.520725,0.00562762,-2.10114,0.00118885,1.58055,0.791798,-1.56988,-0.520319,0.0070329,-2.10095,0.0034539,1.58293,0.793388,0.0166858,0.0934187,0.235533,-0.232479,0.127414,0.431379,0.284317,0.0394287,0.138394,0.299805,-0.277951,0.136851,0.479492,0.31556,5.95277,2.39896,9.36621,13.0649,2.18752,1.87521,0.310557,-0.171213,-0.0465291,0.640161,1.74603,1.36464,0.310664,0.150399
2170080,1,-1.57,-0.520621,0.0058916,-2.1014,0.00132523,1.58102,0.792098,-1.56984,-0.520177,0.00734015,-2.10124,0.00359366,1.58342,0.79371,0.0152016,0.0965831,0.238207,-0.239352,0.133476,0.441385,0.288486,0.0404226,0.141736,0.307249,-0.284748,0.139762,0.489594,0.322203,6.12733,2.49814,9.44159,12.9895,2.17653,1.8688,0.304148,-0.157663,-0.000986678,0.662265,1.73013,1.36617,0.31955,0.157527
2170081,1,-1.56998,-0.520504,0.00615947,-2.10165,0.00146748,1.5815,0.792404,-1.56979,-0.520032,0.00765484,-2.10153,0.00373633,1.58392,0.794039,0.0176662,0.104806,0.249144,-0.244474,0.138097,0.453999,0.29064,0.0414166,0.145077,0.314693,-0.291545,0.142672,0.499695,0.328845,6.1551,2.47433,9.54474,12.8904,2.16463,1.86148,0.323374,-0.140852,0.0459183,0.687323,1.7124,1.36759,0.327996,0.164247
2170082,1,-1.56997,-0.520385,0.00644171,-2.10192,0.00160647,1.582,0.79272,-1.56975,-0.519883,0.00797698,-2.10183,0.00388191,1.58443,0.794374,0.0150782,0.10914,0.258606,-0.250889,0.139456,0.465815,0.29818,0.0424105,0.148418,0.322137,-0.298342,0.145583,0.509796,0.335488,6.23048,2.52591,9.59235,12.7912,2.19942,1.78457,0.323374,-0.122505,0.0861979,0.712531,1.69639,1.36886,0.336241,0.170572
2170083,1,-1.56996,-0.520259,0.00673355,-2.1022,0.0017501,1.5825,0.793047,-1.56971,-0.519732,0.00830656,-2.10213,0.00403041,1.58495,0.794717,0.0150354,0.112912,0.26788,-0.260978,0.141231,0.478932,0.298677,0.0434044,0.151759,0.32958,-0.305139,0.148493,0.519898,0.342131,6.35743,2.42276,9.64392,12.7436,2.22688,1.70767,0.291331,-0.104108,0.117007,0.735189,1.68423,1.36997,0.344439,0.176546
2170084,1,-1.56994,-0.520135,0.00702638,-2.10248,0.00189994,1.58302,0.793377,-1.56966,-0.519576,0.00864377,-2.10244,0.00418176,1.58548,0.795065,0.0169834,0.114782,0.280517,-0.26615,0.143391,0.486681,0.307689,0.0444337,0.155124,0.337217,-0.312044,0.151356,0.529767,0.348618,6.40504,2.47433,9.66773,12.6682,2.23879,1.66189,0.330698,-0.0873134,0.141373,0.752757,1.67587,1.37094,0.352591,0.182208
2170085,1,-1.56992,-0.520006,0.00733565,-2.10276,0.00205457,1.58353,0.793714,-1.56962,-0.519418,0.00898863,-2.10276,0.00433598,1.58602,0.79542,0.0169495,0.118128,0.285418,-0.27298,0.14949,0.506742,0.312769,0.045463,0.158489,0.344854,-0.318949,0.154219,0.539637,0.355105,6.38124,2.45053,9.6955,12.5452,2.24977,1.69485,0.284922,-0.0735748,0.165092,0.763463,1.66833,1.37171,0.360312,0.187571
2170086,1,-1.5699,-0.51988,0.00764921,-2.10307,0.00221513,1.58406,0.794062,-1.56957,-0.519256,0.00934112,-2.10309,0.00449307,1.58657,0.795782,0.01611,0.118843,0.294599,-0.28154,0.15093,0.515981,0.317438,0.0464923,0.161854,0.352491,-0.325854,0.157083,0.549506,0.361591,6.38124,2.49814,9.62012,12.569,2.22139,1.71408,0.278513,-0.0606224,0.192596,0.77111,1.65895,1.3724,0.367235,0.192628
2170087,1,-1.56987,-0.519748,0.00796335,-2.10337,0.0023755,1.58462,0.794398,-1.56952,-0.519091,0.00970125,-2.10342,0.00465301,1.58713,0.79615,0.0182845,0.122121,0.302008,-0.289706,0.151327,0.529613,0.324507,0.0475217,0.165219,0.360128,-0.332759,0.159946,0.559376,0.368078,6.25428,2.57352,9.64392,12.5452,2.19942,1.68203,0.362742,-0.0467178,0.225292,0.778633,1.64771,1.37315,0.37342,0.197371
2170088,1,-1.56985,-0.519612,0.00829491,-2.10368,0.00252919,1.58517,0.794753,-1.56948,-0.518922,0.010069,-2.10376,0.00481582,1.5877,0.796524,0.0210523,0.128403,0.307125,-0.294907,0.154413,0.533588,0.336393,0.048551,0.168584,0.367765,-0.339664,0.162809,0.569245,0.374565,6.20668,2.62509,9.66773,12.4936,2.21041,1.68844,0.394785,-0.0318752,0.259903,0.786825,1.63623,1.37399,0.379132,0.201833
2170089,1,-1.56983,-0.519471,0.00863517,-2.10399,0.00269386,1.58573,0.795123,-1.56943,-0.51875,0.0104444,-2.10411,0.00498149,1.58828,0.796906,0.0207781,0.132713,0.316441,-0.301755,0.159579,0.534618,0.343438,0.0495803,0.171949,0.375402,-0.346569,0.165672,0.579115,0.381052,6.25428,2.67667,9.62012,12.4421,2.17104,1.72048,0.440561,-0.0159891,0.29076,0.796753,1.62657,1.37487,0.384696,0.206125
2170090,1,-1.5698,-0.519321,0.00897757,-2.10432,0.00286107,1.58629,0.795502,-1.56938,-0.518575,0.0108275,-2.10446,0.00515003,1.58887,0.797293,0.0242957,0.1414,0.321958,-0.315911,0.162376,0.539184,0.351988,0.0506096,0.175314,0.383039,-0.353474,0.168535,0.588984,0.387538,6.28205,2.6489,9.62012,12.4421,2.15364,1.81661,0.401194,0.000555774,0.309854,0.808272,1.62372,1.37578,0.39079,0.21041
2170091,1,-1.56976,-0.519164,0.00932801,-2.10465,0.00303057,1.58687,0.79588,-1.56932,-0.518396,0.0112181,-2.10482,0.00532142,1.58947,0.797687,0.0268422,0.145039,0.329685,-0.317571,0.164917,0.550152,0.355933,0.0516389,0.178679,0.390676,-0.360379,0.171398,0.598854,0.394025,6.17891,2.60129,9.59235,12.3429,2.13075,1.82943,0.44697,0.0170454,0.311413,0.820712,1.63133,1.37672,0.397873,0.214813
2170092,1,-1.56973,-0.519001,0.00968557,-2.10499,0.00321264,1.58747,0.796262,-1.56927,-0.518214,0.0116164,-2.10519,0.00549569,1.59007,0.798088,0.0306809,0.14949,0.340167,-0.32455,0.171996,0.559905,0.371629,0.0526682,0.182044,0.398313,-0.367284,0.174261,0.608723,0.400512,6.12733,2.47433,9.64392,12.3944,2.08589,1.76535,0.491831,0.0313226,0.30159,0.831176,1.64429,1.37744,0.405485,0.219382
2170093,1,-1.5697,-0.51884,0.010061,-2.10534,0.00339885,1.58808,0.796659,-1.56922,-0.518029,0.0120224,-2.10556,0.00567281,1.59069,0.798495,0.031377,0.153927,0.350602,-0.333015,0.175654,0.573758,0.372922,0.0536976,0.185409,0.40595,-0.374189,0.177124,0.618593,0.406999,6.1551,2.42276,9.59235,12.4182,2.06301,1.68203,0.49824,0.0403672,0.287518,0.835093,1.6578,1.37767,0.413173,0.224166
2170094,1,-1.56965,-0.518677,0.010447,-2.10569,0.00358532,1.58871,0.797065,-1.56916,-0.51784,0.012436,-2.10594,0.00585272,1.59132,0.798908,0.0311115,0.156361,0.360243,-0.336948,0.178686,0.585996,0.376489,0.0547427,0.188719,0.413624,-0.38105,0.179911,0.628123,0.413258,6.10353,2.39896,9.59235,12.3944,2.05751,1.65548,0.504648,0.0436837,0.273087,0.831244,1.6699,1.37731,0.420642,0.229231
2170095,1,-1.56962,-0.518512,0.010833,-2.10605,0.00377445,1.58934,0.797478,-1.56911,-0.517648,0.0128573,-2.10633,0.00603542,1.59196,0.799327,0.0320132,0.163212,0.365061,-0.34336,0.186182,0.594013,0.392867,0.0557878,0.192028,0.421298,-0.387911,0.182698,0.637652,0.419517,6.12733,2.39896,9.56855,12.3706,2.03462,1.68844,0.459788,0.0441198,0.261551,0.823549,1.67812,1.37639,0.427485,0.234593
2170096,1,-1.56957,-0.518342,0.0112374,-2.10641,0.00396132,1.58997,0.797907,-1.56905,-0.517453,0.0132863,-2.10673,0.0062209,1.59261,0.799753,0.038232,0.162447,0.377717,-0.349379,0.185524,0.603508,0.400759,0.0568329,0.195337,0.428972,-0.394771,0.185485,0.647182,0.425776,6.05195,2.42276,9.51697,12.3944,2.06301,1.75253,0.375559,0.0426006,0.254946,0.813749,1.68141,1.3749,0.433543,0.240215
2170097,1,-1.56952,-0.51817,0.0116458,-2.10678,0.00415376,1.59062,0.798336,-1.56899,-0.517254,0.0137229,-2.10713,0.00640917,1.59326,0.800185,0.0426768,0.166223,0.383634,-0.352422,0.185477,0.610608,0.414549,0.057878,0.198647,0.436646,-0.401632,0.188271,0.656712,0.432036,5.97657,2.39896,9.51697,12.3191,2.0804,1.78457,0.394785,0.0363014,0.259212,0.798338,1.67734,1.37269,0.438671,0.245999
2170098,1,-1.56948,-0.518,0.0120654,-2.10715,0.00435094,1.59128,0.798766,-1.56893,-0.517052,0.0141673,-2.10754,0.00660023,1.59393,0.800623,0.0443974,0.16724,0.39495,-0.358919,0.190244,0.624609,0.416187,0.0589231,0.201956,0.44432,-0.408493,0.191058,0.666241,0.438295,5.97657,2.45053,9.51697,12.3191,2.09688,1.75253,0.407602,0.0242293,0.278802,0.776161,1.66358,1.36977,0.442759,0.251786
2170099,1,-1.56943,-0.517817,0.0124902,-2.10753,0.00455399,1.59196,0.799207,-1.56887,-0.516847,0.0146192,-2.10795,0.00679408,1.5946,0.801068,0.0467405,0.171011,0.400502,-0.363739,0.194415,0.642426,0.421302,0.0599682,0.205265,0.451994,-0.415353,0.193845,0.675771,0.444554,5.92897,2.37119,9.49317,12.3191,2.10329,1.63626,0.375559,0.00809822,0.313297,0.749583,1.64021,1.36631,0.445824,0.257454
2170100,1,-1.56938,-0.517624,0.0129151,-2.10793,0.00476506,1.59265,0.79965,-1.56881,-0.516638,0.0150789,-2.10837,0.00699071,1.59529,0.801519,0.0468246,0.175069,0.410037,-0.368923,0.19814,0.657222,0.43002,0.0610134,0.208574,0.459669,-0.422214,0.196632,0.685301,0.450813,5.95277,2.2482,9.51697,12.2437,2.0804,1.5978,0.349924,-0.00941215,0.359151,0.722277,1.60864,1.36259,0.447839,0.262928
2170101,1,-1.56933,-0.517435,0.0133557,-2.10831,0.00496876,1.59333,0.800117,-1.56875,-0.516427,0.0155463,-2.1088,0.00719013,1.59598,0.801976,0.050831,0.179873,0.41584,-0.377008,0.196756,0.664768,0.438429,0.0620585,0.211884,0.467343,-0.429075,0.199419,0.694831,0.457072,5.95277,2.16885,9.54474,12.1723,2.05202,1.64266,0.259287,-0.0261746,0.409538,0.697182,1.5726,1.35884,0.448991,0.268143
2170102,1,-1.56928,-0.517237,0.0137908,-2.10871,0.00517801,1.59403,0.800587,-1.56869,-0.516211,0.0160213,-2.10924,0.00739233,1.59669,0.802439,0.050868,0.183727,0.432009,-0.377096,0.205787,0.677764,0.445769,0.0631036,0.215193,0.475017,-0.435935,0.202206,0.70436,0.463332,6.07972,2.06967,9.66773,12.0453,2.00716,1.61062,0.213511,-0.0433443,0.459983,0.672314,1.53455,1.35506,0.449469,0.273018
2170103,1,-1.56923,-0.517044,0.0142376,-2.10912,0.00539062,1.59475,0.80105,-1.56862,-0.515993,0.016504,-2.10968,0.00759733,1.5974,0.802909,0.0491668,0.188129,0.436128,-0.38771,0.206106,0.700118,0.451039,0.0641487,0.218502,0.482691,-0.442796,0.204993,0.71389,0.469591,6.1551,2.04587,9.7193,12.0453,2.00075,1.51449,0.233652,-0.0615614,0.509411,0.646014,1.49434,1.35116,0.449187,0.277409
2170104,1,-1.56918,-0.516846,0.0146965,-2.10954,0.00560563,1.59547,0.801521,-1.56856,-0.515771,0.0169942,-2.11013,0.00780501,1.59813,0.803384,0.0502196,0.191113,0.44277,-0.394139,0.212227,0.707255,0.445931,0.0651937,0.221694,0.490278,-0.449492,0.207686,0.723014,0.475579,6.25428,2.04587,9.87403,12.0215,1.96687,1.42385,0.297739,-0.0766822,0.555221,0.623958,1.45418,1.34734,0.448311,0.281178
2170105,1,-1.56912,-0.516647,0.0151577,-2.10997,0.00583188,1.59619,0.801994,-1.56849,-0.515546,0.0174921,-2.11059,0.00801539,1.59886,0.803866,0.0506015,0.191562,0.448856,-0.399562,0.215928,0.708295,0.455938,0.0662386,0.224885,0.497865,-0.456189,0.210379,0.732138,0.481567,6.25428,2.12125,9.87403,12.0215,1.9449,1.55294,0.316965,-0.0851407,0.598719,0.6116,1.41509,1.34367,0.447089,0.284312
2170106,1,-1.56907,-0.516442,0.0156279,-2.11039,0.00605797,1.5969,0.802487,-1.56842,-0.515318,0.0179976,-2.11105,0.00822846,1.5996,0.804354,0.0509029,0.194672,0.451038,-0.407815,0.218606,0.714817,0.468459,0.0672836,0.228077,0.505451,-0.462885,0.213073,0.741263,0.487555,6.25428,2.09348,9.9494,12.0453,1.90462,1.69485,0.330698,-0.0849581,0.644229,0.612174,1.37605,1.34012,0.445651,0.286901
2170107,1,-1.56902,-0.516234,0.0161026,-2.11083,0.00628011,1.59765,0.80298,-1.56836,-0.515087,0.0185106,-2.11152,0.00844423,1.60035,0.804847,0.0519055,0.195676,0.460445,-0.416318,0.219466,0.725781,0.471938,0.0683286,0.231268,0.513038,-0.469582,0.215766,0.750387,0.493543,6.32966,2.09348,9.99701,12.0691,1.92201,1.76535,0.337107,-0.0751791,0.692075,0.627264,1.33809,1.33668,0.444304,0.289076
2170108,1,-1.56896,-0.51602,0.0165853,-2.11128,0.00650317,1.59841,0.803463,-1.56829,-0.514852,0.0190312,-2.112,0.00866269,1.60111,0.805347,0.0501029,0.200653,0.46566,-0.439348,0.220242,0.730064,0.472833,0.0693736,0.23446,0.520625,-0.476278,0.218459,0.759511,0.499532,6.40504,2.06967,9.97321,12.2199,1.93849,1.72048,0.434153,-0.0573095,0.734928,0.654309,1.30837,1.33345,0.444054,0.290989
2170109,1,-1.5689,-0.515797,0.017068,-2.11174,0.0067258,1.59917,0.803962,-1.56822,-0.514615,0.0195594,-2.11248,0.00888384,1.60188,0.805852,0.0514094,0.205542,0.46695,-0.447195,0.225784,0.736786,0.473217,0.0704185,0.237652,0.528212,-0.482974,0.221152,0.768635,0.50552,6.35743,1.99429,10.0248,12.4182,1.96138,1.69485,0.472605,-0.0307878,0.760045,0.693824,1.29709,1.3307,0.446205,0.292799
2170110,1,-1.56884,-0.515565,0.0175413,-2.11221,0.00695368,1.59995,0.804469,-1.56814,-0.514374,0.0200952,-2.11297,0.00910769,1.60266,0.806364,0.0540552,0.214071,0.472723,-0.456958,0.224332,0.750074,0.483982,0.0714635,0.240843,0.535799,-0.489671,0.223846,0.777759,0.511508,6.35743,1.84354,10.1755,12.6682,1.99526,1.66189,0.440561,0.00517245,0.76063,0.747373,1.30626,1.32853,0.450874,0.294687
2170111,1,-1.56879,-0.515332,0.0180439,-2.11268,0.00718617,1.60072,0.804995,-1.56807,-0.51413,0.0206386,-2.11347,0.00933423,1.60344,0.806881,0.0521255,0.220874,0.477051,-0.460919,0.224655,0.754017,0.491518,0.0725085,0.244035,0.543386,-0.496367,0.226539,0.786884,0.517496,6.40504,1.66501,10.1993,12.8904,2.00716,1.70767,0.381968,0.049114,0.736201,0.813147,1.33166,1.32686,0.457289,0.296801
2170112,1,-1.56874,-0.515103,0.0185594,-2.11317,0.00741248,1.6015,0.805521,-1.568,-0.513883,0.0211896,-2.11397,0.00956346,1.60424,0.807405,0.0495064,0.225104,0.489329,-0.469654,0.224539,0.762803,0.501598,0.0735535,0.247226,0.550972,-0.503063,0.229232,0.796008,0.523484,6.63514,1.6412,10.2271,13.0173,2.02364,1.72689,0.337107,0.0989312,0.691348,0.887503,1.36811,1.32558,0.464715,0.299173
2170113,1,-1.56869,-0.514871,0.0190618,-2.11365,0.00764447,1.60231,0.806046,-1.56792,-0.513632,0.0217482,-2.11448,0.00979538,1.60504,0.807934,0.0492944,0.232389,0.492766,-0.473537,0.230247,0.771238,0.509303,0.0745984,0.250418,0.558559,-0.50976,0.231925,0.805132,0.529472,6.68275,1.53806,10.3541,13.0649,2.00075,1.69485,0.310557,0.152234,0.633222,0.966166,1.41064,1.32456,0.47258,0.30171
2170114,1,-1.56863,-0.514633,0.0195927,-2.11416,0.00787807,1.60311,0.806573,-1.56785,-0.513379,0.0223141,-2.11499,0.0100299,1.60586,0.808469,0.0534738,0.235206,0.500479,-0.481183,0.2363,0.782303,0.512823,0.0756302,0.253444,0.56596,-0.516199,0.234514,0.813811,0.535163,6.65895,1.46268,10.3779,13.2157,1.93849,1.65548,0.304148,0.206987,0.568009,1.04634,1.45518,1.32365,0.48042,0.304263
2170115,0.99,-1.56856,-0.514399,0.0201177,-2.11467,0.00812099,1.60393,0.807113,-1.56777,-0.513122,0.0228875,-2.11552,0.010267,1.60668,0.80901,0.0554308,0.233676,0.50723,-0.48989,0.239721,0.788754,0.51474,0.076662,0.256471,0.573361,-0.522638,0.237103,0.822489,0.540853,6.55976,1.53806,10.4056,13.291,1.89913,1.61703,0.265696,0.260051,0.506206,1.1242,1.49735,1.32261,0.487852,0.306705
2170116,0.98,-1.5685,-0.514159,0.0206522,-2.11519,0.00836669,1.60472,0.807656,-1.56769,-0.512863,0.0234682,-2.11605,0.0105067,1.60751,0.809557,0.057293,0.234045,0.511332,-0.499745,0.240599,0.790275,0.518472,0.0776938,0.259497,0.580761,-0.529078,0.239692,0.831168,0.546544,6.55976,1.56583,10.4532,13.3149,1.89913,1.71408,0.240061,0.309742,0.459247,1.19782,1.53431,1.32126,0.494763,0.30894
2170117,0.98,-1.56843,-0.513907,0.0212003,-2.11571,0.00860583,1.60555,0.808204,-1.56762,-0.5126,0.0240564,-2.11658,0.010749,1.60835,0.810109,0.0585797,0.23723,0.517959,-0.503573,0.235993,0.799511,0.524554,0.0787256,0.262524,0.588162,-0.535517,0.242281,0.839846,0.552234,6.55976,1.46268,10.481,13.1879,1.92201,1.72689,0.233652,0.357134,0.431351,1.26912,1.5651,1.31959,0.501125,0.310879
2170118,0.98,-1.56837,-0.51365,0.0217477,-2.11625,0.00884439,1.60637,0.808756,-1.56754,-0.512335,0.024652,-2.11712,0.0109938,1.6092,0.810667,0.0573588,0.242404,0.527705,-0.509163,0.23587,0.801903,0.535885,0.0797573,0.265551,0.595563,-0.541956,0.244869,0.848525,0.557925,6.65895,1.26035,10.4532,13.1641,1.96687,1.86148,0.213511,0.402416,0.41946,1.33817,1.58953,1.31759,0.506847,0.312462
2170119,0.98,-1.5683,-0.513385,0.0223041,-2.11679,0.0090872,1.6072,0.809314,-1.56745,-0.512066,0.0252549,-2.11767,0.0112413,1.61006,0.81123,0.0601413,0.250641,0.533492,-0.521588,0.23409,0.812082,0.540065,0.0807891,0.268577,0.602964,-0.548396,0.247458,0.857204,0.563615,6.60737,0.982635,10.4294,13.1879,1.9504,1.8038,0.240061,0.444971,0.412046,1.40353,1.61231,1.31536,0.512386,0.313666
2170120,0.98,-1.56823,-0.513123,0.0228731,-2.11733,0.00933503,1.60805,0.809884,-1.56737,-0.511795,0.0258653,-2.11823,0.0114913,1.61092,0.8118,0.0663853,0.254053,0.549509,-0.525801,0.232675,0.822743,0.545903,0.0818209,0.271604,0.610364,-0.554835,0.250047,0.865882,0.569306,6.50819,0.780304,10.481,13.1879,1.93849,1.72048,0.265696,0.481028,0.397874,1.45958,1.63917,1.31294,0.51834,0.314524
2170121,0.98,-1.56817,-0.512865,0.0234437,-2.11788,0.00959217,1.60891,0.810445,-1.56729,-0.51152,0.0264831,-2.11879,0.011744,1.6118,0.812375,0.0662167,0.252334,0.558948,-0.532198,0.23764,0.844795,0.548312,0.0828527,0.27463,0.617765,-0.561274,0.252636,0.874561,0.574996,6.58357,0.653351,10.5048,13.1165,1.88814,1.6683,0.278513,0.504748,0.382695,1.49787,1.66597,1.31011,0.524222,0.315103
2170122,0.98,-1.56811,-0.5126,0.0240313,-2.11843,0.00983713,1.60978,0.811019,-1.56721,-0.511242,0.0271082,-2.11936,0.0119992,1.61268,0.812955,0.0611894,0.25613,0.565665,-0.540768,0.239888,0.86202,0.554347,0.0838845,0.277657,0.625166,-0.567714,0.255224,0.88324,0.580687,6.75813,0.577972,10.4056,13.1165,1.87624,1.46871,0.304148,0.518424,0.37729,1.52135,1.686,1.30683,0.529173,0.315445
2170123,0.98,-1.56804,-0.512331,0.0246178,-2.119,0.0100807,1.61065,0.811593,-1.56712,-0.510962,0.0277408,-2.11993,0.012257,1.61357,0.813542,0.0620976,0.261227,0.570457,-0.544555,0.239098,0.860466,0.560342,0.0849162,0.280683,0.632567,-0.574153,0.257813,0.891918,0.586378,6.75813,0.554169,10.4532,13.0887,1.91103,1.51449,0.233652,0.530625,0.380045,1.54193,1.69946,1.30341,0.533025,0.315596
2170124,0.98,-1.56797,-0.512059,0.0252261,-2.11956,0.0103318,1.61152,0.812172,-1.56704,-0.510678,0.0283805,-2.12051,0.0125173,1.61447,0.814134,0.0664149,0.26319,0.580747,-0.551983,0.249399,0.865473,0.564591,0.0859241,0.283511,0.639703,-0.580265,0.26029,0.900127,0.591754,6.73433,0.47879,10.3541,13.0173,1.88814,1.55294,0.291331,0.544191,0.38625,1.56391,1.70848,1.29985,0.535961,0.315618
2170125,0.98,-1.56789,-0.511785,0.0258355,-2.12013,0.0105849,1.61242,0.812765,-1.56695,-0.510392,0.0290273,-2.1211,0.0127801,1.61538,0.814731,0.0697738,0.265238,0.589433,-0.557146,0.251148,0.870684,0.568848,0.0869319,0.286338,0.64684,-0.586377,0.262767,0.908335,0.597131,6.55976,0.47879,10.3263,12.9657,1.93849,1.50808,0.24647,0.555511,0.396815,1.58257,1.71312,1.29595,0.538084,0.315549
2170126,0.98,-1.56781,-0.511503,0.0264523,-2.12069,0.010852,1.61332,0.81336,-1.56686,-0.510103,0.0296813,-2.12169,0.0130453,1.6163,0.815333,0.0746126,0.270138,0.597972,-0.569918,0.253674,0.877864,0.584883,0.0879398,0.289165,0.653977,-0.592489,0.265244,0.916544,0.602508,6.40504,0.375641,10.2509,12.8666,1.9504,1.42385,0.226328,0.56142,0.41011,1.59374,1.71555,1.29165,0.539688,0.315423
2170127,0.98,-1.56774,-0.511219,0.0270764,-2.12128,0.0111108,1.61425,0.813939,-1.56677,-0.509811,0.0303424,-2.12229,0.013313,1.61722,0.815941,0.0740862,0.273136,0.600222,-0.573673,0.256266,0.897838,0.578276,0.0889476,0.291992,0.661113,-0.598602,0.267721,0.924752,0.607885,6.40504,0.300262,10.1517,12.9181,1.9504,1.15377,0.240061,0.563611,0.421027,1.60029,1.71895,1.2872,0.540953,0.315226
2170128,0.98,-1.56766,-0.510924,0.0277093,-2.12186,0.0113786,1.61516,0.814552,-1.56668,-0.509516,0.0310107,-2.12289,0.0135832,1.61816,0.816554,0.0767137,0.276814,0.608708,-0.572115,0.258661,0.89843,0.606057,0.0899555,0.294819,0.66825,-0.604714,0.270199,0.932961,0.613262,6.40504,0.149506,10.0764,12.9419,1.92751,1.21786,0.0587866,0.566315,0.432036,1.60873,1.71921,1.28281,0.541112,0.314891
2170129,0.98,-1.56758,-0.510634,0.0283529,-2.12244,0.0116491,1.61605,0.815157,-1.56659,-0.509218,0.0316861,-2.1235,0.0138559,1.6191,0.817173,0.0793071,0.284795,0.620481,-0.576996,0.260898,0.895902,0.603781,0.0909633,0.297646,0.675387,-0.610826,0.272676,0.941169,0.618638,6.40504,0.0463562,10.0486,12.9181,1.89913,1.44308,0.0780126,0.568892,0.445277,1.61801,1.71221,1.27835,0.539498,0.31434
2170130,0.98,-1.5675,-0.510336,0.0290046,-2.12303,0.0119216,1.61696,0.815774,-1.5665,-0.508918,0.0323686,-2.12412,0.0141311,1.62005,0.817797,0.0764288,0.285663,0.626913,-0.577205,0.26678,0.89526,0.605317,0.0919711,0.300473,0.682523,-0.616938,0.275153,0.949378,0.624015,6.48042,-0.128204,9.97321,12.9419,1.88814,1.64266,0.0844213,0.569429,0.458602,1.62465,1.69881,1.27372,0.536345,0.313435
2170131,0.98,-1.56742,-0.510049,0.0296521,-2.12364,0.0122006,1.61791,0.816384,-1.56641,-0.508614,0.0330582,-2.12474,0.0144087,1.621,0.818426,0.0793892,0.291256,0.630804,-0.587353,0.270926,0.906182,0.605389,0.092979,0.3033,0.68966,-0.62305,0.27763,0.957586,0.629392,6.48042,-0.155975,9.9494,13.1641,1.85976,1.57217,0.071604,0.570958,0.472288,1.63254,1.68017,1.26902,0.532227,0.31205
2170132,0.98,-1.56735,-0.509748,0.0303137,-2.12425,0.0124778,1.61888,0.816996,-1.56631,-0.508308,0.033755,-2.12537,0.0146888,1.62197,0.819061,0.0765298,0.294348,0.630443,-0.593445,0.271015,0.928778,0.611125,0.0939868,0.306128,0.696797,-0.629162,0.280107,0.965795,0.634769,6.55976,-0.330536,9.87403,13.3902,1.803,1.34695,0.24647,0.579305,0.483443,1.6501,1.65971,1.26458,0.52777,0.310122
2170133,0.98,-1.56726,-0.509448,0.0309701,-2.12486,0.0127597,1.61983,0.817626,-1.56622,-0.507999,0.034459,-2.12601,0.0149714,1.62294,0.819701,0.0820902,0.29697,0.652264,-0.60325,0.27583,0.929436,0.613566,0.0949947,0.308955,0.703933,-0.635274,0.282584,0.974004,0.640145,6.45662,-0.405914,9.92163,13.537,1.74623,1.37258,0.259287,0.593496,0.489829,1.67549,1.64098,1.26043,0.523326,0.307749
2170134,0.98,-1.56718,-0.509152,0.031647,-2.12548,0.0130458,1.62075,0.818258,-1.56612,-0.507688,0.0351697,-2.12665,0.0152563,1.62392,0.820347,0.0818065,0.293891,0.660883,-0.608708,0.276936,0.923418,0.618323,0.0959697,0.311559,0.710745,-0.641008,0.284944,0.981727,0.645199,6.53199,-0.382111,9.84626,13.6362,1.75264,1.61703,0.240061,0.603487,0.497184,1.69337,1.62452,1.25607,0.519083,0.305226
2170135,0.98,-1.5671,-0.508836,0.032329,-2.12611,0.0133264,1.62172,0.818886,-1.56602,-0.507374,0.0358873,-2.1273,0.0155436,1.62491,0.820997,0.0826266,0.29667,0.668634,-0.613715,0.274903,0.92492,0.617497,0.0969447,0.314162,0.717557,-0.646742,0.287304,0.98945,0.650252,6.55976,-0.584442,9.84626,13.787,1.84236,1.5914,0.272104,0.60593,0.513903,1.69871,1.6081,1.25118,0.515141,0.302804
2170136,0.98,-1.56702,-0.508523,0.0330069,-2.12676,0.0136012,1.6227,0.819534,-1.56593,-0.507057,0.0366116,-2.12795,0.0158333,1.62591,0.821652,0.0818673,0.29937,0.672422,-0.62029,0.271616,0.934137,0.626712,0.0979198,0.316766,0.724368,-0.652476,0.289664,0.997173,0.655305,6.65895,-0.659821,9.92163,13.9338,1.96687,1.5978,0.187876,0.606404,0.540508,1.69979,1.59079,1.24597,0.511555,0.300585
2170137,0.98,-1.56694,-0.50821,0.0337214,-2.12741,0.0138916,1.62367,0.820178,-1.56583,-0.506737,0.0373428,-2.12861,0.0161253,1.62692,0.822312,0.0814265,0.302926,0.678442,-0.635689,0.283325,0.949002,0.627391,0.0988948,0.31937,0.73118,-0.658209,0.292024,1.0049,0.660359,6.75813,-0.810577,9.6955,14.1599,1.9449,1.52731,0.252878,0.610594,0.568454,1.70488,1.57717,1.2409,0.508684,0.298572
2170138,0.98,-1.56684,-0.507897,0.034441,-2.12807,0.0141856,1.62467,0.820847,-1.56573,-0.506415,0.0380808,-2.12927,0.0164197,1.62793,0.822978,0.0882204,0.303671,0.683386,-0.639151,0.284509,0.961835,0.637624,0.0998698,0.321974,0.737991,-0.663943,0.294384,1.01262,0.665412,6.55976,-0.913727,9.62012,14.3344,1.91652,1.4559,0.207102,0.619978,0.591914,1.71644,1.57105,1.2363,0.506714,0.296716
2170139,0.98,-1.56673,-0.507574,0.0351487,-2.12873,0.0144859,1.62567,0.821511,-1.56563,-0.506091,0.0388256,-2.12994,0.0167165,1.62895,0.823648,0.0971156,0.310506,0.687393,-0.635761,0.289415,0.987893,0.64754,0.100845,0.324578,0.744803,-0.669677,0.296744,1.02034,0.670465,6.30586,-1.11606,9.51697,14.509,1.89913,1.48153,0.110056,0.631172,0.614405,1.73091,1.56677,1.23202,0.504645,0.294981
2170140,0.98,-1.56664,-0.507246,0.0358827,-2.12941,0.0147763,1.62664,0.822183,-1.56552,-0.505764,0.0395772,-2.13062,0.0170156,1.62998,0.824324,0.0975013,0.314654,0.700283,-0.649219,0.289475,0.985286,0.656202,0.10182,0.327182,0.751614,-0.67541,0.299104,1.02807,0.675518,6.1551,-1.29062,9.21546,14.6558,1.84877,1.62985,0.162241,0.639711,0.635586,1.74267,1.56083,1.22783,0.501724,0.29331
2170141,0.98,-1.56654,-0.506921,0.0366233,-2.13009,0.0150675,1.62763,0.822866,-1.56542,-0.505434,0.0403357,-2.1313,0.017317,1.63101,0.825004,0.0951577,0.316061,0.716813,-0.654969,0.28634,0.978958,0.666088,0.102795,0.329786,0.758426,-0.681144,0.301464,1.03579,0.680572,6.12733,-1.39377,8.90998,14.7074,1.86525,1.86148,0.0459692,0.641484,0.649475,1.74445,1.5595,1.22365,0.498864,0.291639
2170142,0.98,-1.56645,-0.506598,0.0373762,-2.13078,0.0153645,1.62865,0.823551,-1.56532,-0.505102,0.0411009,-2.13198,0.0176208,1.63206,0.82569,0.0972173,0.316499,0.731407,-0.667727,0.29935,0.991585,0.663385,0.10377,0.33239,0.765238,-0.686878,0.303824,1.04351,0.685625,6.07972,-1.46915,8.73145,14.8819,1.82588,1.81661,0.0587866,0.632503,0.65687,1.72869,1.56681,1.21938,0.49712,0.289904
2170143,0.98,-1.56634,-0.506272,0.0381421,-2.13147,0.0156787,1.62968,0.82424,-1.56521,-0.504767,0.0418729,-2.13268,0.017927,1.63311,0.826381,0.0982734,0.316364,0.733789,-0.672369,0.301566,0.997474,0.664899,0.104745,0.334994,0.772049,-0.692611,0.306184,1.05124,0.690678,5.9012,-1.54453,8.52912,14.8819,1.77461,1.81021,0.122873,0.613284,0.663558,1.69589,1.581,1.21493,0.496764,0.287973
2170144,0.98,-1.56624,-0.505933,0.0388882,-2.13215,0.015993,1.63072,0.824913,-1.56511,-0.504429,0.0426514,-2.13337,0.0182355,1.63417,0.827076,0.103165,0.322438,0.739172,-0.689979,0.303237,1.0122,0.662126,0.10568,0.33736,0.778489,-0.697931,0.308422,1.05846,0.695402,5.69886,-1.72305,8.48151,14.8066,1.71236,1.82302,0.291331,0.590082,0.668458,1.656,1.60268,1.21052,0.497975,0.285751
2170145,0.98,-1.56614,-0.505591,0.0396561,-2.13284,0.0162974,1.63175,0.825603,-1.565,-0.504089,0.0434364,-2.13408,0.0185461,1.63523,0.827776,0.102073,0.327593,0.746004,-0.689649,0.302637,1.01925,0.668152,0.106615,0.339726,0.784928,-0.703251,0.310661,1.06569,0.700126,5.67506,-1.79843,8.50531,14.5328,1.70687,1.8038,0.414011,0.567965,0.662906,1.61709,1.63502,1.20632,0.500912,0.283354
2170146,0.98,-1.56605,-0.505248,0.0404246,-2.13355,0.0166044,1.6328,0.826305,-1.56489,-0.503747,0.0442277,-2.13479,0.018859,1.63631,0.828481,0.0988645,0.332093,0.752866,-0.68915,0.305905,1.0208,0.689941,0.107549,0.342092,0.791367,-0.708571,0.312899,1.07292,0.704849,5.87739,-1.89761,8.55689,14.3582,1.72426,1.81021,0.434153,0.550234,0.646943,1.58402,1.6727,1.20219,0.50488,0.281064
2170147,0.98,-1.56597,-0.504911,0.0412303,-2.13423,0.016926,1.63386,0.827002,-1.56478,-0.503403,0.0450255,-2.1355,0.0191741,1.63739,0.829191,0.0935864,0.331272,0.765049,-0.687059,0.309926,1.03239,0.692619,0.108484,0.344458,0.797807,-0.713891,0.315138,1.08015,0.709573,6.25428,-1.94919,8.45374,14.0329,1.71236,1.74612,0.44697,0.53914,0.63278,1.55956,1.70332,1.19784,0.508585,0.279185
2170148,0.98,-1.56586,-0.504571,0.0420238,-2.13492,0.0172386,1.63495,0.827713,-1.56468,-0.503056,0.0458298,-2.13622,0.0194915,1.63847,0.829905,0.0983618,0.331556,0.766594,-0.682353,0.312849,1.05091,0.700082,0.109419,0.346824,0.804246,-0.719211,0.317376,1.08738,0.714297,6.1551,-2.05234,8.52912,13.7632,1.70137,1.54013,0.401194,0.534541,0.63685,1.54335,1.71407,1.19302,0.510624,0.277921
2170149,0.98,-1.56574,-0.504231,0.0428121,-2.13563,0.0175666,1.63604,0.828416,-1.56457,-0.502707,0.0466405,-2.13694,0.0198111,1.63957,0.830624,0.101442,0.334942,0.773239,-0.692116,0.316382,1.05928,0.698895,0.110354,0.34919,0.810686,-0.72453,0.319614,1.09461,0.719021,5.92897,-2.12772,8.52912,13.6878,1.63912,1.55935,0.304148,0.535428,0.664807,1.5347,1.7008,1.18766,0.510341,0.277351
2170150,0.98,-1.56563,-0.503886,0.0436144,-2.13634,0.0178877,1.63712,0.829127,-1.56445,-0.502355,0.0474576,-2.13767,0.020133,1.64067,0.831348,0.103799,0.337216,0.775751,-0.694347,0.317073,1.06287,0.699391,0.111289,0.351556,0.817125,-0.72985,0.321853,1.10184,0.723745,5.80201,-2.20309,8.42993,13.6124,1.63912,1.55294,0.259287,0.540936,0.707037,1.53309,1.6715,1.1819,0.508399,0.277425
2170151,0.98,-1.56554,-0.503534,0.0444099,-2.13705,0.0182205,1.63822,0.829856,-1.56434,-0.502001,0.0482812,-2.13841,0.0204571,1.64178,0.832076,0.100415,0.339877,0.797077,-0.699983,0.32093,1.07114,0.708408,0.112224,0.353922,0.823564,-0.73517,0.324091,1.10906,0.728468,5.9012,-2.33005,8.40216,13.66,1.67848,1.5914,0.135691,0.547684,0.755026,1.53339,1.63357,1.17578,0.50552,0.277971
2170152,0.98,-1.56544,-0.503184,0.0452225,-2.13776,0.0185597,1.63931,0.830575,-1.56423,-0.501645,0.0491112,-2.13915,0.0207834,1.64289,0.832809,0.0992616,0.343535,0.801066,-0.707953,0.326444,1.10052,0.713476,0.113159,0.356288,0.830004,-0.74049,0.32633,1.11629,0.733192,5.95277,-2.50461,8.30298,13.787,1.6501,1.66189,0.038645,0.551337,0.803251,1.52823,1.59155,1.16927,0.50199,0.278726
2170153,0.98,-1.56533,-0.502832,0.0460428,-2.1385,0.0188935,1.64044,0.831301,-1.56411,-0.501286,0.0499476,-2.13989,0.021112,1.64402,0.833547,0.100642,0.343792,0.804201,-0.716451,0.325208,1.11203,0.715628,0.114094,0.358655,0.836443,-0.74581,0.328568,1.12352,0.737916,5.9012,-2.60776,8.30298,14.0845,1.63912,1.69485,-0.0584009,0.554332,0.846847,1.52094,1.54975,1.16266,0.498055,0.279326
2170154,0.98,-1.56523,-0.50246,0.046853,-2.13924,0.0192325,1.64157,0.83203,-1.564,-0.500926,0.0507901,-2.14065,0.0214427,1.64515,0.83429,0.101128,0.350474,0.804806,-0.725737,0.32701,1.11317,0.723183,0.114982,0.360776,0.842474,-0.750693,0.330681,1.13025,0.742307,5.87739,-2.83389,8.27521,14.3582,1.65651,1.77175,-0.128897,0.56287,0.880561,1.52122,1.51332,1.15633,0.494411,0.279396
2170155,0.98,-1.56512,-0.502091,0.0476829,-2.13998,0.0195692,1.6427,0.832753,-1.56388,-0.500563,0.0516386,-2.1414,0.0217755,1.64629,0.835036,0.102278,0.357847,0.808972,-0.733251,0.333641,1.11538,0.716242,0.115871,0.362897,0.848506,-0.755577,0.332794,1.13698,0.746697,5.95277,-3.03622,8.30298,14.6796,1.63362,1.71408,-0.0712183,0.580435,0.893564,1.53462,1.48985,1.15048,0.492187,0.278636
2170156,0.98,-1.56501,-0.50171,0.0485169,-2.14075,0.0199043,1.64386,0.83348,-1.56377,-0.500198,0.0524931,-2.14216,0.0221104,1.64743,0.835787,0.10396,0.360717,0.813702,-0.740688,0.333899,1.11562,0.716434,0.116759,0.365019,0.854537,-0.760461,0.334907,1.1437,0.751088,6.00434,-3.31393,8.35456,15.0049,1.662,1.61062,0.0322363,0.606524,0.879508,1.56061,1.48352,1.14514,0.492054,0.276887
2170157,0.98,-1.56491,-0.501341,0.0493505,-2.1415,0.0202359,1.64501,0.834219,-1.56365,-0.499831,0.0533537,-2.14293,0.0224474,1.64858,0.836543,0.104118,0.364701,0.816877,-0.741503,0.331293,1.11931,0.722062,0.117648,0.36714,0.860569,-0.765344,0.33702,1.15043,0.755479,6.10353,-3.49246,8.37836,15.0803,1.76363,1.62344,0.0587866,0.639225,0.844553,1.59659,1.4909,1.14018,0.493674,0.274198
2170158,0.98,-1.5648,-0.500968,0.0501931,-2.14227,0.0205822,1.64615,0.834953,-1.56353,-0.499461,0.0542203,-2.1437,0.0227865,1.64974,0.837303,0.106544,0.367021,0.819271,-0.750938,0.334247,1.11831,0.722862,0.118537,0.369262,0.8666,-0.770228,0.339132,1.15716,0.75987,6.07972,-3.64322,8.35456,15.2271,1.74623,1.72048,0.219919,0.678058,0.797574,1.642,1.50675,1.13556,0.496349,0.270777
2170159,0.98,-1.56468,-0.500591,0.0510357,-2.14307,0.0209333,1.6473,0.835702,-1.56341,-0.49909,0.0550929,-2.14447,0.0231278,1.6509,0.838067,0.112609,0.370882,0.82866,-0.762894,0.33591,1.11746,0.736199,0.119425,0.371383,0.872632,-0.775112,0.341245,1.16389,0.76426,5.9012,-3.7424,8.32679,15.5008,1.71877,1.79098,0.310557,0.71961,0.740672,1.69208,1.53216,1.13131,0.500175,0.266946
2170160,0.98,-1.56456,-0.500218,0.0518974,-2.14384,0.0212852,1.64844,0.836441,-1.56329,-0.498716,0.0559716,-2.14525,0.0234711,1.65207,0.838836,0.116816,0.373882,0.835718,-0.766187,0.338823,1.12579,0.738737,0.120314,0.373505,0.878663,-0.779996,0.343358,1.17061,0.768651,5.72663,-3.84555,8.17603,15.5008,1.6675,1.8038,0.388376,0.756679,0.674232,1.73671,1.56891,1.12729,0.505391,0.263126
2170161,0.98,-1.56444,-0.499839,0.0527918,-2.14464,0.0216395,1.64962,0.837192,-1.56317,-0.498341,0.0568563,-2.14604,0.0238166,1.65325,0.839609,0.117873,0.373995,0.848025,-0.77436,0.346433,1.13991,0.739289,0.121202,0.375626,0.884694,-0.784879,0.345471,1.17734,0.773042,5.59968,-4.02011,7.82294,15.6,1.58785,1.68844,0.511057,0.783746,0.605154,1.76807,1.6122,1.12322,0.511431,0.259727
2170162,0.98,-1.56432,-0.499454,0.0536595,-2.14543,0.0219981,1.6508,0.837956,-1.56305,-0.497963,0.057747,-2.14683,0.0241642,1.65443,0.840386,0.122749,0.384719,0.855116,-0.7773,0.349582,1.15114,0.751418,0.122091,0.377747,0.890726,-0.789763,0.347584,1.18407,0.777433,5.44893,-4.30179,7.69599,15.5762,1.55397,1.69485,0.440561,0.798403,0.536197,1.78251,1.65815,1.11887,0.517655,0.257098
2170163,0.98,-1.56418,-0.499062,0.0545437,-2.14621,0.0223509,1.65195,0.838731,-1.56292,-0.497583,0.0586438,-2.14762,0.0245139,1.65562,0.841168,0.128505,0.386467,0.859557,-0.7786,0.353033,1.15319,0.759708,0.12298,0.379869,0.896757,-0.794647,0.349697,1.19079,0.781823,5.19502,-4.50412,7.64441,15.3778,1.5146,1.73971,0.337107,0.801141,0.46391,1.78104,1.70526,1.11405,0.523631,0.255483
2170164,0.98,-1.56406,-0.498664,0.0554263,-2.147,0.022713,1.65316,0.839529,-1.5628,-0.497201,0.0595461,-2.14842,0.0248656,1.65682,0.841954,0.128622,0.387473,0.87511,-0.778349,0.35485,1.16402,0.766548,0.123817,0.381745,0.902354,-0.799083,0.35168,1.19702,0.785879,5.09584,-4.70645,7.56903,15.2509,1.48622,1.49526,0.129282,0.792398,0.395175,1.76475,1.74707,1.10848,0.52868,0.254889
2170165,0.98,-1.56394,-0.498271,0.0563321,-2.14779,0.0230876,1.65437,0.840324,-1.56268,-0.496818,0.0604541,-2.14922,0.0252192,1.65802,0.842744,0.124911,0.388412,0.886567,-0.783088,0.360815,1.17417,0.780993,0.124654,0.383622,0.907951,-0.803519,0.353663,1.20324,0.789934,5.17122,-4.90482,7.39051,15.2787,1.46425,1.22427,-0.0968531,0.771674,0.341092,1.7323,1.7768,1.10198,0.532121,0.255036
2170166,0.98,-1.56381,-0.497879,0.0572434,-2.14858,0.0234483,1.65557,0.841105,-1.56255,-0.496432,0.0613676,-2.15003,0.0255749,1.65923,0.843538,0.127026,0.388012,0.893205,-0.784726,0.35882,1.17795,0.780427,0.125492,0.385498,0.913548,-0.807955,0.355646,1.20946,0.79399,5.06807,-4.95639,7.23975,15.1041,1.49172,1.17941,-0.0712183,0.74182,0.306243,1.68696,1.79247,1.09459,0.533522,0.255387
2170167,0.98,-1.56368,-0.497481,0.0581406,-2.14937,0.0238061,1.65677,0.841906,-1.56242,-0.496045,0.0622868,-2.15084,0.0259325,1.66045,0.844336,0.126838,0.399073,0.892533,-0.785005,0.354529,1.17516,0.785367,0.126329,0.387375,0.919145,-0.812392,0.357629,1.21568,0.798045,5.04426,-5.13492,7.1128,14.9295,1.57686,1.27554,-0.149038,0.710149,0.285172,1.63932,1.79646,1.08661,0.532748,0.255368
2170168,0.98,-1.56355,-0.49708,0.059057,-2.15017,0.0241727,1.65798,0.842704,-1.5623,-0.495656,0.0632115,-2.15166,0.0262921,1.66167,0.845138,0.126825,0.398761,0.88963,-0.789999,0.359627,1.18455,0.786288,0.127166,0.389251,0.924742,-0.816828,0.359612,1.22191,0.802101,5.02046,-5.26187,6.98584,15.0287,1.59426,1.23709,-0.044668,0.687026,0.266039,1.60463,1.79373,1.07856,0.530036,0.254562
