shamilmamedov/beam_handling/log/vibration_suppression_ICRA/OCP_T1_0.50s.csv
duration, success rate, q[0], q[1], q[2], q[3], q[4], q[5], q[6],q_d[0], q_d[1], q_d[2], q_d[3], q_d[4], q_d[5], q_d[6],dq[0], dq[1], dq[2], dq[3], dq[4], dq[5], dq[6],dq_d[0], dq_d[1], dq_d[2], dq_d[3], dq_d[4], dq_d[5], dq_d[6],tau_J[0], tau_J[1], tau_J[2], tau_J[3], tau_J[4], tau_J[5], tau_J[6],tau_ext_hat_filtered[0], tau_ext_hat_filtered[1], tau_ext_hat_filtered[2], tau_ext_hat_filtered[3], tau_ext_hat_filtered[4], tau_ext_hat_filtered[5], tau_ext_hat_filtered[6]
3115788,0,-1.5708,-0.522847,-0.000372293,-2.09594,-1.57061,1.5713,0.785668,-1.5708,-0.523599,-5.06004e-08,-2.09439,-1.5708,1.5708,0.785399,-0.0011539,0.00108797,0.000731701,0.00154297,5.64791e-05,-0.000312053,0.00106615,0,0,0,0,0,0,0,-0.0497324,-10.213,0.70563,20.9439,-0.848372,-0.379735,-0.181082,-0.0780647,-1.04747,0.570949,2.45409,-0.282892,-0.387721,-0.216731
3115789,1,-1.5708,-0.522849,-0.000374242,-2.09594,-1.57062,1.5713,0.785665,-1.5708,-0.523599,-5.06004e-08,-2.09439,-1.5708,1.5708,0.785399,-0.000769265,0.000168504,-0.000161813,0.00102865,-0.000165798,0.000266682,-0.000238666,0,0,0,0,0,0,0,-0.0497324,-10.1892,0.733401,20.9439,-0.842879,-0.392553,-0.155447,-0.0785298,-1.04744,0.570169,2.45376,-0.282882,-0.387763,-0.216743
3115790,1,-1.5708,-0.52285,-0.000377583,-2.09594,-1.57061,1.5713,0.785672,-1.5708,-0.523599,-5.06004e-08,-2.09439,-1.5708,1.5708,0.785399,-0.000512844,-0.000444476,-0.0012215,3.6151e-05,0.000533728,-5.95707e-05,0.00126504,0,0,0,0,0,0,0,-0.0497324,-10.1654,0.781009,20.9717,-0.860274,-0.386144,-0.193899,-0.0777789,-1.04711,0.571034,2.4528,-0.282814,-0.387623,-0.216698
3115791,1,-1.5708,-0.522852,-0.000375912,-2.09594,-1.57061,1.5713,0.785669,-1.5708,-0.523599,-5.06004e-08,-2.09439,-1.5708,1.5708,0.785399,0.00086453,-0.000945931,-0.000257521,2.41006e-05,-8.49907e-05,0.000197645,0.000368644,0,0,0,0,0,0,0,-0.101307,-10.1377,0.757205,20.9717,-0.848372,-0.392553,-0.181082,-0.0762965,-1.04553,0.57302,2.45152,-0.28272,-0.387355,-0.216629
3115792,1,-1.5708,-0.522849,-0.000375912,-2.09594,-1.57061,1.5713,0.78567,-1.5708,-0.523599,-5.06004e-08,-2.09439,-1.5708,1.5708,0.785399,1.95415e-05,0.000575805,-0.000171681,1.60671e-05,0.000180698,-0.000342954,8.40377e-06,0,0,0,0,0,0,0,-0.0775034,-10.1892,0.757205,20.9717,-0.85478,-0.379735,-0.174673,-0.0752436,-1.04362,0.574502,2.45044,-0.28266,-0.387148,-0.21657
3115793,1,-1.5708,-0.522849,-0.000375912,-2.09595,-1.57061,1.5713,0.785673,-1.5708,-0.523599,-5.06004e-08,-2.09439,-1.5708,1.5708,0.785399,1.30276e-05,0.00038387,-0.000114454,-0.000546101,0.000323916,8.72264e-06,0.00048032,0,0,0,0,0,0,0,-0.0775034,-10.1892,0.757205,20.9955,-0.860274,-0.386144,-0.18749,-0.0747901,-1.0436,0.575209,2.45047,-0.282676,-0.387052,-0.216536
3115794,1,-1.5708,-0.522849,-0.000375912,-2.09595,-1.57062,1.57129,0.78567,-1.5708,-0.523599,-5.06004e-08,-2.09439,-1.5708,1.5708,0.785399,8.6851e-06,0.000255913,-7.63025e-05,-0.000920879,-0.000428316,-0.000468903,-0.000629222,0,0,0,0,0,0,0,-0.0775034,-10.1892,0.757205,21.0193,-0.842879,-0.373326,-0.161856,-0.074588,-1.04585,0.575619,2.45193,-0.282774,-0.387011,-0.216529
3115795,1,-1.5708,-0.52285,-0.000374242,-2.09595,-1.57062,1.5713,0.785663,-1.5708,-0.523599,-5.06004e-08,-2.09439,-1.5708,1.5708,0.785399,0.000562602,-0.000386203,0.000505944,-0.000613919,-0.000488994,0.000399475,-0.00187754,0,0,0,0,0,0,0,-0.101307,-10.1654,0.733401,21.0193,-0.837385,-0.392553,-0.122488,-0.0748534,-1.0487,0.575385,2.45406,-0.282923,-0.387033,-0.216549
3115796,1,-1.5708,-0.522848,-0.000374242,-2.09595,-1.57061,1.5713,0.785668,-1.5708,-0.523599,-5.06004e-08,-2.09439,-1.5708,1.5708,0.785399,-0.000181744,-0.000257469,0.000337296,0.00649846,-0.000325996,2.89577e-05,-3.09925e-05,0,0,0,0,0,0,0,-0.0775034,-10.1654,0.733401,20.9955,-0.837385,-0.386144,-0.155447,-0.0757302,-1.04837,0.574182,2.45355,-0.28298,-0.387111,-0.216576
3115797,1,-1.5708,-0.52285,-0.000374242,-2.09595,-1.57061,1.5713,0.785664,-1.5708,-0.523599,-5.06004e-08,-2.09439,-1.5708,1.5708,0.785399,0.000435649,-0.000171646,0.000224864,0.00430474,0.000426929,0.000256664,-0.000766647,0,0,0,0,0,0,0,-0.101307,-10.1654,0.733401,21.0193,-0.85478,-0.392553,-0.135305,-0.0768503,-1.04212,0.572465,2.44745,-0.282799,-0.387177,-0.216578
3115798,1,-1.5708,-0.522848,-0.000372753,-2.09595,-1.57062,1.5713,0.785671,-1.5708,-0.523599,-5.06004e-08,-2.09439,-1.5708,1.5708,0.785399,-0.0014728,0.000442381,0.00135634,0.00270995,-0.000563091,-6.62496e-05,0.00118432,0,0,0,0,0,0,0,-0.0259286,-10.1892,0.681826,21.0431,-0.831892,-0.386144,-0.181082,-0.0779326,-1.03335,0.570634,2.43867,-0.28249,-0.387225,-0.21652
3115799,1,-1.5708,-0.522849,-0.000378293,-2.09595,-1.57061,1.5713,0.785673,-1.5708,-0.523599,-5.06004e-08,-2.09439,-1.5708,1.5708,0.785399,0.000224556,0.000294921,-0.00141583,0.00321796,3.1507e-05,0.000430552,0.00126427,0,0,0,0,0,0,0,-0.0775034,-10.1892,0.781009,20.9955,-0.842879,-0.398961,-0.193899,-0.078426,-1.02627,0.569569,2.43115,-0.282194,-0.387214,-0.216392
3115800,1,-1.5708,-0.522852,-0.000376149,-2.09595,-1.57062,1.5713,0.785667,-1.5708,-0.523599,-5.06004e-08,-2.09439,-1.5708,1.5708,0.785399,0.000149704,-0.00100981,-0.000387072,0.00181177,2.10047e-05,-0.000187684,-0.00034395,0,0,0,0,0,0,0,-0.0775034,-10.1377,0.757205,21.0193,-0.842879,-0.386144,-0.161856,-0.0779006,-1.0206,0.570105,2.42532,-0.281911,-0.387069,-0.216241
3115801,1,-1.5708,-0.52285,-0.000375991,-2.09594,-1.57062,1.5713,0.785669,-1.5708,-0.523599,-5.06004e-08,-2.09439,-1.5708,1.5708,0.785399,9.98026e-05,-2.3594e-05,-0.000258048,0.00313854,-0.000189447,-0.00059984,0.000957494,0,0,0,0,0,0,0,-0.0775034,-10.1654,0.757205,20.9439,-0.837385,-0.373326,-0.193899,-0.0769528,-1.01516,0.571394,2.42072,-0.28164,-0.386863,-0.216111
3115802,1,-1.5708,-0.522847,-0.000372319,-2.09594,-1.57062,1.5713,0.785663,-1.5708,-0.523599,-5.06004e-08,-2.09439,-1.5708,1.5708,0.785399,-0.000583079,0.00109789,0.00103439,0.00221795,7.71522e-05,7.48244e-05,-0.00129445,0,0,0,0,0,0,0,-0.0497324,-10.213,0.70563,20.9439,-0.842879,-0.386144,-0.141714,-0.0763606,-1.01146,0.572149,2.41764,-0.28142,-0.386728,-0.216013
3115803,1,-1.5708,-0.522849,-0.000374251,-2.09595,-1.57062,1.57129,0.785664,-1.5708,-0.523599,-5.06004e-08,-2.09439,-1.5708,1.5708,0.785399,0.000260895,0.000175118,3.99819e-05,-0.00019041,5.14348e-05,-0.000187476,-0.000591699,0,0,0,0,0,0,0,-0.0775034,-10.1892,0.733401,21.0193,-0.842879,-0.379735,-0.149038,-0.0764044,-1.01172,0.571931,2.41736,-0.281312,-0.386724,-0.215933
3115804,1,-1.5708,-0.522849,-0.000374245,-2.09595,-1.57062,1.57129,0.785667,-1.5708,-0.523599,-5.06004e-08,-2.09439,-1.5708,1.5708,0.785399,0.00017393,0.000116745,2.66546e-05,-5.62943e-05,3.42899e-05,0.000112375,-0.000394466,0,0,0,0,0,0,0,-0.0775034,-10.1892,0.733401,21.0193,-0.842879,-0.386144,-0.149038,-0.0768035,-1.01546,0.571239,2.42029,-0.281331,-0.386789,-0.215841
3115805,1,-1.5708,-0.522849,-0.000375913,-2.09594,-1.57062,1.5713,0.78567,-1.5708,-0.523599,-5.06004e-08,-2.09439,-1.5708,1.5708,0.785399,0.000115953,7.78301e-05,-0.000539042,0.00112908,0.00022631,7.49166e-05,0.00021174,0,0,0,0,0,0,0,-0.0775034,-10.1892,0.757205,20.9717,-0.848372,-0.386144,-0.161856,-0.0770556,-1.02043,0.570846,2.42485,-0.281404,-0.386825,-0.215713
3115806,1,-1.5708,-0.52285,-0.000374242,-2.09594,-1.57062,1.5713,0.785668,-1.5708,-0.523599,-5.06004e-08,-2.09439,-1.5708,1.5708,0.785399,7.73021e-05,-0.000504925,0.00019745,0.000792457,-5.25769e-05,-0.000187415,0.000378519,0,0,0,0,0,0,0,-0.0775034,-10.1654,0.733401,20.9717,-0.842879,-0.379735,-0.168264,-0.0770261,-1.02455,0.57088,2.4291,-0.281458,-0.386799,-0.215553
3115807,1,-1.5708,-0.52285,-0.000375912,-2.09595,-1.57062,1.5713,0.78567,-1.5708,-0.523599,-5.06004e-08,-2.09439,-1.5708,1.5708,0.785399,5.15348e-05,-0.000336617,-0.000425178,1.29641e-06,0.000168399,-0.000124943,0.00143914,0,0,0,0,0,0,0,-0.0775034,-10.1654,0.757205,20.9955,-0.848372,-0.379735,-0.200308,-0.0768582,-1.02725,0.571092,2.43265,-0.281491,-0.386726,-0.215373
3115808,1,-1.5708,-0.522847,-0.000375912,-2.09594,-1.57061,1.5713,0.78567,-1.5708,-0.523599,-5.06004e-08,-2.09439,-1.5708,1.5708,0.785399,-0.00117207,0.000332401,-0.000283452,0.000580029,-0.000294635,0.000628781,9.99144e-06,0,0,0,0,0,0,0,-0.0259286,-10.1892,0.757205,20.9717,-0.837385,-0.398961,-0.174673,-0.0762538,-1.02973,0.571908,2.43618,-0.281521,-0.386578,-0.215202
3115809,1,-1.5708,-0.522848,-0.000375912,-2.09595,-1.57062,1.5713,0.785671,-1.5708,-0.523599,-5.06004e-08,-2.09439,-1.5708,1.5708,0.785399,-0.000224568,0.0002216,-0.000188968,-0.000153361,-0.000196423,-0.000292889,6.66096e-06,0,0,0,0,0,0,0,-0.0497324,-10.1892,0.757205,20.9955,-0.837385,-0.379735,-0.174673,-0.0750541,-1.0331,0.57353,2.44002,-0.28155,-0.386358,-0.215074
3115810,1,-1.5708,-0.52285,-0.000375912,-2.09595,-1.57062,1.5713,0.785665,-1.5708,-0.523599,-5.06004e-08,-2.09439,-1.5708,1.5708,0.785399,-0.000149712,-0.000409078,-0.000125979,-0.00064648,7.25017e-05,0.000279458,-0.000944995,0,0,0,0,0,0,0,-0.0497324,-10.1654,0.757205,21.0193,-0.842879,-0.392553,-0.149038,-0.0738256,-1.03704,0.575144,2.44419,-0.281589,-0.386154,-0.214996
3115811,1,-1.5708,-0.522849,-0.000377583,-2.09594,-1.57062,1.5713,0.785667,-1.5708,-0.523599,-5.06004e-08,-2.09439,-1.5708,1.5708,0.785399,0.000549806,0.000284093,-0.000640798,0.000692068,0.000251785,0.000423665,-0.000901264,0,0,0,0,0,0,0,-0.0775034,-10.1892,0.781009,20.9717,-0.848372,-0.398961,-0.141714,-0.0729542,-1.04071,0.576266,2.44821,-0.281625,-0.386017,-0.214953
3115812,1,-1.5708,-0.522847,-0.000377583,-2.09594,-1.57061,1.5713,0.78567,-1.5708,-0.523599,-5.06004e-08,-2.09439,-1.5708,1.5708,0.785399,-0.000839888,0.000746207,-0.000427199,0.000468451,0.000405216,4.50841e-05,0.000145143,0,0,0,0,0,0,0,-0.0259286,-10.213,0.781009,20.9717,-0.85478,-0.392553,-0.161856,-0.0721545,-1.04427,0.577349,2.45162,-0.281634,-0.385918,-0.214908
3115813,1,-1.5708,-0.52285,-0.000375912,-2.09594,-1.57062,1.5713,0.785667,-1.5708,-0.523599,-5.06004e-08,-2.09439,-1.5708,1.5708,0.785399,-3.11371e-06,-0.000616152,0.000272013,0.000317605,-0.000170666,0.000267415,-0.000886583,0,0,0,0,0,0,0,-0.0497324,-10.1654,0.757205,20.9717,-0.842879,-0.398961,-0.135305,-0.0713026,-1.04748,0.578463,2.45429,-0.281624,-0.385845,-0.214833
3115814,1,-1.5708,-0.522847,-0.000370623,-2.09595,-1.57061,1.5713,0.78567,-1.5708,-0.523599,-5.06004e-08,-2.09439,-1.5708,1.5708,0.785399,0.00120435,0.000702856,0.00194458,-0.000897909,0.000327032,-0.000296441,0.00134172,0,0,0,0,0,0,0,-0.101307,-10.213,0.681826,21.0193,-0.85478,-0.386144,-0.18749,-0.0716654,-1.05013,0.577691,2.45659,-0.28166,-0.385985,-0.214715
3115815,1,-1.5708,-0.522849,-0.000375912,-2.09595,-1.57062,1.5713,0.785667,-1.5708,-0.523599,-5.06004e-08,-2.09439,-1.5708,1.5708,0.785399,-0.000403526,-8.82415e-05,-0.000466851,-0.000595622,-0.000222788,-0.000197627,0.000419765,0,0,0,0,0,0,0,-0.0497324,-10.1892,0.757205,21.0193,-0.842879,-0.386144,-0.174673,-0.0734577,-1.05341,0.574787,2.45942,-0.281784,-0.386372,-0.214557
3115816,1,-1.5708,-0.522845,-0.000375912,-2.09595,-1.57061,1.57129,0.785668,-1.5708,-0.523599,-5.06004e-08,-2.09439,-1.5708,1.5708,0.785399,0.000380597,0.0011476,-0.000311234,-0.000394844,0.000292284,-0.000369111,0.000754561,0,0,0,0,0,0,0,-0.0775034,-10.2408,0.757205,21.0193,-0.85478,-0.379735,-0.18749,-0.0747926,-1.05765,0.572603,2.46282,-0.281936,-0.386707,-0.214391
3115817,1,-1.5708,-0.522852,-0.000374242,-2.09595,-1.57061,1.5713,0.785671,-1.5708,-0.523599,-5.06004e-08,-2.09439,-1.5708,1.5708,0.785399,0.000810543,-0.00164779,0.000349322,0.000295261,0.000398307,0.000466003,0.000265682,0,0,0,0,0,0,0,-0.101307,-10.1377,0.733401,20.9955,-0.860274,-0.398961,-0.181082,-0.0754641,-1.0609,0.571462,2.46553,-0.282055,-0.386925,-0.21426
3115818,1,-1.5708,-0.522849,-0.000372293,-2.09594,-1.57061,1.5713,0.78567,-1.5708,-0.523599,-5.06004e-08,-2.09439,-1.5708,1.5708,0.785399,0.000540362,0.000107902,0.000882496,0.000754911,-0.000378722,-0.000164049,-0.000297597,0,0,0,0,0,0,0,-0.101307,-10.1892,0.70563,20.9717,-0.842879,-0.386144,-0.168264,-0.0765863,-1.0608,0.569649,2.46616,-0.282125,-0.387166,-0.214193
3115819,1,-1.5708,-0.522849,-0.000372293,-2.09594,-1.57061,1.5713,0.785668,-1.5708,-0.523599,-5.06004e-08,-2.09439,-1.5708,1.5708,0.785399,0.000360241,7.19345e-05,0.00058833,0.00115383,-0.000252481,0.000127993,-0.00118174,0,0,0,0,0,0,0,-0.101307,-10.1892,0.70563,20.9439,-0.842879,-0.392553,-0.141714,-0.0782307,-1.05869,0.567025,2.46512,-0.28216,-0.387461,-0.214184
3115820,1,-1.5708,-0.522849,-0.000377583,-2.09595,-1.57061,1.5713,0.78567,-1.5708,-0.523599,-5.06004e-08,-2.09439,-1.5708,1.5708,0.785399,-0.000966265,4.79563e-05,-0.00137102,-0.000993308,3.51295e-05,8.53286e-05,-4.18427e-05,0,0,0,0,0,0,0,-0.0497324,-10.1892,0.781009,21.0193,-0.848372,-0.392553,-0.161856,-0.0790952,-1.05712,0.565573,2.46403,-0.282176,-0.387639,-0.214198
3115821,1,-1.57079,-0.522847,-0.000374242,-2.09594,-1.57061,1.5713,0.785668,-1.5708,-0.523599,-5.06004e-08,-2.09439,-1.5708,1.5708,0.785399,0.00111906,0.000588783,0.000199612,0.000451949,2.34197e-05,-0.000180473,0.000446823,0,0,0,0,0,0,0,-0.125111,-10.213,0.733401,20.9717,-0.848372,-0.386144,-0.174673,-0.0785943,-1.0571,0.566263,2.46393,-0.28219,-0.387615,-0.214195
3115822,1,-1.5708,-0.52285,-0.000374242,-2.09594,-1.57062,1.57129,0.785672,-1.5708,-0.523599,-5.06004e-08,-2.09439,-1.5708,1.5708,0.785399,0.000189229,-0.000721102,0.000133075,-0.000255114,-0.000391288,-0.000357674,0.0007726,0,0,0,0,0,0,0,-0.101307,-10.1654,0.733401,20.9955,-0.837385,-0.379735,-0.18749,-0.0781038,-1.05775,0.567096,2.46427,-0.282221,-0.387587,-0.214173
3115823,1,-1.5708,-0.52285,-0.000377583,-2.09594,-1.57062,1.5713,0.785669,-1.5708,-0.523599,-5.06004e-08,-2.09439,-1.5708,1.5708,0.785399,-0.000430659,-0.000480735,-0.00102491,-0.000169777,-5.74081e-05,-0.00023845,0.000277708,0,0,0,0,0,0,0,-0.0775034,-10.1654,0.781009,20.9955,-0.842879,-0.379735,-0.181082,-0.077637,-1.0573,0.567967,2.46417,-0.282233,-0.387527,-0.214157
3115824,1,-1.5708,-0.522847,-0.000374242,-2.09594,-1.57062,1.5713,0.785668,-1.5708,-0.523599,-5.06004e-08,-2.09439,-1.5708,1.5708,0.785399,0.000269706,0.000793134,0.000430352,0.000443851,0.000165178,7.83925e-05,0.000185138,0,0,0,0,0,0,0,-0.101307,-10.213,0.733401,20.9717,-0.848372,-0.386144,-0.181082,-0.0766844,-1.05656,0.569614,2.46395,-0.282215,-0.387363,-0.21417
3115825,1,-1.5708,-0.522849,-0.000374424,-2.09595,-1.57062,1.57129,0.785669,-1.5708,-0.523599,-5.06004e-08,-2.09439,-1.5708,1.5708,0.785399,-0.000377008,-2.80559e-05,0.000936515,-0.000260743,0.000110119,-0.000422456,0.000598143,0,0,0,0,0,0,0,-0.0775034,-10.1892,0.70563,20.9955,-0.848372,-0.373326,-0.193899,-0.0762508,-1.05699,0.570526,2.4641,-0.282211,-0.387267,-0.214222
3115826,1,-1.5708,-0.522849,-0.000374952,-2.09594,-1.57061,1.57129,0.785666,-1.5708,-0.523599,-5.06004e-08,-2.09439,-1.5708,1.5708,0.785399,0.000305473,-1.87039e-05,-2.52703e-05,0.000383109,-0.000130038,0.00019308,-0.000550673,0,0,0,0,0,0,0,-0.101307,-10.1892,0.733401,20.9717,-0.842879,-0.386144,-0.168264,-0.0765873,-1.05782,0.570262,2.46435,-0.282226,-0.387266,-0.21432
3115827,1,-1.5708,-0.522847,-0.000376149,-2.09595,-1.57061,1.5713,0.785663,-1.5708,-0.523599,-5.06004e-08,-2.09439,-1.5708,1.5708,0.785399,-0.000353163,-1.24693e-05,-0.000573659,-0.000301311,0.000557568,0.00012872,-0.00158782,0,0,0,0,0,0,0,-0.0775034,-10.1892,0.757205,20.9955,-0.860274,-0.386144,-0.135305,-0.0768223,-1.05828,0.570177,2.4644,-0.282225,-0.387218,-0.214464
3115828,1,-1.5708,-0.522848,-0.000375991,-2.09594,-1.57062,1.5713,0.785665,-1.5708,-0.523599,-5.06004e-08,-2.09439,-1.5708,1.5708,0.785399,-0.000235442,-8.31285e-06,-0.000382439,0.000356009,-0.000272548,0.000560531,-0.0012959,0,0,0,0,0,0,0,-0.0775034,-10.1892,0.757205,20.9717,-0.842879,-0.398961,-0.128897,-0.0763999,-1.05856,0.571127,2.46437,-0.282198,-0.387051,-0.21462
3115829,1,-1.5708,-0.522848,-0.000372319,-2.09594,-1.57061,1.5713,0.78567,-1.5708,-0.523599,-5.06004e-08,-2.09439,-1.5708,1.5708,0.785399,-0.000156961,-5.5419e-06,0.000951466,0.00144382,0.000259111,-0.00010103,0.000356767,0,0,0,0,0,0,0,-0.0775034,-10.1892,0.70563,20.9201,-0.85478,-0.386144,-0.161856,-0.075904,-1.05818,0.572151,2.46369,-0.282151,-0.38687,-0.21473
3115830,1,-1.5708,-0.522849,-0.000372302,-2.09594,-1.57062,1.5713,0.785671,-1.5708,-0.523599,-5.06004e-08,-2.09439,-1.5708,1.5708,0.785399,0.000452171,-3.6946e-06,0.000634311,-0.000243841,0.000172741,0.000407364,0.000475203,0,0,0,0,0,0,0,-0.101307,-10.1892,0.70563,20.9717,-0.85478,-0.398961,-0.168264,-0.0763017,-1.05709,0.57176,2.46225,-0.282118,-0.386836,-0.21476
3115831,1,-1.5708,-0.522849,-0.000377586,-2.09595,-1.57062,1.5713,0.785672,-1.5708,-0.523599,-5.06004e-08,-2.09439,-1.5708,1.5708,0.785399,-0.000904979,-2.46307e-06,-0.00134036,-0.000719342,0.00011516,-0.000203142,0.00174096,0,0,0,0,0,0,0,-0.0497324,-10.1892,0.781009,20.9955,-0.85478,-0.386144,-0.206716,-0.0768061,-1.0566,0.571196,2.46135,-0.282132,-0.386841,-0.214721
3115832,1,-1.5708,-0.522852,-0.000375913,-2.09595,-1.57062,1.5713,0.785668,-1.5708,-0.523599,-5.06004e-08,-2.09439,-1.5708,1.5708,0.785399,4.62949e-05,-0.00120807,-0.000336764,-0.000479539,-0.000364036,0.00033929,0.000211201,0,0,0,0,0,0,0,-0.0775034,-10.1377,0.757205,20.9955,-0.842879,-0.398961,-0.181082,-0.0761531,-1.05632,0.572368,2.46119,-0.282167,-0.386687,-0.214657
3115833,1,-1.5708,-0.522847,-0.000375913,-2.09594,-1.57062,1.5713,0.785671,-1.5708,-0.523599,-5.06004e-08,-2.09439,-1.5708,1.5708,0.785399,0.000587675,0.000957859,-0.000224509,0.000237136,-3.92401e-05,-1.11655e-05,0.000140801,0,0,0,0,0,0,0,-0.101307,-10.213,0.757205,20.9717,-0.848372,-0.392553,-0.181082,-0.0751833,-1.05575,0.574058,2.4611,-0.28221,-0.386505,-0.214625
3115834,1,-1.5708,-0.52285,-0.000377583,-2.09594,-1.57061,1.5713,0.785667,-1.5708,-0.523599,-5.06004e-08,-2.09439,-1.5708,1.5708,0.785399,0.000391783,-0.000475051,-0.000706485,0.000807717,0.000211199,-7.44368e-06,-0.000618209,0,0,0,0,0,0,0,-0.101307,-10.1654,0.781009,20.9439,-0.85478,-0.392553,-0.161856,-0.0747513,-1.05562,0.575091,2.46087,-0.28226,-0.386435,-0.214645
3115835,1,-1.5708,-0.522849,-0.000374242,-2.09594,-1.57061,1.5713,0.785662,-1.5708,-0.523599,-5.06004e-08,-2.09439,-1.5708,1.5708,0.785399,-0.000945237,0.000240111,0.000642634,0.0010953,-9.65597e-05,-0.000242321,-0.00163284,0,0,0,0,0,0,0,-0.0497324,-10.1892,0.733401,20.9201,-0.848372,-0.386144,-0.128897,-0.0745262,-1.05505,0.575832,2.45981,-0.282283,-0.386413,-0.214708
3115836,1,-1.5708,-0.522852,-0.000370623,-2.09594,-1.57061,1.5713,0.785666,-1.5708,-0.523599,-5.06004e-08,-2.09439,-1.5708,1.5708,0.785399,1.9456e-05,-0.00104635,0.00163485,-0.000476219,-0.000267824,-0.000161548,0.0003695,0,0,0,0,0,0,0,-0.0775034,-10.1377,0.681826,20.9717,-0.842879,-0.386144,-0.168264,-0.0748813,-1.0534,0.57549,2.458,-0.282304,-0.386483,-0.214773
3115837,1,-1.5708,-0.52285,-0.000374242,-2.09594,-1.57061,1.5713,0.785662,-1.5708,-0.523599,-5.06004e-08,-2.09439,-1.5708,1.5708,0.785399,1.29707e-05,-4.79539e-05,-0.000116527,-0.000317474,0.00026226,0.000129661,-0.00121173,0,0,0,0,0,0,0,-0.0775034,-10.1654,0.733401,20.9717,-0.85478,-0.392553,-0.128897,-0.0760963,-1.05147,0.57368,2.45644,-0.282369,-0.386685,-0.214798
3115838,1,-1.5708,-0.522849,-0.000377583,-2.09594,-1.57061,1.5713,0.785673,-1.5708,-0.523599,-5.06004e-08,-2.09439,-1.5708,1.5708,0.785399,8.64711e-06,0.000524843,-0.00119131,-0.000211645,0.00017484,-0.000150919,0.00183704,0,0,0,0,0,0,0,-0.0775034,-10.1892,0.781009,20.9717,-0.85478,-0.386144,-0.200308,-0.0769418,-1.05087,0.572476,2.45591,-0.282462,-0.386845,-0.214763
3115839,1,-1.5708,-0.522847,-0.000374242,-2.09594,-1.57062,1.5713,0.785669,-1.5708,-0.523599,-5.06004e-08,-2.09439,-1.5708,1.5708,0.785399,-0.000643849,0.000349895,0.000319418,-0.000141094,-0.0005277,0.000374105,0.000749974,0,0,0,0,0,0,0,-0.0497324,-10.1892,0.733401,20.9717,-0.837385,-0.398961,-0.18749,-0.0767396,-1.05232,0.572935,2.45643,-0.282564,-0.386874,-0.214676
3115840,1,-1.5708,-0.522844,-0.000372293,-2.09595,-1.57061,1.5713,0.785669,-1.5708,-0.523599,-5.06004e-08,-2.09439,-1.5708,1.5708,0.785399,0.000777193,0.000790075,0.000862559,-0.0017645,0.000495911,-0.000225314,0.000737342,0,0,0,0,0,0,0,-0.101307,-10.213,0.70563,21.0431,-0.860274,-0.386144,-0.193899,-0.0767002,-1.05574,0.573146,2.45813,-0.282717,-0.386958,-0.214583
3115841,1,-1.5708,-0.522849,-0.000374242,-2.09595,-1.57061,1.5713,0.785667,-1.5708,-0.523599,-5.06004e-08,-2.09439,-1.5708,1.5708,0.785399,-3.86832e-05,-0.000586907,-7.45743e-05,-6.27052e-05,0.000330607,0.000324508,-0.000220516,0,0,0,0,0,0,0,-0.0775034,-10.1654,0.733401,20.9955,-0.860274,-0.398961,-0.174673,-0.0775121,-1.06,0.572066,2.46063,-0.282925,-0.387183,-0.214534
3115842,1,-1.5708,-0.522848,-0.000375912,-2.09595,-1.57062,1.5713,0.785669,-1.5708,-0.523599,-5.06004e-08,-2.09439,-1.5708,1.5708,0.785399,-2.57888e-05,0.000165541,-0.000606528,-4.18022e-05,-0.000627306,-0.000495738,-0.000621728,0,0,0,0,0,0,0,-0.0775034,-10.1892,0.757205,20.9955,-0.837385,-0.379735,-0.161856,-0.0781403,-1.06268,0.571216,2.46234,-0.283097,-0.387365,-0.21455
3115843,1,-1.5708,-0.522847,-0.000375912,-2.09595,-1.57062,1.5713,0.785667,-1.5708,-0.523599,-5.06004e-08,-2.09439,-1.5708,1.5708,0.785399,-0.000666806,0.000667172,-0.000404352,-0.00114149,-0.000214753,-9.3133e-05,-0.00139783,0,0,0,0,0,0,0,-0.0497324,-10.213,0.757205,21.0431,-0.842879,-0.386144,-0.135305,-0.0777789,-1.06451,0.571791,2.46348,-0.283216,-0.387388,-0.214611
3115844,1,-1.5708,-0.522847,-0.000374242,-2.09595,-1.57061,1.57129,0.785665,-1.5708,-0.523599,-5.06004e-08,-2.09439,-1.5708,1.5708,0.785399,0.000761888,0.000444782,0.000287244,0.000352631,0.000501091,-0.000299448,-0.00042326,0,0,0,0,0,0,0,-0.101307,-10.213,0.733401,20.9955,-0.860274,-0.379735,-0.149038,-0.0770988,-1.06711,0.572834,2.46497,-0.283325,-0.387364,-0.214672
3115845,1,-1.5708,-0.522849,-0.000374242,-2.09595,-1.57062,1.5713,0.785668,-1.5708,-0.523599,-5.06004e-08,-2.09439,-1.5708,1.5708,0.785399,-0.0006985,-0.000260291,0.000191496,0.000235088,0.00013061,3.77272e-05,-4.48145e-05,0,0,0,0,0,0,0,-0.0497324,-10.1892,0.733401,20.9955,-0.85478,-0.386144,-0.155447,-0.0768731,-1.06893,0.573152,2.4658,-0.28341,-0.387388,-0.214697
3115846,1,-1.5708,-0.52285,-0.000375912,-2.09595,-1.57062,1.5713,0.78567,-1.5708,-0.523599,-5.06004e-08,-2.09439,-1.5708,1.5708,0.785399,-0.000465667,-0.000730339,-0.000429148,0.000156725,8.70735e-05,0.00026251,0.000207483,0,0,0,0,0,0,0,-0.0497324,-10.1654,0.757205,20.9955,-0.85478,-0.392553,-0.161856,-0.0765829,-1.06824,0.573406,2.46513,-0.283439,-0.387362,-0.214671
3115847,1,-1.5708,-0.522847,-0.000375912,-2.09595,-1.57062,1.5713,0.78567,-1.5708,-0.523599,-5.06004e-08,-2.09439,-1.5708,1.5708,0.785399,0.000339169,0.000626731,-0.000286099,-0.00100914,-0.00017931,0.000175007,0.00132512,0,0,0,0,0,0,0,-0.0775034,-10.213,0.757205,21.0431,-0.848372,-0.392553,-0.193899,-0.0758984,-1.06644,0.574174,2.46409,-0.283453,-0.387258,-0.214597
3115848,1,-1.5708,-0.522847,-0.000372293,-2.09595,-1.57062,1.5713,0.785668,-1.5708,-0.523599,-5.06004e-08,-2.09439,-1.5708,1.5708,0.785399,-0.000423501,-0.000138991,0.00101569,-0.00067276,-0.00032299,-0.000120688,-0.000778102,0,0,0,0,0,0,0,-0.0497324,-10.1892,0.70563,21.0431,-0.842879,-0.386144,-0.149038,-0.075542,-1.06592,0.574475,2.46408,-0.283522,-0.387221,-0.214497
3115849,1,-1.5708,-0.52285,-0.000372293,-2.09595,-1.57061,1.5713,0.785673,-1.5708,-0.523599,-5.06004e-08,-2.09439,-1.5708,1.5708,0.785399,0.000924092,-0.000649473,0.000677129,0.000108306,-0.000622228,0.000156901,0.00114278,0,0,0,0,0,0,0,-0.101307,-10.1654,0.70563,21.0193,-0.831892,-0.392553,-0.193899,-0.076156,-1.06553,0.573256,2.46436,-0.283626,-0.387338,-0.2144
3115850,1,-1.5708,-0.522848,-0.000379532,-2.09594,-1.57062,1.5713,0.785667,-1.5708,-0.523599,-5.06004e-08,-2.09439,-1.5708,1.5708,0.785399,5.92493e-05,0.00012383,-0.00196143,0.00118583,-7.91765e-06,-0.000132759,-0.000424943,0,0,0,0,0,0,0,-0.0775034,-10.1892,0.80878,20.9717,-0.842879,-0.386144,-0.161856,-0.076908,-1.06351,0.571845,2.46354,-0.283666,-0.387464,-0.214327
3115851,1,-1.5708,-0.522849,-0.000372293,-2.09594,-1.57062,1.5713,0.785665,-1.5708,-0.523599,-5.06004e-08,-2.09439,-1.5708,1.5708,0.785399,0.000596311,8.25534e-05,0.00110523,0.000790552,-5.27843e-06,0.000148853,-0.000758013,0,0,0,0,0,0,0,-0.101307,-10.1892,0.70563,20.9717,-0.842879,-0.392553,-0.149038,-0.0770276,-1.06068,0.571502,2.46169,-0.283607,-0.387486,-0.214286
3115852,1,-1.5708,-0.522847,-0.000375912,-2.09594,-1.57062,1.5713,0.785667,-1.5708,-0.523599,-5.06004e-08,-2.09439,-1.5708,1.5708,0.785399,0.000397541,0.000611848,-0.000469606,0.000527035,0.000199932,-0.000375482,-0.000776609,0,0,0,0,0,0,0,-0.101307,-10.213,0.757205,20.9717,-0.848372,-0.379735,-0.141714,-0.0773606,-1.05851,0.570933,2.45978,-0.283517,-0.387544,-0.21426
3115853,1,-1.5708,-0.522849,-0.000374242,-2.09594,-1.57062,1.5713,0.785666,-1.5708,-0.523599,-5.06004e-08,-2.09439,-1.5708,1.5708,0.785399,0.000265027,-0.000148914,0.000243741,0.000351357,0.000370647,-1.29627e-05,-9.11325e-06,0,0,0,0,0,0,0,-0.101307,-10.1892,0.733401,20.9717,-0.85478,-0.386144,-0.155447,-0.0779903,-1.05741,0.570017,2.45841,-0.283436,-0.387645,-0.214214
3115854,1,-1.5708,-0.522852,-0.000377583,-2.09595,-1.57062,1.5713,0.785664,-1.5708,-0.523599,-5.06004e-08,-2.09439,-1.5708,1.5708,0.785399,0.000176685,-0.0013057,-0.00095113,-0.000879386,0.000247098,0.000228717,-0.000514702,0,0,0,0,0,0,0,-0.101307,-10.1377,0.781009,21.0193,-0.85478,-0.392553,-0.141714,-0.0782714,-1.05599,0.569715,2.45732,-0.283354,-0.387664,-0.214127
3115855,1,-1.5708,-0.522847,-0.000374242,-2.09595,-1.57061,1.5713,0.785672,-1.5708,-0.523599,-5.06004e-08,-2.09439,-1.5708,1.5708,0.785399,-0.000439022,0.000335958,0.000479537,-0.000586257,-0.000276078,0.000627196,0.00135229,0,0,0,0,0,0,0,-0.0775034,-10.1892,0.733401,21.0193,-0.842879,-0.40537,-0.18749,-0.0781263,-1.05417,0.57012,2.45678,-0.283292,-0.387595,-0.213991
3115856,1,-1.5708,-0.52285,-0.000372293,-2.09595,-1.57061,1.5713,0.785669,-1.5708,-0.523599,-5.06004e-08,-2.09439,-1.5708,1.5708,0.785399,-0.00149911,-0.00033284,0.000969306,0.000165974,1.93988e-05,-0.000293946,0.000901524,0,0,0,0,0,0,0,-0.0259286,-10.1654,0.70563,20.9955,-0.848372,-0.386144,-0.18749,-0.0778632,-1.05322,0.570606,2.45701,-0.283273,-0.387528,-0.213817
3115857,1,-1.5708,-0.522848,-0.000374242,-2.09594,-1.57062,1.5713,0.785669,-1.5708,-0.523599,-5.06004e-08,-2.09439,-1.5708,1.5708,0.785399,0.000763833,0.000334919,-3.41021e-06,0.000667461,1.29325e-05,-0.000195964,0.000838375,0,0,0,0,0,0,0,-0.101307,-10.1892,0.733401,20.9717,-0.848372,-0.386144,-0.193899,-0.0777977,-1.05276,0.570626,2.45722,-0.283268,-0.387518,-0.213651
3115858,1,-1.5708,-0.52285,-0.000374242,-2.09594,-1.57062,1.5713,0.785666,-1.5708,-0.523599,-5.06004e-08,-2.09439,-1.5708,1.5708,0.785399,-0.00125402,-0.000333533,-2.27347e-06,0.000444974,-0.000398279,-0.000130643,-0.000390519,0,0,0,0,0,0,0,-0.0259286,-10.1654,0.733401,20.9717,-0.837385,-0.386144,-0.168264,-0.0777096,-1.05213,0.570629,2.4569,-0.283243,-0.387518,-0.213542
3115859,1,-1.5708,-0.522847,-0.000372293,-2.09595,-1.57062,1.5713,0.785671,-1.5708,-0.523599,-5.06004e-08,-2.09439,-1.5708,1.5708,0.785399,-0.000279199,0.000891269,0.000648098,-0.000260163,0.00037874,0.000387623,0.000214372,0,0,0,0,0,0,0,-0.0497324,-10.213,0.70563,20.9955,-0.85478,-0.398961,-0.181082,-0.0773529,-1.05206,0.570937,2.45669,-0.283211,-0.387495,-0.213499
3115860,1,-1.5708,-0.522849,-0.000374242,-2.09595,-1.57061,1.5713,0.785667,-1.5708,-0.523599,-5.06004e-08,-2.09439,-1.5708,1.5708,0.785399,-0.000186132,3.73672e-05,-0.000217548,-0.000730254,0.000455944,-0.000216303,-0.000331803,0,0,0,0,0,0,0,-0.0497324,-10.1892,0.733401,21.0193,-0.860274,-0.386144,-0.168264,-0.0769963,-1.0537,0.571143,2.45757,-0.283219,-0.387503,-0.213512
3115861,1,-1.5708,-0.52285,-0.000374242,-2.09595,-1.57062,1.5713,0.78567,-1.5708,-0.523599,-5.06004e-08,-2.09439,-1.5708,1.5708,0.785399,-0.0006809,-0.0005319,-0.000145032,-0.000486836,0.000100512,-0.000144202,1.61567e-05,0,0,0,0,0,0,0,-0.0259286,-10.1654,0.733401,21.0193,-0.85478,-0.386144,-0.174673,-0.0764528,-1.05585,0.571537,2.45913,-0.283258,-0.387496,-0.213566
3115862,1,-1.5708,-0.522847,-0.000375912,-2.09594,-1.57062,1.5713,0.785668,-1.5708,-0.523599,-5.06004e-08,-2.09439,-1.5708,1.5708,0.785399,0.000102878,0.000759024,-0.0006535,0.000789067,-0.000373801,-9.61345e-05,-0.000938665,0,0,0,0,0,0,0,-0.0497324,-10.213,0.757205,20.9717,-0.842879,-0.386144,-0.149038,-0.0753906,-1.05718,0.572584,2.46032,-0.283288,-0.387412,-0.213653
3115863,1,-1.5708,-0.52285,-0.000375912,-2.09594,-1.57061,1.5713,0.785667,-1.5708,-0.523599,-5.06004e-08,-2.09439,-1.5708,1.5708,0.785399,0.0007182,-0.000607608,-0.000435667,0.000526044,-0.000249201,0.000410628,-0.000151059,0,0,0,0,0,0,0,-0.0775034,-10.1654,0.757205,20.9717,-0.842879,-0.398961,-0.161856,-0.0742565,-1.05765,0.573737,2.4606,-0.283288,-0.387321,-0.213752
3115864,1,-1.5708,-0.522847,-0.000374242,-2.09595,-1.57062,1.5713,0.785669,-1.5708,-0.523599,-5.06004e-08,-2.09439,-1.5708,1.5708,0.785399,0.00103561,0.000708552,0.000266367,-0.000762928,-0.000369584,0.000273752,0.00108609,0,0,0,0,0,0,0,-0.101307,-10.213,0.733401,21.0193,-0.837385,-0.398961,-0.193899,-0.0738599,-1.05772,0.573911,2.46049,-0.283292,-0.387349,-0.213839
3115865,1,-1.5708,-0.522849,-0.000375912,-2.09595,-1.57061,1.5713,0.785664,-1.5708,-0.523599,-5.06004e-08,-2.09439,-1.5708,1.5708,0.785399,0.000133596,-8.44441e-05,-0.000379234,4.81936e-05,0.00039787,0.000182501,-0.000937453,0,0,0,0,0,0,0,-0.0775034,-10.1892,0.757205,20.9955,-0.85478,-0.398961,-0.149038,-0.0742717,-1.05859,0.573008,2.46098,-0.283334,-0.387519,-0.213908
3115866,1,-1.5708,-0.522849,-0.000374242,-2.09595,-1.57062,1.5713,0.785673,-1.5708,-0.523599,-5.06004e-08,-2.09439,-1.5708,1.5708,0.785399,-0.00056055,-5.62961e-05,0.00030399,-0.000524683,-0.000175563,-0.000115691,0.0012739,0,0,0,0,0,0,0,-0.0497324,-10.1892,0.733401,21.0193,-0.842879,-0.392553,-0.200308,-0.074634,-1.05972,0.572167,2.46179,-0.283378,-0.387694,-0.213975
3115867,1,-1.5708,-0.522847,-0.000375912,-2.09595,-1.57062,1.5713,0.785669,-1.5708,-0.523599,-5.06004e-08,-2.09439,-1.5708,1.5708,0.785399,0.000275914,0.000519281,-0.000354152,-0.000349789,8.64088e-05,-0.000314486,0.000374551,0,0,0,0,0,0,0,-0.0775034,-10.213,0.757205,21.0193,-0.848372,-0.386144,-0.18749,-0.0746015,-1.06082,0.57184,2.46274,-0.283413,-0.38782,-0.214045
3115868,1,-1.5708,-0.52285,-0.000375912,-2.09595,-1.57062,1.5713,0.785675,-1.5708,-0.523599,-5.06004e-08,-2.09439,-1.5708,1.5708,0.785399,0.000183943,-0.000767436,-0.000236102,0.00032362,5.76059e-05,-0.000447017,0.00119914,0,0,0,0,0,0,0,-0.0775034,-10.1654,0.757205,20.9955,-0.848372,-0.379735,-0.213125,-0.0743652,-1.0616,0.571845,2.46353,-0.283433,-0.387911,-0.214142
3115869,1,-1.5708,-0.522852,-0.000377583,-2.09594,-1.57062,1.5713,0.785673,-1.5708,-0.523599,-5.06004e-08,-2.09439,-1.5708,1.5708,0.785399,-0.000526986,-0.00116124,-0.000714213,0.000772558,3.84039e-05,-0.000298011,-0.000150012,0,0,0,0,0,0,0,-0.0497324,-10.1377,0.781009,20.9717,-0.848372,-0.379735,-0.18749,-0.0737183,-1.05972,0.572464,2.46279,-0.283379,-0.387896,-0.214305
3115870,1,-1.5708,-0.522852,-0.000379532,-2.09594,-1.57062,1.5713,0.78567,-1.5708,-0.523599,-5.06004e-08,-2.09439,-1.5708,1.5708,0.785399,0.00029829,-0.000774159,-0.00112576,0.000515039,-0.000177848,0.000276044,-0.000100008,0,0,0,0,0,0,0,-0.0775034,-10.1377,0.80878,20.9717,-0.842879,-0.392553,-0.18749,-0.0723796,-1.05481,0.574127,2.46028,-0.283235,-0.38772,-0.214553
3115871,1,-1.5708,-0.522845,-0.000375912,-2.09595,-1.57062,1.5713,0.785663,-1.5708,-0.523599,-5.06004e-08,-2.09439,-1.5708,1.5708,0.785399,0.00019886,0.00189675,0.000455922,-0.000770265,8.48852e-05,0.000184029,-0.00199945,0,0,0,0,0,0,0,-0.0775034,-10.2408,0.757205,21.0193,-0.848372,-0.392553,-0.135305,-0.0710927,-1.05127,0.57591,2.4584,-0.283107,-0.387549,-0.214864
3115872,1,-1.5708,-0.522849,-0.000379532,-2.09595,-1.57062,1.5713,0.785668,-1.5708,-0.523599,-5.06004e-08,-2.09439,-1.5708,1.5708,0.785399,0.000689385,5.80714e-05,-0.000902478,-0.00107032,5.65902e-05,-0.000114673,-0.000586983,0,0,0,0,0,0,0,-0.101307,-10.1892,0.80878,21.0431,-0.848372,-0.386144,-0.155447,-0.0706303,-1.05266,0.576783,2.45929,-0.283097,-0.387543,-0.215184
3115873,1,-1.5708,-0.522847,-0.000374242,-2.09594,-1.57062,1.5713,0.785665,-1.5708,-0.523599,-5.06004e-08,-2.09439,-1.5708,1.5708,0.785399,-0.000746836,0.000595526,0.00116159,0.000956888,-0.000369174,-7.64485e-05,-0.00161202,0,0,0,0,0,0,0,-0.0497324,-10.213,0.733401,20.9717,-0.837385,-0.386144,-0.122488,-0.0707785,-1.05627,0.576918,2.46147,-0.28315,-0.387641,-0.215461
3115874,1,-1.5708,-0.522849,-0.000375912,-2.09595,-1.57062,1.5713,0.785668,-1.5708,-0.523599,-5.06004e-08,-2.09439,-1.5708,1.5708,0.785399,0.000151724,-0.000159794,0.000217579,-0.000475699,0.000160785,0.000186393,0.000858097,0,0,0,0,0,0,0,-0.0775034,-10.1892,0.757205,21.0193,-0.848372,-0.392553,-0.174673,-0.0714154,-1.05896,0.576261,2.46295,-0.283188,-0.387796,-0.215656
3115875,1,-1.5708,-0.52285,-0.000379532,-2.09595,-1.57061,1.5713,0.785667,-1.5708,-0.523599,-5.06004e-08,-2.09439,-1.5708,1.5708,0.785399,-0.000548465,-0.000663342,-0.00106137,0.00023968,0.000547999,-0.000350456,0.000334706,0,0,0,0,0,0,0,-0.0497324,-10.1654,0.80878,20.9955,-0.860274,-0.379735,-0.168264,-0.0718759,-1.0599,0.575816,2.46353,-0.283186,-0.387895,-0.215754
3115876,1,-1.5708,-0.52285,-0.000372293,-2.09595,-1.57061,1.5713,0.78567,-1.5708,-0.523599,-5.06004e-08,-2.09439,-1.5708,1.5708,0.785399,0.000283971,-0.000442228,0.00170527,-0.000953838,0.000365333,3.7218e-06,0.00140993,0,0,0,0,0,0,0,-0.0775034,-10.1654,0.70563,21.0431,-0.860274,-0.386144,-0.200308,-0.0720381,-1.05905,0.575802,2.4635,-0.283165,-0.387914,-0.21578
3115877,1,-1.57079,-0.522849,-0.000374242,-2.09595,-1.57061,1.5713,0.785669,-1.5708,-0.523599,-5.06004e-08,-2.09439,-1.5708,1.5708,0.785399,0.00130294,0.000261993,0.000487232,0.000477732,-0.000197254,2.4812e-06,0.000702596,0,0,0,0,0,0,0,-0.125111,-10.1892,0.733401,20.9955,-0.848372,-0.386144,-0.193899,-0.0733194,-1.05782,0.574143,2.46344,-0.283197,-0.388087,-0.215778
3115878,1,-1.5708,-0.52285,-0.000375912,-2.09594,-1.57061,1.5713,0.785669,-1.5708,-0.523599,-5.06004e-08,-2.09439,-1.5708,1.5708,0.785399,-0.000244999,-0.00038215,-0.00023199,0.0008753,-0.000334953,0.000239013,0.000468397,0,0,0,0,0,0,0,-0.0775034,-10.1654,0.757205,20.9717,-0.842879,-0.392553,-0.193899,-0.0753502,-1.05653,0.571477,2.46302,-0.283252,-0.388364,-0.215798
3115879,1,-1.5708,-0.522849,-0.000374242,-2.09595,-1.57061,1.5713,0.785668,-1.5708,-0.523599,-5.06004e-08,-2.09439,-1.5708,1.5708,0.785399,-0.000812946,0.000302046,0.000402152,2.67215e-05,-0.000223302,-0.000315376,7.49057e-05,0,0,0,0,0,0,0,-0.0497324,-10.1892,0.733401,20.9955,-0.842879,-0.379735,-0.18749,-0.0765154,-1.05487,0.570088,2.462,-0.283266,-0.388499,-0.215874
3115880,1,-1.5708,-0.522847,-0.000374242,-2.09595,-1.57061,1.5713,0.785668,-1.5708,-0.523599,-5.06004e-08,-2.09439,-1.5708,1.5708,0.785399,0.00010765,0.000758176,0.000268101,-0.00109581,-0.000148868,2.71084e-05,-0.00113686,0,0,0,0,0,0,0,-0.0775034,-10.213,0.733401,21.0431,-0.842879,-0.386144,-0.155447,-0.0768496,-1.05477,0.569847,2.4619,-0.283289,-0.388516,-0.216006
3115881,1,-1.5708,-0.522849,-0.000374242,-2.09594,-1.57061,1.5713,0.78567,-1.5708,-0.523599,-5.06004e-08,-2.09439,-1.5708,1.5708,0.785399,7.17664e-05,-5.13615e-05,0.000178734,0.000939896,0.000341564,0.000255431,-0.000520546,0,0,0,0,0,0,0,-0.0775034,-10.1892,0.733401,20.9717,-0.85478,-0.392553,-0.161856,-0.0770681,-1.05651,0.569769,2.46295,-0.283342,-0.388525,-0.216176
3115882,1,-1.5708,-0.522852,-0.000377583,-2.09594,-1.57062,1.5713,0.785662,-1.5708,-0.523599,-5.06004e-08,-2.09439,-1.5708,1.5708,0.785399,-0.00060177,-0.00124067,-0.000994468,0.000626597,-0.0002131,0.000170287,-0.00180509,0,0,0,0,0,0,0,-0.0497324,-10.1377,0.781009,20.9717,-0.842879,-0.392553,-0.122488,-0.0768113,-1.05655,0.570341,2.46297,-0.283328,-0.38844,-0.216355
3115883,1,-1.5708,-0.522849,-0.000375912,-2.09594,-1.57061,1.5713,0.785667,-1.5708,-0.523599,-5.06004e-08,-2.09439,-1.5708,1.5708,0.785399,0.000248434,0.000379315,-0.000106167,0.00106735,0.000298743,-0.000123834,0.000729385,0,0,0,0,0,0,0,-0.0775034,-10.1892,0.757205,20.9439,-0.85478,-0.386144,-0.174673,-0.0757166,-1.05388,0.572082,2.46128,-0.283222,-0.388204,-0.216501
3115884,1,-1.57079,-0.52285,-0.000377583,-2.09595,-1.57061,1.5713,0.785666,-1.5708,-0.523599,-5.06004e-08,-2.09439,-1.5708,1.5708,0.785399,0.00127925,-0.000303936,-0.00062759,-0.00105167,0.000402612,0.000392162,0.000248898,0,0,0,0,0,0,0,-0.125111,-10.1654,0.781009,21.0193,-0.860274,-0.398961,-0.168264,-0.0747329,-1.05142,0.573778,2.4597,-0.283126,-0.387993,-0.216573
3115885,1,-1.5708,-0.522847,-0.000372293,-2.09594,-1.57062,1.5713,0.785672,-1.5708,-0.523599,-5.06004e-08,-2.09439,-1.5708,1.5708,0.785399,-0.000260793,0.000911,0.00134484,0.000412508,-0.000375852,-0.000450636,0.00111537,0,0,0,0,0,0,0,-0.0775034,-10.213,0.70563,20.9717,-0.842879,-0.379735,-0.193899,-0.0747344,-1.05111,0.574188,2.45949,-0.283127,-0.387961,-0.216577
3115886,1,-1.5708,-0.522849,-0.000375912,-2.09594,-1.57062,1.5713,0.785668,-1.5708,-0.523599,-5.06004e-08,-2.09439,-1.5708,1.5708,0.785399,-0.000823476,5.05215e-05,-0.000309863,0.000924619,-0.000250568,-6.30648e-05,3.15015e-05,0,0,0,0,0,0,0,-0.0497324,-10.1892,0.757205,20.9439,-0.842879,-0.386144,-0.174673,-0.075194,-1.05217,0.57385,2.45986,-0.28318,-0.388022,-0.216554
3115887,1,-1.5708,-0.522847,-0.000375912,-2.09594,-1.57062,1.5713,0.785671,-1.5708,-0.523599,-5.06004e-08,-2.09439,-1.5708,1.5708,0.785399,-0.000548984,0.000590493,-0.000206575,0.00117322,-0.000167045,-4.20432e-05,0.00025836,0,0,0,0,0,0,0,-0.0497324,-10.213,0.757205,20.9201,-0.842879,-0.386144,-0.181082,-0.0749854,-1.05304,0.57433,2.45957,-0.283194,-0.387987,-0.216541
3115888,1,-1.5708,-0.522849,-0.000377583,-2.09594,-1.57062,1.5713,0.785665,-1.5708,-0.523599,-5.06004e-08,-2.09439,-1.5708,1.5708,0.785399,0.000283625,-0.00016315,-0.000694529,0.000225338,-0.000111363,0.00020933,-0.00101455,0,0,0,0,0,0,0,-0.0775034,-10.1892,0.781009,20.9439,-0.842879,-0.392553,-0.149038,-0.0740585,-1.0534,0.575835,2.4587,-0.283158,-0.387839,-0.216555
3115889,1,-1.5708,-0.522847,-0.000374242,-2.09594,-1.57062,1.5713,0.785667,-1.5708,-0.523599,-5.06004e-08,-2.09439,-1.5708,1.5708,0.785399,-0.00101734,0.000448045,0.000650605,-0.000499389,0.000366567,0.000139553,0.000273066,0,0,0,0,0,0,0,-0.0259286,-10.213,0.733401,20.9717,-0.85478,-0.392553,-0.174673,-0.0730709,-1.05399,0.577419,2.45815,-0.283125,-0.387684,-0.216582
3115890,1,-1.5708,-0.522852,-0.000375912,-2.09594,-1.57062,1.5713,0.785663,-1.5708,-0.523599,-5.06004e-08,-2.09439,-1.5708,1.5708,0.785399,0.000528197,-0.00146454,-0.000123075,-0.000332926,-0.000196431,-0.000144323,-0.00103866,0,0,0,0,0,0,0,-0.0775034,-10.1377,0.757205,20.9717,-0.842879,-0.386144,-0.141714,-0.0724251,-1.05433,0.578385,2.45804,-0.28312,-0.387582,-0.216603
3115891,1,-1.5708,-0.522849,-0.000375912,-2.09595,-1.57061,1.5713,0.785666,-1.5708,-0.523599,-5.06004e-08,-2.09439,-1.5708,1.5708,0.785399,-0.000297482,0.000230065,-8.20503e-05,-0.00133557,-0.000130954,-9.62155e-05,-0.000929798,0,0,0,0,0,0,0,-0.0497324,-10.1892,0.757205,21.0193,-0.842879,-0.386144,-0.135305,-0.0721137,-1.05382,0.578786,2.4581,-0.283135,-0.387524,-0.216602
3115892,1,-1.57079,-0.52285,-0.000372293,-2.09594,-1.57061,1.5713,0.785672,-1.5708,-0.523599,-5.06004e-08,-2.09439,-1.5708,1.5708,0.785399,0.00221453,-0.000403435,0.00115173,0.000223241,0.000353507,-6.41437e-05,0.00107556,0,0,0,0,0,0,0,-0.152882,-10.1654,0.70563,20.9717,-0.85478,-0.386144,-0.181082,-0.0726902,-1.05361,0.577946,2.4586,-0.283189,-0.387604,-0.216551
3115893,1,-1.5708,-0.522852,-0.000375912,-2.09595,-1.57061,1.5713,0.785669,-1.5708,-0.523599,-5.06004e-08,-2.09439,-1.5708,1.5708,0.785399,-0.000286884,-0.000918571,-0.000438609,-0.000407985,-1.68785e-06,0.000194596,-0.000232399,0,0,0,0,0,0,0,-0.0775034,-10.1377,0.757205,20.9955,-0.848372,-0.392553,-0.155447,-0.0743832,-1.05303,0.575563,2.4588,-0.283258,-0.387845,-0.216445
3115894,1,-1.5708,-0.522847,-0.000377583,-2.09594,-1.57062,1.5713,0.785672,-1.5708,-0.523599,-5.06004e-08,-2.09439,-1.5708,1.5708,0.785399,-0.00084087,0.00115086,-0.000849218,0.000934436,-1.12524e-06,0.00036709,0.00174394,0,0,0,0,0,0,0,-0.0497324,-10.213,0.781009,20.9439,-0.848372,-0.398961,-0.206716,-0.0752987,-1.05202,0.574356,2.4584,-0.283278,-0.387964,-0.216308
3115895,1,-1.5708,-0.52285,-0.000374242,-2.09594,-1.57062,1.5713,0.785667,-1.5708,-0.523599,-5.06004e-08,-2.09439,-1.5708,1.5708,0.785399,8.90338e-05,-0.000346386,0.000547479,-0.000583468,-7.50157e-07,7.36768e-06,-0.000261528,0,0,0,0,0,0,0,-0.0775034,-10.1654,0.733401,20.9955,-0.848372,-0.392553,-0.168264,-0.0748854,-1.0522,0.57509,2.45816,-0.283267,-0.387909,-0.216167
3115896,1,-1.5708,-0.522849,-0.000375912,-2.09594,-1.57062,1.5713,0.78567,-1.5708,-0.523599,-5.06004e-08,-2.09439,-1.5708,1.5708,0.785399,-0.00114707,0.000325888,-0.000191826,0.000167833,-0.000407401,-0.000232447,6.30072e-05,0,0,0,0,0,0,0,-0.0259286,-10.1892,0.757205,20.9717,-0.837385,-0.386144,-0.174673,-0.0741971,-1.05312,0.576146,2.45823,-0.283261,-0.387837,-0.216057
3115897,1,-1.5708,-0.522849,-0.000377583,-2.09594,-1.57062,1.5713,0.785667,-1.5708,-0.523599,-5.06004e-08,-2.09439,-1.5708,1.5708,0.785399,-0.000207901,0.000217259,-0.000684696,0.000111889,0.0001353,8.23942e-05,-0.000432713,0,0,0,0,0,0,0,-0.0497324,-10.1892,0.781009,20.9717,-0.848372,-0.392553,-0.161856,-0.0730595,-1.05419,0.577762,2.45837,-0.283243,-0.387714,-0.215987
3115898,1,-1.5708,-0.522847,-0.000377583,-2.09595,-1.57062,1.5713,0.785669,-1.5708,-0.523599,-5.06004e-08,-2.09439,-1.5708,1.5708,0.785399,-0.000138601,0.000701651,-0.000456464,-0.00048222,0.000327559,-0.000419788,-0.000288475,0,0,0,0,0,0,0,-0.0497324,-10.213,0.781009,20.9955,-0.85478,-0.379735,-0.161856,-0.0714679,-1.05599,0.580063,2.45882,-0.283215,-0.38754,-0.215945
3115899,1,-1.5708,-0.522849,-0.000377583,-2.09594,-1.57062,1.5713,0.785664,-1.5708,-0.523599,-5.06004e-08,-2.09439,-1.5708,1.5708,0.785399,0.00111403,-8.90445e-05,-0.000304309,0.000884946,0.000218373,-4.25e-05,-0.000938302,0,0,0,0,0,0,0,-0.101307,-10.1892,0.781009,20.9439,-0.85478,-0.386144,-0.141714,-0.0702526,-1.05812,0.581921,2.45939,-0.283198,-0.387428,-0.215915
3115900,1,-1.5708,-0.52285,-0.000377583,-2.09594,-1.57061,1.5713,0.785671,-1.5708,-0.523598,-2.5506e-06,-2.09439,-1.5708,1.5708,0.7854,0.000185872,-0.000616175,-0.000202873,0.000589964,0.000349032,0.000209026,0.000832527,-0.000943358,0.00102904,-0.0025,0.00111034,-0.00214465,0.00462266,0.000135171,-0.0775034,-10.1654,0.781009,20.9439,-0.860274,-0.392553,-0.181082,-0.0698614,-1.05851,0.582669,2.45882,-0.283168,-0.387415,-0.215879
3115901,1,-1.5708,-0.522845,-0.000375912,-2.09595,-1.57061,1.5713,0.785668,-1.5708,-0.523595,-7.5506e-06,-2.09439,-1.5708,1.57081,0.7854,0.000680726,0.00135245,0.000421563,-0.000813116,-0.000818473,0.00013935,0.000317659,-0.00188672,0.00205808,-0.005,0.00222068,-0.00428931,0.00924532,0.000270342,-0.101307,-10.2408,0.757205,20.9955,-0.831892,-0.392553,-0.174673,-0.0702448,-1.05821,0.582368,2.45783,-0.283163,-0.387505,-0.21582
3115902,1,-1.5708,-0.52285,-0.000375912,-2.09595,-1.57061,1.57129,0.78567,-1.5708,-0.523592,-1.50506e-05,-2.09439,-1.57081,1.57082,0.7854,0.000453818,-0.000861601,0.000281042,-0.00109889,0.000302062,-0.000381818,0.00116121,-0.00283008,0.00308713,-0.0075,0.00333102,-0.00643396,0.013868,0.000405512,-0.101307,-10.1654,0.757205,21.0193,-0.85478,-0.379735,-0.200308,-0.0713624,-1.05951,0.581099,2.45813,-0.283245,-0.387715,-0.215747
3115903,1,-1.5708,-0.522846,-0.000377474,-2.09594,-1.57061,1.5713,0.785669,-1.57081,-0.523588,-2.50506e-05,-2.09438,-1.57082,1.57084,0.785401,-0.0027935,0.00250579,-0.000643027,-0.000175781,0.000404825,-1.71861e-05,0.00053678,-0.00377343,0.00411617,-0.01,0.00444135,-0.00857862,0.0184906,0.000540683,-0.101307,-10.1654,0.658023,20.9955,-0.860274,-0.386144,-0.193899,-0.0719474,-1.06261,0.580593,2.45976,-0.283372,-0.387851,-0.215689
3115904,1,-1.5708,-0.522849,-0.000375922,-2.09595,-1.57061,1.5713,0.785669,-1.57081,-0.523583,-3.75506e-05,-2.09438,-1.57083,1.57087,0.785401,-0.00111346,0.00140756,0.000166055,-0.00188043,0.00152449,-0.000248816,0.000357853,-0.00471679,0.00514521,-0.0125,0.00555169,-0.0107233,0.0231133,0.000675854,-0.279835,-10.0107,0.352542,21.0709,-0.894148,-0.379735,-0.193899,-0.0708279,-1.06904,0.582436,2.4632,-0.28353,-0.387751,-0.215677
3115905,1,-1.5708,-0.52285,-0.000388168,-2.09594,-1.57061,1.5713,0.785667,-1.57082,-0.523577,-5.25506e-05,-2.09437,-1.57084,1.57089,0.785402,-0.00211414,0.000461439,-0.00416713,-0.000604003,0.00311865,0.00812855,-0.000473508,-0.00566015,0.00617425,-0.015,0.00666203,-0.0128679,0.027736,0.000811025,-0.50597,-9.83615,0.0986355,21.0431,-0.950911,-0.346776,-0.174673,-0.0680645,-1.07741,0.586694,2.46801,-0.283719,-0.387428,-0.215738
3115906,1,-1.57079,-0.522845,-0.000396847,-2.09594,-1.57062,1.5713,0.785662,-1.57082,-0.52357,-7.00506e-05,-2.09436,-1.57086,1.57093,0.785403,0.00217093,0.00164521,-0.00529833,-0.00105228,0.002486,0.00573724,-0.00177373,-0.00660351,0.00720329,-0.0175,0.00777237,-0.0150126,0.0323586,0.000946196,-0.831288,-9.733,-0.254453,21.0709,-0.961897,-0.333959,-0.135305,-0.0638382,-1.0847,0.593616,2.47273,-0.28392,-0.386858,-0.21588
3115907,1,-1.57079,-0.522833,-0.000414259,-2.09594,-1.57061,1.5713,0.785666,-1.57083,-0.523562,-9.00506e-05,-2.09435,-1.57087,1.57096,0.785404,0.00212895,0.00556652,-0.00754281,0.000504904,0.00230159,0.00347009,-0.00118249,-0.00754687,0.00823233,-0.02,0.00888271,-0.0171572,0.0369813,0.00108137,-1.03362,-9.76077,-0.559934,21.0193,-0.979292,-0.308324,-0.135305,-0.0592722,-1.0938,0.602174,2.47829,-0.284263,-0.386067,-0.216052
3115908,1,-1.57079,-0.522827,-0.000440525,-2.09594,-1.57062,1.57131,0.785673,-1.57084,-0.523552,-0.000112551,-2.09434,-1.57089,1.571,0.785405,0.00465162,0.0063919,-0.0125358,-0.000220209,0.000686686,0.00836183,0.00114445,-0.00849023,0.00926138,-0.0225,0.00999305,-0.0193019,0.041604,0.00121654,-1.21215,-9.7092,-0.734494,21.0431,-0.956404,-0.333959,-0.18749,-0.0547333,-1.10928,0.612337,2.48652,-0.284875,-0.384969,-0.216171
3115909,1,-1.57078,-0.522822,-0.000466584,-2.09593,-1.57062,1.57131,0.785668,-1.57085,-0.523542,-0.000137551,-2.09433,-1.57091,1.57105,0.785407,0.00768297,0.00652792,-0.0153774,0.000410006,0.000661241,0.00724625,-0.000932452,-0.00943358,0.0102904,-0.025,0.0111034,-0.0214465,0.0462266,0.00135171,-1.43828,-9.63382,-0.940793,21.0193,-0.961897,-0.359594,-0.141714,-0.0500939,-1.13053,0.624762,2.49732,-0.285746,-0.383424,-0.216212
3115910,1,-1.57079,-0.522818,-0.000491463,-2.09593,-1.57062,1.57133,0.785668,-1.57086,-0.52353,-0.000167551,-2.09432,-1.57094,1.5711,0.785408,0.00374306,0.00593232,-0.0207288,0.000273337,0.000644278,0.00683059,0.00036171,-0.0110149,0.0120893,-0.03,0.0130352,-0.0247893,0.0534585,0.00156288,-1.54143,-9.53067,-1.14312,21.0193,-0.96739,-0.398961,-0.168264,-0.0444002,-1.15283,0.640783,2.50885,-0.286764,-0.381154,-0.216197
3115911,1,-1.57078,-0.522814,-0.000513727,-2.09593,-1.57062,1.57133,0.785673,-1.57087,-0.523516,-0.000202551,-2.09431,-1.57097,1.57116,0.78541,0.00590876,0.00564726,-0.0215395,0.000182225,0.00148068,0.00830877,0.00119058,-0.0125962,0.0138882,-0.035,0.0149671,-0.028132,0.0606903,0.00177405,-1.71599,-9.43149,-1.34546,21.0193,-0.995772,-0.359594,-0.193899,-0.0362231,-1.17188,0.661886,2.51948,-0.28782,-0.377891,-0.21614
3115912,1,-1.57078,-0.522817,-0.000539197,-2.09593,-1.57062,1.57134,0.785671,-1.57089,-0.5235,-0.000242551,-2.09429,-1.571,1.57123,0.785412,0.00337013,0.00315567,-0.0226511,-0.000435329,0.00308944,0.00292143,8.16402e-05,-0.0141775,0.015687,-0.04,0.016899,-0.0314747,0.0679222,0.00198522,-1.84295,-9.22916,-1.52002,21.0431,-1.05253,-0.269872,-0.174673,-0.0270045,-1.18402,0.685232,2.52801,-0.288931,-0.373829,-0.216069
3115913,1,-1.57079,-0.522809,-0.000563962,-2.09593,-1.57062,1.57135,0.78567,-1.5709,-0.523483,-0.000287551,-2.09427,-1.57103,1.57131,0.785414,-0.00227185,0.00699938,-0.0241625,0.00210361,-0.000955568,0.00430314,0.000766504,-0.0157588,0.0174859,-0.045,0.0188308,-0.0348174,0.075154,0.0021964,-1.94213,-9.12601,-1.80169,21.0709,-1.0974,-0.192968,-0.193899,-0.0172366,-1.1883,0.709157,2.53383,-0.290131,-0.368992,-0.216018
3115914,1,-1.57079,-0.522802,-0.000594967,-2.09592,-1.57062,1.57136,0.785671,-1.57092,-0.523464,-0.000337551,-2.09425,-1.57107,1.57139,0.785417,-0.0022268,0.00556306,-0.0263935,0.00236396,-0.00290255,0.00628607,-0.000201074,-0.0173401,0.0192848,-0.05,0.0207627,-0.0381601,0.0823859,0.00240757,-2.21984,-8.97525,-2.17859,21.1701,-1.17705,-0.134374,-0.174673,-0.00602415,-1.18719,0.734341,2.53721,-0.291437,-0.363217,-0.215995
3115915,1,-1.57079,-0.522792,-0.000638065,-2.09591,-1.57063,1.57137,0.785669,-1.57094,-0.523442,-0.000392551,-2.09423,-1.57111,1.57148,0.785419,-9.56255e-05,0.00822513,-0.0319923,0.00507517,-0.00117142,0.00809985,-0.000846126,-0.0189214,0.0210837,-0.055,0.0226945,-0.0415029,0.0896177,0.00261874,-2.6007,-8.8483,-2.53564,21.1701,-1.21641,-0.0831043,-0.155447,0.00556992,-1.18201,0.75966,2.53826,-0.292947,-0.356562,-0.216013
3115916,1,-1.57079,-0.522773,-0.000689728,-2.09591,-1.57064,1.57139,0.785672,-1.57096,-0.52342,-0.000452551,-2.0942,-1.57116,1.57158,0.785422,-0.000132287,0.00949751,-0.0390136,0.00854276,-0.0051566,0.0151705,0.000385351,-0.0205027,0.0228826,-0.06,0.0246264,-0.0448456,0.0968496,0.00282991,-2.92601,-8.82449,-2.91253,21.2455,-1.2393,-0.0638782,-0.181082,0.0169789,-1.17387,0.785442,2.53679,-0.294745,-0.348967,-0.216072
3115917,1,-1.5708,-0.522757,-0.000746562,-2.09589,-1.57065,1.57143,0.785666,-1.57098,-0.523395,-0.000517551,-2.09417,-1.57121,1.57168,0.785425,0.000537802,0.0127204,-0.0441404,0.0122172,-0.00954856,0.0218558,-0.000692535,-0.022084,0.0246814,-0.065,0.0265582,-0.0481883,0.104081,0.00304109,-3.15215,-8.77292,-3.29339,21.2693,-1.22191,-0.0831043,-0.155447,0.028544,-1.16454,0.813172,2.53252,-0.29683,-0.340312,-0.216151
3115918,1,-1.57081,-0.522742,-0.000806702,-2.09588,-1.57067,1.57147,0.785671,-1.571,-0.523368,-0.000587551,-2.09415,-1.57126,1.57179,0.785429,-0.00150281,0.0139384,-0.0463407,0.0113243,-0.0127282,0.0316878,0.000250387,-0.0236653,0.0264803,-0.07,0.0284901,-0.051531,0.111313,0.00325226,-3.40606,-8.67374,-3.62268,21.3169,-1.20543,-0.108739,-0.174673,0.0389673,-1.15643,0.841156,2.52681,-0.299259,-0.330806,-0.216232
3115919,1,-1.57081,-0.522727,-0.000870357,-2.09587,-1.57068,1.57152,0.785666,-1.57103,-0.52334,-0.000662551,-2.09412,-1.57131,1.57191,0.785432,-0.0029118,0.0142997,-0.0522752,0.0113382,-0.0139026,0.0398357,-0.00176586,-0.0252466,0.0282792,-0.075,0.0304219,-0.0548737,0.118545,0.00346343,-3.65996,-8.54678,-3.90039,21.3446,-1.21641,-0.160009,-0.122488,0.0468352,-1.15112,0.866912,2.52237,-0.302126,-0.32073,-0.216296
3115920,1,-1.57083,-0.522707,-0.000932027,-2.09586,-1.5707,1.57159,0.785659,-1.57106,-0.523309,-0.000745051,-2.09408,-1.57137,1.57204,0.785436,-0.0050534,0.0158358,-0.0557912,0.0120079,-0.0143606,0.0510699,-0.00331347,-0.0272046,0.0306403,-0.0825,0.0329448,-0.0588288,0.127161,0.00371454,-3.73534,-8.47141,-4.20587,21.3446,-1.2393,-0.225011,-0.0648096,0.0521139,-1.14796,0.890028,2.52067,-0.305416,-0.310189,-0.216323
3115921,1,-1.57085,-0.522692,-0.000995635,-2.09585,-1.57071,1.57166,0.785654,-1.57109,-0.523276,-0.000835051,-2.09405,-1.57143,1.57217,0.78544,-0.0129702,0.0150942,-0.0560977,0.00932258,-0.018756,0.0614531,-0.00295496,-0.0291625,0.0330015,-0.09,0.0354677,-0.0627839,0.135777,0.00396564,-3.78295,-8.32065,-4.48358,21.4676,-1.28416,-0.225011,-0.044668,0.0548042,-1.146,0.909664,2.52244,-0.309103,-0.299378,-0.216239
3115922,1,-1.57087,-0.522673,-0.00106304,-2.09584,-1.57073,1.57173,0.785654,-1.57112,-0.523241,-0.000932551,-2.09401,-1.5715,1.57232,0.785444,-0.0131708,0.0151175,-0.0599378,0.0119163,-0.0158338,0.0672586,-0.00268205,-0.0311205,0.0353626,-0.0975,0.0379906,-0.0667389,0.144394,0.00421675,-3.93767,-8.1937,-4.73748,21.543,-1.36931,-0.160009,-0.0254419,0.054596,-1.14259,0.924087,2.52726,-0.31319,-0.288533,-0.215938
3115923,1,-1.57089,-0.522654,-0.00113375,-2.09582,-1.57076,1.57181,0.785654,-1.57115,-0.523203,-0.00103755,-2.09397,-1.57157,1.57247,0.785448,-0.0163951,0.0153146,-0.0621839,0.0150911,-0.015092,0.0719013,-0.00202539,-0.0330785,0.0377238,-0.105,0.0405135,-0.070694,0.15301,0.00446786,-3.96148,-8.06674,-5.01519,21.5668,-1.41966,-0.0959217,-0.0190333,0.0508546,-1.13331,0.93176,2.53213,-0.31767,-0.277774,-0.215346
3115924,1,-1.57091,-0.522637,-0.00121165,-2.0958,-1.57078,1.57191,0.78566,-1.57119,-0.523163,-0.00115005,-2.09393,-1.57165,1.57263,0.785453,-0.0183374,0.0168187,-0.0677287,0.0150158,-0.018189,0.0770354,0.000582517,-0.0350364,0.040085,-0.1125,0.0430364,-0.0746491,0.161626,0.00471897,-4.13604,-7.86441,-5.39605,21.6898,-1.49382,-0.0766956,-0.0712183,0.0438622,-1.11668,0.932961,2.53522,-0.322589,-0.266985,-0.214417
3115925,1,-1.57093,-0.522607,-0.00130697,-2.09578,-1.57082,1.57201,0.785659,-1.57122,-0.523121,-0.00127005,-2.09388,-1.57173,1.5728,0.785458,-0.0166903,0.0217075,-0.0756667,0.0179177,-0.0172014,0.0870734,0.000150986,-0.0369944,0.0424461,-0.12,0.0455593,-0.0786041,0.170242,0.00497007,-4.44152,-7.81284,-5.74914,21.6898,-1.53868,-0.0959217,-0.0648096,0.0349908,-1.09784,0.930148,2.5387,-0.328079,-0.255949,-0.213144
3115926,1,-1.57095,-0.522568,-0.00140976,-2.09575,-1.57085,1.57213,0.785663,-1.57126,-0.523076,-0.00139755,-2.09383,-1.57181,1.57298,0.785463,-0.0202779,0.0269953,-0.0813397,0.0233685,-0.0160741,0.0954601,0.00128745,-0.0389524,0.0448073,-0.1275,0.0480821,-0.0825592,0.178858,0.00522118,-4.69146,-7.84061,-6.13,21.6898,-1.59544,-0.1536,-0.0968531,0.0253346,-1.08443,0.925684,2.54494,-0.33427,-0.244584,-0.211585
3115927,1,-1.57099,-0.522536,-0.00151299,-2.09573,-1.5709,1.57226,0.785661,-1.5713,-0.523029,-0.00153255,-2.09378,-1.57189,1.57317,0.785469,-0.0258975,0.028228,-0.0864117,0.022509,-0.0274739,0.107723,0.00133302,-0.0409103,0.0471684,-0.135,0.050605,-0.0865143,0.187474,0.00547229,-4.81841,-7.76126,-6.61004,21.7652,-1.57255,-0.237828,-0.10967,0.0162649,-1.07953,0.921441,2.55437,-0.341183,-0.232807,-0.209822
3115928,1,-1.57102,-0.522499,-0.00162415,-2.0957,-1.57095,1.5724,0.785657,-1.57135,-0.522979,-0.00167505,-2.09373,-1.57198,1.57337,0.785474,-0.0257383,0.0299065,-0.0917554,0.0253488,-0.0359195,0.119481,-0.000298115,-0.0428683,0.0495296,-0.1425,0.0531279,-0.0904693,0.19609,0.00572339,-5.11992,-7.71365,-7.04248,21.8167,-1.54417,-0.269872,-0.077627,0.00804164,-1.08053,0.917259,2.56655,-0.348743,-0.220742,-0.207935
3115929,1,-1.57105,-0.522463,-0.00175133,-2.09567,-1.57101,1.57255,0.785659,-1.57139,-0.522927,-0.00182505,-2.09367,-1.57208,1.57357,0.78548,-0.0277221,0.030359,-0.103772,0.0248094,-0.0424941,0.12858,0.000750692,-0.0448262,0.0518907,-0.15,0.0556508,-0.0944244,0.204707,0.0059745,-5.35003,-7.63828,-7.26861,21.8405,-1.5103,-0.314733,-0.103262,0.000649348,-1.08302,0.913269,2.58042,-0.356785,-0.208525,-0.205994
3115930,1,-1.57108,-0.522433,-0.00186908,-2.09564,-1.57108,1.57271,0.785656,-1.57144,-0.522873,-0.00198426,-2.09361,-1.57218,1.57378,0.785487,-0.0286136,0.0320649,-0.107246,0.0271234,-0.050751,0.144883,-0.00166968,-0.0469389,0.0546477,-0.159205,0.0585812,-0.0986272,0.213963,0.00624354,-5.47301,-7.48355,-7.69708,21.8882,-1.5103,-0.353185,-0.044668,-0.00561532,-1.08396,0.910336,2.59528,-0.365106,-0.196217,-0.204041
3115931,1,-1.57112,-0.522394,-0.00199538,-2.09561,-1.57115,1.57289,0.785658,-1.57149,-0.522815,-0.00215267,-2.09355,-1.57228,1.57401,0.785493,-0.0321399,0.0349117,-0.114952,0.0276629,-0.0567312,0.155949,-0.000604492,-0.0490516,0.0574047,-0.168411,0.0615117,-0.10283,0.223219,0.00651258,-5.59996,-7.38437,-8.02636,21.9873,-1.5103,-0.366002,-0.0584009,-0.0124138,-1.08332,0.905946,2.61131,-0.373578,-0.184224,-0.202083
3115932,1,-1.57115,-0.52236,-0.00212768,-2.09557,-1.57122,1.57307,0.785656,-1.57154,-0.522755,-0.00233028,-2.09349,-1.57239,1.57424,0.7855,-0.0335912,0.0358255,-0.119571,0.0292286,-0.0648937,0.167249,-0.00114898,-0.0511643,0.0601617,-0.177616,0.0644421,-0.107033,0.232475,0.00678162,-5.77849,-7.23361,-8.30804,22.0389,-1.54417,-0.321141,-0.0382593,-0.0211908,-1.08201,0.897513,2.62896,-0.382128,-0.172876,-0.200093
3115933,1,-1.57119,-0.522316,-0.00226012,-2.09553,-1.57129,1.57326,0.785657,-1.57159,-0.522692,-0.00251711,-2.09342,-1.5725,1.57448,0.785507,-0.0364008,0.0382951,-0.124337,0.0304533,-0.0702887,0.176065,-0.000528628,-0.0532769,0.0629187,-0.186822,0.0673725,-0.111236,0.241731,0.00705066,-5.87767,-7.15427,-8.66113,22.0905,-1.60094,-0.289098,-0.044668,-0.0331037,-1.07944,0.882787,2.64808,-0.390724,-0.162321,-0.198039
3115934,1,-1.57124,-0.522269,-0.00239917,-2.09549,-1.57137,1.57347,0.785658,-1.57165,-0.522627,-0.00271313,-2.09335,-1.57261,1.57473,0.785514,-0.0410101,0.0400669,-0.129966,0.0362888,-0.0750478,0.187926,-0.000115059,-0.0553896,0.0656757,-0.196027,0.0703029,-0.115439,0.250987,0.0073197,-5.98082,-7.07889,-9.06579,22.0627,-1.6458,-0.282689,-0.0510767,-0.0487279,-1.0739,0.8603,2.66708,-0.399343,-0.152534,-0.195912
3115935,1,-1.57128,-0.522218,-0.00255712,-2.09544,-1.57146,1.57368,0.785662,-1.5717,-0.522558,-0.00291837,-2.09328,-1.57273,1.57499,0.785522,-0.0419809,0.0448457,-0.139291,0.039818,-0.0789383,0.197385,0.001144,-0.0575023,0.0684327,-0.205233,0.0732333,-0.119642,0.260243,0.00758874,-6.20696,-7.03128,-9.37127,22.0627,-1.67967,-0.269872,-0.0840357,-0.0665284,-1.06485,0.832014,2.68403,-0.407948,-0.143159,-0.193726
3115936,0.99,-1.57132,-0.522162,-0.00272952,-2.09538,-1.57155,1.57391,0.785656,-1.57176,-0.522487,-0.0031328,-2.0932,-1.57286,1.57526,0.78553,-0.0410654,0.0459983,-0.150602,0.0437985,-0.0818719,0.206234,-0.00117012,-0.059615,0.0711897,-0.214438,0.0761637,-0.123844,0.269498,0.00785779,-6.50847,-7.00351,-9.64898,22.0151,-1.70805,-0.308324,-0.0318506,-0.0844903,-1.0534,0.801499,2.69849,-0.416561,-0.133753,-0.191519
3115937,0.99,-1.57136,-0.522098,-0.00289977,-2.09533,-1.57164,1.57416,0.785656,-1.57182,-0.522413,-0.00335645,-2.09312,-1.57299,1.57554,0.785538,-0.0442225,0.051757,-0.158279,0.0448353,-0.0906134,0.21962,-0.000780077,-0.0617276,0.0739467,-0.223644,0.0790942,-0.128047,0.278754,0.00812683,-6.65923,-7.05508,-10.0775,22.0389,-1.69157,-0.40537,-0.0318506,-0.101496,-1.04194,0.771279,2.71191,-0.425267,-0.124055,-0.189314
3115938,0.99,-1.57141,-0.522032,-0.00308359,-2.09527,-1.57176,1.57441,0.785653,-1.57189,-0.522336,-0.0035893,-2.09304,-1.57312,1.57583,0.785546,-0.0463218,0.059032,-0.166789,0.0506072,-0.09364,0.232578,-0.00146949,-0.0638403,0.0767037,-0.232849,0.0820246,-0.13225,0.28801,0.00839587,-6.80999,-7.10666,-10.3829,21.9873,-1.6403,-0.456639,-0.00621587,-0.117778,-1.03733,0.741372,2.72757,-0.434204,-0.114223,-0.187081
3115939,0.99,-1.57145,-0.521974,-0.00327797,-2.09522,-1.57187,1.57468,0.785652,-1.57195,-0.522257,-0.00383135,-2.09296,-1.57325,1.57613,0.785555,-0.0450648,0.0605819,-0.176628,0.0522073,-0.0992044,0.245212,-0.00145438,-0.065953,0.0794607,-0.242055,0.084955,-0.136453,0.297266,0.00866491,-7.06389,-7.00351,-10.5615,22.0389,-1.62382,-0.475866,0.00660151,-0.134455,-1.04362,0.710345,2.7469,-0.443405,-0.104615,-0.184779
3115940,0.99,-1.5715,-0.521906,-0.00347704,-2.09515,-1.57199,1.57496,0.785654,-1.57202,-0.522174,-0.0040834,-2.09287,-1.5734,1.57643,0.785564,-0.0483307,0.0634019,-0.183843,0.0594555,-0.103886,0.259529,-2.01482e-05,-0.0680343,0.0824798,-0.252045,0.0881475,-0.140675,0.30671,0.00893845,-7.16307,-6.9559,-10.863,21.9873,-1.58995,-0.520726,-0.0190333,-0.152781,-1.05518,0.676444,2.76697,-0.45269,-0.0954934,-0.182394
3115941,0.99,-1.57156,-0.521841,-0.00367964,-2.09509,-1.57211,1.57525,0.785655,-1.57209,-0.522089,-0.00434543,-2.09278,-1.57354,1.57675,0.785573,-0.0521998,0.0641791,-0.19042,0.063289,-0.106569,0.271763,0.000223927,-0.0701157,0.0854988,-0.262035,0.0913399,-0.144898,0.316154,0.009212,-7.19085,-6.85275,-11.1169,21.9873,-1.57255,-0.572911,-0.0254419,-0.173404,-1.06322,0.638171,2.7831,-0.46179,-0.0869707,-0.179931
3115942,0.99,-1.5716,-0.521768,-0.00388425,-2.09501,-1.57222,1.57554,0.785659,-1.57216,-0.522,-0.00461746,-2.09268,-1.57369,1.57707,0.785583,-0.0498218,0.0671691,-0.192734,0.0660987,-0.110994,0.278013,0.00136999,-0.072197,0.0885179,-0.272025,0.0945323,-0.14912,0.325598,0.00948554,-7.44078,-6.85275,-11.343,21.9873,-1.60643,-0.553685,-0.0584009,-0.198809,-1.06319,0.591156,2.7935,-0.470628,-0.0794186,-0.17742
3115943,0.99,-1.57165,-0.521692,-0.0040988,-2.09494,-1.57234,1.57585,0.785663,-1.57224,-0.521909,-0.00489947,-2.09258,-1.57384,1.57741,0.785592,-0.0527505,0.0700062,-0.200712,0.0686767,-0.108955,0.288147,0.00138804,-0.0742784,0.091537,-0.282015,0.0977248,-0.153342,0.335042,0.00975908,-7.49236,-6.87656,-11.5493,21.9635,-1.67967,-0.539952,-0.0712183,-0.232365,-1.05661,0.530274,2.80023,-0.479346,-0.0733283,-0.174903
3115944,0.99,-1.5717,-0.521616,-0.00432545,-2.09487,-1.57247,1.57616,0.785667,-1.57232,-0.521814,-0.00519147,-2.09248,-1.574,1.57775,0.785602,-0.0524378,0.0708734,-0.209773,0.068473,-0.112907,0.298959,0.00163744,-0.0763597,0.094556,-0.292005,0.100917,-0.157565,0.344486,0.0100326,-7.64312,-6.85275,-11.7754,22.0389,-1.73094,-0.5015,-0.0904444,-0.273112,-1.04616,0.457295,2.8062,-0.488065,-0.0685203,-0.172441
3115945,0.99,-1.57175,-0.521535,-0.00456318,-2.09479,-1.57259,1.57649,0.785673,-1.57239,-0.521717,-0.00549347,-2.09238,-1.57416,1.57811,0.785613,-0.051081,0.075298,-0.218755,0.0714073,-0.11544,0.309831,0.00768697,-0.078441,0.0975751,-0.301995,0.10411,-0.161787,0.353929,0.0103062,-7.84545,-6.85275,-12.0294,21.9873,-1.80418,-0.507909,-0.141714,-0.318653,-1.03414,0.376523,2.81379,-0.496896,-0.0645775,-0.170101
3115946,0.99,-1.5718,-0.521447,-0.00481841,-2.0947,-1.57273,1.57683,0.785672,-1.57247,-0.521616,-0.00580545,-2.09227,-1.57433,1.57847,0.785623,-0.0500727,0.0790836,-0.228545,0.0730505,-0.123722,0.313977,0.00432923,-0.0805224,0.100594,-0.311985,0.107302,-0.166009,0.363373,0.0105797,-8.04778,-6.87656,-12.1563,21.9635,-1.82707,-0.533544,-0.10967,-0.367951,-1.02446,0.290352,2.82479,-0.505985,-0.0612536,-0.167947
3115947,0.99,-1.57186,-0.521356,-0.00507336,-2.09461,-1.57288,1.57718,0.785669,-1.57256,-0.521513,-0.00612743,-2.09216,-1.5745,1.57884,0.785634,-0.0542597,0.0842611,-0.23729,0.0797306,-0.131105,0.326296,0.00175553,-0.0826037,0.103613,-0.321975,0.110495,-0.170232,0.372817,0.0108533,-8.04778,-6.87656,-12.3586,21.9635,-1.82158,-0.57932,-0.0712183,-0.418971,-1.01989,0.202122,2.83909,-0.515367,-0.058164,-0.166029
3115948,0.99,-1.57191,-0.521262,-0.00534165,-2.09451,-1.57304,1.57755,0.785673,-1.57264,-0.521406,-0.00645939,-2.09205,-1.57467,1.57923,0.785645,-0.0540699,0.0890076,-0.245036,0.0836178,-0.137778,0.336633,0.0013905,-0.0846851,0.106632,-0.331965,0.113687,-0.174454,0.382261,0.0111268,-8.17473,-6.90433,-12.4856,21.8882,-1.7877,-0.636998,-0.0712183,-0.470063,-1.02091,0.114071,2.8548,-0.524976,-0.0551086,-0.164339
3115949,0.99,-1.57197,-0.521167,-0.00561245,-2.09442,-1.5732,1.57792,0.785668,-1.57273,-0.521296,-0.00680135,-2.09193,-1.57485,1.57962,0.785657,-0.0551085,0.0911732,-0.259379,0.0876256,-0.14657,0.3512,-0.00084067,-0.0867664,0.109651,-0.341955,0.116879,-0.178676,0.391705,0.0114003,-8.25011,-6.87656,-12.5848,21.8882,-1.75932,-0.636998,-0.0190333,-0.520156,-1.02611,0.0278749,2.87026,-0.534698,-0.0520499,-0.162822
3115950,0.99,-1.57203,-0.521075,-0.00590065,-2.09432,-1.57336,1.57831,0.78567,-1.57282,-0.521183,-0.00715329,-2.09181,-1.57503,1.58002,0.785668,-0.0589591,0.0900015,-0.268033,0.090688,-0.153901,0.363018,3.81037e-05,-0.0886638,0.112825,-0.351945,0.120219,-0.182775,0.401062,0.0116702,-8.32549,-6.7258,-12.7117,21.8882,-1.71995,-0.656224,-0.0318506,-0.566759,-1.02883,-0.0527178,2.88279,-0.544279,-0.0486811,-0.161413
3115951,0.99,-1.57209,-0.520968,-0.00619578,-2.09421,-1.57353,1.5787,0.785672,-1.57291,-0.521067,-0.00751523,-2.09169,-1.57522,1.58043,0.78568,-0.0616944,0.097885,-0.273651,0.0923573,-0.164813,0.372873,0.000592995,-0.0905613,0.115998,-0.361935,0.123559,-0.186873,0.41042,0.01194,-8.40087,-6.80118,-12.8625,21.9159,-1.6577,-0.688268,-0.044668,-0.60958,-1.02619,-0.127867,2.89196,-0.553589,-0.0450138,-0.160024
3115952,0.99,-1.57215,-0.520861,-0.00650516,-2.0941,-1.5737,1.57911,0.785675,-1.573,-0.520948,-0.00788715,-2.09156,-1.57541,1.58085,0.785692,-0.0618297,0.0991412,-0.286211,0.0995959,-0.16441,0.382217,0.000464986,-0.0924587,0.119171,-0.371925,0.126899,-0.190971,0.419777,0.0122099,-8.55162,-6.82895,-12.9418,21.8405,-1.69707,-0.681859,-0.044668,-0.650503,-1.02242,-0.20062,2.89982,-0.56264,-0.0413909,-0.15859
3115953,0.99,-1.57221,-0.520757,-0.00682579,-2.09399,-1.57387,1.57952,0.785677,-1.57309,-0.520826,-0.00826907,-2.09143,-1.57561,1.58128,0.785705,-0.0629385,0.100238,-0.293214,0.102979,-0.16873,0.389311,0.000870859,-0.0943561,0.122344,-0.381915,0.130239,-0.195069,0.429135,0.0124797,-8.67858,-6.75357,-12.9656,21.8405,-1.74193,-0.649816,-0.0584009,-0.690347,-1.01494,-0.271952,2.90443,-0.571302,-0.0378526,-0.157128
3115954,0.99,-1.57228,-0.520642,-0.00714014,-2.09388,-1.57404,1.57994,0.785677,-1.57319,-0.5207,-0.00866097,-2.0913,-1.57581,1.58172,0.785718,-0.067929,0.107267,-0.301257,0.110086,-0.16659,0.400243,0.000348487,-0.0962535,0.125517,-0.391905,0.133578,-0.199168,0.438492,0.0127496,-8.627,-6.77737,-13.1442,21.789,-1.79869,-0.63059,-0.0510767,-0.729908,-1.00137,-0.343069,2.90409,-0.579557,-0.03441,-0.155669
3115955,0.99,-1.57235,-0.520525,-0.00748114,-2.09376,-1.57423,1.58039,0.785675,-1.57329,-0.520572,-0.00906287,-2.09116,-1.57601,1.58216,0.785731,-0.0652602,0.108185,-0.315436,0.112404,-0.175382,0.409922,-0.000450366,-0.098151,0.128691,-0.401895,0.136918,-0.203266,0.44785,0.0130194,-8.70238,-6.75357,-13.1164,21.8405,-1.84447,-0.649816,-0.0318506,-0.768941,-0.985418,-0.413298,2.9004,-0.587526,-0.0309925,-0.154228
3115956,0.99,-1.57241,-0.520408,-0.00783065,-2.09363,-1.57442,1.58083,0.785678,-1.57339,-0.52044,-0.00947475,-2.09102,-1.57622,1.58262,0.785744,-0.0661438,0.108252,-0.32132,0.120038,-0.178815,0.422475,-0.000278205,-0.100048,0.131864,-0.411885,0.140258,-0.207364,0.457208,0.0132893,-8.77776,-6.702,-13.1164,21.7652,-1.84996,-0.694677,-0.0318506,-0.807698,-0.964131,-0.482397,2.89225,-0.595253,-0.0275577,-0.152815
3115957,0.99,-1.57248,-0.520283,-0.00819152,-2.09351,-1.57462,1.58129,0.785682,-1.57349,-0.520305,-0.00989663,-2.09088,-1.57643,1.58309,0.785758,-0.0675741,0.111963,-0.333907,0.124632,-0.181759,0.435521,0.00452434,-0.101946,0.135037,-0.421875,0.143598,-0.211463,0.466565,0.0135591,-8.82933,-6.67422,-13.0648,21.7652,-1.84447,-0.733129,-0.0318506,-0.847485,-0.932268,-0.552187,2.87707,-0.602786,-0.0242813,-0.151435
3115958,0.99,-1.57255,-0.520149,-0.00855775,-2.09338,-1.57482,1.58176,0.785691,-1.57359,-0.520167,-0.0103285,-2.09073,-1.57664,1.58356,0.785771,-0.0698638,0.119281,-0.341768,0.126964,-0.185074,0.448643,0.00487779,-0.103843,0.13821,-0.431865,0.146937,-0.215561,0.475923,0.013829,-8.82933,-6.702,-13.0648,21.8167,-1.80968,-0.778905,-0.0712183,-0.887956,-0.896232,-0.621953,2.85825,-0.61032,-0.0212814,-0.150065
3115959,0.99,-1.57262,-0.520022,-0.00893549,-2.09324,-1.57502,1.58224,0.785697,-1.5737,-0.520025,-0.0107703,-2.09058,-1.57686,1.58405,0.785786,-0.0706831,0.123474,-0.354161,0.132017,-0.186966,0.456292,0.00497864,-0.105741,0.141383,-0.441855,0.150277,-0.219659,0.48528,0.0140988,-8.85314,-6.67422,-13.0648,21.7176,-1.77031,-0.830175,-0.10967,-0.928182,-0.867184,-0.689881,2.84209,-0.61807,-0.0186185,-0.148682
3115960,0.99,-1.5727,-0.519885,-0.00932253,-2.0931,-1.57522,1.58273,0.785705,-1.57381,-0.519881,-0.0112222,-2.09042,-1.57709,1.58454,0.7858,-0.072669,0.130813,-0.364474,0.132007,-0.195978,0.465597,0.00853724,-0.107333,0.144623,-0.451845,0.153675,-0.223543,0.494385,0.01436,-8.82933,-6.702,-13.0172,21.7652,-1.75932,-0.855809,-0.116079,-0.966899,-0.851622,-0.753762,2.83261,-0.62608,-0.0162241,-0.147318
3115961,0.99,-1.57277,-0.519751,-0.00972314,-2.09296,-1.57543,1.58321,0.785712,-1.57392,-0.519733,-0.011684,-2.09027,-1.57731,1.58505,0.785814,-0.0721681,0.132627,-0.379314,0.134325,-0.203597,0.470693,0.00673259,-0.108926,0.147864,-0.461835,0.157072,-0.227427,0.503491,0.0146212,-8.88091,-6.702,-13.0172,21.7414,-1.75932,-0.830175,-0.128897,-1.00217,-0.851838,-0.810382,2.83233,-0.634255,-0.0138815,-0.146029
3115962,0.99,-1.57286,-0.519612,-0.0101304,-2.09282,-1.57565,1.58371,0.785713,-1.57403,-0.519582,-0.0121558,-2.09011,-1.57755,1.58556,0.785829,-0.0757817,0.133986,-0.39029,0.137027,-0.213131,0.477915,0.00348903,-0.110518,0.151104,-0.471825,0.160469,-0.231311,0.512596,0.0148823,-8.90471,-6.702,-12.9418,21.789,-1.7758,-0.778905,-0.0904444,-1.03187,-0.861551,-0.856625,2.83919,-0.64234,-0.0112134,-0.144878
3115963,0.99,-1.57294,-0.519466,-0.0105471,-2.09266,-1.57586,1.58421,0.785718,-1.57414,-0.519427,-0.0126377,-2.08994,-1.57778,1.58608,0.785845,-0.0746677,0.134982,-0.401114,0.141613,-0.210673,0.4875,0.00660191,-0.112111,0.154344,-0.481815,0.163867,-0.235195,0.521701,0.0151435,-8.95629,-6.702,-12.8903,21.7414,-1.80418,-0.681859,-0.0712183,-1.0559,-0.869997,-0.892848,2.84782,-0.650112,-0.00804942,-0.143914
3115964,0.99,-1.57303,-0.519318,-0.0109846,-2.09251,-1.57608,1.58472,0.78572,-1.57425,-0.51927,-0.0131295,-2.08978,-1.57802,1.58661,0.78586,-0.0786304,0.13703,-0.411958,0.147064,-0.21266,0.497734,0.00703033,-0.113703,0.157584,-0.491805,0.167264,-0.23908,0.530806,0.0154047,-8.93248,-6.75357,-12.8387,21.7414,-1.84996,-0.67545,0.000192821,-1.07621,-0.869872,-0.922282,2.85362,-0.657526,-0.00449064,-0.143147
3115965,0.99,-1.57312,-0.519177,-0.0114242,-2.09234,-1.57631,1.58526,0.785731,-1.57437,-0.519109,-0.0136313,-2.0896,-1.57826,1.58715,0.785876,-0.0853185,0.138361,-0.420707,0.153008,-0.21584,0.507909,0.00625716,-0.115296,0.160824,-0.501795,0.170662,-0.242964,0.539911,0.0156659,-8.88091,-6.67422,-12.7633,21.666,-1.86094,-0.759679,-0.0190333,-1.093,-0.857145,-0.945953,2.8532,-0.664561,-0.000385244,-0.142509
3115966,0.99,-1.57321,-0.519026,-0.0118809,-2.09218,-1.57653,1.58579,0.78574,-1.57449,-0.518945,-0.014143,-2.08943,-1.57851,1.5877,0.785892,-0.0866647,0.14164,-0.430468,0.157316,-0.218444,0.516101,0.00813727,-0.116888,0.164064,-0.511785,0.174059,-0.246848,0.549016,0.015927,-8.85314,-6.67422,-12.6602,21.5906,-1.86094,-0.830175,0.0194189,-1.10622,-0.831458,-0.964563,2.84539,-0.671267,0.00434744,-0.141885
3115967,0.99,-1.57331,-0.518868,-0.0123424,-2.09201,-1.57677,1.58633,0.785758,-1.5746,-0.518778,-0.0146648,-2.08925,-1.57876,1.58826,0.785908,-0.0910512,0.145217,-0.451286,0.160549,-0.225069,0.523831,0.0124842,-0.118481,0.167304,-0.521775,0.177456,-0.250732,0.558122,0.0161882,-8.80553,-6.7258,-12.561,21.6422,-1.84996,-0.830175,-0.0190333,-1.11397,-0.797354,-0.974852,2.83243,-0.677725,0.00991013,-0.141168
3115968,0.99,-1.5734,-0.518703,-0.0128262,-2.09184,-1.57701,1.58687,0.785772,-1.57472,-0.518607,-0.0151966,-2.08907,-1.57902,1.58883,0.785924,-0.0908841,0.150295,-0.46072,0.164862,-0.221754,0.530651,0.0140854,-0.120074,0.170544,-0.531765,0.180854,-0.254616,0.567227,0.0164494,-8.77776,-6.75357,-12.561,21.6144,-1.82158,-0.733129,-0.0190333,-1.11305,-0.761909,-0.971038,2.81818,-0.684003,0.016622,-0.140292
3115969,0.99,-1.57348,-0.518531,-0.0133314,-2.09167,-1.57725,1.58742,0.785782,-1.57485,-0.518433,-0.0157383,-2.08889,-1.57927,1.5894,0.785941,-0.0888056,0.155858,-0.469834,0.164947,-0.223149,0.53774,0.00816638,-0.121666,0.173784,-0.541755,0.184251,-0.2585,0.576332,0.0167105,-8.95629,-6.85275,-12.4578,21.5906,-1.82158,-0.669042,0.0459692,-1.10756,-0.733315,-0.958531,2.80728,-0.69039,0.0237752,-0.13924
3115970,0.99,-1.57359,-0.518362,-0.0138386,-2.09149,-1.57748,1.58799,0.785793,-1.57497,-0.518256,-0.0162901,-2.0887,-1.57954,1.58999,0.785958,-0.0944328,0.158351,-0.484258,0.167616,-0.223234,0.544573,0.00959372,-0.122863,0.17702,-0.551745,0.187636,-0.262114,0.585084,0.01696,-8.95629,-6.90433,-12.3309,21.5906,-1.84447,-0.669042,0.0844213,-1.10212,-0.716824,-0.944059,2.80349,-0.69712,0.0307432,-0.137997
3115971,0.99,-1.5737,-0.518192,-0.0143484,-2.09131,-1.57773,1.58857,0.785807,-1.57509,-0.518076,-0.0168518,-2.08851,-1.5798,1.59058,0.785975,-0.100205,0.167703,-0.490533,0.171745,-0.226755,0.55112,0.0107836,-0.12406,0.180256,-0.561735,0.191022,-0.265728,0.593836,0.0172095,-8.77776,-6.90433,-12.3824,21.6422,-1.89482,-0.681859,0.122873,-1.09566,-0.714375,-0.926484,2.80777,-0.704154,0.037818,-0.136492
3115972,0.99,-1.57381,-0.518013,-0.0148806,-2.09113,-1.57798,1.58916,0.78583,-1.57522,-0.517892,-0.0174235,-2.08832,-1.58007,1.59118,0.785992,-0.101699,0.172538,-0.498993,0.177288,-0.234818,0.560293,0.0145024,-0.125257,0.183492,-0.571725,0.194407,-0.269343,0.602588,0.0174589,-8.70238,-7.03128,-12.3071,21.5906,-1.9232,-0.701085,0.0844213,-1.08938,-0.728289,-0.908278,2.81954,-0.711482,0.0448251,-0.13463
3115973,0.99,-1.57391,-0.517842,-0.0154129,-2.09094,-1.57824,1.58976,0.785855,-1.57534,-0.517706,-0.0180053,-2.08812,-1.58034,1.5918,0.78601,-0.102493,0.170542,-0.511495,0.178619,-0.237692,0.571888,0.0185048,-0.126453,0.186728,-0.581715,0.197792,-0.272957,0.61134,0.0177084,-8.77776,-6.92813,-12.2039,21.6422,-1.9232,-0.72672,0.00660151,-1.08578,-0.752024,-0.893521,2.83495,-0.719049,0.0513691,-0.132375
3115974,0.99,-1.57403,-0.517659,-0.015966,-2.09075,-1.5785,1.59037,0.785878,-1.57547,-0.517516,-0.018597,-2.08792,-1.58062,1.59242,0.786028,-0.104525,0.174298,-0.522942,0.180092,-0.245031,0.585955,0.0202748,-0.12765,0.189964,-0.591705,0.201178,-0.276571,0.620091,0.0179579,-8.65477,-7.03128,-12.1285,21.6898,-1.91221,-0.75327,-0.044668,-1.08452,-0.774337,-0.881616,2.85003,-0.726736,0.0574882,-0.129808
3115975,0.99,-1.57413,-0.517471,-0.0165296,-2.09056,-1.57877,1.59099,0.785899,-1.5756,-0.517323,-0.0191987,-2.08771,-1.5809,1.59305,0.786046,-0.104736,0.179777,-0.534448,0.18429,-0.25089,0.592922,0.0205201,-0.128847,0.1932,-0.601695,0.204563,-0.280185,0.628843,0.0182074,-8.73015,-7.13046,-12.1047,21.7414,-1.88383,-0.740453,-0.0648096,-1.08478,-0.794302,-0.871003,2.86507,-0.734523,0.0631911,-0.127087
3115976,0.99,-1.57424,-0.517275,-0.0171063,-2.09037,-1.57903,1.59161,0.785924,-1.57573,-0.517126,-0.0198103,-2.0875,-1.58118,1.59368,0.786065,-0.105611,0.181977,-0.549314,0.186378,-0.253671,0.604623,0.0252139,-0.130044,0.196436,-0.611685,0.207949,-0.2838,0.637595,0.0184568,-8.77776,-7.28122,-12.0809,21.8405,-1.90031,-0.713903,-0.0840357,-1.08556,-0.814904,-0.859758,2.88111,-0.742376,0.0685449,-0.124393
3115977,0.99,-1.57436,-0.517087,-0.0176847,-2.09017,-1.57931,1.59225,0.785939,-1.57586,-0.516926,-0.020432,-2.08729,-1.58147,1.59433,0.786084,-0.108401,0.183014,-0.554935,0.193925,-0.255156,0.614812,0.0216715,-0.131241,0.199672,-0.621675,0.211334,-0.287414,0.646347,0.0187063,-8.73015,-7.28122,-12.1563,21.8405,-1.91771,-0.733129,-0.0382593,-1.0866,-0.832143,-0.847681,2.89552,-0.750171,0.073629,-0.121897
3115978,0.99,-1.57448,-0.516887,-0.018266,-2.08996,-1.57958,1.5929,0.785965,-1.57599,-0.516724,-0.0210637,-2.08708,-1.58176,1.59498,0.786102,-0.111388,0.185619,-0.562771,0.196766,-0.259848,0.625987,0.0269054,-0.132438,0.202908,-0.631665,0.214719,-0.291028,0.655099,0.0189558,-8.65477,-7.3566,-12.2317,21.789,-1.94609,-0.740453,-0.0712183,-1.09032,-0.839793,-0.839442,2.90435,-0.757836,0.0781444,-0.119704
3115979,0.99,-1.57458,-0.516687,-0.0188646,-2.08976,-1.57986,1.59355,0.785983,-1.57613,-0.516517,-0.0217053,-2.08686,-1.58206,1.59565,0.786122,-0.111795,0.191444,-0.571395,0.201889,-0.266968,0.633445,0.0240456,-0.133634,0.206145,-0.641655,0.218105,-0.294642,0.663851,0.0192053,-8.77776,-7.45975,-12.2555,21.7652,-1.91221,-0.707494,-0.0510767,-1.09897,-0.839524,-0.839127,2.90796,-0.765453,0.0817391,-0.117815
3115980,0.99,-1.5747,-0.516488,-0.0194717,-2.08955,-1.58014,1.59423,0.786002,-1.57626,-0.516308,-0.022357,-2.08664,-1.58236,1.59632,0.786141,-0.109903,0.192729,-0.586263,0.204492,-0.271503,0.651339,0.0213536,-0.134373,0.209319,-0.651645,0.221424,-0.297954,0.672188,0.0194413,-8.88091,-7.43594,-12.2555,21.789,-1.88933,-0.759679,-0.0126246,-1.11239,-0.836503,-0.846123,2.90891,-0.773073,0.0843849,-0.1162
3115981,0.99,-1.57481,-0.516284,-0.0200901,-2.08933,-1.58043,1.59493,0.786023,-1.5764,-0.516096,-0.0230186,-2.08641,-1.58266,1.597,0.786161,-0.111624,0.198371,-0.593192,0.207211,-0.275607,0.667274,0.0198215,-0.135113,0.212494,-0.661635,0.224744,-0.301265,0.680525,0.0196772,-8.85314,-7.45975,-12.3071,21.7652,-1.85545,-0.849401,0.0130102,-1.13008,-0.833858,-0.858866,2.90933,-0.780678,0.0860928,-0.114808
3115982,0.99,-1.57494,-0.516077,-0.0207316,-2.08911,-1.58072,1.59562,0.786037,-1.57653,-0.51588,-0.0236902,-2.08619,-1.58296,1.59769,0.786181,-0.113,0.20188,-0.606408,0.210669,-0.276366,0.673017,0.0176861,-0.135852,0.215669,-0.671625,0.228064,-0.304577,0.688862,0.0199132,-8.80553,-7.45975,-12.2833,21.6898,-1.87834,-0.92722,0.0651953,-1.15138,-0.835265,-0.876223,2.91161,-0.788274,0.0868903,-0.113543
3115983,0.99,-1.57506,-0.51587,-0.0213694,-2.0889,-1.581,1.59631,0.786057,-1.57667,-0.515661,-0.0243719,-2.08595,-1.58327,1.59839,0.786201,-0.114742,0.203669,-0.61479,0.208917,-0.275214,0.668644,0.0174206,-0.136591,0.218844,-0.681615,0.231384,-0.307889,0.697199,0.0201492,-8.73015,-7.43594,-12.3071,21.789,-1.95708,-0.80454,0.09083,-1.1739,-0.84203,-0.895068,2.91763,-0.795894,0.0872014,-0.112276
3115984,0.99,-1.57518,-0.515655,-0.0220176,-2.08867,-1.58129,1.597,0.786083,-1.57681,-0.515439,-0.0250635,-2.08572,-1.58358,1.59909,0.786221,-0.118466,0.206657,-0.623292,0.217219,-0.27682,0.677469,0.0195318,-0.13733,0.222018,-0.691605,0.234703,-0.3112,0.705536,0.0203852,-8.67858,-7.45975,-12.3309,21.6422,-1.97447,-0.694677,0.0459692,-1.19584,-0.850821,-0.913658,2.92652,-0.803575,0.0874223,-0.110882
3115985,0.99,-1.5753,-0.51543,-0.0226737,-2.08845,-1.58159,1.59771,0.786104,-1.57695,-0.515214,-0.0257651,-2.08548,-1.58389,1.59981,0.786242,-0.119983,0.213244,-0.637326,0.216919,-0.282525,0.686742,0.0199389,-0.138069,0.225193,-0.701595,0.238023,-0.314512,0.713873,0.0206212,-8.67858,-7.53513,-12.2317,21.7414,-1.97996,-0.649816,0.0322363,-1.21591,-0.860838,-0.930722,2.93677,-0.811318,0.0877847,-0.109283
3115986,0.99,-1.57543,-0.515201,-0.0233459,-2.08823,-1.58189,1.59845,0.786125,-1.57708,-0.514985,-0.0264766,-2.08524,-1.58421,1.60053,0.786263,-0.122437,0.216337,-0.645284,0.217289,-0.288746,0.702124,0.0213109,-0.138808,0.228368,-0.711585,0.241343,-0.317823,0.72221,0.0208572,-8.627,-7.53513,-12.0809,21.8167,-1.95158,-0.701085,-0.0126246,-1.23308,-0.877461,-0.944492,2.95112,-0.819202,0.0884406,-0.107464
3115987,0.99,-1.57557,-0.514969,-0.0240245,-2.088,-1.58219,1.59917,0.786146,-1.57722,-0.514754,-0.0271982,-2.085,-1.58453,1.60126,0.786284,-0.126364,0.221338,-0.655909,0.219261,-0.291053,0.714059,0.021554,-0.139547,0.231543,-0.721575,0.244663,-0.321135,0.730547,0.0210932,-8.47625,-7.63828,-12.0809,21.8405,-1.97996,-0.662633,-0.0382593,-1.24806,-0.903964,-0.955913,2.97222,-0.827323,0.0892815,-0.105484
3115988,0.99,-1.57571,-0.514735,-0.0247144,-2.08777,-1.5825,1.59992,0.786171,-1.57736,-0.514519,-0.0279298,-2.08475,-1.58486,1.602,0.786305,-0.134484,0.222866,-0.664062,0.222731,-0.295264,0.719719,0.0237918,-0.140286,0.234717,-0.731565,0.247983,-0.324446,0.738884,0.0213292,-8.19854,-7.68588,-12.0016,21.9159,-1.94609,-0.707494,-0.122488,-1.26001,-0.93711,-0.964424,2.99826,-0.835604,0.0904861,-0.103456
3115989,0.99,-1.57585,-0.514498,-0.025423,-2.08753,-1.5828,1.60068,0.786188,-1.5775,-0.514281,-0.0286713,-2.0845,-1.58519,1.60275,0.786327,-0.134988,0.231947,-0.675122,0.225238,-0.300674,0.727545,0.0216887,-0.141025,0.237892,-0.741555,0.251302,-0.327758,0.747221,0.0215652,-8.04778,-7.71365,-11.954,21.9873,-1.97447,-0.798131,-0.10967,-1.26726,-0.975159,-0.968316,3.0275,-0.84394,0.0923564,-0.101522
3115990,0.99,-1.57598,-0.514265,-0.0261549,-2.08729,-1.58312,1.60144,0.786205,-1.57765,-0.51404,-0.0294228,-2.08424,-1.58552,1.6035,0.786348,-0.131813,0.233819,-0.691872,0.229704,-0.301095,0.737245,0.0203314,-0.141271,0.24096,-0.751481,0.254516,-0.33075,0.755105,0.0217866,-8.04778,-7.73746,-11.827,21.9635,-1.95708,-0.862218,-0.0968531,-1.26979,-1.01995,-0.966965,3.05985,-0.852282,0.0948087,-0.0998271
3115991,0.99,-1.57611,-0.514024,-0.0268694,-2.08705,-1.58343,1.60221,0.786223,-1.57779,-0.513796,-0.0301842,-2.08398,-1.58585,1.60426,0.786371,-0.129214,0.232641,-0.703548,0.237463,-0.304591,0.741274,0.0231257,-0.141518,0.244027,-0.761408,0.257729,-0.333742,0.76299,0.0220081,-8.19854,-7.78903,-11.8508,21.9873,-2.00194,-0.855809,-0.0584009,-1.26816,-1.06279,-0.960223,3.08999,-0.860431,0.0976784,-0.0984982
3115992,0.99,-1.57624,-0.513783,-0.0275956,-2.08681,-1.58375,1.60296,0.786237,-1.57793,-0.513549,-0.0309556,-2.08372,-1.58619,1.60503,0.786393,-0.129504,0.237031,-0.708713,0.24146,-0.313416,0.746052,0.0202133,-0.141764,0.247094,-0.771335,0.260942,-0.336734,0.770874,0.0222296,-8.27391,-7.78903,-11.9778,22.0627,-2.01384,-0.759679,-0.00621587,-1.26545,-1.09146,-0.952747,3.11083,-0.868225,0.100479,-0.0975637
3115993,0.99,-1.57638,-0.513533,-0.0283149,-2.08655,-1.58408,1.60372,0.786258,-1.57807,-0.513299,-0.0317368,-2.08346,-1.58653,1.60581,0.786415,-0.129263,0.240838,-0.708985,0.247336,-0.319894,0.742828,0.0193318,-0.142011,0.250162,-0.781261,0.264155,-0.339726,0.778758,0.0224511,-8.37706,-7.81284,-12.0809,22.0627,-2.02482,-0.643407,0.0130102,-1.26846,-1.10638,-0.955379,3.12207,-0.875865,0.102198,-0.0969144
3115994,0.99,-1.57651,-0.513273,-0.0290555,-2.0863,-1.58441,1.60451,0.786273,-1.57821,-0.513046,-0.032528,-2.08319,-1.58687,1.6066,0.786438,-0.127518,0.246245,-0.715065,0.247302,-0.320432,0.752415,0.0176906,-0.142257,0.253229,-0.791188,0.267369,-0.342717,0.786642,0.0226725,-8.42467,-7.93979,-12.2039,22.1143,-2.01933,-0.662633,0.0587866,-1.2837,-1.11526,-0.97812,3.12827,-0.883747,0.101996,-0.0963816
3115995,0.99,-1.57665,-0.51302,-0.0298051,-2.08605,-1.58474,1.60529,0.786292,-1.57836,-0.51279,-0.0333291,-2.08292,-1.58722,1.60739,0.786461,-0.130366,0.246388,-0.720096,0.248299,-0.320558,0.770854,0.0182384,-0.142503,0.256296,-0.801114,0.270582,-0.345709,0.794526,0.022894,-8.42467,-8.03897,-12.3071,22.2611,-1.99644,-0.759679,0.0651953,-1.31306,-1.1241,-1.02352,3.13473,-0.892145,0.099681,-0.0958193
3115996,0.99,-1.57678,-0.51276,-0.0305738,-2.08578,-1.58508,1.60609,0.786306,-1.5785,-0.51253,-0.0341402,-2.08265,-1.58756,1.6082,0.786484,-0.130126,0.248498,-0.735059,0.252917,-0.32874,0.774844,0.0178469,-0.14275,0.259364,-0.811041,0.273795,-0.348701,0.80241,0.0231155,-8.52782,-8.11832,-12.2039,22.2373,-1.97996,-0.875035,0.0844213,-1.35207,-1.13112,-1.08464,3.14232,-0.900922,0.0959413,-0.0951201
3115997,0.99,-1.57691,-0.512501,-0.0313517,-2.08552,-1.58542,1.60687,0.786332,-1.57864,-0.512268,-0.0349611,-2.08237,-1.58792,1.60901,0.786507,-0.12751,0.251809,-0.742079,0.255363,-0.331363,0.778185,0.0256369,-0.142996,0.262431,-0.820968,0.277008,-0.351693,0.810294,0.023337,-8.6032,-8.2413,-12.2039,22.2611,-1.98546,-0.855809,0.0130102,-1.39459,-1.13323,-1.15172,3.14936,-0.90976,0.0917057,-0.0942046
3115998,0.99,-1.57705,-0.51223,-0.032133,-2.08526,-1.58577,1.60767,0.786348,-1.57879,-0.512002,-0.035792,-2.08209,-1.58827,1.60982,0.786531,-0.131212,0.258429,-0.755267,0.256696,-0.332127,0.780429,0.0241334,-0.143243,0.265498,-0.830894,0.280222,-0.354685,0.818178,0.0235584,-8.5794,-8.41983,-12.2039,22.3127,-2.00834,-0.830175,0.00660151,-1.43701,-1.1355,-1.21853,3.15814,-0.918593,0.0874528,-0.0930409
3115999,0.99,-1.5772,-0.511964,-0.0329226,-2.08499,-1.58611,1.60847,0.786366,-1.57893,-0.511734,-0.0366328,-2.08181,-1.58863,1.61065,0.786555,-0.138151,0.25849,-0.760047,0.259974,-0.332463,0.782196,0.0227043,-0.143489,0.268566,-0.840821,0.283435,-0.357677,0.826062,0.0237799,-8.50005,-8.39603,-12.2833,22.2373,-2.0587,-0.810948,0.00660151,-1.47537,-1.14238,-1.27943,3.17106,-0.927415,0.0837356,-0.091676
3116000,0.99,-1.57733,-0.511693,-0.0337293,-2.08473,-1.58646,1.60928,0.786377,-1.57907,-0.511462,-0.0374832,-2.08152,-1.58899,1.61148,0.786579,-0.132289,0.260539,-0.774041,0.259003,-0.337217,0.790829,0.0235165,-0.143234,0.271489,-0.850381,0.286511,-0.360343,0.833469,0.0239863,-8.6032,-8.44363,-12.3071,22.3365,-2.11546,-0.842992,0.0780126,-1.50807,-1.15074,-1.33251,3.18709,-0.93619,0.080834,-0.0901983
3116001,0.99,-1.57746,-0.511418,-0.0345409,-2.08445,-1.58683,1.61011,0.786392,-1.57921,-0.511188,-0.0383432,-2.08123,-1.58935,1.61233,0.786603,-0.136239,0.264365,-0.783854,0.263286,-0.340092,0.799802,0.0223211,-0.142978,0.274412,-0.859942,0.289586,-0.36301,0.840875,0.0241927,-8.6032,-8.47141,-12.2317,22.3603,-2.0706,-0.862218,0.0844213,-1.53621,-1.15897,-1.37869,3.20567,-0.944957,0.0785476,-0.0886446
3116002,0.99,-1.5776,-0.511143,-0.0353737,-2.08418,-1.58718,1.61092,0.786413,-1.57936,-0.51091,-0.0392127,-2.08094,-1.58972,1.61317,0.786627,-0.134359,0.272658,-0.794558,0.267784,-0.341435,0.806228,0.0225495,-0.142723,0.277336,-0.869502,0.292662,-0.365676,0.848282,0.0243991,-8.5794,-8.49521,-12.1801,22.3365,-2.03673,-0.823766,0.0587866,-1.56036,-1.17165,-1.41818,3.22744,-0.953788,0.0766609,-0.0869718
3116003,0.99,-1.57774,-0.510857,-0.0362122,-2.0839,-1.58755,1.61175,0.786444,-1.5795,-0.51063,-0.0400917,-2.08064,-1.59009,1.61403,0.786652,-0.135096,0.278879,-0.805081,0.271748,-0.34866,0.8138,0.0257558,-0.142467,0.280259,-0.879063,0.295737,-0.368343,0.855688,0.0246055,-8.45244,-8.59836,-12.0016,22.2611,-1.94609,-0.720311,-0.0510767,-1.58175,-1.1958,-1.45227,3.25359,-0.962722,0.0748874,-0.0851334
3116004,0.99,-1.57789,-0.510572,-0.0370776,-2.08361,-1.58791,1.61261,0.786462,-1.57964,-0.510347,-0.0409804,-2.08034,-1.59046,1.61489,0.786677,-0.138124,0.27833,-0.821264,0.270354,-0.355935,0.828517,0.0231849,-0.142212,0.283182,-0.888623,0.298813,-0.371009,0.863095,0.0248119,-8.34929,-8.62216,-11.7001,22.2135,-1.9406,-0.849401,-0.0382593,-1.59901,-1.23144,-1.47872,3.28427,-0.971577,0.073435,-0.0831833
3116005,0.99,-1.57804,-0.510285,-0.0379499,-2.08333,-1.58827,1.61346,0.786485,-1.57978,-0.510061,-0.0418785,-2.08004,-1.59083,1.61576,0.786702,-0.141018,0.282057,-0.82475,0.274738,-0.350311,0.83542,0.0221929,-0.141956,0.286106,-0.898184,0.301888,-0.373676,0.870502,0.0250183,-8.07158,-8.67374,-11.4462,22.0905,-1.97996,-1.02335,-0.044668,-1.61034,-1.27095,-1.49552,3.31729,-0.980091,0.0726506,-0.0812771
3116006,0.99,-1.5782,-0.509991,-0.0388289,-2.08303,-1.58864,1.61434,0.786511,-1.57993,-0.509772,-0.0427863,-2.07974,-1.59121,1.61664,0.786727,-0.146387,0.283465,-0.839501,0.276572,-0.352015,0.851338,0.0269339,-0.141701,0.289029,-0.907744,0.304964,-0.376342,0.877908,0.0252247,-7.74627,-8.69754,-11.1169,22.0151,-1.99644,-1.16526,-0.0712183,-1.6163,-1.30836,-1.50456,3.34988,-0.98818,0.0723404,-0.0795592
3116007,0.99,-1.57835,-0.509699,-0.0397257,-2.08274,-1.589,1.61519,0.786534,-1.58007,-0.50948,-0.0437036,-2.07943,-1.59159,1.61753,0.786752,-0.144303,0.292188,-0.849638,0.280092,-0.351208,0.873456,0.0242001,-0.141445,0.291952,-0.917304,0.30804,-0.379009,0.885315,0.0254311,-7.56774,-8.69754,-10.8114,21.9873,-2.06419,-1.03617,-0.0584009,-1.61703,-1.34522,-1.5061,3.38187,-0.995866,0.0719872,-0.0781097
3116008,0.99,-1.5785,-0.509413,-0.0406325,-2.08245,-1.58938,1.61602,0.786564,-1.58021,-0.509185,-0.0446305,-2.07912,-1.59197,1.61842,0.786778,-0.142425,0.289296,-0.863786,0.286818,-0.357609,0.859989,0.0249463,-0.14119,0.294876,-0.926865,0.311115,-0.381675,0.892722,0.0256375,-7.39318,-8.62216,-10.6091,21.9159,-2.05321,-0.694677,-0.116079,-1.61307,-1.38161,-1.50036,3.41191,-1.00318,0.071184,-0.0769697
3116009,0.99,-1.57863,-0.509113,-0.0415277,-2.08214,-1.58974,1.61689,0.786588,-1.58035,-0.508887,-0.0455669,-2.0788,-1.59235,1.61932,0.786804,-0.139171,0.291334,-0.878278,0.290305,-0.364618,0.858501,0.0223168,-0.140934,0.297799,-0.936425,0.314191,-0.384341,0.900128,0.0258439,-7.44078,-8.72531,-10.5337,21.8882,-2.08159,-0.431005,-0.0904444,-1.60338,-1.40708,-1.48572,3.43382,-1.01003,0.0705408,-0.0761691
3116010,0.99,-1.57877,-0.508823,-0.0424576,-2.08185,-1.59013,1.61776,0.786608,-1.58049,-0.508587,-0.0465123,-2.07849,-1.59274,1.62023,0.78683,-0.135683,0.292444,-0.89807,0.295068,-0.374187,0.868239,0.0184657,-0.140191,0.30055,-0.945399,0.317105,-0.386685,0.907041,0.0260349,-7.54393,-8.67374,-10.4345,21.8644,-2.04771,-0.431005,-0.0126246,-1.58525,-1.41508,-1.45773,3.44445,-1.01631,0.0712112,-0.075727
3116011,0.99,-1.57891,-0.508523,-0.0433803,-2.08155,-1.5905,1.61867,0.786628,-1.58063,-0.508283,-0.0474667,-2.07817,-1.59313,1.62114,0.786856,-0.137986,0.293845,-0.912904,0.29642,-0.373246,0.883105,0.0207659,-0.139448,0.303301,-0.954373,0.320019,-0.389029,0.913954,0.026226,-7.59551,-8.64597,-10.3829,21.8644,-2.09257,-0.585729,0.0651953,-1.5567,-1.40749,-1.41267,3.44544,-1.02199,0.0740117,-0.0756018
3116012,0.99,-1.57906,-0.508215,-0.04431,-2.08123,-1.59089,1.6196,0.786657,-1.58077,-0.507977,-0.04843,-2.07784,-1.59352,1.62206,0.786882,-0.139609,0.29658,-0.914869,0.303834,-0.37626,0.88686,0.0255832,-0.138705,0.306052,-0.963347,0.322933,-0.391372,0.920867,0.026417,-7.39318,-8.67374,-10.6091,21.7414,-2.04771,-0.785314,0.0587866,-1.5205,-1.38701,-1.35523,3.43852,-1.02727,0.0787541,-0.0756538
3116013,0.99,-1.5792,-0.50791,-0.045266,-2.08091,-1.59128,1.62049,0.786697,-1.58091,-0.507669,-0.0494023,-2.07752,-1.59391,1.62299,0.786909,-0.137467,0.302813,-0.92315,0.309701,-0.387116,0.891152,0.0288056,-0.137962,0.308803,-0.97232,0.325847,-0.393716,0.92778,0.0266081,-7.44078,-8.74911,-10.5853,21.5906,-2.00194,-0.766088,-0.0712183,-1.48513,-1.35848,-1.2992,3.42462,-1.03246,0.084055,-0.0756891
3116014,0.99,-1.57931,-0.5076,-0.046219,-2.08058,-1.59169,1.62141,0.786724,-1.58104,-0.507357,-0.0503836,-2.07719,-1.59431,1.62392,0.786936,-0.127111,0.303652,-0.925893,0.314652,-0.389154,0.901614,0.0258035,-0.137219,0.311554,-0.981294,0.328761,-0.39606,0.934692,0.0267991,-7.74627,-8.82449,-10.4345,21.416,-1.87834,-0.849401,-0.0648096,-1.46048,-1.32712,-1.25944,3.40487,-1.03781,0.0880854,-0.0756188
3116015,0.99,-1.57942,-0.507293,-0.0471944,-2.08026,-1.59209,1.62235,0.786751,-1.58118,-0.507043,-0.0513739,-2.07686,-1.59471,1.62486,0.786963,-0.124473,0.304192,-0.937652,0.314593,-0.393302,0.9184,0.0269884,-0.136476,0.314305,-0.990268,0.331675,-0.398403,0.941605,0.0269902,-7.9962,-8.87607,-10.3314,21.3922,-1.80418,-1.12681,-0.0190333,-1.45356,-1.29381,-1.24545,3.38074,-1.04339,0.0894442,-0.0755254
3116016,0.99,-1.57955,-0.506986,-0.0481578,-2.07993,-1.59249,1.62327,0.786774,-1.58132,-0.506726,-0.0523731,-2.07652,-1.59511,1.62581,0.78699,-0.12607,0.300993,-0.966426,0.321401,-0.390917,0.912642,0.0229092,-0.135733,0.317056,-0.999242,0.334589,-0.400747,0.948518,0.0271812,-7.9724,-8.77292,-10.2798,21.3446,-1.86094,-1.0618,0.038645,-1.45586,-1.25276,-1.24354,3.35154,-1.04871,0.0891967,-0.0755034
3116017,0.99,-1.57968,-0.506678,-0.0491303,-2.0796,-1.59287,1.62419,0.786806,-1.58145,-0.506406,-0.0533813,-2.07618,-1.59551,1.62677,0.787017,-0.125046,0.3038,-0.96867,0.324318,-0.391695,0.911512,0.0230528,-0.13499,0.319807,-1.00822,0.337503,-0.40309,0.955431,0.0273722,-7.89702,-8.62216,-10.3314,21.3684,-2.00194,-0.817357,0.0130102,-1.45329,-1.19765,-1.23229,3.31495,-1.0532,0.0893997,-0.0755339
3116018,0.99,-1.57981,-0.506371,-0.0501178,-2.07926,-1.59327,1.6251,0.786843,-1.58158,-0.506083,-0.0543985,-2.07584,-1.59592,1.62773,0.787045,-0.124409,0.308078,-0.974423,0.328148,-0.393669,0.913844,0.0246882,-0.134247,0.322558,-1.01719,0.340417,-0.405434,0.962344,0.0275633,-7.79387,-8.54678,-10.3076,21.3684,-2.12095,-0.636998,-0.0584009,-1.44792,-1.13348,-1.21531,3.27324,-1.05706,0.0897457,-0.0755221
3116019,0.99,-1.57993,-0.506061,-0.0511034,-2.07892,-1.59368,1.62605,0.786871,-1.58172,-0.505758,-0.0554247,-2.0755,-1.59632,1.6287,0.787073,-0.123829,0.306844,-0.976047,0.330577,-0.40104,0.926048,0.0289541,-0.133504,0.325309,-1.02616,0.343331,-0.407778,0.969257,0.0277543,-7.79387,-8.44363,-10.2044,21.3922,-2.09257,-0.662633,-0.0840357,-1.44897,-1.06759,-1.2072,3.23021,-1.06088,0.0889773,-0.0754376
3116020,0.99,-1.58004,-0.50575,-0.0521325,-2.07858,-1.59409,1.62699,0.786904,-1.58185,-0.50543,-0.0564591,-2.07515,-1.59673,1.62968,0.787101,-0.118625,0.312252,-0.989237,0.32914,-0.401386,0.927873,0.0325339,-0.132309,0.327867,-1.0344,0.346065,-0.409807,0.975664,0.0279299,-7.89702,-8.39603,-9.90289,21.416,-2.06419,-0.694677,-0.128897,-1.46031,-1.00388,-1.21383,3.18919,-1.06513,0.0867616,-0.0753543
3116021,0.99,-1.58017,-0.505426,-0.0531464,-2.07824,-1.59451,1.62795,0.786935,-1.58198,-0.5051,-0.0575017,-2.07481,-1.59715,1.63066,0.787129,-0.122904,0.319353,-0.999224,0.331562,-0.406079,0.936143,0.0342649,-0.131114,0.330425,-1.04263,0.3488,-0.411837,0.982071,0.0281055,-7.79387,-8.39603,-9.92669,21.4438,-2.01384,-0.662633,-0.149038,-1.47892,-0.953019,-1.22978,3.15693,-1.07007,0.0836999,-0.0753586
3116022,0.99,-1.58031,-0.505092,-0.0541493,-2.07788,-1.5949,1.62893,0.786962,-1.58211,-0.504767,-0.0585526,-2.07445,-1.59756,1.63165,0.787157,-0.125048,0.322011,-1.00075,0.336793,-0.407589,0.948978,0.0287324,-0.129919,0.332983,-1.05087,0.351534,-0.413867,0.988477,0.028281,-7.59551,-8.41983,-10.0536,21.416,-2.03673,-0.681859,-0.10967,-1.50106,-0.921723,-1.24946,3.13611,-1.07567,0.0803174,-0.0755424
3116023,0.99,-1.58042,-0.50476,-0.0551733,-2.07753,-1.59531,1.62989,0.786997,-1.58224,-0.504431,-0.0596117,-2.0741,-1.59798,1.63264,0.787185,-0.121456,0.327127,-1.00317,0.34124,-0.406258,0.956545,0.0317902,-0.128724,0.33554,-1.0591,0.354268,-0.415896,0.994884,0.0284566,-7.59551,-8.57059,-10.1052,21.3922,-2.00194,-0.643407,-0.128897,-1.53004,-0.906226,-1.27894,3.12298,-1.08184,0.0760448,-0.0759873
3116024,0.99,-1.58054,-0.504424,-0.0561979,-2.07717,-1.59573,1.63089,0.787011,-1.58237,-0.504093,-0.060679,-2.07374,-1.59839,1.63364,0.787214,-0.119576,0.328593,-1.00438,0.344351,-0.404602,0.970089,0.0304631,-0.127528,0.338098,-1.06734,0.357002,-0.417926,1.00129,0.0286322,-7.67089,-8.67374,-9.97827,21.3922,-1.97447,-0.746862,0.071604,-1.57191,-0.901571,-1.32801,3.11413,-1.0886,0.0699442,-0.0767208
3116025,0.99,-1.58065,-0.504093,-0.0572389,-2.07681,-1.59614,1.63188,0.78704,-1.58249,-0.503752,-0.0617546,-2.07338,-1.59881,1.63465,0.787243,-0.115359,0.328344,-1.01302,0.348845,-0.41001,0.994462,0.0305746,-0.126333,0.340656,-1.07557,0.359737,-0.419956,1.0077,0.0288077,-7.64312,-8.69754,-9.92669,21.416,-1.90031,-0.823766,0.129282,-1.62873,-0.90038,-1.3999,3.10599,-1.09581,0.0615956,-0.0776662
3116026,0.99,-1.58075,-0.503769,-0.0582931,-2.07645,-1.59656,1.63288,0.787068,-1.58262,-0.503409,-0.0628384,-2.07302,-1.59924,1.63566,0.787272,-0.115226,0.331967,-1.02371,0.354646,-0.407123,0.990118,0.0265377,-0.125138,0.343214,-1.08381,0.362471,-0.421986,1.01411,0.0289833,-7.61931,-8.62216,-9.85132,21.3446,-1.86094,-0.67545,0.175059,-1.6955,-0.894911,-1.48691,3.0946,-1.10303,0.0516227,-0.0785814
3116027,0.99,-1.58087,-0.503441,-0.0593419,-2.07608,-1.59695,1.63388,0.7871,-1.58274,-0.503063,-0.0639304,-2.07266,-1.59966,1.63669,0.787301,-0.113137,0.330846,-1.02959,0.355423,-0.408439,0.993711,0.0253964,-0.123943,0.345771,-1.09204,0.365205,-0.424015,1.02051,0.0291589,-7.54393,-8.52298,-9.72436,21.3922,-1.93419,-0.475866,0.16865,-1.76458,-0.881981,-1.57764,3.07875,-1.1099,0.0412996,-0.0791637
3116028,0.99,-1.58099,-0.503124,-0.0604229,-2.07572,-1.59736,1.6349,0.787132,-1.58287,-0.502715,-0.0650307,-2.07229,-1.60009,1.63771,0.78733,-0.115556,0.328252,-1.04571,0.356979,-0.403825,1.00278,0.0296773,-0.122748,0.348329,-1.10028,0.367939,-0.426045,1.02692,0.0293344,-7.29003,-8.32065,-9.52203,21.4438,-1.97447,-0.507909,0.143015,-1.82916,-0.85725,-1.66232,3.05845,-1.11621,0.0319627,-0.0792156
3116029,0.99,-1.58112,-0.502788,-0.0614888,-2.07535,-1.59776,1.63594,0.787151,-1.58299,-0.502364,-0.0661392,-2.07192,-1.60051,1.63875,0.78736,-0.116406,0.328937,-1.0541,0.359089,-0.398349,1.01323,0.0250115,-0.121553,0.350887,-1.10851,0.370673,-0.428075,1.03333,0.02951,-7.06389,-8.34445,-9.41888,21.4438,-2.06419,-0.572911,0.200693,-1.88255,-0.81659,-1.73133,3.03376,-1.12187,0.0248648,-0.0786828
3116030,0.99,-1.58122,-0.502443,-0.0626057,-2.07499,-1.59817,1.63698,0.787164,-1.58311,-0.502011,-0.0672552,-2.07154,-1.60094,1.63978,0.78739,-0.11526,0.333673,-1.06601,0.35992,-0.401021,1.02262,0.0198419,-0.119959,0.353236,-1.11591,0.373214,-0.429804,1.03922,0.0296701,-7.04009,-8.41983,-8.91504,21.5906,-2.12095,-0.5015,0.304148,-1.92262,-0.76558,-1.78155,3.00797,-1.12704,0.0203051,-0.0775564
3116031,0.99,-1.58136,-0.502097,-0.0637275,-2.07462,-1.59857,1.638,0.787195,-1.58323,-0.501655,-0.0683785,-2.07117,-1.60137,1.64083,0.787419,-0.118464,0.337772,-1.07597,0.363663,-0.403846,1.01769,0.0235717,-0.118366,0.355586,-1.12331,0.375754,-0.431534,1.04511,0.0298301,-6.7108,-8.52298,-8.51037,21.6422,-2.14384,-0.386144,0.213511,-1.94962,-0.715627,-1.81304,2.98609,-1.13205,0.0181211,-0.0757564
3116032,0.99,-1.58151,-0.501742,-0.0648331,-2.07424,-1.59899,1.63906,0.787226,-1.58334,-0.501297,-0.0695092,-2.07079,-1.60181,1.64188,0.787449,-0.127959,0.339011,-1.08985,0.368463,-0.407197,1.01987,0.026252,-0.116773,0.357936,-1.13071,0.378294,-0.433264,1.051,0.0299902,-6.20696,-8.59836,-8.18109,21.5906,-2.13835,-0.333959,0.110056,-1.95933,-0.670268,-1.82005,2.9685,-1.137,0.018998,-0.0732159
3116033,0.99,-1.58164,-0.501389,-0.0659674,-2.07387,-1.5994,1.64011,0.787267,-1.58346,-0.500937,-0.0706473,-2.07041,-1.60224,1.64294,0.787479,-0.127191,0.345468,-1.09373,0.368551,-0.406259,1.03051,0.0313243,-0.11518,0.360286,-1.13811,0.380834,-0.434993,1.05689,0.0301502,-5.87767,-8.74911,-7.87561,21.6898,-2.09257,-0.340367,-0.0840357,-1.95002,-0.630221,-1.80084,2.95471,-1.14197,0.0232094,-0.070044
3116034,0.99,-1.58178,-0.50103,-0.0671118,-2.0735,-1.59982,1.64119,0.787299,-1.58357,-0.500574,-0.0717928,-2.07003,-1.60268,1.644,0.78751,-0.127639,0.349696,-1.13536,0.369601,-0.410398,1.04535,0.0246033,-0.113586,0.362635,-1.14551,0.383374,-0.436723,1.06278,0.0303103,-5.62774,-8.87607,-7.41937,21.7652,-2.02482,-0.418187,-0.135305,-1.91949,-0.602722,-1.75093,2.94886,-1.14703,0.030872,-0.0665511
3116035,0.99,-1.58192,-0.500677,-0.0682595,-2.07313,-1.60024,1.64227,0.787326,-1.58368,-0.50021,-0.0729457,-2.06964,-1.60312,1.64507,0.78754,-0.136169,0.34976,-1.1367,0.371351,-0.413817,1.04966,0.0270436,-0.111993,0.364985,-1.15291,0.385915,-0.438453,1.06868,0.0304703,-5.1715,-8.87607,-7.21704,21.8882,-1.96257,-0.456639,-0.128897,-1.86023,-0.588821,-1.6581,2.95242,-1.15184,0.0428578,-0.0631647
3116036,1,-1.58206,-0.500317,-0.069422,-2.07276,-1.60067,1.64333,0.787351,-1.58379,-0.499842,-0.074106,-2.06925,-1.60356,1.64614,0.787571,-0.133462,0.35412,-1.1385,0.373541,-0.409913,1.0541,0.0224072,-0.1104,0.367335,-1.16031,0.388455,-0.440182,1.07457,0.0306304,-4.94536,-8.92368,-7.11786,22.0151,-1.9406,-0.398961,-0.0712183,-1.7797,-0.582701,-1.53518,2.96244,-1.15639,0.0578383,-0.0602496
3116037,1,-1.58217,-0.499957,-0.0705819,-2.07237,-1.6011,1.64439,0.787373,-1.5839,-0.499472,-0.0752737,-2.06886,-1.604,1.64722,0.787602,-0.132034,0.352449,-1.14415,0.375229,-0.417106,1.05063,0.0234379,-0.108807,0.369684,-1.16771,0.390995,-0.441912,1.08046,0.0307904,-5.07232,-8.92368,-6.91552,22.0151,-1.90581,-0.205785,0.000192821,-1.69576,-0.579866,-1.41053,2.97611,-1.161,0.0730148,-0.0579724
3116038,1,-1.58228,-0.499584,-0.0717424,-2.07199,-1.60153,1.64545,0.787396,-1.58401,-0.4991,-0.0764489,-2.06847,-1.60444,1.64831,0.787633,-0.121,0.363002,-1.14427,0.379672,-0.417225,1.05532,0.0239609,-0.107213,0.372034,-1.17511,0.393535,-0.443642,1.08635,0.0309505,-5.29845,-9.0784,-6.96313,21.9873,-1.88933,-0.134374,0.0844213,-1.62169,-0.580845,-1.30354,2.99264,-1.16584,0.0864546,-0.0562935
3116039,1,-1.5824,-0.499207,-0.0729231,-2.0716,-1.60195,1.64654,0.787421,-1.58412,-0.498726,-0.0776314,-2.06807,-1.60489,1.6494,0.787664,-0.120151,0.366627,-1.15594,0.383368,-0.413957,1.06348,0.0265346,-0.10562,0.374384,-1.18251,0.396075,-0.445371,1.09224,0.0311105,-5.37383,-9.37991,-6.9909,21.9397,-1.92869,-0.295507,0.129282,-1.56573,-0.593514,-1.22462,3.01395,-1.17103,0.0971013,-0.0550283
3116040,1,-1.58251,-0.498834,-0.0740933,-2.07121,-1.60237,1.64762,0.787435,-1.58422,-0.49835,-0.0788204,-2.06767,-1.60534,1.6505,0.787695,-0.116084,0.369882,-1.1561,0.382365,-0.42049,1.06516,0.0246784,-0.103698,0.376516,-1.18903,0.398411,-0.446818,1.09761,0.031255,-5.47301,-9.45529,-7.01471,21.8882,-2.02482,-0.392553,0.265696,-1.52821,-0.620934,-1.17298,3.04119,-1.17654,0.105077,-0.0539297
3116041,1,-1.58262,-0.498461,-0.0753049,-2.07081,-1.60279,1.6487,0.787455,-1.58432,-0.497971,-0.080016,-2.06727,-1.60578,1.6516,0.787726,-0.114688,0.372717,-1.17318,0.385546,-0.424947,1.07582,0.0222562,-0.101776,0.378648,-1.19555,0.400746,-0.448265,1.10298,0.0313995,-5.62774,-9.53067,-6.7608,21.8405,-2.13286,-0.488683,0.310557,-1.5048,-0.659333,-1.14174,3.07359,-1.18221,0.11101,-0.0527101
