shamilmamedov/beam_handling/log/vibration_suppression_ICRA/OCP_T3_0.90s.csv
duration, success rate, q[0], q[1], q[2], q[3], q[4], q[5], q[6],q_d[0], q_d[1], q_d[2], q_d[3], q_d[4], q_d[5], q_d[6],dq[0], dq[1], dq[2], dq[3], dq[4], dq[5], dq[6],dq_d[0], dq_d[1], dq_d[2], dq_d[3], dq_d[4], dq_d[5], dq_d[6],tau_J[0], tau_J[1], tau_J[2], tau_J[3], tau_J[4], tau_J[5], tau_J[6],tau_ext_hat_filtered[0], tau_ext_hat_filtered[1], tau_ext_hat_filtered[2], tau_ext_hat_filtered[3], tau_ext_hat_filtered[4], tau_ext_hat_filtered[5], tau_ext_hat_filtered[6]
2914406,0,-1.5709,-0.523138,-8.82832e-05,-2.09594,1.57005,1.57028,0.785742,-1.5708,-0.523599,4.17901e-08,-2.09439,1.5708,1.5708,0.785398,-0.000366048,0.000824029,0.000432195,0.000603404,-0.000174345,-0.000212984,-0.00171393,0,0,0,0,0,0,0,0.0256461,-9.93533,-0.381406,20.9439,1.26009,0.413112,-0.246084,0.0236024,-0.783123,0.0302064,2.42351,0.692813,0.405754,-0.248463
2914407,0,-1.5709,-0.523138,-8.63344e-05,-2.09595,1.57005,1.57028,0.78575,-1.5708,-0.523599,4.17901e-08,-2.09439,1.5708,1.5708,0.785398,-0.000244032,0.000549353,0.000937744,-0.000804156,-0.000319647,-0.00014199,0.00170568,0,0,0,0,0,0,0,0.0256461,-9.93533,-0.409177,20.9955,1.26558,0.413112,-0.322988,0.0227662,-0.784485,0.0292972,2.42381,0.692766,0.405841,-0.248441
2914408,1,-1.5709,-0.52314,-8.99537e-05,-2.09594,1.57005,1.57028,0.785748,-1.5708,-0.523599,4.17901e-08,-2.09439,1.5708,1.5708,0.785398,-0.000162688,-0.000190577,-0.000581263,0.000670322,-9.62207e-06,0.000142699,0.000425046,0,0,0,0,0,0,0,0.0256461,-9.91153,-0.357602,20.9439,1.26009,0.406703,-0.303762,0.0220078,-0.786463,0.0284201,2.4246,0.692736,0.405924,-0.248373
2914409,1,-1.5709,-0.523141,-9.19025e-05,-2.09594,1.57005,1.57028,0.785749,-1.5708,-0.523599,4.17901e-08,-2.09439,1.5708,1.5708,0.785398,-0.000665271,-0.000683863,-0.00103712,0.00100369,-6.39579e-06,9.51328e-05,0.000520723,0,0,0,0,0,0,0,0.0494498,-9.88773,-0.329831,20.9201,1.26009,0.406703,-0.310171,0.0222546,-0.786242,0.0290912,2.42417,0.692631,0.405898,-0.24829
2914410,1,-1.5709,-0.523141,-8.82832e-05,-2.09594,1.57005,1.57028,0.785744,-1.5708,-0.523599,4.17901e-08,-2.09439,1.5708,1.5708,0.785398,0.000762912,-0.000455909,0.000515011,0.000112317,-0.000445059,0.000300781,-0.00131436,0,0,0,0,0,0,0,-0.00212494,-9.88773,-0.381406,20.9439,1.27199,0.400294,-0.26531,0.0231847,-0.783205,0.030854,2.42212,0.692454,0.405815,-0.248229
2914411,1,-1.5709,-0.523143,-8.82832e-05,-2.09594,1.57005,1.57028,0.785745,-1.5708,-0.523599,4.17901e-08,-2.09439,1.5708,1.5708,0.785398,-0.000141006,-0.000953553,0.00034334,7.48778e-05,-0.000296695,-3.68384e-05,-0.000401525,0,0,0,0,0,0,0,0.0256461,-9.85995,-0.381406,20.9439,1.27199,0.406703,-0.278127,0.0233977,-0.778892,0.0315139,2.41964,0.692315,0.405861,-0.248185
2914412,1,-1.5709,-0.52314,-8.82832e-05,-2.09594,1.57005,1.57028,0.78575,-1.5708,-0.523599,4.17901e-08,-2.09439,1.5708,1.5708,0.785398,-9.40039e-05,0.000570724,0.000228894,4.99186e-05,3.957e-05,-2.45589e-05,0.00139383,0,0,0,0,0,0,0,0.0256461,-9.91153,-0.381406,20.9439,1.26558,0.406703,-0.322988,0.0229509,-0.775097,0.0310803,2.41769,0.692256,0.405999,-0.248131
2914413,1,-1.5709,-0.52314,-8.99537e-05,-2.09594,1.57005,1.57028,0.785748,-1.5708,-0.523599,4.17901e-08,-2.09439,1.5708,1.5708,0.785398,0.000586945,0.000380483,-0.000404216,0.000590091,2.6386e-05,0.000220986,0.000217143,0,0,0,0,0,0,0,-0.00212494,-9.91153,-0.357602,20.9201,1.26558,0.400294,-0.303762,0.0225075,-0.773561,0.0306115,2.41681,0.692264,0.406103,-0.248064
2914414,1,-1.5709,-0.52314,-8.99537e-05,-2.09594,1.57005,1.57028,0.785746,-1.5708,-0.523599,4.17901e-08,-2.09439,1.5708,1.5708,0.785398,-0.000258317,0.000253655,-0.000269477,-0.000813032,0.000221046,-9.00347e-05,-0.000567315,0,0,0,0,0,0,0,0.0256461,-9.91153,-0.357602,20.9717,1.26009,0.406703,-0.284536,0.0223321,-0.774319,0.0305951,2.41703,0.692325,0.406132,-0.248019
2914415,1,-1.5709,-0.52314,-8.99537e-05,-2.09594,1.57005,1.57028,0.785745,-1.5708,-0.523599,4.17901e-08,-2.09439,1.5708,1.5708,0.785398,0.000477402,0.000169103,-0.000179652,0.000107593,0.000554268,-6.00232e-05,-0.000852928,0,0,0,0,0,0,0,-0.00212494,-9.91153,-0.357602,20.9439,1.2491,0.406703,-0.271719,0.0224285,-0.776346,0.0310246,2.41808,0.692424,0.4061,-0.248004
2914416,1,-1.5709,-0.52314,-8.82832e-05,-2.09594,1.57005,1.57028,0.785746,-1.5708,-0.523599,4.17901e-08,-2.09439,1.5708,1.5708,0.785398,0.00087508,0.000112736,0.000437044,0.00118535,-3.73864e-05,0.000197344,-9.39007e-05,0,0,0,0,0,0,0,-0.0259286,-9.91153,-0.381406,20.8963,1.26009,0.400294,-0.284536,0.0221485,-0.778113,0.0309615,2.41886,0.692528,0.406116,-0.24799
2914417,1,-1.57091,-0.523138,-9.19025e-05,-2.09594,1.57005,1.57028,0.785749,-1.5708,-0.523599,4.17901e-08,-2.09439,1.5708,1.5708,0.785398,-0.00173666,0.000631969,-0.000915063,-0.000323389,-2.49224e-05,0.000368921,0.000886835,0,0,0,0,0,0,0,0.0732535,-9.93533,-0.329831,20.9439,1.26009,0.393885,-0.310171,0.0219162,-0.779363,0.0309909,2.41901,0.692597,0.406111,-0.247949
2914418,1,-1.57091,-0.52314,-8.82832e-05,-2.09594,1.57005,1.57028,0.785749,-1.5708,-0.523599,4.17901e-08,-2.09439,1.5708,1.5708,0.785398,-0.000600963,-0.000135499,0.000596384,-0.000215593,-0.000220064,8.58858e-06,0.000591224,0,0,0,0,0,0,0,0.0494498,-9.91153,-0.381406,20.9439,1.26558,0.400294,-0.310171,0.0227107,-0.781123,0.0323916,2.41946,0.692639,0.405929,-0.247889
2914419,1,-1.5709,-0.523141,-9.19025e-05,-2.09595,1.57005,1.57028,0.785743,-1.5708,-0.523599,4.17901e-08,-2.09439,1.5708,1.5708,0.785398,0.00015617,-0.000647145,-0.000808837,-0.000793342,5.67422e-05,0.000243085,-0.00174208,0,0,0,0,0,0,0,0.0256461,-9.88773,-0.329831,20.9717,1.26009,0.393885,-0.252493,0.0238561,-0.782497,0.0341806,2.42013,0.692682,0.40569,-0.24784
2914420,1,-1.5709,-0.523141,-8.99537e-05,-2.09594,1.57005,1.57028,0.785746,-1.5708,-0.523599,4.17901e-08,-2.09439,1.5708,1.5708,0.785398,0.000104113,-0.00043143,0.000110389,0.000120719,0.00044473,-0.000312661,2.54071e-05,0,0,0,0,0,0,0,0.0256461,-9.88773,-0.357602,20.9439,1.2491,0.406703,-0.284536,0.0246492,-0.782329,0.035487,2.42033,0.692718,0.405516,-0.2478
2914421,1,-1.5709,-0.52314,-8.99537e-05,-2.09594,1.57005,1.57028,0.785746,-1.5708,-0.523599,4.17901e-08,-2.09439,1.5708,1.5708,0.785398,-0.000487403,0.000269192,7.3593e-05,-0.000569135,9.30367e-05,-0.000208441,1.69381e-05,0,0,0,0,0,0,0,0.0494498,-9.91153,-0.357602,20.9717,1.25459,0.406703,-0.284536,0.0250594,-0.781587,0.036237,2.42028,0.692748,0.4054,-0.247735
2914422,1,-1.5709,-0.52314,-8.99537e-05,-2.09594,1.57005,1.57028,0.785751,-1.5708,-0.523599,4.17901e-08,-2.09439,1.5708,1.5708,0.785398,-0.000324935,0.000179461,4.9062e-05,0.000827003,6.20249e-05,-0.000138961,0.0016728,0,0,0,0,0,0,0,0.0494498,-9.91153,-0.357602,20.9201,1.25459,0.406703,-0.329397,0.0252513,-0.781466,0.0365658,2.42034,0.692768,0.405308,-0.247632
2914423,1,-1.5709,-0.523141,-8.99537e-05,-2.09594,1.57005,1.57028,0.785748,-1.5708,-0.523599,4.17901e-08,-2.09439,1.5708,1.5708,0.785398,-0.000216624,-0.000437171,3.2708e-05,0.000551335,-0.00060291,0.000144719,0.000165767,0,0,0,0,0,0,0,0.0494498,-9.88773,-0.357602,20.9201,1.27199,0.400294,-0.303762,0.0254143,-0.781,0.0367584,2.4198,0.692747,0.405227,-0.247516
2914424,1,-1.5709,-0.523138,-8.99537e-05,-2.09594,1.57005,1.57028,0.785743,-1.5708,-0.523599,4.17901e-08,-2.09439,1.5708,1.5708,0.785398,0.000412396,0.000822177,2.18053e-05,0.000367557,-0.00949505,-0.000378239,-0.00178836,0,0,0,0,0,0,0,0.0256461,-9.93533,-0.357602,20.9201,1.26009,0.413112,-0.252493,0.0253257,-0.78021,0.0364895,2.41881,0.69274,0.405185,-0.247422
2914425,1,-1.5709,-0.523143,-8.99537e-05,-2.09594,1.57005,1.57028,0.785745,-1.5708,-0.523599,4.17901e-08,-2.09439,1.5708,1.5708,0.785398,0.00148136,-0.00121512,1.45369e-05,-0.000311774,-0.00756533,-1.48003e-05,-0.000242804,0,0,0,0,0,0,0,-0.0259286,-9.85995,-0.357602,20.9439,1.27199,0.406703,-0.278127,0.0244914,-0.779829,0.035086,2.41823,0.692848,0.40524,-0.247339
2914426,1,-1.5709,-0.523143,-8.63344e-05,-2.09595,1.57005,1.57028,0.78575,-1.5708,-0.523599,4.17901e-08,-2.09439,1.5708,1.5708,0.785398,-0.000775667,-0.00081008,0.00121612,-0.00141428,-0.00519862,-9.86687e-06,0.00126228,0,0,0,0,0,0,0,0.0494498,-9.85995,-0.409177,20.9955,1.26009,0.406703,-0.31658,0.0228303,-0.778725,0.0324133,2.41798,0.693057,0.405434,-0.247232
2914427,1,-1.5709,-0.523138,-8.63344e-05,-2.09594,1.57005,1.57028,0.78575,-1.5708,-0.523599,4.17901e-08,-2.09439,1.5708,1.5708,0.785398,0.000689315,0.00122318,0.000810745,0.000820388,-0.00435346,0.000230781,0.000841523,0,0,0,0,0,0,0,-0.00212494,-9.93533,-0.409177,20.9201,1.27199,0.400294,-0.31658,0.0207613,-0.778062,0.0289767,2.41835,0.693316,0.405699,-0.247106
2914428,1,-1.5709,-0.52314,-8.99537e-05,-2.09594,1.57005,1.57028,0.78575,-1.5708,-0.523599,4.17901e-08,-2.09439,1.5708,1.5708,0.785398,-0.000746883,0.000258644,-0.000665929,-9.88684e-06,-0.00300012,0.000153854,0.000561015,0,0,0,0,0,0,0,0.0494498,-9.91153,-0.357602,20.9439,1.26558,0.400294,-0.31658,0.0191561,-0.779523,0.0261818,2.41934,0.69356,0.405877,-0.247006
2914429,1,-1.5709,-0.523141,-8.99537e-05,-2.09595,1.57005,1.57028,0.785743,-1.5708,-0.523599,4.17901e-08,-2.09439,1.5708,1.5708,0.785398,-0.000497922,-0.000384382,-0.000443953,-0.00176983,-0.00204801,-0.00013479,-0.00199958,0,0,0,0,0,0,0,0.0494498,-9.88773,-0.357602,21.0193,1.26009,0.406703,-0.252493,0.0190969,-0.782021,0.0257509,2.42072,0.693736,0.405826,-0.246972
2914430,1,-1.5709,-0.523141,-8.99537e-05,-2.09594,1.57005,1.57028,0.785744,-1.5708,-0.523599,4.17901e-08,-2.09439,1.5708,1.5708,0.785398,0.00143129,-0.000256255,-0.000295969,0.000583352,-0.00175733,-8.98597e-05,-0.000858335,0,0,0,0,0,0,0,-0.0259286,-9.88773,-0.357602,20.9439,1.26558,0.406703,-0.26531,0.0199322,-0.783875,0.0267804,2.4221,0.693857,0.405672,-0.246989
2914431,1,-1.5709,-0.52314,-8.82832e-05,-2.09594,1.57005,1.57028,0.78575,-1.5708,-0.523599,4.17901e-08,-2.09439,1.5708,1.5708,0.785398,-0.000252233,0.000385975,0.0003595,0.000388901,-0.00110951,0.000177452,0.00132665,0,0,0,0,0,0,0,0.0256461,-9.91153,-0.381406,20.9439,1.26009,0.400294,-0.31658,0.0203435,-0.784409,0.0273659,2.42254,0.693924,0.405603,-0.246995
2914432,1,-1.5709,-0.523141,-8.99537e-05,-2.09594,1.57005,1.57028,0.785748,-1.5708,-0.523599,4.17901e-08,-2.09439,1.5708,1.5708,0.785398,-0.000168155,-0.000299495,-0.000317146,0.000259267,-0.000845722,0.000118302,0.000409714,0,0,0,0,0,0,0,0.0256461,-9.88773,-0.357602,20.9439,1.26009,0.400294,-0.303762,0.0205849,-0.784086,0.0277557,2.42206,0.693937,0.405564,-0.246964
2914433,1,-1.5709,-0.523141,-8.99537e-05,-2.09595,1.57005,1.57028,0.78575,-1.5708,-0.523599,4.17901e-08,-2.09439,1.5708,1.5708,0.785398,-0.000668915,-0.000199663,-0.00021143,-0.000476769,-0.000643354,0.000316227,0.000747861,0,0,0,0,0,0,0,0.0494498,-9.88773,-0.357602,20.9717,1.26009,0.393885,-0.31658,0.0213465,-0.783225,0.0288866,2.42125,0.693903,0.405448,-0.246931
2914434,1,-1.5709,-0.523141,-8.82832e-05,-2.09595,1.57005,1.57028,0.785744,-1.5708,-0.523599,4.17901e-08,-2.09439,1.5708,1.5708,0.785398,0.000110868,-0.000133109,0.000415858,-0.000317846,-0.000488557,-2.65411e-05,-0.0014003,0,0,0,0,0,0,0,0.0256461,-9.88773,-0.381406,20.9717,1.26009,0.400294,-0.26531,0.0223445,-0.782271,0.0303137,2.42066,0.69386,0.405292,-0.246929
2914435,1,-1.5709,-0.52314,-8.63344e-05,-2.09594,1.57005,1.57028,0.785746,-1.5708,-0.523599,4.17901e-08,-2.09439,1.5708,1.5708,0.785398,7.39123e-05,0.000468073,0.000926853,0.000437717,-0.000166995,-0.000255053,-0.000221455,0,0,0,0,0,0,0,0.0256461,-9.91153,-0.409177,20.9439,1.25459,0.406703,-0.284536,0.0226477,-0.781815,0.0306196,2.42042,0.693846,0.405226,-0.246953
2914436,1,-1.5709,-0.52314,-8.78231e-05,-2.09594,1.57005,1.57028,0.78575,-1.5708,-0.523599,4.17901e-08,-2.09439,1.5708,1.5708,0.785398,4.92748e-05,0.000312048,-0.000588524,0.000848623,-0.000144885,-0.000407394,0.00127652,0,0,0,0,0,0,0,0.0256461,-9.91153,-0.357602,20.9201,1.25459,0.413112,-0.322988,0.022348,-0.78178,0.0299975,2.42006,0.693829,0.405236,-0.246971
2914437,1,-1.5709,-0.52314,-8.75731e-05,-2.09594,1.57005,1.57028,0.785748,-1.5708,-0.523599,4.17901e-08,-2.09439,1.5708,1.5708,0.785398,0.000682464,0.000208032,0.000164463,8.93674e-06,-0.000121757,0.000203122,0.000138935,0,0,0,0,0,0,0,-0.00212494,-9.91153,-0.381406,20.9439,1.25459,0.400294,-0.303762,0.0221266,-0.781881,0.029573,2.41945,0.693773,0.40523,-0.246979
2914438,1,-1.5709,-0.523143,-8.80465e-05,-2.09594,1.57005,1.57028,0.785746,-1.5708,-0.523599,4.17901e-08,-2.09439,1.5708,1.5708,0.785398,0.000454976,-0.00106774,0.000109642,-0.000643656,0.000103404,-0.000576662,-0.000619454,0,0,0,0,0,0,0,-0.00212494,-9.85995,-0.381406,20.9717,1.2491,0.41952,-0.284536,0.0217483,-0.781417,0.02901,2.41878,0.6937,0.405264,-0.247008
2914439,1,-1.5709,-0.52314,-8.98748e-05,-2.09595,1.57005,1.57028,0.785748,-1.5708,-0.523599,4.17901e-08,-2.09439,1.5708,1.5708,0.785398,0.000303317,0.000494601,-0.000483717,-0.000985916,-0.000352121,9.02763e-05,0.000299108,0,0,0,0,0,0,0,-0.00212494,-9.91153,-0.357602,20.9955,1.26009,0.406703,-0.303762,0.0212491,-0.780662,0.0283366,2.4186,0.693633,0.405337,-0.247065
2914440,1,-1.5709,-0.52314,-8.82569e-05,-2.09594,1.57005,1.57028,0.785749,-1.5708,-0.523599,4.17901e-08,-2.09439,1.5708,1.5708,0.785398,0.000202212,0.000329734,0.000234334,0.00110596,-0.000245365,-0.000177175,0.000436764,0,0,0,0,0,0,0,-0.00212494,-9.91153,-0.381406,20.9201,1.26009,0.413112,-0.310171,0.0209886,-0.780874,0.0280924,2.41907,0.693563,0.405371,-0.247136
2914441,1,-1.5709,-0.52314,-8.82745e-05,-2.09594,1.57005,1.57028,0.78575,-1.5708,-0.523599,4.17901e-08,-2.09439,1.5708,1.5708,0.785398,-0.000514806,0.000219823,0.000156222,0.000180495,3.19113e-05,0.000119242,0.000528535,0,0,0,0,0,0,0,0.0256461,-9.91153,-0.381406,20.9439,1.25459,0.406703,-0.31658,0.0208832,-0.781474,0.0280872,2.41929,0.693465,0.405379,-0.247218
2914442,1,-1.5709,-0.52314,-8.99507e-05,-2.09594,1.57005,1.57028,0.785745,-1.5708,-0.523599,4.17901e-08,-2.09439,1.5708,1.5708,0.785398,-0.000343204,0.000146548,-0.000452664,0.000677142,0.000218753,-0.000157864,-0.00130916,0,0,0,0,0,0,0,0.0256461,-9.91153,-0.357602,20.9201,1.2491,0.413112,-0.271719,0.0211687,-0.781629,0.028626,2.4189,0.693332,0.405341,-0.247328
2914443,1,-1.5709,-0.52314,-8.99527e-05,-2.09595,1.57005,1.57028,0.785743,-1.5708,-0.523599,4.17901e-08,-2.09439,1.5708,1.5708,0.785398,0.000977623,9.76989e-05,-0.000301776,-0.000754998,-0.000468996,-0.000105243,-0.00134749,0,0,0,0,0,0,0,-0.0259286,-9.91153,-0.357602,20.9717,1.26558,0.413112,-0.258901,0.0217447,-0.781777,0.0296682,2.41854,0.693186,0.405275,-0.247462
2914444,1,-1.5709,-0.523143,-8.63341e-05,-2.09594,1.57005,1.57028,0.785751,-1.5708,-0.523599,4.17901e-08,-2.09439,1.5708,1.5708,0.785398,9.49368e-05,-0.00114129,0.00100524,0.000146282,9.08779e-05,0.000641915,0.00171262,0,0,0,0,0,0,0,-0.00212494,-9.85995,-0.409177,20.9439,1.25459,0.393885,-0.329397,0.0217089,-0.781304,0.0298984,2.41821,0.693063,0.40532,-0.247576
2914445,1,-1.5709,-0.52314,-8.61526e-05,-2.09595,1.57005,1.57028,0.785749,-1.5708,-0.523599,4.17901e-08,-2.09439,1.5708,1.5708,0.785398,6.32912e-05,0.000445564,2.05474e-05,-0.0011089,0.000261516,-4.67745e-05,0.000429672,0,0,0,0,0,0,0,-0.00212494,-9.91153,-0.381406,20.9955,1.2491,0.406703,-0.310171,0.0209229,-0.780069,0.0289905,2.41792,0.692975,0.405486,-0.247649
2914446,1,-1.57091,-0.52314,-8.7573e-05,-2.09594,1.57005,1.57028,0.785747,-1.5708,-0.523599,4.17901e-08,-2.09439,1.5708,1.5708,0.785398,-0.00172104,0.000297042,1.36983e-05,0.000467156,-0.000675256,0.000206176,-0.000425629,0,0,0,0,0,0,0,0.0732535,-9.91153,-0.381406,20.9439,1.27199,0.400294,-0.290945,0.0205434,-0.779937,0.0285789,2.41833,0.692904,0.405566,-0.247718
2914447,1,-1.5709,-0.52314,-8.97169e-05,-2.09595,1.57005,1.57028,0.785745,-1.5708,-0.523599,4.17901e-08,-2.09439,1.5708,1.5708,0.785398,-3.37386e-05,0.000198028,-0.00054768,0.000311437,-1.07784e-05,0.000137451,-0.00099583,0,0,0,0,0,0,0,0.0256461,-9.91153,-0.357602,20.9439,1.26009,0.400294,-0.271719,0.0212759,-0.780787,0.029711,2.41894,0.692806,0.405453,-0.247805
2914448,1,-1.5709,-0.523138,-8.98748e-05,-2.09594,1.57005,1.57028,0.785748,-1.5708,-0.523599,4.17901e-08,-2.09439,1.5708,1.5708,0.785398,-0.000579304,0.000688831,-0.00036512,-0.000441989,0.000195202,-0.000145725,0.000285549,0,0,0,0,0,0,0,0.0494498,-9.93533,-0.357602,20.9717,1.25459,0.406703,-0.297354,0.0226301,-0.782056,0.0317537,2.41948,0.692693,0.405233,-0.24789
2914449,1,-1.5709,-0.523139,-8.82569e-05,-2.09595,1.57005,1.57028,0.785748,-1.5708,-0.523599,4.17901e-08,-2.09439,1.5708,1.5708,0.785398,0.000170609,-0.000654403,0.000313399,-0.000294659,0.000129337,-0.000334509,0.000190366,0,0,0,0,0,0,0,0.0256461,-9.88773,-0.381406,20.9717,1.25459,0.413112,-0.297354,0.0237986,-0.783618,0.0335127,2.42029,0.692606,0.405039,-0.247949
2914450,1,-1.57091,-0.523139,-9.18937e-05,-2.09595,1.57005,1.57028,0.785749,-1.5708,-0.523599,4.17901e-08,-2.09439,1.5708,1.5708,0.785398,-0.000443073,0.000120543,-0.000997493,-0.00019644,-0.000321274,0.000489071,0.000601629,0,0,0,0,0,0,0,0.0494498,-9.91153,-0.329831,20.9717,1.26558,0.393885,-0.310171,0.024657,-0.78424,0.0347767,2.42085,0.692526,0.40491,-0.247986
2914451,1,-1.5709,-0.523141,-9.18996e-05,-2.09594,1.57005,1.57028,0.785743,-1.5708,-0.523599,4.17901e-08,-2.09439,1.5708,1.5708,0.785398,0.00026143,-0.00047645,-0.000664996,-0.00013096,-1.11805e-05,-0.000148671,-0.00149779,0,0,0,0,0,0,0,0.0256461,-9.88773,-0.329831,20.9717,1.26009,0.406703,-0.258901,0.0257299,-0.783871,0.0364032,2.42097,0.692427,0.404765,-0.248016
2914452,1,-1.5709,-0.523141,-8.82823e-05,-2.09594,1.57005,1.57028,0.785747,-1.5708,-0.523599,4.17901e-08,-2.09439,1.5708,1.5708,0.785398,0.000174287,-0.000317633,0.000763095,0.000562307,-0.000211241,-0.000336473,0.000188271,0,0,0,0,0,0,0,0.0256461,-9.88773,-0.381406,20.9439,1.26558,0.413112,-0.290945,0.0264554,-0.782422,0.0375467,2.42047,0.692327,0.404687,-0.248036
2914453,1,-1.5709,-0.523141,-8.99533e-05,-2.09595,1.57005,1.57028,0.785747,-1.5708,-0.523599,4.17901e-08,-2.09439,1.5708,1.5708,0.785398,-0.000440621,-0.000211756,-4.80816e-05,-0.000274742,6.23713e-05,0.000487762,0.000125514,0,0,0,0,0,0,0,0.0494498,-9.88773,-0.357602,20.9717,1.26009,0.393885,-0.290945,0.0262849,-0.780089,0.0372687,2.41942,0.692258,0.404755,-0.248023
2914454,1,-1.5709,-0.523141,-9.19024e-05,-2.09595,1.57005,1.57028,0.78575,-1.5708,-0.523599,4.17901e-08,-2.09439,1.5708,1.5708,0.785398,0.000912679,-0.00014117,-0.000681668,-0.000739973,4.13917e-05,-0.000149543,0.00103311,0,0,0,0,0,0,0,-0.00212494,-9.88773,-0.329831,20.9955,1.26009,0.406703,-0.31658,0.0259053,-0.778289,0.0366477,2.41879,0.692228,0.40485,-0.247978
2914455,1,-1.5709,-0.523141,-8.63344e-05,-2.09594,1.57005,1.57028,0.785748,-1.5708,-0.523599,4.17901e-08,-2.09439,1.5708,1.5708,0.785398,-0.000597973,-9.41136e-05,0.00140159,0.00071311,-0.000175998,-0.000337055,0.000214023,0,0,0,0,0,0,0,0.0494498,-9.88773,-0.409177,20.9439,1.26558,0.413112,-0.303762,0.0252945,-0.777225,0.0356998,2.41869,0.692235,0.40497,-0.247923
2914456,1,-1.5709,-0.52314,-8.82832e-05,-2.09594,1.57005,1.57028,0.785745,-1.5708,-0.523599,4.17901e-08,-2.09439,1.5708,1.5708,0.785398,-0.000398649,0.00049407,0.000284782,-0.000174207,0.000492913,1.26559e-05,-0.000806754,0,0,0,0,0,0,0,0.0494498,-9.91153,-0.381406,20.9717,1.2491,0.406703,-0.278127,0.0242289,-0.776657,0.0339108,2.41867,0.692276,0.405153,-0.247886
2914457,1,-1.5709,-0.52314,-8.82832e-05,-2.09594,1.57005,1.57028,0.785746,-1.5708,-0.523599,4.17901e-08,-2.09439,1.5708,1.5708,0.785398,-0.000265766,0.00032938,0.000189855,0.000533476,-7.83721e-05,8.43726e-06,-0.000300477,0,0,0,0,0,0,0,0.0494498,-9.91153,-0.381406,20.9439,1.26009,0.406703,-0.284536,0.0233292,-0.777111,0.0321903,2.41893,0.692332,0.405308,-0.24787
2914458,1,-1.5709,-0.523143,-9.19025e-05,-2.09595,1.57005,1.57028,0.78575,-1.5708,-0.523599,4.17901e-08,-2.09439,1.5708,1.5708,0.785398,-0.000177177,-0.000986839,-0.00107986,-0.000293963,-0.000255758,-0.000231734,0.000986477,0,0,0,0,0,0,0,0.0494498,-9.85995,-0.329831,20.9717,1.26558,0.413112,-0.31658,0.0232279,-0.777389,0.0316441,2.41907,0.69235,0.405359,-0.247856
2914459,1,-1.5709,-0.523141,-8.99537e-05,-2.09594,1.57005,1.57028,0.78575,-1.5708,-0.523599,4.17901e-08,-2.09439,1.5708,1.5708,0.785398,0.00164512,-8.279e-06,-7.02901e-05,-0.000195976,0.000439801,-0.000154489,0.00089501,0,0,0,0,0,0,0,-0.0259286,-9.88773,-0.357602,20.9717,1.2491,0.413112,-0.322988,0.0235674,-0.776391,0.0319067,2.41879,0.692324,0.405379,-0.247839
2914460,1,-1.5709,-0.523143,-8.63344e-05,-2.09594,1.57005,1.57028,0.785746,-1.5708,-0.523599,4.17901e-08,-2.09439,1.5708,1.5708,0.785398,0.000539934,-0.000655133,0.00115957,-0.00013065,8.97165e-05,-0.000102993,-0.00082748,0,0,0,0,0,0,0,-0.00212494,-9.85995,-0.409177,20.9717,1.25459,0.413112,-0.284536,0.0229806,-0.774883,0.030947,2.41851,0.692321,0.40556,-0.247848
2914461,1,-1.5709,-0.523141,-8.63344e-05,-2.09594,1.57005,1.57028,0.785745,-1.5708,-0.523599,4.17901e-08,-2.09439,1.5708,1.5708,0.785398,-0.000289658,0.000212858,0.000773044,0.000562514,-0.000143665,-6.8662e-05,-0.000789012,0,0,0,0,0,0,0,0.0256461,-9.88773,-0.409177,20.9439,1.26009,0.413112,-0.278127,0.0212967,-0.773269,0.0282906,2.41818,0.692354,0.405916,-0.247895
2914462,1,-1.5709,-0.523141,-8.99537e-05,-2.09595,1.57005,1.57028,0.785747,-1.5708,-0.523599,4.17901e-08,-2.09439,1.5708,1.5708,0.785398,-0.000193105,0.000141906,-0.000691063,-0.000274605,0.000107655,-4.57746e-05,-5.12904e-05,0,0,0,0,0,0,0,0.0256461,-9.88773,-0.357602,20.9717,1.25459,0.413112,-0.290945,0.0199943,-0.772308,0.0260934,2.41801,0.692374,0.406212,-0.247958
2914463,1,-1.5709,-0.523138,-8.82832e-05,-2.09594,1.57005,1.57028,0.78575,-1.5708,-0.523599,4.17901e-08,-2.09439,1.5708,1.5708,0.785398,-0.00124236,0.00120823,9.61031e-05,0.000466544,-0.000131695,0.000444201,0.0011526,0,0,0,0,0,0,0,0.0732535,-9.93533,-0.381406,20.9439,1.26009,0.400294,-0.322988,0.0201255,-0.773311,0.0259809,2.41866,0.692362,0.406275,-0.248011
2914464,1,-1.5709,-0.52314,-8.99537e-05,-2.09595,1.57005,1.57028,0.785746,-1.5708,-0.523599,4.17901e-08,-2.09439,1.5708,1.5708,0.785398,0.000285383,0.000248673,-0.000492743,-0.000338585,-0.000528617,-0.000178584,-0.000655753,0,0,0,0,0,0,0,0.0256461,-9.91153,-0.357602,20.9717,1.27199,0.413112,-0.284536,0.0213243,-0.776282,0.0273922,2.42018,0.692338,0.40616,-0.248058
2914465,1,-1.5709,-0.52314,-8.61527e-05,-2.09594,1.57005,1.57028,0.785748,-1.5708,-0.523599,4.17901e-08,-2.09439,1.5708,1.5708,0.785398,0.000190256,0.000165782,0.000228316,0.000423891,0.000291841,0.000118303,0.000274908,0,0,0,0,0,0,0,0.0256461,-9.91153,-0.381406,20.9439,1.25459,0.406703,-0.303762,0.0225187,-0.779423,0.0288112,2.42178,0.692319,0.406047,-0.248114
2914466,1,-1.5709,-0.52314,-8.7113e-05,-2.09594,1.57005,1.57028,0.785745,-1.5708,-0.523599,4.17901e-08,-2.09439,1.5708,1.5708,0.785398,0.000126837,0.000110521,-0.000404601,-0.00036702,-0.000212346,-0.00015849,-0.00100352,0,0,0,0,0,0,0,0.0256461,-9.91153,-0.357602,20.9717,1.26558,0.413112,-0.271719,0.0232833,-0.781513,0.029653,2.42291,0.692309,0.406017,-0.248178
2914467,1,-1.5709,-0.52314,-8.73363e-05,-2.09594,1.57005,1.57028,0.78575,-1.5708,-0.523599,4.17901e-08,-2.09439,1.5708,1.5708,0.785398,0.000734172,7.36809e-05,0.000287078,0.000404934,6.18818e-05,0.000369058,0.000992498,0,0,0,0,0,0,0,-0.00212494,-9.91153,-0.381406,20.9439,1.26009,0.400294,-0.31658,0.0236397,-0.782722,0.0299484,2.42364,0.692309,0.40606,-0.248235
2914468,1,-1.5709,-0.52314,-8.79676e-05,-2.09594,1.57005,1.57028,0.78575,-1.5708,-0.523599,4.17901e-08,-2.09439,1.5708,1.5708,0.785398,-0.000716978,4.91206e-05,0.000191385,0.000269956,-0.000162199,0.000720756,0.000661665,0,0,0,0,0,0,0,0.0494498,-9.91153,-0.381406,20.9439,1.26558,0.387477,-0.31658,0.0236555,-0.783043,0.0297452,2.42384,0.692315,0.406152,-0.248278
2914469,1,-1.5709,-0.523141,-8.98485e-05,-2.09595,1.57005,1.57028,0.785749,-1.5708,-0.523599,4.17901e-08,-2.09439,1.5708,1.5708,0.785398,7.88267e-05,-0.000524065,-0.000429222,-0.00102646,9.53151e-05,0.000243145,0.000203751,0,0,0,0,0,0,0,0.0256461,-9.88773,-0.357602,20.9955,1.26009,0.393885,-0.310171,0.0238712,-0.782635,0.0297785,2.42377,0.692322,0.406197,-0.24833
2914470,1,-1.5709,-0.523141,-8.99186e-05,-2.09594,1.57005,1.57028,0.785746,-1.5708,-0.523599,4.17901e-08,-2.09439,1.5708,1.5708,0.785398,0.000702165,-0.000349377,-0.000286148,0.000522122,-0.000139909,-0.00054998,-0.000813602,0,0,0,0,0,0,0,-0.00212494,-9.88773,-0.357602,20.9439,1.26558,0.413112,-0.284536,0.0243061,-0.781462,0.0302028,2.4236,0.692329,0.406189,-0.248418
2914471,1,-1.5709,-0.523143,-8.82715e-05,-2.09594,1.57005,1.57028,0.785745,-1.5708,-0.523599,4.17901e-08,-2.09439,1.5708,1.5708,0.785398,0.00046811,-0.000882532,0.000366047,-0.000301532,-9.32741e-05,-0.000129294,-0.00101712,0,0,0,0,0,0,0,-0.00212494,-9.85995,-0.381406,20.9717,1.26558,0.406703,-0.271719,0.0242664,-0.778954,0.0300811,2.4228,0.692335,0.40624,-0.248533
2914472,1,-1.5709,-0.523138,-8.82793e-05,-2.09594,1.57005,1.57028,0.78575,-1.5708,-0.523599,4.17901e-08,-2.09439,1.5708,1.5708,0.785398,-0.000894353,0.00117488,0.000244031,0.00211903,0.000141267,-8.61962e-05,0.00122079,0,0,0,0,0,0,0,0.0494498,-9.93533,-0.381406,20.8725,1.26009,0.406703,-0.322988,0.0238431,-0.775974,0.029418,2.42134,0.692339,0.406328,-0.248638
2914473,1,-1.5709,-0.523141,-8.99524e-05,-2.09595,1.57005,1.57028,0.78575,-1.5708,-0.523599,4.17901e-08,-2.09439,1.5708,1.5708,0.785398,0.000610191,-0.000330368,-0.000394125,-0.00146418,0.000297628,-5.74642e-05,0.000576503,0,0,0,0,0,0,0,-0.00212494,-9.88773,-0.357602,20.9955,1.25459,0.406703,-0.31658,0.0236494,-0.77445,0.029069,2.42017,0.692352,0.406347,-0.248723
2914474,1,-1.5709,-0.523141,-8.78227e-05,-2.09594,1.57005,1.57028,0.785745,-1.5708,-0.523599,4.17901e-08,-2.09439,1.5708,1.5708,0.785398,-0.00024282,-0.000220246,-0.00026275,0.000230308,-5.03277e-06,-3.83094e-05,-0.00103982,0,0,0,0,0,0,0,0.0256461,-9.88773,-0.357602,20.9439,1.26009,0.406703,-0.278127,0.0237783,-0.774249,0.0292686,2.41995,0.692389,0.406302,-0.248817
2914475,1,-1.57091,-0.523145,-9.11922e-05,-2.09594,1.57005,1.57028,0.785745,-1.5708,-0.523599,4.17901e-08,-2.09439,1.5708,1.5708,0.785398,-0.0012755,-0.00135326,-0.00082478,0.000710351,-3.35563e-06,0.000211819,-0.000693212,0,0,0,0,0,0,0,0.0732535,-9.83615,-0.329831,20.9201,1.26009,0.400294,-0.278127,0.0246022,-0.77278,0.0305457,2.41932,0.692387,0.406171,-0.248929
2914476,0.99,-1.5709,-0.523141,-8.80465e-05,-2.09594,1.57005,1.57028,0.785747,-1.5708,-0.523599,4.17901e-08,-2.09439,1.5708,1.5708,0.785398,0.000263288,0.000304255,0.000656572,0.000473567,0.000201213,-9.61461e-05,1.25763e-05,0,0,0,0,0,0,0,0.0256461,-9.88773,-0.381406,20.9201,1.25459,0.406703,-0.290945,0.0259332,-0.769447,0.0325269,2.4175,0.692324,0.405985,-0.249027
2914477,0.99,-1.57091,-0.523141,-8.82043e-05,-2.09594,1.57005,1.57028,0.785748,-1.5708,-0.523599,4.17901e-08,-2.09439,1.5708,1.5708,0.785398,-0.000381287,0.000202837,0.000437715,-0.0002411,-0.000272759,0.000410621,0.000483102,0,0,0,0,0,0,0,0.0494498,-9.88773,-0.381406,20.9439,1.26558,0.393885,-0.303762,0.0265688,-0.767172,0.0333692,2.4161,0.692297,0.40589,-0.249086
2914478,0.99,-1.5709,-0.523141,-8.99274e-05,-2.09594,1.57005,1.57028,0.785751,-1.5708,-0.523599,4.17901e-08,-2.09439,1.5708,1.5708,0.785398,0.000952235,0.000135224,-0.000265002,-0.000160734,2.16108e-05,3.63881e-05,0.0012715,0,0,0,0,0,0,0,-0.00212494,-9.88773,-0.357602,20.9439,1.26009,0.400294,-0.329397,0.0263693,-0.767281,0.0329235,2.41604,0.692343,0.405886,-0.249117
2914479,0.99,-1.5709,-0.523141,-8.82745e-05,-2.09594,1.57005,1.57028,0.785744,-1.5708,-0.523599,4.17901e-08,-2.09439,1.5708,1.5708,0.785398,-0.000571603,9.01496e-05,0.000380144,-0.00075677,0.000421308,-0.0002131,-0.00152592,0,0,0,0,0,0,0,0.0494498,-9.88773,-0.381406,20.9717,1.2491,0.406703,-0.26531,0.0258836,-0.76886,0.0320862,2.41698,0.692429,0.405902,-0.24915
2914480,0.99,-1.5709,-0.523141,-9.18996e-05,-2.09595,1.57005,1.57028,0.785745,-1.5708,-0.523599,4.17901e-08,-2.09439,1.5708,1.5708,0.785398,0.000175743,6.00998e-05,-0.000952997,-0.000504513,-0.00032948,9.52921e-05,-0.000542562,0,0,0,0,0,0,0,0.0256461,-9.88773,-0.329831,20.9717,1.26558,0.400294,-0.278127,0.0256858,-0.771277,0.0316888,2.41863,0.692525,0.405864,-0.249201
2914481,0.99,-1.5709,-0.523141,-8.99527e-05,-2.09594,1.57005,1.57028,0.785747,-1.5708,-0.523599,4.17901e-08,-2.09439,1.5708,1.5708,0.785398,0.000117162,4.00665e-05,1.42829e-05,0.000313272,-0.000457012,-0.000173831,0.00011301,0,0,0,0,0,0,0,0.0256461,-9.88773,-0.357602,20.9439,1.27199,0.406703,-0.290945,0.0259819,-0.773638,0.0320836,2.42028,0.692593,0.405748,-0.249238
2914482,0.99,-1.5709,-0.52314,-8.99533e-05,-2.09595,1.57005,1.57028,0.785746,-1.5708,-0.523599,4.17901e-08,-2.09439,1.5708,1.5708,0.785398,0.000727722,0.000583523,9.52191e-06,-0.000997578,-6.73158e-05,-0.000353246,-0.000162019,0,0,0,0,0,0,0,-0.00212494,-9.91153,-0.357602,20.9955,1.26558,0.413112,-0.284536,0.0260717,-0.775953,0.0322616,2.42181,0.692659,0.40566,-0.249235
2914483,0.99,-1.5709,-0.523141,-8.82831e-05,-2.09594,1.57005,1.57028,0.785749,-1.5708,-0.523599,4.17901e-08,-2.09439,1.5708,1.5708,0.785398,-0.000164466,-0.000167797,0.00056316,0.00109819,0.000362024,1.86149e-06,0.000841423,0,0,0,0,0,0,0,0.0256461,-9.88773,-0.381406,20.9201,1.25459,0.406703,-0.310171,0.025538,-0.778188,0.031549,2.42318,0.69275,0.405669,-0.249192
2914484,0.99,-1.5709,-0.523138,-8.99536e-05,-2.09594,1.57005,1.57028,0.785748,-1.5708,-0.523599,4.17901e-08,-2.09439,1.5708,1.5708,0.785398,-0.000109644,0.00100176,-0.000181372,0.000175312,0.000241349,0.0002386,0.00032359,0,0,0,0,0,0,0,0.0256461,-9.93533,-0.357602,20.9439,1.25459,0.400294,-0.303762,0.0248606,-0.779698,0.030612,2.42376,0.692826,0.40571,-0.249126
2914485,0.99,-1.5709,-0.52314,-9.19025e-05,-2.09594,1.57005,1.57028,0.785743,-1.5708,-0.523599,4.17901e-08,-2.09439,1.5708,1.5708,0.785398,0.000576518,0.000111028,-0.000770529,0.000116875,-4.25511e-05,0.000159067,-0.00168315,0,0,0,0,0,0,0,-0.00212494,-9.91153,-0.329831,20.9439,1.26009,0.400294,-0.252493,0.0246244,-0.78122,0.0304018,2.42403,0.69287,0.405685,-0.249063
2914486,0.99,-1.5709,-0.523143,-9.19025e-05,-2.09594,1.57005,1.57028,0.78575,-1.5708,-0.523599,4.17901e-08,-2.09439,1.5708,1.5708,0.785398,-0.000265269,-0.00113241,-0.000513686,-0.000571698,-0.000469177,0.000343403,0.00148885,0,0,0,0,0,0,0,0.0256461,-9.85995,-0.329831,20.9717,1.27199,0.393885,-0.322988,0.0249689,-0.78181,0.031221,2.42401,0.692876,0.405582,-0.249002
2914487,0.99,-1.5709,-0.523141,-8.99537e-05,-2.09595,1.57005,1.57028,0.78575,-1.5708,-0.523599,4.17901e-08,-2.09439,1.5708,1.5708,0.785398,0.000472768,-0.000105324,0.000307157,-0.000937944,-0.000312785,-0.000483141,0.000755209,0,0,0,0,0,0,0,-0.00212494,-9.88773,-0.357602,20.9955,1.27199,0.413112,-0.31658,0.0253983,-0.780602,0.0322576,2.42365,0.692871,0.405482,-0.248926
2914488,0.99,-1.5709,-0.523141,-8.99537e-05,-2.09595,1.57005,1.57028,0.78575,-1.5708,-0.523599,4.17901e-08,-2.09439,1.5708,1.5708,0.785398,0.000315179,-7.02162e-05,0.000204771,-6.84838e-05,0.000232286,-8.47352e-05,0.000503473,0,0,0,0,0,0,0,-0.00212494,-9.88773,-0.357602,20.9717,1.26009,0.406703,-0.31658,0.0251765,-0.779292,0.0323685,2.42364,0.692915,0.405475,-0.248863
2914489,0.99,-1.5709,-0.523141,-8.4664e-05,-2.09594,1.57005,1.57028,0.785745,-1.5708,-0.523599,4.17901e-08,-2.09439,1.5708,1.5708,0.785398,-0.000439495,-4.68108e-05,0.00189975,0.00116077,0.000358308,0.000180869,-0.00132586,0,0,0,0,0,0,0,0.0256461,-9.88773,-0.432981,20.9201,1.25459,0.400294,-0.271719,0.0240164,-0.777936,0.031037,2.42335,0.693,0.405601,-0.248846
2914490,0.98,-1.5709,-0.523145,-8.99537e-05,-2.09595,1.57005,1.57028,0.785745,-1.5708,-0.523599,4.17901e-08,-2.09439,1.5708,1.5708,0.785398,-0.000292996,-0.00123763,-0.000496737,-0.000989391,-0.000405388,-0.00011678,-0.000883909,0,0,0,0,0,0,0,0.0256461,-9.83615,-0.357602,20.9955,1.27199,0.406703,-0.271719,0.0224965,-0.775337,0.0290255,2.42215,0.693081,0.405792,-0.248868
2914491,0.98,-1.5709,-0.523143,-8.61527e-05,-2.09594,1.57005,1.57028,0.785751,-1.5708,-0.523599,4.17901e-08,-2.09439,1.5708,1.5708,0.785398,-0.000195331,-0.000268277,0.000225654,0.00110364,0.000374001,-7.78532e-05,0.00154696,0,0,0,0,0,0,0,0.0256461,-9.85995,-0.381406,20.9201,1.25459,0.406703,-0.329397,0.0216189,-0.771463,0.0279351,2.42037,0.69312,0.405903,-0.248891
2914492,0.98,-1.5709,-0.52314,-8.92435e-05,-2.09594,1.57005,1.57028,0.785745,-1.5708,-0.523599,4.17901e-08,-2.09439,1.5708,1.5708,0.785398,-0.000130221,0.00102757,-0.000406376,0.00129257,-0.000157567,-5.19021e-05,-0.00110493,0,0,0,0,0,0,0,0.0256461,-9.91153,-0.357602,20.8963,1.26558,0.406703,-0.271719,0.021526,-0.767963,0.0280679,2.41836,0.693111,0.405892,-0.248898
2914493,0.98,-1.5709,-0.523141,-8.97169e-05,-2.09594,1.57005,1.57028,0.785752,-1.5708,-0.523599,4.17901e-08,-2.09439,1.5708,1.5708,0.785398,-0.000643626,0.000128238,-0.000270917,-0.000901522,-0.000105045,-3.46014e-05,0.00167088,0,0,0,0,0,0,0,0.0494498,-9.88773,-0.357602,20.9717,1.26558,0.406703,-0.336721,0.0220769,-0.766923,0.0291618,2.41716,0.693099,0.405757,-0.248907
2914494,0.98,-1.5709,-0.523141,-8.98748e-05,-2.09594,1.57005,1.57028,0.785745,-1.5708,-0.523599,4.17901e-08,-2.09439,1.5708,1.5708,0.785398,-0.000985896,8.54919e-05,-0.000180611,4.85996e-05,-7.00297e-05,0.00045165,-0.00105622,0,0,0,0,0,0,0,0.0732535,-9.88773,-0.357602,20.9439,1.26558,0.393885,-0.278127,0.0233488,-0.768042,0.0312105,2.4174,0.693121,0.405505,-0.248932
2914495,0.98,-1.5709,-0.523138,-8.82569e-05,-2.09595,1.57005,1.57028,0.785743,-1.5708,-0.523599,4.17901e-08,-2.09439,1.5708,1.5708,0.785398,-0.000100452,0.00117062,0.000436404,-0.000617214,-4.66865e-05,6.37412e-05,-0.00141622,0,0,0,0,0,0,0,0.0494498,-9.93533,-0.381406,20.9717,1.26558,0.400294,-0.258901,0.0247973,-0.770685,0.0333204,2.41876,0.693194,0.405224,-0.248981
2914496,0.98,-1.5709,-0.523141,-8.82745e-05,-2.09594,1.57005,1.57028,0.785745,-1.5708,-0.523599,4.17901e-08,-2.09439,1.5708,1.5708,0.785398,-6.69679e-05,-0.000333212,0.000290936,0.000238138,0.000375777,-0.000432224,-0.00046943,0,0,0,0,0,0,0,0.0494498,-9.88773,-0.381406,20.9439,1.25459,0.413112,-0.271719,0.0256126,-0.774284,0.0343208,2.4207,0.693323,0.405038,-0.249025
2914497,0.98,-1.5709,-0.523138,-8.99507e-05,-2.09594,1.57005,1.57028,0.785748,-1.5708,-0.523599,4.17901e-08,-2.09439,1.5708,1.5708,0.785398,-4.46453e-05,0.000891483,-0.000362854,0.000158759,-0.000156383,0.000186569,0.000873841,0,0,0,0,0,0,0,0.0494498,-9.93533,-0.357602,20.9439,1.26558,0.400294,-0.303762,0.0259153,-0.77726,0.0344732,2.42223,0.693452,0.404949,-0.249014
2914498,0.98,-1.5709,-0.523141,-8.99527e-05,-2.09594,1.57005,1.57028,0.78575,-1.5708,-0.523599,4.17901e-08,-2.09439,1.5708,1.5708,0.785398,0.00173347,-0.000519302,-0.000241903,-0.000543775,9.9195e-05,0.000361738,0.00105728,0,0,0,0,0,0,0,-0.0259286,-9.88773,-0.357602,20.9717,1.26009,0.393885,-0.31658,0.0259358,-0.779346,0.0342674,2.42327,0.69356,0.40492,-0.248943
2914499,0.98,-1.57091,-0.523141,-8.97717e-05,-2.09595,1.57005,1.57028,0.785745,-1.5708,-0.523599,4.17901e-08,-2.09439,1.5708,1.5708,0.785398,-0.000607588,-0.000346201,-0.000810883,-0.000919329,0.000473031,-0.000470918,-0.00095666,0,0,0,0,0,0,0,0.0494498,-9.88773,-0.329831,20.9955,1.2491,0.413112,-0.271719,0.0258041,-0.780323,0.0339842,2.42408,0.69365,0.40493,-0.248853
2914500,0.98,-1.5709,-0.523138,-8.54424e-05,-2.09594,1.57005,1.57028,0.785742,-1.5708,-0.523599,4.17901e-08,-2.09439,1.5708,1.5708,0.785398,0.000801367,0.000882823,0.000665837,0.00059354,-0.000294998,-0.000313945,-0.00158721,0,0,0,0,0,0,0,-0.00212494,-9.93533,-0.381406,20.9439,1.26558,0.413112,-0.246084,0.0257417,-0.780711,0.0338542,2.42476,0.693722,0.40494,-0.248767
2914501,0.98,-1.5709,-0.523138,-8.73363e-05,-2.09594,1.57005,1.57028,0.785748,-1.5708,-0.523599,4.17901e-08,-2.09439,1.5708,1.5708,0.785398,-0.000115369,0.000588549,0.000443892,0.000395693,6.78551e-06,0.000265421,0.00107809,0,0,0,0,0,0,0,0.0256461,-9.93533,-0.381406,20.9439,1.26009,0.400294,-0.303762,0.0252038,-0.781747,0.0329658,2.42534,0.693792,0.40501,-0.248655
2914502,0.98,-1.57091,-0.523138,-8.79676e-05,-2.09595,1.57005,1.57028,0.78575,-1.5708,-0.523599,4.17901e-08,-2.09439,1.5708,1.5708,0.785398,-0.000633725,0.000392366,0.000295928,-0.00094263,-0.000639736,-0.000297771,0.00119345,0,0,0,0,0,0,0,0.0494498,-9.93533,-0.381406,20.9955,1.27748,0.413112,-0.31658,0.0244201,-0.783549,0.0315957,2.42609,0.69387,0.405107,-0.24849
2914503,0.98,-1.5709,-0.52314,-8.60475e-05,-2.09594,1.57005,1.57028,0.785745,-1.5708,-0.523599,4.17901e-08,-2.09439,1.5708,1.5708,0.785398,0.000134329,-0.000295235,0.000197285,0.000578006,0.00042122,-0.000198514,-0.000628524,0,0,0,0,0,0,0,0.0256461,-9.91153,-0.381406,20.9439,1.25459,0.413112,-0.278127,0.0239824,-0.785076,0.0306287,2.42685,0.693942,0.405167,-0.248307
2914504,0.98,-1.5709,-0.523141,-8.55891e-05,-2.09594,1.57005,1.57028,0.785745,-1.5708,-0.523599,4.17901e-08,-2.09439,1.5708,1.5708,0.785398,0.000739166,-0.000753635,0.000781137,0.000385337,0.000484264,0.000105016,-0.000419016,0,0,0,0,0,0,0,-0.00212494,-9.88773,-0.409177,20.9439,1.2491,0.406703,-0.278127,0.0233415,-0.784191,0.0293625,2.42631,0.693979,0.405304,-0.248137
2914505,0.98,-1.5709,-0.523141,-8.97053e-05,-2.09595,1.57005,1.57028,0.785743,-1.5708,-0.523599,4.17901e-08,-2.09439,1.5708,1.5708,0.785398,-0.000713648,-0.000502423,-0.000685668,-0.000392723,-8.40586e-05,7.0011e-05,-0.00122878,0,0,0,0,0,0,0,0.0494498,-9.88773,-0.357602,20.9717,1.26009,0.406703,-0.252493,0.0226456,-0.780845,0.0280562,2.42448,0.693969,0.405494,-0.247974
2914506,0.98,-1.5709,-0.523143,-8.98709e-05,-2.09594,1.57005,1.57028,0.78575,-1.5708,-0.523599,4.17901e-08,-2.09439,1.5708,1.5708,0.785398,8.10464e-05,-0.000984563,-0.000457112,0.000387799,0.000350862,4.6674e-05,0.0015544,0,0,0,0,0,0,0,0.0256461,-9.85995,-0.357602,20.9439,1.2491,0.406703,-0.31658,0.0229086,-0.7764,0.0282151,2.42226,0.693894,0.405564,-0.247791
2914507,0.98,-1.57091,-0.52314,-8.99261e-05,-2.09595,1.57005,1.57028,0.785748,-1.5708,-0.523599,4.17901e-08,-2.09439,1.5708,1.5708,0.785398,-0.000502781,0.000550051,-0.000304741,-0.000391081,-0.000376444,3.1116e-05,0.000324192,0,0,0,0,0,0,0,0.0494498,-9.91153,-0.357602,20.9717,1.26558,0.406703,-0.297354,0.0240379,-0.772315,0.0296987,2.42026,0.693772,0.405506,-0.247579
2914508,0.98,-1.5709,-0.523138,-8.8274e-05,-2.09595,1.57005,1.57028,0.785748,-1.5708,-0.523599,4.17901e-08,-2.09439,1.5708,1.5708,0.785398,0.00142805,0.000923512,0.000353651,0.000388893,0.000155939,2.0744e-05,0.000453487,0,0,0,0,0,0,0,-0.0259286,-9.93533,-0.381406,20.9439,1.25459,0.406703,-0.303762,0.0249061,-0.771051,0.0308307,2.4196,0.693686,0.405452,-0.247371
2914509,0.98,-1.5709,-0.523141,-8.82802e-05,-2.09594,1.57005,1.57028,0.785746,-1.5708,-0.523599,4.17901e-08,-2.09439,1.5708,1.5708,0.785398,-0.000254392,-0.000497949,0.000235767,-0.000390352,-9.94914e-05,-0.00022353,-0.000409752,0,0,0,0,0,0,0,0.0256461,-9.88773,-0.381406,20.9717,1.26009,0.413112,-0.284536,0.0248178,-0.772105,0.030598,2.42003,0.693657,0.405509,-0.247195
2914510,0.98,-1.5709,-0.52314,-8.82822e-05,-2.09594,1.57005,1.57028,0.785744,-1.5708,-0.523599,4.17901e-08,-2.09439,1.5708,1.5708,0.785398,-0.000169595,0.000224846,0.000157178,0.000389379,-6.63276e-05,8.83392e-05,-0.000985245,0,0,0,0,0,0,0,0.0256461,-9.91153,-0.381406,20.9439,1.26009,0.406703,-0.26531,0.0243705,-0.772999,0.0298174,2.42041,0.693637,0.405622,-0.247052
2914511,0.98,-1.5709,-0.523141,-8.6334e-05,-2.09594,1.57005,1.57028,0.785749,-1.5708,-0.523599,4.17901e-08,-2.09439,1.5708,1.5708,0.785398,-0.00122669,-0.000406915,0.000754399,-0.000390028,0.000159232,-0.000178466,0.00100468,0,0,0,0,0,0,0,0.0732535,-9.88773,-0.409177,20.9717,1.25459,0.413112,-0.310171,0.0242326,-0.773286,0.0293473,2.42054,0.693603,0.4057,-0.246924
2914512,0.98,-1.5709,-0.52314,-8.82831e-05,-2.09595,1.57005,1.57028,0.785751,-1.5708,-0.523599,4.17901e-08,-2.09439,1.5708,1.5708,0.785398,0.000945446,0.000285536,-0.000146681,-0.00081683,-9.72958e-05,0.000118382,0.00138187,0,0,0,0,0,0,0,-0.00212494,-9.91153,-0.381406,20.9955,1.26009,0.406703,-0.329397,0.0242116,-0.77377,0.0289109,2.42101,0.693578,0.405768,-0.246797
2914513,0.98,-1.5709,-0.523141,-9.19025e-05,-2.09594,1.57005,1.57028,0.785746,-1.5708,-0.523599,4.17901e-08,-2.09439,1.5708,1.5708,0.785398,0.00118711,-0.000366455,-0.00130421,0.000661872,0.000138587,7.8921e-05,-0.000740269,0,0,0,0,0,0,0,-0.0259286,-9.88773,-0.329831,20.9439,1.25459,0.406703,-0.284536,0.0241636,-0.774469,0.0286112,2.42172,0.693547,0.405843,-0.246697
2914514,0.98,-1.57091,-0.523138,-8.99537e-05,-2.09595,1.57005,1.57028,0.785744,-1.5708,-0.523599,4.17901e-08,-2.09439,1.5708,1.5708,0.785398,-0.00152864,0.000869321,-0.000219862,-0.000765178,-0.00031451,0.000289973,-0.00120559,0,0,0,0,0,0,0,0.0732535,-9.93533,-0.357602,20.9955,1.26558,0.400294,-0.26531,0.0247131,-0.775374,0.0294483,2.42238,0.693476,0.405821,-0.246653
2914515,0.98,-1.5709,-0.52314,-8.82832e-05,-2.09594,1.57005,1.57028,0.785746,-1.5708,-0.523599,4.17901e-08,-2.09439,1.5708,1.5708,0.785398,9.45283e-05,2.27351e-05,0.000410238,4.66935e-05,-0.000209673,0.000193315,-9.16496e-05,0,0,0,0,0,0,0,0.0256461,-9.91153,-0.381406,20.9717,1.26558,0.400294,-0.284536,0.0258772,-0.777337,0.0311248,2.42355,0.693411,0.405684,-0.246638
2914516,0.98,-1.5709,-0.523138,-8.42039e-05,-2.09595,1.57005,1.57028,0.785749,-1.5708,-0.523599,4.17901e-08,-2.09439,1.5708,1.5708,0.785398,6.30189e-05,0.000571969,0.000923106,3.1129e-05,-0.000139782,-0.000108482,0.000888336,0,0,0,0,0,0,0,0.0256461,-9.93533,-0.409177,20.9717,1.26558,0.406703,-0.310171,0.02638,-0.779753,0.031654,2.42493,0.693394,0.405627,-0.246609
2914517,0.98,-1.5709,-0.52314,-8.92435e-05,-2.09594,1.57005,1.57028,0.785749,-1.5708,-0.523599,4.17901e-08,-2.09439,1.5708,1.5708,0.785398,4.20126e-05,-0.000175499,-0.000591022,0.000670367,-9.31881e-05,-7.23214e-05,0.000592224,0,0,0,0,0,0,0,0.0256461,-9.91153,-0.357602,20.9439,1.26558,0.406703,-0.310171,0.0260872,-0.781364,0.0309659,2.42569,0.693395,0.405683,-0.246561
2914518,0.98,-1.5709,-0.523143,-8.60977e-05,-2.09594,1.57005,1.57028,0.785746,-1.5708,-0.5236,2.04032e-06,-2.09439,1.57079,1.57079,0.785403,2.80084e-05,-0.00132343,0.000812411,-0.000202703,0.000548226,0.000189145,-0.00055462,-0.00328195,-0.00161103,0.00199853,0.000274701,-0.00138488,-0.00150578,0.005,0.0256461,-9.85995,-0.409177,20.9717,1.2491,0.400294,-0.284536,0.0257042,-0.780638,0.0301703,2.42518,0.693367,0.405772,-0.246524
2914519,0.98,-1.57091,-0.523145,-8.62555e-05,-2.09594,1.57005,1.57028,0.785748,-1.57081,-0.523604,6.03738e-06,-2.09439,1.57079,1.57079,0.785413,-0.00109495,-0.0014391,0.000541607,0.000514479,-0.000685677,0.000126096,0.00034233,-0.00656391,-0.00322206,0.00399706,0.000549401,-0.00276976,-0.00301156,0.01,0.0732535,-9.83615,-0.409177,20.9439,1.27748,0.400294,-0.303762,0.0252726,-0.776295,0.0291895,2.42303,0.693303,0.405907,-0.24651
2914520,0.98,-1.5709,-0.523141,-8.25071e-05,-2.09594,1.57005,1.57028,0.78575,-1.57082,-0.523608,1.2033e-05,-2.09439,1.57079,1.57079,0.785428,0.000383656,0.000247029,0.000917884,-0.000306628,0.000187142,8.40643e-05,0.000940297,-0.00984586,-0.0048331,0.00599559,0.000824102,-0.00415465,-0.00451734,0.015,0.0256461,-9.88773,-0.432981,20.9717,1.26009,0.400294,-0.322988,0.0246939,-0.770573,0.027761,2.42036,0.693247,0.406071,-0.246516
2914521,0.98,-1.5709,-0.523138,-8.9053e-05,-2.09594,1.57005,1.57028,0.785747,-1.57083,-0.523615,2.00271e-05,-2.09439,1.57078,1.57078,0.785448,0.0014622,-0.00202682,-0.00180093,0.00545478,0.000124761,0.000530761,0.00766411,-0.0131278,-0.00644413,0.00799412,0.0010988,-0.00553953,-0.00602313,0.02,-0.0259286,-10.0623,-0.329831,20.9955,1.26009,0.387477,-0.26531,0.0241033,-0.76353,0.0264039,2.41627,0.693132,0.406226,-0.24655
2914522,0.98,-1.5709,-0.523136,-8.45611e-05,-2.09594,1.57005,1.57028,0.785746,-1.57085,-0.523623,3.00198e-05,-2.09439,1.57078,1.57077,0.785473,-0.000405178,-0.00101056,0.00190451,0.00456425,0.000693526,0.000116482,0.00394108,-0.0164098,-0.00805516,0.00999266,0.0013735,-0.00692441,-0.00752891,0.025,-0.101307,-10.3678,-0.329831,21.1185,1.24361,0.393885,-0.213125,0.0235288,-0.751396,0.0253505,2.40767,0.692826,0.406384,-0.246608
2914523,0.98,-1.57091,-0.523139,-8.00131e-05,-2.09595,1.57005,1.57028,0.785743,-1.57087,-0.523633,4.20109e-05,-2.09439,1.57077,1.57076,0.785503,-0.00316961,0.000470815,0.00348769,-0.000934884,0.00090316,0.000552372,0.00082714,-0.0196917,-0.00966619,0.0119912,0.0016482,-0.00830929,-0.00903469,0.03,-0.125111,-10.7209,-0.282224,21.3169,1.23171,0.381068,-0.149038,0.0223839,-0.739212,0.0231535,2.39833,0.692514,0.406583,-0.246629
2914524,0.98,-1.57091,-0.523147,-6.71909e-05,-2.09595,1.57005,1.57028,0.785747,-1.57089,-0.523644,5.60007e-05,-2.09439,1.57076,1.57075,0.785538,-0.00192611,-0.00327062,0.00647508,-0.000366355,0.000161297,0.00135159,0.00546024,-0.0229737,-0.0112772,0.0139897,0.0019229,-0.00969418,-0.0105405,0.035,-0.152882,-11.0224,-0.306028,21.4676,1.24361,0.354518,-0.141714,0.0194858,-0.732898,0.0176598,2.39365,0.692449,0.406935,-0.246497
2914525,0.98,-1.57092,-0.523163,-5.85708e-05,-2.09595,1.57005,1.57028,0.785758,-1.57091,-0.523657,7.19889e-05,-2.09438,1.57075,1.57074,0.785578,-0.00487305,-0.00545224,0.00683559,-0.000978234,0.000310982,0.000663703,0.0111871,-0.0262556,-0.0128883,0.0159882,0.0021976,-0.0110791,-0.0120463,0.04,-0.152882,-11.2247,-0.254453,21.666,1.23812,0.360926,-0.200308,0.0140724,-0.726903,0.00801432,2.39144,0.692542,0.407589,-0.246072
2914526,0.98,-1.57093,-0.523181,-4.38384e-05,-2.09595,1.57005,1.57028,0.785759,-1.57094,-0.523671,8.99757e-05,-2.09438,1.57073,1.57073,0.785623,-0.00694333,-0.00694498,0.0115433,-0.00221572,0.00044468,0.00115455,0.00696086,-0.0295376,-0.0144993,0.0179868,0.00247231,-0.0124639,-0.013552,0.045,-0.152882,-11.427,-0.254453,21.7652,1.23171,0.3417,-0.161856,0.006481,-0.716438,-0.00520567,2.38904,0.692661,0.408525,-0.245289
2914527,0.98,-1.57094,-0.523199,-3.35646e-05,-2.09595,1.57005,1.57028,0.785757,-1.57098,-0.523687,0.000109961,-2.09438,1.57072,1.57071,0.785673,-0.00473357,-0.00979321,0.0132346,-0.000174383,0.000499904,0.00124441,0.00790826,-0.0328195,-0.0161103,0.0199853,0.00274701,-0.0138488,-0.0150578,0.05,-0.176685,-11.554,-0.179074,21.8644,1.22621,0.328883,-0.103262,-0.00420644,-0.700521,-0.0232992,2.38553,0.69279,0.409869,-0.244159
2914528,0.98,-1.57095,-0.52321,-2.30139e-05,-2.09595,1.57005,1.57028,0.785758,-1.57102,-0.523706,0.000133504,-2.09438,1.5707,1.5707,0.785731,-0.00629399,-0.00871245,0.0115126,0.00184769,0.000129819,0.00130433,0.00500201,-0.0385621,-0.0189656,0.0235427,0.00323386,-0.0160497,-0.0174458,0.0581068,-0.204456,-11.8079,-0.103696,21.9397,1.23171,0.316066,-0.0712183,-0.0180978,-0.678808,-0.0456858,2.37929,0.692823,0.411597,-0.242674
2914529,0.98,-1.57096,-0.523226,-6.62098e-06,-2.09595,1.57004,1.57028,0.785771,-1.57106,-0.523728,0.000160604,-2.09437,1.57069,1.57068,0.785798,-0.00999423,-0.0100263,0.0146279,0.000232581,-0.000964615,0.00181899,0.00449687,-0.0443047,-0.0218208,0.0271001,0.00372072,-0.0182506,-0.0198339,0.0662136,-0.252064,-11.9825,-0.0798923,22.0151,1.26009,0.290431,-0.0840357,-0.0323624,-0.65539,-0.0676915,2.3714,0.692667,0.413205,-0.240786
2914530,0.98,-1.57098,-0.523235,1.02345e-05,-2.09595,1.57003,1.57028,0.785784,-1.57111,-0.523753,0.000191261,-2.09437,1.57067,1.57065,0.785872,-0.0132412,-0.0116006,0.0136724,-0.00159197,-0.00590208,0.00145002,0.00808793,-0.0500473,-0.0246761,0.0306575,0.00420757,-0.0204515,-0.0222219,0.0743204,-0.279835,-12.2602,-0.0521213,22.1143,1.27199,0.284022,-0.0840357,-0.0443651,-0.63486,-0.0856352,2.36503,0.692397,0.414229,-0.238464
2914531,0.98,-1.571,-0.523249,2.61265e-05,-2.09595,1.57003,1.57028,0.785791,-1.57117,-0.52378,0.000225476,-2.09436,1.57064,1.57063,0.785954,-0.0157653,-0.0128206,0.0149894,-0.000455376,-0.00433624,0.00191611,0.007257,-0.0557898,-0.0275313,0.0342149,0.00469442,-0.0226524,-0.0246099,0.0824272,-0.303639,-12.5418,0.0232571,22.2373,1.27199,0.258387,0.0130102,-0.052497,-0.618311,-0.0971278,2.36145,0.692065,0.414392,-0.235725
2914532,0.98,-1.57102,-0.523263,5.40323e-05,-2.09595,1.57003,1.57028,0.785805,-1.57123,-0.523811,0.000263249,-2.09436,1.57062,1.5706,0.786045,-0.0165267,-0.0148188,0.0183685,-0.00107387,-0.00618982,0.00270156,0.00814746,-0.0615324,-0.0303866,0.0377723,0.00518128,-0.0248533,-0.0269979,0.0905341,-0.379017,-12.9187,-0.000546589,22.4356,1.22621,0.219935,0.0780126,-0.0576894,-0.604756,-0.103342,2.3598,0.691703,0.41381,-0.232571
2914533,0.98,-1.57105,-0.523281,8.02818e-05,-2.09595,1.57002,1.57028,0.785827,-1.57129,-0.523844,0.000304578,-2.09435,1.57059,1.57057,0.786143,-0.0209498,-0.0152774,0.0227834,-0.00394818,-0.00287854,0.0032591,0.0132719,-0.067275,-0.0332418,0.0413297,0.00566813,-0.0270542,-0.029386,0.0986409,-0.430592,-13.3472,0.0232571,22.7332,1.17586,0.180568,0.149424,-0.0628866,-0.595134,-0.108805,2.36075,0.691435,0.412871,-0.228934
2914534,0.98,-1.57109,-0.523311,0.000112564,-2.09596,1.57001,1.57028,0.78586,-1.57137,-0.52388,0.000349465,-2.09435,1.57056,1.57054,0.78625,-0.0274674,-0.0220309,0.0272393,-0.00519683,-0.00619429,0.00359689,0.0176875,-0.0730175,-0.0360971,0.0448871,0.00615499,-0.0292551,-0.031774,0.106748,-0.478199,-13.6527,-0.000546589,23.0069,1.15297,0.142115,0.200693,-0.0692569,-0.588769,-0.115891,2.36507,0.691286,0.411718,-0.2247
2914535,0.98,-1.57114,-0.523344,0.000148795,-2.09595,1.57,1.57027,0.785891,-1.57145,-0.523919,0.00039791,-2.09434,1.57053,1.57051,0.786365,-0.0328456,-0.023955,0.0292592,-0.0036524,-0.0100938,0.00263529,0.0195411,-0.0787601,-0.0389523,0.0484445,0.00664184,-0.031456,-0.034162,0.114854,-0.50597,-13.9542,0.0232571,23.1815,1.16396,0.135707,0.297739,-0.0756988,-0.579542,-0.123474,2.37002,0.691044,0.410202,-0.219731
2914536,0.98,-1.57118,-0.523385,0.000186995,-2.09595,1.56998,1.57025,0.785936,-1.57153,-0.523961,0.000449912,-2.09433,1.5705,1.57047,0.786488,-0.0389101,-0.0311845,0.0314751,-0.00234491,-0.0182414,-0.00532735,0.0317282,-0.0845027,-0.0418076,0.0520019,0.0071287,-0.0336569,-0.03655,0.122961,-0.581349,-14.1327,0.0232571,23.3561,1.19234,0.200709,0.362742,-0.0806472,-0.560954,-0.129102,2.3715,0.690426,0.408145,-0.213885
2914537,0.98,-1.57123,-0.523429,0.000230015,-2.09595,1.56996,1.57024,0.785983,-1.57162,-0.524006,0.000505471,-2.09433,1.57046,1.57043,0.786619,-0.045415,-0.0340401,0.0356546,0.000673023,-0.0194164,-0.00909455,0.0357624,-0.0902452,-0.0446628,0.0555593,0.00761555,-0.0358578,-0.0389381,0.131068,-0.708302,-14.2835,0.0470608,23.4314,1.22072,0.213527,0.440561,-0.0836302,-0.527976,-0.131805,2.36596,0.689235,0.405615,-0.207014
2914538,0.98,-1.57129,-0.523466,0.000279001,-2.09595,1.56993,1.57023,0.786051,-1.57172,-0.524054,0.00056579,-2.09432,1.57042,1.57039,0.78676,-0.0482103,-0.0366021,0.0393896,0.00331698,-0.020009,-0.0107209,0.0418894,-0.0977941,-0.0484689,0.0603193,0.00826458,-0.038527,-0.041828,0.140905,-0.807484,-14.5374,0.0470608,23.479,1.24361,0.194301,0.427744,-0.0859967,-0.481165,-0.133263,2.35246,0.687474,0.402906,-0.198999
2914539,0.98,-1.57136,-0.523502,0.000333219,-2.09594,1.56991,1.57022,0.786129,-1.57182,-0.524106,0.00063087,-2.09431,1.57038,1.57034,0.786911,-0.0532387,-0.0386362,0.0427304,0.00519646,-0.0188161,-0.0112426,0.0563121,-0.105343,-0.052275,0.0650793,0.0089136,-0.0411961,-0.0447179,0.150742,-0.910633,-14.7913,0.0232571,23.5306,1.22072,0.154933,0.388376,-0.0895788,-0.426505,-0.135549,2.33298,0.685293,0.400243,-0.189794
2914540,0.98,-1.57143,-0.523539,0.000385465,-2.09594,1.56988,1.57021,0.786217,-1.57194,-0.524162,0.000700709,-2.0943,1.57034,1.5703,0.787071,-0.0612486,-0.0402535,0.0432953,0.00542485,-0.0225656,-0.0108865,0.0681563,-0.112892,-0.0560812,0.0698393,0.00956263,-0.0438653,-0.0476078,0.160579,-0.958241,-15.0412,0.0748318,23.6298,1.19783,0.0908459,0.330698,-0.0932942,-0.371129,-0.136562,2.31105,0.682819,0.397341,-0.179489
2914541,0.98,-1.5715,-0.523573,0.000446697,-2.09594,1.56985,1.57019,0.786315,-1.57206,-0.524222,0.000775308,-2.09429,1.57029,1.57025,0.787242,-0.0653627,-0.0383579,0.0482988,0.00591788,-0.0244963,-0.0151901,0.0803446,-0.120441,-0.0598873,0.0745992,0.0102117,-0.0465345,-0.0504978,0.170416,-1.08519,-15.4221,0.0748318,23.7052,1.14748,0.0203503,0.297739,-0.0953299,-0.324864,-0.133438,2.29205,0.680217,0.39374,-0.168303
2914542,0.98,-1.57159,-0.523613,0.000513798,-2.09594,1.56982,1.57017,0.786428,-1.57219,-0.524286,0.000854668,-2.09428,1.57024,1.57019,0.787422,-0.0754558,-0.0405062,0.0526389,0.00338608,-0.0267968,-0.0145152,0.0900961,-0.12799,-0.0636934,0.0793592,0.0108607,-0.0492037,-0.0533877,0.180252,-1.08519,-15.799,0.0470608,23.9035,1.1136,-0.0318348,0.252878,-0.0963167,-0.297128,-0.127282,2.28155,0.677707,0.389327,-0.156516
2914543,0.98,-1.57169,-0.523667,0.000584699,-2.09594,1.56978,1.57015,0.786557,-1.57232,-0.524353,0.000938787,-2.09427,1.57019,1.57014,0.787612,-0.0809255,-0.0446275,0.0575352,0.00494314,-0.0340038,-0.0136286,0.101463,-0.135538,-0.0674995,0.0841192,0.0115097,-0.0518729,-0.0562776,0.190089,-1.13677,-16.0767,0.0748318,24.1019,1.1017,-0.0959217,0.194285,-0.0969435,-0.287852,-0.119564,2.28059,0.675336,0.384049,-0.144413
2914544,0.98,-1.57179,-0.523724,0.000660575,-2.09593,1.56974,1.57012,0.786695,-1.57246,-0.524425,0.00102767,-2.09425,1.57013,1.57008,0.787812,-0.0886904,-0.0469504,0.0615132,0.00411469,-0.0357768,-0.0147943,0.111944,-0.143087,-0.0713056,0.0888792,0.0121587,-0.0545421,-0.0591676,0.199926,-1.16057,-16.3822,0.0986355,24.2527,1.1191,-0.115148,0.240061,-0.0977415,-0.290448,-0.11124,2.28625,0.672982,0.377894,-0.132261
2914545,0.98,-1.5719,-0.523794,0.000743948,-2.09592,1.5697,1.57009,0.786838,-1.57261,-0.5245,0.00112131,-2.09424,1.57008,1.57002,0.788022,-0.0981021,-0.0535181,0.0712475,0.00534446,-0.0374887,-0.0180636,0.122972,-0.150636,-0.0751118,0.0936392,0.0128078,-0.0572113,-0.0620575,0.209763,-1.16057,-16.4814,0.0986355,24.3241,1.14748,-0.0638782,0.330698,-0.100129,-0.298232,-0.104724,2.29533,0.670534,0.371085,-0.120275
2914546,0.98,-1.57202,-0.523864,0.000827775,-2.09592,1.56966,1.57005,0.786991,-1.57277,-0.524579,0.0012197,-2.09423,1.57002,1.56995,0.788241,-0.106875,-0.0571654,0.0742555,0.002321,-0.0380867,-0.0302156,0.134687,-0.158185,-0.0789179,0.0983992,0.0134568,-0.0598805,-0.0649474,0.2196,-1.18834,-16.6083,0.15021,24.4272,1.16396,0.000208706,0.453379,-0.105258,-0.305193,-0.102222,2.30547,0.667943,0.363994,-0.108531
2914547,0.98,-1.57215,-0.523937,0.000914448,-2.09591,1.56961,1.57001,0.787167,-1.57294,-0.524662,0.00132286,-2.09421,1.56996,1.56988,0.788471,-0.111128,-0.0599066,0.0809307,0.00460234,-0.038992,-0.0331643,0.15501,-0.165734,-0.082724,0.103159,0.0141058,-0.0625497,-0.0678373,0.229437,-1.21215,-16.7353,0.15021,24.4748,1.19234,0.0331677,0.485422,-0.113697,-0.310631,-0.104303,2.31668,0.665229,0.356967,-0.0969302
2914548,0.98,-1.57229,-0.524005,0.000998806,-2.0959,1.56955,1.56997,0.787359,-1.57311,-0.524749,0.0014317,-2.0942,1.56989,1.56981,0.788711,-0.121686,-0.0631728,0.0821314,0.00728247,-0.0450151,-0.0376649,0.169183,-0.174569,-0.0872464,0.108832,0.0148771,-0.0654742,-0.0709971,0.240165,-1.18834,-16.9376,0.300967,24.4748,1.23812,0.000208706,0.472605,-0.124673,-0.315632,-0.109197,2.32822,0.662382,0.350068,-0.0852746
2914549,0.98,-1.57242,-0.524078,0.0010965,-2.0959,1.5695,1.56992,0.787564,-1.5733,-0.524841,0.0015462,-2.09418,1.56982,1.56974,0.788962,-0.128508,-0.0655712,0.0901837,0.0073527,-0.0429218,-0.0461422,0.179449,-0.183403,-0.0917688,0.114505,0.0156483,-0.0683987,-0.0741568,0.250892,-1.21215,-17.1399,0.300967,24.5502,1.23812,-0.0254261,0.440561,-0.136419,-0.320506,-0.114125,2.33881,0.659409,0.343195,-0.0733967
2914550,0.98,-1.57258,-0.524153,0.00119955,-2.09589,1.56945,1.56987,0.787784,-1.57349,-0.524937,0.00166638,-2.09417,1.56975,1.56966,0.789223,-0.138893,-0.0643692,0.0923679,0.00784741,-0.0443005,-0.0475343,0.192302,-0.192238,-0.0962912,0.120178,0.0164196,-0.0713232,-0.0773165,0.26162,-1.13677,-17.3423,0.328738,24.5978,1.18685,-0.0574695,0.414011,-0.148015,-0.331015,-0.11786,2.35095,0.656486,0.336267,-0.0612587
2914551,0.98,-1.57274,-0.524232,0.00130216,-2.09588,1.5694,1.56982,0.788028,-1.57369,-0.525038,0.00179223,-2.09415,1.56968,1.56958,0.789496,-0.147607,-0.0697791,0.0954209,0.0115647,-0.0453859,-0.0480505,0.207904,-0.201073,-0.100814,0.12585,0.0171909,-0.0742476,-0.0804763,0.272348,-1.16057,-17.5446,0.42792,24.6494,1.13008,-0.108739,0.337107,-0.157023,-0.35106,-0.116833,2.36597,0.653645,0.328841,-0.0489324
2914552,0.98,-1.57292,-0.524318,0.00141584,-2.09587,1.56934,1.56976,0.78828,-1.5739,-0.525143,0.00192375,-2.09413,1.5696,1.5695,0.789779,-0.155969,-0.076544,0.0996522,0.0128005,-0.0498016,-0.0538312,0.227222,-0.209907,-0.105336,0.131523,0.0179621,-0.0771721,-0.083636,0.283076,-1.109,-17.7707,0.451724,24.7486,1.04585,-0.140783,0.272104,-0.161428,-0.372226,-0.108002,2.37918,0.650627,0.320631,-0.0365533
2914553,0.98,-1.5731,-0.524404,0.00153951,-2.09586,1.56929,1.56971,0.788547,-1.57412,-0.525253,0.00206095,-2.09411,1.56952,1.56941,0.790073,-0.165638,-0.0809771,0.106035,0.00978319,-0.0558546,-0.0571761,0.242093,-0.218742,-0.109858,0.137196,0.0187334,-0.0800966,-0.0867957,0.293803,-1.03362,-18.0246,0.451724,24.8993,1.02297,-0.192968,0.240061,-0.162498,-0.386615,-0.0935134,2.38796,0.647304,0.311883,-0.0243194
2914554,0.98,-1.57329,-0.524501,0.00165613,-2.09585,1.56922,1.56964,0.788817,-1.57435,-0.525367,0.00220382,-2.09409,1.56944,1.56932,0.790377,-0.175039,-0.0852697,0.111704,0.00928618,-0.0572849,-0.0566616,0.249488,-0.227577,-0.114381,0.142869,0.0195047,-0.0830211,-0.0899554,0.304531,-1.00982,-18.227,0.53107,24.9707,1.04585,-0.212194,0.304148,-0.161863,-0.396517,-0.076513,2.39556,0.643752,0.302757,-0.0124557
2914555,0.98,-1.57349,-0.524602,0.00177938,-2.09584,1.56915,1.56957,0.789095,-1.57458,-0.525486,0.00235236,-2.09407,1.56935,1.56923,0.790692,-0.187262,-0.0899757,0.116359,0.0108566,-0.0636852,-0.0631398,0.259821,-0.236411,-0.118903,0.148541,0.0202759,-0.0859456,-0.0931152,0.315259,-1.03362,-18.3777,0.630252,25.0977,1.09072,-0.166417,0.381968,-0.159427,-0.404686,-0.0575543,2.40376,0.639956,0.293139,-0.0010997
2914556,0.97,-1.5737,-0.524704,0.00192757,-2.09583,1.56908,1.56949,0.789386,-1.57483,-0.52561,0.00250657,-2.09405,1.56926,1.56913,0.791018,-0.195829,-0.0946637,0.12512,0.0126936,-0.066815,-0.0691276,0.263002,-0.245246,-0.123426,0.154214,0.0210472,-0.0888701,-0.0962749,0.325987,-1.08519,-18.6078,0.503299,25.1969,1.09621,-0.089513,0.440561,-0.155577,-0.410042,-0.0375818,2.41104,0.635877,0.283136,0.00978377
2914557,0.97,-1.57391,-0.524812,0.00206838,-2.09582,1.56901,1.56942,0.789693,-1.57508,-0.525738,0.00266646,-2.09403,1.56917,1.56903,0.791355,-0.203409,-0.0999492,0.130368,0.0140179,-0.0658359,-0.0696791,0.276951,-0.25408,-0.127948,0.159887,0.0218185,-0.0917946,-0.0994346,0.336714,-1.109,-18.7586,0.554873,25.2961,1.14198,-0.108739,0.466196,-0.152954,-0.410853,-0.0204067,2.41567,0.631583,0.273275,0.0203523
2914558,0.97,-1.57415,-0.524922,0.00221925,-2.0958,1.56893,1.56935,0.790022,-1.57535,-0.525871,0.00283269,-2.09401,1.56907,1.56893,0.791703,-0.212539,-0.106562,0.137878,0.0135961,-0.0739452,-0.0728189,0.290127,-0.263787,-0.132999,0.166236,0.0226801,-0.0948435,-0.102722,0.347821,-1.08519,-18.9331,0.578677,25.3199,1.18685,-0.186559,0.362742,-0.153444,-0.40576,-0.00846209,2.41706,0.627184,0.263955,0.0307779
2914559,0.97,-1.57439,-0.525034,0.00237662,-2.09579,1.56885,1.56927,0.790362,-1.57562,-0.526009,0.00300528,-2.09398,1.56898,1.56882,0.792062,-0.221909,-0.106746,0.141299,0.0169654,-0.074121,-0.0726183,0.306924,-0.273494,-0.13805,0.172585,0.0235417,-0.0978923,-0.10601,0.358929,-1.109,-19.1632,0.578677,25.3199,1.18685,-0.212194,0.349924,-0.156374,-0.397548,-0.000501075,2.41654,0.62282,0.255064,0.0411412
2914560,0.97,-1.57464,-0.525152,0.00253727,-2.09578,1.56877,1.56918,0.790711,-1.5759,-0.526152,0.00318421,-2.09396,1.56888,1.56871,0.792432,-0.23189,-0.110884,0.147466,0.0155095,-0.0723366,-0.0733969,0.322667,-0.283201,-0.143102,0.178934,0.0244033,-0.100941,-0.109298,0.370036,-1.13677,-19.3378,0.554873,25.3437,1.13008,-0.212194,0.272104,-0.159497,-0.394002,0.0070362,2.41724,0.618611,0.2461,0.0513741
2914561,0.97,-1.5749,-0.525269,0.0026979,-2.09577,1.56869,1.56909,0.791069,-1.5762,-0.5263,0.0033695,-2.09393,1.56877,1.5686,0.792813,-0.239545,-0.109747,0.152619,0.0160951,-0.0721928,-0.0775442,0.330627,-0.292908,-0.148153,0.185283,0.0252649,-0.10399,-0.112586,0.381143,-1.21215,-19.5917,0.630252,25.4428,1.1017,-0.244237,0.278513,-0.161868,-0.40365,0.0157453,2.42333,0.614682,0.236779,0.0613332
2914562,0.97,-1.57517,-0.525394,0.0028663,-2.09576,1.56861,1.569,0.791445,-1.5765,-0.526453,0.00356113,-2.09391,1.56866,1.56848,0.793205,-0.250962,-0.11576,0.154888,0.0164511,-0.0759164,-0.0815186,0.343546,-0.302615,-0.153204,0.191632,0.0261265,-0.107039,-0.115873,0.39225,-1.13677,-19.8178,0.658023,25.542,1.05135,-0.257054,0.252878,-0.162819,-0.430453,0.0269537,2.43693,0.611034,0.226965,0.0708839
2914563,0.97,-1.57546,-0.525521,0.00304666,-2.09575,1.56852,1.56891,0.79183,-1.57681,-0.526611,0.00375911,-2.09388,1.56855,1.56837,0.793609,-0.259911,-0.117249,0.163465,0.017108,-0.0746078,-0.0839116,0.359694,-0.312322,-0.158255,0.197981,0.0269882,-0.110088,-0.119161,0.403357,-1.00982,-20.0479,0.658023,25.6174,1.01106,-0.282689,0.175059,-0.161486,-0.471501,0.0421031,2.45661,0.607497,0.216563,0.0799317
2914564,0.97,-1.57574,-0.52566,0.00323081,-2.09573,1.56842,1.56881,0.792216,-1.57713,-0.526775,0.00396344,-2.09385,1.56844,1.56824,0.794023,-0.27287,-0.123658,0.169178,0.0177799,-0.0843486,-0.0907947,0.365143,-0.322029,-0.163306,0.20433,0.0278498,-0.113137,-0.122449,0.414464,-1.08519,-20.1749,0.681826,25.6928,1.00557,-0.301915,0.240061,-0.158868,-0.521965,0.0591351,2.48019,0.603957,0.20579,0.0884027
2914565,0.97,-1.57605,-0.52581,0.00341632,-2.09572,1.56832,1.56871,0.792611,-1.57746,-0.526943,0.00417412,-2.09382,1.56832,1.56812,0.794449,-0.283114,-0.129768,0.174144,0.0127464,-0.0921484,-0.0974484,0.37966,-0.331736,-0.168357,0.210679,0.0287114,-0.116185,-0.125737,0.425571,-1.109,-20.2503,0.681826,25.8673,1.01747,-0.269872,0.316965,-0.155163,-0.576781,0.0770739,2.50658,0.600361,0.194793,0.0962468
2914566,0.97,-1.57636,-0.525959,0.00361238,-2.09571,1.56822,1.56859,0.793021,-1.57781,-0.527116,0.00439115,-2.09379,1.56821,1.56799,0.794885,-0.292955,-0.134687,0.180483,0.0106002,-0.0987706,-0.103689,0.38605,-0.341443,-0.173409,0.217028,0.029573,-0.119234,-0.129024,0.436679,-1.00982,-20.2979,0.681826,25.9903,1.04585,-0.205785,0.394785,-0.150315,-0.633542,0.0958997,2.53701,0.596747,0.183663,0.103518
2914567,0.97,-1.57668,-0.526111,0.00381305,-2.0957,1.5681,1.56849,0.793451,-1.57816,-0.527295,0.00461452,-2.09376,1.56808,1.56786,0.795333,-0.30186,-0.136641,0.18706,0.0112539,-0.0995533,-0.104252,0.398594,-0.35115,-0.17846,0.223377,0.0304346,-0.122283,-0.132312,0.447786,-0.986012,-20.401,0.757205,26.0181,1.09621,-0.250646,0.401194,-0.145731,-0.694263,0.113671,2.57293,0.593207,0.172634,0.110397
2914568,0.97,-1.57702,-0.526267,0.00401917,-2.09568,1.56799,1.56838,0.793887,-1.57852,-0.527479,0.00484473,-2.09373,1.56796,1.56772,0.795792,-0.308567,-0.145937,0.192249,0.00967369,-0.104717,-0.104387,0.409238,-0.361401,-0.18389,0.230208,0.0313611,-0.125375,-0.135641,0.45896,-0.958241,-20.4526,0.832583,26.1173,1.14748,-0.308324,0.356333,-0.142808,-0.757423,0.128567,2.61252,0.589755,0.161948,0.117097
2914569,0.97,-1.57737,-0.52642,0.00423767,-2.09567,1.56787,1.56827,0.794335,-1.57889,-0.527668,0.00508177,-2.0937,1.56783,1.56758,0.796262,-0.320702,-0.147211,0.199481,0.00992032,-0.106672,-0.10695,0.420375,-0.371653,-0.18932,0.237039,0.0322876,-0.128468,-0.13897,0.470135,-0.910633,-20.6034,0.757205,26.1649,1.14748,-0.301915,0.316965,-0.141864,-0.819091,0.140268,2.65326,0.586421,0.151667,0.123758
2914570,0.97,-1.57772,-0.526582,0.00444638,-2.09565,1.56776,1.56815,0.79479,-1.57927,-0.527863,0.00532564,-2.09367,1.5677,1.56744,0.796744,-0.333659,-0.154,0.203915,0.0136657,-0.106797,-0.107641,0.433165,-0.381904,-0.19475,0.24387,0.0332141,-0.13156,-0.1423,0.48131,-0.958241,-20.7819,0.860354,26.1887,1.1136,-0.321141,0.349924,-0.140755,-0.878114,0.151579,2.69309,0.583184,0.141438,0.130393
2914571,0.97,-1.57809,-0.526752,0.00467222,-2.09564,1.56764,1.56803,0.795262,-1.57966,-0.528063,0.00557634,-2.09363,1.56756,1.56729,0.797236,-0.339266,-0.157807,0.208559,0.0132347,-0.107472,-0.111536,0.448901,-0.392156,-0.20018,0.250702,0.0341406,-0.134652,-0.145629,0.492485,-0.958241,-20.8811,0.884158,26.2165,1.09072,-0.366002,0.316965,-0.137452,-0.932478,0.165581,2.72928,0.579904,0.130957,0.136958
2914572,0.97,-1.57847,-0.526925,0.0049072,-2.09563,1.56753,1.56791,0.795749,-1.58007,-0.528269,0.00583388,-2.0936,1.56743,1.56714,0.79774,-0.355606,-0.164643,0.219066,0.0125627,-0.111026,-0.115351,0.459916,-0.402407,-0.20561,0.257533,0.0350671,-0.137745,-0.148958,0.50366,-0.807484,-21.0596,0.832583,26.3871,1.01747,-0.40537,0.278513,-0.132894,-0.981244,0.180999,2.76149,0.576578,0.120373,0.143421
2914573,0.97,-1.57886,-0.527105,0.00513882,-2.09561,1.5674,1.56778,0.796256,-1.58048,-0.52848,0.00609824,-2.09356,1.56728,1.56699,0.798255,-0.369065,-0.168638,0.222165,0.0117827,-0.116532,-0.118966,0.482132,-0.412659,-0.21104,0.264364,0.0359936,-0.140837,-0.152287,0.514834,-0.732105,-21.1826,0.907962,26.4386,1.01747,-0.424596,0.207102,-0.126518,-1.02609,0.197809,2.79159,0.57324,0.109575,0.149726
2914574,0.97,-1.57927,-0.527292,0.00537784,-2.0956,1.56727,1.56765,0.796756,-1.5809,-0.528696,0.00636943,-2.09353,1.56714,1.56684,0.798781,-0.380429,-0.173807,0.228332,0.0130296,-0.115187,-0.122871,0.487129,-0.42291,-0.21647,0.271195,0.0369201,-0.143929,-0.155616,0.526009,-0.680531,-21.3373,1.08649,26.5378,1.00008,-0.411779,0.226328,-0.11568,-1.06911,0.219479,2.82086,0.569747,0.0981156,0.155763
2914575,0.97,-1.57968,-0.527493,0.00563955,-2.09558,1.56714,1.56751,0.797271,-1.58133,-0.528918,0.00664746,-2.09349,1.56699,1.56668,0.799318,-0.392555,-0.180287,0.236356,0.0148414,-0.118856,-0.126656,0.495467,-0.433161,-0.2219,0.278026,0.0378467,-0.147021,-0.158945,0.537184,-0.529774,-21.3849,1.01111,26.6132,0.989092,-0.373326,0.291331,-0.100721,-1.10942,0.245651,2.84822,0.565956,0.0860534,0.161425
2914576,0.98,-1.58011,-0.527689,0.00589128,-2.09556,1.56701,1.56737,0.7978,-1.58178,-0.529145,0.00693232,-2.09345,1.56684,1.56652,0.799866,-0.402122,-0.184162,0.242559,0.0148348,-0.122431,-0.132603,0.50231,-0.443413,-0.22733,0.284858,0.0387732,-0.150114,-0.162274,0.548359,-0.454395,-21.4643,1.16187,26.7362,0.989092,-0.373326,0.323374,-0.0842318,-1.14536,0.27252,2.87244,0.561864,0.0738592,0.166703
2914577,0.98,-1.58053,-0.527889,0.00615154,-2.09554,1.56685,1.56724,0.798349,-1.58223,-0.529378,0.00722401,-2.09341,1.56669,1.56635,0.800426,-0.409364,-0.188687,0.247289,0.0172123,-0.132517,-0.129825,0.506633,-0.453664,-0.23276,0.291689,0.0396997,-0.153206,-0.165603,0.559533,-0.402821,-21.5872,1.3404,26.76,1.06783,-0.443822,0.310557,-0.068072,-1.17946,0.297703,2.89474,0.557573,0.0618446,0.171691
2914578,0.98,-1.58098,-0.528094,0.00642208,-2.09553,1.56671,1.56709,0.7989,-1.5827,-0.529617,0.00752285,-2.09337,1.56653,1.56618,0.800996,-0.423578,-0.197599,0.253939,0.0148498,-0.131978,-0.133917,0.517363,-0.464201,-0.238448,0.298842,0.0406707,-0.156291,-0.16892,0.570586,-0.327442,-21.7142,1.39197,26.8354,1.06233,-0.469457,0.304148,-0.0521406,-1.21163,0.321701,2.91559,0.553156,0.049998,0.176499
2914579,0.98,-1.58143,-0.528312,0.00669974,-2.09551,1.56657,1.56695,0.799472,-1.58317,-0.529861,0.00782885,-2.09333,1.56637,1.56601,0.801578,-0.432707,-0.202814,0.258457,0.0161152,-0.13289,-0.137615,0.53073,-0.474738,-0.244137,0.305996,0.0416418,-0.159376,-0.172238,0.581638,-0.22826,-21.8174,1.43958,26.9107,1.09072,-0.488683,0.226328,-0.0350076,-1.23865,0.346687,2.93448,0.548622,0.0381597,0.181175
2914580,0.98,-1.58189,-0.528533,0.00697476,-2.09549,1.56642,1.56681,0.800063,-1.58366,-0.53011,0.008142,-2.09328,1.56621,1.56583,0.802171,-0.436879,-0.206695,0.26562,0.0140504,-0.135543,-0.137288,0.54755,-0.485274,-0.249826,0.31315,0.0426129,-0.162461,-0.175555,0.592691,-0.252064,-21.9165,1.61811,26.9861,1.04585,-0.592137,0.135691,-0.0177967,-1.26289,0.371468,2.95309,0.544103,0.0264495,0.185689
2914581,0.98,-1.58237,-0.528752,0.00727347,-2.09548,1.56628,1.56666,0.80065,-1.58415,-0.530366,0.0084623,-2.09324,1.56605,1.56565,0.802774,-0.448935,-0.208834,0.274726,0.0122602,-0.137838,-0.139494,0.557264,-0.495811,-0.255515,0.320303,0.0435839,-0.165547,-0.178872,0.603743,-0.125111,-22.0673,1.64191,27.0615,1.00008,-0.636998,0.110056,-0.00384509,-1.29347,0.391333,2.97633,0.539937,0.0151514,0.18992
2914582,0.98,-1.58285,-0.528982,0.00758359,-2.09546,1.56613,1.5665,0.80126,-1.58466,-0.530627,0.00878976,-2.0932,1.56588,1.56547,0.803389,-0.467549,-0.213621,0.283151,0.0144801,-0.144169,-0.147385,0.570126,-0.506347,-0.261204,0.327457,0.044555,-0.168632,-0.18219,0.614796,-0.0497324,-22.1942,1.5943,27.1329,0.949724,-0.636998,0.0194189,0.00733898,-1.33652,0.405971,3.00715,0.536258,0.00403014,0.193701
2914583,0.98,-1.58334,-0.529216,0.00789465,-2.09544,1.56598,1.56634,0.801871,-1.58518,-0.530894,0.00912437,-2.09315,1.56571,1.56529,0.804015,-0.477032,-0.217315,0.294495,0.0131463,-0.145993,-0.147504,0.590555,-0.516884,-0.266893,0.334611,0.0455261,-0.171717,-0.185507,0.625848,-0.152882,-22.3212,1.5943,27.1845,0.955217,-0.656224,0.0322363,0.0177714,-1.39111,0.417002,3.04428,0.532927,-0.00725469,0.196872
2914584,0.98,-1.58385,-0.52945,0.0082112,-2.09541,1.56582,1.56617,0.802489,-1.5857,-0.531167,0.00946613,-2.0931,1.56553,1.5651,0.804652,-0.484198,-0.224003,0.299327,0.0153914,-0.152146,-0.159442,0.602491,-0.52742,-0.272582,0.341764,0.0464971,-0.174802,-0.188824,0.636901,-0.22826,-22.4243,1.56653,27.2361,0.955217,-0.592137,0.0459692,0.0257866,-1.45295,0.422118,3.0852,0.529786,-0.0184283,0.199307
2914585,0.98,-1.58435,-0.529697,0.00854184,-2.0954,1.56565,1.566,0.803121,-1.58624,-0.531445,0.00981505,-2.09306,1.56535,1.56491,0.8053,-0.485688,-0.229852,0.312761,0.0151386,-0.158213,-0.159876,0.604049,-0.537957,-0.278271,0.348918,0.0474682,-0.177887,-0.192141,0.647953,-0.379017,-22.472,1.41577,27.359,0.989092,-0.520726,0.103647,0.0263584,-1.5155,0.415393,3.12646,0.526774,-0.0286473,0.200985
2914586,0.98,-1.58487,-0.529949,0.00888437,-2.09537,1.56547,1.56583,0.80374,-1.58679,-0.531729,0.0101711,-2.09301,1.56517,1.56471,0.805959,-0.49627,-0.235032,0.317166,0.0173893,-0.164287,-0.166654,0.607935,-0.548494,-0.28396,0.356071,0.0484393,-0.180973,-0.195459,0.659006,-0.529774,-22.4997,1.3642,27.3828,1.07332,-0.527135,0.265696,0.0156991,-1.5743,0.392396,3.16561,0.523927,-0.0372412,0.202011
2914587,0.98,-1.58539,-0.530209,0.00922892,-2.09535,1.5653,1.56565,0.804392,-1.58735,-0.532019,0.0105343,-2.09296,1.56499,1.56451,0.806629,-0.507593,-0.242085,0.323398,0.0197113,-0.166578,-0.166834,0.615751,-0.55903,-0.289649,0.363225,0.0494103,-0.184058,-0.198776,0.670058,-0.680531,-22.5235,1.31262,27.3828,1.10719,-0.539952,0.316965,-0.00236509,-1.62679,0.359348,3.20074,0.521118,-0.0446683,0.202601
2914588,0.98,-1.58592,-0.530475,0.00959067,-2.09533,1.56513,1.56546,0.805052,-1.58792,-0.532314,0.0109049,-2.09291,1.5648,1.56431,0.80731,-0.509931,-0.247923,0.335627,0.0213344,-0.165732,-0.173496,0.642904,-0.569647,-0.295501,0.370569,0.0504098,-0.187104,-0.202049,0.680873,-0.831288,-22.5235,1.08649,27.5058,1.07973,-0.495092,0.310557,-0.0251987,-1.66974,0.320617,3.22966,0.518264,-0.0512406,0.203065
2914589,0.98,-1.58647,-0.530739,0.0099482,-2.0953,1.56496,1.56527,0.805732,-1.5885,-0.532615,0.0112828,-2.09286,1.56461,1.5641,0.808001,-0.519614,-0.251635,0.34266,0.0213123,-0.169772,-0.1795,0.653254,-0.580264,-0.301353,0.377913,0.0514092,-0.19015,-0.205322,0.691688,-1.00982,-22.5473,1.03491,27.5574,1.03395,-0.437413,0.259287,-0.0559901,-1.70494,0.271897,3.25361,0.515572,-0.0564687,0.203684
2914590,0.99,-1.58701,-0.531009,0.0103156,-2.09528,1.56479,1.56508,0.806422,-1.58909,-0.532923,0.0116681,-2.0928,1.56442,1.5639,0.808704,-0.520983,-0.25423,0.357307,0.0221246,-0.16899,-0.185732,0.653545,-0.590881,-0.307205,0.385257,0.0524086,-0.193196,-0.208594,0.702502,-1.21215,-22.5473,1.06269,27.5812,1.01106,-0.450231,0.240061,-0.0977352,-1.74018,0.208916,3.27709,0.513318,-0.0599091,0.204602
2914591,0.99,-1.58758,-0.531275,0.0106916,-2.09526,1.56461,1.56488,0.80711,-1.58969,-0.533236,0.0120607,-2.09275,1.56422,1.56368,0.809417,-0.531891,-0.260109,0.363035,0.024221,-0.171507,-0.185321,0.669791,-0.601498,-0.313057,0.392601,0.053408,-0.196242,-0.211867,0.713317,-1.16057,-22.6743,1.01111,27.6804,0.949724,-0.469457,0.226328,-0.151551,-1.78017,0.13018,3.30261,0.511582,-0.0614183,0.205833
2914592,0.99,-1.58817,-0.53156,0.0110878,-2.09523,1.56442,1.56469,0.807808,-1.5903,-0.533555,0.0124606,-2.0927,1.56402,1.56347,0.810141,-0.547904,-0.265816,0.370276,0.0262922,-0.174591,-0.184964,0.673547,-0.612115,-0.318909,0.399946,0.0544074,-0.199289,-0.21514,0.724131,-1.13677,-22.7497,0.959536,27.609,0.909441,-0.5015,0.284922,-0.210985,-1.82223,0.0451531,3.32852,0.510022,-0.0620137,0.207301
2914593,0.99,-1.58874,-0.531847,0.0114692,-2.09519,1.56424,1.56448,0.808538,-1.59093,-0.533879,0.0128679,-2.09264,1.56382,1.56325,0.810876,-0.558189,-0.269398,0.375651,0.0266137,-0.178026,-0.197497,0.688408,-0.622732,-0.324761,0.40729,0.0554068,-0.202335,-0.218413,0.734946,-1.21215,-22.8528,1.06269,27.5812,0.909441,-0.437413,0.200693,-0.266952,-1.86462,-0.0331963,3.35387,0.508201,-0.0630613,0.208945
2914594,0.99,-1.58935,-0.532153,0.0118762,-2.09516,1.56406,1.56425,0.809257,-1.59156,-0.53421,0.0132826,-2.09258,1.56361,1.56303,0.811622,-0.570883,-0.282683,0.387461,0.0287487,-0.17919,-0.208259,0.701068,-0.633349,-0.330614,0.414634,0.0564063,-0.205381,-0.221686,0.74576,-1.109,-22.7774,1.08649,27.609,0.86458,-0.340367,0.175059,-0.317518,-1.90248,-0.102312,3.37683,0.505855,-0.0646553,0.210734
2914595,0.99,-1.58996,-0.532465,0.0122848,-2.09512,1.56387,1.56403,0.809997,-1.5922,-0.534546,0.0137045,-2.09253,1.56341,1.5628,0.812379,-0.591702,-0.291772,0.388487,0.0277148,-0.177309,-0.213104,0.706372,-0.643966,-0.336466,0.421978,0.0574057,-0.208427,-0.224958,0.756575,-0.958241,-22.7021,1.21344,27.609,0.870073,-0.321141,0.213511,-0.36063,-1.92348,-0.159588,3.39227,0.502649,-0.066757,0.212578
2914596,0.99,-1.59058,-0.532769,0.0126999,-2.09509,1.56367,1.56382,0.810741,-1.59286,-0.534889,0.0141339,-2.09247,1.56319,1.56257,0.813146,-0.60159,-0.303794,0.396575,0.0291287,-0.182842,-0.216437,0.714884,-0.654583,-0.342318,0.429322,0.0584051,-0.211473,-0.228231,0.767389,-0.934437,-22.7497,1.28882,27.6566,0.943315,-0.424596,0.175059,-0.391094,-1.91972,-0.197701,3.39714,0.498283,-0.0698969,0.214373
2914597,0.99,-1.59122,-0.533094,0.0131212,-2.09505,1.56347,1.56361,0.811498,-1.59352,-0.535237,0.0145705,-2.09241,1.56298,1.56234,0.813924,-0.613739,-0.307538,0.400274,0.0319217,-0.194579,-0.213423,0.727791,-0.6652,-0.34817,0.436666,0.0594045,-0.214519,-0.231504,0.778204,-0.807484,-22.7021,1.28882,27.6328,0.966203,-0.572911,0.213511,-0.408566,-1.89305,-0.216031,3.39206,0.492858,-0.0741943,0.216077
2914598,0.99,-1.59186,-0.533418,0.0135461,-2.09501,1.56326,1.56339,0.812291,-1.5942,-0.535591,0.0150146,-2.09235,1.56276,1.56211,0.814713,-0.621821,-0.31176,0.414818,0.0336371,-0.198983,-0.215773,0.747671,-0.675737,-0.354109,0.444091,0.0604193,-0.217506,-0.234712,0.78871,-0.755909,-22.829,1.3642,27.6328,1.00008,-0.611364,0.110056,-0.418157,-1.85532,-0.222399,3.38157,0.486898,-0.0792946,0.217673
2914599,0.99,-1.59252,-0.533751,0.0139789,-2.09498,1.56305,1.56316,0.813068,-1.59488,-0.535951,0.0154661,-2.09229,1.56254,1.56187,0.815512,-0.627584,-0.322254,0.418142,0.0340894,-0.200814,-0.218869,0.755999,-0.686273,-0.360047,0.451516,0.0614342,-0.220493,-0.23792,0.799216,-0.656727,-22.829,1.49115,27.6566,0.994585,-0.604955,0.0844213,-0.426719,-1.81515,-0.227141,3.36948,0.480912,-0.0845565,0.219123
2914600,0.99,-1.59319,-0.534078,0.0144197,-2.09493,1.56284,1.56292,0.81386,-1.59558,-0.536317,0.0159251,-2.09223,1.56232,1.56163,0.816322,-0.636459,-0.32145,0.420998,0.038541,-0.201846,-0.221577,0.75992,-0.696809,-0.365986,0.458942,0.062449,-0.223479,-0.241128,0.809722,-0.529774,-23.0313,1.61811,27.6328,0.97719,-0.585729,0.09083,-0.436008,-1.77597,-0.231917,3.35701,0.475032,-0.0899219,0.220332
2914601,0.99,-1.59388,-0.534427,0.0148526,-2.09489,1.56263,1.56268,0.814671,-1.59629,-0.536689,0.0163914,-2.09216,1.56209,1.56139,0.817142,-0.655247,-0.327506,0.427052,0.0395052,-0.207065,-0.226964,0.791389,-0.707346,-0.371925,0.466367,0.0634638,-0.226466,-0.244337,0.820228,-0.303639,-22.9798,1.74506,27.5812,0.966203,-0.592137,0.143015,-0.441163,-1.74653,-0.22935,3.34712,0.469211,-0.0962464,0.221183
2914602,0.99,-1.59458,-0.534771,0.0153032,-2.09485,1.56242,1.56245,0.815474,-1.59701,-0.537067,0.0168652,-2.0921,1.56186,1.56114,0.817973,-0.669824,-0.332046,0.431369,0.036853,-0.206507,-0.234829,0.793556,-0.717882,-0.377864,0.473792,0.0644787,-0.229452,-0.247545,0.830734,-0.125111,-23.0551,1.94739,27.6804,0.943315,-0.598546,0.226328,-0.43678,-1.73291,-0.212876,3.34334,0.463437,-0.104262,0.221635
2914603,0.99,-1.59529,-0.535133,0.0157447,-2.09481,1.5622,1.5622,0.8163,-1.59773,-0.537451,0.0173464,-2.09203,1.56163,1.56089,0.818814,-0.684261,-0.336783,0.432273,0.0397813,-0.208419,-0.238814,0.795375,-0.728418,-0.383802,0.481217,0.0654935,-0.232439,-0.250753,0.84124,0.148632,-23.0313,2.17353,27.7082,0.859087,-0.560094,0.233652,-0.419099,-1.73598,-0.17777,3.34745,0.457656,-0.114342,0.221782
2914604,0.99,-1.596,-0.535495,0.0162021,-2.09477,1.56198,1.56195,0.817126,-1.59847,-0.53784,0.0178351,-2.09197,1.5614,1.56063,0.819666,-0.689188,-0.341111,0.434017,0.0415561,-0.210554,-0.240058,0.807743,-0.738954,-0.389741,0.488642,0.0665083,-0.235425,-0.253961,0.851746,0.200207,-23.0036,2.35205,27.7558,0.784929,-0.566503,0.259287,-0.387434,-1.75407,-0.122401,3.35811,0.451703,-0.126476,0.221808
2914605,0.99,-1.59674,-0.535867,0.0166678,-2.09472,1.56175,1.56171,0.817963,-1.59922,-0.538236,0.0183312,-2.0919,1.56116,1.56038,0.820528,-0.702067,-0.349175,0.445176,0.0439487,-0.215235,-0.23892,0.805457,-0.749491,-0.39568,0.496068,0.0675232,-0.238412,-0.257169,0.862252,0.32716,-22.9044,2.50281,27.7558,0.791338,-0.63059,0.330698,-0.346502,-1.78125,-0.0534422,3.37188,0.445488,-0.139867,0.221889
2914606,0.99,-1.59748,-0.536241,0.0171361,-2.09467,1.56152,1.56147,0.818812,-1.59998,-0.538638,0.0188346,-2.09183,1.56092,1.56012,0.821401,-0.709324,-0.358147,0.452975,0.0454971,-0.220084,-0.242807,0.831192,-0.760027,-0.401619,0.503493,0.068538,-0.241399,-0.260377,0.872758,0.378734,-22.952,2.55438,27.7558,0.847185,-0.688268,0.310557,-0.303844,-1.80734,0.0170665,3.38434,0.439032,-0.15326,0.222184
2914607,0.99,-1.59824,-0.536617,0.0176153,-2.09461,1.5613,1.56121,0.819665,-1.60075,-0.539045,0.0193456,-2.09176,1.56067,1.55985,0.822284,-0.711911,-0.364815,0.458139,0.0486348,-0.222776,-0.242468,0.837051,-0.770563,-0.407558,0.510918,0.0695528,-0.244385,-0.263585,0.883264,0.477917,-23.0036,2.58216,27.6804,0.909441,-0.720311,0.265696,-0.265608,-1.82385,0.0800718,3.39183,0.432356,-0.165697,0.222823
2914608,0.99,-1.59898,-0.537005,0.0180942,-2.09456,1.56106,1.56096,0.820553,-1.60153,-0.539459,0.0198639,-2.09169,1.56042,1.55959,0.823178,-0.719556,-0.367212,0.47447,0.0490906,-0.229298,-0.250056,0.850302,-0.780892,-0.413522,0.518334,0.0705728,-0.247299,-0.266716,0.893419,0.378734,-23.0036,2.65753,27.6804,0.932329,-0.669042,0.0844213,-0.237722,-1.83311,0.127092,3.39557,0.425753,-0.176402,0.223851
2914609,0.99,-1.59975,-0.537394,0.0185791,-2.0945,1.56083,1.5607,0.821424,-1.60233,-0.539878,0.0203897,-2.09162,1.56017,1.55932,0.824081,-0.729148,-0.380506,0.475827,0.0508934,-0.230993,-0.252414,0.863279,-0.791221,-0.419486,0.525749,0.0715928,-0.250212,-0.269847,0.903574,0.251781,-22.9798,2.78449,27.609,0.875566,-0.688268,-0.0318506,-0.222558,-1.83779,0.154112,3.39731,0.419537,-0.185059,0.225141
2914610,0.99,-1.60055,-0.537792,0.0190886,-2.09445,1.56059,1.56045,0.822322,-1.60313,-0.540304,0.0209228,-2.09155,1.55992,1.55904,0.824995,-0.750511,-0.385053,0.482991,0.0510278,-0.22796,-0.252453,0.869189,-0.80155,-0.42545,0.533165,0.0726127,-0.253126,-0.272978,0.913729,0.32716,-23.0036,2.75672,27.5812,0.819719,-0.772496,-0.077627,-0.212364,-1.83374,0.172522,3.39552,0.413501,-0.19277,0.226357
2914611,0.99,-1.60134,-0.5382,0.0195887,-2.09439,1.56035,1.5602,0.823235,-1.60394,-0.540735,0.0214634,-2.09147,1.55966,1.55877,0.825919,-0.766029,-0.392124,0.487045,0.0556009,-0.231581,-0.256947,0.883794,-0.811879,-0.431415,0.540581,0.0736327,-0.256039,-0.276109,0.923883,0.402538,-23.0036,2.80829,27.5058,0.802324,-0.862218,-0.116079,-0.196271,-1.82213,0.198127,3.39011,0.407277,-0.201229,0.227106
2914612,0.99,-1.60215,-0.538615,0.0201071,-2.09433,1.56011,1.55993,0.824127,-1.60476,-0.541172,0.0220114,-2.0914,1.55941,1.55849,0.826853,-0.777392,-0.402413,0.495334,0.0559598,-0.230864,-0.26034,0.885901,-0.822208,-0.437379,0.547996,0.0746527,-0.258953,-0.27924,0.934038,0.402538,-22.9282,2.88367,27.5574,0.81331,-0.830175,-0.044668,-0.170926,-1.80342,0.235842,3.38045,0.400659,-0.211059,0.227115
2914613,0.99,-1.60296,-0.539031,0.0206286,-2.09428,1.55987,1.55965,0.825047,-1.60559,-0.541616,0.0225668,-2.09132,1.55914,1.5582,0.827797,-0.804719,-0.405635,0.500746,0.0563371,-0.238661,-0.269937,0.890716,-0.832537,-0.443343,0.555412,0.0756726,-0.261866,-0.282371,0.944193,0.378734,-22.8766,3.01062,27.609,0.796831,-0.598546,0.0459692,-0.135734,-1.7783,0.286271,3.36724,0.393627,-0.222427,0.226277
2914614,0.99,-1.60379,-0.539453,0.0211548,-2.09422,1.55961,1.55936,0.825978,-1.60644,-0.542065,0.0231296,-2.09124,1.55888,1.55792,0.828751,-0.814354,-0.422516,0.504913,0.061121,-0.24589,-0.272907,0.907129,-0.842866,-0.449308,0.562828,0.0766926,-0.264779,-0.285501,0.954348,0.505688,-22.8012,3.01062,27.609,0.830705,-0.443822,0.122873,-0.088409,-1.74567,0.352542,3.35041,0.386133,-0.235572,0.224682
2914615,0.99,-1.60464,-0.539879,0.0216807,-2.09416,1.55935,1.55909,0.826914,-1.60729,-0.54252,0.0236999,-2.09117,1.55861,1.55763,0.829716,-0.818435,-0.424537,0.507243,0.0592583,-0.24818,-0.271465,0.918524,-0.853195,-0.455272,0.570243,0.0777125,-0.267693,-0.288632,0.964502,0.581066,-22.8766,3.23676,27.7082,0.892961,-0.527135,0.181467,-0.0319275,-1.70022,0.432129,3.32754,0.378143,-0.249768,0.222573
2914616,0.99,-1.60549,-0.540318,0.0222173,-2.0941,1.5591,1.55883,0.827863,-1.60815,-0.542982,0.0242775,-2.09109,1.55834,1.55734,0.83069,-0.82785,-0.431252,0.51559,0.0604007,-0.251829,-0.267099,0.926553,-0.863524,-0.461236,0.577659,0.0787325,-0.270606,-0.291763,0.974657,0.704052,-22.8528,3.26453,27.7082,0.887468,-0.713903,0.24647,0.026782,-1.6509,0.516676,3.30367,0.370056,-0.263857,0.220237
2914617,0.99,-1.60636,-0.540752,0.0227606,-2.09404,1.55885,1.55856,0.828824,-1.60903,-0.543449,0.0248626,-2.09101,1.55807,1.55704,0.831675,-0.834914,-0.4328,0.520068,0.0600905,-0.251422,-0.268158,0.940498,-0.873853,-0.467201,0.585075,0.0797525,-0.27352,-0.294894,0.984812,0.77943,-22.8766,3.36371,27.7558,0.796831,-0.798131,0.162241,0.0830488,-1.61225,0.59945,3.28621,0.362376,-0.277271,0.217954
2914618,0.99,-1.60722,-0.541202,0.0233092,-2.09397,1.5586,1.55828,0.829799,-1.60991,-0.543922,0.025455,-2.09093,1.55779,1.55675,0.83267,-0.832447,-0.43747,0.523265,0.0602933,-0.255927,-0.270421,0.94534,-0.883875,-0.473142,0.592406,0.0807694,-0.276351,-0.29794,0.994589,0.680248,-22.8766,3.59381,27.7796,0.700701,-0.849401,0.135691,0.133161,-1.59318,0.675542,3.27944,0.355361,-0.289719,0.215924
2914619,0.99,-1.6081,-0.541661,0.023853,-2.09391,1.55834,1.55799,0.830776,-1.61081,-0.544401,0.0260548,-2.09085,1.55751,1.55644,0.833674,-0.844156,-0.441387,0.531383,0.0619629,-0.256066,-0.274295,0.966129,-0.893898,-0.479083,0.599737,0.0817863,-0.279182,-0.300986,1.00437,0.77943,-22.8766,3.87152,27.7558,0.654924,-0.823766,0.0459692,0.174,-1.59642,0.741092,3.2845,0.348989,-0.300986,0.214193
2914620,0.99,-1.60902,-0.542113,0.0244263,-2.09384,1.55807,1.5577,0.831775,-1.61171,-0.544886,0.0266618,-2.09076,1.55723,1.55614,0.834688,-0.860456,-0.445533,0.539775,0.0627952,-0.25923,-0.28732,0.974681,-0.90392,-0.485024,0.607068,0.0828032,-0.282013,-0.304031,1.01414,1.18409,-22.952,3.87152,27.732,0.672319,-0.746862,0.0194189,0.206693,-1.61967,0.796657,3.29982,0.342998,-0.311297,0.212671
2914621,0.99,-1.60991,-0.542579,0.0249995,-2.09376,1.5578,1.55741,0.832773,-1.61262,-0.545377,0.0272762,-2.09068,1.55694,1.55583,0.835712,-0.874393,-0.449198,0.54943,0.0666363,-0.262044,-0.285419,0.978631,-0.913943,-0.490965,0.614399,0.0838202,-0.284845,-0.307077,1.02392,1.21186,-22.952,3.9231,27.5574,0.706194,-0.759679,0.071604,0.235191,-1.66015,0.845844,3.32326,0.337122,-0.321127,0.211208
2914622,0.99,-1.6108,-0.543046,0.0255901,-2.09369,1.55752,1.55712,0.833768,-1.61355,-0.545874,0.0278979,-2.09059,1.55666,1.55552,0.836746,-0.873844,-0.455194,0.563811,0.0659529,-0.264946,-0.289472,0.999694,-0.923965,-0.496907,0.62173,0.0848371,-0.287676,-0.310123,1.0337,0.88258,-22.9798,3.9231,27.5336,0.76845,-0.75327,0.110056,0.257439,-1.71345,0.884105,3.35213,0.331383,-0.330043,0.209691
2914623,0.99,-1.61171,-0.543532,0.0262026,-2.09362,1.55724,1.55681,0.834797,-1.61448,-0.546377,0.028527,-2.09051,1.55637,1.55521,0.837789,-0.881569,-0.46394,0.574625,0.0637506,-0.272833,-0.296532,1.00346,-0.933987,-0.502848,0.629061,0.085854,-0.290507,-0.313169,1.04348,0.581066,-22.8528,3.61762,27.5812,0.729082,-0.643407,0.0844213,0.265625,-1.7729,0.899775,3.38456,0.326096,-0.336732,0.208119
2914624,0.99,-1.61263,-0.544013,0.0268122,-2.09355,1.55695,1.55651,0.835835,-1.61543,-0.546886,0.0291634,-2.09042,1.55607,1.55489,0.838843,-0.899784,-0.464089,0.583374,0.0684103,-0.271349,-0.300123,1.00343,-0.94401,-0.508789,0.636392,0.0868709,-0.293338,-0.316214,1.05325,0.505688,-22.8528,3.41529,27.609,0.757463,-0.681859,0.0651953,0.259771,-1.8354,0.8931,3.41969,0.321376,-0.341076,0.206548
2914625,0.99,-1.61355,-0.544486,0.0274236,-2.09348,1.55666,1.55621,0.836873,-1.61638,-0.5474,0.0298071,-2.09033,1.55578,1.55458,0.839906,-0.906124,-0.46546,0.587034,0.0709745,-0.280222,-0.292914,1.01713,-0.954032,-0.51473,0.643723,0.0878879,-0.296169,-0.31926,1.06303,0.32716,-22.9282,3.39148,27.5812,0.830705,-0.75327,0.0459692,0.248469,-1.90656,0.877195,3.45805,0.317029,-0.34448,0.204987
2914626,0.99,-1.61448,-0.544974,0.0280648,-2.0934,1.55638,1.5559,0.837934,-1.61734,-0.547921,0.0304582,-2.09024,1.55548,1.55425,0.840979,-0.915379,-0.470286,0.60524,0.0707175,-0.279709,-0.301019,1.02554,-0.964055,-0.520671,0.651054,0.0889048,-0.299,-0.322306,1.07281,0.303356,-22.952,3.16138,27.6328,0.807817,-0.720311,0.038645,0.234025,-1.99088,0.856129,3.50069,0.313081,-0.347516,0.203395
2914627,0.99,-1.61544,-0.545457,0.0286907,-2.09333,1.55609,1.55558,0.838987,-1.61832,-0.548448,0.0311166,-2.09015,1.55518,1.55393,0.842061,-0.923878,-0.483504,0.613217,0.0713683,-0.281988,-0.304293,1.039,-0.974077,-0.526612,0.658385,0.0899217,-0.301832,-0.325352,1.08259,0.32716,-23.0036,3.16138,27.6566,0.729082,-0.617772,0.0459692,0.21175,-2.07847,0.823076,3.54435,0.309662,-0.349434,0.201742
2914628,0.99,-1.6164,-0.545956,0.029321,-2.09325,1.55579,1.55526,0.840069,-1.6193,-0.54898,0.0317821,-2.09006,1.55487,1.5536,0.843153,-0.932339,-0.490735,0.611897,0.073427,-0.28681,-0.307773,1.04888,-0.983716,-0.532492,0.665569,0.0909292,-0.304574,-0.328307,1.09197,0.200207,-23.0313,3.3161,27.609,0.71718,-0.63059,0.000192821,0.183554,-2.15232,0.782097,3.5819,0.306409,-0.350314,0.200001
2914629,0.99,-1.61737,-0.546474,0.0299507,-2.09317,1.5555,1.55494,0.841148,-1.62029,-0.549518,0.0324549,-2.08997,1.55456,1.55327,0.844254,-0.944876,-0.495474,0.61208,0.0735094,-0.288395,-0.311085,1.05352,-0.993354,-0.538371,0.672754,0.0919366,-0.307317,-0.331263,1.10135,0.303356,-22.952,3.49066,27.6328,0.661333,-0.624181,0.071604,0.159288,-2.20891,0.750024,3.61137,0.302753,-0.351547,0.198137
2914630,0.99,-1.61838,-0.54699,0.0306095,-2.09309,1.5552,1.55462,0.842244,-1.6213,-0.550063,0.0331348,-2.08988,1.55425,1.55293,0.845365,-0.964804,-0.49992,0.619536,0.0751277,-0.286905,-0.317514,1.06133,-1.00299,-0.54425,0.679938,0.0929441,-0.310059,-0.334219,1.11074,0.680248,-22.829,3.46686,27.5812,0.649431,-0.643407,0.000192821,0.147322,-2.25712,0.739548,3.63652,0.298414,-0.354381,0.196125
2914631,0.99,-1.61936,-0.547532,0.0312522,-2.09301,1.55489,1.5543,0.843333,-1.62231,-0.550613,0.0338219,-2.08978,1.55394,1.5526,0.846485,-0.989798,-0.51223,0.628174,0.0779311,-0.295606,-0.31616,1.06578,-1.01263,-0.550129,0.687123,0.0939515,-0.312802,-0.337174,1.12012,0.731823,-22.5235,3.74457,27.5812,0.643938,-0.701085,0.162241,0.152016,-2.29791,0.754599,3.65751,0.293264,-0.359382,0.193984
2914632,0.99,-1.62037,-0.548075,0.0318919,-2.09293,1.55457,1.55396,0.844439,-1.62333,-0.551169,0.0345163,-2.08969,1.55363,1.55226,0.847615,-0.990694,-0.523699,0.629407,0.0782563,-0.299876,-0.323975,1.08339,-1.02227,-0.556008,0.694308,0.094959,-0.315544,-0.34013,1.12951,0.88258,-22.2974,3.99848,27.5336,0.723589,-0.63059,0.149424,0.172591,-2.31993,0.792489,3.66922,0.287182,-0.366306,0.191795
2914633,0.99,-1.62141,-0.548629,0.0325553,-2.09284,1.55427,1.55363,0.845555,-1.62436,-0.551731,0.0352177,-2.08959,1.55331,1.55191,0.848754,-1.00171,-0.529055,0.63903,0.0773645,-0.298751,-0.329549,1.08402,-1.03191,-0.561888,0.701492,0.0959664,-0.318286,-0.343086,1.13889,1.23567,-22.0673,4.07386,27.5336,0.683306,-0.57932,0.233652,0.201677,-2.31886,0.843483,3.67084,0.280332,-0.373974,0.189709
2914634,0.99,-1.62243,-0.549188,0.0332116,-2.09276,1.55395,1.5533,0.846701,-1.62541,-0.552299,0.0359264,-2.0895,1.55299,1.55157,0.849902,-1.01305,-0.536005,0.644245,0.0779011,-0.304237,-0.327608,1.09274,-1.04155,-0.567767,0.708677,0.0969739,-0.321029,-0.346041,1.14827,1.33485,-21.9443,4.30396,27.482,0.81331,-0.688268,0.200693,0.233108,-2.30383,0.898596,3.66776,0.273161,-0.381453,0.187896
2914635,0.99,-1.62347,-0.54974,0.0338827,-2.09267,1.55364,1.55298,0.847832,-1.62646,-0.552872,0.0366423,-2.0894,1.55266,1.55122,0.85106,-1.01504,-0.543083,0.647953,0.0845792,-0.307913,-0.324142,1.10418,-1.05119,-0.573646,0.715861,0.0979813,-0.323771,-0.348997,1.15766,1.41023,-21.9165,4.5539,27.4344,0.807817,-0.862218,0.181467,0.265071,-2.28045,0.954848,3.66168,0.265928,-0.388564,0.186484
2914636,0.99,-1.62453,-0.550307,0.0346025,-2.09258,1.55333,1.55264,0.84899,-1.62752,-0.553452,0.0373653,-2.0893,1.55234,1.55087,0.852227,-1.02685,-0.543214,0.672953,0.0887984,-0.306279,-0.327292,1.11906,-1.06082,-0.579525,0.723046,0.0989888,-0.326514,-0.351953,1.16704,1.64033,-21.8174,4.27619,27.4067,0.683306,-0.894261,0.162241,0.291258,-2.25203,1.00218,3.65163,0.258979,-0.394597,0.185532
2914637,0.99,-1.62557,-0.550882,0.0352826,-2.09248,1.55301,1.5523,0.850148,-1.62859,-0.554037,0.0380956,-2.0892,1.55201,1.55051,0.853403,-1.02999,-0.550615,0.675719,0.093301,-0.308544,-0.32921,1.15727,-1.07046,-0.585404,0.73023,0.0999962,-0.329256,-0.354908,1.17643,1.48561,-21.7142,4.37934,27.3352,0.654924,-0.919896,0.0523779,0.303865,-2.22493,1.02711,3.63911,0.252712,-0.398663,0.184991
2914638,0.99,-1.62663,-0.551461,0.0359835,-2.09239,1.55269,1.55196,0.851311,-1.62967,-0.554628,0.0388328,-2.0891,1.55167,1.55015,0.854589,-1.03871,-0.557242,0.68258,0.0954907,-0.311206,-0.339609,1.16326,-1.07966,-0.591191,0.737218,0.100989,-0.331906,-0.357771,1.18541,1.38642,-21.5634,4.30396,27.3075,0.638445,-0.919896,0.0972387,0.30394,-2.19872,1.03152,3.62409,0.246929,-0.401058,0.184719
2914639,0.99,-1.6277,-0.552053,0.0367145,-2.0923,1.55236,1.55159,0.852513,-1.63076,-0.555225,0.039577,-2.089,1.55134,1.54979,0.855783,-1.04729,-0.561733,0.708831,0.0984223,-0.31795,-0.349888,1.17994,-1.08885,-0.596977,0.744206,0.101982,-0.334555,-0.360633,1.19439,1.438,-21.3849,4.02228,27.2361,0.615556,-0.772496,-0.0584009,0.291333,-2.17126,1.01504,3.60681,0.241526,-0.401732,0.184565
2914640,0.99,-1.62877,-0.552644,0.0374342,-2.0922,1.55203,1.55124,0.85368,-1.63185,-0.555828,0.0403282,-2.08889,1.551,1.54943,0.856986,-1.05072,-0.572694,0.715116,0.100466,-0.320823,-0.349896,1.1878,-1.09804,-0.602764,0.751193,0.102975,-0.337204,-0.363496,1.20337,1.21186,-21.1826,3.9469,27.1607,0.661333,-0.681859,0.0459692,0.260599,-2.14052,0.967994,3.58783,0.236724,-0.399775,0.184389
2914641,0.99,-1.62986,-0.55325,0.0381725,-2.09209,1.5517,1.55089,0.854875,-1.63296,-0.556437,0.0410864,-2.08879,1.55066,1.54906,0.858199,-1.0632,-0.579648,0.721562,0.104082,-0.322104,-0.352085,1.18644,-1.10724,-0.60855,0.758181,0.103968,-0.339854,-0.366358,1.21235,1.08491,-21.0318,3.9231,26.9861,0.695207,-0.669042,0.162241,0.215626,-2.10027,0.896995,3.56478,0.232265,-0.395643,0.184038
2914642,0.99,-1.63097,-0.553854,0.0388989,-2.09199,1.55137,1.55052,0.856092,-1.63408,-0.557051,0.0418515,-2.08869,1.55032,1.54869,0.85942,-1.07275,-0.582891,0.72402,0.102542,-0.325988,-0.35704,1.19645,-1.11643,-0.614337,0.765168,0.104961,-0.342503,-0.36922,1.22133,1.25947,-20.9565,3.87152,26.8631,0.695207,-0.553685,0.162241,0.168212,-2.05351,0.821421,3.53932,0.227797,-0.391009,0.183489
2914643,0.99,-1.6321,-0.554446,0.0396433,-2.09189,1.55103,1.55014,0.857281,-1.6352,-0.557671,0.0426237,-2.08858,1.54998,1.54832,0.86065,-1.0837,-0.586146,0.726034,0.101407,-0.333914,-0.358902,1.19461,-1.12563,-0.620124,0.772156,0.105954,-0.345152,-0.372083,1.23031,1.48561,-21.008,3.9231,26.8631,0.615556,-0.495092,0.304148,0.128335,-2.01461,0.757285,3.51939,0.22334,-0.387333,0.182867
2914644,0.99,-1.63323,-0.555051,0.0403908,-2.09178,1.55069,1.54978,0.858516,-1.63634,-0.558297,0.0434028,-2.08847,1.54963,1.54795,0.86189,-1.09394,-0.589435,0.726181,0.101303,-0.331705,-0.360983,1.19431,-1.13482,-0.62591,0.779144,0.106947,-0.347801,-0.374945,1.2393,1.48561,-21.1072,4.20081,26.8354,0.638445,-0.539952,0.219919,0.103008,-1.99518,0.715733,3.51121,0.218917,-0.385562,0.182352
2914645,0.99,-1.63437,-0.555658,0.0411549,-2.09169,1.55035,1.54942,0.859754,-1.63748,-0.558929,0.044189,-2.08836,1.54928,1.54757,0.863138,-1.10694,-0.605318,0.737772,0.0991032,-0.334908,-0.359387,1.21967,-1.14401,-0.631697,0.786131,0.10794,-0.350451,-0.377808,1.24828,1.76332,-21.1072,4.30396,26.9107,0.553301,-0.656224,0.149424,0.0938766,-1.98998,0.698887,3.51269,0.214361,-0.385704,0.182115
2914646,0.99,-1.63552,-0.556285,0.0419348,-2.09158,1.55,1.54907,0.860987,-1.63864,-0.559566,0.0449821,-2.08826,1.54892,1.54719,0.864395,-1.11981,-0.612268,0.743244,0.0983127,-0.339978,-0.35476,1.23145,-1.15321,-0.637483,0.793119,0.108933,-0.3531,-0.38067,1.25726,1.94184,-21.0596,4.35157,26.9623,0.519426,-0.90067,-0.0318506,0.0978047,-1.9829,0.700705,3.51716,0.209541,-0.38715,0.182177
2914647,0.99,-1.63665,-0.556915,0.042691,-2.09148,1.54964,1.54872,0.862251,-1.6398,-0.560209,0.0457822,-2.08815,1.54857,1.5468,0.865661,-1.12018,-0.613114,0.754518,0.0996447,-0.34136,-0.351861,1.23673,-1.1624,-0.64327,0.800107,0.109926,-0.355749,-0.383532,1.26624,1.81489,-21.0318,4.5539,26.9345,0.553301,-1.15244,-0.213125,0.109419,-1.97324,0.712129,3.52386,0.204568,-0.389381,0.182369
2914648,0.99,-1.6378,-0.557537,0.0434756,-2.09136,1.54929,1.54835,0.863488,-1.64097,-0.560858,0.046589,-2.08803,1.54821,1.54642,0.866936,-1.12532,-0.616732,0.762146,0.10276,-0.341493,-0.359593,1.24369,-1.17111,-0.648939,0.806857,0.1109,-0.358302,-0.3863,1.27481,1.58876,-21.0318,4.53009,26.8116,0.565202,-1.13962,-0.219534,0.120606,-1.97211,0.721292,3.53582,0.199668,-0.391758,0.182347
2914649,0.99,-1.63898,-0.558171,0.044283,-2.09124,1.54894,1.54795,0.86473,-1.64215,-0.561513,0.0474026,-2.08792,1.54785,1.54603,0.86822,-1.14819,-0.621191,0.774925,0.106429,-0.346649,-0.372494,1.23821,-1.17981,-0.654609,0.813607,0.111875,-0.360855,-0.389067,1.28339,1.79109,-21.0596,4.30396,26.6132,0.581682,-0.933629,-0.0382593,0.128002,-1.98261,0.723044,3.55216,0.194866,-0.394213,0.181729
2914650,0.99,-1.64015,-0.558817,0.0450566,-2.09113,1.54856,1.54755,0.865972,-1.64334,-0.562173,0.048223,-2.08781,1.54749,1.54564,0.869512,-1.15198,-0.624843,0.781476,0.108644,-0.35463,-0.379138,1.24348,-1.18851,-0.660278,0.820358,0.11285,-0.363408,-0.391834,1.29196,1.73951,-20.9803,4.47852,26.5616,0.734575,-0.759679,0.110056,0.133647,-2.00281,0.71963,3.57045,0.190111,-0.397152,0.180359
2914651,0.99,-1.64134,-0.559462,0.0458575,-2.09102,1.54819,1.54716,0.867255,-1.64454,-0.562839,0.0490501,-2.0877,1.54712,1.54524,0.870812,-1.16204,-0.630561,0.788246,0.108835,-0.360611,-0.391942,1.24857,-1.19721,-0.665948,0.827108,0.113824,-0.36596,-0.394601,1.30053,1.76332,-20.9049,4.47852,26.5894,0.751055,-0.585729,0.103647,0.13769,-2.03133,0.711973,3.59,0.185516,-0.400369,0.178418
2914652,0.99,-1.64255,-0.560116,0.0466586,-2.0909,1.54784,1.54675,0.868561,-1.64574,-0.563511,0.049884,-2.08758,1.54675,1.54485,0.872121,-1.17725,-0.631307,0.79692,0.110822,-0.359421,-0.396658,1.26965,-1.20592,-0.671617,0.833858,0.114799,-0.368513,-0.397368,1.3091,2.04103,-20.9049,4.42694,26.5378,0.610063,-0.450231,0.0194189,0.14128,-2.06941,0.702596,3.61199,0.181264,-0.403588,0.176222
2914653,0.99,-1.64374,-0.560764,0.0474544,-2.09079,1.54747,1.54637,0.86986,-1.64696,-0.564188,0.0507246,-2.08747,1.54638,1.54445,0.873439,-1.1894,-0.639843,0.801762,0.110501,-0.35667,-0.388103,1.28468,-1.21462,-0.677287,0.840608,0.115774,-0.371066,-0.400135,1.31768,1.91804,-20.9049,4.70862,26.5616,0.542314,-0.643407,-0.135305,0.148839,-2.11774,0.69776,3.63712,0.177341,-0.407051,0.173946
2914654,0.99,-1.64497,-0.561435,0.0482633,-2.09068,1.54711,1.54599,0.871167,-1.64818,-0.564871,0.0515719,-2.08735,1.54601,1.54404,0.874765,-1.19173,-0.646893,0.802173,0.112037,-0.353031,-0.38167,1.28981,-1.22332,-0.682956,0.847359,0.116748,-0.373619,-0.402902,1.32625,1.96565,-20.8573,5.01013,26.514,0.423296,-0.875035,-0.116079,0.163881,-2.16914,0.703876,3.66236,0.173385,-0.41109,0.17154
2914655,0.99,-1.64619,-0.562113,0.0490923,-2.09056,1.54675,1.54559,0.872494,-1.64941,-0.56556,0.052426,-2.08723,1.54563,1.54364,0.8761,-1.20231,-0.650005,0.81905,0.111971,-0.353356,-0.384559,1.31701,-1.23202,-0.688626,0.854109,0.117723,-0.376172,-0.405669,1.33482,2.11641,-20.7819,4.91095,26.514,0.394914,-1.01053,-0.135305,0.183639,-2.2183,0.71827,3.68564,0.169143,-0.415414,0.168841
2914656,1,-1.64744,-0.562798,0.0499055,-2.09045,1.54637,1.54519,0.873797,-1.65065,-0.566254,0.0532869,-2.08711,1.54525,1.54323,0.877443,-1.20801,-0.662688,0.813098,0.11355,-0.367721,-0.386755,1.31226,-1.24073,-0.694295,0.860859,0.118697,-0.378725,-0.408437,1.34339,2.31874,-20.528,5.21247,26.5894,0.536821,-1.0618,-0.00621587,0.204397,-2.26206,0.735834,3.7061,0.164491,-0.419781,0.165754
2914657,1,-1.64867,-0.563495,0.050716,-2.09034,1.54599,1.54477,0.875121,-1.6519,-0.566954,0.0541545,-2.08699,1.54487,1.54282,0.878795,-1.22292,-0.666443,0.834943,0.114261,-0.370298,-0.398105,1.3129,-1.24943,-0.699965,0.867609,0.119672,-0.381277,-0.411204,1.35197,2.34651,-20.3257,5.49018,26.5616,0.672319,-0.959264,0.116465,0.22541,-2.29387,0.755219,3.72129,0.159349,-0.424317,0.162345
2914658,1,-1.64992,-0.564193,0.0515614,-2.09023,1.54561,1.54433,0.876453,-1.65316,-0.567659,0.0550286,-2.08687,1.54449,1.5424,0.880155,-1.22759,-0.675119,0.844034,0.112772,-0.372042,-0.408495,1.32538,-1.2576,-0.705499,0.874091,0.120625,-0.383732,-0.413874,1.36013,2.34651,-20.0479,5.49018,26.6132,0.683306,-0.778905,0.110056,0.241494,-2.31353,0.766675,3.73225,0.154147,-0.428242,0.158848
2914659,1,-1.65118,-0.564908,0.0524219,-2.0901,1.54524,1.54392,0.877812,-1.65442,-0.56837,0.0559092,-2.08675,1.5441,1.54199,0.881524,-1.23752,-0.689886,0.85108,0.115031,-0.374127,-0.405905,1.32787,-1.26578,-0.711032,0.880572,0.121579,-0.386186,-0.416545,1.36829,2.29493,-19.794,5.44257,26.514,0.711687,-0.75327,0.09083,0.248879,-2.31618,0.764252,3.73779,0.149218,-0.430807,0.155542
2914660,1,-1.65241,-0.565612,0.0532611,-2.08997,1.54485,1.54351,0.879179,-1.6557,-0.569087,0.0567962,-2.08663,1.54371,1.54157,0.8829,-1.2372,-0.69161,0.849723,0.122202,-0.374248,-0.407328,1.32927,-1.27395,-0.716566,0.887053,0.122532,-0.38864,-0.419216,1.37645,2.01722,-19.794,5.56952,26.3156,0.71718,-0.881444,0.143015,0.251098,-2.2937,0.756004,3.73246,0.14436,-0.432415,0.152606
2914661,1,-1.65368,-0.566315,0.0541327,-2.08985,1.54449,1.54308,0.880539,-1.65698,-0.569809,0.0576898,-2.0865,1.54332,1.54115,0.884285,-1.24101,-0.69352,0.853112,0.123891,-0.377304,-0.408727,1.33956,-1.28213,-0.722099,0.893535,0.123486,-0.391094,-0.421886,1.38461,1.99342,-19.794,5.46637,26.2641,0.581682,-0.90067,0.135691,0.252329,-2.25619,0.751216,3.7179,0.139478,-0.433825,0.150113
2914662,1,-1.65495,-0.56703,0.0550046,-2.08972,1.54413,1.54265,0.881937,-1.65827,-0.570537,0.0585898,-2.08638,1.54293,1.54072,0.885678,-1.25003,-0.694132,0.854125,0.12787,-0.367524,-0.413578,1.35667,-1.2903,-0.727633,0.900016,0.124439,-0.393548,-0.424557,1.39277,2.01722,-19.7702,5.46637,26.0895,0.435198,-0.810948,-0.0318506,0.255961,-2.22277,0.756313,3.70162,0.134625,-0.435821,0.148079
