shamilmamedov/beam_handling/log/vibration_suppression_ICRA/OCP_T3_0.81s.csv
duration, success rate, q[0], q[1], q[2], q[3], q[4], q[5], q[6],q_d[0], q_d[1], q_d[2], q_d[3], q_d[4], q_d[5], q_d[6],dq[0], dq[1], dq[2], dq[3], dq[4], dq[5], dq[6],dq_d[0], dq_d[1], dq_d[2], dq_d[3], dq_d[4], dq_d[5], dq_d[6],tau_J[0], tau_J[1], tau_J[2], tau_J[3], tau_J[4], tau_J[5], tau_J[6],tau_ext_hat_filtered[0], tau_ext_hat_filtered[1], tau_ext_hat_filtered[2], tau_ext_hat_filtered[3], tau_ext_hat_filtered[4], tau_ext_hat_filtered[5], tau_ext_hat_filtered[6]
1721414,0,-1.57087,-0.523167,-5.95198e-05,-2.09592,1.56992,1.57034,0.785694,-1.5708,-0.523599,4.23261e-08,-2.09439,1.5708,1.5708,0.785398,0.000162363,0.00045942,-0.000221283,-0.000972669,0.000486155,0.000552955,4.29979e-05,0,0,0,0,0,0,0,0.101024,-9.88773,-0.381406,20.9201,1.27748,0.335292,-0.246084,0.105652,-0.745726,-0.0105687,2.35255,0.720157,0.348503,-0.173511
1721415,1,-1.57087,-0.523169,-5.75718e-05,-2.09593,1.56992,1.57034,0.785699,-1.5708,-0.523599,4.23261e-08,-2.09439,1.5708,1.5708,0.785398,0.000108242,-0.000343334,0.000502092,-0.000648446,0.000120653,-0.00034344,0.000740742,0,0,0,0,0,0,0,0.101024,-9.85995,-0.409177,20.9201,1.28298,0.354518,-0.26531,0.105823,-0.747213,-0.0101886,2.3532,0.720137,0.348484,-0.173938
1721416,1,-1.57087,-0.523171,-5.75721e-05,-2.09592,1.56992,1.57034,0.785697,-1.5708,-0.523599,4.23261e-08,-2.09439,1.5708,1.5708,0.785398,0.000721775,-0.000785701,0.000334728,0.00133094,-0.000326466,-0.00022896,-0.000489516,0,0,0,0,0,0,0,0.0732535,-9.83615,-0.409177,20.8448,1.29396,0.354518,-0.23876,0.105259,-0.747903,-0.0109152,2.35379,0.720153,0.348581,-0.174416
1721417,1,-1.57086,-0.523169,-5.75722e-05,-2.09592,1.56992,1.57034,0.785694,-1.5708,-0.523599,4.23261e-08,-2.09439,1.5708,1.5708,0.785398,0.000481184,3.30113e-05,0.000223152,-0.000319132,-0.000421095,8.4719e-05,-0.000563703,0,0,0,0,0,0,0,0.0732535,-9.85995,-0.409177,20.8963,1.29946,0.348109,-0.232351,0.103993,-0.746472,-0.0126069,2.35312,0.72015,0.348799,-0.174937
1721418,1,-1.57087,-0.523171,-5.75722e-05,-2.09592,1.56992,1.57034,0.785694,-1.5708,-0.523599,4.23261e-08,-2.09439,1.5708,1.5708,0.785398,-0.00209206,-0.000534804,0.000148768,-0.000769567,0.000329622,0.000293838,0.000132824,0,0,0,0,0,0,0,0.176403,-9.83615,-0.409177,20.9201,1.28298,0.3417,-0.246084,0.103118,-0.745102,-0.0137522,2.35263,0.72016,0.348952,-0.175487
1721419,1,-1.57087,-0.523171,-5.59018e-05,-2.09593,1.56992,1.57034,0.785693,-1.5708,-0.523599,4.23261e-08,-2.09439,1.5708,1.5708,0.785398,-0.000188283,-0.000356536,0.000655991,-0.00106986,0.000219748,0.000195892,-0.000182718,0,0,0,0,0,0,0,0.124828,-9.83615,-0.432981,20.9439,1.28298,0.3417,-0.23876,0.10327,-0.744738,-0.0136091,2.35321,0.720202,0.348942,-0.176045
1721420,1,-1.57087,-0.523169,-5.75723e-05,-2.09592,1.56992,1.57034,0.785695,-1.5708,-0.523599,4.23261e-08,-2.09439,1.5708,1.5708,0.785398,-0.000125522,0.000319121,-0.000119485,0.000400386,-0.000260402,-0.000344123,0.000624173,0,0,0,0,0,0,0,0.124828,-9.85995,-0.409177,20.8963,1.29396,0.354518,-0.258901,0.103676,-0.74512,-0.0132345,2.3544,0.720268,0.348885,-0.176598
1721421,1,-1.57087,-0.523173,-5.42314e-05,-2.09592,1.56992,1.57034,0.785691,-1.5708,-0.523599,4.23261e-08,-2.09439,1.5708,1.5708,0.785398,0.000473131,-0.000993679,0.00103397,0.000266924,2.98489e-05,0.000245302,-0.00199138,0,0,0,0,0,0,0,0.101024,-9.80838,-0.456784,20.8963,1.28847,0.3417,-0.193899,0.103593,-0.745118,-0.0135938,2.35513,0.720325,0.348898,-0.177141
1721422,1,-1.57087,-0.523167,-5.75723e-05,-2.09592,1.56992,1.57034,0.785697,-1.5708,-0.523599,4.23261e-08,-2.09439,1.5708,1.5708,0.785398,0.000315421,0.00119359,-0.000424312,0.000177949,0.00022335,-0.000311183,0.000333924,0,0,0,0,0,0,0,0.101024,-9.88773,-0.409177,20.8963,1.28298,0.354518,-0.23876,0.103007,-0.74465,-0.0146884,2.35527,0.720373,0.348988,-0.177661
1721423,1,-1.57087,-0.523169,-5.59018e-05,-2.09592,1.56992,1.57034,0.785693,-1.5708,-0.523599,4.23261e-08,-2.09439,1.5708,1.5708,0.785398,-0.000903344,0.000146111,0.000273937,0.00132506,-5.45507e-05,2.99037e-05,-0.000252102,0,0,0,0,0,0,0,0.148632,-9.85995,-0.432981,20.8448,1.28847,0.348109,-0.225942,0.102716,-0.745246,-0.015352,2.3555,0.720404,0.349016,-0.178129
1721424,1,-1.57086,-0.523169,-5.59018e-05,-2.09593,1.56992,1.57033,0.785694,-1.5708,-0.523599,4.23261e-08,-2.09439,1.5708,1.5708,0.785398,0.00116101,9.74074e-05,0.000182625,-0.000879865,-3.63671e-05,-0.000454782,0.000577918,0,0,0,0,0,0,0,0.0732535,-9.85995,-0.432981,20.9201,1.28847,0.360926,-0.246084,0.102778,-0.746413,-0.0155477,2.35578,0.720416,0.348988,-0.178534
1721425,1,-1.57087,-0.523173,-5.73906e-05,-2.09593,1.56992,1.57034,0.785694,-1.5708,-0.523599,4.23261e-08,-2.09439,1.5708,1.5708,0.785398,-0.00043242,-0.00114149,-0.00108468,-2.97649e-05,-2.42447e-05,-6.58291e-05,-0.000598066,0,0,0,0,0,0,0,0.124828,-9.80838,-0.381406,20.8963,1.28847,0.354518,-0.219534,0.102947,-0.746747,-0.0155553,2.35604,0.72042,0.348973,-0.178893
1721426,1,-1.57086,-0.523167,-5.35212e-05,-2.09592,1.56992,1.57034,0.78569,-1.5708,-0.523599,4.23261e-08,-2.09439,1.5708,1.5708,0.785398,0.000268532,0.00109505,0.00104012,0.00118658,-0.000219614,-0.000281245,-0.00206022,0,0,0,0,0,0,0,0.101024,-9.88773,-0.456784,20.8448,1.29396,0.360926,-0.174673,0.103401,-0.746089,-0.015111,2.35593,0.720402,0.348948,-0.179214
1721427,1,-1.57087,-0.523171,-5.92844e-05,-2.09593,1.56992,1.57034,0.78569,-1.5708,-0.523599,4.23261e-08,-2.09439,1.5708,1.5708,0.785398,-0.000934603,-0.000476394,-0.00106982,-0.000972183,-0.000146409,0.000287221,-0.000424046,0,0,0,0,0,0,0,0.148632,-9.83615,-0.381406,20.9201,1.29396,0.348109,-0.200308,0.104078,-0.745835,-0.014431,2.35582,0.720387,0.348904,-0.179471
1721428,1,-1.57086,-0.523167,-5.74933e-05,-2.09593,1.56992,1.57034,0.785687,-1.5708,-0.523599,4.23261e-08,-2.09439,1.5708,1.5708,0.785398,0.000490555,0.00088883,-6.36022e-05,-9.13099e-05,-9.76061e-05,0.000191481,-0.000994774,0,0,0,0,0,0,0,0.101024,-9.88773,-0.409177,20.8963,1.29396,0.348109,-0.181082,0.10526,-0.74697,-0.0130563,2.35663,0.720403,0.34879,-0.179622
1721429,1,-1.57086,-0.523165,-5.54154e-05,-2.09592,1.56992,1.57034,0.785688,-1.5708,-0.523599,4.23261e-08,-2.09439,1.5708,1.5708,0.785398,0.000327037,0.00114937,-4.24015e-05,0.00114555,0.00013838,0.000365013,-0.000188465,0,0,0,0,0,0,0,0.101024,-9.91153,-0.409177,20.8448,1.28847,0.3417,-0.193899,0.10638,-0.74961,-0.0117306,2.3581,0.720456,0.348674,-0.179641
1721430,1,-1.57086,-0.523167,-5.51829e-05,-2.09592,1.56992,1.57034,0.785689,-1.5708,-0.523599,4.23261e-08,-2.09439,1.5708,1.5708,0.785398,0.000867639,0.000209432,0.000528544,-0.000442724,9.22532e-05,5.98293e-06,0.000111716,0,0,0,0,0,0,0,0.0732535,-9.88773,-0.432981,20.8963,1.28847,0.348109,-0.200308,0.106567,-0.753008,-0.0117257,2.35955,0.720547,0.348678,-0.179522
1721431,1,-1.57087,-0.523171,-5.52021e-05,-2.09592,1.56992,1.57034,0.785688,-1.5708,-0.523599,4.23261e-08,-2.09439,1.5708,1.5708,0.785398,-0.000628,-0.0010668,-0.000204449,0.000261663,0.000671854,0.000241348,-0.000162882,0,0,0,0,0,0,0,0.124828,-9.83615,-0.409177,20.8725,1.27199,0.3417,-0.193899,0.106193,-0.754727,-0.0125257,2.36024,0.720638,0.348774,-0.179278
1721432,1,-1.57086,-0.523165,-5.51118e-05,-2.09593,1.56992,1.57034,0.78569,-1.5708,-0.523599,4.23261e-08,-2.09439,1.5708,1.5708,0.785398,0.00134457,0.00105203,0.000420513,-0.00038237,-0.000162449,-0.00031382,0.000603489,0,0,0,0,0,0,0,0.0494498,-9.91153,-0.432981,20.8963,1.28847,0.354518,-0.213125,0.105682,-0.754597,-0.0134926,2.36024,0.720705,0.348898,-0.178936
1721433,1,-1.57087,-0.523169,-5.3968e-05,-2.09593,1.56992,1.57034,0.785691,-1.5708,-0.523599,4.23261e-08,-2.09439,1.5708,1.5708,0.785398,-0.000866857,-0.000505069,0.000837154,-0.000811725,-0.00031175,-0.000683931,-0.00054711,0,0,0,0,0,0,0,0.124828,-9.85995,-0.456784,20.9201,1.29396,0.367335,-0.18749,0.104755,-0.754918,-0.0150676,2.3607,0.720788,0.349067,-0.178522
1721434,1,-1.57087,-0.523167,-5.36835e-05,-2.09592,1.56992,1.57034,0.785695,-1.5708,-0.523599,4.23261e-08,-2.09439,1.5708,1.5708,0.785398,-2.10928e-05,0.000312901,1.29049e-06,0.000572474,-4.38276e-06,1.8764e-05,0.000822055,0,0,0,0,0,0,0,0.101024,-9.88773,-0.432981,20.8725,1.28847,0.354518,-0.219534,0.103801,-0.755379,-0.0167728,2.36139,0.720871,0.349239,-0.178059
1721436,0.98,-1.57087,-0.523169,-5.44851e-05,-2.09593,1.56992,1.57034,0.785689,-1.5708,-0.523599,4.23261e-08,-2.09439,1.5708,1.5708,0.785398,-0.000566187,-0.000696151,-0.000556238,-0.000673587,0.000133686,0.000166579,-3.02405e-05,0,0,0,0,0,0,0,0.124828,-9.85995,-0.409177,20.9201,1.28298,0.348109,-0.200308,0.103738,-0.75656,-0.0174495,2.36227,0.720936,0.349326,-0.177057
1721437,0.97,-1.57086,-0.523167,-5.65432e-05,-2.09592,1.56992,1.57034,0.785697,-1.5708,-0.523599,4.23261e-08,-2.09439,1.5708,1.5708,0.785398,0.000828968,0.000185513,-0.000370826,0.000664566,-0.000114327,0.000111053,0.00140399,0,0,0,0,0,0,0,0.0732535,-9.88773,-0.409177,20.8725,1.28847,0.348109,-0.23876,0.104619,-0.756407,-0.0163275,2.36236,0.720907,0.34925,-0.176544
1721438,0.97,-1.57086,-0.523169,-5.91781e-05,-2.09592,1.56992,1.57034,0.785696,-1.5708,-0.523599,4.23261e-08,-2.09439,1.5708,1.5708,0.785398,0.000552645,-0.000525938,-0.000896831,0.00220628,-0.000279668,-0.000163324,0.000461278,0,0,0,0,0,0,0,0.0732535,-9.85995,-0.381406,20.7972,1.29396,0.354518,-0.225942,0.105474,-0.754116,-0.0150183,2.3608,0.720795,0.349191,-0.176034
1721439,0.97,-1.57086,-0.523169,-5.74579e-05,-2.09593,1.56992,1.57034,0.785691,-1.5708,-0.523599,4.23261e-08,-2.09439,1.5708,1.5708,0.785398,0.00036843,-0.000350626,5.17266e-05,-0.00140601,-0.000186446,0.000128476,-0.000404558,0,0,0,0,0,0,0,0.0732535,-9.85995,-0.409177,20.9201,1.29396,0.348109,-0.206716,0.106029,-0.750233,-0.0139254,2.358,0.720639,0.349181,-0.175566
1721440,0.97,-1.57087,-0.523167,-5.58637e-05,-2.09593,1.56992,1.57034,0.785691,-1.5708,-0.523599,4.23261e-08,-2.09439,1.5708,1.5708,0.785398,-0.000403994,0.000415864,0.000591296,-0.00149415,0.000282604,0.00032301,-3.23467e-05,0,0,0,0,0,0,0,0.101024,-9.88773,-0.432981,20.9439,1.28298,0.3417,-0.213125,0.106135,-0.748094,-0.0135016,2.35679,0.720578,0.349214,-0.175165
1721441,0.97,-1.57086,-0.523167,-5.75595e-05,-2.09593,1.56992,1.57033,0.785696,-1.5708,-0.523599,4.23261e-08,-2.09439,1.5708,1.5708,0.785398,0.000937097,0.000277242,-0.000162614,-0.000439288,0.000188403,-0.000496737,0.00191122,0,0,0,0,0,0,0,0.0494498,-9.88773,-0.409177,20.9201,1.28298,0.360926,-0.26531,0.105686,-0.749262,-0.0139547,2.35804,0.720644,0.349285,-0.174821
1721442,0.97,-1.57086,-0.523167,-5.58976e-05,-2.09592,1.56992,1.57034,0.785693,-1.5708,-0.523599,4.23261e-08,-2.09439,1.5708,1.5708,0.785398,-0.000581695,0.000184828,0.000448402,0.000820765,0.000125602,-9.3799e-05,5.34405e-05,0,0,0,0,0,0,0,0.101024,-9.88773,-0.432981,20.8725,1.28298,0.354518,-0.232351,0.104901,-0.751328,-0.0148324,2.35962,0.720726,0.349381,-0.174536
1721443,0.97,-1.57087,-0.523171,-5.54403e-05,-2.09592,1.56992,1.57034,0.785692,-1.5708,-0.523599,4.23261e-08,-2.09439,1.5708,1.5708,0.785398,-0.000387796,-0.00108321,-0.000257877,-0.000566447,-0.000119716,-6.25327e-05,-0.000201732,0,0,0,0,0,0,0,0.101024,-9.83615,-0.409177,20.9201,1.28847,0.354518,-0.225942,0.10433,-0.751737,-0.0153619,2.35999,0.720745,0.349457,-0.174338
1721444,0.97,-1.57087,-0.523169,-5.68616e-05,-2.09592,1.56992,1.57034,0.785699,-1.5708,-0.523599,4.23261e-08,-2.09439,1.5708,1.5708,0.785398,-0.000815343,-0.000165326,-0.000171918,-0.000377631,-0.000283261,0.00019567,0.00132357,0,0,0,0,0,0,0,0.124828,-9.85995,-0.409177,20.9201,1.29396,0.348109,-0.26531,0.10446,-0.75034,-0.0148923,2.35954,0.720709,0.349454,-0.174234
1721445,0.97,-1.57087,-0.523167,-5.73354e-05,-2.09592,1.56992,1.57034,0.785694,-1.5708,-0.523599,4.23261e-08,-2.09439,1.5708,1.5708,0.785398,1.325e-05,0.000539397,-0.000114612,0.000305058,-0.000188841,-0.000106912,-0.000100961,0,0,0,0,0,0,0,0.101024,-9.88773,-0.409177,20.8963,1.29396,0.354518,-0.23876,0.10508,-0.749169,-0.0137179,2.35926,0.720659,0.34938,-0.174219
1721446,0.97,-1.57087,-0.523171,-5.58229e-05,-2.09592,1.56992,1.57034,0.785695,-1.5708,-0.523599,4.23261e-08,-2.09439,1.5708,1.5708,0.785398,8.83333e-06,-0.000846828,0.000480404,0.000760184,7.75567e-05,0.000166084,0.000441319,0,0,0,0,0,0,0,0.101024,-9.83615,-0.432981,20.8725,1.28847,0.348109,-0.252493,0.105435,-0.748219,-0.0129418,2.35878,0.720615,0.349345,-0.174299
1721447,0.97,-1.57086,-0.523165,-5.94948e-05,-2.09593,1.56992,1.57034,0.785694,-1.5708,-0.523599,4.23261e-08,-2.09439,1.5708,1.5708,0.785398,5.88888e-06,0.00119869,-0.000886157,-0.000606835,-0.000151746,0.000110723,5.68535e-05,0,0,0,0,0,0,0,0.101024,-9.91153,-0.381406,20.9201,1.29396,0.348109,-0.246084,0.105478,-0.747352,-0.0126072,2.35812,0.720582,0.349358,-0.174472
1721448,0.97,-1.57086,-0.523169,-5.95123e-05,-2.09593,1.56992,1.57034,0.785693,-1.5708,-0.523599,4.23261e-08,-2.09439,1.5708,1.5708,0.785398,0.00065354,-0.000407302,-0.000590771,-0.000961368,0.000102286,-0.000400903,-0.000470724,0,0,0,0,0,0,0,0.0732535,-9.85995,-0.381406,20.9439,1.28847,0.360926,-0.232351,0.105715,-0.748402,-0.0118696,2.3587,0.720593,0.349325,-0.174734
1721449,0.97,-1.57087,-0.523165,-5.75693e-05,-2.09593,1.56992,1.57034,0.785692,-1.5708,-0.523599,4.23261e-08,-2.09439,1.5708,1.5708,0.785398,-0.000770733,0.000934891,0.000255767,-8.41003e-05,-0.00033871,0.000207449,-0.000551175,0,0,0,0,0,0,0,0.124828,-9.91153,-0.409177,20.9201,1.29946,0.348109,-0.225942,0.106018,-0.751004,-0.0109592,2.36043,0.720653,0.349271,-0.175066
1721450,0.97,-1.57087,-0.523167,-5.20999e-05,-2.09592,1.56992,1.57034,0.78569,-1.5708,-0.523599,4.23261e-08,-2.09439,1.5708,1.5708,0.785398,0.000692604,6.64488e-05,0.00128413,0.00170717,0.000384545,0.000375659,-0.000842168,0,0,0,0,0,0,0,0.0732535,-9.88773,-0.456784,20.8448,1.28298,0.3417,-0.213125,0.105652,-0.753328,-0.0111477,2.36172,0.720738,0.349319,-0.175428
1721451,0.97,-1.57087,-0.523165,-5.35209e-05,-2.09593,1.56992,1.57034,0.785694,-1.5708,-0.523599,4.23261e-08,-2.09439,1.5708,1.5708,0.785398,-0.0013015,0.000601111,0.00085609,-0.000625124,5.29127e-05,0.000250439,-0.000561445,0,0,0,0,0,0,0,0.148632,-9.91153,-0.456784,20.9201,1.28847,0.3417,-0.213125,0.104372,-0.754711,-0.0129106,2.36201,0.720839,0.349502,-0.17578
1721452,0.97,-1.57087,-0.523169,-5.5665e-05,-2.09592,1.56992,1.57034,0.785692,-1.5708,-0.523599,4.23261e-08,-2.09439,1.5708,1.5708,0.785398,0.000245956,-0.000805685,1.39147e-05,0.000696875,-0.000168175,-0.000307759,-0.00108637,0,0,0,0,0,0,0,0.101024,-9.85995,-0.432981,20.8725,1.29396,0.354518,-0.193899,0.103068,-0.755105,-0.0149187,2.36183,0.720935,0.349694,-0.176093
1721453,0.97,-1.57086,-0.523165,-5.74933e-05,-2.09592,1.56992,1.57034,0.78569,-1.5708,-0.523599,4.23261e-08,-2.09439,1.5708,1.5708,0.785398,0.000163971,0.000669302,-0.000547535,0.00167101,0.000294784,-0.000205172,-0.00048689,0,0,0,0,0,0,0,0.101024,-9.91153,-0.409177,20.821,1.28298,0.354518,-0.200308,0.10235,-0.753866,-0.0160544,2.36064,0.720969,0.349812,-0.176337
1721454,0.97,-1.57086,-0.523167,-5.94948e-05,-2.09593,1.56992,1.57034,0.785688,-1.5708,-0.523599,4.23261e-08,-2.09439,1.5708,1.5708,0.785398,0.000758928,-0.00011061,-0.00101464,-0.00120604,0.000196523,0.000337936,-0.000799311,0,0,0,0,0,0,0,0.0732535,-9.88773,-0.381406,20.9201,1.28298,0.3417,-0.18749,0.102277,-0.752313,-0.016045,2.35906,0.720948,0.349835,-0.176488
1721455,0.97,-1.57086,-0.523171,-5.5893e-05,-2.09593,1.56992,1.57034,0.785688,-1.5708,-0.523599,4.23261e-08,-2.09439,1.5708,1.5708,0.785398,0.000505952,-0.00128017,0.000530001,-0.000804029,0.000131015,0.00046265,-0.000532874,0,0,0,0,0,0,0,0.0732535,-9.83615,-0.432981,20.9201,1.28298,0.335292,-0.18749,0.102383,-0.751273,-0.0156347,2.3584,0.720945,0.349827,-0.176537
1721456,0.97,-1.57087,-0.523165,-5.95182e-05,-2.09592,1.56992,1.57034,0.785695,-1.5708,-0.523599,4.23261e-08,-2.09439,1.5708,1.5708,0.785398,-0.000869125,0.000909794,-0.000853092,0.00122722,0.000290794,-0.000166285,0.0010689,0,0,0,0,0,0,0,0.124828,-9.91153,-0.381406,20.8448,1.27748,0.348109,-0.225942,0.102482,-0.749879,-0.015234,2.35799,0.720941,0.34981,-0.176471
1721457,0.97,-1.57086,-0.523169,-6.11906e-05,-2.09592,1.56992,1.57034,0.785691,-1.5708,-0.523599,4.23261e-08,-2.09439,1.5708,1.5708,0.785398,-2.26045e-05,-0.000599897,-0.00112554,-0.000945092,-9.58788e-06,-0.000348215,-0.00094891,0,0,0,0,0,0,0,0.101024,-9.85995,-0.357602,20.9201,1.28298,0.354518,-0.181082,0.103424,-0.748952,-0.0135666,2.35757,0.720883,0.349637,-0.176302
1721458,0.97,-1.57086,-0.523169,-5.75719e-05,-2.09592,1.56992,1.57034,0.785694,-1.5708,-0.523599,4.23261e-08,-2.09439,1.5708,1.5708,0.785398,0.000634544,-0.000399931,0.000456066,-7.32496e-05,-6.39192e-06,5.21535e-06,0.000316829,0,0,0,0,0,0,0,0.0732535,-9.85995,-0.409177,20.8963,1.28298,0.348109,-0.206716,0.104614,-0.748361,-0.0114412,2.35743,0.7208,0.349415,-0.17606
1721459,0.97,-1.57086,-0.523165,-5.37712e-05,-2.09592,1.56992,1.57034,0.785691,-1.5708,-0.523599,4.23261e-08,-2.09439,1.5708,1.5708,0.785398,0.00042303,0.000939805,0.000860856,-0.000605645,-0.000207712,-0.000233882,-0.000975575,0,0,0,0,0,0,0,0.0732535,-9.91153,-0.432981,20.9201,1.28847,0.354518,-0.174673,0.104478,-0.748494,-0.0112708,2.35791,0.720771,0.349381,-0.175752
1721460,0.97,-1.57087,-0.523169,-5.35212e-05,-2.09592,1.56992,1.57034,0.78569,-1.5708,-0.523599,4.23261e-08,-2.09439,1.5708,1.5708,0.785398,-0.00148122,-0.000579889,0.00113072,0.00135947,-0.000138475,8.14376e-05,6.16933e-05,0,0,0,0,0,0,0,0.148632,-9.85995,-0.456784,20.8448,1.28847,0.348109,-0.193899,0.103219,-0.749481,-0.0129352,2.35859,0.720785,0.349499,-0.175377
1721461,0.97,-1.57087,-0.523169,-5.5205e-05,-2.09593,1.56992,1.57034,0.785691,-1.5708,-0.523599,4.23261e-08,-2.09439,1.5708,1.5708,0.785398,-0.000987479,-0.000386593,-0.000359813,-0.000856921,0.000111134,-0.000183067,0.000753206,0,0,0,0,0,0,0,0.148632,-9.85995,-0.409177,20.9201,1.28298,0.354518,-0.213125,0.102368,-0.749297,-0.0142615,2.35842,0.720759,0.349576,-0.174933
1721462,0.97,-1.57086,-0.523169,-5.8732e-05,-2.09592,1.56992,1.57034,0.785688,-1.5708,-0.523599,4.23261e-08,-2.09439,1.5708,1.5708,0.785398,0.00110492,-0.000257729,-0.000889489,0.00119196,-0.000536262,0.000352673,-0.00020994,0,0,0,0,0,0,0,0.0732535,-9.85995,-0.381406,20.8448,1.29946,0.3417,-0.193899,0.102504,-0.747856,-0.0141452,2.35754,0.720671,0.349534,-0.174439
1721463,0.97,-1.57087,-0.523165,-5.56388e-05,-2.09593,1.56992,1.57034,0.78569,-1.5708,-0.523599,4.23261e-08,-2.09439,1.5708,1.5708,0.785398,0.000736612,0.00103461,0.000613433,-0.0009686,4.9393e-05,-2.24356e-06,0.000334758,0,0,0,0,0,0,0,0.0732535,-9.91153,-0.432981,20.9201,1.28847,0.348109,-0.206716,0.102558,-0.747297,-0.0139479,2.35704,0.720591,0.349501,-0.173924
1721464,0.97,-1.57087,-0.523167,-5.58141e-05,-2.09592,1.56992,1.57034,0.785689,-1.5708,-0.523599,4.23261e-08,-2.09439,1.5708,1.5708,0.785398,-0.000715351,0.000132926,0.000408955,0.000467891,0.000236379,-1.49571e-06,-1.41869e-05,0,0,0,0,0,0,0,0.124828,-9.88773,-0.432981,20.8725,1.28298,0.348109,-0.200308,0.101934,-0.748986,-0.0147368,2.35768,0.720589,0.349543,-0.173403
1721465,0.97,-1.57086,-0.523167,-5.58726e-05,-2.09592,1.56992,1.57034,0.785695,-1.5708,-0.523599,4.23261e-08,-2.09439,1.5708,1.5708,0.785398,7.99113e-05,8.86173e-05,0.000272637,0.000311927,-0.000249315,0.000236362,0.000939978,0,0,0,0,0,0,0,0.101024,-9.88773,-0.432981,20.8725,1.29396,0.3417,-0.225942,0.101243,-0.751187,-0.015772,2.35853,0.720615,0.349586,-0.172887
1721466,0.97,-1.57086,-0.523169,-5.73808e-05,-2.09592,1.56992,1.57034,0.785691,-1.5708,-0.523599,4.23261e-08,-2.09439,1.5708,1.5708,0.785398,5.32742e-05,-0.000590536,-0.00102467,-0.000348861,3.72406e-05,-7.97844e-05,0.000151934,0,0,0,0,0,0,0,0.101024,-9.85995,-0.381406,20.8963,1.28847,0.348109,-0.213125,0.101043,-0.752069,-0.0161005,2.35866,0.720607,0.349568,-0.172392
1721467,0.97,-1.57087,-0.523171,-5.68588e-05,-2.09592,1.56992,1.57034,0.785697,-1.5708,-0.523599,4.23261e-08,-2.09439,1.5708,1.5708,0.785398,3.55161e-05,-0.000950502,-3.34981e-05,-0.000232574,2.4827e-05,-0.000290549,0.00105073,0,0,0,0,0,0,0,0.101024,-9.83615,-0.409177,20.8963,1.28847,0.354518,-0.23876,0.101435,-0.751246,-0.0154527,2.35821,0.720565,0.349483,-0.17194
1721468,0.97,-1.57087,-0.523165,-5.5664e-05,-2.09592,1.56992,1.57034,0.785695,-1.5708,-0.523599,4.23261e-08,-2.09439,1.5708,1.5708,0.785398,-0.00108995,0.00112957,0.00053448,-0.000155049,0.000220002,-0.000193699,0.000971751,0,0,0,0,0,0,0,0.148632,-9.91153,-0.432981,20.8963,1.28298,0.354518,-0.246084,0.102026,-0.750181,-0.0145668,2.35783,0.720528,0.349377,-0.171554
1721469,0.97,-1.57086,-0.523171,-5.7493e-05,-2.09592,1.56992,1.57034,0.785694,-1.5708,-0.523599,4.23261e-08,-2.09439,1.5708,1.5708,0.785398,0.00103661,-0.00101019,-0.000200492,-0.000103366,-0.000260233,0.000345585,0.000376566,0,0,0,0,0,0,0,0.0732535,-9.83615,-0.409177,20.8963,1.29396,0.3417,-0.23876,0.102366,-0.750255,-0.0141881,2.35801,0.72053,0.349304,-0.171258
1721470,0.97,-1.57087,-0.523167,-5.75458e-05,-2.09593,1.56992,1.57034,0.785697,-1.5708,-0.523599,4.23261e-08,-2.09439,1.5708,1.5708,0.785398,-0.000515355,0.000532965,-0.000133661,-6.89107e-05,-0.000173489,-0.000481687,0.000522312,0,0,0,0,0,0,0,0.124828,-9.88773,-0.409177,20.8963,1.29396,0.360926,-0.246084,0.102452,-0.750359,-0.0141783,2.35819,0.720542,0.349277,-0.171074
1721471,0.97,-1.57087,-0.523169,-5.42226e-05,-2.09592,1.56992,1.57034,0.785696,-1.5708,-0.523599,4.23261e-08,-2.09439,1.5708,1.5708,0.785398,0.000213242,-0.000294304,0.00102452,0.0017173,8.77914e-05,0.000390952,0.000585567,0,0,0,0,0,0,0,0.101024,-9.85995,-0.456784,20.821,1.28847,0.3417,-0.252493,0.102284,-0.749886,-0.0145691,2.35775,0.720547,0.3493,-0.171004
1721472,0.97,-1.57087,-0.523169,-5.75693e-05,-2.09593,1.56992,1.57034,0.785691,-1.5708,-0.523599,4.23261e-08,-2.09439,1.5708,1.5708,0.785398,0.000142161,-0.000196203,-0.000430613,-0.001732,0.000465429,2.3276e-05,-0.00106768,0,0,0,0,0,0,0,0.101024,-9.85995,-0.409177,20.9439,1.27748,0.348109,-0.213125,0.101792,-0.749047,-0.0155208,2.3569,0.720561,0.34938,-0.171049
1721473,0.97,-1.57087,-0.523167,-5.75713e-05,-2.09593,1.56992,1.57034,0.785695,-1.5708,-0.523599,4.23261e-08,-2.09439,1.5708,1.5708,0.785398,9.47743e-05,0.000518812,-0.000287075,-0.000597853,0.000310286,-0.000221842,0.000746273,0,0,0,0,0,0,0,0.101024,-9.88773,-0.409177,20.9201,1.27748,0.354518,-0.252493,0.101508,-0.749524,-0.0161474,2.35725,0.720614,0.349426,-0.171201
1721474,0.97,-1.57086,-0.523169,-5.22822e-05,-2.09593,1.56992,1.57034,0.785692,-1.5708,-0.523599,4.23261e-08,-2.09439,1.5708,1.5708,0.785398,0.000712797,-0.000303739,0.00157185,-0.00095538,3.40664e-06,-0.000147894,-0.000485829,0,0,0,0,0,0,0,0.0732535,-9.85995,-0.484555,20.9439,1.28298,0.354518,-0.225942,0.101039,-0.751775,-0.0170533,2.35904,0.720711,0.349488,-0.171427
1721475,0.97,-1.57087,-0.523171,-5.59017e-05,-2.09592,1.56992,1.57034,0.785693,-1.5708,-0.523599,4.23261e-08,-2.09439,1.5708,1.5708,0.785398,-0.000731228,-0.000759305,-0.000158523,0.00103352,-0.00040463,-9.85963e-05,0.000150832,0,0,0,0,0,0,0,0.124828,-9.83615,-0.432981,20.8725,1.29396,0.354518,-0.23876,0.0999229,-0.75288,-0.0190213,2.36027,0.720793,0.349662,-0.171702
1721476,0.97,-1.57087,-0.523169,-5.75722e-05,-2.09592,1.56992,1.57034,0.785688,-1.5708,-0.523599,4.23261e-08,-2.09439,1.5708,1.5708,0.785398,6.93266e-05,5.06088e-05,-0.000662494,0.000132198,-0.000269753,-6.57309e-05,-0.00156096,0,0,0,0,0,0,0,0.101024,-9.85995,-0.409177,20.8963,1.29396,0.354518,-0.193899,0.0994434,-0.751598,-0.0200746,2.35988,0.720776,0.349772,-0.172011
1721477,0.97,-1.57086,-0.523171,-5.95211e-05,-2.09592,1.56993,1.57034,0.785691,-1.5708,-0.523599,4.23261e-08,-2.09439,1.5708,1.5708,0.785398,4.62177e-05,-0.000523073,-0.00109128,8.81323e-05,0.000430516,0.000193538,-9.12029e-05,0,0,0,0,0,0,0,0.101024,-9.83615,-0.381406,20.8963,1.27748,0.348109,-0.219534,0.100245,-0.749501,-0.0190958,2.35878,0.720676,0.349707,-0.172328
1721478,0.97,-1.57087,-0.523167,-5.59018e-05,-2.09592,1.56992,1.57034,0.785691,-1.5708,-0.523599,4.23261e-08,-2.09439,1.5708,1.5708,0.785398,-0.000526,0.000857711,0.000478908,0.00126518,-0.000323341,0.000366385,-6.0802e-05,0,0,0,0,0,0,0,0.124828,-9.88773,-0.432981,20.8448,1.29396,0.3417,-0.219534,0.101637,-0.747837,-0.0171549,2.35765,0.720551,0.34955,-0.172616
1721479,0.97,-1.57086,-0.523167,-5.42314e-05,-2.09592,1.56992,1.57034,0.78569,-1.5708,-0.523599,4.23261e-08,-2.09439,1.5708,1.5708,0.785398,0.00141257,0.000571807,0.000876084,0.00019384,-1.21101e-05,0.000244256,-0.000277894,0,0,0,0,0,0,0,0.0494498,-9.88773,-0.456784,20.8725,1.28847,0.3417,-0.213125,0.102229,-0.747574,-0.0164551,2.35684,0.720467,0.349484,-0.172855
1721480,0.97,-1.57087,-0.523167,-5.75723e-05,-2.09592,1.56992,1.57034,0.785688,-1.5708,-0.523599,4.23261e-08,-2.09439,1.5708,1.5708,0.785398,-0.000264712,0.000381205,-0.000529568,0.000129227,-8.07338e-06,0.000162838,-0.000897339,0,0,0,0,0,0,0,0.101024,-9.88773,-0.409177,20.8725,1.28847,0.3417,-0.193899,0.101693,-0.748948,-0.0174291,2.3568,0.720458,0.349548,-0.173047
1721481,0.97,-1.57087,-0.523169,-5.75723e-05,-2.09592,1.56992,1.57034,0.785687,-1.5708,-0.523599,4.23261e-08,-2.09439,1.5708,1.5708,0.785398,-0.000176475,-0.000395477,-0.000353045,8.61511e-05,-0.000208833,0.000345917,-0.000835585,0,0,0,0,0,0,0,0.101024,-9.85995,-0.409177,20.8725,1.29396,0.335292,-0.18749,0.101467,-0.750455,-0.0178748,2.35704,0.720458,0.349543,-0.173185
1721482,0.97,-1.57086,-0.523169,-5.75723e-05,-2.09592,1.56992,1.57034,0.78569,-1.5708,-0.523599,4.23261e-08,-2.09439,1.5708,1.5708,0.785398,-0.00011765,-0.000263652,-0.000235363,-0.000499378,6.42287e-05,-0.000244106,0.000392379,0,0,0,0,0,0,0,0.101024,-9.85995,-0.409177,20.8963,1.28847,0.348109,-0.213125,0.101979,-0.750927,-0.0171846,2.35709,0.720439,0.349417,-0.173247
1721483,0.97,-1.57087,-0.523167,-5.75723e-05,-2.09592,1.56992,1.57034,0.785692,-1.5708,-0.523599,4.23261e-08,-2.09439,1.5708,1.5708,0.785398,-0.00119206,0.000473846,-0.000156909,0.000223893,-0.000160631,-0.000162738,-0.000213132,0,0,0,0,0,0,0,0.148632,-9.88773,-0.409177,20.8725,1.29396,0.348109,-0.200308,0.10289,-0.751131,-0.0159316,2.35726,0.720426,0.349215,-0.173223
1721484,0.97,-1.57087,-0.523167,-5.73906e-05,-2.09592,1.56992,1.57034,0.785694,-1.5708,-0.523599,4.23261e-08,-2.09439,1.5708,1.5708,0.785398,-0.000237893,0.000315897,-0.00075422,0.000798876,9.63629e-05,-0.00058321,9.5271e-05,0,0,0,0,0,0,0,0.124828,-9.88773,-0.381406,20.8448,1.28847,0.360926,-0.206716,0.104302,-0.751819,-0.013991,2.35748,0.720408,0.348924,-0.173126
1721485,0.97,-1.57087,-0.523169,-5.47316e-05,-2.09593,1.56992,1.57034,0.785691,-1.5708,-0.523599,4.23261e-08,-2.09439,1.5708,1.5708,0.785398,0.000398217,-0.000439016,0.000146801,-0.000673842,-0.000139209,-0.000151447,-0.000885922,0,0,0,0,0,0,0,0.101024,-9.85995,-0.409177,20.8963,1.29396,0.354518,-0.181082,0.105645,-0.752316,-0.0121242,2.35742,0.720392,0.348657,-0.172968
1721486,0.97,-1.57087,-0.523167,-5.32845e-05,-2.09593,1.56993,1.57034,0.785691,-1.5708,-0.523599,4.23261e-08,-2.09439,1.5708,1.5708,0.785398,0.000915092,0.000356937,0.00121149,-0.000449228,0.000314095,-0.000100965,-0.000827973,0,0,0,0,0,0,0,0.0732535,-9.88773,-0.456784,20.8963,1.28298,0.354518,-0.174673,0.105631,-0.752706,-0.0122525,2.3576,0.720448,0.348621,-0.172754
1721487,0.97,-1.57087,-0.523173,-5.55862e-05,-2.09593,1.56992,1.57034,0.785695,-1.5708,-0.523599,4.23261e-08,-2.09439,1.5708,1.5708,0.785398,-0.000596365,-0.00161808,0.000250849,-0.00141311,0.000209397,0.000407408,0.000872171,0,0,0,0,0,0,0,0.124828,-9.80838,-0.432981,20.9439,1.28298,0.3417,-0.213125,0.104275,-0.752785,-0.0144633,2.35818,0.720582,0.348817,-0.172468
1721488,0.97,-1.57086,-0.523173,-5.94159e-05,-2.09593,1.56992,1.57034,0.785693,-1.5708,-0.523599,4.23261e-08,-2.09439,1.5708,1.5708,0.785398,0.000808849,-0.00107872,-0.00103919,-0.000385261,0.000139598,3.42463e-05,0.00105617,0,0,0,0,0,0,0,0.0732535,-9.80838,-0.381406,20.9201,1.28298,0.348109,-0.225942,0.103129,-0.750844,-0.0163624,2.35828,0.720689,0.349022,-0.172112
1721489,0.97,-1.57087,-0.523165,-5.54067e-05,-2.09592,1.56992,1.57034,0.785689,-1.5708,-0.523599,4.23261e-08,-2.09439,1.5708,1.5708,0.785398,-0.000667193,0.0016937,-4.31817e-05,0.000299971,9.30653e-05,2.28309e-05,-0.000482684,0,0,0,0,0,0,0,0.124828,-9.91153,-0.409177,20.8963,1.28298,0.348109,-0.193899,0.102936,-0.748758,-0.0167063,2.35821,0.72073,0.349084,-0.171722
1721490,0.97,-1.57087,-0.523171,-5.68504e-05,-2.09592,1.56992,1.57034,0.785695,-1.5708,-0.523599,4.23261e-08,-2.09439,1.5708,1.5708,0.785398,0.000112017,-0.000634102,-2.87878e-05,0.000756793,0.000265494,1.52206e-05,0.000865005,0,0,0,0,0,0,0,0.101024,-9.83615,-0.409177,20.8725,1.27748,0.348109,-0.225942,0.103251,-0.74868,-0.0162427,2.35842,0.720732,0.349033,-0.171334
1721491,0.97,-1.57086,-0.523169,-5.52011e-05,-2.09592,1.56992,1.57034,0.785691,-1.5708,-0.523599,4.23261e-08,-2.09439,1.5708,1.5708,0.785398,0.000724292,0.000134078,-1.91919e-05,-5.22834e-05,-0.000229905,-0.000227212,-0.000135407,0,0,0,0,0,0,0,0.0732535,-9.85995,-0.409177,20.8963,1.28847,0.354518,-0.206716,0.103357,-0.74852,-0.0160531,2.35813,0.720697,0.349006,-0.170958
1721492,0.97,-1.57086,-0.523171,-5.67819e-05,-2.09593,1.56992,1.57034,0.785694,-1.5708,-0.523599,4.23261e-08,-2.09439,1.5708,1.5708,0.785398,-0.000166753,-0.000467427,-1.27946e-05,-0.000591668,5.01805e-05,0.000323243,0.00109652,0,0,0,0,0,0,0,0.101024,-9.83615,-0.409177,20.9201,1.28298,0.3417,-0.23876,0.103063,-0.747794,-0.0163755,2.35767,0.720649,0.349044,-0.17061
1721493,0.97,-1.57086,-0.523167,-5.92576e-05,-2.09592,1.56992,1.57034,0.785693,-1.5708,-0.523599,4.23261e-08,-2.09439,1.5708,1.5708,0.785398,-0.000111169,0.000894808,-0.000658144,0.000719179,3.34537e-05,-0.000259222,0.000731016,0,0,0,0,0,0,0,0.101024,-9.88773,-0.381406,20.8725,1.28298,0.354518,-0.23876,0.102991,-0.747735,-0.0163163,2.35769,0.720595,0.349037,-0.170309
1721494,0.97,-1.57087,-0.523169,-5.94333e-05,-2.09592,1.56992,1.57034,0.785696,-1.5708,-0.523599,4.23261e-08,-2.09439,1.5708,1.5708,0.785398,-7.41124e-05,-5.30753e-05,-0.000438762,0.000479453,-0.000384599,6.4544e-05,0.000487344,0,0,0,0,0,0,0,0.101024,-9.85995,-0.381406,20.8725,1.29396,0.348109,-0.23876,0.103496,-0.748329,-0.0153105,2.35776,0.720506,0.34893,-0.170079
1721495,0.97,-1.57086,-0.523167,-5.7543e-05,-2.09592,1.56992,1.57034,0.785696,-1.5708,-0.523599,4.23261e-08,-2.09439,1.5708,1.5708,0.785398,0.00115702,0.00061423,0.000357106,0.000319635,-0.000256399,-0.00019433,0.000833522,0,0,0,0,0,0,0,0.0494498,-9.88773,-0.409177,20.8725,1.29396,0.354518,-0.252493,0.103789,-0.749097,-0.0144919,2.35768,0.720413,0.348847,-0.169939
1721496,0.97,-1.57087,-0.523169,-5.58921e-05,-2.09593,1.56992,1.57034,0.785697,-1.5708,-0.523599,4.23261e-08,-2.09439,1.5708,1.5708,0.785398,-0.000991893,-0.000240127,0.000794882,-0.000343722,0.000642869,0.000345165,4.70551e-05,0,0,0,0,0,0,0,0.124828,-9.85995,-0.432981,20.8963,1.27199,0.3417,-0.23876,0.103215,-0.749943,-0.0149426,2.35773,0.720369,0.348893,-0.169903
1721497,0.97,-1.57087,-0.523167,-5.95178e-05,-2.09592,1.56992,1.57034,0.785698,-1.5708,-0.523599,4.23261e-08,-2.09439,1.5708,1.5708,0.785398,-0.00010445,0.000489529,-0.000676504,0.000327664,-0.000385222,-7.24906e-06,0.00125207,0,0,0,0,0,0,0,0.101024,-9.88773,-0.381406,20.8725,1.29396,0.348109,-0.271719,0.102629,-0.75082,-0.0154994,2.35801,0.720352,0.348943,-0.169978
1721498,0.97,-1.57087,-0.523169,-5.59007e-05,-2.09593,1.56993,1.57034,0.785697,-1.5708,-0.523599,4.23261e-08,-2.09439,1.5708,1.5708,0.785398,-0.000626445,-0.000323261,0.000755423,-0.000895181,0.000556987,0.000232526,-0.000385988,0,0,0,0,0,0,0,0.124828,-9.85995,-0.432981,20.9201,1.27199,0.3417,-0.23876,0.102582,-0.751696,-0.0153153,2.35849,0.720331,0.348912,-0.170169
1721499,0.97,-1.57086,-0.523169,-5.75719e-05,-2.09592,1.56992,1.57033,0.785695,-1.5708,-0.523599,4.23261e-08,-2.09439,1.5708,1.5708,0.785398,0.000788796,-0.000215507,-5.31966e-05,-3.99755e-05,-3.55763e-05,-0.000557059,1.39423e-05,0,0,0,0,0,0,0,0.0732535,-9.85995,-0.409177,20.8963,1.28298,0.360926,-0.246084,0.102375,-0.752178,-0.0153958,2.35908,0.720318,0.348913,-0.170474
1721500,0.97,-1.57087,-0.523169,-5.9521e-05,-2.09592,1.56992,1.57034,0.785695,-1.5708,-0.523599,4.23261e-08,-2.09439,1.5708,1.5708,0.785398,-0.00123737,-0.000143672,-0.000685078,0.000530162,-0.000227168,0.000340704,0.000246654,0,0,0,0,0,0,0,0.148632,-9.85995,-0.381406,20.8725,1.28847,0.3417,-0.252493,0.102248,-0.75161,-0.015332,2.35915,0.720272,0.348917,-0.170872
1721501,0.97,-1.57087,-0.523169,-5.42313e-05,-2.09593,1.56992,1.57034,0.785693,-1.5708,-0.523599,4.23261e-08,-2.09439,1.5708,1.5708,0.785398,-0.000268104,-9.57811e-05,0.00130652,-0.000760183,-0.000151445,-1.0223e-05,-0.000581549,0,0,0,0,0,0,0,0.124828,-9.85995,-0.456784,20.9201,1.28847,0.348109,-0.232351,0.102597,-0.750506,-0.0146499,2.35881,0.720188,0.34886,-0.17134
1721502,0.97,-1.57086,-0.523167,-5.75722e-05,-2.09592,1.56992,1.57034,0.785697,-1.5708,-0.523599,4.23261e-08,-2.09439,1.5708,1.5708,0.785398,0.000378076,0.00058576,-0.000242611,0.000606835,0.000102487,-0.000244174,0.000120927,0,0,0,0,0,0,0,0.101024,-9.88773,-0.409177,20.8725,1.28298,0.354518,-0.246084,0.102588,-0.750051,-0.0146741,2.35881,0.720133,0.348855,-0.17186
1721503,0.97,-1.57087,-0.523171,-5.75722e-05,-2.09592,1.56992,1.57034,0.785698,-1.5708,-0.523599,4.23261e-08,-2.09439,1.5708,1.5708,0.785398,-0.000304761,-0.000815919,-0.000161741,0.000404557,-0.000135126,7.45761e-05,8.06178e-05,0,0,0,0,0,0,0,0.124828,-9.83615,-0.409177,20.8725,1.28847,0.348109,-0.246084,0.102335,-0.749539,-0.0150771,2.35854,0.720075,0.348895,-0.172409
1721504,0.97,-1.57086,-0.523169,-5.95211e-05,-2.09593,1.56992,1.57034,0.785695,-1.5708,-0.523599,4.23261e-08,-2.09439,1.5708,1.5708,0.785398,0.000353638,1.28658e-05,-0.000757441,-0.00140073,-9.00839e-05,0.000287076,-0.000217522,0,0,0,0,0,0,0,0.101024,-9.85995,-0.381406,20.9439,1.28847,0.3417,-0.23876,0.102573,-0.748313,-0.0147048,2.35798,0.719988,0.34888,-0.172976
1721505,0.97,-1.57087,-0.523171,-5.95211e-05,-2.09592,1.56992,1.57034,0.785696,-1.5708,-0.523599,4.23261e-08,-2.09439,1.5708,1.5708,0.785398,-0.000321053,-0.000548235,-0.000504961,0.000736615,0.000550296,0.000191384,-0.000382374,0,0,0,0,0,0,0,0.124828,-9.83615,-0.381406,20.8725,1.27199,0.3417,-0.232351,0.103357,-0.747113,-0.0134737,2.35775,0.719898,0.34879,-0.173558
1721506,0.97,-1.57086,-0.523167,-5.75723e-05,-2.09592,1.56992,1.57034,0.785694,-1.5708,-0.523599,4.23261e-08,-2.09439,1.5708,1.5708,0.785398,0.00099239,0.000840936,0.000312973,0.000491077,-4.00373e-05,-0.000347128,-0.000254916,0,0,0,0,0,0,0,0.0732535,-9.88773,-0.409177,20.8725,1.28298,0.354518,-0.232351,0.104044,-0.74605,-0.0123329,2.35736,0.719801,0.348705,-0.174134
1721507,0.97,-1.57086,-0.523165,-5.73906e-05,-2.09593,1.56992,1.57034,0.785693,-1.5708,-0.523599,4.23261e-08,-2.09439,1.5708,1.5708,0.785398,0.000661593,0.00111744,-0.000440965,-0.000229427,-2.66915e-05,-0.000231419,-0.000169944,0,0,0,0,0,0,0,0.0732535,-9.91153,-0.381406,20.8963,1.28298,0.354518,-0.232351,0.103918,-0.746763,-0.0123084,2.35747,0.719734,0.34871,-0.174688
1721508,0.97,-1.57087,-0.523165,-5.51916e-05,-2.09593,1.56992,1.57034,0.785692,-1.5708,-0.523599,4.23261e-08,-2.09439,1.5708,1.5708,0.785398,-0.000208552,0.000744957,0.000912449,-0.00191619,-1.77944e-05,8.30797e-05,-0.000350655,0,0,0,0,0,0,0,0.101024,-9.91153,-0.432981,20.9717,1.28298,0.348109,-0.225942,0.103198,-0.750866,-0.0131339,2.35956,0.71975,0.348761,-0.175213
1721509,0.97,-1.57087,-0.523165,-5.35346e-05,-2.09592,1.56992,1.57034,0.78569,-1.5708,-0.523599,4.23261e-08,-2.09439,1.5708,1.5708,0.785398,-0.000695846,0.000496638,0.000608299,0.0016922,-1.18629e-05,0.000292745,-0.000708488,0,0,0,0,0,0,0,0.124828,-9.91153,-0.432981,20.8448,1.28298,0.3417,-0.213125,0.102309,-0.756201,-0.0143707,2.36254,0.719811,0.348825,-0.1757
1721510,0.97,-1.57087,-0.523169,-5.8732e-05,-2.09593,1.56992,1.57034,0.785696,-1.5708,-0.523599,4.23261e-08,-2.09439,1.5708,1.5708,0.785398,9.29144e-05,-0.000875334,-0.000800893,-0.00119191,-0.000211359,-0.000279554,0.000477111,0,0,0,0,0,0,0,0.101024,-9.85995,-0.381406,20.9439,1.28847,0.354518,-0.23876,0.101801,-0.759178,-0.0151422,2.36413,0.719809,0.348857,-0.17613
1721511,0.97,-1.57087,-0.523167,-5.35083e-05,-2.09592,1.56992,1.57034,0.785691,-1.5708,-0.523599,4.23261e-08,-2.09439,1.5708,1.5708,0.785398,-0.00105168,6.60581e-05,0.000672497,0.000319015,-0.000140906,0.000288348,-0.000868721,0,0,0,0,0,0,0,0.148632,-9.88773,-0.432981,20.8963,1.28847,0.3417,-0.206716,0.102012,-0.759278,-0.0148552,2.36436,0.719734,0.348818,-0.1765
1721512,0.97,-1.57087,-0.523167,-6.03937e-05,-2.09592,1.56992,1.57034,0.785689,-1.5708,-0.523599,4.23261e-08,-2.09439,1.5708,1.5708,0.785398,0.000412503,4.40387e-05,-0.00131491,-0.000344135,0.000109513,0.000192232,-0.00105387,0,0,0,0,0,0,0,0.101024,-9.88773,-0.357602,20.9201,1.28298,0.3417,-0.193899,0.102786,-0.758372,-0.0137509,2.36418,0.719631,0.348711,-0.176813
1721513,0.97,-1.57087,-0.523169,-5.73063e-05,-2.09592,1.56992,1.57034,0.78569,-1.5708,-0.523599,4.23261e-08,-2.09439,1.5708,1.5708,0.785398,0.000924616,-0.000620255,0.000329822,0.000327388,-0.000130442,-0.000109204,-0.000227859,0,0,0,0,0,0,0,0.0732535,-9.85995,-0.409177,20.8963,1.28847,0.348109,-0.206716,0.103575,-0.756856,-0.0124902,2.3636,0.719512,0.348605,-0.17705
1721514,0.97,-1.57087,-0.523173,-5.58132e-05,-2.09592,1.56992,1.57034,0.785689,-1.5708,-0.523599,4.23261e-08,-2.09439,1.5708,1.5708,0.785398,-0.00114683,-0.00161993,0.000776693,-0.000338553,-0.000290412,-7.28027e-05,-0.000389265,0,0,0,0,0,0,0,0.148632,-9.80838,-0.432981,20.9201,1.29396,0.348109,-0.200308,0.10369,-0.753214,-0.0121947,2.36204,0.71939,0.348619,-0.177187
1721515,0.97,-1.57086,-0.523169,-5.94915e-05,-2.09592,1.56992,1.57034,0.785687,-1.5708,-0.523599,4.23261e-08,-2.09439,1.5708,1.5708,0.785398,0.000349072,0.000126473,-0.000688631,0.000887922,-0.000193608,0.000188824,-0.000971587,0,0,0,0,0,0,0,0.101024,-9.85995,-0.381406,20.8725,1.29396,0.3417,-0.181082,0.103593,-0.74771,-0.0123469,2.35956,0.719265,0.348681,-0.17722
1721516,0.97,-1.57086,-0.523167,-5.5892e-05,-2.09592,1.56992,1.57034,0.785695,-1.5708,-0.523599,4.23261e-08,-2.09439,1.5708,1.5708,0.785398,0.000882329,0.000733929,0.000747339,0.00179837,7.43787e-05,0.000125883,0.00101379,0,0,0,0,0,0,0,0.0732535,-9.88773,-0.432981,20.821,1.28847,0.3417,-0.225942,0.10341,-0.743057,-0.0125908,2.35694,0.719148,0.34873,-0.177148
1721517,0.97,-1.57086,-0.523169,-5.95178e-05,-2.09593,1.56992,1.57034,0.78569,-1.5708,-0.523599,4.23261e-08,-2.09439,1.5708,1.5708,0.785398,-6.13946e-05,-0.000160328,-0.0007082,-0.00167795,4.95858e-05,-0.000153437,-0.000273577,0,0,0,0,0,0,0,0.101024,-9.85995,-0.381406,20.9439,1.28847,0.348109,-0.200308,0.102857,-0.740977,-0.0132778,2.35525,0.719089,0.348786,-0.176981
1721518,0.97,-1.57087,-0.523167,-5.59007e-05,-2.09592,1.56992,1.57034,0.785691,-1.5708,-0.523599,4.23261e-08,-2.09439,1.5708,1.5708,0.785398,-4.09298e-05,0.000542729,0.000734293,0.000551805,-0.000170393,-0.000102292,0.000292333,0,0,0,0,0,0,0,0.101024,-9.88773,-0.432981,20.8725,1.29396,0.348109,-0.213125,0.102411,-0.741439,-0.013803,2.3553,0.719111,0.34879,-0.176754
1721519,0.97,-1.57086,-0.523167,-5.75719e-05,-2.09593,1.56992,1.57034,0.785688,-1.5708,-0.523599,4.23261e-08,-2.09439,1.5708,1.5708,0.785398,-2.72865e-05,0.000361819,-6.72836e-05,-0.000745754,0.000293305,0.000169165,-0.000517188,0,0,0,0,0,0,0,0.101024,-9.88773,-0.409177,20.9201,1.28298,0.3417,-0.193899,0.102072,-0.743658,-0.0142326,2.35656,0.719193,0.348754,-0.176487
1721520,0.97,-1.57086,-0.523165,-5.9521e-05,-2.09592,1.56992,1.57034,0.78569,-1.5708,-0.523599,4.23261e-08,-2.09439,1.5708,1.5708,0.785398,-1.8191e-05,0.000798025,-0.00069447,5.96428e-05,0.000195537,0.000112776,0.000367285,0,0,0,0,0,0,0,0.101024,-9.91153,-0.381406,20.8963,1.28298,0.3417,-0.213125,0.102049,-0.747181,-0.0141843,2.35851,0.7193,0.348649,-0.176188
1721521,0.97,-1.57087,-0.523169,-5.59018e-05,-2.09592,1.56992,1.57034,0.785696,-1.5708,-0.523599,4.23261e-08,-2.09439,1.5708,1.5708,0.785398,-0.000568939,-0.000674409,0.000743446,3.97619e-05,0.000130358,-0.000162175,0.000956933,0,0,0,0,0,0,0,0.124828,-9.85995,-0.432981,20.8963,1.28298,0.348109,-0.232351,0.102486,-0.750487,-0.0134351,2.36034,0.719386,0.348472,-0.175862
1721522,0.97,-1.57087,-0.523169,-5.95211e-05,-2.09592,1.56992,1.57034,0.785695,-1.5708,-0.523599,4.23261e-08,-2.09439,1.5708,1.5708,0.785398,0.000177519,-0.000449606,-0.000710795,0.00123293,-0.000116545,-0.000108116,-7.41213e-05,0,0,0,0,0,0,0,0.101024,-9.85995,-0.381406,20.8448,1.28847,0.348109,-0.213125,0.102967,-0.750949,-0.012652,2.36051,0.719405,0.348317,-0.175523
1721523,0.97,-1.57087,-0.523169,-5.37713e-05,-2.09592,1.56992,1.57034,0.785696,-1.5708,-0.523599,4.23261e-08,-2.09439,1.5708,1.5708,0.785398,0.000118346,-0.000299738,0.000732562,-0.00038447,-7.76968e-05,-0.000309437,0.000425304,0,0,0,0,0,0,0,0.101024,-9.85995,-0.432981,20.8963,1.28847,0.354518,-0.225942,0.103238,-0.748853,-0.0121631,2.35919,0.719367,0.348227,-0.175201
1721524,0.97,-1.57087,-0.523165,-5.47316e-05,-2.09592,1.56992,1.57034,0.785698,-1.5708,-0.523599,4.23261e-08,-2.09439,1.5708,1.5708,0.785398,7.88974e-05,0.0010066,-6.8437e-05,0.000300499,-5.17979e-05,3.10679e-05,0.000758254,0,0,0,0,0,0,0,0.101024,-9.91153,-0.409177,20.8725,1.28847,0.348109,-0.23876,0.103081,-0.747422,-0.0123237,2.35822,0.719355,0.348203,-0.174912
1721525,0.97,-1.57087,-0.523169,-5.66254e-05,-2.09593,1.56992,1.57034,0.785696,-1.5708,-0.523599,4.23261e-08,-2.09439,1.5708,1.5708,0.785398,5.25982e-05,-0.000535359,-4.56246e-05,-0.00211972,0.000168919,-0.000216647,0.00101413,0,0,0,0,0,0,0,0.101024,-9.85995,-0.409177,20.9717,1.28298,0.354518,-0.252493,0.102795,-0.748384,-0.0127111,2.35884,0.719405,0.348187,-0.174676
1721526,0.97,-1.57086,-0.523169,-5.92055e-05,-2.09593,1.56992,1.57034,0.785694,-1.5708,-0.523599,4.23261e-08,-2.09439,1.5708,1.5708,0.785398,3.50655e-05,-0.000356906,-0.00068003,-0.000206719,0.000112612,-0.000144431,0.00016746,0,0,0,0,0,0,0,0.101024,-9.85995,-0.381406,20.9201,1.28298,0.354518,-0.23876,0.102867,-0.750131,-0.0125337,2.36051,0.71948,0.348134,-0.17452
1721527,0.97,-1.57086,-0.523169,-5.7467e-05,-2.09592,1.56992,1.57034,0.785697,-1.5708,-0.5236,2.54233e-06,-2.09439,1.57079,1.57079,0.785403,0.000672991,-0.000237937,0.00019626,0.000975811,-0.000535277,0.00037843,0.00011164,-0.00375,-0.00157493,0.0025,0.000233764,-0.00223738,-0.00166143,0.005,0.0732535,-9.85995,-0.409177,20.8725,1.29946,0.3417,-0.23876,0.103101,-0.750432,-0.0120177,2.36143,0.719513,0.348089,-0.174455
1721528,0.97,-1.57087,-0.523169,-5.75372e-05,-2.09592,1.56992,1.57034,0.785697,-1.57081,-0.523604,7.54233e-06,-2.09439,1.57079,1.57079,0.785413,-0.00131458,-0.000158625,0.00013084,0.000650541,0.0002535,0.000252287,0.000820412,-0.0075,-0.00314986,0.005,0.000467528,-0.00447476,-0.00332287,0.01,0.148632,-9.85995,-0.409177,20.8725,1.28298,0.3417,-0.258901,0.103284,-0.748919,-0.0115602,2.36075,0.719485,0.34807,-0.174476
1721529,0.97,-1.57087,-0.523167,-5.75606e-05,-2.09592,1.56992,1.57034,0.785695,-1.57082,-0.523608,1.50423e-05,-2.09439,1.57078,1.57079,0.785428,-0.000876385,0.000543864,8.72268e-05,0.000433694,0.000372451,0.000168191,-0.000673762,-0.01125,-0.00472479,0.0075,0.000701292,-0.00671214,-0.0049843,0.015,0.148632,-9.88773,-0.409177,20.8725,1.27748,0.3417,-0.225942,0.103899,-0.747179,-0.0106332,2.35944,0.719431,0.347985,-0.174582
1721530,0.97,-1.57087,-0.523169,-5.52561e-05,-2.09592,1.56992,1.57034,0.785697,-1.57083,-0.523615,2.50423e-05,-2.09439,1.57077,1.57078,0.785448,0.00117898,-0.00359463,0.00253922,-0.00138131,-0.000362051,0.000349486,-0.000211816,-0.015,-0.00629973,0.01,0.000935056,-0.00894952,-0.00664574,0.02,0.0732535,-9.98691,-0.381406,20.9439,1.29396,0.335292,-0.232351,0.103867,-0.744188,-0.0109075,2.35782,0.719403,0.348013,-0.174769
1721531,0.97,-1.57087,-0.523165,-5.10661e-05,-2.09593,1.56992,1.57034,0.785692,-1.57085,-0.523622,3.75423e-05,-2.09439,1.57076,1.57077,0.785473,0.00254923,-0.00188736,0.00390019,-0.0014051,0.000809794,0.000707709,-0.00298952,-0.01875,-0.00787466,0.0125,0.00116882,-0.0111869,-0.00830717,0.025,-0.00212494,-10.2924,-0.329831,21.0947,1.26558,0.322474,-0.155447,0.100401,-0.737375,-0.016477,2.35543,0.719487,0.348597,-0.175005
1721532,0.97,-1.57087,-0.523167,-4.31e-05,-2.09593,1.56992,1.57034,0.785692,-1.57088,-0.523632,5.25423e-05,-2.09439,1.57075,1.57076,0.785503,0.00346272,-0.000837436,0.00444448,-0.00231064,0.00135366,0.00118388,-0.00321371,-0.0225,-0.00944959,0.015,0.00140258,-0.0134243,-0.0099686,0.03,-0.0775034,-10.6177,-0.254453,21.2931,1.24361,0.303248,-0.122488,0.0923919,-0.730401,-0.0287383,2.35399,0.719762,0.349825,-0.175231
1721533,0.97,-1.57088,-0.523172,-2.96992e-05,-2.09593,1.56992,1.57034,0.785696,-1.5709,-0.523643,7.00423e-05,-2.09439,1.57073,1.57075,0.785538,-0.000775699,-0.00259046,0.00929346,-0.00268629,0.00110589,0.00102661,-0.00237984,-0.02625,-0.0110245,0.0175,0.00163635,-0.0156617,-0.01163,0.035,-0.0775034,-10.9748,-0.230649,21.4914,1.23812,0.29684,-0.116079,0.0805395,-0.726956,-0.0466941,2.35503,0.720223,0.351505,-0.175342
1721534,0.97,-1.57089,-0.52319,-1.91309e-05,-2.09593,1.56992,1.57034,0.785702,-1.57093,-0.523656,9.00423e-05,-2.09439,1.57072,1.57074,0.785578,-0.00845167,-0.00616314,0.0110493,-0.000781515,0.00158497,0.00115913,-0.0013492,-0.03,-0.0125995,0.02,0.00187011,-0.017899,-0.0132915,0.04,-0.0259286,-11.1255,-0.1275,21.6144,1.21523,0.284022,-0.122488,0.067238,-0.722107,-0.0675663,2.35593,0.720682,0.35331,-0.175219
1721535,0.98,-1.57091,-0.523209,3.66731e-06,-2.09593,1.56992,1.57034,0.78571,-1.57097,-0.52367,0.000112542,-2.09438,1.5707,1.57072,0.785623,-0.0100975,-0.0117866,0.0123919,-0.0022198,0.000853198,0.00101011,8.38788e-05,-0.03375,-0.0141744,0.0225,0.00210388,-0.0201364,-0.0149529,0.045,-0.00212494,-11.2763,-0.155271,21.7176,1.22072,0.277613,-0.149038,0.0558632,-0.706411,-0.0867818,2.35196,0.720827,0.354843,-0.174794
1721536,0.99,-1.57092,-0.523225,2.02411e-05,-2.09594,1.56991,1.57034,0.785707,-1.571,-0.523685,0.000137542,-2.09438,1.57067,1.5707,0.785673,-0.0138292,-0.0120672,0.0138778,-0.00493481,0.000568799,0.00114812,-0.00235158,-0.0375,-0.0157493,0.025,0.00233764,-0.0223738,-0.0166143,0.05,-0.00212494,-11.4548,-0.0798923,21.8882,1.22072,0.264796,-0.0840357,0.0477812,-0.677378,-0.101946,2.34289,0.720555,0.35593,-0.174072
1721537,1,-1.57093,-0.523239,3.73346e-05,-2.09593,1.56991,1.57034,0.785712,-1.57105,-0.523704,0.000167542,-2.09438,1.57065,1.57069,0.785733,-0.0117049,-0.012314,0.014547,-0.00409464,-2.77019e-05,0.00171485,-0.00156772,-0.045,-0.018537,0.03,0.00275386,-0.0258785,-0.019234,0.06,-0.0775034,-11.6294,0.0232571,21.9397,1.23171,0.239161,-0.0840357,0.04215,-0.642649,-0.113621,2.33301,0.720001,0.356594,-0.173077
1721538,1,-1.57096,-0.523249,6.08191e-05,-2.09593,1.5699,1.57034,0.785716,-1.5711,-0.523725,0.000202542,-2.09438,1.57062,1.57066,0.785803,-0.0120962,-0.010635,0.0138662,-0.00354214,-0.000662728,0.00209267,-0.00250321,-0.0525,-0.0213246,0.035,0.00317008,-0.0293832,-0.0218537,0.07,-0.0775034,-11.8833,0.0470608,21.9873,1.2491,0.213527,-0.044668,0.0375737,-0.611092,-0.122796,2.32561,0.71928,0.356879,-0.171801
1721539,1,-1.57097,-0.52326,8.2629e-05,-2.09593,1.56989,1.57034,0.785729,-1.57116,-0.523749,0.000242542,-2.09437,1.57059,1.57064,0.785883,-0.014298,-0.0101756,0.0189371,-0.00334192,-0.00105217,0.00210719,0.00351103,-0.06,-0.0241122,0.04,0.0035863,-0.0328878,-0.0244733,0.08,-0.125111,-12.1094,0.0986355,22.0389,1.26558,0.194301,-0.0584009,0.0327501,-0.588934,-0.130801,2.32252,0.718499,0.35684,-0.170215
1721540,1,-1.571,-0.523273,0.000106661,-2.09593,1.56988,1.57034,0.785738,-1.57123,-0.523776,0.000287542,-2.09437,1.57055,1.57061,0.785973,-0.0229233,-0.00872065,0.0226864,-0.00188952,-0.00448913,0.00215078,0.00483891,-0.0675,-0.0268999,0.045,0.00400252,-0.0363925,-0.027093,0.09,-0.152882,-12.3871,0.15021,22.1619,1.23812,0.174159,0.0130102,0.0272579,-0.579668,-0.139035,2.32471,0.7178,0.356453,-0.168302
1721541,1,-1.57104,-0.523283,0.000143575,-2.09593,1.56988,1.57033,0.785761,-1.5713,-0.523806,0.000337542,-2.09436,1.57051,1.57058,0.786073,-0.028027,-0.0106909,0.0267765,-7.20249e-05,-0.00618388,0.00167121,0.011675,-0.075,-0.0296875,0.05,0.00441874,-0.0398972,-0.0297127,0.1,-0.22826,-12.7918,0.15021,22.388,1.18685,0.16775,0.0587866,0.0223598,-0.581794,-0.14673,2.33073,0.7172,0.355519,-0.166039
1721542,1,-1.57108,-0.523304,0.000185707,-2.09593,1.56987,1.57033,0.785786,-1.57139,-0.523839,0.000392542,-2.09436,1.57047,1.57055,0.786183,-0.0315502,-0.0146336,0.0297182,0.00260455,-0.00694477,-0.00262417,0.0161703,-0.0825,-0.0324752,0.055,0.00483496,-0.0434019,-0.0323323,0.11,-0.327442,-13.1211,0.15021,22.5864,1.1191,0.142115,0.122873,0.0184381,-0.586838,-0.153438,2.33595,0.716513,0.354088,-0.16336
1721543,1,-1.57113,-0.523332,0.00022809,-2.09594,1.56985,1.57033,0.785817,-1.57148,-0.523874,0.000452542,-2.09435,1.57042,1.57052,0.786303,-0.0388689,-0.0206022,0.0336793,0.000654266,-0.0150158,-3.8584e-06,0.0230905,-0.09,-0.0352628,0.06,0.00525119,-0.0469065,-0.034952,0.12,-0.355213,-13.4503,0.201785,22.8086,1.12459,0.0844372,0.219919,0.0150104,-0.583928,-0.159509,2.33582,0.715502,0.352365,-0.160165
1721544,1,-1.57119,-0.523366,0.000281773,-2.09594,1.56982,1.57031,0.785861,-1.57157,-0.523912,0.000517542,-2.09435,1.57037,1.57048,0.786433,-0.0453783,-0.0239092,0.0380207,-0.00375272,-0.0218065,-0.00604615,0.0288742,-0.0975,-0.0380505,0.065,0.00566741,-0.0504112,-0.0375717,0.13,-0.478199,-13.7043,0.201785,23.0347,1.14748,0.110072,0.304148,0.0124505,-0.569575,-0.164462,2.33136,0.714132,0.350315,-0.156331
1721545,1,-1.57125,-0.523405,0.000342096,-2.09594,1.5698,1.5703,0.785912,-1.57168,-0.523953,0.000587542,-2.09434,1.57031,1.57044,0.786573,-0.0507101,-0.0274465,0.0450186,-0.00183875,-0.0208766,-0.0117082,0.0371895,-0.105,-0.0408381,0.07,0.00608363,-0.0539159,-0.0401914,0.14,-0.557545,-13.9066,0.174014,23.1815,1.14198,0.174159,0.401194,0.00947119,-0.546656,-0.170254,2.32599,0.712511,0.348121,-0.151701
1721546,1,-1.57132,-0.523448,0.000401006,-2.09594,1.56977,1.57028,0.785979,-1.57179,-0.523996,0.000662542,-2.09434,1.57026,1.57039,0.786723,-0.0537457,-0.031774,0.0477828,-0.00209727,-0.0259427,-0.0142826,0.0459282,-0.1125,-0.0436257,0.075,0.00649985,-0.0574206,-0.042811,0.15,-0.708302,-14.0296,0.249392,23.2569,1.16396,0.200709,0.44697,0.0034917,-0.515939,-0.180131,2.31955,0.710642,0.346221,-0.146095
1721547,1,-1.5714,-0.523482,0.000463528,-2.09594,1.56974,1.57027,0.786061,-1.57191,-0.524044,0.000745042,-2.09433,1.5702,1.57035,0.786888,-0.0597166,-0.0338949,0.0505249,0.00109578,-0.0245242,-0.013673,0.0574638,-0.12375,-0.0473373,0.0825,0.00705791,-0.0615933,-0.0459582,0.165,-0.831288,-14.3112,0.300967,23.3084,1.17586,0.161342,0.472605,-0.00552832,-0.477321,-0.193119,2.31054,0.708428,0.34466,-0.139362
1721548,1,-1.57148,-0.523513,0.000536707,-2.09594,1.5697,1.57025,0.786151,-1.57205,-0.524095,0.000835042,-2.09432,1.57013,1.5703,0.787068,-0.0691078,-0.0324081,0.0568162,0.00243587,-0.0274268,-0.0177043,0.0677407,-0.135,-0.0510488,0.09,0.00761597,-0.065766,-0.0491055,0.18,-0.882862,-14.6128,0.300967,23.4076,1.16396,0.110072,0.459788,-0.0155747,-0.436555,-0.205722,2.30003,0.705849,0.343085,-0.131428
1721549,1,-1.57157,-0.52355,0.000612415,-2.09593,1.56967,1.57023,0.786261,-1.5722,-0.524149,0.000932542,-2.09431,1.57006,1.57025,0.787263,-0.0742679,-0.0357919,0.0641567,0.00407061,-0.0290224,-0.0162159,0.0814894,-0.14625,-0.0547603,0.0975,0.00817404,-0.0699387,-0.0522527,0.195,-1.00982,-14.8389,0.328738,23.479,1.13558,0.0588025,0.401194,-0.0266744,-0.401047,-0.218225,2.29049,0.703065,0.341375,-0.12232
1721550,1,-1.57168,-0.523587,0.000694796,-2.09593,1.56963,1.57021,0.786387,-1.57235,-0.524208,0.00103754,-2.0943,1.56999,1.57019,0.787473,-0.0849721,-0.0369278,0.0685382,0.0068677,-0.0292915,-0.0166391,0.0955594,-0.1575,-0.0584718,0.105,0.0087321,-0.0741114,-0.0553999,0.21,-1.08519,-15.1444,0.404117,23.479,1.08522,0.0459851,0.349924,-0.0394256,-0.371988,-0.23171,2.28206,0.700157,0.339487,-0.112175
1721551,1,-1.57179,-0.523625,0.000790066,-2.09592,1.56959,1.57017,0.78653,-1.57252,-0.52427,0.00115004,-2.09429,1.56991,1.57013,0.787698,-0.0931882,-0.0388759,0.076833,0.00811035,-0.0294665,-0.0217818,0.111769,-0.16875,-0.0621833,0.1125,0.00929016,-0.0782841,-0.0585471,0.225,-1.18834,-15.5213,0.404117,23.6298,1.02846,0.0395764,0.284922,-0.0529984,-0.348707,-0.245009,2.27404,0.697045,0.337206,-0.101246
1721552,1,-1.57192,-0.523672,0.000884528,-2.09592,1.56954,1.57014,0.786686,-1.5727,-0.524336,0.00127004,-2.09428,1.56982,1.57007,0.787938,-0.105506,-0.041554,0.0818684,0.0089322,-0.0357502,-0.0254364,0.125211,-0.18,-0.0658949,0.12,0.00984823,-0.0824569,-0.0616944,0.24,-1.16057,-15.8783,0.451724,23.8044,1.00557,0.026759,0.297739,-0.0667546,-0.33169,-0.257325,2.26696,0.693663,0.334429,-0.0898386
1721553,1,-1.57207,-0.523733,0.000990209,-2.09591,1.56948,1.5701,0.786854,-1.57289,-0.524406,0.00139754,-2.09427,1.56974,1.57001,0.788193,-0.116952,-0.0475169,0.0883648,0.00893191,-0.0416046,-0.0277331,0.13774,-0.19125,-0.0696064,0.1275,0.0104063,-0.0866296,-0.0648416,0.255,-1.16057,-16.0529,0.503299,23.8797,1.01747,0.000208706,0.381968,-0.0791008,-0.318241,-0.266536,2.26056,0.689912,0.330974,-0.0782396
1721554,1,-1.57221,-0.523798,0.00109805,-2.09591,1.56942,1.57006,0.787036,-1.5731,-0.524479,0.00153254,-2.09426,1.56965,1.56994,0.788463,-0.122439,-0.0555826,0.0955098,0.00716224,-0.0508335,-0.0313802,0.150681,-0.2025,-0.0733179,0.135,0.0109644,-0.0908023,-0.0679888,0.27,-1.26372,-16.2036,0.578677,24.0265,1.03395,0.026759,0.485422,-0.0901874,-0.301118,-0.272885,2.25307,0.685738,0.326963,-0.066611
1721555,1,-1.57237,-0.523871,0.00121949,-2.0959,1.56935,1.57,0.78724,-1.57331,-0.524556,0.00167504,-2.09425,1.56955,1.56987,0.788748,-0.13669,-0.0607498,0.102197,0.00699634,-0.0569399,-0.0366352,0.165613,-0.21375,-0.0770294,0.1425,0.0115224,-0.094975,-0.071136,0.285,-1.28753,-16.2552,0.630252,24.1257,1.03945,0.122889,0.608103,-0.101912,-0.274264,-0.279053,2.24317,0.681202,0.322799,-0.0549383
1721556,1,-1.57255,-0.523944,0.00134389,-2.0959,1.56928,1.56995,0.787467,-1.57353,-0.524637,0.00182504,-2.09424,1.56945,1.56979,0.789048,-0.14735,-0.0637242,0.108351,0.00718156,-0.0628665,-0.0418611,0.185416,-0.225,-0.080741,0.15,0.0120805,-0.0991477,-0.0742832,0.3,-1.26372,-16.3306,0.757205,24.2011,1.07332,0.135707,0.628245,-0.1134,-0.239399,-0.283859,2.23198,0.676362,0.318466,-0.0430709
1721557,1,-1.57273,-0.524015,0.00147464,-2.09589,1.5692,1.5699,0.787709,-1.57377,-0.524722,0.00198444,-2.09423,1.56935,1.56972,0.789367,-0.158288,-0.0631111,0.111416,0.0101286,-0.0665613,-0.0482655,0.202809,-0.239907,-0.0851464,0.159397,0.0127483,-0.103617,-0.0776939,0.319303,-1.3391,-16.5091,0.832583,24.1535,1.09072,0.0908459,0.692331,-0.122481,-0.205138,-0.283829,2.22236,0.671261,0.313732,-0.0308149
1721558,1,-1.57293,-0.524089,0.001618,-2.09588,1.56912,1.56984,0.787984,-1.57403,-0.524811,0.00215323,-2.09421,1.56924,1.56963,0.789706,-0.170119,-0.0662032,0.118555,0.0115846,-0.0684104,-0.0533532,0.225794,-0.254815,-0.0895518,0.168795,0.0134161,-0.108086,-0.0811045,0.338606,-1.31133,-16.6837,0.832583,24.1257,1.08522,0.0459851,0.628245,-0.127851,-0.17931,-0.276487,2.21626,0.665942,0.308457,-0.0180225
1721559,1,-1.57314,-0.524159,0.00175552,-2.09587,1.56904,1.56978,0.78827,-1.5743,-0.524905,0.00233143,-2.0942,1.56913,1.56955,0.790064,-0.181419,-0.0696698,0.122873,0.0101176,-0.0730525,-0.0574156,0.24578,-0.269722,-0.0939572,0.178192,0.014084,-0.112555,-0.0845151,0.357908,-1.28753,-16.9138,1.01111,24.2011,1.03945,0.00753292,0.615427,-0.129309,-0.163649,-0.261425,2.21409,0.660479,0.302617,-0.00464385
1721560,1,-1.57336,-0.524231,0.0019051,-2.09586,1.56896,1.56971,0.788586,-1.57458,-0.525004,0.00251902,-2.09418,1.56901,1.56946,0.790441,-0.192143,-0.0695036,0.131272,0.00932256,-0.071521,-0.0568727,0.268318,-0.28463,-0.0983626,0.187589,0.0147518,-0.117024,-0.0879258,0.377211,-1.43828,-17.1637,1.11029,24.2765,0.983598,0.000208706,0.518381,-0.12762,-0.160459,-0.239966,2.2178,0.655027,0.296212,0.00923842
1721561,1,-1.57359,-0.524312,0.00207567,-2.09586,1.56887,1.56964,0.788901,-1.57488,-0.525106,0.002716,-2.09417,1.56889,1.56937,0.790838,-0.207966,-0.0725481,0.143989,0.00852478,-0.0793471,-0.0610402,0.289281,-0.299537,-0.102768,0.196987,0.0154196,-0.121494,-0.0913364,0.396514,-1.51366,-17.4176,1.06269,24.3518,0.903948,-0.0126087,0.563242,-0.125218,-0.174004,-0.216491,2.23002,0.649785,0.28943,0.023438
1721562,1,-1.57385,-0.524405,0.00225434,-2.09584,1.56878,1.56957,0.789245,-1.5752,-0.525214,0.00292239,-2.09415,1.56876,1.56928,0.791254,-0.225174,-0.079299,0.156697,0.0113092,-0.0830557,-0.0638234,0.300845,-0.314445,-0.107173,0.206384,0.0160875,-0.125963,-0.094747,0.415817,-1.51366,-17.62,1.01111,24.4272,0.892961,-0.0382434,0.57606,-0.124958,-0.199163,-0.196653,2.24813,0.644766,0.282684,0.0377635
1721563,1,-1.57412,-0.524499,0.00244034,-2.09584,1.56867,1.5695,0.7896,-1.57553,-0.525325,0.00313817,-2.09414,1.56863,1.56918,0.791689,-0.242504,-0.0849483,0.165477,0.00847032,-0.0867316,-0.0662155,0.325081,-0.329352,-0.111579,0.215782,0.0167553,-0.130432,-0.0981576,0.43512,-1.61681,-17.7985,0.98334,24.574,0.909441,-0.0574695,0.634653,-0.126807,-0.224555,-0.181425,2.26651,0.639716,0.27607,0.0520896
1721564,1,-1.57441,-0.524602,0.00263333,-2.09582,1.56857,1.56941,0.789988,-1.57587,-0.525441,0.00336335,-2.09412,1.5685,1.56908,0.792143,-0.258646,-0.090536,0.175154,0.0087403,-0.0944955,-0.0709091,0.345757,-0.34426,-0.115984,0.225179,0.0174231,-0.134901,-0.101568,0.454422,-1.71599,-17.8977,0.959536,24.6256,0.937822,0.00753292,0.647471,-0.128603,-0.244768,-0.167727,2.28324,0.634412,0.269303,0.0663614
1721565,1,-1.57471,-0.524708,0.00283615,-2.09581,1.56846,1.56932,0.7904,-1.57623,-0.525562,0.00359792,-2.0941,1.56836,1.56897,0.792617,-0.271721,-0.0966718,0.183929,0.0118857,-0.0991669,-0.0796033,0.361256,-0.359167,-0.12039,0.234576,0.018091,-0.13937,-0.104979,0.473725,-1.89452,-18.0246,0.860354,24.697,0.943315,0.0972546,0.692331,-0.129945,-0.256742,-0.154303,2.2966,0.628748,0.26238,0.0805994
1721566,1,-1.57503,-0.524806,0.00304464,-2.0958,1.56833,1.56923,0.79082,-1.5766,-0.525686,0.0038419,-2.09408,1.56822,1.56886,0.79311,-0.286457,-0.0988887,0.193541,0.0117511,-0.103894,-0.083472,0.382427,-0.374075,-0.124795,0.243974,0.0187588,-0.143839,-0.10839,0.493028,-1.9699,-18.2785,0.884158,24.7248,0.97719,0.110072,0.750925,-0.13228,-0.259817,-0.142277,2.30504,0.622716,0.255636,0.0948605
1721567,1,-1.57537,-0.524918,0.00325744,-2.09579,1.5682,1.56914,0.791267,-1.57699,-0.525816,0.00409586,-2.09406,1.56807,1.56875,0.793623,-0.297346,-0.103604,0.201627,0.00916525,-0.111729,-0.0831959,0.40213,-0.389065,-0.129711,0.253964,0.0195112,-0.148374,-0.111901,0.513018,-2.06908,-18.4055,0.884158,24.7248,1.00557,0.0395764,0.744517,-0.13679,-0.260632,-0.132506,2.31199,0.616531,0.249269,0.109202
1721568,1,-1.57572,-0.525028,0.00348178,-2.09578,1.56807,1.56905,0.791744,-1.5774,-0.525951,0.00435982,-2.09404,1.56791,1.56864,0.794156,-0.319974,-0.10864,0.207771,0.0116903,-0.116903,-0.0846557,0.421442,-0.404055,-0.134628,0.263954,0.0202636,-0.152909,-0.115413,0.533008,-2.12066,-18.6078,0.884158,24.7962,1.02297,0.000208706,0.692331,-0.141327,-0.263553,-0.121357,2.32011,0.610337,0.242904,0.123681
1721569,1,-1.57608,-0.525149,0.00372227,-2.09577,1.56794,1.56895,0.792231,-1.57782,-0.52609,0.00463376,-2.09402,1.56776,1.56852,0.794709,-0.327775,-0.111031,0.219298,0.0153943,-0.119029,-0.0861566,0.440876,-0.419045,-0.139545,0.273944,0.0210159,-0.157443,-0.118925,0.552998,-2.19603,-18.707,0.860354,24.7962,0.983598,-0.0254261,0.628245,-0.143726,-0.267587,-0.105446,2.3275,0.604096,0.236143,0.138299
1721570,1,-1.57647,-0.525269,0.00397112,-2.09576,1.56781,1.56886,0.792743,-1.57825,-0.526235,0.00491769,-2.094,1.56759,1.56839,0.795282,-0.343956,-0.111646,0.229312,0.0123963,-0.125635,-0.09155,0.461613,-0.434035,-0.144461,0.283934,0.0217683,-0.161978,-0.122437,0.572988,-2.16826,-18.8855,0.907962,24.8993,0.949724,-0.0638782,0.621836,-0.147411,-0.277262,-0.0895892,2.33527,0.598004,0.229341,0.152951
1721571,1,-1.57687,-0.525389,0.00423155,-2.09575,1.56767,1.56875,0.793275,-1.5787,-0.526384,0.00521162,-2.09398,1.56743,1.56827,0.795875,-0.361455,-0.116523,0.238122,0.0130614,-0.124901,-0.0971557,0.483257,-0.449025,-0.149378,0.293924,0.0225207,-0.166513,-0.125949,0.592978,-2.06908,-19.1355,0.884158,25.0223,0.887468,-0.0638782,0.595286,-0.154051,-0.299381,-0.0764278,2.34769,0.59225,0.222644,0.167459
1721572,1,-1.5773,-0.525528,0.00449574,-2.09574,1.56753,1.56864,0.793826,-1.57916,-0.526538,0.00551553,-2.09395,1.56726,1.56814,0.796488,-0.377826,-0.1209,0.246201,0.0104312,-0.12997,-0.100271,0.503514,-0.464015,-0.154294,0.303914,0.023273,-0.171047,-0.129461,0.612968,-1.91832,-19.2148,0.959536,25.1453,0.841692,-0.0831043,0.615427,-0.160831,-0.333064,-0.0623215,2.36558,0.586686,0.215659,0.181658
1721573,1,-1.57774,-0.525661,0.004771,-2.09572,1.56738,1.56853,0.794394,-1.57964,-0.526698,0.00582943,-2.09393,1.56708,1.56801,0.797121,-0.398372,-0.1263,0.253491,0.0138463,-0.139249,-0.103513,0.521747,-0.479005,-0.159211,0.313904,0.0240254,-0.175582,-0.132973,0.632958,-1.81517,-19.3378,1.11029,25.1691,0.825212,-0.0831043,0.673105,-0.164262,-0.372966,-0.0427348,2.3867,0.581025,0.207927,0.195448
1721574,1,-1.57818,-0.525812,0.00504976,-2.09571,1.56722,1.56841,0.794977,-1.58014,-0.526862,0.00615333,-2.09391,1.5669,1.56787,0.797774,-0.413918,-0.133434,0.264715,0.0125698,-0.146837,-0.10739,0.544746,-0.493995,-0.164127,0.323894,0.0247778,-0.180116,-0.136485,0.652948,-1.71599,-19.3378,1.28882,25.2207,0.841692,-0.0446521,0.744517,-0.162467,-0.411996,-0.0157478,2.40733,0.575021,0.199265,0.208827
1721575,1,-1.57865,-0.525963,0.0053408,-2.0957,1.56705,1.56829,0.795594,-1.58064,-0.527031,0.00648721,-2.09388,1.56672,1.56773,0.798447,-0.428596,-0.140508,0.27425,0.0105231,-0.1537,-0.10861,0.562416,-0.508985,-0.169044,0.333884,0.0255302,-0.184651,-0.139997,0.672938,-1.61681,-19.3656,1.43958,25.3199,0.875566,-0.0510608,0.782969,-0.15764,-0.444231,0.014884,2.42544,0.568657,0.190137,0.22189
1721576,1,-1.57915,-0.526113,0.00565309,-2.09568,1.56687,1.56817,0.796217,-1.58117,-0.527205,0.00683109,-2.09385,1.56653,1.56759,0.79914,-0.453211,-0.144951,0.282979,0.0134376,-0.159987,-0.113429,0.58443,-0.523975,-0.17396,0.343874,0.0262825,-0.189186,-0.143509,0.692928,-1.3629,-19.4409,1.51892,25.3714,0.943315,-0.0766956,0.867197,-0.15019,-0.468219,0.0481676,2.44092,0.561981,0.180736,0.234786
1721577,1,-1.57966,-0.526276,0.00596411,-2.09566,1.5667,1.56805,0.796883,-1.58171,-0.527384,0.00718495,-2.09383,1.56633,1.56744,0.799852,-0.469069,-0.150334,0.290649,0.0135236,-0.163039,-0.116119,0.606578,-0.538965,-0.179243,0.353864,0.0270998,-0.193642,-0.147022,0.712918,-1.08519,-19.4132,1.69348,25.3714,0.966203,-0.121556,0.80311,-0.136794,-0.485141,0.0885253,2.45332,0.554944,0.170678,0.247679
1721578,1,-1.58018,-0.526429,0.00629028,-2.09566,1.56652,1.56792,0.797575,-1.58226,-0.527569,0.0075488,-2.0938,1.56614,1.56729,0.800585,-0.481817,-0.1504,0.302004,0.0170277,-0.164169,-0.121763,0.63577,-0.553955,-0.184526,0.363854,0.027917,-0.198099,-0.150536,0.732908,-0.882862,-19.5679,1.76886,25.4944,0.966203,-0.186559,0.770151,-0.118323,-0.499892,0.134717,2.46373,0.547695,0.160116,0.260692
1721579,1,-1.58072,-0.526592,0.00661258,-2.09564,1.56636,1.56779,0.798282,-1.58283,-0.527758,0.00792265,-2.09377,1.56593,1.56713,0.801338,-0.496838,-0.151461,0.3061,0.0161576,-0.162232,-0.122287,0.659717,-0.568945,-0.189809,0.373844,0.0287343,-0.202555,-0.15405,0.752898,-0.78368,-19.6671,1.99897,25.4944,0.875566,-0.244237,0.679514,-0.0976587,-0.52228,0.182906,2.47598,0.540504,0.149373,0.273814
1721580,1,-1.58127,-0.526768,0.00695493,-2.09563,1.56618,1.56767,0.799012,-1.58341,-0.527953,0.00830648,-2.09374,1.56573,1.56698,0.802111,-0.511254,-0.157008,0.322352,0.0155982,-0.163196,-0.120635,0.674861,-0.583935,-0.195092,0.383834,0.0295515,-0.207012,-0.157564,0.772888,-0.680531,-19.7187,2.09815,25.6174,0.847185,-0.366002,0.621836,-0.0761014,-0.558164,0.231016,2.49342,0.533562,0.138492,0.286909
1721581,1,-1.58183,-0.526936,0.00731109,-2.09561,1.56599,1.56754,0.79977,-1.58401,-0.528154,0.0087003,-2.09371,1.56552,1.56682,0.802904,-0.536583,-0.160735,0.332,0.0166562,-0.168308,-0.12069,0.701884,-0.598925,-0.200376,0.393824,0.0303687,-0.211469,-0.161078,0.792878,-0.478199,-19.921,2.17353,25.6928,0.819719,-0.456639,0.57606,-0.0543545,-0.604344,0.276658,2.51566,0.526922,0.127448,0.299779
1721582,1,-1.58242,-0.527121,0.00768631,-2.09559,1.56579,1.56741,0.800546,-1.58463,-0.528359,0.00910412,-2.09368,1.5653,1.56665,0.803717,-0.554638,-0.168974,0.34829,0.0165283,-0.17913,-0.127923,0.7281,-0.613915,-0.205659,0.403814,0.031186,-0.215925,-0.164592,0.812868,-0.379017,-20.0202,2.12592,25.669,0.841692,-0.475866,0.485422,-0.0314858,-0.653529,0.319498,2.53985,0.52049,0.116021,0.312214
1721583,1,-1.58302,-0.527316,0.00805936,-2.09557,1.56559,1.56726,0.80134,-1.58526,-0.52857,0.00951792,-2.09365,1.56508,1.56648,0.80455,-0.566082,-0.175498,0.356435,0.0178216,-0.186889,-0.13592,0.741274,-0.628905,-0.210942,0.413804,0.0320032,-0.220382,-0.168105,0.832858,-0.402821,-20.0717,2.09815,25.7166,0.86458,-0.40537,0.491831,-0.00943717,-0.696931,0.356423,2.56233,0.514189,0.104516,0.324032
1721584,1,-1.58362,-0.527517,0.00845208,-2.09556,1.56538,1.56711,0.802145,-1.5859,-0.528787,0.00994171,-2.09361,1.56485,1.56631,0.805403,-0.575627,-0.185723,0.369891,0.0169804,-0.193261,-0.138153,0.764288,-0.643895,-0.216225,0.423794,0.0328204,-0.224838,-0.171619,0.852848,-0.529774,-20.0717,1.99897,25.8435,0.898454,-0.321141,0.466196,0.00690915,-0.726397,0.381629,2.57954,0.508013,0.0937415,0.335079
1721585,1,-1.58424,-0.527717,0.00885802,-2.09554,1.56517,1.56697,0.802981,-1.58656,-0.529008,0.0103755,-2.09358,1.56462,1.56614,0.806275,-0.581927,-0.186926,0.387866,0.0156416,-0.201901,-0.14099,0.788388,-0.658885,-0.221508,0.433784,0.0336377,-0.229295,-0.175133,0.872838,-0.732105,-20.1471,1.87201,25.8673,0.915849,-0.321141,0.49824,0.0105551,-0.742239,0.385971,2.59231,0.502234,0.0847752,0.345256
1721586,1,-1.58488,-0.527918,0.00927727,-2.09552,1.56495,1.56683,0.803826,-1.58723,-0.529235,0.0108193,-2.09355,1.56439,1.56596,0.807168,-0.611817,-0.192386,0.399015,0.0139529,-0.208763,-0.141419,0.802298,-0.673875,-0.226791,0.443774,0.0344549,-0.233752,-0.178647,0.892828,-0.934437,-20.2225,1.66968,25.915,0.955217,-0.373326,0.615427,1.09388e-05,-0.755159,0.366843,2.60641,0.497221,0.0778156,0.354535
1721587,1,-1.58551,-0.528125,0.00970985,-2.09551,1.56474,1.56667,0.804697,-1.58792,-0.529467,0.011273,-2.09351,1.56415,1.56578,0.808081,-0.619845,-0.197215,0.403939,0.0141321,-0.213623,-0.14768,0.828882,-0.688865,-0.232326,0.453764,0.0353219,-0.238042,-0.182102,0.912818,-1.21215,-20.3495,1.46735,26.0419,0.971697,-0.392553,0.615427,-0.0155403,-0.772376,0.337751,2.62512,0.492856,0.071493,0.362999
1721588,1,-1.58617,-0.528338,0.010149,-2.0955,1.56451,1.56651,0.805601,-1.58863,-0.529705,0.0117368,-2.09347,1.56391,1.56559,0.809014,-0.629837,-0.20093,0.417119,0.0145164,-0.219383,-0.155791,0.848107,-0.703855,-0.237862,0.463754,0.0361889,-0.242333,-0.185557,0.932808,-1.46209,-20.528,1.26502,26.1649,0.921343,-0.32755,0.588877,-0.0324289,-0.794681,0.306249,2.64791,0.488937,0.0652457,0.370853
1721589,1,-1.58683,-0.52855,0.0105989,-2.09548,1.56428,1.56633,0.806506,-1.58934,-0.529948,0.0122105,-2.09344,1.56366,1.5654,0.809967,-0.642613,-0.204031,0.42583,0.0127082,-0.219738,-0.163484,0.867714,-0.718845,-0.243398,0.473744,0.0370559,-0.246623,-0.189013,0.952798,-1.64061,-20.7025,1.21344,26.2403,0.887468,-0.212194,0.57606,-0.0542431,-0.824705,0.269055,2.6754,0.485503,0.0595643,0.378286
1721590,1,-1.58752,-0.528778,0.0110692,-2.09546,1.56406,1.56616,0.807446,-1.59008,-0.530197,0.0126943,-2.0934,1.56341,1.56521,0.81094,-0.647881,-0.209236,0.442504,0.0152667,-0.220706,-0.165914,0.886369,-0.733835,-0.248933,0.483734,0.0379229,-0.250914,-0.192468,0.972788,-1.76757,-20.7303,1.03491,26.2879,0.86458,-0.166417,0.556833,-0.0848303,-0.86359,0.221405,2.7077,0.482558,0.0550479,0.385392
1721591,1,-1.58822,-0.528999,0.0115481,-2.09545,1.56383,1.56598,0.808402,-1.59083,-0.530452,0.013188,-2.09336,1.56316,1.56501,0.811932,-0.662982,-0.212376,0.453505,0.0139297,-0.219915,-0.170387,0.90319,-0.748825,-0.254469,0.493724,0.0387899,-0.255204,-0.195923,0.992778,-1.79137,-20.9326,0.907962,26.3395,0.819719,-0.186559,0.628245,-0.127812,-0.909326,0.158335,2.74312,0.48003,0.0523447,0.392208
1721592,1,-1.58894,-0.529237,0.0120483,-2.09543,1.56359,1.5658,0.809363,-1.59159,-0.530712,0.0136917,-2.09332,1.5629,1.56481,0.812945,-0.679318,-0.218842,0.467027,0.0152597,-0.234015,-0.168938,0.926614,-0.763815,-0.260005,0.503714,0.0396569,-0.259495,-0.199379,1.01277,-1.86675,-20.9803,0.80878,26.4148,0.807817,-0.212194,0.660288,-0.180992,-0.960087,0.082399,2.78062,0.477769,0.0512173,0.398771
1721593,1,-1.58968,-0.529479,0.012536,-2.0954,1.56335,1.56561,0.810364,-1.59237,-0.530977,0.0142054,-2.09328,1.56263,1.56461,0.813978,-0.698443,-0.22281,0.473342,0.0184031,-0.235063,-0.178385,0.943799,-0.778805,-0.265541,0.513704,0.0405239,-0.263785,-0.202834,1.03276,-1.86675,-21.0318,0.907962,26.4148,0.751055,-0.212194,0.666697,-0.237001,-1.0123,0.00351266,2.81787,0.475434,0.0506251,0.405177
1721594,1,-1.59042,-0.52973,0.0130494,-2.09538,1.56309,1.56542,0.811373,-1.59316,-0.531249,0.0147291,-2.09324,1.56237,1.5644,0.815031,-0.717336,-0.232347,0.478262,0.0192752,-0.238025,-0.182129,0.986716,-0.793795,-0.271076,0.523694,0.0413909,-0.268076,-0.206289,1.05275,-1.9699,-20.9565,0.860354,26.4624,0.762956,-0.179235,0.628245,-0.286717,-1.05949,-0.0648418,2.85076,0.472435,0.0493168,0.411521
1721595,1,-1.59118,-0.529984,0.0135704,-2.09536,1.56284,1.56522,0.81242,-1.59397,-0.531525,0.0152628,-2.0932,1.56209,1.56419,0.816103,-0.731645,-0.238642,0.491612,0.0249038,-0.245507,-0.1829,1.00202,-0.808785,-0.276612,0.533684,0.0422579,-0.272366,-0.209745,1.07274,-1.84295,-20.9565,0.959536,26.4386,0.784929,-0.186559,0.582468,-0.3256,-1.09344,-0.11564,2.87472,0.468325,0.0466932,0.417845
1721596,1,-1.59198,-0.530243,0.014092,-2.09534,1.56257,1.56502,0.813485,-1.5948,-0.531807,0.0158065,-2.09315,1.56182,1.56398,0.817196,-0.751504,-0.250689,0.500472,0.02128,-0.25416,-0.191773,1.01182,-0.823775,-0.282148,0.543674,0.0431249,-0.276657,-0.2132,1.09273,-1.66442,-20.9326,0.98334,26.4624,0.909441,-0.205785,0.563242,-0.35589,-1.10736,-0.152568,2.88706,0.46315,0.0431574,0.424145
1721597,1,-1.59277,-0.530508,0.0146182,-2.09531,1.5623,1.56482,0.814556,-1.59564,-0.532095,0.0163601,-2.09311,1.56154,1.56376,0.818308,-0.76388,-0.257173,0.502253,0.0265897,-0.261652,-0.193644,1.03849,-0.838765,-0.287847,0.553664,0.0440304,-0.280729,-0.216561,1.1124,-1.48986,-20.9049,1.16187,26.4148,0.921343,-0.257054,0.550425,-0.377605,-1.09856,-0.175609,2.88786,0.457077,0.0388057,0.430358
1721598,1,-1.59358,-0.530775,0.01515,-2.09528,1.56202,1.56461,0.815657,-1.59649,-0.532389,0.0169238,-2.09306,1.56125,1.56354,0.819441,-0.781393,-0.257626,0.513994,0.0280224,-0.267601,-0.196463,1.05903,-0.853755,-0.293547,0.563654,0.0449359,-0.284801,-0.219921,1.13208,-1.3629,-20.9565,1.3642,26.3395,0.949724,-0.276281,0.588877,-0.38929,-1.07478,-0.182286,2.88034,0.450348,0.0333055,0.436382
1721599,1,-1.59441,-0.531044,0.0156913,-2.09525,1.56175,1.5644,0.816785,-1.59736,-0.532688,0.0174974,-2.09302,1.56096,1.56332,0.820592,-0.815775,-0.259324,0.519044,0.0296253,-0.26343,-0.204763,1.08245,-0.868745,-0.299247,0.573644,0.0458414,-0.288873,-0.223282,1.15176,-1.18834,-20.9326,1.61811,26.3633,0.881059,-0.257054,0.588877,-0.387616,-1.05409,-0.16922,2.87204,0.443317,0.0259525,0.442136
1721600,1,-1.59527,-0.531322,0.0162463,-2.09523,1.56148,1.56419,0.817901,-1.59824,-0.532993,0.0180811,-2.09297,1.56067,1.56309,0.821764,-0.83384,-0.267261,0.528621,0.0267344,-0.266176,-0.206164,1.09103,-0.883735,-0.304947,0.583634,0.0467469,-0.292945,-0.226643,1.17143,-0.831288,-20.9049,1.76886,26.4386,0.825212,-0.353185,0.692331,-0.366815,-1.04703,-0.129992,2.86884,0.436138,0.0158741,0.447595
1721601,1,-1.59615,-0.53161,0.0167963,-2.0952,1.5612,1.56397,0.819056,-1.59914,-0.533304,0.0186747,-2.09292,1.56037,1.56286,0.822955,-0.847236,-0.272054,0.535789,0.0235996,-0.27506,-0.211287,1.10477,-0.898725,-0.310646,0.593624,0.0476524,-0.297017,-0.230003,1.19111,-0.581349,-20.9326,2.02277,26.5616,0.830705,-0.366002,0.69874,-0.329398,-1.05307,-0.068514,2.87307,0.429016,0.00348829,0.452837
1721602,1,-1.59702,-0.531905,0.0173639,-2.09517,1.56092,1.56375,0.820243,-1.60005,-0.53362,0.0192783,-2.09288,1.56007,1.56263,0.824166,-0.858589,-0.280683,0.541135,0.0261648,-0.278404,-0.214474,1.14606,-0.913715,-0.316346,0.603614,0.0485579,-0.301089,-0.233364,1.21078,-0.50597,-20.8811,2.12592,26.6132,0.740068,-0.386144,0.615427,-0.283245,-1.06752,0.00477984,2.88414,0.422099,-0.0100441,0.458011
1721603,1,-1.59793,-0.532206,0.0179257,-2.09514,1.56063,1.56353,0.82143,-1.60098,-0.533942,0.0198919,-2.09283,1.55977,1.56239,0.825396,-0.871176,-0.283793,0.561974,0.0262499,-0.276984,-0.216084,1.16646,-0.928705,-0.322046,0.613604,0.0494634,-0.305161,-0.236725,1.23046,-0.355213,-20.8811,2.2251,26.6132,0.672319,-0.418187,0.485422,-0.237245,-1.08469,0.0771917,2.89867,0.415388,-0.0234198,0.463201
1721604,1,-1.59884,-0.532513,0.0185001,-2.09511,1.56034,1.56332,0.822661,-1.60193,-0.53427,0.0205155,-2.09278,1.55946,1.56215,0.826646,-0.89471,-0.288967,0.561222,0.0297064,-0.279324,-0.213595,1.1872,-0.943695,-0.327745,0.623594,0.0503689,-0.309233,-0.240086,1.25013,-0.303639,-20.8573,2.47901,26.5894,0.700701,-0.560094,0.316965,-0.195282,-1.10396,0.142103,2.91498,0.40879,-0.0361387,0.468317
1721605,1,-1.59976,-0.532825,0.019096,-2.09506,1.56004,1.5631,0.823879,-1.60288,-0.534603,0.0211491,-2.09272,1.55914,1.56191,0.827916,-0.893662,-0.291393,0.569114,0.0310247,-0.286927,-0.215068,1.19911,-0.958685,-0.333445,0.633584,0.0512744,-0.313305,-0.243446,1.26981,-0.252064,-20.8295,2.62976,26.4902,0.745561,-0.617772,0.265696,-0.153928,-1.12777,0.205319,2.93273,0.402014,-0.0489083,0.473097
1721606,1,-1.60071,-0.533145,0.0196923,-2.09502,1.55974,1.56287,0.825116,-1.60386,-0.534942,0.0217926,-2.09267,1.55883,1.56166,0.829205,-0.903021,-0.299299,0.578508,0.0357195,-0.290671,-0.220493,1.2021,-0.973675,-0.339145,0.643574,0.0521799,-0.317377,-0.246807,1.28948,-0.22826,-20.8811,2.62976,26.3633,0.745561,-0.560094,0.42042,-0.117032,-1.15423,0.263408,2.94994,0.395039,-0.0613478,0.47723
1721607,1,-1.60165,-0.533462,0.0203042,-2.09498,1.55942,1.56262,0.826365,-1.60485,-0.535287,0.0224462,-2.09262,1.55851,1.56141,0.830513,-0.921293,-0.307854,0.580957,0.0352505,-0.298083,-0.231843,1.22032,-0.988665,-0.34494,0.653564,0.0531159,-0.321202,-0.250053,1.30795,-0.303639,-20.9565,2.78449,26.3871,0.881059,-0.424596,0.479014,-0.0872709,-1.17504,0.313286,2.96248,0.387873,-0.0730031,0.480555
1721608,1,-1.60263,-0.533799,0.0209337,-2.09495,1.55911,1.56237,0.827655,-1.60585,-0.535638,0.0231098,-2.09257,1.55818,1.56116,0.83184,-0.932564,-0.315831,0.590767,0.0377259,-0.303605,-0.233694,1.23569,-1.00365,-0.350736,0.663554,0.054052,-0.325027,-0.253298,1.32642,-0.279835,-20.9326,2.78449,26.4386,0.887468,-0.321141,0.518381,-0.0597878,-1.18297,0.361791,2.96765,0.380432,-0.0843552,0.483149
1721609,1,-1.60366,-0.534136,0.0215666,-2.09491,1.55881,1.56214,0.828988,-1.60687,-0.535994,0.0237833,-2.09251,1.55785,1.5609,0.833185,-0.956085,-0.326826,0.608859,0.0354767,-0.299838,-0.238384,1.25576,-1.01864,-0.356532,0.673544,0.054988,-0.328852,-0.256544,1.34489,-0.00212494,-20.9803,2.70514,26.5378,0.825212,-0.257054,0.394785,-0.0343782,-1.17438,0.407671,2.96501,0.372972,-0.095132,0.485224
1721610,1,-1.60465,-0.534471,0.0222027,-2.09488,1.5585,1.56191,0.830315,-1.6079,-0.536357,0.0244668,-2.09245,1.55752,1.56064,0.834548,-0.964036,-0.329231,0.614314,0.0362821,-0.314795,-0.23761,1.28113,-1.03363,-0.362327,0.683534,0.055924,-0.332676,-0.259789,1.36335,-0.0775034,-21.0318,2.78449,26.6608,0.762956,-0.431005,0.291331,-0.0130664,-1.15229,0.445986,2.95741,0.365895,-0.10477,0.486923
1721611,1,-1.60568,-0.534814,0.0228357,-2.09484,1.55819,1.56168,0.831661,-1.60895,-0.536725,0.0251604,-2.0924,1.55718,1.56038,0.83593,-0.976636,-0.329505,0.622251,0.038054,-0.316247,-0.232929,1.30148,-1.04862,-0.368123,0.693524,0.0568601,-0.336501,-0.263035,1.38182,-0.101307,-21.1588,2.88367,26.6132,0.627458,-0.611364,0.297739,0.00492428,-1.13195,0.477908,2.95194,0.359432,-0.11348,0.488207
1721612,1,-1.60671,-0.53516,0.0234882,-2.09479,1.55787,1.56144,0.833002,-1.61002,-0.537099,0.0258639,-2.09234,1.55684,1.56012,0.83733,-0.997765,-0.333832,0.626644,0.0392334,-0.31407,-0.234152,1.33913,-1.06361,-0.373919,0.703514,0.0577961,-0.340326,-0.26628,1.40029,-0.0775034,-21.2342,3.0622,26.5616,0.536821,-0.681859,0.343516,0.0242992,-1.12748,0.511076,2.95393,0.353374,-0.122346,0.488917
1721613,1,-1.60778,-0.535513,0.0241484,-2.09475,1.55754,1.56118,0.834381,-1.61109,-0.537479,0.0265774,-2.09228,1.5565,1.55985,0.838749,-1.0083,-0.337182,0.631652,0.0388169,-0.319312,-0.237053,1.3456,-1.0786,-0.379714,0.713504,0.0587321,-0.344151,-0.269526,1.41876,0.0494498,-21.3373,3.33991,26.5616,0.615556,-0.67545,0.427744,0.0507179,-1.14235,0.554371,2.96447,0.347215,-0.132556,0.488977
1721614,1,-1.60886,-0.535882,0.0248216,-2.0947,1.5572,1.56092,0.835782,-1.61219,-0.537864,0.0273009,-2.09222,1.55615,1.55957,0.840186,-1.02219,-0.353128,0.645473,0.0422312,-0.325754,-0.253065,1.35615,-1.09359,-0.38551,0.723494,0.0596682,-0.347976,-0.272771,1.43722,0.124828,-21.1588,3.44306,26.5378,0.666826,-0.520726,0.49824,0.0818311,-1.16512,0.605141,2.97838,0.340614,-0.143779,0.488524
1721615,0.99,-1.60993,-0.536257,0.0255226,-2.09465,1.55685,1.56065,0.837184,-1.6133,-0.538255,0.0280344,-2.09216,1.5558,1.5593,0.841642,-1.04041,-0.361266,0.661832,0.0443029,-0.332552,-0.26044,1.37366,-1.10858,-0.391305,0.733484,0.0606042,-0.3518,-0.276017,1.45569,0.0256461,-21.0318,3.36371,26.5378,0.757463,-0.386144,0.569651,0.109404,-1.17383,0.650731,2.98535,0.333526,-0.154426,0.487844
1721616,0.99,-1.61102,-0.536646,0.0262263,-2.09461,1.55651,1.56038,0.838631,-1.61442,-0.538652,0.0287778,-2.0921,1.55544,1.55902,0.843116,-1.04719,-0.367538,0.675267,0.0450662,-0.3341,-0.260796,1.39321,-1.12357,-0.397101,0.743474,0.0615402,-0.355625,-0.279263,1.47416,-0.252064,-20.9049,3.13758,26.5616,0.76845,-0.379735,0.544016,0.126737,-1.16127,0.680179,2.98206,0.326265,-0.1632,0.487227
1721617,0.99,-1.61209,-0.537027,0.0269586,-2.09455,1.55616,1.56013,0.840105,-1.61556,-0.539055,0.0295313,-2.09204,1.55508,1.55874,0.844607,-1.07052,-0.372928,0.691922,0.0484803,-0.338938,-0.256344,1.41632,-1.13856,-0.402942,0.753464,0.0625017,-0.35919,-0.282383,1.49088,-0.708302,-20.8573,2.85987,26.4624,0.762956,-0.507909,0.472605,0.131407,-1.13547,0.689335,2.97227,0.319283,-0.169715,0.486875
1721618,0.99,-1.6132,-0.537422,0.0276977,-2.09451,1.55581,1.55987,0.841572,-1.61671,-0.539464,0.0302948,-2.09197,1.55472,1.55845,0.846115,-1.08271,-0.375511,0.706948,0.0476442,-0.338504,-0.254492,1.43363,-1.15355,-0.408782,0.763454,0.0634632,-0.362755,-0.285503,1.5076,-1.06139,-20.7541,2.60596,26.514,0.751055,-0.598546,0.381968,0.124918,-1.10728,0.679747,2.96095,0.312907,-0.174395,0.486843
1721619,0.99,-1.61432,-0.53782,0.0284409,-2.09446,1.55546,1.55959,0.843072,-1.61788,-0.539879,0.0310682,-2.09191,1.55435,1.55816,0.847639,-1.09238,-0.379316,0.715168,0.0495645,-0.341647,-0.258832,1.44575,-1.16854,-0.414623,0.773444,0.0644247,-0.36632,-0.288623,1.52432,-1.28753,-20.7303,2.4552,26.4624,0.71718,-0.553685,0.310557,0.108214,-1.08795,0.653931,2.95368,0.307329,-0.177748,0.487025
1721620,0.99,-1.61547,-0.538214,0.0291905,-2.09439,1.5551,1.55929,0.844576,-1.61906,-0.540299,0.0318516,-2.09184,1.55398,1.55787,0.84918,-1.10901,-0.387058,0.718963,0.0531123,-0.344302,-0.272985,1.46246,-1.18353,-0.420463,0.783434,0.0653862,-0.369886,-0.291743,1.54104,-1.21215,-20.7819,2.47901,26.3156,0.683306,-0.333959,0.278513,0.0844537,-1.07896,0.619695,2.95082,0.302292,-0.180463,0.487223
1721621,0.99,-1.61664,-0.538626,0.0299422,-2.09435,1.55474,1.55898,0.846098,-1.62026,-0.540726,0.0326451,-2.09178,1.55361,1.55757,0.850738,-1.12766,-0.391614,0.74073,0.0498203,-0.345782,-0.282245,1.48068,-1.19852,-0.426304,0.793424,0.0663476,-0.373451,-0.294863,1.55776,-1.03362,-20.7541,2.53058,26.4148,0.62105,-0.115148,0.375559,0.0571423,-1.07604,0.58335,2.95051,0.297478,-0.182908,0.487218
1721622,0.99,-1.61784,-0.539037,0.0307122,-2.09429,1.55437,1.55869,0.847638,-1.62148,-0.541158,0.0334485,-2.09171,1.55323,1.55728,0.852312,-1.1648,-0.395605,0.743295,0.0513781,-0.346155,-0.287534,1.48311,-1.21351,-0.432145,0.803414,0.0673091,-0.377016,-0.297983,1.57448,-0.859058,-20.7025,2.55438,26.3395,0.565202,-0.0702869,0.491831,0.0319253,-1.08184,0.551037,2.95525,0.29278,-0.185517,0.486873
1721623,0.99,-1.61901,-0.539449,0.0314835,-2.09424,1.55402,1.5584,0.849179,-1.6227,-0.541596,0.0342619,-2.09164,1.55285,1.55698,0.853903,-1.176,-0.400552,0.747315,0.0540591,-0.349176,-0.284743,1.50205,-1.2285,-0.437985,0.813404,0.0682706,-0.380581,-0.301103,1.5912,-0.859058,-20.7025,2.75672,26.3395,0.558794,-0.218602,0.569651,0.0208669,-1.09938,0.539447,2.9659,0.287753,-0.189693,0.48624
1721624,0.99,-1.62022,-0.539883,0.0322506,-2.09418,1.55364,1.55812,0.850758,-1.62395,-0.54204,0.0350853,-2.09157,1.55247,1.55667,0.855511,-1.17559,-0.413277,0.755401,0.0517392,-0.356595,-0.282831,1.51684,-1.24349,-0.443826,0.823394,0.0692321,-0.384146,-0.304223,1.60792,-0.755909,-20.5796,2.93524,26.3871,0.570696,-0.379735,0.531199,0.0235515,-1.121,0.550291,2.97834,0.282071,-0.195196,0.48555
1721625,0.99,-1.62145,-0.540318,0.0330391,-2.09412,1.55327,1.55783,0.852349,-1.62521,-0.542489,0.0359186,-2.0915,1.55208,1.55636,0.857136,-1.2012,-0.422711,0.763134,0.0544972,-0.360413,-0.285141,1.54368,-1.25848,-0.449666,0.833384,0.0701935,-0.387711,-0.307343,1.62464,-0.454395,-20.4764,3.11377,26.3871,0.536821,-0.456639,0.42042,0.0309415,-1.13242,0.572082,2.98687,0.275733,-0.20072,0.485048
1721626,0.99,-1.62269,-0.540765,0.0338346,-2.09406,1.55289,1.55753,0.853957,-1.62648,-0.542945,0.036762,-2.09143,1.55169,1.55605,0.858777,-1.2063,-0.429199,0.767718,0.0580524,-0.36724,-0.286026,1.55539,-1.27347,-0.455507,0.843374,0.071155,-0.391276,-0.310463,1.64136,-0.355213,-20.3257,3.41529,26.3156,0.60457,-0.539952,0.466196,0.0419973,-1.12613,0.603069,2.98742,0.268631,-0.206324,0.484807
1721627,0.99,-1.62396,-0.541216,0.0346482,-2.094,1.5525,1.55724,0.855594,-1.62777,-0.543406,0.0376151,-2.09136,1.5513,1.55574,0.860433,-1.21619,-0.436117,0.786701,0.0589753,-0.377027,-0.289167,1.57323,-1.28808,-0.461355,0.853039,0.0721393,-0.39458,-0.313454,1.65602,-0.152882,-20.1233,3.44306,26.3156,0.706194,-0.57932,0.472605,0.0517978,-1.10438,0.635337,2.98006,0.260996,-0.211594,0.484779
1721628,0.99,-1.62522,-0.541673,0.0354718,-2.09393,1.55211,1.55693,0.857204,-1.62907,-0.543873,0.0384778,-2.09129,1.5509,1.55542,0.862104,-1.22731,-0.443257,0.793172,0.0642247,-0.384338,-0.298065,1.58393,-1.30268,-0.467204,0.862704,0.0731236,-0.397884,-0.316445,1.67067,-0.00212494,-20.1233,3.44306,26.2403,0.723589,-0.566503,0.673105,0.0519447,-1.07046,0.655372,2.96613,0.253355,-0.215495,0.484943
1721629,0.99,-1.62649,-0.542131,0.0362884,-2.09387,1.55172,1.55661,0.858858,-1.63039,-0.544346,0.0393501,-2.09121,1.5505,1.5551,0.863789,-1.23302,-0.443087,0.804855,0.063654,-0.38336,-0.307115,1.58852,-1.31728,-0.473053,0.872369,0.0741078,-0.401189,-0.319435,1.68532,-0.204456,-20.1987,3.49066,26.2403,0.757463,-0.482274,0.750925,0.0404242,-1.03185,0.659441,2.94883,0.246088,-0.21781,0.485382
1721630,0.99,-1.62777,-0.542576,0.0371339,-2.0938,1.55133,1.55628,0.860516,-1.63172,-0.544825,0.0402322,-2.09114,1.55009,1.55478,0.865489,-1.24818,-0.444564,0.809884,0.0676909,-0.383083,-0.310746,1.63856,-1.33189,-0.478901,0.882034,0.0750921,-0.404493,-0.322426,1.69998,-0.252064,-20.3772,3.44306,26.1887,0.688799,-0.340367,0.563242,0.0198749,-1.0042,0.651185,2.93532,0.239446,-0.21901,0.486283
1721631,0.99,-1.6291,-0.543042,0.038012,-2.09373,1.55094,1.55597,0.862223,-1.63307,-0.54531,0.0411239,-2.09106,1.54968,1.55446,0.867204,-1.26718,-0.445927,0.828031,0.0674307,-0.38598,-0.310714,1.65778,-1.34649,-0.48475,0.8917,0.0760764,-0.407797,-0.325417,1.71463,-0.0775034,-20.4248,3.18915,26.1411,0.547807,-0.373326,0.349924,-0.00466724,-0.999666,0.636632,2.93123,0.233544,-0.219871,0.487743
1721632,0.99,-1.63044,-0.543505,0.0388631,-2.09365,1.55054,1.55567,0.863945,-1.63443,-0.545801,0.0420252,-2.09098,1.54927,1.55413,0.868933,-1.2907,-0.458777,0.832467,0.07072,-0.390689,-0.316291,1.67309,-1.36109,-0.490598,0.901365,0.0770607,-0.411102,-0.328408,1.72929,0.0494498,-20.528,3.16138,26.0657,0.485552,-0.488683,0.16865,-0.0271478,-1.01401,0.622488,2.93493,0.228188,-0.221073,0.489567
1721633,0.99,-1.63178,-0.543981,0.0397317,-2.09357,1.55013,1.55535,0.865647,-1.6358,-0.546297,0.0429363,-2.0909,1.54886,1.5538,0.870677,-1.30845,-0.459687,0.839206,0.0743516,-0.396089,-0.320518,1.68856,-1.37569,-0.496447,0.91103,0.078045,-0.414406,-0.331399,1.74394,0.176403,-20.528,3.28833,25.9427,0.446184,-0.533544,0.0587866,-0.039885,-1.03434,0.619199,2.94003,0.222765,-0.223503,0.49131
1721634,0.99,-1.63317,-0.544463,0.040605,-2.09351,1.54973,1.55501,0.867379,-1.63719,-0.546799,0.043857,-2.09083,1.54844,1.55346,0.872436,-1.32086,-0.464514,0.847309,0.0725424,-0.397634,-0.324488,1.69419,-1.3903,-0.502296,0.920695,0.0790292,-0.41771,-0.33439,1.7586,0.454113,-20.5002,3.39148,26.0181,0.36104,-0.424596,0.0587866,-0.039606,-1.06031,0.631893,2.94603,0.216906,-0.227677,0.492439
1721635,0.99,-1.63453,-0.544948,0.0414952,-2.09344,1.54931,1.55469,0.869144,-1.6386,-0.547307,0.0447873,-2.09075,1.54802,1.55312,0.874209,-1.33718,-0.469484,0.858734,0.075849,-0.398467,-0.323878,1.70315,-1.4049,-0.508144,0.93036,0.0800135,-0.421015,-0.337381,1.77325,0.426342,-20.401,3.693,26.0181,0.406816,-0.40537,-0.0126246,-0.0298712,-1.096,0.655317,2.95562,0.210622,-0.23315,0.492535
1721636,0.99,-1.63594,-0.545444,0.042389,-2.09336,1.54889,1.55438,0.870892,-1.64002,-0.547821,0.0457273,-2.09066,1.5476,1.55278,0.875997,-1.35609,-0.477054,0.864568,0.0746627,-0.40766,-0.315819,1.71891,-1.4195,-0.513993,0.940025,0.0809978,-0.424319,-0.340372,1.78791,0.581066,-20.2741,3.99848,26.0657,0.547807,-0.57932,-0.00621587,-0.0122817,-1.13771,0.686789,2.96768,0.203839,-0.239663,0.491364
1721637,0.99,-1.63736,-0.545949,0.0433112,-2.09329,1.54846,1.55407,0.872667,-1.64145,-0.548341,0.0466764,-2.09058,1.54717,1.55244,0.877797,-1.36531,-0.481063,0.884685,0.0744471,-0.416316,-0.310744,1.73039,-1.43273,-0.519824,0.949098,0.0820043,-0.42737,-0.343234,1.80032,0.704052,-20.0956,3.79615,26.0895,0.62105,-0.759679,0.0844213,0.0103856,-1.18267,0.721831,2.98218,0.196797,-0.246892,0.488831
1721638,0.99,-1.63879,-0.546451,0.0442433,-2.09321,1.54802,1.55375,0.874436,-1.6429,-0.548867,0.0476346,-2.0905,1.54674,1.55209,0.87961,-1.39286,-0.48808,0.900145,0.0716111,-0.418205,-0.312164,1.74661,-1.44595,-0.525656,0.95817,0.0830107,-0.430421,-0.346097,1.81273,0.505688,-20.0202,3.693,26.0895,0.700701,-0.810948,0.187876,0.0316196,-1.23162,0.749465,3.00144,0.190142,-0.254064,0.485005
1721639,0.99,-1.64021,-0.546971,0.0451647,-2.09314,1.54759,1.55341,0.876248,-1.64436,-0.549398,0.0486019,-2.09042,1.5463,1.55175,0.881435,-1.39849,-0.495795,0.928343,0.0677052,-0.428109,-0.319211,1.7576,-1.45917,-0.531487,0.967243,0.0840172,-0.433472,-0.34896,1.82514,0.275585,-19.921,3.66919,26.1649,0.745561,-0.67545,0.240061,0.0435757,-1.28329,0.756101,3.02721,0.184569,-0.260143,0.480158
1721640,0.99,-1.64168,-0.547486,0.0461146,-2.09307,1.54716,1.55306,0.878081,-1.64583,-0.549936,0.0495782,-2.09033,1.54587,1.55139,0.883273,-1.44549,-0.502722,0.935476,0.0709504,-0.425028,-0.325979,1.78103,-1.47239,-0.537319,0.976315,0.0850236,-0.436523,-0.351823,1.83755,0.505688,-19.8178,3.51844,26.2403,0.666826,-0.5015,0.291331,0.0452381,-1.33315,0.739224,3.05805,0.180333,-0.264973,0.47467
1721641,0.99,-1.64315,-0.548008,0.0470546,-2.09299,1.54673,1.55272,0.879906,-1.64731,-0.550479,0.0505636,-2.09024,1.54543,1.55104,0.885123,-1.441,-0.507921,0.928429,0.0762247,-0.427597,-0.329587,1.79449,-1.48561,-0.54315,0.985387,0.0860301,-0.439574,-0.354686,1.84996,0.731823,-19.8178,3.693,26.1887,0.672319,-0.475866,0.284922,0.0503711,-1.37647,0.722347,3.08828,0.176699,-0.270489,0.468881
1721642,0.99,-1.64463,-0.548548,0.0479876,-2.09291,1.5463,1.55238,0.881749,-1.64881,-0.551028,0.051558,-2.09016,1.54499,1.55068,0.886985,-1.43877,-0.517229,0.932174,0.0786183,-0.424055,-0.330409,1.80198,-1.49884,-0.548982,0.99446,0.0870366,-0.442625,-0.357549,1.86237,0.831005,-19.7702,3.99848,26.2165,0.536821,-0.507909,0.388376,0.0641852,-1.40732,0.720934,3.11113,0.172822,-0.277287,0.463081
1721643,0.99,-1.64611,-0.549088,0.0489552,-2.09282,1.54588,1.55204,0.88359,-1.65032,-0.551583,0.0525615,-2.09007,1.54454,1.55032,0.88886,-1.45204,-0.522101,0.93857,0.0840617,-0.421144,-0.337916,1.85355,-1.51206,-0.554813,1.00353,0.088043,-0.445676,-0.360412,1.87479,0.88258,-19.6671,4.12543,26.0895,0.389421,-0.488683,0.427744,0.0796088,-1.42074,0.729332,3.12258,0.168388,-0.28408,0.457505
1721644,0.99,-1.64764,-0.549642,0.0499276,-2.09274,1.54545,1.55169,0.885466,-1.65185,-0.552143,0.0535742,-2.08998,1.54409,1.54996,0.890747,-1.46962,-0.528928,0.944039,0.0860754,-0.42237,-0.339992,1.86286,-1.52528,-0.560645,1.0126,0.0890495,-0.448727,-0.363274,1.8872,1.10871,-19.4925,4.37934,26.0419,0.321672,-0.539952,0.44697,0.0968107,-1.41831,0.746956,3.12279,0.163127,-0.290716,0.452348
1721645,0.99,-1.64918,-0.550214,0.0508931,-2.09266,1.54499,1.55135,0.887362,-1.65339,-0.55271,0.0545958,-2.08989,1.54364,1.54959,0.892646,-1.48373,-0.55069,0.953886,0.0831093,-0.433897,-0.344549,1.86293,-1.5385,-0.566476,1.02168,0.0900559,-0.451778,-0.366137,1.89961,1.31105,-19.2624,4.5539,26.0419,0.440691,-0.611364,0.375559,0.118593,-1.39424,0.775671,3.11106,0.156801,-0.297428,0.447812
1721646,0.99,-1.6507,-0.550783,0.0518882,-2.09258,1.54455,1.55099,0.88925,-1.65494,-0.553282,0.0556266,-2.0898,1.54318,1.54922,0.894559,-1.4984,-0.557309,0.956242,0.0842065,-0.444646,-0.348012,1.87332,-1.55173,-0.572308,1.03075,0.0910624,-0.454829,-0.369,1.91202,1.38642,-18.9847,4.58167,26.0181,0.536821,-0.604955,0.265696,0.145361,-1.33693,0.81452,3.08548,0.149391,-0.304144,0.444013
1721647,0.99,-1.65223,-0.55137,0.0528867,-2.09249,1.54409,1.55064,0.891187,-1.6565,-0.55386,0.0566656,-2.08971,1.54273,1.54885,0.896481,-1.49914,-0.562277,0.971035,0.0888128,-0.448221,-0.349398,1.88555,-1.56288,-0.578106,1.03906,0.0920919,-0.457641,-0.37174,1.92211,1.18409,-18.6554,4.53009,25.9903,0.711687,-0.636998,0.0780126,0.17364,-1.25296,0.857553,3.04959,0.141282,-0.310506,0.440871
1721648,0.99,-1.65375,-0.551943,0.0538955,-2.0924,1.54364,1.55029,0.89307,-1.65808,-0.554444,0.057713,-2.08961,1.54227,1.54848,0.898413,-1.5013,-0.566982,0.980562,0.0874376,-0.449105,-0.35194,1.88509,-1.57404,-0.583905,1.04738,0.0931214,-0.460452,-0.374479,1.9322,0.88258,-18.58,4.65705,25.8911,0.745561,-0.75327,0.240061,0.193214,-1.15956,0.889247,3.01046,0.133286,-0.315283,0.438098
1721649,0.99,-1.65532,-0.552521,0.0549229,-2.0923,1.54319,1.54994,0.89501,-1.65966,-0.555034,0.0587687,-2.08952,1.5418,1.5481,0.900355,-1.50085,-0.56279,0.991098,0.0908046,-0.450119,-0.351146,1.90235,-1.5852,-0.589703,1.05569,0.0941509,-0.463264,-0.377218,1.94228,0.88258,-18.5285,4.65705,25.7444,0.757463,-0.810948,0.304148,0.195575,-1.07616,0.897289,2.97706,0.126287,-0.317581,0.435371
1721650,0.99,-1.65694,-0.553099,0.0559344,-2.09221,1.54275,1.54957,0.896957,-1.66126,-0.555629,0.0598327,-2.08943,1.54134,1.54772,0.902307,-1.52827,-0.569115,0.991768,0.0924871,-0.444388,-0.369877,1.90771,-1.59636,-0.595502,1.06401,0.0951803,-0.466076,-0.379958,1.95237,1.33485,-18.5285,4.8078,25.6174,0.615556,-0.746862,0.414011,0.185525,-1.01896,0.889098,2.95594,0.120565,-0.318469,0.43257
1721651,0.99,-1.65855,-0.553697,0.0569561,-2.09211,1.5423,1.54918,0.898892,-1.66287,-0.556231,0.060905,-2.08933,1.54087,1.54734,0.90427,-1.54405,-0.571877,0.994611,0.092593,-0.441419,-0.378629,1.91714,-1.60751,-0.601301,1.07232,0.0962098,-0.468887,-0.382697,1.96246,1.86647,-18.4531,5.06171,25.542,0.480058,-0.553685,0.407602,0.179086,-0.98958,0.887882,2.947,0.115627,-0.320327,0.429787
1721652,0.99,-1.66017,-0.554288,0.0579645,-2.09202,1.54188,1.54878,0.900889,-1.66448,-0.556838,0.0619857,-2.08923,1.5404,1.54695,0.906242,-1.56147,-0.573721,0.998093,0.0896933,-0.431244,-0.379772,1.93777,-1.61867,-0.607099,1.08064,0.0972393,-0.471699,-0.385436,1.97255,2.24336,-18.5285,5.46637,25.5936,0.24843,-0.359594,0.122873,0.188365,-0.988131,0.910399,2.95093,0.110948,-0.324749,0.427165
1721653,0.99,-1.6618,-0.554879,0.0590081,-2.09193,1.54144,1.54842,0.90287,-1.66611,-0.557451,0.0630746,-2.08913,1.53992,1.54656,0.908225,-1.59658,-0.577893,1.0093,0.0906393,-0.432913,-0.374011,1.93952,-1.62983,-0.612898,1.08895,0.0982688,-0.47451,-0.388176,1.98264,2.34651,-18.6078,5.56952,25.6452,0.027788,-0.469457,0.0972387,0.219819,-1.01697,0.963129,2.96976,0.106166,-0.332368,0.424677
1721654,0.99,-1.66338,-0.555479,0.0600704,-2.09184,1.54099,1.54807,0.904827,-1.66776,-0.558069,0.0641719,-2.08903,1.53945,1.54617,0.910218,-1.59353,-0.581103,1.02184,0.0906302,-0.440873,-0.366736,1.95467,-1.64099,-0.618697,1.09727,0.0992983,-0.477322,-0.390915,1.99272,1.81489,-18.7308,5.59333,25.6174,0.0726488,-0.791722,0.149424,0.27146,-1.07192,1.03988,3.00173,0.101003,-0.342549,0.422076
1721655,0.99,-1.66499,-0.556095,0.0611587,-2.09174,1.54052,1.54772,0.90682,-1.66941,-0.558694,0.0652775,-2.08893,1.53896,1.54578,0.912221,-1.5952,-0.588698,1.04147,0.093491,-0.44651,-0.355809,1.95587,-1.65214,-0.624495,1.10558,0.100328,-0.480133,-0.393655,2.00281,1.41023,-18.7308,5.18866,25.5936,0.259416,-1.17807,0.122873,0.324396,-1.14161,1.11306,3.04137,0.0954864,-0.352545,0.419179
1721656,0.99,-1.66661,-0.556714,0.0622857,-2.09163,1.54003,1.54735,0.908818,-1.67107,-0.559324,0.0663914,-2.08883,1.53848,1.54538,0.914234,-1.59738,-0.601543,1.06348,0.097396,-0.460673,-0.361148,1.96828,-1.6633,-0.630294,1.1139,0.101357,-0.482945,-0.396394,2.0129,1.25947,-18.6316,4.45471,25.4944,0.474565,-1.22294,-0.0382593,0.355751,-1.20501,1.15074,3.07837,0.0898261,-0.359449,0.415984
1721657,0.99,-1.66826,-0.557342,0.0633971,-2.09153,1.53954,1.54693,0.910849,-1.67274,-0.55996,0.0675128,-2.08873,1.538,1.54498,0.916254,-1.60077,-0.601674,1.07256,0.0994194,-0.47035,-0.376508,1.98708,-1.67199,-0.636052,1.12138,0.102411,-0.485536,-0.399017,2.02066,1.03334,-18.4809,4.20081,25.4428,0.802324,-0.933629,-0.181082,0.354244,-1.2482,1.13782,3.10556,0.0843232,-0.362186,0.412466
1721658,0.99,-1.66991,-0.557968,0.0645144,-2.09142,1.53907,1.5465,0.912872,-1.67442,-0.560602,0.0686416,-2.08863,1.53751,1.54458,0.918283,-1.61069,-0.608298,1.09289,0.0996582,-0.473666,-0.397701,1.97884,-1.68068,-0.64181,1.12885,0.103466,-0.488127,-0.40164,2.02842,0.807201,-18.3539,3.9469,25.419,0.825212,-0.488683,-0.0904444,0.320237,-1.27742,1.07571,3.1259,0.0795261,-0.361049,0.408418
1721659,0.99,-1.67156,-0.558593,0.065649,-2.09132,1.53861,1.54607,0.914875,-1.67611,-0.56125,0.0697779,-2.08852,1.53702,1.54418,0.920319,-1.62349,-0.610056,1.10209,0.102704,-0.477902,-0.411121,1.99033,-1.68937,-0.647567,1.13633,0.10452,-0.490717,-0.404263,2.03618,0.704052,-18.4809,3.87152,25.419,0.677812,-0.205785,0.0322363,0.259903,-1.30185,0.973202,3.14388,0.0760218,-0.356559,0.403619
1721660,0.99,-1.67325,-0.559223,0.0667484,-2.09121,1.53814,1.54568,0.91691,-1.67781,-0.561903,0.0709218,-2.08842,1.53652,1.54377,0.922363,-1.63156,-0.614385,1.09956,0.103261,-0.469934,-0.401032,1.99307,-1.69806,-0.653325,1.14381,0.105574,-0.493308,-0.406886,2.04394,0.807201,-18.6078,4.22461,25.3714,0.513933,-0.443822,0.16865,0.1871,-1.32796,0.852211,3.16172,0.0737755,-0.350185,0.398029
1721661,0.99,-1.67493,-0.559864,0.0678711,-2.0911,1.53766,1.5453,0.918938,-1.67952,-0.562562,0.072073,-2.08831,1.53603,1.54336,0.924414,-1.64726,-0.625761,1.1051,0.103447,-0.474628,-0.391768,2.03825,-1.70675,-0.659083,1.15128,0.106628,-0.495899,-0.409509,2.05171,1.10871,-18.6832,4.70862,25.3199,0.378435,-0.772496,0.116465,0.119108,-1.35564,0.741265,3.17879,0.0720856,-0.344216,0.39182
1721662,0.99,-1.67665,-0.560503,0.0690106,-2.09099,1.53721,1.54487,0.921012,-1.68123,-0.563227,0.0732318,-2.0882,1.53553,1.54295,0.926474,-1.65988,-0.631327,1.1099,0.106015,-0.463779,-0.402981,2.03775,-1.71544,-0.664841,1.15876,0.107683,-0.49849,-0.412132,2.05947,1.68794,-18.707,4.98633,25.2961,0.095537,-0.740453,-0.0318506,0.0655972,-1.37685,0.655973,3.19142,0.0701464,-0.340092,0.38527
1721663,0.99,-1.67837,-0.561167,0.0701212,-2.0909,1.53674,1.54443,0.9231,-1.68296,-0.563897,0.074398,-2.08809,1.53503,1.54253,0.928541,-1.66301,-0.647958,1.10981,0.103762,-0.467768,-0.42429,2.04843,-1.72413,-0.670598,1.16624,0.108737,-0.50108,-0.414755,2.06723,1.99342,-18.58,5.44257,25.4428,0.0222948,-0.566503,-0.077627,0.0273543,-1.3818,0.598551,3.19545,0.0671887,-0.337857,0.378568
1721664,0.99,-1.68007,-0.561832,0.0712455,-2.0908,1.53623,1.544,0.925151,-1.68469,-0.564574,0.0755717,-2.08798,1.53453,1.54212,0.930616,-1.6698,-0.653908,1.10444,0.102155,-0.487679,-0.421365,2.04547,-1.73282,-0.676356,1.17371,0.109791,-0.503671,-0.417378,2.07499,2.21955,-18.4055,6.02179,25.5936,0.129411,-0.572911,-0.0648096,0.0039628,-1.36401,0.570177,3.18962,0.0625901,-0.337283,0.371708
1721665,0.99,-1.68184,-0.56252,0.0723851,-2.0907,1.53574,1.54359,0.927207,-1.68643,-0.565256,0.0767529,-2.08787,1.53402,1.5417,0.932699,-1.69161,-0.664264,1.11468,0.0999953,-0.494154,-0.415785,2.04176,-1.74151,-0.682114,1.18119,0.110845,-0.506262,-0.420001,2.08275,2.97731,-18.0762,6.2757,25.6928,0.276811,-0.798131,0.181467,-0.00111546,-1.32905,0.574879,3.17836,0.0562656,-0.338905,0.364612
1721666,0.99,-1.6836,-0.563199,0.0735267,-2.09059,1.53523,1.54319,0.929299,-1.68818,-0.565944,0.0779416,-2.08776,1.53351,1.54127,0.934789,-1.71761,-0.669211,1.12052,0.0998193,-0.498721,-0.411873,2.04779,-1.7502,-0.687872,1.18867,0.111899,-0.508853,-0.422623,2.09051,3.68348,-17.8739,6.70813,25.7166,0.451677,-1.04899,0.265696,0.0169086,-1.28744,0.614566,3.16742,0.0485836,-0.343555,0.357341
1721667,0.99,-1.68537,-0.563893,0.0746583,-2.09048,1.53473,1.54277,0.931356,-1.68994,-0.566637,0.0791369,-2.08765,1.533,1.54085,0.936885,-1.73503,-0.67139,1.11492,0.106988,-0.498245,-0.407443,2.0507,-1.75628,-0.693586,1.19529,0.11298,-0.511245,-0.425139,2.09602,4.0088,-17.6715,7.29132,25.5698,0.513933,-1.1973,0.394785,0.0646538,-1.24927,0.694969,3.15952,0.0398369,-0.352505,0.35018
1721668,0.99,-1.68714,-0.564575,0.0757908,-2.09036,1.53425,1.54232,0.933431,-1.6917,-0.567337,0.0803388,-2.08753,1.53249,1.54042,0.938987,-1.74017,-0.673986,1.127,0.109408,-0.491043,-0.419154,2.04633,-1.76237,-0.699301,1.20192,0.114061,-0.513637,-0.427654,2.10153,4.13575,-17.62,7.74359,25.3952,0.400408,-1.10026,0.641062,0.141471,-1.22259,0.814549,3.15482,0.0303477,-0.366011,0.343532
1721669,0.99,-1.68889,-0.56527,0.0769563,-2.09025,1.53375,1.54187,0.935518,-1.69347,-0.568042,0.0815474,-2.08742,1.53197,1.53999,0.941094,-1.74313,-0.672566,1.13034,0.109325,-0.493109,-0.434867,2.06251,-1.76845,-0.705015,1.20854,0.115142,-0.516029,-0.43017,2.10704,4.13575,-17.5962,7.89832,25.2961,0.339067,-0.907079,0.595286,0.233061,-1.21484,0.952517,3.15605,0.0208259,-0.381991,0.337874
1721670,0.99,-1.69066,-0.565969,0.0781375,-2.09014,1.53324,1.54145,0.937617,-1.69524,-0.568752,0.0827625,-2.0873,1.53145,1.53956,0.943207,-1.73638,-0.679047,1.16977,0.108373,-0.494101,-0.428777,2.06273,-1.77454,-0.71073,1.21517,0.116222,-0.518422,-0.432685,2.11254,3.90962,-17.5962,7.64441,25.2207,0.383928,-1.02335,0.601694,0.31547,-1.23015,1.0722,3.16755,0.012305,-0.396654,0.333676
1721671,0.99,-1.69243,-0.566669,0.0793431,-2.09002,1.53271,1.54103,0.939793,-1.69702,-0.569469,0.0839843,-2.08719,1.53093,1.53912,0.945325,-1.74497,-0.686849,1.17236,0.110663,-0.506731,-0.425874,2.09382,-1.78063,-0.716444,1.2218,0.117303,-0.520814,-0.4352,2.11805,3.88581,-17.62,7.31513,25.1453,0.536821,-1.13962,0.000192821,0.368238,-1.25871,1.1415,3.18697,0.00551463,-0.406806,0.331182
1721672,0.99,-1.69423,-0.567386,0.0805679,-2.08991,1.53221,1.54058,0.941914,-1.69881,-0.570191,0.0852127,-2.08707,1.53041,1.53869,0.947448,-1.76372,-0.695957,1.18923,0.108919,-0.502154,-0.433807,2.11264,-1.78671,-0.722159,1.22842,0.118384,-0.523206,-0.437716,2.12356,3.90962,-17.5446,6.98584,25.2207,0.406816,-1.10666,-0.394399,0.394333,-1.28647,1.16504,3.20823,0.000273202,-0.412946,0.330091
